P3
300 200
255
73 106 88
73 106 88
73 106 88
73 106 88
73 106 88
73 106 88
73 106 88
73 106 88
73 106 88
73 106 88
73 106 88
74 106 88
73 106 88
73 106 88
73 106 88
73 106 88
73 106 88
73 106 88
73 106 88
73 106 88
73 106 88
73 106 88
73 106 88
73 106 88
73 106 88
73 106 88
73 106 88
73 106 88
73 106 88
73 106 88
73 106 88
73 106 88
73 106 88
73 106 88
73 106 88
73 106 88
73 106 88
73 106 88
73 106 88
73 106 88
73 106 88
73 106 88
73 106 88
74 106 88
73 106 88
73 106 88
73 106 88
73 106 88
73 106 88
73 106 88
73 106 88
74 106 88
74 106 88
73 106 88
73 106 88
73 106 88
74 106 88
73 106 88
73 106 88
73 106 88
73 106 88
73 106 88
73 106 88
73 106 88
74 106 88
73 106 88
73 106 88
73 106 88
73 106 88
73 106 88
73 106 88
73 106 88
73 106 88
73 106 88
73 106 88
73 106 88
73 106 88
74 106 88
73 106 88
73 106 88
73 106 88
73 106 88
74 106 88
74 106 88
73 106 88
73 106 88
74 106 88
73 106 88
73 106 88
73 106 88
73 106 88
73 106 88
74 106 88
73 106 88
73 106 88
73 106 88
73 106 88
73 106 88
73 106 88
73 106 88
73 106 88
73 106 88
73 106 88
73 106 88
73 106 88
73 106 88
73 106 88
73 106 88
74 106 88
73 106 88
73 106 88
73 106 88
73 106 88
73 106 88
73 106 88
73 106 88
73 106 88
73 106 88
73 106 88
73 106 88
73 106 88
73 106 88
73 106 88
73 106 88
73 106 88
73 106 88
73 106 88
73 106 88
73 106 88
73 106 88
73 106 88
73 106 88
73 106 88
73 106 88
73 106 88
73 106 88
73 106 88
73 106 88
73 106 88
73 106 88
74 106 88
73 106 88
73 106 88
73 106 88
73 106 88
73 106 88
73 106 88
73 105 88
73 106 88
73 106 88
73 106 88
73 106 88
73 106 88
73 105 88
73 106 88
73 106 88
73 105 88
73 106 88
73 105 88
73 106 88
73 106 88
73 105 88
73 106 88
73 106 88
73 106 88
73 105 88
73 106 88
73 106 88
73 106 88
73 106 88
73 105 88
73 105 88
73 106 88
73 106 88
73 105 88
73 106 88
73 105 88
73 105 88
73 105 88
72 105 88
73 105 88
73 105 88
73 105 87
72 105 87
73 105 87
73 105 87
72 105 87
72 105 87
73 105 87
73 105 87
73 105 87
73 105 87
72 105 87
73 105 87
73 105 87
72 105 87
73 105 87
72 105 87
73 105 87
73 105 87
73 105 87
73 105 87
72 105 87
73 105 87
72 105 87
73 105 87
73 105 87
72 105 87
72 105 87
73 105 87
72 105 87
72 105 87
72 105 87
73 105 87
73 105 87
72 105 87
73 105 87
73 105 87
73 105 87
72 105 87
73 105 87
72 105 87
73 105 87
72 105 87
72 105 87
72 105 87
72 105 87
72 105 87
72 105 87
72 105 87
72 105 87
72 105 87
72 105 87
72 105 87
72 105 87
72 105 87
72 105 87
72 105 87
72 105 87
72 105 87
73 105 87
72 105 87
72 105 87
72 105 87
72 104 87
72 105 87
72 105 87
72 105 87
72 105 87
72 105 87
72 105 87
72 104 87
72 104 87
72 105 87
72 105 87
72 105 87
72 104 87
72 104 87
72 104 87
72 104 87
72 104 87
72 104 87
72 104 87
72 105 87
72 104 87
72 104 87
72 104 87
71 104 87
72 104 87
72 104 87
72 104 87
72 104 87
72 104 87
72 104 87
72 104 87
72 104 87
72 104 87
72 104 87
72 104 87
72 104 87
72 104 87
72 104 87
72 104 87
72 104 87
72 104 87
72 104 87
71 104 87
72 104 87
71 104 87
72 104 87
71 104 87
71 104 87
72 104 87
71 104 87
71 103 87
71 103 87
72 104 86
72 104 86
71 104 86
72 104 86
74 106 88
73 106 88
73 106 88
73 106 88
74 106 88
73 106 88
73 106 88
73 106 88
73 106 88
73 106 88
73 106 88
74 106 88
74 106 88
73 106 88
73 106 88
73 106 88
74 106 88
73 106 88
73 106 88
74 106 88
74 106 88
73 106 88
73 106 88
74 106 88
74 106 88
73 106 88
74 106 88
73 106 88
73 106 88
73 106 88
73 106 88
73 106 88
74 107 88
74 106 88
74 106 88
74 106 88
73 106 88
73 106 88
74 106 88
74 107 88
74 107 88
74 106 88
73 106 88
74 106 88
73 106 88
74 107 88
74 106 88
73 106 88
73 106 88
74 106 88
74 106 88
74 106 88
73 106 88
74 106 88
74 106 88
73 106 88
74 106 88
73 106 88
74 106 88
74 106 88
74 106 88
74 106 88
74 106 88
73 106 88
73 106 88
74 106 88
74 106 88
74 106 88
73 106 88
74 106 88
73 106 88
73 106 88
74 106 88
73 106 88
74 106 88
73 106 88
73 106 88
73 106 88
74 106 88
74 106 88
73 106 88
73 106 88
73 106 88
73 106 88
73 106 88
74 106 88
74 106 88
73 106 88
73 106 88
74 106 88
74 106 88
74 106 88
73 106 88
73 106 88
74 106 88
73 106 88
74 106 88
73 106 88
73 106 88
73 106 88
74 106 88
73 106 88
73 106 88
73 106 88
73 106 88
74 106 88
73 106 88
74 106 88
74 106 88
73 106 88
73 106 88
73 106 88
73 106 88
74 106 88
73 106 88
73 106 88
74 106 88
73 106 88
73 106 88
73 106 88
73 106 88
73 106 88
73 106 88
73 106 88
73 106 88
73 106 88
73 106 88
73 106 88
73 106 88
74 106 88
73 106 88
73 106 88
73 106 88
73 106 88
73 106 88
73 106 88
73 106 88
73 106 88
74 106 88
73 106 88
73 106 88
73 106 88
73 106 88
73 106 88
73 106 88
74 106 88
73 106 88
73 106 88
74 106 88
73 106 88
73 106 88
73 106 88
73 106 88
73 106 88
73 106 88
73 106 88
73 106 88
73 106 88
73 106 88
73 106 88
73 106 88
73 106 88
73 106 88
73 106 88
73 106 88
73 106 88
73 106 88
73 106 88
73 106 88
73 106 88
73 106 88
73 106 88
73 106 88
73 106 88
73 106 88
73 106 88
72 105 88
73 106 88
73 106 88
73 105 88
73 105 88
73 106 88
73 105 88
73 105 88
73 106 88
73 106 88
73 106 88
73 106 88
73 106 88
73 106 88
73 106 88
73 105 88
73 105 88
73 105 88
73 105 88
73 106 88
73 106 88
73 105 88
73 105 88
73 105 88
73 106 88
73 106 87
73 105 87
73 105 87
73 105 87
72 105 87
73 105 87
73 105 87
73 105 87
73 105 87
73 105 87
73 105 87
73 105 87
73 105 87
73 105 87
72 105 87
73 105 87
72 105 87
72 105 87
73 105 87
72 105 87
73 105 87
73 105 87
72 105 87
73 105 87
72 105 87
73 105 87
73 105 87
73 105 87
72 105 87
73 105 87
72 105 87
73 105 87
72 105 87
72 105 87
72 105 87
72 105 87
72 105 87
72 105 87
72 105 87
72 105 87
72 105 87
72 105 87
72 105 87
72 105 87
72 105 87
72 105 87
72 105 87
72 105 87
72 105 87
72 105 87
72 105 87
72 105 87
72 105 87
72 105 87
72 104 87
72 104 87
72 105 87
72 105 87
72 105 87
72 104 87
72 105 87
72 105 87
72 104 87
72 105 87
72 104 87
72 104 87
72 105 87
72 104 87
72 105 87
72 104 87
72 104 87
72 104 87
72 104 87
72 104 87
72 104 87
72 104 87
72 104 87
72 104 87
72 104 87
72 104 87
72 104 87
72 104 87
72 104 87
72 104 87
72 104 87
72 104 87
72 104 87
72 104 87
72 104 87
72 104 87
72 104 87
72 104 87
72 104 87
72 104 87
72 104 87
72 104 87
71 104 87
71 104 87
71 104 87
74 106 88
74 106 88
74 106 88
74 106 88
74 106 88
73 106 88
74 107 88
74 106 88
74 106 88
74 106 88
74 107 88
74 106 88
74 107 88
74 107 88
73 106 88
74 107 88
74 107 88
74 107 88
74 106 88
74 106 88
74 107 88
74 106 88
74 107 88
73 106 88
74 107 88
74 106 88
73 106 88
74 107 88
74 106 88
74 106 88
74 107 88
74 106 88
74 106 88
74 106 88
73 106 88
74 107 88
74 107 88
74 107 88
74 106 88
74 107 88
74 107 88
74 107 88
74 107 88
74 106 88
74 106 88
74 106 88
74 106 88
74 106 88
74 107 88
73 106 88
74 106 88
73 106 88
74 107 88
74 107 88
74 106 88
74 106 88
74 107 88
73 106 88
74 106 88
74 106 88
74 107 88
74 107 88
73 106 88
74 107 88
74 107 88
74 106 88
74 106 88
74 107 88
74 107 88
74 107 88
74 107 88
74 107 88
74 107 88
74 106 88
74 107 88
74 106 88
74 107 88
74 107 88
74 106 88
74 107 88
74 107 88
73 106 88
74 106 88
74 106 88
74 106 88
74 106 88
74 107 88
74 107 88
74 107 88
74 107 88
74 107 88
74 106 88
74 106 88
74 106 88
74 106 88
74 107 88
74 107 88
74 106 88
74 106 88
74 106 88
74 106 88
74 107 88
74 106 88
74 107 88
74 106 88
74 106 88
74 106 88
74 107 88
74 106 88
73 106 88
74 106 88
74 106 88
74 107 88
73 106 88
74 106 88
74 107 88
73 106 88
74 106 88
74 106 88
74 107 88
73 106 88
74 106 88
74 107 88
74 106 88
73 106 88
74 106 88
73 106 88
74 107 88
74 107 88
74 106 88
74 106 88
73 106 88
74 106 88
73 106 88
73 106 88
73 106 88
73 106 88
74 106 88
74 106 88
74 106 88
74 106 88
74 106 88
73 106 88
73 106 88
73 106 88
74 106 88
73 106 88
73 106 88
73 106 88
73 106 88
73 106 88
73 106 88
73 106 88
73 106 88
73 106 88
73 106 88
73 106 88
73 106 88
73 106 88
73 106 88
73 106 88
73 106 88
73 106 88
73 106 88
73 106 88
73 106 88
73 106 88
73 106 88
74 106 88
73 106 88
73 106 88
73 106 88
73 106 88
73 106 88
73 106 88
73 106 88
73 106 88
73 106 88
73 106 88
73 106 88
73 106 88
73 106 88
73 106 88
73 106 88
73 106 88
73 106 88
73 106 88
73 106 88
73 106 88
73 106 88
73 106 88
73 106 88
73 106 88
73 106 88
73 106 88
73 106 88
73 106 88
73 105 88
73 106 88
73 106 88
73 105 88
73 106 88
73 106 88
73 105 88
73 105 88
73 105 88
72 105 88
73 105 88
73 106 88
73 105 88
73 105 88
73 105 88
73 106 88
73 106 88
73 105 88
73 105 88
72 105 88
73 105 88
73 105 87
73 105 87
73 105 87
73 105 87
73 105 87
73 105 87
73 105 87
73 105 87
73 105 87
73 105 87
73 105 87
72 105 87
73 105 87
73 105 87
73 105 87
73 105 87
73 105 87
72 105 87
72 105 87
73 105 87
73 105 87
73 105 87
73 105 87
72 105 87
73 105 87
72 105 87
73 105 87
72 105 87
73 105 87
72 105 87
72 105 87
72 105 87
73 105 87
73 105 87
72 105 87
72 105 87
72 105 87
72 105 87
73 105 87
73 105 87
72 105 87
72 105 87
72 105 87
72 105 87
72 105 87
72 105 87
72 105 87
72 105 87
72 105 87
72 105 87
72 105 87
72 105 87
72 105 87
72 105 87
72 105 87
72 104 87
72 105 87
72 104 87
72 104 87
72 104 87
72 105 87
72 105 87
72 104 87
72 104 87
72 105 87
72 104 87
72 104 87
72 104 87
72 104 87
72 104 87
72 104 87
71 104 87
72 104 87
72 104 87
72 104 87
72 104 87
72 104 87
72 104 87
72 104 87
71 104 87
72 104 87
71 104 87
74 107 88
74 107 88
74 107 88
74 107 88
74 107 88
74 107 88
74 107 88
74 107 88
74 107 88
74 106 88
74 106 88
74 107 88
74 107 88
74 107 88
74 107 88
73 106 88
74 107 88
74 106 88
74 107 88
74 107 88
74 107 88
74 107 88
74 107 88
74 107 88
74 107 88
74 107 88
74 107 88
74 107 88
74 107 88
74 107 88
74 107 88
74 107 88
74 107 88
74 107 88
74 107 88
74 107 88
74 107 88
74 107 88
74 107 88
74 107 88
74 107 88
74 107 88
74 107 88
74 107 88
74 107 88
74 107 88
74 107 88
74 107 88
74 107 88
74 106 88
74 107 88
74 107 88
74 107 88
74 107 88
74 107 88
74 107 88
74 107 88
74 107 88
74 107 88
74 107 88
74 107 88
74 107 88
74 107 88
74 107 88
74 107 88
74 107 88
74 107 88
74 107 88
74 107 88
74 107 88
74 107 88
74 107 88
74 107 88
74 107 88
74 107 88
74 107 88
74 107 88
74 107 88
74 107 88
74 107 88
74 107 88
74 107 88
74 107 88
74 107 88
74 107 88
74 107 88
74 107 88
74 107 88
74 107 88
74 107 88
74 107 88
74 107 88
74 107 88
74 107 88
74 107 88
74 107 88
74 107 88
74 107 88
74 107 88
74 107 88
73 106 88
74 107 88
74 106 88
74 107 88
74 107 88
74 107 88
74 107 88
73 106 88
74 107 88
74 107 88
74 107 88
74 107 88
74 107 88
74 107 88
74 106 88
74 106 88
74 107 88
74 107 88
74 107 88
74 106 88
74 107 88
74 107 88
74 107 88
74 107 88
74 107 88
73 106 88
74 106 88
74 106 88
74 107 88
74 107 88
74 106 88
74 106 88
74 106 88
74 106 88
74 107 88
73 106 88
74 106 88
73 106 88
73 106 88
74 106 88
74 106 88
74 106 88
73 106 88
74 106 88
74 106 88
74 106 88
74 107 88
73 106 88
73 106 88
74 106 88
74 107 88
74 106 88
74 106 88
74 106 88
73 106 88
74 106 88
74 106 88
74 106 88
74 106 88
74 106 88
73 106 88
74 106 88
73 106 88
74 106 88
73 106 88
74 106 88
74 106 88
73 106 88
73 106 88
73 106 88
73 106 88
73 106 88
73 106 88
74 106 88
73 106 88
73 106 88
74 106 88
73 106 88
73 106 88
73 106 88
73 106 88
73 106 88
73 106 88
73 106 88
73 106 88
73 106 88
73 106 88
73 106 88
73 106 88
73 106 88
73 106 88
73 106 88
73 106 88
74 106 88
73 106 88
73 106 88
73 106 88
74 106 88
73 106 88
73 106 88
73 106 88
73 106 88
73 106 88
73 106 88
73 106 88
73 106 88
73 106 88
73 106 88
73 106 88
73 106 88
73 105 88
73 106 88
73 106 88
73 105 88
73 106 88
73 106 88
73 105 88
73 105 88
73 105 88
73 106 88
73 106 88
73 105 88
73 105 88
73 105 88
73 105 88
73 106 88
73 105 88
73 105 88
73 105 88
73 105 88
73 105 88
73 105 88
73 105 88
73 105 87
73 106 87
73 105 87
73 105 87
73 105 87
73 105 87
73 105 87
72 105 87
73 105 87
72 105 87
73 105 87
72 105 87
73 105 87
73 105 87
73 105 87
73 105 87
73 105 87
72 105 87
73 105 87
72 105 87
73 105 87
73 105 87
72 105 87
73 105 87
73 105 87
72 105 87
72 105 87
73 105 87
72 105 87
72 105 87
73 105 87
72 105 87
72 105 87
72 105 87
72 105 87
72 105 87
72 105 87
72 105 87
72 105 87
72 105 87
72 105 87
72 105 87
73 105 87
72 105 87
72 105 87
72 105 87
72 105 87
72 104 87
72 104 87
72 105 87
72 105 87
72 105 87
72 105 87
72 105 87
72 105 87
72 105 87
72 105 87
72 104 87
72 105 87
72 105 87
72 104 87
72 104 87
72 104 87
72 105 87
72 104 87
72 104 87
72 104 87
74 107 89
74 107 89
74 107 89
74 107 89
74 107 89
74 107 89
74 107 89
74 107 89
74 107 89
74 107 89
74 107 89
74 107 89
74 107 89
74 107 89
74 107 89
74 107 89
74 107 89
74 107 89
74 107 89
74 107 89
74 107 89
74 107 89
74 107 89
74 107 89
74 107 89
74 107 89
74 107 89
74 107 89
74 107 89
74 107 89
74 107 89
74 107 89
74 107 89
74 107 89
74 107 89
74 107 89
74 107 89
74 107 89
74 107 89
74 107 89
74 107 89
74 107 89
74 107 89
74 107 89
74 107 89
74 107 89
74 107 89
74 107 89
74 107 89
74 107 89
74 107 89
74 107 89
74 107 89
74 107 89
74 107 89
74 107 89
74 107 89
74 107 89
74 107 89
74 107 89
74 107 89
74 107 89
74 107 89
74 107 89
74 107 89
74 107 89
74 107 89
74 107 89
74 107 89
74 107 89
74 107 89
74 107 89
74 107 89
74 107 89
74 107 89
74 107 89
74 107 89
74 107 89
74 107 89
74 107 89
74 107 89
74 107 89
74 107 89
74 107 89
74 107 89
74 107 89
74 107 89
74 107 89
74 107 89
74 107 89
74 107 89
74 107 89
74 107 89
74 107 89
74 107 89
74 107 89
74 107 89
74 107 89
74 107 89
74 107 89
74 107 89
74 107 89
74 107 89
74 107 89
74 107 89
74 107 89
74 107 89
74 107 89
74 107 89
74 107 89
74 107 89
74 107 88
74 107 88
74 107 88
74 107 88
74 107 88
74 107 88
74 107 88
74 107 88
74 107 88
74 107 88
74 107 88
74 107 88
74 107 88
74 107 88
74 107 88
74 107 88
74 107 88
74 107 88
74 107 88
74 107 88
74 107 88
74 107 88
74 107 88
73 106 88
74 107 88
74 107 88
74 107 88
74 107 88
74 107 88
74 107 88
74 107 88
74 107 88
74 107 88
74 107 88
74 107 88
74 106 88
74 107 88
73 106 88
74 107 88
74 106 88
74 106 88
74 106 88
74 106 88
74 106 88
73 106 88
74 107 88
73 106 88
74 107 88
74 106 88
74 106 88
74 106 88
74 107 88
74 107 88
73 106 88
74 107 88
74 106 88
74 106 88
74 106 88
73 106 88
73 106 88
74 107 88
74 106 88
74 106 88
74 106 88
74 106 88
74 106 88
74 107 88
73 106 88
73 106 88
73 106 88
73 106 88
73 106 88
74 106 88
73 106 88
74 106 88
73 106 88
74 106 88
74 106 88
74 106 88
73 106 88
73 106 88
73 106 88
73 106 88
74 106 88
74 106 88
74 106 88
73 106 88
74 106 88
73 106 88
73 106 88
73 106 88
74 106 88
73 106 88
73 106 88
73 106 88
73 106 88
73 106 88
73 106 88
74 106 88
73 106 88
73 106 88
73 106 88
73 106 88
73 106 88
73 106 88
73 106 88
73 106 88
73 106 88
73 106 88
73 106 88
73 106 88
73 106 88
73 106 88
73 106 88
73 106 88
73 105 88
73 105 88
73 106 88
73 105 87
73 106 88
73 106 88
73 106 88
73 105 88
73 105 88
73 106 88
73 105 88
73 106 88
73 105 88
73 105 88
73 105 88
73 105 88
73 106 88
73 105 88
72 105 88
73 105 88
73 105 87
73 105 87
72 105 87
73 105 87
73 105 87
73 105 87
73 105 87
72 105 87
72 105 87
73 105 87
73 105 87
73 105 87
72 105 87
73 105 87
73 105 87
73 105 87
72 105 87
73 105 87
73 105 87
72 105 87
72 105 87
72 105 87
73 105 87
73 105 87
72 105 87
73 105 87
73 105 87
72 105 87
73 105 87
72 105 87
72 105 87
73 105 87
72 105 87
72 105 87
72 105 87
72 104 87
72 105 87
72 105 87
72 105 87
72 105 87
72 105 87
72 105 87
72 105 87
72 105 87
72 105 87
72 104 87
72 105 87
72 105 87
72 105 87
72 105 87
72 104 87
72 105 87
72 105 87
72 104 87
74 107 89
74 107 89
74 107 89
74 107 89
74 107 89
74 107 89
74 107 89
74 107 89
75 107 89
74 107 89
74 107 89
74 107 89
74 107 89
74 107 89
74 107 89
74 107 89
74 107 89
74 107 89
74 107 89
74 107 89
74 107 89
74 107 89
74 107 89
74 107 89
75 107 89
74 107 89
74 107 89
74 107 89
74 107 89
74 107 89
74 107 89
74 107 89
74 107 89
74 107 89
74 107 89
74 107 89
75 107 89
74 107 89
75 107 89
74 107 89
74 107 89
74 107 89
75 107 89
75 107 89
74 107 89
74 107 89
74 107 89
74 107 89
74 107 89
74 107 89
74 107 89
75 107 89
74 107 89
75 107 89
75 107 89
74 107 89
74 107 89
75 107 89
74 107 89
74 107 89
74 107 89
74 107 89
74 107 89
74 107 89
74 107 89
74 107 89
74 107 89
74 107 89
74 107 89
75 107 89
74 107 89
74 107 89
74 107 89
74 107 89
75 107 89
74 107 89
74 107 89
74 107 89
74 107 89
74 107 89
74 107 89
74 107 89
74 107 89
74 107 89
74 107 89
74 107 89
74 107 89
74 107 89
74 107 89
74 107 89
75 107 89
74 107 89
74 107 89
74 107 89
74 107 89
74 107 89
74 107 89
74 107 89
74 107 89
74 107 89
74 107 89
74 107 89
74 107 89
74 107 89
74 107 89
74 107 89
74 107 89
74 107 89
74 107 89
74 107 89
74 107 89
75 107 89
74 107 89
75 107 89
74 107 89
74 107 89
74 107 89
74 107 89
74 107 89
74 107 89
74 107 89
74 107 89
74 107 89
74 107 89
75 107 89
74 107 89
74 107 89
74 107 89
74 107 89
74 107 89
74 107 89
74 107 89
74 107 89
74 107 89
74 107 89
74 107 89
74 107 89
74 107 89
74 107 89
74 107 89
74 107 89
74 107 88
74 107 88
74 107 88
74 107 88
74 107 88
74 107 88
74 107 88
74 107 88
74 107 88
74 107 88
74 107 88
74 107 88
74 107 88
74 107 88
74 107 88
74 107 88
74 107 88
74 107 88
74 107 88
74 107 88
74 107 88
74 107 88
74 107 88
74 107 88
74 107 88
74 107 88
74 106 88
74 107 88
74 106 88
74 107 88
74 106 88
74 106 88
74 107 88
74 106 88
73 106 88
74 106 88
74 107 88
74 106 88
74 106 88
74 106 88
74 106 88
74 107 88
74 107 88
73 106 88
74 106 88
74 106 88
74 106 88
74 106 88
73 106 88
74 106 88
74 106 88
73 106 88
73 106 88
74 106 88
73 106 88
73 106 88
74 106 88
73 106 88
74 107 88
73 106 88
74 106 88
73 106 88
73 106 88
73 106 88
73 106 88
73 106 88
73 106 88
73 106 88
73 106 88
73 106 88
73 106 88
73 106 88
73 106 88
73 106 88
73 106 88
73 106 88
73 106 88
73 106 88
74 106 88
73 106 88
73 106 88
73 106 88
73 106 88
73 106 88
73 106 88
73 106 88
73 106 88
73 106 88
73 106 88
73 106 88
73 106 88
73 106 88
73 106 88
73 106 88
73 106 88
73 106 88
73 106 88
73 106 88
73 106 88
73 106 88
73 106 88
73 106 88
73 105 88
72 105 88
73 106 88
73 105 88
73 105 88
73 105 88
73 105 88
73 106 88
73 105 88
73 105 88
73 105 88
73 105 88
73 105 88
73 106 88
73 105 88
73 106 88
73 105 87
73 105 87
73 105 87
73 105 87
73 105 87
73 105 87
73 105 87
73 105 87
72 105 87
73 105 87
72 105 87
73 105 87
73 105 87
73 105 87
73 105 87
72 105 87
73 105 87
72 105 87
73 105 87
72 105 87
73 105 87
72 105 87
73 105 87
72 105 87
72 105 87
73 105 87
72 105 87
72 105 87
73 105 87
72 105 87
72 105 87
72 105 87
72 105 87
72 105 87
72 105 87
72 105 87
72 105 87
72 105 87
72 105 87
72 105 87
72 104 87
75 107 89
75 107 89
75 108 89
74 107 89
74 107 89
74 107 89
74 107 89
75 107 89
74 107 89
74 107 89
74 107 89
74 107 89
74 107 89
74 107 89
75 108 89
75 107 89
75 107 89
75 108 89
75 108 89
75 108 89
74 107 89
75 108 89
74 107 89
75 108 89
74 107 89
75 108 89
74 107 89
75 108 89
75 108 89
74 107 89
75 107 89
74 107 89
75 108 89
74 107 89
75 108 89
74 107 89
74 107 89
74 107 89
75 108 89
75 108 89
75 108 89
74 107 89
74 107 89
75 108 89
74 107 89
75 108 89
75 108 89
75 108 89
74 107 89
74 107 89
75 108 89
75 108 89
75 107 89
74 107 89
74 107 89
74 107 89
74 107 89
75 108 89
75 108 89
74 107 89
75 108 89
75 108 89
75 108 89
74 107 89
75 108 89
75 108 89
74 107 89
74 107 89
75 108 89
74 107 89
74 107 89
74 107 89
74 107 89
74 107 89
74 107 89
74 107 89
75 108 89
74 107 89
75 108 89
74 107 89
74 107 89
75 108 89
74 107 89
75 107 89
74 107 89
74 107 89
74 107 89
75 108 89
74 107 89
75 108 89
75 108 89
75 107 89
74 107 89
74 107 89
74 107 89
74 107 89
74 107 89
74 107 89
75 108 89
75 107 89
75 107 89
74 107 89
75 107 89
74 107 89
75 107 89
75 107 89
75 107 89
75 108 89
74 107 89
74 107 89
74 107 89
74 107 89
75 107 89
75 107 89
74 107 89
74 107 89
74 107 89
74 107 89
74 107 89
74 107 89
74 107 89
74 107 89
74 107 89
74 107 89
75 107 89
74 107 89
74 107 89
75 107 89
74 107 89
75 107 89
75 107 89
74 107 89
74 107 89
74 107 89
74 107 89
74 107 89
75 107 89
74 107 89
74 107 89
74 107 89
74 107 89
74 107 89
74 107 89
74 107 89
74 107 89
74 107 89
74 107 89
74 107 89
74 107 89
74 107 89
74 107 89
74 107 89
74 107 89
74 107 89
74 107 89
74 107 89
74 107 89
74 107 89
74 107 89
74 107 89
74 107 89
74 107 89
74 107 89
74 107 89
74 107 88
74 107 88
74 107 88
74 107 88
74 107 88
74 107 88
74 107 88
74 107 88
74 107 88
74 107 88
74 107 88
74 107 88
74 107 88
74 107 88
74 107 88
74 107 88
74 107 88
74 107 88
74 106 88
74 107 88
74 107 88
74 107 88
74 107 88
74 107 88
74 107 88
74 106 88
74 107 88
74 107 88
74 106 88
74 107 88
74 106 88
74 106 88
74 107 88
74 107 88
73 106 88
74 106 88
74 107 88
73 106 88
74 106 88
74 106 88
74 106 88
74 106 88
73 106 88
74 106 88
73 106 88
73 106 88
74 106 88
74 106 88
74 106 88
73 106 88
73 106 88
74 106 88
73 106 88
73 106 88
73 106 88
74 106 88
73 106 88
73 106 88
73 106 88
73 106 88
73 106 88
73 106 88
73 106 88
73 106 88
73 106 88
73 106 88
73 106 88
73 106 88
73 106 88
73 106 88
73 106 88
74 106 88
73 106 88
73 106 88
73 106 88
73 106 88
74 106 88
73 106 88
73 106 88
73 106 88
73 106 88
73 106 88
73 106 88
73 106 88
73 106 88
73 105 88
73 106 88
73 106 88
73 106 88
73 106 88
73 106 88
73 106 88
73 105 88
73 105 88
73 106 88
73 106 88
73 105 88
73 106 88
73 105 88
73 106 88
73 105 88
73 105 88
73 106 88
73 106 88
73 105 88
73 105 87
72 105 87
73 105 87
73 105 87
73 105 87
73 105 87
73 105 87
72 105 87
73 105 87
72 105 87
72 105 87
72 105 87
72 105 87
72 105 87
73 105 87
73 105 87
73 105 87
73 105 87
73 105 87
72 105 87
72 105 87
72 105 87
72 105 87
72 105 87
73 105 87
72 105 87
72 105 87
72 105 87
73 105 87
72 105 87
73 105 87
75 108 89
75 108 89
75 108 89
74 108 89
75 108 89
74 107 89
74 107 89
75 108 89
75 108 89
75 108 89
75 108 89
75 108 89
75 108 89
75 108 89
75 108 89
75 108 89
75 108 89
75 108 89
74 107 89
75 108 89
75 108 89
75 108 89
74 107 89
75 108 89
75 108 89
75 108 89
75 108 89
75 108 89
75 108 89
75 108 89
75 108 89
75 108 89
75 108 89
75 108 89
75 108 89
75 108 89
75 108 89
75 108 89
75 108 89
75 108 89
75 108 89
75 108 89
75 108 89
75 108 89
75 108 89
75 108 89
75 108 89
75 108 89
75 108 89
75 108 89
75 108 89
75 108 89
75 108 89
75 108 89
75 108 89
75 108 89
75 108 89
75 108 89
74 108 89
74 107 89
75 108 89
75 108 89
75 108 89
75 108 89
75 108 89
75 108 89
75 108 89
75 108 89
75 108 89
75 108 89
75 108 89
75 108 89
75 108 89
75 108 89
75 108 89
75 108 89
75 108 89
75 108 89
74 108 89
74 107 89
75 108 89
75 108 89
75 108 89
74 107 89
75 108 89
75 108 89
75 108 89
75 108 89
75 108 89
75 108 89
74 108 89
75 108 89
75 108 89
75 108 89
75 108 89
75 108 89
75 108 89
75 108 89
75 108 89
75 108 89
75 108 89
75 108 89
74 107 89
75 108 89
75 108 89
75 108 89
75 108 89
75 107 89
75 108 89
75 108 89
74 107 89
75 108 89
75 107 89
75 108 89
75 108 89
75 107 89
75 107 89
74 107 89
75 107 89
75 108 89
75 108 89
75 108 89
74 107 89
75 107 89
74 107 89
75 108 89
75 107 89
75 107 89
74 107 89
74 107 89
74 107 89
74 107 89
75 107 89
74 107 89
74 107 89
75 108 89
75 108 89
75 107 89
75 108 89
74 107 89
75 107 89
74 107 89
74 107 89
75 107 89
74 107 89
74 107 89
74 107 89
74 107 89
74 107 89
74 107 89
74 107 89
74 107 89
74 107 89
74 107 89
74 107 89
74 107 89
74 107 89
74 107 89
74 107 89
74 107 89
74 107 89
74 107 89
74 107 89
74 107 89
74 107 89
74 107 89
74 107 89
74 107 89
74 107 89
74 107 89
74 107 89
74 107 89
74 107 89
74 107 89
74 107 89
74 107 89
74 107 89
74 107 89
74 107 89
74 107 89
74 107 89
74 107 89
74 107 88
74 107 88
74 107 88
74 107 88
74 107 88
74 107 88
74 107 88
74 107 88
74 107 88
74 107 88
74 107 88
74 107 88
74 107 88
74 107 88
74 107 88
74 107 88
74 107 88
74 106 88
74 107 88
74 106 88
74 107 88
74 106 88
74 107 88
74 107 88
74 107 88
74 107 88
74 107 88
74 107 88
74 107 88
74 107 88
74 107 88
74 107 88
74 106 88
74 106 88
74 106 88
74 106 88
74 106 88
73 106 88
74 106 88
74 106 88
74 106 88
73 106 88
74 107 88
73 106 88
74 106 88
74 106 88
73 106 88
74 106 88
73 106 88
73 106 88
74 106 88
73 106 88
74 106 88
73 106 88
73 106 88
74 106 88
74 106 88
73 106 88
73 106 88
73 106 88
73 106 88
73 106 88
73 106 88
73 106 88
74 106 88
73 106 88
73 106 88
73 106 88
73 106 88
73 106 88
73 106 88
73 106 88
73 106 88
73 106 88
73 106 88
73 106 88
73 106 88
73 106 88
73 105 88
73 106 88
73 105 88
73 106 88
73 106 88
73 106 88
73 105 88
73 106 88
73 105 88
73 105 88
73 106 88
73 106 88
73 106 88
73 105 88
73 105 87
73 105 88
73 105 88
73 106 88
73 106 88
72 105 88
73 105 88
73 105 87
73 105 87
73 105 87
73 105 87
73 105 87
73 105 87
73 105 87
73 105 87
72 105 87
73 105 87
73 105 87
73 105 87
73 105 87
73 105 87
72 105 87
73 105 87
72 105 87
72 105 87
72 105 87
75 108 89
75 108 89
75 108 89
75 108 89
75 108 89
75 108 89
75 108 89
75 108 89
75 108 89
75 108 89
75 108 89
75 108 89
75 108 89
75 108 89
75 108 89
75 108 89
74 108 89
75 108 89
75 108 89
75 108 89
75 108 89
75 108 89
75 108 89
75 108 89
75 108 89
75 108 89
75 108 89
75 108 89
75 108 89
75 108 89
75 108 89
75 108 89
75 108 89
75 108 89
75 108 89
75 108 89
75 108 89
75 108 89
75 108 89
75 108 89
75 108 89
75 108 89
75 108 89
75 108 89
75 108 89
75 108 89
75 108 89
75 108 89
75 108 89
75 108 89
75 108 89
75 108 89
75 108 89
75 108 89
75 108 89
75 108 89
75 108 89
75 108 89
75 108 89
75 108 89
75 108 89
75 108 89
75 108 89
75 108 89
75 108 89
75 108 89
75 108 89
75 108 89
75 108 89
75 108 89
75 108 89
75 108 89
75 108 89
75 108 89
75 108 89
75 108 89
75 108 89
75 108 89
75 108 89
75 108 89
75 108 89
75 108 89
75 108 89
75 108 89
75 108 89
75 108 89
75 108 89
75 108 89
75 108 89
75 108 89
75 108 89
75 108 89
75 108 89
75 108 89
75 108 89
75 108 89
75 108 89
75 108 89
75 108 89
75 108 89
75 108 89
74 107 89
75 108 89
75 108 89
75 108 89
75 108 89
75 108 89
75 108 89
75 108 89
75 108 89
75 108 89
75 108 89
75 108 89
75 108 89
75 108 89
75 108 89
75 108 89
75 108 89
75 108 89
75 108 89
75 108 89
75 108 89
75 108 89
75 108 89
75 108 89
75 108 89
75 108 89
74 107 89
75 108 89
75 108 89
75 108 89
75 108 89
75 108 89
75 108 89
75 108 89
75 108 89
75 108 89
75 108 89
75 108 89
75 108 89
75 108 89
75 108 89
75 107 89
74 107 89
75 107 89
75 108 89
75 107 89
74 107 89
75 108 89
75 107 89
74 107 89
74 107 89
75 108 89
74 107 89
74 107 89
74 107 89
74 107 89
74 107 89
74 107 89
74 107 89
75 107 89
74 107 89
74 107 89
74 107 89
74 107 89
74 107 89
74 107 89
74 107 89
74 107 89
74 107 89
74 107 89
74 107 89
74 107 89
74 107 89
75 107 89
74 107 89
74 107 89
74 107 89
74 107 89
74 107 89
74 107 89
74 107 89
74 107 89
74 107 89
74 107 89
74 107 89
74 107 89
74 107 89
74 107 89
74 107 89
74 107 89
74 107 89
74 107 89
74 107 89
74 107 89
74 107 89
74 107 89
74 107 88
74 107 88
74 107 88
74 107 88
74 107 88
74 107 88
74 107 88
74 107 88
74 107 88
74 107 88
74 107 88
74 107 88
74 106 88
74 107 88
74 107 88
74 107 88
74 107 88
74 106 88
74 107 88
73 106 88
74 106 88
74 106 88
74 107 88
74 107 88
74 107 88
74 106 88
73 106 88
73 106 88
74 107 88
74 106 88
73 106 88
74 107 88
74 106 88
74 106 88
73 106 88
74 106 88
73 106 88
73 106 88
73 106 88
74 106 88
74 106 88
74 106 88
73 106 88
73 106 88
73 106 88
73 106 88
73 106 88
74 106 88
73 106 88
73 106 88
73 106 88
74 106 88
73 106 88
74 106 88
73 106 88
73 106 88
73 106 88
73 106 88
73 106 88
73 106 88
73 106 88
73 106 88
73 106 88
73 106 88
73 106 88
73 106 88
73 106 88
73 106 88
73 106 88
73 106 88
73 106 88
73 105 88
73 106 88
73 106 88
73 106 88
73 106 88
73 106 88
73 106 88
73 106 88
73 105 88
73 106 88
73 106 88
73 105 88
73 105 88
73 106 88
73 105 88
73 106 88
73 105 88
73 106 88
73 106 88
73 105 88
73 105 88
73 105 88
73 105 88
73 105 87
73 105 87
73 105 87
73 106 87
72 105 87
73 105 87
73 105 87
73 105 87
73 105 87
75 108 89
75 108 89
75 108 89
75 108 89
75 108 89
75 108 89
75 108 89
75 108 89
75 108 89
75 108 89
75 108 89
75 108 89
75 108 89
75 108 89
75 108 89
75 108 89
75 108 89
75 108 89
75 108 89
75 108 89
75 108 89
75 108 89
75 108 89
75 108 89
75 108 89
75 108 89
75 108 89
75 108 89
75 108 89
75 108 89
75 108 89
75 108 89
75 108 89
75 108 89
75 108 89
75 108 89
75 108 89
75 108 89
75 108 89
75 108 89
75 108 89
75 108 89
75 108 89
75 108 89
75 108 89
75 108 89
75 108 89
75 108 89
76 108 89
75 108 89
75 108 89
75 108 89
75 108 89
75 108 89
75 108 89
75 108 89
75 108 89
75 108 89
75 108 89
75 108 89
75 108 89
75 108 89
75 108 89
75 108 89
75 108 89
75 108 89
75 108 89
75 108 89
75 108 89
75 108 89
75 108 89
75 108 89
75 108 89
75 108 89
75 108 89
75 108 89
75 108 89
75 108 89
75 108 89
75 108 89
75 108 89
75 108 89
75 108 89
75 108 89
75 108 89
75 108 89
75 108 89
75 108 89
75 108 89
75 108 89
75 108 89
75 108 89
75 108 89
75 108 89
75 108 89
75 108 89
75 108 89
75 108 89
75 108 89
75 108 89
75 108 89
75 108 89
75 108 89
75 108 89
75 108 89
75 108 89
75 108 89
75 108 89
75 108 89
75 108 89
75 108 89
75 108 89
75 108 89
75 108 89
75 108 89
75 108 89
75 108 89
75 108 89
75 108 89
75 108 89
75 108 89
75 108 89
75 108 89
75 108 89
75 108 89
75 108 89
75 108 89
75 108 89
75 108 89
75 108 89
75 108 89
75 108 89
75 108 89
75 108 89
75 108 89
75 108 89
75 108 89
75 108 89
75 108 89
75 108 89
75 108 89
75 108 89
75 108 89
75 108 89
75 108 89
75 108 89
75 108 89
75 108 89
75 108 89
75 108 89
75 108 89
75 108 89
75 108 89
74 107 89
75 108 89
75 108 89
74 107 89
75 108 89
75 108 89
75 108 89
75 108 89
75 108 89
75 108 89
74 107 89
75 108 89
75 107 89
75 108 89
75 107 89
75 108 89
74 107 89
75 107 89
75 107 89
75 107 89
74 107 89
75 107 89
74 107 89
74 107 89
75 107 89
74 107 89
74 107 89
75 107 89
75 108 89
74 107 89
74 107 89
74 107 89
75 107 89
74 107 89
74 107 89
74 107 89
74 107 89
75 107 89
74 107 89
75 107 89
74 107 89
74 107 89
74 107 89
74 107 89
74 107 89
74 107 89
74 107 89
74 107 89
74 107 89
74 107 89
74 107 89
74 107 89
74 107 89
74 107 89
74 107 89
74 107 89
74 107 89
74 107 89
74 107 88
74 107 88
74 107 88
74 107 88
74 107 88
74 107 88
74 107 88
74 107 88
74 107 88
74 107 88
74 107 88
74 106 88
74 107 88
74 107 88
74 107 88
74 107 88
74 107 88
74 107 88
74 107 88
74 106 88
74 106 88
74 107 88
74 107 88
74 107 88
73 106 88
74 106 88
74 107 88
74 106 88
74 106 88
73 106 88
74 106 88
74 106 88
73 106 88
73 106 88
74 106 88
74 107 88
73 106 88
73 106 88
74 106 88
74 106 88
73 106 88
73 106 88
74 106 88
73 106 88
73 106 88
73 106 88
73 106 88
74 106 88
73 106 88
74 106 88
74 106 88
73 106 88
73 106 88
73 106 88
73 106 88
73 106 88
73 106 88
73 106 88
73 106 88
73 106 88
73 106 88
73 106 88
73 106 88
73 106 88
73 106 88
73 106 88
73 106 88
73 106 88
73 106 88
73 106 88
73 106 88
73 106 88
73 106 88
73 106 88
73 106 88
73 106 88
73 106 88
73 105 88
73 106 88
73 105 88
73 105 88
73 106 88
73 106 88
73 105 88
73 105 88
73 105 88
73 105 88
73 105 88
72 105 88
75 108 90
75 108 90
75 108 90
75 108 90
76 109 90
75 108 90
75 108 90
75 108 90
75 108 90
75 109 90
75 109 90
75 109 90
75 108 90
75 108 90
75 108 90
75 108 90
75 108 90
75 108 90
76 109 90
75 108 90
75 108 90
75 108 90
75 108 90
76 109 90
75 109 90
75 108 90
75 108 90
75 108 90
76 109 90
75 109 90
75 109 90
75 108 90
75 108 90
76 109 90
75 108 90
75 108 90
75 108 90
75 109 90
75 109 90
75 108 90
75 108 90
75 108 90
76 109 90
75 108 90
75 108 90
75 108 90
75 108 90
75 108 90
76 109 90
75 109 90
75 108 90
75 109 90
75 108 90
75 108 90
75 108 90
76 109 90
75 108 90
75 108 90
75 108 90
76 109 90
75 108 90
76 109 90
75 108 90
76 109 90
76 109 90
75 108 90
75 108 90
75 108 90
76 109 90
75 108 90
76 109 90
76 109 90
75 109 90
75 108 90
76 109 90
75 108 90
75 108 90
75 108 90
75 109 90
75 108 90
75 108 90
75 108 90
75 108 90
75 108 90
75 108 90
75 108 90
76 109 90
75 108 90
75 108 90
75 109 90
75 108 90
75 108 90
75 108 90
75 108 90
75 108 90
76 109 90
75 108 90
75 108 90
75 108 89
75 108 89
75 108 89
75 108 89
75 108 89
75 108 89
75 108 89
75 108 89
75 108 89
75 108 89
75 108 89
75 108 89
75 108 89
75 108 89
75 108 89
75 108 89
75 108 89
75 108 89
75 108 89
75 108 89
75 108 89
76 108 89
75 108 89
75 108 89
75 108 89
75 108 89
75 108 89
75 108 89
75 108 89
75 108 89
75 108 89
75 108 89
75 108 89
75 108 89
75 108 89
75 108 89
75 108 89
75 108 89
75 108 89
75 108 89
75 108 89
75 108 89
75 108 89
75 108 89
75 108 89
75 108 89
75 108 89
75 108 89
74 108 89
75 108 89
75 108 89
75 108 89
75 108 89
75 108 89
75 108 89
75 108 89
75 108 89
75 108 89
75 108 89
74 107 89
75 108 89
75 108 89
75 108 89
75 108 89
75 108 89
74 108 89
75 108 89
75 108 89
75 108 89
75 108 89
75 108 89
74 107 89
74 107 89
75 108 89
74 107 89
74 108 89
75 108 89
75 108 89
74 107 89
74 107 89
75 108 89
75 108 89
75 107 89
74 107 89
75 108 89
74 107 89
75 107 89
75 108 89
75 107 89
74 107 89
74 107 89
74 107 89
75 107 89
75 107 89
74 107 89
74 107 89
75 108 89
75 107 89
75 108 89
74 107 89
74 107 89
74 107 89
75 107 89
75 107 89
74 107 89
75 107 89
74 107 89
74 107 89
74 107 89
74 107 89
74 107 89
74 107 89
74 107 89
74 107 89
74 107 89
74 107 89
74 107 89
74 107 89
74 107 89
74 107 89
74 107 89
74 107 89
74 107 88
74 107 89
74 107 89
74 107 89
74 107 88
74 107 88
74 107 88
74 107 88
74 107 88
74 107 88
74 107 88
74 107 88
74 107 88
74 107 88
74 107 88
74 107 88
74 107 88
74 107 88
74 107 88
74 107 88
74 107 88
74 107 88
74 106 88
74 107 88
74 107 88
74 107 88
74 106 88
74 107 88
74 107 88
74 106 88
74 106 88
74 106 88
74 106 88
74 106 88
74 107 88
73 106 88
73 106 88
73 106 88
73 106 88
73 106 88
74 106 88
74 106 88
74 106 88
74 106 88
74 106 88
73 106 88
73 106 88
73 106 88
74 106 88
73 106 88
73 106 88
73 106 88
73 106 88
74 106 88
73 106 88
73 106 88
73 106 88
73 106 88
73 106 88
73 106 88
73 106 88
73 106 88
74 106 88
73 106 88
73 106 88
73 106 88
73 106 88
73 106 88
73 106 88
73 106 88
73 106 88
73 106 88
73 106 88
73 106 88
73 106 88
73 106 88
73 106 88
73 106 88
73 106 88
73 106 88
76 109 90
76 109 90
75 108 90
76 109 90
75 108 90
75 108 90
75 109 90
76 109 90
75 109 90
76 109 90
75 109 90
75 109 90
76 109 90
76 109 90
76 109 90
76 109 90
76 109 90
75 109 90
75 109 90
76 109 90
75 109 90
76 109 90
76 109 90
75 109 90
76 109 90
76 109 90
75 109 90
76 109 90
76 109 90
76 109 90
76 109 90
76 109 90
76 109 90
76 109 90
76 109 90
75 109 90
76 109 90
76 109 90
76 109 90
76 109 90
76 109 90
76 109 90
76 109 90
75 109 90
75 109 90
76 109 90
76 109 90
76 109 90
76 109 90
75 109 90
76 109 90
75 108 90
76 109 90
75 109 90
75 109 90
75 109 90
75 109 90
76 109 90
76 109 90
76 109 90
76 109 90
75 109 90
75 109 90
76 109 90
76 109 90
76 109 90
76 109 90
76 109 90
75 109 90
76 109 90
76 109 90
75 109 90
76 109 90
76 109 90
75 109 90
76 109 90
75 109 90
75 108 90
75 109 90
76 109 90
75 109 90
76 109 90
75 109 90
76 109 90
76 109 90
76 109 90
76 109 90
75 109 90
75 109 90
75 109 90
76 109 90
75 108 90
75 109 90
76 109 90
76 109 90
76 109 90
75 109 90
75 109 90
75 108 90
76 109 90
75 108 90
75 108 90
76 109 90
75 109 90
75 108 90
75 108 90
76 109 90
75 108 90
75 108 90
76 109 90
75 108 90
76 109 90
75 108 90
75 108 90
75 108 90
76 109 90
75 109 90
75 108 90
75 109 90
75 108 90
76 109 90
75 108 90
76 109 90
75 108 90
75 108 90
75 109 90
75 108 90
75 108 90
75 108 89
75 108 89
75 108 89
75 108 89
75 108 89
75 108 89
75 108 89
75 108 89
75 108 89
75 108 89
75 108 89
75 108 89
75 108 89
75 108 89
75 108 89
75 108 89
75 108 89
75 108 89
75 108 89
75 108 89
75 108 89
75 108 89
75 108 89
75 108 89
75 108 89
75 108 89
75 108 89
75 108 89
75 108 89
75 108 89
75 108 89
75 108 89
75 108 89
75 108 89
75 108 89
75 108 89
75 108 89
75 108 89
74 108 89
75 108 89
75 108 89
75 108 89
75 108 89
75 108 89
75 108 89
75 108 89
75 108 89
75 108 89
75 108 89
75 108 89
75 108 89
75 108 89
75 108 89
75 108 89
74 107 89
75 108 89
74 107 89
75 108 89
75 108 89
75 108 89
75 108 89
75 108 89
75 108 89
75 108 89
75 108 89
74 107 89
75 108 89
75 108 89
75 108 89
74 107 89
74 107 89
75 107 89
75 107 89
74 107 89
74 107 89
74 107 89
74 107 89
75 107 89
74 107 89
74 107 89
74 107 89
74 107 89
74 107 89
74 107 89
74 107 89
74 107 89
75 107 89
74 107 89
74 107 89
74 107 89
74 107 89
74 107 89
74 107 89
74 107 89
74 107 89
74 107 89
74 107 89
74 107 89
74 107 89
74 107 89
74 107 89
74 107 89
74 107 89
74 107 89
74 107 89
74 107 89
74 107 89
74 107 89
74 107 88
74 107 88
74 107 88
74 107 88
74 107 88
74 107 88
74 107 88
74 107 88
74 107 88
74 107 88
74 107 88
74 107 88
74 107 88
74 107 88
74 107 88
73 106 88
74 106 88
74 107 88
74 107 88
74 107 88
74 107 88
74 107 88
74 107 88
74 107 88
74 107 88
73 106 88
73 106 88
74 106 88
73 106 88
74 106 88
73 106 88
73 106 88
74 106 88
74 106 88
74 106 88
73 106 88
73 106 88
74 106 88
74 106 88
73 106 88
73 106 88
74 106 88
74 106 88
73 106 88
73 106 88
73 106 88
73 106 88
73 106 88
73 106 88
74 106 88
73 106 88
73 106 88
73 106 88
73 106 88
73 106 88
73 106 88
73 106 88
73 106 88
73 106 88
73 106 88
73 106 88
73 106 88
73 106 88
73 106 88
76 109 90
76 109 90
76 109 90
76 109 90
76 109 90
76 109 90
76 109 90
76 109 90
76 109 90
76 109 90
76 109 90
76 109 90
76 109 90
76 109 90
76 109 90
75 109 90
76 109 90
76 109 90
76 109 90
76 109 90
76 109 90
76 109 90
76 109 90
76 109 90
76 109 90
76 109 90
76 109 90
76 109 90
76 109 90
76 109 90
76 109 90
75 109 90
76 109 90
76 109 90
76 109 90
76 109 90
75 109 90
76 109 90
76 109 90
76 109 90
76 109 90
76 109 90
76 109 90
76 109 90
76 109 90
76 109 90
76 109 90
76 109 90
76 109 90
76 109 90
75 109 90
76 109 90
76 109 90
76 109 90
76 109 90
76 109 90
76 109 90
76 109 90
76 109 90
76 109 90
76 109 90
75 109 90
76 109 90
76 109 90
76 109 90
76 109 90
76 109 90
76 109 90
76 109 90
76 109 90
76 109 90
76 109 90
76 109 90
76 109 90
75 109 90
76 109 90
76 109 90
76 109 90
76 109 90
76 109 90
76 109 90
76 109 90
76 109 90
75 109 90
76 109 90
76 109 90
76 109 90
76 109 90
76 109 90
76 109 90
76 109 90
76 109 90
76 109 90
76 109 90
76 109 90
76 109 90
76 109 90
76 109 90
76 109 90
75 109 90
76 109 90
76 109 90
76 109 90
75 109 90
76 109 90
76 109 90
75 109 90
75 109 90
76 109 90
76 109 90
75 109 90
75 109 90
75 109 90
76 109 90
75 109 90
76 109 90
75 109 90
76 109 90
75 109 90
75 109 90
76 109 90
75 108 90
75 109 90
75 109 90
75 108 90
75 109 90
75 108 89
76 109 90
75 109 90
75 108 90
75 109 90
75 108 90
75 108 90
75 108 90
75 108 90
75 109 90
75 108 90
75 108 90
75 109 90
76 109 90
75 108 90
75 108 90
75 108 90
75 109 90
76 109 90
75 108 90
75 108 90
76 109 90
76 109 89
75 108 89
75 108 89
75 108 89
75 108 89
75 108 89
76 109 89
75 108 89
75 108 89
75 108 89
75 108 89
75 108 89
76 109 89
75 108 89
75 108 89
75 108 89
75 108 89
75 108 89
75 108 89
75 108 89
75 108 89
75 108 89
75 108 89
75 108 89
75 108 89
75 108 89
75 108 89
75 108 89
75 108 89
75 108 89
75 108 89
75 108 89
75 108 89
75 108 89
75 108 89
74 107 89
75 108 89
75 108 89
75 108 89
74 108 89
75 108 89
75 108 89
75 108 89
75 108 89
75 108 89
75 108 89
75 108 89
75 108 89
75 108 89
75 108 89
75 108 89
75 108 89
74 107 89
75 108 89
75 108 89
75 108 89
75 108 89
74 107 89
75 108 89
75 108 89
75 108 89
75 107 89
75 107 89
75 107 89
74 107 89
74 107 89
74 107 89
74 107 89
75 108 89
75 107 89
74 107 89
74 107 89
75 107 89
74 107 89
74 107 89
75 107 89
75 108 89
74 107 89
74 107 89
74 107 89
74 107 89
74 107 89
74 107 89
74 107 89
74 107 89
74 107 89
74 107 89
74 107 89
74 107 89
74 107 89
74 107 89
74 107 89
74 107 89
74 107 89
74 107 89
74 107 89
74 107 89
74 107 89
74 107 89
74 107 88
74 107 88
74 107 88
74 107 88
74 107 88
74 107 88
74 107 88
74 107 88
74 107 88
74 107 88
74 107 88
74 107 88
74 107 88
74 107 88
74 107 88
74 106 88
74 107 88
74 107 88
74 107 88
74 106 88
73 106 88
74 107 88
74 106 88
74 106 88
74 107 88
74 107 88
73 106 88
74 106 88
74 107 88
74 106 88
73 106 88
74 106 88
74 106 88
74 106 88
74 107 88
73 106 88
74 106 88
73 106 88
73 106 88
73 106 88
74 106 88
73 106 88
73 106 88
73 106 88
74 106 88
73 106 88
73 106 88
73 106 88
73 106 88
74 106 88
73 106 88
74 106 88
73 106 88
76 109 90
76 109 90
76 109 90
76 109 90
76 109 90
76 109 90
76 109 90
76 109 90
76 109 90
76 109 90
76 109 90
76 109 90
76 109 90
76 109 90
76 109 90
76 109 90
76 109 90
76 109 90
76 109 90
76 109 90
76 109 90
76 109 90
76 109 90
76 109 90
76 109 90
76 109 90
76 109 90
76 109 90
76 109 90
76 109 90
76 109 90
76 109 90
76 109 90
76 109 90
76 109 90
76 109 90
76 109 90
76 109 90
76 109 90
76 109 90
76 109 90
76 109 90
76 109 90
76 109 90
76 109 90
76 109 90
76 109 90
76 109 90
76 109 90
76 109 90
76 109 90
76 109 90
76 109 90
76 109 90
76 110 90
76 109 90
76 109 90
76 109 90
76 109 90
76 109 90
76 109 90
76 109 90
76 109 90
76 109 90
76 109 90
76 109 90
76 109 90
76 109 90
76 109 90
76 109 90
76 109 90
76 109 90
76 109 90
76 109 90
76 109 90
76 109 90
76 109 90
76 109 90
76 109 90
76 109 90
76 109 90
76 109 90
76 109 90
76 109 90
76 109 90
76 109 90
76 109 90
76 109 90
76 109 90
76 109 90
76 109 90
76 109 90
76 109 90
76 109 90
76 109 90
76 109 90
76 109 90
76 109 90
76 109 90
76 109 90
76 109 90
76 109 90
76 109 90
76 109 90
76 109 90
76 109 90
76 109 90
76 109 90
76 109 90
76 109 90
76 109 90
76 109 90
75 109 90
76 109 90
76 109 90
76 109 90
76 109 90
76 109 90
76 109 90
76 109 90
76 109 90
76 109 90
76 109 90
76 109 90
75 109 90
76 109 90
76 109 90
75 109 90
76 109 90
76 109 90
76 109 90
76 109 90
75 108 90
76 109 90
76 109 90
75 109 90
75 109 90
76 109 90
76 109 90
76 109 90
75 109 90
75 109 90
75 109 90
76 109 90
76 109 90
76 109 90
76 109 90
75 108 90
75 108 90
76 109 90
75 108 90
75 109 90
75 109 90
75 108 90
75 109 90
75 109 90
75 109 90
75 108 90
75 109 90
75 109 90
75 108 90
75 108 90
75 108 90
75 108 90
75 108 90
75 108 90
75 108 89
75 108 89
75 108 89
75 108 89
75 108 89
75 108 89
75 108 89
75 108 89
75 108 89
75 108 89
75 108 89
75 108 89
75 108 89
75 108 89
75 108 89
75 108 89
75 108 89
75 108 89
75 108 89
75 108 89
75 108 89
75 108 89
75 108 89
75 108 89
75 108 89
75 108 89
75 108 89
75 108 89
75 108 89
75 108 89
75 108 89
75 108 89
75 108 89
75 108 89
75 108 89
75 108 89
75 108 89
75 108 89
75 108 89
75 108 89
75 108 89
75 108 89
75 108 89
75 108 89
75 108 89
75 108 89
75 108 89
75 108 89
75 108 89
75 108 89
75 108 89
74 107 89
75 108 89
75 108 89
75 108 89
75 107 89
74 107 89
74 107 89
75 108 89
74 107 89
74 107 89
75 107 89
75 107 89
74 107 89
74 107 89
74 107 89
74 107 89
74 107 89
75 107 89
74 107 89
74 107 89
74 107 89
74 107 89
74 107 89
74 107 89
74 107 89
74 107 89
74 107 89
75 107 89
74 107 89
74 107 89
74 107 89
74 107 89
74 107 89
74 107 89
74 107 89
74 107 89
74 107 89
74 107 89
74 107 89
74 107 89
74 107 89
74 107 88
74 107 88
74 107 88
74 107 88
74 107 88
74 107 88
74 107 88
74 107 88
74 107 88
74 107 88
73 106 88
74 107 88
74 107 88
74 107 88
74 107 88
74 107 88
74 106 88
74 107 88
74 106 88
74 107 88
74 107 88
74 106 88
74 106 88
74 107 88
73 106 88
74 106 88
73 106 88
74 106 88
73 106 88
73 106 88
74 106 88
74 106 88
74 106 88
73 106 88
74 106 88
74 106 88
73 106 88
74 106 88
73 106 88
73 106 88
73 106 88
74 106 88
76 109 90
76 109 90
76 109 90
76 109 90
76 109 90
76 109 90
76 109 90
76 109 90
76 109 90
76 109 90
76 109 90
76 109 90
76 109 90
76 109 90
76 110 90
76 109 90
76 109 90
76 109 90
76 109 90
76 109 90
76 110 90
76 110 90
76 109 90
76 109 90
76 110 90
76 109 90
76 109 90
76 109 90
76 109 90
76 110 90
76 110 90
76 110 90
76 109 90
76 110 90
76 110 90
76 110 90
76 109 90
76 109 90
76 109 90
76 109 90
76 110 90
76 109 90
76 110 90
76 110 90
76 110 90
77 110 90
76 109 90
76 109 90
76 109 90
76 109 90
76 110 90
76 109 90
76 110 90
76 110 90
76 109 90
76 109 90
76 109 90
76 109 90
76 110 90
76 109 90
76 109 90
76 109 90
76 110 90
76 110 90
76 110 90
76 109 90
76 110 90
76 110 90
76 110 90
76 109 90
76 109 90
76 109 90
76 110 90
76 109 90
76 109 90
76 109 90
76 109 90
76 109 90
76 109 90
76 110 90
76 109 90
76 109 90
76 109 90
76 109 90
76 109 90
76 109 90
76 109 90
76 110 90
76 109 90
76 109 90
76 110 90
76 109 90
76 109 90
76 109 90
76 109 90
76 109 90
76 109 90
76 109 90
76 109 90
76 110 90
76 109 90
76 109 90
76 109 90
76 109 90
76 109 90
76 109 90
76 109 90
76 109 90
76 109 90
76 109 90
76 109 90
76 110 90
76 109 90
76 109 90
76 109 90
76 109 90
76 109 90
76 109 90
76 109 90
76 109 90
76 109 90
76 109 90
76 109 90
76 109 90
76 109 90
76 109 90
75 109 90
76 109 90
76 109 90
76 109 90
76 109 90
76 109 90
75 109 90
76 109 90
76 109 90
76 109 90
76 109 90
76 109 90
75 109 90
76 109 90
76 109 90
76 109 90
76 109 90
76 109 90
76 109 90
76 109 90
76 109 90
76 109 90
76 109 90
76 109 90
76 109 90
76 109 90
75 109 90
76 109 90
75 108 90
75 109 90
76 109 90
75 109 90
76 109 90
76 109 90
76 109 90
75 109 90
76 109 90
76 109 90
76 109 90
75 108 90
75 108 90
75 108 90
75 108 90
75 108 89
75 108 90
75 108 90
75 108 90
75 108 90
75 108 90
76 109 90
75 108 90
75 109 90
75 108 90
75 108 90
75 108 89
75 108 89
75 108 89
75 108 89
75 108 89
75 108 89
75 108 89
75 108 89
75 108 89
75 108 89
75 108 89
75 108 89
75 108 89
75 108 89
75 108 89
75 108 89
75 108 89
75 108 89
75 108 89
75 108 89
75 108 89
75 108 89
75 108 89
75 108 89
75 108 89
75 108 89
75 108 89
75 108 89
75 108 89
75 108 89
75 108 89
75 108 89
75 108 89
75 108 89
75 108 89
75 108 89
75 108 89
75 108 89
75 108 89
75 108 89
74 108 89
75 108 89
75 108 89
75 108 89
75 108 89
75 108 89
75 108 89
75 108 89
74 107 89
74 107 89
75 108 89
75 108 89
75 108 89
74 107 89
75 108 89
74 107 89
75 108 89
74 107 89
74 107 89
74 107 89
75 107 89
74 107 89
74 107 89
75 107 89
74 107 89
74 107 89
74 107 89
74 107 89
74 107 89
74 107 89
74 107 89
74 107 89
74 107 89
74 107 89
74 107 89
74 107 89
74 107 89
74 107 89
74 107 89
74 107 89
74 107 89
74 107 89
74 107 89
74 107 88
74 107 89
74 107 89
74 107 89
74 107 88
74 107 88
74 107 88
74 107 88
74 107 88
74 107 88
74 107 88
74 107 88
74 107 88
74 107 88
74 106 88
74 107 88
74 107 88
74 107 88
74 107 88
74 106 88
74 107 88
74 107 88
74 106 88
74 106 88
74 106 88
74 106 88
74 106 88
74 106 88
73 106 88
73 106 88
73 106 88
73 106 88
74 107 88
74 106 88
74 106 88
73 106 88
74 106 88
77 110 90
76 110 90
76 110 90
77 110 90
76 110 90
76 110 90
76 110 90
76 110 90
76 110 90
76 110 90
76 110 90
76 110 90
76 110 90
77 110 90
77 110 90
76 110 90
76 110 90
76 110 90
76 110 90
76 109 90
77 110 90
76 110 90
76 110 90
76 110 90
76 110 90
77 110 90
76 110 90
76 110 90
77 110 90
77 110 90
76 110 90
76 110 90
76 110 90
76 110 90
76 110 90
77 110 90
76 110 90
76 110 90
76 110 90
77 110 90
76 110 90
77 110 90
76 110 90
76 110 90
76 110 90
76 109 90
76 110 90
76 110 90
76 110 90
76 110 90
77 110 90
76 110 90
77 110 90
76 110 90
77 110 90
76 110 90
76 110 90
77 110 90
76 110 90
76 110 90
76 110 90
77 110 90
76 110 90
77 110 90
76 110 90
76 110 90
76 110 90
76 110 90
76 110 90
76 110 90
77 110 90
76 110 90
76 110 90
76 110 90
76 110 90
76 110 90
76 110 90
76 110 90
76 110 90
76 109 90
77 110 90
76 110 90
76 110 90
76 110 90
76 110 90
76 109 90
77 110 90
76 110 90
76 109 90
76 110 90
76 109 90
76 110 90
76 110 90
76 110 90
76 109 90
76 110 90
76 110 90
76 110 90
76 110 90
76 110 90
76 109 90
76 110 90
76 109 90
76 110 90
76 109 90
76 109 90
76 110 90
76 109 90
76 109 90
76 110 90
76 110 90
76 109 90
76 109 90
76 110 90
76 109 90
76 110 90
76 109 90
76 109 90
76 109 90
76 109 90
76 109 90
76 109 90
76 109 90
76 109 90
76 109 90
76 109 90
76 109 90
76 109 90
76 109 90
76 109 90
76 109 90
76 109 90
76 109 90
76 109 90
76 109 90
76 109 90
76 109 90
76 109 90
76 109 90
76 109 90
76 109 90
76 109 90
76 109 90
76 109 90
76 109 90
76 109 90
76 109 90
76 109 90
75 109 90
76 109 90
76 109 90
76 109 90
76 109 90
76 109 90
76 109 90
76 109 90
76 109 90
76 109 90
76 109 90
76 109 90
76 109 90
75 109 90
75 109 90
76 109 90
76 109 90
76 109 90
75 109 90
76 109 90
76 109 90
76 109 90
76 109 90
75 109 90
76 109 90
75 109 90
76 109 90
76 109 90
76 109 90
75 109 90
75 108 90
76 109 90
75 109 90
75 109 90
75 109 90
75 109 90
75 109 90
76 109 90
75 108 90
75 109 90
76 109 90
76 109 90
75 108 90
75 108 90
76 109 90
75 108 89
75 108 89
75 108 89
75 108 89
75 108 89
75 108 89
75 108 89
75 108 89
75 108 89
75 108 89
75 108 89
75 108 89
75 108 89
75 108 89
75 108 89
75 108 89
75 108 89
75 108 89
75 108 89
75 108 89
75 108 89
75 108 89
75 108 89
75 108 89
75 108 89
75 108 89
75 108 89
75 108 89
75 108 89
75 108 89
75 108 89
75 108 89
75 108 89
75 108 89
75 108 89
75 108 89
75 108 89
75 108 89
75 108 89
75 108 89
75 108 89
75 108 89
75 108 89
75 108 89
74 107 89
74 107 89
75 108 89
75 108 89
74 107 89
74 107 89
74 107 89
75 108 89
74 107 89
75 108 89
74 107 89
74 107 89
75 107 89
74 107 89
74 107 89
74 107 89
75 107 89
74 107 89
74 107 89
74 107 89
74 107 89
74 107 89
74 107 89
74 107 89
74 107 89
74 107 89
75 107 89
74 107 89
74 107 89
74 107 89
74 107 89
74 107 89
74 107 89
74 107 89
74 107 89
74 107 89
74 107 89
74 107 89
74 107 89
74 107 89
74 107 88
74 107 88
74 107 88
74 107 88
74 107 88
74 107 88
74 107 88
74 107 88
74 107 88
74 107 88
74 107 88
74 107 88
74 107 88
74 107 88
74 107 88
74 106 88
74 107 88
74 107 88
73 106 88
74 106 88
74 106 88
74 106 88
74 106 88
76 110 91
77 110 91
76 110 91
76 110 91
77 110 91
76 110 91
76 110 91
76 110 91
77 110 91
76 110 91
76 110 91
77 110 91
77 110 91
76 110 91
77 110 91
77 110 91
77 110 91
76 110 91
76 110 91
77 110 91
77 110 91
76 110 91
76 110 91
77 110 91
77 110 91
77 110 91
76 110 91
76 110 91
77 110 91
77 110 91
77 110 91
77 110 91
77 110 91
76 110 91
77 110 91
77 110 91
77 110 91
77 110 91
77 110 91
76 110 91
77 110 91
77 110 91
77 110 91
77 110 91
77 110 91
77 110 91
77 110 91
76 110 91
77 110 91
76 110 91
77 110 91
77 110 91
77 110 91
77 110 91
77 110 91
76 110 91
77 110 91
76 110 91
76 110 91
76 110 91
77 110 91
76 110 91
77 110 91
77 110 91
76 110 91
77 110 91
76 110 91
76 110 91
77 110 91
77 110 91
76 110 91
77 110 91
76 110 91
77 110 91
77 110 91
77 110 91
76 110 91
76 110 91
76 110 91
76 110 91
76 110 91
77 110 91
77 110 91
77 110 91
77 110 91
76 110 91
77 110 91
76 110 91
76 110 91
76 110 90
77 110 90
76 109 90
77 110 90
76 110 90
77 110 90
77 110 90
76 110 90
76 110 90
76 110 90
77 110 90
76 110 90
76 110 90
77 110 90
76 110 90
76 110 90
77 110 90
76 109 90
76 110 90
76 110 90
76 110 90
76 110 90
76 110 90
76 110 90
76 110 90
76 109 90
76 110 90
77 110 90
76 109 90
76 109 90
76 110 90
76 110 90
77 110 90
76 110 90
76 110 90
76 109 90
76 109 90
76 110 90
76 110 90
76 110 90
76 110 90
76 109 90
76 110 90
76 109 90
76 110 90
76 109 90
76 109 90
76 110 90
76 109 90
76 109 90
76 109 90
76 109 90
76 109 90
76 109 90
76 109 90
76 109 90
76 109 90
76 109 90
76 109 90
76 109 90
76 109 90
76 109 90
76 109 90
76 109 90
76 109 90
76 109 90
76 109 90
76 109 90
76 109 90
76 109 90
76 109 90
76 109 90
76 109 90
76 109 90
76 109 90
76 109 90
76 109 90
76 109 90
76 109 90
76 109 90
76 109 90
75 109 90
76 109 90
76 109 90
76 109 90
76 109 90
76 109 90
76 109 90
76 109 90
76 109 90
76 109 90
76 109 90
76 109 90
76 109 90
76 109 90
76 109 90
75 109 90
75 108 90
76 109 90
75 108 90
76 109 90
76 109 90
75 109 90
76 109 90
76 109 90
76 109 90
76 109 90
75 108 90
75 108 90
75 109 90
75 108 90
75 108 90
75 108 90
75 108 90
76 109 90
76 109 90
75 108 90
75 108 89
75 108 89
75 108 89
75 108 89
75 108 89
75 108 89
75 108 89
75 108 89
75 108 89
75 108 89
75 108 89
75 108 89
75 108 89
75 108 89
75 108 89
75 108 89
75 108 89
75 108 89
75 108 89
75 108 89
75 108 89
75 108 89
75 108 89
75 108 89
75 108 89
75 108 89
75 108 89
75 108 89
75 108 89
75 108 89
75 108 89
75 108 89
75 108 89
75 108 89
75 108 89
74 108 89
75 108 89
75 108 89
75 108 89
74 107 89
75 108 89
75 108 89
75 108 89
74 107 89
75 107 89
75 108 89
75 107 89
74 107 89
75 107 89
75 108 89
75 107 89
74 107 89
75 107 89
75 108 89
74 107 89
74 107 89
74 107 89
74 107 89
75 107 89
74 107 89
74 107 89
75 107 89
74 107 89
74 107 89
74 107 89
74 107 89
74 107 89
74 107 89
74 107 89
74 107 89
74 107 89
74 107 89
74 107 89
74 107 89
74 107 89
74 107 89
74 107 89
74 107 89
74 107 89
74 107 88
74 107 88
75 107 88
74 107 88
74 107 88
74 107 88
74 107 88
74 107 88
74 107 88
74 107 88
74 107 88
74 107 88
74 106 88
74 107 88
74 107 88
77 110 91
77 110 91
77 110 91
77 110 91
77 110 91
77 110 91
77 110 91
77 110 91
77 110 91
77 110 91
77 110 91
77 110 91
76 110 91
77 110 91
77 110 91
77 110 91
77 110 91
77 110 91
77 110 91
77 110 91
77 110 91
77 111 91
77 110 91
77 110 91
77 110 91
77 110 91
77 110 91
77 110 91
77 110 91
77 110 91
77 110 91
77 111 91
77 110 91
77 110 91
77 110 91
77 110 91
77 110 91
77 110 91
77 110 91
77 110 91
77 110 91
77 110 91
77 110 91
77 110 91
77 110 91
77 110 91
77 110 91
77 110 91
77 110 91
77 110 91
77 110 91
77 110 91
77 110 91
77 110 91
77 110 91
77 110 91
77 110 91
77 110 91
77 110 91
77 110 91
77 110 91
77 110 91
77 110 91
77 110 91
77 110 91
77 110 91
77 110 91
77 110 91
76 110 91
77 110 91
77 110 91
77 110 91
77 110 91
77 110 91
77 110 91
77 110 91
77 110 91
77 110 91
77 110 91
77 110 91
76 110 91
77 110 91
77 110 91
77 110 91
77 110 91
77 110 91
77 110 91
77 110 91
77 110 91
77 110 91
77 110 91
76 110 91
77 110 91
77 110 91
76 110 91
77 110 91
77 110 91
76 110 91
77 110 91
77 110 91
76 110 91
76 110 91
77 110 91
77 110 91
77 110 91
76 110 90
77 110 91
76 110 91
76 110 91
77 110 91
77 110 91
76 110 91
77 110 91
77 110 91
76 110 91
76 110 91
76 110 90
77 110 90
77 110 90
76 110 90
77 110 90
76 110 90
77 110 90
76 110 90
76 110 90
76 110 90
76 110 90
77 110 90
76 110 90
76 110 90
76 110 90
77 110 90
77 110 90
76 110 90
76 110 90
76 110 90
76 110 90
76 110 90
76 110 90
76 110 90
76 109 90
76 110 90
76 110 90
77 110 90
76 109 90
76 110 90
76 110 90
76 110 90
76 109 90
76 109 90
76 109 90
76 109 90
76 110 90
76 110 90
76 109 90
76 109 90
76 109 90
76 109 90
76 109 90
76 110 90
76 109 90
76 109 90
76 109 90
76 109 90
76 109 90
76 109 90
76 109 90
76 109 90
76 109 90
76 109 90
76 109 90
76 109 90
76 109 90
76 109 90
76 109 90
76 109 90
76 109 90
76 109 90
76 109 90
76 109 90
76 109 90
76 109 90
76 109 90
76 109 90
76 109 90
76 109 90
76 109 90
76 109 90
75 109 90
76 109 90
75 109 90
76 109 90
76 109 90
76 109 90
76 109 90
76 109 90
75 109 90
76 109 90
76 109 90
76 109 90
75 109 90
76 109 90
76 109 90
76 109 90
76 109 90
75 108 90
75 108 90
75 108 90
75 108 90
75 108 90
75 108 90
75 109 90
75 108 90
75 108 90
75 108 90
75 108 90
75 108 90
75 108 89
75 108 89
75 108 89
75 108 89
75 108 89
75 108 89
75 108 89
75 108 89
75 108 89
75 108 89
75 108 89
75 108 89
75 108 89
75 108 89
75 108 89
75 108 89
75 108 89
75 108 89
75 108 89
75 108 89
75 108 89
75 108 89
75 108 89
75 108 89
75 108 89
75 108 89
75 108 89
75 108 89
74 107 89
75 108 89
75 108 89
75 108 89
75 108 89
74 107 89
74 107 89
74 107 89
75 108 89
75 108 89
75 108 89
74 107 89
75 108 89
75 108 89
75 108 89
75 107 89
74 107 89
75 108 89
75 108 89
75 108 89
75 108 89
75 108 89
74 107 89
74 107 89
74 107 89
75 107 89
74 107 89
74 107 89
74 107 89
74 107 89
74 107 89
74 107 89
74 107 89
74 107 89
74 107 89
74 107 89
74 107 89
75 107 89
74 107 89
74 107 89
74 107 89
74 107 89
74 107 89
74 107 89
74 107 89
74 107 89
74 107 89
74 107 89
74 107 89
74 107 88
74 107 88
74 107 88
74 107 88
74 107 88
74 107 88
77 110 91
77 110 91
77 110 91
77 110 91
77 111 91
77 111 91
77 110 91
77 110 91
77 110 91
77 110 91
77 110 91
77 111 91
77 111 91
77 110 91
77 110 91
77 110 91
77 110 91
77 111 91
77 110 91
77 111 91
77 110 91
77 111 91
77 110 91
77 110 91
77 110 91
77 111 91
77 110 91
77 110 91
77 110 91
77 111 91
77 110 91
77 110 91
77 110 91
77 111 91
77 111 91
77 111 91
77 110 91
77 111 91
77 111 91
77 110 91
77 111 91
77 110 91
77 111 91
77 110 91
77 111 91
77 110 91
77 111 91
77 111 91
77 110 91
77 110 91
77 110 91
77 111 91
77 110 91
77 110 91
77 110 91
77 110 91
77 110 91
77 110 91
77 111 91
77 110 91
77 111 91
77 111 91
77 111 91
77 110 91
77 110 91
77 110 91
77 110 91
77 110 91
77 110 91
77 111 91
77 111 91
77 111 91
77 110 91
77 110 91
77 110 91
77 110 91
77 110 91
77 110 91
77 110 91
77 110 91
77 110 91
77 110 91
77 110 91
77 110 91
77 110 91
77 111 91
77 110 91
77 111 91
77 110 91
77 110 91
77 110 91
77 110 91
77 110 91
77 110 91
77 110 91
76 110 91
77 110 91
77 110 91
77 110 91
77 110 91
77 110 91
76 110 91
77 110 91
77 110 91
77 110 91
77 110 91
77 110 91
77 110 91
77 110 91
77 110 91
77 110 91
77 110 91
77 110 91
76 110 91
77 110 91
77 110 91
77 110 91
77 110 91
77 110 91
77 110 91
76 110 91
77 110 91
77 110 91
76 110 91
77 110 91
77 110 91
77 110 91
77 110 91
76 110 91
76 110 91
77 110 91
77 110 91
76 110 91
76 110 91
76 110 91
77 110 91
77 110 90
76 110 90
77 110 90
76 110 90
76 110 90
76 110 90
76 110 90
77 110 90
76 110 90
76 110 90
76 110 90
76 109 90
76 109 90
76 110 90
77 110 90
76 110 90
76 110 90
76 110 90
76 110 90
76 109 90
76 109 90
76 109 90
76 109 90
76 109 90
76 110 90
76 109 90
76 109 90
76 110 90
76 109 90
76 109 90
76 110 90
76 109 90
76 109 90
76 109 90
76 110 90
76 109 90
76 109 90
76 109 90
76 109 90
76 109 90
76 109 90
76 109 90
76 109 90
76 109 90
76 109 90
76 109 90
76 109 90
76 109 90
76 109 90
76 109 90
76 109 90
76 109 90
76 109 90
76 109 90
76 109 90
76 109 90
75 109 90
76 109 90
76 109 90
76 109 90
75 109 90
75 109 90
76 109 90
75 109 90
76 109 90
76 109 90
76 109 90
75 109 90
75 109 90
76 109 90
76 109 90
76 109 90
75 109 90
76 109 90
76 109 90
76 109 90
75 109 90
75 109 90
76 109 90
75 108 90
75 108 90
75 108 90
75 108 90
75 109 90
75 108 90
76 109 90
76 109 90
75 108 90
75 108 90
75 108 90
75 108 90
75 108 89
75 108 89
75 108 89
75 108 89
75 108 89
75 108 89
75 108 89
75 108 89
76 108 89
75 108 89
75 108 89
75 108 89
75 108 89
75 108 89
75 108 89
75 108 89
75 108 89
75 108 89
75 108 89
75 108 89
75 108 89
75 108 89
75 108 89
75 108 89
75 108 89
75 108 89
75 108 89
75 108 89
75 108 89
75 108 89
75 108 89
75 108 89
75 108 89
75 108 89
75 108 89
75 108 89
75 108 89
74 107 89
74 107 89
75 108 89
75 108 89
75 108 89
74 107 89
74 107 89
75 108 89
75 108 89
74 107 89
74 107 89
74 107 89
74 107 89
74 107 89
74 107 89
74 107 89
74 107 89
74 107 89
75 107 89
74 107 89
75 107 89
74 107 89
74 107 89
74 107 89
74 107 89
74 107 89
74 107 89
74 107 89
74 107 89
74 107 89
74 107 88
74 107 89
74 107 89
74 107 89
74 107 89
74 107 89
77 111 91
77 111 91
77 111 91
77 111 91
77 111 91
77 111 91
77 111 91
77 111 91
77 111 91
77 111 91
77 111 91
77 111 91
77 111 91
77 111 91
77 111 91
77 111 91
77 111 91
77 111 91
77 111 91
77 111 91
77 111 91
77 111 91
77 111 91
77 111 91
77 111 91
78 111 91
77 111 91
77 111 91
77 111 91
77 111 91
77 111 91
77 111 91
77 111 91
77 111 91
77 111 91
77 111 91
77 111 91
77 111 91
77 111 91
77 111 91
77 111 91
77 111 91
77 111 91
77 111 91
77 111 91
77 111 91
78 111 91
78 111 91
77 111 91
77 111 91
77 111 91
77 111 91
77 111 91
77 111 91
77 111 91
77 111 91
77 111 91
77 111 91
77 111 91
77 111 91
77 111 91
77 111 91
77 111 91
77 111 91
77 110 91
77 111 91
77 111 91
77 111 91
77 110 91
77 111 91
77 111 91
77 111 91
77 111 91
77 111 91
76 110 91
77 111 91
77 111 91
77 111 91
78 111 91
77 111 91
77 111 91
77 111 91
77 111 91
77 111 91
77 111 91
77 111 91
77 111 91
77 110 91
77 111 91
77 110 91
77 111 91
77 111 91
77 111 91
77 110 91
77 110 91
77 111 91
77 110 91
77 110 91
77 110 91
77 110 91
77 110 91
77 110 91
77 111 91
77 111 91
77 110 91
77 110 91
77 110 91
77 110 91
77 110 91
77 111 91
77 110 91
77 110 91
77 110 91
77 110 91
77 110 91
77 110 91
76 110 91
77 111 91
77 110 91
77 110 91
77 110 91
77 110 91
77 110 91
77 110 91
77 110 91
77 110 91
77 110 91
77 110 91
77 110 91
77 110 91
77 110 91
76 110 91
77 110 91
77 110 91
77 110 91
77 110 91
77 110 91
76 110 91
77 110 91
76 110 91
76 110 91
76 110 91
77 110 91
77 110 91
76 110 91
76 110 91
77 110 91
76 110 90
77 110 91
76 110 91
77 110 91
77 110 91
76 110 91
76 110 90
76 110 90
77 110 90
76 110 90
76 110 90
76 110 90
76 110 90
76 110 90
76 110 90
76 109 90
76 109 90
77 110 90
77 110 90
76 110 90
76 110 90
76 110 90
76 109 90
76 109 90
76 110 90
76 109 90
76 110 90
76 110 90
76 110 90
76 109 90
76 110 90
76 110 90
76 109 90
76 109 90
77 110 90
76 110 90
76 109 90
76 109 90
76 109 90
76 109 90
76 109 90
76 109 90
76 109 90
76 109 90
76 109 90
76 109 90
76 109 90
76 109 90
76 109 90
76 109 90
76 109 90
76 109 90
76 109 90
76 109 90
76 109 90
76 109 90
76 109 90
76 109 90
76 109 90
76 109 90
76 109 90
76 109 90
75 109 90
76 109 90
76 109 90
76 109 90
76 109 90
76 109 90
76 109 90
76 109 90
76 109 90
76 109 90
76 109 90
75 109 90
76 109 90
75 109 90
76 109 90
75 108 90
75 109 90
75 109 90
75 109 90
75 108 90
75 108 90
75 108 90
75 109 90
75 108 90
75 108 90
75 108 90
76 109 90
75 108 90
75 108 89
75 108 89
75 108 89
75 108 89
75 108 89
75 108 89
75 108 89
75 108 89
75 108 89
75 108 89
75 108 89
75 108 89
75 108 89
75 108 89
75 108 89
75 108 89
75 108 89
75 108 89
75 108 89
75 108 89
75 108 89
75 108 89
75 108 89
75 108 89
75 108 89
75 108 89
75 108 89
75 108 89
75 108 89
75 108 89
75 108 89
75 108 89
75 108 89
75 108 89
75 108 89
74 107 89
74 107 89
75 108 89
74 107 89
75 108 89
75 108 89
75 107 89
74 107 89
74 107 89
74 107 89
74 107 89
74 107 89
75 108 89
74 107 89
74 107 89
74 107 89
74 107 89
74 107 89
74 107 89
74 107 89
74 107 89
74 107 89
74 107 89
75 107 89
74 107 89
74 107 89
74 107 89
74 107 89
77 111 91
77 111 91
78 111 91
78 111 91
77 111 91
77 111 91
78 111 91
77 111 91
78 111 91
77 111 91
77 111 91
77 111 91
77 111 91
77 111 91
77 111 91
77 111 91
77 111 91
78 111 91
77 111 91
77 111 91
77 111 91
78 111 91
78 111 91
77 111 91
77 111 91
77 111 91
78 111 91
77 111 91
77 111 91
78 111 91
77 111 91
77 111 91
78 111 91
77 111 91
77 111 91
77 111 91
77 111 91
78 111 91
77 111 91
77 111 91
78 111 91
78 111 91
78 111 91
77 111 91
77 111 91
78 111 91
78 111 91
77 111 91
78 111 91
77 111 91
77 111 91
77 111 91
78 111 91
77 111 91
77 111 91
78 111 91
77 111 91
77 111 91
77 111 91
77 111 91
77 111 91
77 111 91
77 111 91
77 111 91
77 111 91
77 111 91
77 111 91
77 111 91
78 111 91
77 111 91
78 111 91
77 111 91
77 111 91
77 111 91
78 111 91
77 111 91
77 111 91
77 111 91
77 111 91
77 111 91
77 111 91
77 111 91
77 111 91
77 111 91
77 111 91
77 111 91
77 111 91
78 111 91
78 111 91
77 111 91
77 111 91
78 111 91
77 111 91
77 111 91
77 111 91
77 111 91
78 111 91
77 111 91
77 111 91
78 111 91
77 111 91
77 111 91
77 111 91
77 111 91
77 111 91
77 111 91
77 111 91
77 111 91
77 111 91
78 111 91
77 111 91
77 111 91
77 111 91
77 111 91
77 110 91
77 111 91
77 110 91
77 110 91
77 110 91
77 110 91
77 111 91
77 111 91
77 111 91
77 111 91
77 111 91
77 110 91
77 110 91
77 110 91
77 110 91
77 110 91
77 110 91
77 110 91
77 110 91
77 110 91
77 110 91
77 110 91
77 110 91
77 110 91
77 110 91
77 110 91
77 110 91
77 110 91
77 110 91
77 110 91
77 110 91
77 110 91
77 110 91
76 110 91
77 110 91
77 110 91
77 110 91
77 110 91
76 110 91
77 110 91
77 110 91
76 110 91
77 110 91
76 110 91
77 110 91
77 110 91
77 110 91
77 110 91
77 110 91
77 110 91
76 110 91
76 110 91
76 110 90
77 110 90
76 110 90
77 110 90
77 110 90
76 110 90
76 110 90
77 110 90
77 110 90
76 110 90
76 110 90
76 110 90
76 110 90
76 110 90
76 110 90
76 110 90
76 110 90
76 110 90
76 109 90
76 110 90
76 109 90
76 110 90
76 109 90
76 109 90
76 110 90
76 109 90
76 109 90
76 109 90
77 110 90
76 109 90
76 109 90
76 110 90
76 109 90
76 109 90
76 109 90
76 109 90
76 109 90
76 109 90
76 109 90
76 109 90
76 109 90
76 109 90
76 109 90
76 109 90
76 109 90
76 109 90
76 109 90
76 109 90
76 109 90
76 109 90
76 109 90
76 109 90
76 109 90
76 109 90
76 109 90
76 109 90
76 109 90
76 109 90
76 109 90
75 109 90
75 109 90
76 109 90
76 109 90
76 109 90
76 109 90
76 109 90
75 109 90
76 109 90
76 109 90
75 109 90
75 109 90
75 109 90
75 108 90
75 108 90
75 109 90
75 108 90
75 108 90
75 108 90
75 108 90
75 108 90
75 108 89
76 108 89
75 108 89
75 108 89
75 108 89
75 108 89
75 108 89
75 108 89
75 108 89
75 108 89
75 108 89
75 108 89
75 108 89
75 108 89
75 108 89
75 108 89
75 108 89
75 108 89
75 108 89
75 108 89
75 108 89
75 108 89
75 108 89
75 108 89
75 108 89
75 108 89
75 108 89
75 108 89
74 107 89
75 108 89
75 108 89
75 108 89
75 108 89
74 107 89
75 108 89
75 108 89
75 108 89
75 108 89
74 107 89
75 108 89
74 107 89
75 108 89
74 107 89
75 107 89
74 107 89
75 107 89
74 107 89
74 107 89
74 107 89
74 107 89
74 107 89
74 107 89
75 108 89
74 107 89
78 111 91
78 111 91
78 111 91
78 111 91
78 111 91
78 111 91
78 111 91
77 111 91
78 111 91
78 111 91
78 111 91
78 111 91
78 111 91
78 111 91
78 111 91
78 111 91
78 111 91
78 111 91
78 111 91
78 111 91
77 111 91
77 111 91
78 111 91
78 112 91
78 111 91
78 111 91
78 111 91
78 111 91
78 111 91
78 111 91
78 111 91
78 111 91
77 111 91
78 111 91
78 111 91
78 111 91
77 111 91
78 111 91
78 111 91
77 111 91
78 111 91
77 111 91
78 111 91
78 111 91
78 111 91
77 111 91
77 111 91
78 111 91
78 111 91
77 111 91
78 111 91
78 111 91
78 111 91
78 111 91
77 111 91
77 111 91
78 111 91
78 111 91
77 111 91
78 111 91
77 111 91
78 111 91
78 111 91
78 111 91
78 111 91
77 111 91
77 111 91
78 111 91
78 111 91
78 111 91
78 111 91
78 111 91
78 111 91
77 111 91
77 111 91
78 111 91
77 111 91
78 111 91
78 111 91
78 111 91
77 111 91
78 111 91
77 111 91
78 111 91
78 111 91
77 111 91
78 111 91
78 111 91
77 111 91
78 111 91
77 111 91
77 111 91
77 111 91
77 111 91
77 111 91
78 111 91
78 111 91
77 111 91
77 111 91
78 111 91
77 111 91
78 111 91
77 111 91
77 111 91
77 111 91
77 111 91
77 111 91
77 111 91
77 111 91
77 111 91
77 111 91
77 111 91
77 111 91
77 111 91
77 111 91
77 111 91
77 111 91
77 111 91
77 111 91
77 111 91
77 111 91
77 111 91
77 111 91
77 111 91
77 111 91
77 111 91
77 110 91
77 111 91
77 111 91
77 110 91
77 110 91
77 111 91
77 110 91
77 111 91
77 110 91
77 110 91
77 110 91
77 111 91
77 110 91
77 111 91
77 110 91
77 110 91
77 110 91
77 110 91
77 110 91
77 111 91
77 110 91
77 110 91
77 110 91
77 110 91
77 110 91
77 110 91
77 110 91
77 110 91
77 110 91
77 110 91
77 110 91
77 110 91
77 110 91
77 110 91
76 110 91
77 110 91
77 110 91
77 110 91
77 110 91
76 110 91
77 110 91
77 110 91
77 110 91
77 110 91
77 110 91
76 110 91
77 110 91
77 110 91
76 110 91
77 110 91
76 110 91
76 110 91
76 110 91
76 110 90
76 110 90
76 110 90
77 110 90
76 110 90
76 110 90
76 110 90
76 110 90
76 110 90
76 110 90
76 110 90
76 110 90
76 110 90
76 110 90
76 110 90
76 110 90
76 109 90
76 109 90
76 109 90
76 109 90
76 109 90
76 110 90
76 110 90
76 109 90
76 109 90
76 109 90
76 109 90
76 109 90
76 109 90
76 109 90
76 109 90
76 109 90
75 109 90
76 109 90
76 109 90
76 109 90
76 109 90
76 109 90
76 109 90
76 109 90
76 109 90
76 109 90
76 109 90
76 109 90
76 109 90
76 109 90
76 109 90
76 109 90
76 109 90
75 109 90
76 109 90
76 109 90
75 109 90
76 109 90
76 109 90
76 109 90
76 109 90
75 109 90
76 109 90
76 109 90
75 109 90
75 109 90
76 109 90
76 109 90
75 108 90
75 109 90
76 109 90
75 108 90
76 109 90
76 109 90
75 108 90
75 108 90
75 108 90
75 108 90
75 108 90
75 108 90
75 108 89
76 109 89
75 108 89
75 108 89
75 108 89
75 108 89
75 108 89
75 108 89
75 108 89
75 108 89
75 108 89
75 108 89
75 108 89
75 108 89
75 108 89
75 108 89
75 108 89
75 108 89
75 108 89
75 108 89
75 108 89
75 108 89
75 108 89
75 108 89
75 108 89
75 108 89
75 108 89
75 108 89
75 108 89
75 108 89
74 107 89
75 108 89
74 108 89
75 108 89
75 108 89
75 108 89
75 108 89
74 107 89
74 107 89
74 107 89
74 107 89
74 107 89
74 107 89
75 108 89
74 107 89
78 111 92
78 111 92
78 111 92
78 111 92
78 111 91
78 111 92
78 111 92
78 112 92
78 112 92
78 111 92
78 111 92
78 112 92
78 112 92
78 112 92
78 112 92
78 111 92
78 112 92
78 111 92
78 111 92
78 112 92
78 111 92
78 111 91
78 112 92
78 112 92
78 112 92
78 111 92
78 111 92
78 112 92
77 111 92
78 111 92
78 112 92
78 111 92
78 112 92
78 112 92
78 112 92
78 112 92
78 112 92
78 112 92
78 111 92
78 112 92
78 111 92
78 111 92
78 112 92
78 111 92
78 111 92
78 112 92
78 111 92
78 111 92
78 112 92
78 111 92
78 111 92
77 111 92
78 112 92
78 111 92
78 111 91
78 111 92
78 111 92
78 112 92
78 112 92
78 111 92
78 111 92
78 112 92
78 111 92
78 111 92
78 112 92
78 112 92
78 111 92
78 111 92
78 111 92
78 111 92
78 111 92
78 111 92
78 111 92
78 111 92
78 111 92
77 111 91
78 111 92
78 111 92
78 111 92
78 111 92
78 111 92
78 111 92
78 111 91
78 111 91
78 111 91
78 111 91
78 111 91
77 111 91
78 111 91
78 111 91
77 111 91
78 111 91
78 111 91
78 111 91
78 111 91
78 111 91
77 111 91
78 111 91
78 111 91
77 111 91
78 111 91
78 111 91
78 111 91
77 111 91
77 111 91
78 111 91
77 111 91
78 111 91
77 111 91
77 111 91
77 111 91
78 111 91
78 111 91
77 111 91
77 111 91
78 111 91
77 111 91
78 111 91
77 111 91
77 111 91
77 111 91
78 111 91
77 111 91
78 111 91
77 111 91
77 111 91
77 111 91
77 111 91
77 111 91
77 111 91
77 111 91
77 111 91
77 111 91
77 111 91
77 111 91
77 111 91
77 111 91
78 111 91
77 110 91
77 111 91
77 111 91
77 111 91
77 111 91
77 111 91
77 111 91
77 111 91
77 111 91
77 111 91
77 111 91
77 110 91
77 110 91
77 110 91
77 110 91
77 111 91
77 110 91
77 111 91
77 110 91
77 110 91
77 110 91
77 110 91
77 110 91
77 110 91
77 110 91
77 110 91
77 110 91
77 110 91
77 110 91
77 110 91
77 110 91
77 110 91
77 110 91
77 110 91
77 110 91
77 110 91
77 110 91
77 110 91
77 110 91
77 110 91
77 110 91
77 110 91
76 110 91
77 110 91
77 110 91
77 110 91
77 110 91
77 110 91
77 110 91
77 110 91
77 110 91
76 110 91
77 110 90
77 110 90
76 110 90
76 109 90
76 110 90
76 110 90
76 110 90
76 110 90
77 110 90
76 110 90
76 109 90
76 110 90
76 110 90
76 110 90
76 110 90
76 110 90
76 109 90
76 109 90
76 110 90
76 109 90
76 110 90
76 109 90
76 109 90
76 109 90
76 110 90
76 109 90
76 109 90
76 109 90
76 110 90
76 109 90
76 109 90
76 110 90
76 109 90
76 109 90
76 109 90
76 109 90
76 109 90
76 109 90
76 109 90
76 109 90
76 109 90
76 109 90
76 109 90
76 109 90
76 109 90
76 109 90
76 109 90
75 109 90
76 109 90
75 109 90
75 108 90
76 109 90
76 109 90
76 109 90
76 109 90
76 109 90
76 109 90
75 109 90
75 109 90
76 109 90
76 109 90
75 109 90
75 108 90
76 109 90
75 109 90
75 108 90
75 109 90
75 109 90
75 108 90
75 108 90
75 108 90
75 108 90
75 108 90
75 108 89
75 108 89
75 108 89
75 108 89
75 108 89
75 108 89
75 108 89
75 108 89
75 108 89
75 108 89
75 108 89
75 108 89
75 108 89
75 108 89
75 108 89
75 108 89
75 108 89
75 108 89
75 108 89
75 108 89
75 108 89
75 108 89
75 108 89
75 108 89
75 108 89
75 108 89
75 108 89
75 108 89
75 108 89
75 108 89
75 108 89
75 108 89
75 108 89
75 108 89
75 107 89
74 107 89
75 108 89
78 112 92
78 112 92
78 112 92
78 112 92
78 112 92
78 112 92
78 112 92
78 112 92
78 112 92
78 112 92
78 112 92
78 112 92
78 112 92
78 112 92
78 112 92
78 112 92
78 112 92
78 112 92
78 112 92
78 112 92
78 112 92
78 112 92
78 112 92
78 112 92
78 112 92
78 112 92
78 112 92
78 112 92
78 112 92
78 112 92
78 112 92
78 112 92
78 112 92
78 112 92
78 112 92
78 112 92
78 112 92
78 112 92
78 112 92
78 112 92
78 112 92
78 112 92
78 112 92
78 112 92
78 112 92
78 112 92
78 112 92
78 112 92
78 112 92
78 112 92
78 112 92
78 112 92
78 112 92
78 112 92
78 112 92
78 112 92
78 112 92
78 112 92
78 112 92
78 112 92
78 112 92
78 112 92
78 112 92
78 112 92
78 112 92
78 112 92
78 112 92
78 112 92
78 112 92
78 112 92
78 111 92
78 111 92
78 112 92
78 112 92
78 112 92
78 112 92
78 112 92
78 112 92
78 112 92
78 112 92
78 112 92
78 112 92
78 111 92
78 112 92
78 112 92
78 111 92
78 112 92
78 112 92
78 112 92
78 112 92
78 111 92
78 112 92
78 112 92
78 112 92
78 112 92
78 111 92
78 111 92
78 112 92
78 111 92
78 111 92
78 111 91
78 111 92
78 111 92
78 111 92
78 111 92
78 111 92
77 111 92
78 111 91
78 111 91
78 111 91
78 111 91
78 111 91
78 111 91
77 111 91
78 111 91
78 111 91
78 111 91
78 111 91
77 111 91
77 111 91
78 111 91
78 111 91
77 111 91
78 111 91
78 111 91
77 111 91
78 111 91
77 111 91
77 111 91
77 111 91
77 111 91
77 111 91
78 111 91
77 111 91
78 111 91
78 111 91
78 111 91
78 111 91
77 111 91
78 111 91
77 111 91
77 111 91
77 111 91
77 111 91
77 111 91
77 111 91
77 110 91
77 111 91
77 111 91
78 111 91
77 111 91
77 111 91
77 111 91
77 111 91
77 111 91
77 110 91
77 111 91
77 110 91
77 111 91
77 110 91
77 111 91
77 111 91
77 111 91
77 111 91
77 111 91
77 111 91
77 111 91
77 110 91
77 111 91
77 110 91
77 110 91
77 110 91
77 110 91
77 110 91
77 110 91
77 110 91
77 110 91
77 110 91
77 110 91
77 110 91
77 110 91
77 110 91
77 110 91
76 110 91
76 110 91
77 110 91
76 110 91
77 110 91
77 110 91
76 110 91
77 110 91
76 110 91
77 110 91
77 110 91
76 110 91
77 110 91
77 110 91
77 110 91
77 110 91
76 110 91
77 110 90
76 110 90
76 110 90
77 110 90
77 110 90
77 110 90
77 110 90
76 110 90
76 110 90
76 110 90
76 110 90
76 109 90
77 110 90
77 110 90
76 110 90
76 109 90
76 109 90
76 109 90
76 110 90
76 110 90
76 109 90
76 109 90
76 109 90
76 109 90
76 110 90
76 109 90
76 109 90
76 109 90
76 109 90
76 109 90
76 109 90
76 109 90
76 109 90
76 109 90
76 109 90
76 109 90
76 109 90
76 109 90
76 109 90
76 109 90
76 109 90
76 109 90
76 109 90
76 109 90
76 109 90
76 109 90
76 109 90
75 109 90
76 109 90
76 109 90
76 109 90
76 109 90
76 109 90
75 109 90
75 109 90
76 109 90
75 109 90
76 109 90
75 108 90
75 108 90
76 109 90
76 109 90
76 109 90
75 109 90
75 108 90
75 108 90
76 109 90
75 108 90
75 109 90
76 109 90
76 109 90
75 108 89
75 108 89
75 108 89
75 108 89
75 108 89
75 108 89
75 108 89
75 108 89
75 108 89
75 108 89
75 108 89
75 108 89
75 108 89
75 108 89
75 108 89
75 108 89
75 108 89
75 108 89
75 108 89
75 108 89
75 108 89
75 108 89
75 108 89
75 108 89
75 108 89
75 108 89
75 108 89
75 108 89
75 108 89
78 112 92
78 112 92
78 112 92
78 112 92
78 112 92
78 112 92
78 112 92
78 112 92
78 112 92
78 112 92
78 112 92
78 112 92
78 112 92
78 112 92
78 112 92
78 112 92
78 112 92
79 112 92
78 112 92
78 112 92
78 112 92
78 112 92
78 112 92
78 112 92
78 112 92
78 112 92
78 112 92
78 112 92
78 112 92
78 112 92
78 112 92
78 112 92
78 112 92
78 112 92
79 112 92
78 112 92
78 112 92
78 112 92
78 112 92
78 112 92
78 112 92
78 112 92
78 112 92
78 112 92
78 112 92
78 112 92
78 112 92
78 112 92
78 112 92
78 112 92
78 112 92
78 112 92
78 112 92
78 112 92
78 112 92
78 112 92
78 112 92
78 112 92
78 112 92
78 112 92
78 112 92
78 112 92
78 112 92
78 112 92
78 112 92
78 112 92
78 112 92
78 112 92
78 112 92
78 112 92
78 112 92
78 112 92
78 112 92
78 112 92
78 112 92
78 112 92
78 112 92
78 112 92
78 112 92
78 112 92
78 112 92
78 112 92
78 112 92
78 112 92
78 112 92
78 112 92
78 112 92
78 112 92
78 112 92
78 112 92
78 112 92
78 112 92
78 112 92
78 112 92
78 112 92
78 112 92
78 111 92
78 112 92
78 112 92
78 112 92
78 112 92
78 112 92
78 112 92
78 112 92
78 112 92
78 112 92
78 111 92
78 112 92
78 111 92
78 111 91
78 111 92
78 112 92
78 112 92
78 111 92
78 111 92
77 111 92
78 112 92
78 112 92
78 112 92
78 112 92
78 111 92
78 111 92
78 111 92
78 111 92
78 111 92
78 111 92
78 111 91
78 111 91
77 111 91
78 111 91
78 111 91
78 111 91
78 111 91
78 111 91
78 111 91
77 111 91
77 111 91
77 111 91
77 111 91
78 111 91
77 111 91
78 111 91
78 111 91
78 111 91
77 111 91
77 111 91
77 111 91
78 111 91
77 111 91
77 111 91
78 111 91
77 111 91
77 111 91
77 111 91
77 111 91
77 111 91
78 111 91
78 111 91
77 111 91
77 111 91
77 111 91
77 111 91
77 111 91
77 111 91
77 111 91
77 111 91
77 111 91
77 111 91
77 110 91
77 111 91
77 111 91
77 111 91
77 110 91
77 110 91
77 110 91
77 111 91
77 110 91
77 110 91
77 110 91
77 110 91
77 110 91
77 110 91
77 110 91
77 110 91
77 110 91
77 110 91
77 110 91
77 110 91
77 110 91
77 110 91
77 110 91
77 110 91
77 110 91
77 110 91
77 110 91
77 110 91
76 110 91
77 110 91
77 110 91
77 110 91
77 110 91
77 110 91
77 110 91
77 110 91
77 110 91
76 110 91
77 110 91
77 110 91
77 110 91
76 110 90
76 110 90
77 110 90
77 110 90
77 110 90
76 109 90
76 110 90
76 110 90
76 110 90
76 110 90
76 110 90
76 109 90
76 110 90
76 110 90
76 109 90
76 109 90
76 109 90
76 109 90
76 110 90
76 109 90
76 109 90
76 109 90
76 109 90
76 109 90
76 109 90
76 109 90
76 109 90
76 109 90
76 109 90
76 109 90
76 109 90
76 109 90
76 109 90
76 109 90
76 109 90
76 109 90
76 109 90
76 109 90
76 109 90
76 109 90
76 109 90
76 109 90
76 109 90
76 109 90
76 109 90
76 109 90
76 109 90
76 109 90
76 109 90
76 109 90
76 109 90
75 109 90
75 109 90
76 109 90
76 109 90
75 109 90
75 108 90
75 108 90
75 109 90
75 108 90
76 109 90
76 109 90
75 108 90
75 108 89
75 109 90
75 109 90
75 108 90
75 108 90
75 108 90
75 108 89
75 108 89
75 108 89
75 108 89
75 108 89
75 108 89
75 108 89
75 108 89
75 108 89
75 108 89
75 108 89
75 108 89
75 108 89
75 108 89
75 108 89
75 108 89
75 108 89
75 108 89
75 108 89
75 108 89
75 108 89
75 108 89
78 112 92
79 112 92
79 113 92
78 112 92
79 112 92
78 112 92
78 112 92
79 112 92
78 112 92
78 112 92
79 112 92
79 112 92
79 112 92
78 112 92
78 112 92
79 112 92
79 112 92
78 112 92
79 112 92
78 112 92
79 112 92
79 112 92
79 113 92
79 112 92
78 112 92
79 112 92
78 112 92
78 112 92
79 112 92
78 112 92
79 113 92
79 112 92
79 112 92
78 112 92
78 112 92
78 112 92
79 112 92
78 112 92
79 112 92
78 112 92
79 112 92
79 112 92
78 112 92
79 112 92
79 112 92
78 112 92
78 112 92
78 112 92
78 112 92
79 112 92
78 112 92
79 112 92
78 112 92
79 112 92
78 112 92
78 112 92
78 112 92
78 112 92
79 112 92
78 112 92
78 112 92
79 112 92
78 112 92
78 112 92
78 112 92
78 112 92
78 112 92
78 112 92
78 112 92
78 112 92
79 112 92
78 112 92
79 112 92
78 112 92
78 112 92
78 112 92
78 112 92
78 112 92
78 112 92
78 112 92
78 112 92
78 112 92
78 112 92
79 112 92
78 112 92
79 112 92
78 112 92
78 112 92
79 112 92
78 112 92
78 112 92
78 112 92
78 112 92
78 112 92
78 112 92
78 112 92
78 112 92
78 112 92
78 112 92
78 112 92
78 112 92
78 112 92
78 112 92
78 112 92
78 112 92
78 112 92
78 112 92
78 112 92
78 112 92
78 112 92
78 112 92
78 112 92
78 112 92
78 112 92
78 112 92
78 112 92
78 112 92
78 112 92
78 111 92
78 112 92
78 112 92
78 112 92
78 112 92
78 112 92
78 112 92
78 111 92
78 112 92
78 111 92
78 111 92
78 111 92
78 111 92
78 111 92
78 111 92
78 111 92
78 112 92
78 111 92
78 111 92
78 111 92
78 112 92
78 111 92
78 111 92
78 111 91
77 111 91
78 111 91
78 111 91
78 111 91
77 111 91
78 111 91
77 111 91
78 111 91
77 111 91
77 111 91
77 111 91
78 111 91
77 111 91
77 111 91
77 111 91
78 111 91
77 111 91
77 111 91
78 111 91
78 111 91
77 111 91
77 111 91
77 111 91
77 111 91
77 111 91
77 111 91
77 111 91
78 111 91
77 111 91
77 111 91
77 111 91
77 111 91
77 111 91
77 111 91
77 111 91
77 111 91
77 111 91
77 110 91
77 111 91
77 111 91
77 110 91
77 111 91
77 111 91
77 111 91
77 111 91
77 110 91
77 110 91
77 110 91
77 110 91
77 110 91
77 110 91
77 110 91
77 110 91
76 110 91
77 110 91
77 110 91
77 110 91
77 110 91
77 110 91
77 110 91
76 110 91
77 110 91
77 110 91
77 110 91
77 110 91
77 110 91
77 110 91
77 110 91
77 110 91
77 110 91
77 110 91
76 110 91
77 110 91
77 110 91
76 110 91
76 110 91
76 110 91
76 110 90
76 110 90
76 110 90
77 110 90
76 110 90
76 109 90
76 110 90
77 110 90
76 109 90
76 110 90
76 110 90
76 109 90
76 109 90
76 109 90
76 110 90
77 110 90
76 109 90
76 109 90
76 109 90
76 109 90
76 109 90
76 109 90
76 109 90
76 109 90
76 109 90
76 109 90
76 109 90
76 109 90
76 109 90
76 109 90
76 109 90
76 109 90
76 109 90
76 109 90
76 109 90
76 109 90
76 109 90
76 109 90
76 109 90
75 109 90
76 109 90
76 109 90
76 109 90
76 109 90
75 109 90
75 109 90
75 109 90
76 109 90
75 109 90
76 109 90
75 109 90
75 109 90
76 109 90
76 109 90
75 109 90
75 109 90
76 109 90
75 109 90
76 109 90
76 109 90
75 109 90
75 108 90
75 108 90
75 108 90
75 108 90
75 108 90
75 108 90
75 108 89
75 108 89
75 108 89
75 108 89
75 108 89
75 108 89
75 108 89
75 108 89
75 108 89
75 108 89
75 108 89
75 108 89
75 108 89
75 108 89
79 112 92
79 113 92
79 112 92
79 113 92
78 112 92
78 112 92
79 112 92
79 112 92
79 113 92
79 113 92
78 112 92
79 113 92
79 113 92
79 113 92
79 113 92
79 112 92
79 112 92
79 112 92
79 112 92
79 113 92
79 112 92
79 113 92
79 113 92
79 113 92
79 113 92
79 112 92
79 112 92
79 113 92
79 113 92
79 113 92
79 113 92
79 113 92
79 113 92
79 113 92
79 113 92
79 113 92
79 113 92
79 112 92
79 112 92
79 113 92
78 112 92
79 113 92
78 112 92
79 113 92
79 113 92
79 112 92
79 112 92
79 112 92
79 113 92
79 113 92
79 112 92
79 112 92
79 113 92
79 112 92
79 113 92
79 113 92
79 112 92
79 113 92
79 113 92
79 112 92
78 112 92
79 113 92
79 113 92
79 112 92
79 112 92
79 112 92
79 113 92
78 112 92
78 112 92
79 113 92
79 112 92
78 112 92
79 112 92
79 112 92
79 112 92
79 112 92
79 112 92
78 112 92
79 112 92
79 112 92
78 112 92
78 112 92
79 112 92
78 112 92
79 112 92
79 112 92
79 112 92
79 113 92
78 112 92
79 112 92
79 112 92
79 112 92
78 112 92
78 112 92
78 112 92
78 112 92
78 112 92
78 112 92
79 112 92
78 112 92
78 112 92
78 112 92
78 112 92
78 112 92
78 112 92
78 112 92
78 112 92
78 112 92
78 112 92
79 112 92
78 112 92
78 112 92
78 112 92
78 112 92
79 112 92
78 112 92
78 112 92
78 112 92
78 112 92
78 112 92
78 112 92
78 112 92
78 112 92
78 112 92
78 112 92
78 112 92
78 112 92
78 112 92
78 112 92
78 112 92
78 112 92
78 112 92
78 112 92
78 112 92
78 112 92
77 111 92
78 111 92
78 112 92
78 112 92
78 112 92
78 112 92
78 112 92
78 111 92
78 112 92
78 112 92
78 111 92
78 112 92
78 112 92
78 111 92
78 111 92
78 111 92
78 111 92
78 111 92
78 112 92
78 111 91
78 111 91
78 111 91
78 111 91
78 111 91
77 111 91
77 111 91
78 111 91
77 111 91
77 111 91
78 111 91
78 111 91
77 111 91
77 111 91
77 111 91
77 111 91
77 111 91
78 111 91
77 111 91
77 111 91
77 111 91
77 111 91
77 111 91
77 111 91
78 111 91
77 111 91
77 111 91
77 111 91
77 111 91
77 110 91
77 111 91
78 111 91
78 111 91
77 111 91
77 111 91
77 110 91
78 111 91
77 111 91
77 111 91
77 110 91
77 111 91
77 111 91
77 111 91
77 110 91
77 111 91
77 111 91
77 110 91
77 110 91
77 110 91
77 110 91
77 110 91
77 110 91
77 110 91
77 110 91
77 110 91
77 110 91
77 110 91
77 110 91
77 110 91
77 110 91
77 110 91
77 110 91
77 110 91
77 110 91
76 110 91
77 110 91
76 110 91
77 110 91
77 110 90
76 110 91
77 110 91
76 110 91
77 110 91
76 110 90
77 110 90
77 110 90
76 110 90
76 110 90
77 110 90
76 110 90
76 109 90
76 110 90
76 110 90
76 110 90
76 109 90
76 110 90
76 109 90
76 109 90
76 110 90
76 109 90
76 109 90
76 109 90
76 109 90
76 109 90
76 109 90
76 109 90
76 109 90
76 109 90
76 109 90
76 109 90
76 109 90
76 109 90
76 109 90
76 109 90
76 109 90
76 109 90
76 109 90
76 109 90
76 109 90
76 109 90
76 109 90
76 109 90
76 109 90
76 109 90
76 109 90
76 109 90
76 109 90
75 109 90
76 109 90
76 109 90
76 109 90
76 109 90
76 109 90
76 109 90
75 109 90
76 109 90
75 108 90
75 109 90
75 109 90
75 108 90
75 108 89
75 108 90
75 108 90
75 108 90
75 108 90
75 108 90
75 108 90
75 108 90
75 108 90
75 108 89
75 108 89
75 108 89
75 108 89
75 108 89
75 108 89
75 108 89
79 113 92
79 113 92
79 113 92
79 113 92
79 113 92
79 113 92
79 113 92
79 113 92
79 113 92
79 113 92
79 113 92
79 113 92
79 113 92
79 112 92
79 113 92
79 113 92
79 113 92
79 113 92
79 113 92
79 113 92
79 113 92
79 113 92
79 113 92
79 113 92
79 113 92
79 113 92
79 113 92
79 113 92
79 113 92
79 113 92
79 113 92
79 113 92
79 113 92
79 113 92
79 113 92
79 113 92
79 113 92
79 113 92
79 113 92
79 113 92
79 113 92
79 113 92
79 113 92
79 113 92
79 113 92
79 113 92
79 113 92
79 113 92
79 113 92
79 113 92
79 113 92
79 113 92
79 113 92
79 113 92
79 113 92
79 113 92
79 113 92
79 113 92
79 113 92
79 113 92
79 113 92
79 113 92
79 113 92
79 113 92
79 113 92
79 113 92
79 113 92
79 113 92
79 113 92
79 113 92
79 113 92
79 113 92
79 113 92
79 113 92
78 112 92
79 112 92
78 112 92
79 113 92
79 113 92
79 112 92
79 112 92
79 113 92
79 112 92
79 113 92
79 113 92
79 113 92
79 112 92
79 112 92
79 113 92
78 112 92
79 113 92
79 112 92
78 112 92
79 112 92
79 113 92
78 112 92
79 113 92
78 112 92
78 112 92
79 112 92
79 112 92
79 112 92
79 113 92
79 112 92
79 112 92
78 112 92
78 112 92
78 112 92
78 112 92
78 112 92
79 112 92
78 112 92
78 112 92
78 112 92
78 112 92
78 112 92
78 112 92
79 112 92
78 112 92
78 112 92
78 112 92
78 112 92
78 112 92
78 112 92
78 112 92
79 112 92
78 112 92
78 112 92
78 112 92
78 112 92
78 112 92
78 112 92
78 112 92
78 112 92
78 112 92
78 112 92
78 112 92
78 112 92
78 112 92
78 112 92
78 112 92
78 112 92
78 112 92
78 111 92
78 112 92
78 112 92
78 111 92
78 112 92
78 111 92
78 111 92
78 112 92
78 112 92
78 111 92
78 112 92
78 112 92
78 111 92
78 112 92
78 112 92
78 112 92
78 111 92
78 111 92
78 111 92
78 111 92
78 111 92
78 111 92
78 111 91
78 111 91
77 111 91
78 111 91
78 111 91
78 112 91
78 111 91
78 111 91
78 111 91
77 111 91
78 111 91
78 111 91
78 111 91
77 111 91
78 111 91
78 111 91
77 111 91
77 111 91
78 111 91
78 111 91
77 111 91
77 111 91
77 111 91
77 111 91
77 111 91
77 111 91
77 111 91
77 111 91
77 111 91
78 111 91
77 111 91
77 111 91
77 111 91
77 111 91
77 111 91
77 111 91
77 111 91
77 111 91
77 111 91
77 110 91
77 111 91
77 110 91
77 111 91
77 110 91
77 111 91
77 110 91
77 110 91
77 111 91
77 110 91
77 110 91
77 110 91
77 110 91
77 110 91
77 110 91
77 110 91
77 110 91
77 110 91
77 110 91
77 110 91
77 110 91
77 110 90
76 110 91
76 110 91
77 110 91
76 110 91
77 110 91
76 110 91
77 110 91
77 110 91
77 110 91
76 110 90
77 110 90
76 110 90
77 110 90
77 110 90
76 110 90
77 110 90
76 110 90
76 110 90
76 110 90
76 110 90
77 110 90
76 110 90
76 109 90
76 110 90
76 110 90
76 110 90
76 109 90
76 109 90
76 109 90
76 109 90
76 109 90
76 109 90
76 109 90
76 109 90
76 109 90
76 109 90
76 109 90
76 109 90
76 109 90
76 109 90
76 109 90
76 109 90
76 109 90
76 109 90
76 109 90
76 109 90
76 109 90
76 109 90
76 109 90
76 109 90
76 109 90
76 109 90
76 109 90
75 108 90
76 109 90
76 109 90
76 109 90
76 109 90
75 109 90
75 109 90
76 109 90
76 109 90
75 108 90
76 109 90
75 109 90
76 109 90
75 108 90
76 109 90
75 108 90
75 108 90
75 108 90
75 108 90
75 108 90
76 109 90
79 113 93
79 113 92
79 113 93
79 113 93
79 113 93
79 113 93
79 113 93
79 113 93
79 113 93
79 113 93
79 113 93
79 113 93
79 113 93
79 113 93
79 113 93
79 113 93
79 113 93
79 113 93
79 113 93
79 113 93
79 113 93
79 113 93
79 113 93
79 113 93
79 113 93
79 113 93
79 113 93
79 113 93
79 113 93
79 113 93
79 113 93
79 113 93
79 113 93
79 113 93
79 113 93
79 113 93
79 113 93
79 113 93
79 113 93
79 113 93
79 113 93
79 113 93
79 113 93
79 113 93
79 113 93
79 113 93
79 113 93
79 113 93
79 113 93
79 113 93
79 113 93
79 113 93
79 113 93
79 113 93
79 113 93
79 113 93
79 113 93
79 113 93
79 113 93
79 113 93
79 113 93
79 113 93
79 113 93
79 113 93
79 113 93
79 113 93
79 113 93
79 113 93
79 113 93
79 113 93
79 113 93
79 113 93
79 113 93
79 113 93
79 113 93
79 113 93
79 113 93
79 113 92
79 113 92
79 113 92
79 113 92
79 113 92
79 113 92
79 113 92
79 113 92
79 113 92
79 113 92
79 113 92
79 113 92
79 113 92
79 113 92
79 113 92
79 113 92
79 112 92
79 113 92
79 113 92
79 113 92
79 113 92
79 113 92
79 113 92
79 113 92
79 113 92
79 113 92
79 113 92
79 113 92
79 113 92
79 112 92
79 113 92
79 112 92
79 112 92
79 113 92
79 112 92
79 112 92
78 112 92
79 112 92
79 113 92
78 112 92
78 112 92
79 112 92
79 112 92
78 112 92
79 112 92
78 112 92
78 112 92
78 112 92
78 112 92
78 112 92
78 112 92
79 112 92
79 112 92
79 112 92
78 112 92
78 112 92
78 112 92
79 112 92
78 112 92
78 112 92
78 112 92
78 112 92
78 112 92
78 112 92
78 112 92
78 112 92
78 112 92
78 112 92
78 112 92
78 112 92
78 112 92
78 112 92
78 112 92
78 112 92
78 112 92
78 112 92
78 112 92
78 112 92
78 111 92
78 112 92
78 111 92
78 112 92
78 112 92
78 112 92
78 111 92
78 111 92
78 112 92
78 111 91
78 111 92
78 112 92
78 111 92
78 112 92
78 111 92
78 111 92
78 112 92
78 111 92
78 111 92
78 111 92
78 111 91
78 111 91
78 111 91
78 111 91
77 111 91
78 111 91
78 111 91
78 111 91
77 111 91
78 111 91
78 111 91
77 111 91
78 111 91
77 111 91
77 111 91
78 111 91
78 111 91
78 111 91
78 111 91
77 111 91
77 111 91
77 111 91
77 111 91
77 111 91
77 111 91
77 111 91
77 111 91
77 111 91
77 110 91
78 111 91
77 111 91
77 110 91
77 110 91
77 111 91
77 111 91
77 111 91
77 111 91
77 110 91
77 111 91
77 111 91
77 111 91
77 110 91
77 110 91
77 110 91
77 110 91
77 110 91
77 110 91
77 110 91
77 110 91
77 110 91
77 110 91
77 110 91
77 110 91
77 110 91
76 110 91
77 110 91
77 110 91
76 110 91
77 110 91
76 110 91
77 110 91
77 110 91
77 110 91
76 110 91
77 110 91
76 110 91
77 110 91
76 110 91
77 110 90
76 110 90
77 110 90
77 110 90
76 110 90
76 110 90
77 110 90
77 110 90
76 110 90
76 110 90
76 110 90
76 109 90
76 110 90
76 110 90
76 110 90
76 109 90
76 109 90
76 109 90
76 109 90
76 109 90
76 109 90
76 109 90
76 109 90
76 109 90
76 109 90
76 109 90
76 109 90
76 109 90
76 109 90
76 109 90
76 109 90
76 109 90
76 109 90
76 109 90
76 109 90
76 109 90
76 109 90
76 109 90
76 109 90
76 109 90
76 109 90
76 109 90
76 109 90
76 109 90
76 109 90
75 109 90
75 109 90
76 109 90
76 109 90
76 109 90
76 109 90
75 109 90
76 109 90
76 109 90
75 109 90
75 108 90
76 109 90
79 113 93
79 113 93
79 113 93
79 113 93
79 113 93
79 113 93
79 113 93
79 113 93
79 113 93
79 113 93
79 113 93
80 113 93
79 113 93
79 113 93
79 113 93
79 113 93
79 113 93
79 113 93
80 114 93
79 113 93
79 113 93
79 113 93
79 113 93
79 113 93
79 113 93
79 113 93
79 113 93
79 113 93
79 113 93
79 113 93
79 113 93
79 113 93
80 114 93
79 113 93
79 113 93
79 113 93
79 113 93
80 113 93
79 113 93
79 113 93
79 113 93
79 113 93
79 113 93
80 113 93
79 113 93
79 113 93
80 113 93
79 113 93
79 113 93
79 113 93
79 113 93
79 113 93
79 113 93
79 113 93
79 113 93
79 113 93
80 113 93
79 113 93
79 113 93
79 113 93
79 113 93
79 113 93
79 113 93
79 113 93
79 113 93
79 113 93
79 113 93
79 113 93
79 113 93
79 113 93
79 113 93
79 113 93
79 113 93
79 113 93
79 113 93
79 113 93
79 113 93
79 113 93
79 113 93
79 113 93
79 113 93
79 113 93
79 113 93
79 113 93
79 113 93
79 113 92
79 113 93
79 113 93
79 113 92
79 113 93
79 113 93
79 113 92
79 113 93
79 113 93
79 113 93
79 113 93
79 113 93
79 113 93
79 113 93
79 113 92
79 113 92
79 113 92
79 113 92
79 113 92
79 113 92
79 113 92
79 112 92
79 113 92
79 113 92
79 113 92
79 113 92
79 113 92
79 113 92
79 113 92
79 113 92
79 113 92
79 113 92
79 113 92
78 112 92
79 113 92
79 113 92
79 113 92
79 112 92
79 112 92
79 112 92
79 113 92
79 113 92
79 112 92
79 113 92
79 112 92
78 112 92
79 113 92
79 112 92
78 112 92
79 112 92
79 112 92
79 112 92
79 113 92
79 112 92
78 112 92
79 112 92
78 112 92
78 112 92
79 112 92
78 112 92
78 112 92
79 112 92
78 112 92
78 112 92
78 112 92
78 112 92
78 112 92
78 112 92
78 112 92
78 112 92
78 112 92
78 112 92
78 112 92
78 112 92
78 112 92
78 112 92
78 112 92
78 112 92
78 112 92
78 112 92
78 112 92
78 112 92
78 112 92
78 112 92
78 112 92
78 112 92
78 112 92
78 112 92
78 112 92
78 112 92
78 112 92
78 112 92
78 112 92
78 112 92
78 111 92
78 112 92
78 111 92
78 111 92
78 111 92
78 111 91
78 111 91
78 111 91
78 111 91
77 111 91
78 111 91
78 111 91
78 111 91
78 111 91
78 111 91
78 111 91
77 111 91
77 111 91
78 111 91
77 111 91
77 111 91
77 111 91
77 111 91
78 111 91
77 111 91
77 111 91
78 111 91
77 111 91
77 111 91
77 111 91
78 111 91
77 111 91
77 111 91
77 111 91
77 111 91
77 111 91
77 111 91
77 111 91
77 110 91
77 111 91
77 111 91
77 110 91
77 111 91
77 110 91
77 111 91
77 110 91
77 110 91
77 110 91
77 111 91
77 110 91
77 110 91
77 110 91
77 110 91
77 110 91
77 110 91
77 110 91
77 110 91
77 110 91
77 110 91
77 110 91
77 110 91
77 110 91
77 110 91
77 110 91
77 110 91
77 110 91
77 110 91
76 110 91
76 110 91
76 110 90
76 110 91
77 110 91
77 110 90
76 109 90
76 110 90
76 110 90
76 110 90
76 110 90
76 110 90
77 110 90
76 110 90
76 109 90
76 110 90
76 110 90
76 109 90
76 109 90
76 110 90
76 109 90
76 110 90
76 109 90
76 109 90
76 109 90
76 109 90
76 109 90
76 109 90
76 109 90
76 109 90
76 109 90
76 109 90
76 109 90
76 109 90
76 109 90
76 109 90
76 109 90
76 109 90
76 109 90
76 109 90
76 109 90
76 109 90
76 109 90
76 109 90
75 109 90
75 109 90
76 109 90
76 109 90
76 109 90
75 109 90
76 109 90
76 109 90
76 109 90
75 108 90
80 114 93
79 114 93
79 113 93
79 113 93
80 114 93
80 114 93
80 114 93
80 114 93
79 113 93
79 113 93
80 114 93
80 114 93
80 114 93
80 114 93
80 114 93
79 114 93
80 114 93
80 114 93
80 114 93
79 114 93
80 114 93
79 114 93
79 113 93
80 114 93
80 114 93
80 114 93
80 114 93
80 114 93
79 113 93
79 114 93
80 114 93
79 113 93
80 114 93
79 113 93
80 114 93
80 114 93
79 113 93
80 113 93
79 113 93
79 113 93
79 114 93
79 114 93
79 113 93
79 113 93
80 114 93
80 114 93
79 114 93
79 114 93
79 114 93
79 113 93
80 114 93
79 113 93
79 113 93
80 114 93
79 113 93
80 114 93
79 113 93
80 114 93
79 113 93
79 113 93
79 113 93
80 114 93
79 113 93
80 113 93
80 114 93
79 113 93
79 113 93
80 113 93
79 113 93
79 113 93
79 113 93
79 113 93
79 113 93
79 113 93
79 113 93
79 113 93
79 113 93
79 113 93
80 113 93
79 113 93
79 113 93
79 113 93
79 113 93
79 113 93
79 113 93
79 113 93
79 113 93
79 113 93
79 113 93
79 113 93
79 113 93
79 113 93
79 113 93
79 113 93
79 113 93
79 113 93
79 113 93
79 113 93
79 113 93
79 113 93
79 113 93
79 113 93
79 113 93
79 113 93
79 113 93
79 113 93
79 113 93
79 113 93
79 113 93
79 113 93
79 113 93
79 113 93
79 113 92
79 113 93
79 113 93
79 113 92
79 113 92
79 113 92
79 113 92
79 113 92
79 113 92
79 113 92
79 113 92
79 113 92
79 113 92
79 113 92
79 113 92
79 113 92
79 113 92
79 113 92
79 112 92
79 113 92
79 113 92
79 112 92
79 112 92
79 113 92
79 112 92
79 113 92
79 113 92
78 112 92
78 112 92
79 113 92
79 113 92
78 112 92
79 113 92
79 112 92
79 112 92
79 112 92
78 112 92
79 112 92
78 112 92
78 112 92
78 112 92
79 112 92
78 112 92
79 112 92
78 112 92
78 112 92
78 112 92
78 112 92
78 112 92
78 112 92
78 112 92
78 112 92
78 112 92
78 112 92
78 112 92
78 112 92
78 112 92
78 112 92
78 112 92
78 111 92
78 112 92
78 112 92
78 112 92
78 112 92
78 112 92
78 112 92
78 112 92
78 112 92
78 112 92
78 112 92
78 112 92
78 112 92
78 112 92
78 112 92
78 112 92
78 111 92
78 111 92
78 111 92
78 111 92
78 112 92
77 111 92
78 111 91
78 111 91
78 111 91
78 111 91
78 111 91
77 111 91
77 111 91
77 111 91
77 111 91
77 111 91
77 111 91
77 111 91
77 111 91
77 111 91
77 111 91
78 111 91
77 111 91
78 111 91
77 111 91
78 111 91
77 111 91
77 111 91
77 111 91
77 111 91
77 111 91
77 111 91
77 111 91
77 111 91
77 111 91
77 111 91
77 111 91
77 111 91
77 110 91
77 111 91
77 111 91
77 110 91
77 111 91
77 111 91
77 111 91
77 110 91
77 110 91
77 110 91
77 110 91
77 110 91
77 110 91
77 110 91
77 110 91
77 110 91
77 110 91
77 110 91
77 110 91
77 110 91
77 110 91
77 110 91
77 110 91
77 110 91
77 110 91
76 110 91
77 110 91
77 110 91
76 110 91
77 110 91
77 110 90
77 110 91
76 110 90
77 110 90
77 110 90
76 110 90
77 110 90
76 110 90
76 109 90
76 110 90
76 110 90
77 110 90
77 110 90
76 110 90
76 110 90
76 110 90
76 109 90
76 110 90
76 109 90
76 110 90
76 109 90
76 109 90
76 110 90
76 110 90
76 110 90
76 109 90
76 109 90
76 109 90
76 109 90
76 109 90
76 109 90
76 109 90
76 109 90
76 109 90
76 109 90
76 109 90
76 109 90
76 109 90
76 109 90
75 109 90
75 109 90
76 109 90
75 109 90
76 109 90
76 109 90
80 114 93
80 114 93
80 114 93
80 114 93
80 114 93
80 114 93
80 114 93
80 114 93
80 114 93
80 114 93
80 114 93
80 114 93
79 114 93
79 114 93
80 114 93
80 114 93
80 114 93
80 114 93
80 114 93
80 114 93
80 114 93
80 114 93
80 114 93
80 114 93
80 114 93
79 113 93
80 114 93
80 114 93
80 114 93
79 114 93
80 114 93
80 114 93
80 114 93
80 114 93
80 114 93
80 114 93
79 114 93
80 114 93
80 114 93
80 114 93
80 114 93
80 114 93
80 114 93
80 114 93
80 114 93
80 114 93
80 114 93
80 114 93
80 114 93
80 114 93
80 114 93
80 114 93
80 114 93
80 114 93
80 114 93
80 114 93
79 113 93
80 114 93
80 114 93
80 114 93
80 114 93
80 114 93
80 114 93
80 114 93
80 114 93
80 114 93
79 113 93
79 113 93
80 114 93
80 114 93
79 114 93
80 114 93
80 114 93
79 113 93
79 113 93
80 114 93
80 114 93
79 113 93
80 114 93
79 113 93
79 113 93
79 113 93
80 113 93
80 114 93
79 113 93
79 113 93
80 113 93
80 114 93
80 114 93
79 113 93
80 114 93
79 113 93
79 113 93
79 113 93
79 113 93
80 114 93
79 113 93
79 113 93
80 113 93
79 113 93
79 113 93
79 113 93
79 113 93
79 113 93
79 113 93
79 113 93
79 113 93
79 113 93
79 113 93
79 113 93
79 113 93
79 113 93
79 113 93
79 113 93
79 113 93
79 113 93
79 113 93
79 113 93
79 113 93
79 113 93
79 113 93
79 113 92
79 113 93
79 113 93
79 113 93
79 113 93
79 113 92
79 113 93
79 113 93
79 113 92
79 113 92
79 113 92
79 113 92
79 113 92
79 113 92
79 113 92
79 112 92
79 113 92
79 113 92
79 113 92
79 112 92
79 113 92
79 112 92
79 113 92
79 112 92
79 112 92
79 113 92
79 112 92
79 113 92
79 113 92
79 112 92
78 112 92
78 112 92
78 112 92
79 112 92
78 112 92
78 112 92
78 112 92
78 112 92
79 112 92
78 112 92
79 112 92
79 112 92
79 112 92
78 112 92
78 112 92
78 112 92
78 112 92
79 112 92
78 112 92
78 112 92
78 112 92
78 112 92
78 112 92
78 112 92
78 112 92
78 112 92
78 112 92
78 112 92
78 112 92
78 112 92
78 112 92
78 112 92
78 112 92
78 112 92
78 112 92
78 112 92
78 112 92
78 112 92
78 111 92
78 112 92
78 112 92
78 111 92
78 111 92
78 111 91
78 112 91
78 111 92
78 111 92
78 111 92
78 111 92
78 111 91
78 111 92
77 111 91
78 111 91
78 111 91
78 111 91
77 111 91
78 111 91
78 111 91
78 111 91
77 111 91
78 111 91
78 111 91
78 111 91
77 111 91
77 111 91
78 111 91
77 111 91
77 111 91
78 111 91
77 111 91
77 111 91
77 111 91
77 111 91
77 111 91
77 111 91
77 111 91
77 111 91
77 111 91
77 111 91
77 111 91
77 111 91
77 111 91
77 111 91
77 111 91
77 110 91
77 111 91
77 110 91
77 111 91
77 110 91
77 110 91
77 111 91
77 110 91
77 110 91
77 111 91
77 110 91
77 110 91
77 110 91
77 110 91
77 110 91
77 110 91
77 110 91
77 110 91
77 110 91
77 110 91
77 110 91
76 110 91
77 110 91
77 110 91
76 110 91
77 110 91
76 110 91
77 110 91
77 110 91
76 110 91
77 110 90
76 110 90
76 110 90
76 110 90
77 110 90
76 110 90
77 110 90
76 109 90
76 110 90
76 110 90
76 110 90
76 110 90
76 110 90
76 110 90
76 109 90
76 109 90
76 110 90
76 110 90
76 109 90
76 110 90
76 109 90
76 109 90
76 109 90
76 109 90
76 110 90
76 109 90
76 109 90
76 109 90
76 109 90
76 109 90
76 109 90
76 109 90
76 109 90
76 109 90
76 109 90
80 114 93
80 114 93
80 114 93
80 114 93
80 114 93
80 114 93
80 114 93
80 114 93
80 114 93
80 114 93
80 114 93
80 114 93
80 114 93
80 114 93
80 114 93
80 114 93
80 114 93
80 114 93
80 114 93
80 114 93
80 114 93
80 114 93
80 114 93
80 114 93
80 114 93
80 114 93
80 114 93
80 114 93
80 114 93
80 114 93
80 114 93
80 114 93
80 114 93
80 114 93
80 114 93
80 114 93
80 114 93
80 114 93
80 114 93
80 114 93
80 114 93
80 114 93
80 114 93
80 114 93
80 114 93
80 114 93
80 114 93
80 114 93
80 114 93
80 114 93
80 114 93
80 114 93
80 114 93
80 114 93
80 114 93
80 114 93
80 114 93
80 114 93
80 114 93
80 114 93
80 114 93
80 114 93
80 114 93
80 114 93
80 114 93
80 114 93
80 114 93
80 114 93
80 114 93
80 114 93
80 114 93
80 114 93
80 114 93
80 114 93
80 114 93
80 114 93
80 114 93
80 114 93
79 114 93
80 114 93
80 114 93
80 114 93
80 114 93
80 114 93
80 114 93
79 113 93
80 114 93
80 114 93
80 114 93
79 113 93
80 114 93
79 113 93
80 114 93
79 113 93
80 114 93
80 114 93
80 114 93
79 113 93
80 114 93
79 113 93
80 114 93
80 113 93
79 113 93
79 113 93
79 113 93
80 114 93
79 113 93
79 113 93
79 113 93
79 113 93
79 113 93
79 113 93
79 113 93
79 113 93
79 113 93
79 113 93
79 113 93
79 113 93
79 113 93
79 113 93
79 113 93
79 113 93
79 113 93
79 113 93
79 113 93
79 113 93
79 113 93
79 113 93
79 113 93
79 113 93
79 113 93
79 113 93
79 113 92
79 113 92
79 113 93
79 113 93
80 113 93
79 113 93
79 113 93
79 113 93
79 113 93
79 113 92
79 113 92
79 113 92
79 113 92
79 113 92
79 113 92
79 113 92
79 113 92
79 113 92
79 113 92
79 113 92
78 112 92
79 113 92
79 113 92
79 113 92
79 113 92
79 113 92
79 113 92
79 113 92
78 112 92
79 112 92
79 113 92
79 112 92
78 112 92
79 113 92
79 112 92
79 112 92
78 112 92
79 112 92
79 112 92
78 112 92
79 112 92
78 112 92
78 112 92
78 112 92
79 112 92
79 112 92
78 112 92
78 112 92
78 112 92
78 112 92
78 112 92
78 112 92
78 112 92
78 112 92
78 112 92
78 112 92
78 112 92
78 112 92
78 112 92
78 112 92
78 112 92
78 112 92
78 112 92
78 112 92
78 111 92
78 111 92
78 112 92
78 112 92
78 112 92
78 112 92
78 111 92
78 111 92
78 111 92
78 111 92
77 111 92
78 111 92
78 111 92
78 111 92
78 111 91
78 111 91
77 111 91
78 111 91
78 111 91
78 111 91
78 111 91
78 111 91
77 111 91
77 111 91
77 111 91
78 111 91
77 111 91
77 111 91
77 111 91
78 111 91
77 111 91
78 111 91
77 111 91
77 111 91
77 111 91
77 111 91
77 111 91
78 111 91
77 111 91
77 111 91
77 111 91
77 111 91
77 111 91
77 111 91
77 111 91
77 111 91
77 110 91
77 110 91
77 110 91
77 110 91
77 111 91
77 110 91
77 110 91
77 110 91
77 110 91
77 110 91
77 110 91
77 110 91
77 110 91
77 110 91
77 110 91
77 110 91
77 110 91
77 110 91
77 110 91
77 110 91
76 110 91
77 110 91
77 110 91
77 110 91
77 110 91
76 110 91
77 110 91
77 110 91
77 110 91
77 110 90
76 110 90
76 110 90
76 110 90
76 110 90
76 110 90
76 110 90
76 110 90
76 110 90
77 110 90
76 110 90
76 110 90
76 109 90
76 109 90
76 109 90
76 109 90
76 110 90
76 109 90
76 109 90
76 109 90
76 110 90
76 109 90
76 109 90
76 109 90
76 109 90
76 109 90
76 109 90
76 109 90
76 109 90
80 114 93
80 114 94
80 114 94
80 114 94
80 114 94
80 114 94
80 114 94
80 114 94
80 114 94
80 114 94
80 114 94
80 114 94
80 114 94
80 114 94
80 114 94
80 114 94
80 114 94
80 114 94
80 114 94
80 114 94
80 114 94
80 114 94
80 114 94
80 114 94
80 114 94
80 114 94
80 115 94
80 114 94
80 114 94
80 114 94
80 114 94
80 114 94
80 114 94
80 114 94
80 114 94
80 114 94
81 115 93
80 114 93
80 114 93
80 114 93
80 114 93
80 114 93
80 114 93
80 114 93
80 114 93
80 114 93
80 114 93
80 114 93
80 114 93
80 114 93
80 114 93
80 114 93
80 114 93
80 114 93
80 114 93
80 114 93
80 114 93
80 114 93
80 114 93
80 114 93
80 114 93
80 114 93
80 114 93
80 114 93
80 114 93
80 114 93
80 114 93
80 114 93
80 114 93
80 114 93
80 114 93
80 114 93
80 114 93
80 114 93
80 114 93
80 114 93
80 114 93
80 114 93
80 114 93
80 114 93
80 114 93
80 114 93
80 114 93
80 114 93
80 114 93
80 114 93
80 114 93
80 114 93
80 114 93
80 114 93
80 114 93
80 114 93
80 114 93
80 114 93
80 114 93
79 114 93
80 114 93
79 114 93
80 114 93
79 114 93
80 114 93
80 114 93
80 114 93
80 114 93
80 114 93
80 114 93
80 114 93
80 114 93
79 113 93
80 114 93
80 114 93
79 113 93
80 114 93
80 114 93
79 113 93
79 113 93
79 113 93
79 113 93
79 113 93
79 113 93
79 113 93
80 113 93
79 113 93
79 113 93
79 113 93
80 114 93
79 113 93
79 113 93
79 113 93
79 113 93
80 113 93
79 113 93
79 113 93
79 113 93
79 113 93
79 113 93
79 113 93
79 113 93
79 113 93
79 113 93
79 113 93
79 113 93
79 113 93
79 113 93
79 113 93
79 113 93
79 113 93
79 113 93
79 113 93
79 113 93
79 113 93
79 113 93
79 113 92
79 113 92
79 113 92
79 113 92
79 113 92
79 113 92
79 113 92
79 113 92
79 113 92
79 113 92
79 113 92
79 112 92
79 113 92
78 112 92
78 112 92
79 113 92
79 113 92
78 112 92
79 113 92
79 113 92
78 112 92
79 112 92
79 112 92
79 112 92
78 112 92
78 112 92
79 112 92
78 112 92
79 112 92
78 112 92
78 112 92
78 112 92
78 112 92
78 112 92
78 112 92
78 112 92
78 112 92
78 112 92
78 112 92
78 112 92
78 112 92
78 112 92
78 112 92
78 112 92
78 112 92
78 112 92
78 112 92
78 112 92
78 112 92
78 112 92
78 112 92
78 112 92
78 112 92
78 112 92
78 112 92
78 111 91
78 111 92
78 112 92
78 112 92
78 111 92
78 111 92
78 111 92
78 112 92
78 112 92
78 111 92
78 111 92
78 111 91
78 111 91
78 111 91
78 111 91
78 111 91
77 111 91
77 111 91
77 111 91
77 111 91
78 111 91
77 111 91
77 111 91
77 111 91
78 111 91
77 111 91
78 111 91
77 111 91
77 111 91
77 111 91
77 111 91
77 111 91
77 111 91
77 111 91
77 111 91
77 111 91
77 111 91
77 111 91
77 111 91
77 111 91
77 111 91
77 111 91
77 111 91
77 111 91
77 111 91
77 110 91
77 111 91
77 110 91
77 111 91
77 110 91
77 110 91
77 110 91
77 110 91
77 110 91
77 110 91
77 110 91
77 110 91
77 110 91
76 110 91
77 110 91
77 110 91
77 110 90
77 110 91
76 110 91
77 110 91
77 110 91
77 110 91
76 110 91
77 110 90
76 110 91
77 110 91
77 110 90
77 110 90
76 109 90
76 109 90
76 110 90
77 110 90
76 110 90
76 110 90
76 109 90
76 110 90
76 110 90
76 109 90
76 110 90
76 110 90
76 109 90
76 109 90
76 109 90
76 109 90
76 109 90
76 109 90
76 109 90
76 109 90
80 114 94
80 115 94
81 115 94
81 115 94
80 114 94
80 115 94
80 115 94
80 115 94
80 114 94
81 115 94
80 114 94
80 115 94
81 115 94
80 115 94
81 115 94
80 115 94
80 115 94
80 114 94
81 115 94
80 114 94
81 115 94
81 115 94
80 114 94
80 115 94
80 114 94
80 115 94
81 115 94
80 114 94
80 115 94
80 114 94
80 115 94
80 114 94
80 115 94
80 115 94
80 114 94
80 114 94
80 115 94
81 115 94
80 115 94
80 114 94
80 115 94
80 115 94
80 115 94
80 114 94
80 114 94
80 114 94
80 115 94
80 114 94
80 115 94
80 114 94
81 115 94
80 114 94
80 115 94
80 115 94
80 114 94
80 114 93
80 115 94
80 114 94
80 114 94
80 114 94
80 114 93
80 114 93
80 114 94
80 114 94
80 114 94
80 114 94
80 114 93
80 114 94
80 114 94
80 115 94
80 114 94
80 114 93
80 114 93
80 114 93
80 114 93
80 114 93
80 114 93
80 114 93
80 114 93
80 114 93
80 114 93
80 114 93
80 114 93
80 114 93
80 114 93
80 114 93
80 114 93
80 114 93
80 114 93
80 114 93
80 114 93
80 114 93
79 114 93
80 114 93
80 114 93
80 114 93
80 114 93
80 114 93
80 114 93
80 114 93
80 114 93
80 114 93
80 114 93
80 114 93
79 114 93
80 114 93
79 114 93
80 114 93
80 114 93
79 113 93
80 114 93
80 114 93
80 114 93
80 114 93
80 114 93
80 114 93
80 114 93
79 114 93
80 114 93
80 114 93
79 114 93
80 114 93
79 114 93
79 113 93
80 114 93
79 113 93
80 114 93
79 113 93
80 114 93
79 113 93
80 114 93
79 113 93
79 113 93
79 113 93
79 113 93
80 114 93
79 113 93
79 113 93
79 113 93
79 113 93
79 113 93
79 113 93
79 113 93
79 113 93
79 113 93
79 113 93
79 113 93
79 113 93
79 113 93
79 113 93
79 113 93
79 113 93
79 113 93
79 113 93
79 113 93
79 113 92
79 113 93
79 113 93
79 113 93
79 113 93
79 113 92
79 113 93
79 113 92
79 113 92
79 113 92
79 113 92
79 113 92
79 113 92
79 113 92
79 113 92
79 113 92
79 112 92
78 112 92
79 113 92
79 113 92
79 112 92
78 112 92
79 112 92
79 112 92
78 112 92
79 112 92
79 112 92
79 112 92
79 112 92
78 112 92
78 112 92
78 112 92
78 112 92
78 112 92
78 112 92
79 112 92
79 112 92
79 112 92
78 112 92
78 112 92
78 112 92
78 112 92
78 112 92
78 112 92
78 112 92
78 112 92
78 112 92
78 112 92
78 112 92
78 112 92
78 112 92
78 112 92
78 112 92
78 112 92
78 112 92
78 112 92
78 111 92
78 112 92
78 112 92
78 112 92
78 111 92
78 112 92
78 112 92
78 111 91
78 111 92
78 112 92
78 112 92
78 111 92
78 112 92
78 111 91
78 111 91
78 111 91
78 111 91
78 111 91
78 111 91
78 111 91
78 111 91
77 111 91
78 111 91
77 111 91
78 111 91
78 111 91
78 111 91
78 111 91
77 111 91
77 111 91
77 111 91
77 111 91
77 111 91
77 111 91
77 111 91
77 111 91
77 111 91
77 111 91
77 111 91
77 111 91
77 111 91
78 111 91
77 110 91
77 111 91
77 110 91
77 111 91
77 110 91
77 111 91
77 110 91
77 110 91
77 111 91
77 111 91
77 111 91
77 110 91
77 110 91
77 110 91
77 110 91
77 110 91
77 110 91
77 110 91
77 110 91
77 110 91
77 110 91
77 110 91
76 110 91
77 110 91
76 110 91
77 110 91
77 110 91
76 110 91
77 110 91
76 110 91
77 110 91
76 110 90
77 110 90
77 110 90
76 110 90
76 109 90
76 110 90
76 110 90
77 110 90
76 109 90
76 110 90
76 110 90
76 109 90
76 110 90
76 110 90
76 109 90
76 109 90
81 115 94
81 115 94
80 115 94
81 115 94
80 115 94
81 115 94
81 115 94
81 115 94
81 115 94
81 115 94
81 115 94
80 115 94
81 115 94
81 115 94
81 115 94
81 115 94
80 115 94
81 115 94
81 115 94
80 115 94
81 115 94
81 115 94
80 115 94
81 115 94
80 115 94
80 115 94
81 115 94
81 115 94
81 115 94
81 115 94
80 115 94
81 115 94
81 115 94
81 115 94
81 115 94
81 115 94
80 115 94
81 115 94
80 115 94
81 115 94
81 115 94
81 115 94
81 115 94
81 115 94
80 115 94
81 115 94
81 115 94
80 115 94
80 115 94
81 115 94
80 115 94
81 115 94
80 115 94
81 115 94
80 114 94
80 115 94
80 115 94
80 115 94
80 115 94
80 115 94
80 115 94
80 115 94
81 115 94
81 115 94
81 115 94
80 115 94
80 115 94
80 115 94
80 115 94
80 115 94
80 114 94
81 115 94
80 115 94
80 115 94
80 114 94
80 115 94
81 115 94
80 115 94
80 115 94
80 114 93
80 114 94
80 115 94
80 114 94
80 114 94
81 115 94
80 114 94
80 114 94
80 114 94
80 115 94
80 114 94
80 114 94
80 114 93
80 114 93
80 114 93
80 114 93
80 114 93
80 114 93
80 114 93
80 114 93
80 114 93
80 114 93
80 114 93
80 114 93
80 114 93
80 114 93
80 114 93
80 114 93
80 114 93
80 114 93
80 114 93
80 114 93
80 114 93
80 114 93
80 114 93
80 114 93
80 114 93
80 114 93
80 114 93
80 114 93
80 114 93
80 114 93
80 114 93
80 114 93
80 114 93
80 114 93
80 114 93
80 114 93
80 114 93
80 114 93
79 113 93
80 114 93
80 114 93
79 113 93
80 114 93
79 113 93
79 113 93
80 114 93
79 113 93
79 113 93
79 113 93
79 113 93
80 113 93
79 113 93
79 113 93
79 113 93
79 113 93
79 113 93
79 113 93
80 114 93
79 113 93
79 113 93
79 113 93
79 113 93
79 113 93
79 113 93
79 113 93
79 113 93
79 113 93
79 113 93
79 113 93
79 113 93
79 113 93
79 113 93
79 113 93
79 113 93
79 113 93
79 113 93
79 113 93
79 113 93
79 113 93
79 113 92
79 113 92
79 113 92
79 113 92
79 113 92
79 113 92
79 113 92
79 113 92
79 113 92
79 113 92
79 113 92
79 113 92
79 113 92
79 112 92
79 113 92
79 113 92
78 112 92
79 113 92
79 113 92
79 113 92
79 112 92
79 112 92
78 112 92
78 112 92
79 112 92
79 112 92
78 112 92
79 112 92
78 112 92
78 112 92
78 112 92
78 112 92
78 112 92
78 112 92
78 112 92
78 112 92
78 112 92
78 112 92
78 112 92
78 112 92
78 112 92
79 112 92
78 112 92
78 112 92
78 112 92
78 112 92
78 112 92
78 112 92
78 112 92
78 112 92
78 112 92
78 111 92
77 111 92
78 111 92
78 111 92
78 112 92
78 112 92
78 112 92
78 111 92
78 112 92
77 111 92
78 111 92
78 111 91
78 111 91
78 111 91
78 111 91
78 111 91
77 111 91
77 111 91
78 111 91
78 111 91
77 111 91
78 111 91
77 111 91
78 111 91
78 111 91
77 111 91
77 111 91
77 111 91
77 111 91
77 111 91
77 111 91
77 111 91
77 111 91
77 111 91
77 111 91
77 111 91
77 111 91
77 111 91
77 111 91
77 110 91
77 111 91
77 111 91
77 110 91
77 110 91
77 111 91
77 110 91
77 110 91
77 110 91
77 110 91
77 110 91
77 110 91
77 110 91
77 110 91
77 110 91
77 110 91
77 110 91
76 110 91
77 110 91
77 110 91
77 110 91
77 110 91
77 110 91
76 110 91
77 110 91
77 110 91
76 110 90
77 110 91
76 110 91
76 110 91
76 110 90
77 110 90
77 110 90
77 110 90
76 110 90
77 110 90
76 110 90
77 110 90
76 110 90
76 110 90
81 115 94
81 115 94
81 115 94
81 115 94
81 115 94
81 115 94
81 115 94
81 115 94
81 115 94
81 115 94
81 115 94
80 115 94
81 115 94
81 115 94
81 115 94
81 115 94
81 115 94
81 115 94
81 115 94
81 115 94
81 115 94
81 115 94
81 115 94
81 115 94
81 115 94
81 115 94
81 115 94
81 115 94
81 115 94
81 115 94
81 115 94
81 115 94
81 115 94
81 115 94
81 115 94
81 115 94
81 115 94
81 115 94
81 115 94
81 115 94
81 115 94
81 115 94
81 115 94
81 115 94
81 115 94
81 115 94
81 115 94
81 115 94
81 115 94
81 115 94
81 115 94
80 115 94
81 115 94
81 115 94
81 115 94
81 115 94
81 115 94
81 115 94
81 115 94
81 115 94
81 115 94
80 115 94
81 115 94
81 115 94
81 115 94
81 115 94
81 115 94
81 115 94
80 115 94
81 115 94
81 115 94
80 115 94
81 115 94
81 115 94
80 115 94
81 115 94
80 115 94
80 114 94
81 115 94
81 115 94
81 115 94
80 115 94
80 114 94
81 115 94
81 115 94
80 115 94
81 115 94
80 114 94
81 115 94
80 115 94
80 114 94
81 115 94
80 114 93
80 115 94
80 115 94
80 115 94
81 115 94
80 114 94
81 115 94
80 115 94
80 114 94
80 114 93
80 114 94
80 114 94
80 114 94
80 114 94
80 114 93
80 114 93
80 114 93
80 114 93
80 114 93
80 114 93
80 114 93
80 114 93
80 114 93
80 114 93
80 114 93
80 114 93
80 114 93
80 114 93
80 114 93
80 114 93
80 114 93
80 114 93
80 114 93
80 114 93
80 114 93
80 114 93
80 114 93
80 114 93
80 114 93
80 114 93
80 114 93
79 114 93
80 114 93
80 114 93
80 114 93
80 114 93
80 114 93
80 114 93
79 114 93
80 114 93
80 114 93
79 114 93
79 113 93
79 113 93
80 114 93
79 113 93
79 113 93
80 113 93
79 113 93
79 113 93
79 113 93
79 113 93
79 113 93
79 113 93
79 113 93
79 113 93
79 113 93
79 113 93
79 113 93
79 113 93
79 113 93
79 113 93
79 113 93
79 113 93
79 113 93
79 113 93
79 113 93
79 113 93
79 113 93
79 113 93
79 113 93
79 113 93
79 113 93
79 113 93
79 113 93
79 113 93
79 113 93
79 113 92
79 113 92
79 113 92
79 113 92
79 112 92
79 113 92
79 113 92
79 113 92
79 113 92
79 113 92
79 113 92
79 113 92
79 113 92
79 113 92
79 112 92
78 112 92
78 112 92
79 113 92
79 112 92
79 112 92
79 112 92
79 112 92
78 112 92
78 112 92
78 112 92
78 112 92
78 112 92
78 112 92
78 112 92
78 112 92
78 112 92
78 112 92
78 112 92
78 112 92
78 112 92
78 112 92
78 112 92
78 112 92
78 112 92
78 112 92
78 112 92
78 111 92
78 112 92
78 112 92
78 112 92
78 112 92
78 111 92
78 111 92
78 112 92
78 111 92
78 111 92
78 111 92
78 112 92
78 111 92
78 112 92
78 111 92
78 111 92
78 111 92
78 111 92
78 111 91
78 111 91
78 111 91
78 111 91
77 111 91
78 111 91
78 111 91
77 111 91
77 111 91
77 111 91
78 111 91
78 111 91
78 111 91
77 111 91
77 111 91
78 111 91
77 111 91
77 111 91
77 111 91
78 111 91
77 111 91
77 111 91
77 111 91
77 111 91
77 111 91
77 111 91
77 111 91
77 111 91
77 110 91
77 111 91
77 111 91
77 110 91
77 111 91
77 110 91
77 110 91
77 111 91
77 110 91
77 110 91
77 110 91
77 110 91
77 110 91
77 110 91
77 110 91
76 110 91
77 110 91
77 110 91
77 110 91
76 110 91
77 110 91
77 110 91
77 110 91
76 110 91
76 110 91
77 110 91
77 110 91
77 110 91
76 110 91
76 110 91
76 110 90
76 110 90
76 110 90
77 110 90
81 115 94
81 115 94
81 115 94
81 115 94
81 115 94
81 115 94
81 115 94
81 115 94
81 115 94
81 115 94
81 115 94
81 116 94
81 115 94
81 115 94
81 115 94
81 115 94
81 115 94
81 115 94
81 115 94
81 115 94
81 115 94
81 115 94
81 115 94
81 115 94
81 115 94
81 115 94
81 115 94
81 115 94
81 115 94
81 115 94
81 115 94
81 116 94
81 115 94
81 115 94
81 115 94
81 115 94
81 115 94
81 115 94
81 115 94
81 115 94
81 115 94
81 115 94
81 115 94
81 115 94
81 115 94
81 115 94
81 115 94
81 115 94
81 115 94
81 115 94
81 115 94
81 115 94
81 115 94
81 115 94
81 115 94
81 115 94
81 115 94
81 115 94
81 115 94
81 115 94
81 115 94
81 115 94
81 115 94
81 115 94
81 115 94
81 115 94
81 115 94
81 115 94
81 115 94
81 115 94
81 115 94
81 115 94
81 115 94
81 115 94
81 115 94
81 115 94
81 115 94
81 115 94
81 115 94
81 115 94
81 115 94
81 115 94
80 115 94
81 115 94
81 115 94
81 115 94
81 115 94
81 115 94
81 115 94
81 115 94
81 115 94
81 115 94
80 115 94
80 115 94
80 115 94
80 115 94
81 115 94
80 115 94
80 114 94
81 115 94
81 115 94
80 115 94
80 115 94
80 114 94
80 115 94
80 115 94
80 115 94
80 115 94
80 114 94
80 114 94
80 114 94
80 114 94
81 115 94
80 114 94
80 114 94
81 115 94
80 114 94
80 114 94
80 114 94
80 114 93
80 114 93
80 114 93
80 114 93
80 114 93
80 114 93
80 114 93
80 114 93
80 114 93
80 114 93
80 114 93
80 114 93
80 114 93
80 114 93
80 114 93
80 114 93
80 114 93
80 114 93
80 114 93
79 114 93
80 114 93
80 114 93
80 114 93
80 114 93
80 114 93
80 114 93
80 114 93
80 114 93
80 114 93
79 114 93
79 114 93
80 114 93
80 114 93
79 113 93
80 114 93
79 114 93
79 114 93
79 113 93
79 113 93
80 114 93
79 113 93
79 113 93
79 113 93
79 113 93
79 113 93
79 113 93
79 113 93
79 113 93
80 114 93
79 113 93
79 113 93
79 113 93
79 113 93
79 113 93
79 113 93
79 113 93
79 113 93
80 113 93
79 113 92
79 113 93
79 113 93
79 113 93
79 113 93
79 113 93
79 113 93
79 113 93
79 113 92
79 113 93
79 113 92
79 113 92
79 113 92
79 113 92
79 113 92
79 113 92
79 113 92
79 113 92
79 113 92
79 112 92
79 113 92
78 112 92
78 112 92
79 112 92
79 112 92
78 112 92
79 112 92
79 112 92
79 112 92
78 112 92
78 112 92
79 112 92
78 112 92
78 112 92
78 112 92
78 112 92
79 112 92
79 112 92
78 112 92
78 112 92
78 112 92
78 112 92
78 112 92
78 112 92
78 112 92
78 112 92
78 112 92
78 112 92
78 112 92
78 112 92
78 112 92
78 112 92
78 111 92
78 112 92
78 112 92
78 112 92
78 112 92
78 112 92
78 112 92
78 112 92
78 111 91
78 112 92
78 111 92
78 112 92
78 111 92
78 111 92
78 111 92
78 111 91
78 111 91
78 111 91
78 111 91
77 111 91
78 111 91
78 111 91
78 111 91
78 111 91
78 111 91
78 111 91
78 111 91
77 111 91
77 111 91
78 111 91
77 111 91
77 111 91
77 111 91
78 111 91
77 111 91
77 111 91
77 111 91
77 111 91
77 111 91
77 111 91
77 110 91
77 111 91
77 111 91
77 110 91
77 111 91
77 110 91
77 110 91
77 110 91
77 110 91
77 110 91
77 110 91
77 111 91
77 110 91
77 110 91
77 110 91
77 110 91
77 110 91
77 110 91
77 110 91
77 110 91
77 110 91
77 110 91
76 110 91
77 110 91
77 110 91
77 110 91
76 110 91
76 110 91
76 110 91
76 110 91
77 110 91
81 116 94
82 116 94
81 115 94
81 116 94
81 116 94
81 116 94
81 116 94
81 116 94
82 116 94
81 116 94
82 116 94
81 116 94
81 116 94
81 116 94
81 116 94
81 115 94
81 116 94
82 116 94
81 116 94
81 116 94
81 116 94
81 116 94
81 116 94
81 116 94
81 116 94
81 115 94
81 116 94
81 116 94
81 116 94
81 116 94
81 116 94
81 116 94
81 115 94
81 116 94
81 115 94
81 115 94
81 115 94
81 116 94
81 116 94
81 116 94
81 116 94
81 115 94
81 116 94
81 115 94
81 116 94
81 115 94
81 115 94
81 116 94
81 116 94
81 115 94
81 115 94
81 115 94
81 115 94
81 115 94
81 115 94
81 115 94
81 115 94
81 115 94
81 115 94
81 115 94
81 115 94
81 115 94
81 115 94
81 115 94
81 115 94
81 115 94
81 115 94
81 115 94
81 115 94
81 115 94
81 115 94
81 116 94
81 115 94
81 115 94
81 115 94
81 115 94
81 115 94
81 115 94
81 115 94
81 115 94
81 115 94
81 115 94
81 115 94
81 115 94
81 115 94
81 115 94
81 115 94
81 115 94
81 115 94
81 115 94
80 115 94
81 115 94
81 115 94
81 115 94
81 115 94
80 115 94
81 115 94
80 115 94
81 115 94
81 115 94
81 115 94
80 115 94
81 115 94
81 115 94
81 115 94
81 115 94
80 115 94
81 115 94
81 115 94
80 115 94
81 115 94
81 115 94
81 115 94
81 115 94
80 114 93
80 115 94
81 115 94
80 115 94
80 114 94
81 115 94
80 114 94
80 114 94
80 114 94
80 114 94
80 114 94
81 115 93
80 114 94
80 114 94
80 114 94
80 114 94
80 114 93
80 114 93
80 115 93
80 114 93
80 114 93
80 114 93
80 114 93
80 114 93
80 114 93
80 114 93
80 114 93
80 114 93
80 114 93
80 114 93
80 114 93
80 114 93
80 114 93
80 114 93
80 114 93
80 114 93
80 114 93
79 114 93
80 114 93
80 114 93
80 114 93
80 114 93
80 114 93
79 113 93
80 114 93
80 114 93
80 114 93
80 114 93
79 113 93
79 113 93
80 114 93
79 113 93
80 114 93
80 114 93
79 113 93
79 113 93
79 113 93
79 113 93
79 113 93
79 113 93
79 113 93
79 113 93
79 113 93
79 113 93
79 113 93
80 113 93
80 113 93
79 113 93
79 113 93
79 113 93
79 113 93
79 113 92
79 113 93
79 113 93
79 113 93
79 113 93
79 113 93
79 113 93
79 113 93
79 113 93
79 113 92
79 113 92
79 113 92
79 113 92
79 113 92
79 113 92
79 113 92
79 112 92
79 113 92
79 112 92
79 112 92
79 112 92
79 112 92
79 113 92
78 112 92
79 112 92
79 112 92
78 112 92
78 112 92
79 112 92
78 112 92
78 112 92
78 112 92
79 112 92
78 112 92
79 112 92
78 112 92
78 112 92
78 112 92
78 112 92
78 112 92
78 112 92
78 112 92
78 112 92
78 112 92
78 111 92
79 112 92
78 112 92
78 112 92
78 112 92
78 112 92
78 112 92
78 112 92
78 112 92
78 112 92
78 112 92
78 111 92
78 112 92
78 112 92
78 111 92
78 111 92
78 111 92
78 111 92
78 112 92
78 111 92
78 111 91
78 111 91
78 111 91
78 111 91
78 111 91
77 111 91
78 111 91
77 111 91
77 111 91
77 111 91
77 111 91
78 111 91
77 111 91
77 111 91
77 111 91
77 111 91
77 111 91
77 111 91
78 111 91
77 111 91
77 111 91
77 111 91
77 111 91
77 111 91
77 111 91
77 111 91
77 111 91
77 111 91
77 111 91
77 111 91
77 111 91
77 110 91
77 111 91
77 111 91
77 110 91
77 110 91
77 110 91
77 110 91
77 110 91
77 110 91
77 110 91
77 110 91
77 110 91
77 110 91
77 110 91
77 110 91
77 110 91
77 110 91
77 110 91
77 110 91
77 110 91
81 116 95
81 116 95
82 116 95
81 116 95
82 116 95
82 116 95
81 116 95
82 116 95
82 116 95
81 116 95
81 116 94
81 116 95
81 116 95
81 116 95
81 116 95
81 116 95
81 116 95
81 116 95
81 116 95
81 116 95
82 116 95
81 116 95
81 116 95
82 116 94
81 116 94
81 116 95
81 116 95
82 116 95
81 116 95
82 116 95
81 116 95
81 116 95
82 116 95
82 116 95
81 116 95
81 116 95
81 116 94
81 116 94
81 116 94
82 116 94
82 116 94
82 116 94
81 116 94
81 116 94
81 116 94
82 116 94
81 116 94
81 116 94
81 116 94
81 116 94
81 116 94
81 116 94
81 116 94
81 116 94
81 116 94
81 115 94
81 115 94
82 116 94
81 116 94
81 116 94
81 115 94
81 115 94
81 115 94
81 116 94
81 115 94
81 116 94
81 115 94
81 116 94
81 116 94
81 116 94
81 116 94
81 116 94
81 115 94
81 115 94
81 116 94
81 115 94
81 115 94
81 116 94
81 116 94
81 115 94
81 115 94
81 115 94
81 115 94
81 115 94
81 115 94
81 115 94
81 115 94
81 115 94
81 115 94
81 115 94
81 115 94
81 115 94
81 115 94
81 115 94
81 115 94
81 115 94
81 115 94
81 115 94
81 115 94
81 115 94
81 115 94
81 115 94
81 115 94
81 115 94
81 115 94
81 115 94
80 115 94
80 115 94
81 115 94
81 115 94
80 115 94
81 115 94
80 115 94
80 115 94
80 115 94
80 114 94
81 115 94
81 115 94
80 115 94
81 115 94
80 115 94
81 115 94
80 115 94
80 114 94
81 115 94
80 115 94
80 114 94
80 115 94
80 115 94
81 115 94
80 115 94
80 114 93
80 114 94
80 114 93
80 114 94
80 114 94
80 114 94
80 115 94
80 114 94
80 114 93
80 114 93
80 114 93
80 114 93
80 114 93
80 114 93
80 114 93
80 114 93
80 114 93
80 114 93
80 114 93
80 114 93
80 114 93
80 114 93
80 114 93
80 114 93
80 114 93
80 114 93
80 114 93
79 113 93
80 114 93
80 114 93
80 114 93
80 114 93
80 114 93
80 114 93
80 114 93
80 114 93
80 114 93
80 114 93
80 114 93
80 114 93
79 114 93
79 113 93
80 114 93
80 114 93
80 114 93
79 113 93
79 113 93
79 113 93
80 114 93
79 113 93
79 113 93
79 113 93
79 113 93
79 113 93
79 113 93
79 113 93
79 113 93
79 113 93
79 113 93
80 113 93
79 113 93
79 113 93
79 113 93
79 113 93
79 113 92
79 113 93
79 113 93
79 113 93
79 113 93
79 113 93
79 113 92
79 113 92
79 113 92
79 113 92
78 112 92
79 113 92
79 112 92
79 113 92
79 113 92
79 112 92
79 112 92
79 113 92
79 112 92
79 112 92
79 112 92
79 112 92
79 112 92
79 112 92
78 112 92
78 112 92
79 112 92
78 112 92
78 112 92
78 112 92
78 112 92
78 112 92
78 112 92
78 112 92
78 112 92
78 112 92
78 112 92
78 112 92
78 112 92
78 112 92
78 112 92
78 112 92
78 112 92
78 112 92
78 112 92
78 112 92
78 112 92
78 112 92
78 112 92
78 112 92
78 111 92
78 111 92
78 112 92
78 112 92
78 111 91
78 111 92
78 112 92
78 112 92
78 112 92
78 111 92
78 111 92
78 111 92
77 111 91
78 111 91
78 111 91
77 111 91
77 111 91
78 111 91
77 111 91
78 111 91
77 111 91
78 111 91
77 111 91
77 111 91
77 111 91
77 111 91
77 111 91
77 111 91
78 111 91
77 111 91
77 111 91
77 111 91
77 110 91
77 111 91
77 111 91
77 111 91
77 110 91
77 111 91
77 111 91
77 111 91
77 111 91
77 111 91
77 110 91
77 110 91
77 111 91
77 110 91
77 110 91
77 110 91
77 110 91
77 110 91
77 110 91
77 110 91
77 110 91
77 110 91
77 110 91
81 116 95
82 116 94
82 116 95
81 116 95
82 116 95
82 116 95
81 116 95
82 116 95
82 116 95
82 116 95
82 116 95
81 116 95
82 116 95
82 116 95
81 116 95
82 116 95
82 116 95
81 116 95
82 116 95
81 116 95
82 116 95
81 116 95
82 116 95
82 116 95
82 116 95
81 116 95
82 116 95
81 116 95
82 116 95
82 116 95
82 116 95
81 116 95
81 116 95
81 116 95
81 116 95
82 116 95
81 116 95
82 116 95
82 116 95
82 116 95
82 116 95
81 116 95
82 116 95
82 116 94
82 116 95
81 116 95
82 116 95
82 116 95
81 116 95
81 116 95
81 116 95
81 116 95
82 116 95
81 116 95
82 116 95
81 116 95
82 116 95
81 116 95
81 116 95
81 116 95
81 116 95
81 116 95
82 116 95
81 116 95
81 116 94
81 116 94
81 116 94
82 116 94
81 116 94
81 116 94
81 116 94
81 116 94
81 116 94
81 115 94
81 116 94
81 116 94
81 116 94
81 116 94
81 116 94
82 116 94
81 116 94
81 115 94
81 116 94
81 116 94
81 115 94
81 115 94
81 115 94
81 115 94
81 115 94
81 116 94
81 115 94
81 115 94
81 115 94
81 115 94
81 115 94
81 115 94
81 116 94
81 115 94
81 115 94
81 115 94
81 115 94
81 115 94
81 115 94
81 115 94
81 115 94
81 115 94
81 115 94
81 115 94
81 115 94
81 115 94
81 115 94
80 115 94
81 115 94
81 115 94
80 115 94
80 115 94
81 115 94
81 115 94
81 115 94
81 115 94
81 115 94
81 115 94
80 115 94
80 115 94
81 115 94
80 115 94
80 115 94
80 114 94
81 115 94
81 115 94
81 115 94
81 115 94
81 115 94
81 115 94
80 114 94
80 115 94
80 114 94
80 114 94
80 115 94
80 115 94
80 114 94
80 114 94
80 114 94
80 114 94
80 114 94
80 114 94
80 114 94
80 114 94
80 115 93
80 114 93
80 114 93
80 114 93
80 114 93
80 114 93
80 114 93
80 114 93
80 114 93
80 114 93
80 114 93
80 114 93
80 114 93
80 114 93
80 114 93
80 114 93
80 114 93
80 114 93
79 114 93
80 114 93
80 114 93
80 114 93
80 114 93
80 114 93
80 114 93
79 113 93
80 114 93
80 114 93
80 114 93
80 114 93
79 113 93
79 114 93
79 113 93
80 114 93
79 113 93
79 113 93
79 113 93
79 113 93
79 113 93
79 113 93
79 113 93
79 113 93
79 113 93
79 113 93
79 113 93
79 113 93
79 113 93
79 113 93
79 113 93
79 113 93
79 113 93
79 113 93
79 113 93
79 113 93
79 113 93
79 113 93
79 113 93
79 113 93
79 113 93
79 113 93
79 113 92
79 113 92
79 113 92
79 113 92
79 113 92
79 113 92
79 113 92
79 112 92
78 112 92
79 112 92
79 113 92
79 112 92
79 112 92
79 113 92
79 112 92
78 112 92
79 112 92
79 112 92
78 112 92
78 112 92
78 112 92
79 112 92
79 112 92
78 112 92
79 112 92
78 112 92
78 112 92
78 112 92
78 112 92
78 112 92
78 112 92
78 112 92
78 112 92
78 112 92
78 112 92
78 112 92
78 112 92
78 112 92
78 112 92
78 112 92
78 111 92
78 112 92
78 111 91
78 112 92
78 111 92
78 112 92
78 111 92
78 112 92
78 111 92
78 112 92
78 111 92
78 111 92
78 111 92
78 111 92
78 111 91
78 111 91
78 111 91
78 111 91
77 111 91
78 111 91
77 111 91
78 111 91
77 111 91
78 111 91
78 111 91
78 111 91
77 111 91
78 111 91
77 111 91
77 111 91
77 111 91
77 111 91
78 111 91
77 111 91
77 111 91
77 111 91
77 111 91
77 111 91
77 111 91
77 110 91
77 111 91
77 111 91
77 110 91
77 110 91
77 110 91
77 111 91
77 111 91
77 110 91
77 110 91
77 111 91
77 110 91
77 110 91
82 116 95
82 116 95
82 116 95
82 116 95
82 116 95
82 116 95
82 116 95
82 116 95
82 116 95
82 116 95
82 116 95
82 116 95
82 116 95
82 116 95
82 116 95
81 116 95
82 116 95
82 116 95
82 116 95
82 116 95
82 117 95
82 116 95
82 116 95
82 116 95
82 116 95
82 116 95
82 116 95
82 116 95
82 116 95
81 116 95
82 116 95
82 116 95
82 116 95
82 116 95
82 116 95
82 116 95
82 116 95
82 116 95
82 116 95
82 116 95
81 116 95
82 116 95
82 116 95
82 116 95
82 116 95
82 116 95
82 116 95
82 116 95
82 116 95
82 116 95
82 116 95
82 116 95
82 116 95
82 116 95
81 116 95
82 116 95
81 116 95
81 116 95
82 116 95
82 116 95
82 116 95
82 116 95
82 116 95
82 116 95
82 116 95
81 116 95
82 116 95
81 116 95
82 116 95
82 116 95
81 116 95
81 116 94
81 116 95
81 116 95
82 116 95
81 116 94
82 116 95
82 116 95
82 116 95
81 116 95
81 116 95
81 116 95
81 116 94
81 116 94
82 116 94
81 116 94
81 116 94
81 116 94
81 116 94
81 115 94
81 116 94
81 116 94
81 116 94
81 116 94
81 116 94
81 115 94
81 115 94
81 116 94
81 116 94
81 115 94
81 115 94
81 115 94
81 115 94
81 115 94
81 115 94
81 116 94
81 115 94
81 115 94
81 115 94
81 115 94
81 115 94
81 115 94
81 115 94
81 115 94
81 115 94
81 115 94
81 115 94
81 115 94
81 115 94
81 115 94
81 115 94
80 115 94
81 115 94
81 115 94
81 115 94
81 115 94
81 115 94
81 115 94
81 115 94
80 115 94
81 115 94
81 115 94
81 115 94
81 115 94
81 115 94
80 115 94
80 115 94
80 115 94
81 115 94
81 115 94
81 115 94
80 114 94
80 115 94
81 115 94
80 114 94
80 114 94
80 114 94
80 114 94
80 115 94
80 114 94
80 114 94
80 114 94
80 114 94
80 115 94
80 114 94
80 114 93
80 114 94
80 114 93
80 114 93
80 114 93
80 114 93
80 114 93
80 114 93
80 114 93
80 114 93
80 114 93
80 114 93
80 114 93
80 114 93
80 114 93
80 114 93
80 114 93
80 114 93
80 114 93
80 114 93
80 114 93
80 114 93
80 114 93
80 114 93
79 114 93
80 114 93
80 114 93
80 114 93
79 114 93
79 114 93
79 113 93
79 113 93
80 114 93
79 113 93
79 113 93
79 113 93
79 113 93
79 113 93
79 113 93
79 113 93
79 113 93
80 113 93
79 113 93
79 113 93
79 113 93
79 113 93
79 113 93
79 113 93
79 113 93
79 113 93
79 113 93
79 113 93
79 113 93
79 113 93
79 113 93
79 113 93
79 113 93
79 113 93
79 113 93
79 113 92
79 113 92
79 113 92
79 113 92
79 113 92
79 113 92
79 113 92
79 112 92
79 113 92
78 112 92
79 112 92
78 112 92
79 112 92
79 113 92
78 112 92
78 112 92
78 112 92
79 112 92
79 112 92
78 112 92
78 112 92
78 112 92
78 112 92
78 112 92
79 112 92
78 112 92
78 112 92
79 112 92
78 112 92
78 112 92
78 112 92
78 112 92
78 112 92
78 112 92
78 112 92
78 112 92
78 112 92
78 112 92
78 112 92
78 112 92
78 112 92
78 112 92
78 112 92
78 112 92
78 111 92
78 112 92
78 111 92
78 111 92
78 111 92
78 112 92
78 111 92
78 112 92
78 111 92
78 111 92
78 111 91
77 111 91
77 111 91
78 111 91
77 111 91
77 111 91
78 111 91
77 111 91
77 111 91
77 111 91
77 111 91
77 111 91
77 111 91
78 111 91
77 111 91
77 111 91
77 111 91
77 111 91
77 111 91
77 111 91
77 111 91
77 111 91
77 111 91
77 110 91
77 111 91
77 111 91
77 111 91
77 111 91
77 110 91
77 111 91
77 110 91
77 111 91
82 117 95
82 117 95
82 117 95
82 116 95
82 116 95
82 117 95
82 116 95
82 117 95
82 116 95
82 117 95
82 117 95
82 116 95
82 116 95
82 117 95
82 117 95
82 117 95
82 117 95
82 116 95
82 116 95
82 116 95
82 117 95
82 117 95
82 117 95
82 117 95
82 116 95
82 117 95
82 117 95
82 117 95
82 117 95
82 116 95
82 117 95
82 117 95
82 116 95
82 117 95
82 117 95
82 116 95
82 116 95
82 116 95
82 116 95
82 117 95
82 116 95
82 116 95
82 117 95
82 117 95
82 116 95
82 116 95
82 116 95
82 116 95
82 116 95
82 117 95
82 117 95
82 117 95
82 116 95
82 116 95
82 116 95
82 116 95
82 116 95
82 116 95
82 116 95
82 116 95
82 116 95
82 116 95
82 116 95
82 116 95
82 116 95
81 116 95
81 116 95
82 116 95
81 116 95
82 116 95
81 116 95
81 116 95
82 116 95
82 116 95
82 116 95
81 116 95
82 116 95
82 116 95
82 116 95
81 116 95
82 116 95
82 116 95
81 116 95
81 116 95
82 116 95
81 116 95
81 116 95
82 116 95
82 116 95
82 116 95
81 116 95
81 116 95
82 116 95
81 116 95
81 116 95
81 116 95
82 116 94
81 116 94
81 116 94
81 116 94
81 116 94
81 116 94
81 116 94
81 116 94
81 116 94
81 115 94
81 116 94
81 115 94
81 116 94
81 116 94
81 116 94
81 116 94
81 115 94
81 115 94
81 116 94
81 115 94
81 116 94
81 115 94
81 115 94
81 115 94
81 115 94
81 115 94
81 115 94
81 115 94
81 115 94
81 115 94
81 115 94
81 115 94
81 115 94
81 115 94
81 115 94
81 115 94
81 115 94
81 115 94
80 115 94
81 115 94
81 115 94
81 115 94
81 115 94
80 115 94
81 115 94
80 115 94
81 115 94
80 115 94
80 115 94
80 115 94
80 115 94
80 115 94
80 115 94
80 115 94
81 115 94
81 115 94
80 115 94
80 115 94
80 115 94
80 115 94
80 115 94
80 114 94
80 114 94
80 114 94
80 115 94
80 114 94
80 114 93
80 114 94
80 114 93
80 114 93
80 114 93
80 114 93
80 114 93
80 114 93
80 114 93
80 114 93
80 114 93
80 114 93
80 114 93
80 114 93
80 114 93
80 114 93
80 114 93
80 114 93
80 114 93
80 114 93
80 114 93
80 114 93
80 114 93
80 114 93
80 114 93
80 114 93
79 113 93
80 114 93
80 114 93
80 114 93
80 114 93
79 113 93
80 114 93
80 114 93
80 114 93
79 113 93
80 114 93
79 113 93
79 113 93
79 113 93
80 114 93
79 113 93
79 113 93
79 113 93
79 113 93
79 113 93
79 113 93
79 113 93
79 113 93
79 113 93
79 113 93
79 113 93
79 113 92
79 113 93
79 113 93
79 113 93
79 113 93
79 113 92
79 113 92
79 113 92
79 113 92
79 113 92
79 113 92
79 113 92
79 113 92
79 113 92
78 112 92
79 112 92
79 112 92
79 112 92
79 113 92
79 113 92
79 113 92
79 112 92
79 113 92
78 112 92
79 112 92
78 112 92
79 112 92
79 112 92
78 112 92
79 112 92
79 112 92
78 112 92
78 112 92
78 112 92
78 112 92
78 112 92
78 112 92
78 112 92
78 112 92
78 112 92
78 112 92
78 112 92
78 112 92
78 112 92
78 112 92
78 112 92
78 112 92
78 112 92
78 111 92
78 112 92
78 112 92
78 112 92
78 112 91
78 112 92
78 112 92
78 111 92
78 111 92
78 111 92
78 111 92
78 111 91
78 111 91
78 111 91
78 111 91
77 111 91
78 111 91
78 111 91
77 111 91
77 111 91
78 111 91
77 111 91
78 111 91
77 111 91
77 111 91
78 111 91
77 111 91
77 111 91
77 111 91
77 111 91
77 111 91
77 111 91
77 111 91
77 111 91
77 111 91
77 111 91
77 111 91
77 111 91
82 117 95
82 117 95
82 117 95
82 117 95
83 117 95
82 117 95
82 117 95
82 117 95
82 117 95
82 117 95
82 117 95
82 117 95
82 117 95
82 117 95
82 117 95
82 117 95
82 117 95
82 117 95
82 117 95
82 117 95
82 117 95
82 117 95
82 117 95
82 117 95
82 117 95
82 117 95
82 117 95
82 117 95
82 117 95
82 117 95
82 117 95
82 117 95
82 117 95
82 117 95
82 116 95
82 117 95
82 117 95
82 117 95
82 117 95
82 117 95
82 117 95
82 117 95
82 117 95
82 117 95
82 117 95
82 117 95
82 117 95
82 117 95
82 116 95
82 116 95
82 117 95
82 117 95
82 117 95
82 116 95
82 116 95
82 117 95
82 116 95
82 117 95
82 116 95
82 117 95
82 117 95
82 117 95
82 116 95
82 117 95
82 117 95
82 117 95
82 116 95
82 117 95
82 117 95
82 116 95
82 116 95
82 116 95
82 117 95
82 116 95
82 116 95
82 116 95
82 116 95
82 116 95
81 116 95
82 116 95
82 116 95
82 116 95
81 116 95
82 116 95
82 116 95
82 116 95
82 116 95
82 116 95
82 116 95
81 116 95
81 116 95
82 116 95
81 116 95
82 116 95
82 116 95
81 116 94
82 116 95
82 116 95
82 116 95
82 116 95
82 116 95
81 116 95
81 116 95
82 116 95
82 116 95
81 116 95
81 116 94
81 116 94
81 116 94
81 116 94
81 116 94
81 116 94
81 116 94
81 116 94
81 116 94
81 116 94
81 116 94
81 116 94
81 116 94
81 115 94
81 116 94
81 116 94
81 116 94
81 115 94
81 115 94
81 115 94
81 115 94
81 115 94
81 115 94
81 115 94
81 115 94
81 115 94
81 115 94
81 115 94
81 115 94
81 115 94
81 115 94
81 115 94
81 115 94
81 115 94
81 115 94
81 115 94
81 115 94
81 115 94
81 115 94
81 115 94
81 115 94
81 115 94
80 115 94
81 115 94
81 115 94
81 115 94
81 115 94
80 115 94
81 115 94
81 115 94
80 114 94
81 115 94
80 114 94
81 115 94
80 115 94
80 114 94
80 115 94
80 114 93
80 114 94
80 115 94
80 115 94
80 114 94
80 115 94
80 114 93
80 114 93
80 114 94
80 114 93
80 114 93
80 114 93
80 114 93
80 114 93
80 114 93
80 114 93
80 114 93
80 114 93
80 114 93
80 114 93
80 114 93
80 114 93
80 114 93
80 114 93
80 114 93
80 114 93
80 114 93
80 114 93
80 114 93
80 114 93
80 114 93
79 114 93
79 114 93
79 113 93
79 114 93
79 114 93
80 114 93
80 114 93
79 114 93
79 113 93
80 113 93
79 113 93
79 113 93
79 113 93
80 113 93
79 113 93
80 113 93
79 113 93
79 113 93
79 113 93
79 113 93
80 113 93
79 113 93
79 113 93
79 113 93
79 113 93
79 113 93
79 113 92
79 113 93
79 113 93
79 113 93
79 113 93
79 113 93
79 113 92
79 113 92
79 113 92
79 113 92
79 113 92
79 113 92
79 113 92
79 113 92
79 112 92
79 113 92
79 112 92
79 112 92
79 112 92
79 112 92
79 112 92
79 112 92
79 112 92
78 112 92
78 112 92
79 112 92
78 112 92
78 112 92
78 112 92
78 112 92
78 112 92
78 112 92
79 112 92
79 112 92
78 112 92
78 112 92
78 112 92
79 112 92
78 112 92
78 112 92
78 112 92
78 112 92
78 112 92
78 112 92
78 112 92
78 112 92
78 112 92
78 111 92
78 111 92
78 112 92
78 112 92
78 111 92
78 112 92
78 111 92
78 111 92
78 111 91
78 111 92
78 111 92
78 111 91
78 111 91
78 111 91
78 111 91
77 111 91
78 111 91
78 111 91
77 111 91
77 111 91
77 111 91
77 111 91
78 111 91
77 111 91
77 111 91
77 111 91
78 111 91
77 111 91
77 111 91
77 111 91
77 111 91
77 111 91
77 111 91
83 117 95
82 117 95
82 117 95
83 117 95
82 117 95
82 117 95
82 117 95
82 117 95
82 117 95
83 117 95
82 117 95
82 117 95
82 117 95
82 117 95
82 117 95
82 117 95
82 117 95
83 117 95
82 117 95
83 117 95
82 117 95
82 117 95
82 117 95
83 117 95
82 117 95
82 117 95
82 117 95
82 117 95
82 117 95
82 117 95
82 117 95
82 117 95
82 117 95
82 117 95
82 117 95
82 117 95
82 117 95
82 117 95
82 117 95
82 117 95
82 117 95
82 117 95
82 117 95
83 117 95
82 117 95
82 117 95
82 117 95
82 117 95
82 117 95
82 117 95
82 117 95
82 117 95
82 117 95
82 117 95
82 117 95
82 117 95
82 117 95
82 117 95
82 117 95
82 117 95
82 117 95
82 117 95
82 117 95
82 117 95
82 117 95
82 117 95
82 117 95
82 117 95
82 117 95
82 117 95
82 117 95
82 117 95
82 116 95
82 117 95
82 116 95
82 116 95
82 117 95
82 117 95
82 116 95
82 116 95
82 117 95
82 116 95
82 117 95
82 116 95
82 116 95
82 116 95
82 116 95
82 116 95
82 116 95
82 116 95
82 116 95
82 116 95
82 116 95
82 116 95
82 116 95
82 116 95
82 116 95
82 116 95
82 116 95
82 116 95
82 116 95
82 116 95
82 116 95
82 116 95
82 116 95
82 116 95
81 116 94
81 116 95
82 116 95
82 116 95
81 116 95
81 116 95
81 116 95
82 116 95
81 116 94
81 116 95
81 116 95
81 115 94
81 116 94
81 116 94
81 116 94
81 116 94
81 115 94
81 116 94
81 116 94
81 116 94
81 115 94
81 116 94
81 116 94
81 116 94
81 116 94
81 116 94
81 116 94
81 115 94
81 115 94
81 115 94
81 115 94
81 115 94
81 115 94
81 115 94
81 115 94
81 115 94
81 115 94
81 115 94
81 115 94
81 115 94
81 115 94
81 115 94
81 115 94
81 115 94
81 115 94
81 115 94
81 115 94
81 115 94
81 115 94
80 115 94
81 115 94
81 115 94
81 115 94
80 115 94
81 115 94
81 115 94
80 115 94
81 115 94
81 115 94
81 115 94
80 115 94
81 115 94
81 115 94
80 114 94
80 114 94
80 115 94
80 115 94
80 114 94
80 115 94
80 114 94
80 114 93
80 114 94
80 114 93
80 114 93
80 114 93
80 114 93
80 114 93
80 114 93
80 114 93
80 114 93
80 114 93
80 114 93
80 114 93
80 114 93
80 114 93
80 114 93
80 114 93
80 114 93
80 114 93
80 114 93
80 114 93
80 114 93
80 114 93
80 114 93
80 114 93
80 114 93
80 114 93
79 113 93
80 114 93
80 114 93
79 114 93
80 114 93
79 113 93
79 113 93
80 113 93
79 113 93
80 113 93
79 113 93
80 114 93
79 113 93
79 113 93
79 113 93
79 113 93
79 113 93
79 113 93
79 113 93
79 113 93
79 113 93
79 113 93
79 113 93
79 113 93
79 113 93
79 113 93
79 113 93
79 113 93
79 113 92
79 113 92
79 113 92
79 113 92
78 112 92
79 113 92
79 113 92
78 112 92
79 113 92
79 113 92
79 113 92
79 113 92
79 113 92
79 112 92
78 112 92
79 113 92
79 112 92
79 112 92
79 112 92
78 112 92
78 112 92
78 112 92
79 112 92
79 112 92
79 112 92
78 112 92
78 112 92
78 112 92
78 112 92
78 112 92
78 112 92
78 112 92
78 112 92
78 112 92
78 112 92
78 112 92
78 112 92
78 112 92
78 112 92
78 112 92
78 112 92
78 112 92
78 112 92
78 111 92
78 112 92
78 112 92
78 111 91
78 111 92
78 111 92
78 111 92
77 111 92
78 111 92
78 111 92
78 111 91
78 111 91
78 111 91
78 111 91
78 111 91
78 111 91
78 111 91
77 111 91
77 111 91
78 111 91
77 111 91
77 111 91
77 111 91
78 111 91
78 111 91
77 111 91
82 117 96
82 117 96
83 117 96
83 117 96
83 117 96
82 117 96
83 117 96
83 117 96
83 117 96
83 117 96
83 117 96
83 118 96
83 117 96
82 117 96
83 117 96
83 117 96
83 117 96
83 117 96
83 117 95
83 118 96
82 117 95
83 117 96
82 117 96
83 117 95
82 117 95
83 117 96
83 117 96
83 117 96
82 117 96
82 117 95
82 117 95
83 117 95
83 117 95
83 117 95
82 117 95
83 117 95
83 117 95
83 117 95
83 117 95
83 117 95
83 117 95
82 117 95
82 117 95
83 117 95
82 117 95
82 117 95
82 117 95
82 117 95
82 117 95
82 117 95
82 117 95
83 117 95
82 117 95
82 117 95
83 117 95
82 117 95
82 117 95
82 117 95
83 117 95
82 117 95
82 117 95
82 117 95
82 117 95
82 117 95
82 117 95
82 117 95
82 117 95
82 117 95
82 117 95
82 117 95
82 117 95
82 117 95
82 117 95
82 117 95
82 117 95
82 117 95
82 117 95
82 117 95
82 117 95
82 117 95
82 117 95
82 117 95
82 117 95
82 117 95
82 117 95
82 117 95
82 116 95
82 116 95
82 116 95
82 116 95
82 117 95
82 117 95
82 116 95
82 116 95
82 116 95
82 116 95
82 116 95
82 117 95
82 116 95
82 116 95
82 116 95
82 116 95
82 116 95
82 116 95
81 116 95
82 116 95
82 116 95
82 116 95
82 116 95
82 116 95
82 116 95
81 116 95
81 116 94
82 116 95
81 116 95
82 116 95
82 116 95
82 116 95
82 116 95
81 116 95
82 116 95
81 116 95
81 116 94
81 116 95
81 116 95
81 116 95
81 116 95
81 116 94
81 116 94
81 116 94
81 116 94
81 116 94
82 116 94
81 116 94
81 116 94
81 115 94
81 115 94
81 116 94
81 115 94
81 115 94
81 116 94
81 115 94
81 116 94
81 115 94
81 115 94
81 115 94
81 115 94
81 115 94
81 115 94
81 115 94
81 115 94
81 115 94
81 115 94
81 115 94
81 115 94
81 115 94
81 115 94
81 115 94
81 115 94
80 115 94
81 115 94
81 115 94
81 115 94
81 115 94
81 115 94
81 115 94
81 115 94
81 115 94
81 115 94
81 115 94
81 115 94
81 115 94
80 115 94
80 115 94
80 115 94
80 114 94
80 115 94
80 115 94
80 114 93
80 114 94
80 114 93
80 114 94
81 115 94
80 114 93
80 114 94
80 114 93
80 114 93
80 114 93
80 114 93
80 114 93
80 114 93
80 114 93
80 114 93
80 114 93
80 114 93
80 114 93
80 114 93
80 114 93
80 114 93
80 114 93
80 114 93
80 114 93
79 114 93
80 114 93
80 114 93
80 113 93
79 113 93
80 114 93
79 113 93
80 114 93
80 114 93
80 114 93
79 113 93
79 113 93
79 113 93
79 113 93
80 114 93
79 113 93
79 113 93
79 113 93
79 113 93
79 113 93
80 114 93
80 113 93
79 113 93
79 113 93
79 113 93
79 113 93
79 113 93
79 113 93
79 113 92
79 113 93
79 113 93
79 113 93
79 113 93
79 113 93
79 113 93
79 113 92
79 113 92
79 113 92
79 113 92
79 113 92
79 113 92
78 112 92
79 113 92
79 113 92
78 112 92
79 113 92
79 113 92
79 113 92
78 112 92
78 112 92
78 112 92
79 112 92
79 113 92
79 112 92
79 112 92
78 112 92
78 112 92
78 112 92
78 112 92
79 112 92
78 112 92
78 112 92
78 112 92
78 112 92
78 112 92
79 112 92
78 112 92
78 112 92
78 112 92
78 112 92
78 112 92
78 112 92
78 112 92
78 112 92
78 112 92
78 112 92
78 112 92
78 111 92
78 112 92
78 112 92
78 111 92
78 112 92
78 112 92
78 111 92
78 111 92
78 111 92
77 111 91
77 111 91
78 111 91
78 111 91
77 111 91
78 111 91
78 111 91
78 111 91
78 111 91
77 111 91
77 111 91
77 111 91
83 118 96
83 118 96
83 117 96
83 117 96
83 118 96
83 118 96
83 118 96
83 117 96
82 117 96
83 117 96
83 117 96
83 118 96
83 118 96
83 118 96
83 118 96
83 118 96
83 117 96
83 117 96
83 118 96
83 118 96
83 118 96
83 118 96
83 118 96
83 117 96
83 117 96
83 118 96
83 117 96
83 118 96
83 117 96
83 118 96
83 118 96
83 118 96
83 118 96
83 118 96
83 117 96
83 118 96
83 117 96
83 118 96
83 117 95
83 117 96
83 118 96
83 117 95
83 117 96
83 117 96
83 117 96
83 117 96
83 117 96
83 117 95
83 117 96
82 117 96
82 117 96
83 117 96
83 117 96
83 117 96
83 117 96
82 117 96
83 117 95
82 117 95
83 117 95
82 117 95
82 117 95
82 117 95
83 117 95
82 117 95
82 117 95
82 117 95
82 117 95
83 117 95
83 117 95
82 117 95
82 117 95
83 117 95
82 117 95
82 117 95
83 117 95
82 117 95
82 117 95
82 117 95
83 117 95
82 117 95
82 117 95
82 117 95
82 117 95
82 117 95
82 117 95
82 117 95
82 117 95
82 117 95
82 117 95
82 117 95
82 117 95
82 117 95
82 117 95
82 117 95
82 116 95
82 116 95
82 117 95
82 117 95
82 116 95
82 116 95
82 117 95
82 116 95
82 117 95
82 117 95
82 116 95
82 117 95
82 117 95
82 117 95
82 116 95
82 116 95
82 116 95
82 116 95
82 116 95
82 116 95
82 116 95
82 116 95
82 116 95
82 116 95
82 116 95
82 116 95
81 116 95
82 116 95
82 116 95
81 116 95
82 116 95
81 116 95
82 116 94
82 116 95
82 116 95
81 116 94
81 116 95
82 116 95
81 116 94
81 116 95
81 116 95
82 116 94
81 116 94
82 116 94
81 116 94
81 116 94
81 115 94
81 116 94
81 116 94
81 115 94
81 115 94
81 115 94
81 116 94
81 115 94
81 115 94
81 116 94
81 115 94
81 115 94
81 115 94
81 115 94
81 115 94
81 115 94
81 115 94
81 115 94
81 115 94
81 115 94
81 115 94
81 115 94
81 115 94
81 115 94
81 115 94
81 115 94
81 115 94
81 115 94
80 115 94
81 115 94
81 115 94
81 115 94
81 115 94
81 115 94
81 115 94
81 115 94
81 115 94
81 115 94
81 115 94
81 115 94
80 115 94
80 114 94
80 114 94
80 115 94
80 115 94
80 114 94
80 114 93
80 114 94
80 115 94
80 114 94
80 114 94
80 114 93
80 114 93
80 114 93
80 114 93
80 114 93
80 114 93
80 114 93
80 114 93
80 114 93
80 114 93
80 114 93
80 114 93
80 114 93
80 114 93
80 114 93
80 114 93
80 114 93
80 114 93
80 114 93
80 114 93
79 113 93
80 114 93
80 114 93
80 114 93
79 113 93
80 113 93
80 114 93
79 113 93
80 113 93
80 114 93
79 113 93
80 114 93
80 114 93
79 113 93
79 113 93
79 113 93
79 113 93
79 113 93
79 113 93
79 113 93
79 113 93
79 113 93
79 113 93
79 113 93
79 113 93
79 113 93
79 113 93
79 113 93
79 113 93
79 113 93
79 113 93
79 113 92
79 113 92
79 113 92
79 112 92
79 113 92
79 113 92
79 112 92
79 113 92
79 112 92
79 113 92
79 112 92
79 113 92
79 112 92
78 112 92
79 112 92
79 112 92
79 112 92
79 112 92
79 112 92
79 112 92
78 112 92
78 112 92
78 112 92
79 112 92
78 112 92
78 112 92
79 112 92
78 112 92
78 112 92
78 112 92
78 112 92
78 112 92
78 111 92
78 112 92
78 112 92
78 112 92
78 112 92
78 112 92
78 112 92
78 112 92
78 112 92
78 112 92
78 112 92
78 111 92
78 111 92
78 112 92
78 111 91
78 111 92
78 112 92
78 111 91
78 111 92
78 111 92
78 111 91
78 111 91
78 111 91
77 111 91
78 111 91
77 111 91
83 118 96
83 118 96
83 118 96
83 118 96
83 118 96
83 118 96
83 118 96
83 118 96
83 117 96
83 118 96
83 118 96
83 118 96
83 118 96
83 118 96
83 118 96
83 118 96
83 118 96
83 118 96
83 118 96
83 118 96
83 118 96
83 118 96
83 118 96
83 118 96
83 118 96
83 118 96
83 118 96
83 118 96
83 118 96
83 118 96
83 118 96
83 118 96
83 118 96
83 118 96
83 118 96
83 117 96
83 118 96
83 118 96
83 118 96
83 118 96
83 118 96
83 118 96
83 118 96
83 118 96
83 118 96
83 118 96
83 117 95
83 118 96
83 117 96
83 117 96
83 118 96
83 118 96
83 117 96
83 118 96
83 118 96
83 117 95
82 117 96
83 118 96
83 118 96
83 118 96
83 117 96
83 118 96
83 117 95
83 117 96
83 118 96
83 117 96
83 117 95
83 117 96
83 117 96
83 117 96
83 117 96
83 117 96
82 117 95
82 117 95
83 117 95
82 117 95
83 117 95
83 117 95
82 117 95
83 117 95
82 117 95
82 117 95
82 117 95
82 117 95
82 117 95
82 117 95
82 117 95
82 117 95
82 117 95
82 117 95
83 117 95
82 117 95
82 117 95
82 117 95
82 117 95
82 117 95
82 117 95
82 117 95
82 117 95
82 117 95
82 117 95
82 117 95
82 117 95
82 116 95
82 116 95
82 117 95
82 117 95
82 117 95
82 116 95
82 117 95
82 117 95
82 117 95
82 116 95
82 116 95
82 116 95
82 117 95
82 116 95
82 117 95
82 116 95
82 116 95
82 116 95
82 116 95
82 116 95
82 116 95
82 116 95
81 116 95
82 116 95
82 116 95
82 116 95
82 116 95
82 116 95
82 116 95
82 116 95
82 116 95
81 116 95
81 116 94
82 116 94
81 116 95
81 116 95
81 116 95
81 116 94
81 116 95
81 115 94
82 116 94
81 115 94
81 116 94
81 116 94
81 116 94
82 116 94
81 116 94
81 116 94
81 115 94
81 115 94
81 116 94
81 116 94
81 115 94
81 115 94
81 115 94
81 116 94
81 115 94
81 115 94
81 115 94
81 115 94
81 115 94
81 115 94
81 115 94
81 115 94
81 115 94
81 115 94
81 115 94
81 115 94
81 115 94
81 115 94
81 115 94
81 115 94
81 115 94
81 115 94
81 115 94
80 115 94
80 115 94
81 115 94
80 115 94
80 114 94
80 115 94
80 115 94
81 115 94
80 115 94
80 115 94
81 115 94
80 114 94
80 115 94
80 114 94
80 114 94
80 114 93
80 114 94
80 114 94
80 115 94
80 114 93
80 114 93
80 114 93
80 114 93
80 114 93
80 114 93
80 114 93
80 114 93
79 114 93
80 114 93
80 114 93
80 114 93
80 114 93
80 114 93
80 114 93
80 114 93
80 114 93
80 114 93
80 114 93
79 114 93
80 114 93
80 114 93
80 114 93
79 114 93
79 114 93
80 114 93
80 114 93
79 113 93
80 114 93
80 113 93
79 113 93
79 113 93
79 113 93
79 113 93
79 113 93
79 113 93
79 113 93
79 113 93
79 113 92
79 113 93
79 113 93
79 113 93
79 113 93
79 113 93
79 113 92
79 113 93
79 113 93
79 113 93
79 113 92
78 112 93
79 113 92
79 113 92
79 113 92
79 113 92
79 113 92
79 113 92
79 113 92
79 113 92
79 113 92
79 113 92
79 113 92
79 113 92
79 112 92
78 112 92
79 112 92
79 113 92
79 112 92
79 112 92
79 112 92
78 112 92
78 112 92
78 112 92
78 112 92
78 112 92
78 112 92
78 112 92
78 112 92
78 112 92
78 112 92
78 112 92
78 112 92
78 112 92
78 112 92
78 112 92
78 112 92
78 112 92
78 112 92
78 111 92
78 112 92
78 112 92
78 112 92
78 112 92
78 112 92
78 111 92
78 112 92
78 111 92
78 111 92
78 111 92
78 111 92
78 111 91
78 111 92
78 111 91
78 111 91
83 118 96
83 118 96
83 118 96
83 118 96
83 118 96
83 118 96
83 118 96
83 118 96
83 118 96
83 118 96
83 118 96
83 118 96
83 118 96
83 118 96
84 118 96
83 118 96
83 118 96
83 118 96
83 118 96
83 118 96
83 118 96
83 118 96
83 118 96
83 118 96
83 118 96
83 118 96
83 118 96
83 118 96
83 118 96
83 118 96
83 118 96
83 118 96
83 118 96
83 118 96
83 118 96
83 118 96
83 118 96
83 118 96
83 118 96
83 118 96
83 118 96
83 118 96
83 118 96
83 118 96
83 118 96
83 118 96
83 118 96
83 118 96
83 118 96
83 118 96
83 118 96
83 118 96
83 118 96
83 118 96
83 118 96
83 118 96
83 118 96
83 118 96
83 118 96
83 117 96
83 118 96
83 118 96
83 118 96
83 118 96
83 117 96
83 117 96
83 118 96
83 117 96
83 118 96
83 118 96
83 117 96
83 117 96
83 118 96
83 117 96
83 117 95
83 118 96
83 117 96
83 117 96
83 117 96
83 118 96
83 117 96
83 117 96
82 117 95
82 117 96
82 117 95
83 117 95
83 117 95
83 117 95
83 117 95
83 117 95
82 117 95
83 117 95
82 117 95
82 117 95
82 117 95
82 117 95
82 117 95
82 117 95
82 117 95
82 117 95
82 117 95
83 117 95
82 117 95
82 117 95
82 117 95
82 117 95
82 117 95
82 117 95
82 117 95
82 117 95
82 117 95
82 117 95
82 117 95
82 116 95
82 117 95
82 116 95
82 117 95
82 116 95
82 116 95
82 117 95
82 116 95
82 116 95
82 116 95
82 116 95
81 116 95
82 116 95
82 116 95
82 117 95
82 116 95
82 116 95
82 116 95
82 116 95
82 116 95
82 116 95
82 116 95
82 116 95
81 116 95
82 116 95
82 116 95
82 116 95
81 116 95
81 116 95
81 116 95
81 116 95
81 116 94
82 116 95
81 116 95
81 116 95
81 116 95
81 116 95
81 116 94
81 116 94
81 116 94
81 115 94
81 115 94
81 116 94
81 116 94
81 116 94
81 116 94
81 115 94
81 115 94
81 115 94
81 115 94
81 115 94
81 115 94
81 115 94
81 115 94
81 116 94
81 115 94
81 115 94
81 115 94
81 115 94
81 115 94
81 115 94
81 115 94
81 115 94
81 115 94
81 115 94
81 115 94
80 115 94
81 115 94
81 115 94
81 115 94
81 115 94
80 115 94
81 115 94
81 115 94
81 115 94
80 115 94
80 114 94
80 115 94
80 115 94
80 115 94
80 114 94
80 114 94
80 114 94
80 114 94
80 114 94
80 114 94
80 114 94
80 114 94
80 114 93
80 114 94
80 114 93
80 114 93
80 114 93
80 114 93
80 114 93
80 114 93
80 114 93
80 114 93
80 114 93
80 114 93
80 114 93
80 114 93
80 114 93
80 114 93
80 114 93
80 114 93
80 114 93
80 114 93
79 113 93
80 114 93
79 113 93
80 114 93
79 113 93
80 114 93
80 114 93
80 114 93
80 114 93
79 113 93
79 113 93
79 113 93
79 113 93
79 113 93
79 113 93
79 113 93
79 113 93
79 113 93
79 113 92
79 113 93
79 113 93
79 113 93
79 113 93
79 113 93
79 113 93
79 113 93
79 113 93
79 113 93
79 113 93
79 113 93
79 113 93
79 113 92
79 113 92
79 113 92
79 113 92
79 113 92
79 113 92
79 113 92
79 113 92
79 113 92
79 112 92
79 113 92
79 113 92
79 112 92
79 113 92
78 112 92
79 112 92
78 112 92
78 112 92
78 112 92
78 112 92
79 112 92
79 112 92
78 112 92
78 112 92
78 112 92
78 112 92
79 112 92
78 112 92
78 112 92
78 112 92
78 112 92
78 112 92
78 112 92
78 112 92
78 112 92
78 112 92
78 112 92
78 112 92
78 112 92
77 111 92
78 112 92
78 112 92
78 112 92
78 112 92
78 112 92
78 112 92
78 111 92
78 111 91
83 118 96
84 118 96
84 118 96
83 118 96
83 118 96
83 118 96
83 118 96
84 118 96
83 118 96
83 118 96
84 118 96
84 118 96
83 118 96
83 118 96
84 118 96
84 118 96
83 118 96
83 118 96
83 118 96
83 118 96
83 118 96
84 118 96
83 118 96
83 118 96
84 118 96
83 118 96
83 118 96
83 118 96
84 118 96
83 118 96
83 118 96
83 118 96
83 118 96
83 118 96
83 118 96
83 118 96
83 118 96
84 118 96
83 118 96
83 118 96
83 118 96
83 118 96
83 118 96
83 118 96
83 118 96
83 118 96
83 118 96
83 118 96
83 118 96
83 118 96
83 118 96
83 118 96
83 118 96
83 118 96
83 118 96
83 118 96
83 118 96
83 118 96
83 118 96
83 118 96
83 118 96
84 118 96
83 118 96
83 118 96
83 118 96
83 118 96
83 117 96
83 118 96
83 118 96
83 118 96
83 118 96
83 118 96
83 118 96
83 118 96
83 118 96
83 118 96
83 118 96
83 118 96
83 117 96
83 117 96
83 117 96
83 117 96
83 118 96
83 117 96
83 117 96
83 117 96
83 117 96
83 117 96
83 117 95
82 117 95
82 117 96
82 117 95
83 117 96
83 117 96
83 117 96
82 117 96
82 117 95
82 117 95
82 117 95
82 117 95
82 117 95
83 117 95
82 117 95
82 117 95
83 117 95
82 117 95
82 117 95
83 117 95
82 117 95
82 117 95
82 117 95
82 117 95
82 117 95
82 117 95
82 116 95
82 116 95
82 117 95
82 117 95
82 117 95
82 117 95
82 117 95
82 117 95
82 117 95
82 117 95
82 117 95
82 117 95
82 117 95
82 117 95
82 117 95
82 116 95
82 116 95
82 117 95
82 116 95
82 116 95
82 116 95
82 116 95
82 116 95
81 116 95
82 116 95
82 116 95
81 116 95
82 116 95
82 116 95
82 116 95
82 116 95
82 116 94
82 116 95
82 116 95
82 116 95
82 116 95
82 116 94
82 116 95
81 116 95
81 116 94
81 116 95
81 116 95
82 116 95
81 116 94
81 116 94
82 116 94
81 116 94
81 116 94
81 116 94
82 116 94
81 116 94
81 115 94
81 115 94
81 115 94
81 115 94
81 115 94
81 115 94
81 115 94
81 115 94
81 115 94
81 115 94
81 115 94
81 115 94
81 115 94
80 115 94
81 115 94
81 115 94
81 115 94
81 115 94
81 115 94
81 115 94
81 115 94
80 115 94
81 115 94
80 115 94
81 115 94
80 114 94
80 114 94
80 114 94
81 115 94
80 115 94
80 115 94
81 115 94
80 115 94
81 115 94
80 115 94
80 114 94
80 115 94
80 115 94
80 114 94
80 114 94
80 115 94
80 114 93
80 114 94
80 114 93
80 114 93
80 114 93
80 114 93
80 114 93
80 114 93
80 114 93
80 114 93
80 114 93
80 114 93
80 114 93
80 114 93
80 114 93
80 114 93
80 114 93
80 114 93
80 114 93
80 114 93
80 114 93
79 114 93
80 114 93
80 113 93
79 113 93
80 114 93
79 114 93
80 114 93
80 114 93
79 113 93
79 113 93
79 113 93
79 113 93
79 113 93
80 113 93
79 113 93
79 113 93
79 113 93
79 113 93
79 113 93
79 113 93
79 113 93
79 113 93
79 113 93
79 113 92
79 113 93
79 113 93
79 113 93
79 113 93
79 113 93
79 113 93
79 113 92
79 113 92
79 113 92
79 113 92
79 113 92
79 113 92
79 113 92
79 113 92
79 113 92
79 113 92
79 112 92
78 112 92
79 113 92
79 112 92
79 112 92
79 112 92
79 113 92
79 112 92
78 112 92
79 112 92
79 112 92
79 112 92
78 112 92
78 112 92
78 112 92
78 112 92
78 112 92
78 112 92
78 112 92
78 112 92
78 112 92
78 112 92
78 112 92
78 112 92
78 112 92
78 112 92
78 112 92
78 112 92
78 112 92
78 112 92
78 112 92
78 112 92
78 111 92
84 119 96
84 118 96
84 119 96
84 118 96
83 118 96
84 119 96
84 118 96
84 119 96
84 119 96
84 119 96
83 118 96
84 119 96
83 118 96
83 118 96
84 119 96
84 118 96
83 118 96
84 118 96
84 119 96
83 118 96
84 119 96
84 119 96
83 118 96
83 118 96
83 118 96
84 119 96
83 118 96
83 118 96
84 118 96
83 118 96
84 118 96
83 118 96
83 118 96
84 118 96
84 119 96
83 118 96
83 118 96
84 119 96
83 118 96
83 118 96
84 118 96
83 118 96
83 118 96
83 118 96
83 118 96
84 118 96
83 118 96
83 118 96
83 118 96
83 118 96
83 118 96
83 118 96
83 118 96
84 118 96
84 118 96
83 118 96
83 118 96
84 119 96
83 118 96
83 118 96
83 118 96
83 118 96
83 118 96
83 118 96
83 118 96
83 118 96
83 118 96
83 118 96
83 118 96
83 118 96
83 118 96
83 118 96
83 118 96
83 118 96
83 118 96
83 118 96
83 118 96
83 118 96
83 118 96
83 118 96
83 118 96
83 118 96
83 118 96
83 118 96
83 118 96
83 118 96
83 117 96
83 118 96
83 118 96
83 118 96
83 118 96
83 118 96
83 118 96
82 117 96
83 117 96
83 118 96
83 117 95
83 117 96
82 117 95
83 117 96
82 117 96
83 117 96
82 117 96
82 117 95
83 117 96
83 117 95
83 117 95
82 117 95
83 117 95
82 117 95
83 117 95
82 117 95
82 117 95
82 117 95
83 117 95
83 117 95
82 117 95
83 117 95
82 117 95
82 117 95
82 117 95
82 117 95
83 117 95
82 117 95
82 117 95
82 117 95
82 117 95
82 117 95
82 117 95
82 117 95
82 117 95
82 116 95
82 116 95
82 116 95
82 116 95
82 117 95
82 116 95
82 116 95
82 116 95
82 116 95
82 116 95
82 116 95
82 116 95
82 116 95
82 116 95
82 116 95
82 116 95
82 116 95
82 116 95
81 116 95
82 116 95
82 116 95
82 116 95
82 116 95
82 116 95
81 116 94
81 116 94
81 116 95
81 116 95
82 116 95
82 116 95
81 115 94
81 116 95
81 116 94
81 116 94
81 116 94
81 116 94
81 115 94
81 116 94
81 116 94
81 115 94
81 115 94
81 115 94
81 116 94
81 116 94
81 115 94
81 115 94
81 115 94
81 115 94
81 115 94
81 115 94
81 115 94
81 115 94
81 115 94
81 115 94
81 115 94
81 115 94
81 115 94
81 115 94
81 115 94
81 115 94
81 115 94
80 115 94
81 115 94
81 115 94
80 115 94
81 115 94
81 115 94
80 115 94
80 114 93
80 114 93
81 115 94
80 114 94
80 114 94
80 115 94
80 114 94
80 114 94
80 114 94
80 115 94
80 114 94
80 114 94
80 114 94
80 114 93
80 114 93
80 114 93
80 114 93
80 114 93
80 114 93
80 114 93
80 114 93
80 114 93
80 114 93
80 114 93
80 114 93
80 114 93
80 114 93
80 114 93
80 114 93
80 114 93
80 114 93
80 114 93
79 113 93
80 114 93
79 113 93
80 114 93
79 113 93
80 114 93
79 113 93
80 114 93
79 113 93
79 113 93
79 113 93
80 114 93
79 113 93
79 113 93
79 113 93
79 113 93
79 113 93
79 113 93
79 113 93
79 113 93
79 113 93
79 113 93
79 113 93
79 113 93
79 113 93
79 113 93
79 113 92
79 113 93
79 113 93
79 113 93
79 113 93
79 113 92
79 113 92
79 113 92
79 113 92
79 112 92
79 113 92
79 113 92
78 112 92
78 112 92
79 113 92
78 112 92
78 112 92
79 113 92
79 112 92
79 112 92
79 112 92
79 112 92
78 112 92
78 112 92
79 112 92
79 112 92
79 112 92
78 112 92
78 112 92
78 112 92
78 112 92
79 112 92
78 112 92
78 112 92
78 112 92
78 112 92
78 112 92
78 112 92
78 112 92
78 112 92
78 112 92
78 112 92
78 112 92
84 119 97
84 119 96
84 119 97
84 119 96
84 119 97
84 119 97
84 119 97
84 119 97
84 119 97
84 119 97
84 119 97
84 119 97
84 119 97
84 119 97
84 119 97
84 119 96
84 119 97
84 119 97
84 119 96
84 119 96
84 119 96
84 119 96
84 119 96
84 119 96
84 119 96
84 119 96
84 118 96
84 119 96
84 119 96
83 118 96
84 118 96
84 119 96
83 118 96
84 119 96
84 119 96
84 119 96
83 118 96
84 119 96
84 119 96
84 119 96
84 119 96
84 119 96
84 119 96
84 119 96
84 119 96
83 118 96
84 118 96
84 119 96
83 118 96
84 119 96
84 118 96
84 119 96
83 118 96
83 118 96
83 118 96
83 118 96
84 119 96
84 119 96
84 118 96
83 118 96
83 118 96
84 119 96
83 118 96
83 118 96
83 118 96
83 118 96
83 118 96
83 118 96
83 118 96
83 118 96
83 118 96
83 118 96
83 118 96
83 118 96
83 118 96
83 118 96
83 118 96
83 118 96
83 118 96
83 118 96
83 118 96
83 118 96
83 118 96
83 118 96
83 118 96
83 118 96
83 118 96
83 118 96
83 118 96
83 118 96
83 118 96
83 118 96
83 118 96
83 118 96
83 118 96
83 118 96
83 118 96
83 117 96
83 117 96
83 118 96
82 117 96
83 118 96
83 117 96
83 117 96
83 117 96
83 118 96
82 117 96
83 117 96
83 117 96
82 117 95
83 117 95
83 117 95
83 117 95
83 117 96
82 117 95
82 117 95
82 117 95
83 117 95
82 117 95
82 117 95
82 117 95
82 117 95
82 117 95
82 117 95
82 117 95
82 117 95
82 117 95
82 117 95
82 117 95
82 117 95
82 117 95
82 117 95
82 117 95
82 117 95
82 117 95
82 117 95
82 116 95
82 117 95
82 117 95
82 117 95
82 117 95
82 116 95
82 117 95
82 116 95
82 116 95
82 116 95
82 116 95
82 116 95
82 116 95
82 116 95
82 116 95
82 116 95
82 116 95
82 116 95
82 116 95
82 116 95
82 116 95
82 116 95
82 116 95
81 116 95
81 116 95
82 116 95
82 116 95
81 116 94
82 116 95
82 116 95
81 116 95
81 115 94
81 116 95
81 116 94
81 116 94
81 116 94
81 116 94
81 116 94
81 115 94
81 115 94
81 116 94
81 115 94
81 116 94
81 116 94
81 115 94
81 115 94
81 115 94
81 115 94
81 116 94
81 115 94
81 115 94
81 115 94
81 115 94
81 115 94
81 115 94
81 115 94
81 115 94
81 115 94
81 115 94
81 115 94
81 115 94
81 115 94
81 115 94
80 115 94
81 115 94
81 115 94
81 115 94
80 114 94
80 115 94
81 115 94
80 115 94
80 115 94
80 115 94
80 114 94
80 115 94
80 115 94
80 115 94
80 114 93
80 114 94
80 114 93
80 114 93
80 114 94
80 114 93
80 114 93
80 114 93
80 114 93
80 114 93
80 114 93
80 114 93
80 114 93
80 114 93
80 114 93
80 114 93
80 114 93
80 114 93
80 114 93
80 114 93
80 114 93
80 114 93
80 114 93
80 114 93
80 114 93
80 114 93
80 114 93
80 114 93
79 113 93
80 114 93
80 114 93
79 113 93
79 113 93
79 113 93
79 113 93
79 113 93
79 113 93
80 113 93
79 113 93
79 113 93
79 113 93
79 113 92
79 113 93
79 113 93
79 113 93
79 113 93
79 113 93
79 113 93
79 113 93
79 113 93
79 113 93
79 113 93
79 113 93
79 113 92
79 113 92
79 113 92
79 113 92
79 113 92
79 113 92
79 113 92
79 112 92
79 113 92
78 112 92
79 112 92
78 112 92
79 112 92
79 113 92
79 113 92
78 112 92
79 112 92
78 112 92
78 112 92
78 112 92
78 112 92
78 112 92
78 112 92
78 112 92
79 112 92
78 112 92
78 112 92
78 112 92
78 112 92
78 112 92
78 112 92
78 112 92
78 112 92
78 112 92
84 119 97
84 119 97
84 119 97
84 119 97
84 119 97
84 119 97
84 119 97
84 119 97
84 119 97
84 119 97
84 119 97
84 119 97
84 119 97
84 119 97
84 119 97
84 119 97
84 119 97
84 119 97
84 119 97
84 119 97
84 119 97
84 119 97
84 119 97
84 119 97
84 119 97
84 119 97
84 119 97
84 119 97
84 119 97
84 119 96
84 119 97
84 119 97
84 119 97
84 119 97
84 119 97
84 119 97
84 119 96
84 119 97
84 119 97
84 119 97
84 119 97
84 119 97
84 119 97
84 119 97
84 119 96
84 119 96
84 119 96
84 119 96
84 119 96
84 119 96
83 118 96
84 119 96
83 118 96
84 119 96
84 119 96
84 119 96
84 118 96
84 119 96
83 118 96
84 119 96
84 119 96
84 119 96
84 119 96
83 118 96
84 118 96
84 119 96
83 118 96
83 118 96
83 118 96
83 118 96
84 118 96
83 118 96
83 118 96
84 119 96
83 118 96
83 118 96
83 118 96
84 118 96
83 118 96
83 118 96
83 118 96
83 118 96
83 118 96
83 118 96
83 118 96
83 118 96
83 118 96
83 118 96
83 118 96
83 118 96
83 118 96
83 118 96
83 118 96
83 118 96
83 117 96
83 118 96
83 118 96
83 118 96
83 118 96
83 118 96
83 118 96
83 117 95
83 117 96
83 118 96
83 118 96
83 118 96
83 118 96
83 118 96
83 117 96
83 118 96
83 117 96
83 117 96
83 117 95
83 118 96
83 118 96
83 117 96
82 117 96
83 117 96
83 117 95
83 117 96
82 117 96
82 117 95
83 117 95
82 117 95
83 117 95
83 117 95
82 117 95
82 117 95
83 117 95
82 117 95
82 117 95
82 117 95
82 117 95
82 117 95
82 117 95
82 117 95
82 117 95
82 117 95
82 117 95
82 117 95
82 117 95
82 117 95
82 117 95
82 117 95
82 116 95
82 117 95
82 117 95
82 117 95
82 116 95
82 116 95
82 116 95
82 116 95
82 116 95
82 116 95
82 116 95
82 116 95
82 116 95
82 116 95
82 116 95
82 116 95
82 116 95
82 116 95
82 116 95
82 116 95
81 116 94
81 116 95
81 116 95
82 116 95
82 116 95
81 116 95
82 116 95
82 116 95
81 116 94
81 116 95
81 116 95
81 115 94
81 115 94
81 115 94
81 115 94
81 116 94
81 116 94
81 116 94
81 116 94
81 115 94
81 115 94
81 115 94
81 115 94
81 115 94
81 115 94
81 115 94
81 115 94
81 115 94
81 115 94
81 115 94
81 115 94
81 115 94
81 115 94
81 115 94
81 115 94
81 115 94
81 115 94
80 115 94
81 115 94
81 115 94
80 115 94
81 115 94
81 115 94
80 115 94
80 115 94
81 115 94
81 115 94
81 115 94
80 115 94
80 115 94
80 114 94
80 114 94
80 114 94
80 114 94
80 114 94
80 115 94
80 114 94
80 114 93
80 114 93
80 114 93
80 114 93
80 114 93
80 114 93
80 114 93
80 114 93
80 114 93
80 114 93
80 114 93
80 114 93
80 114 93
80 114 93
80 113 93
80 114 93
80 114 93
80 114 93
80 114 93
80 114 93
80 114 93
80 114 93
79 113 93
80 114 93
80 114 93
80 113 93
80 114 93
80 114 93
80 114 93
79 113 93
80 114 93
79 113 93
79 113 93
79 113 93
79 113 93
79 113 93
79 113 93
79 113 93
79 113 93
79 113 93
79 113 93
79 113 93
79 113 93
79 113 93
79 113 93
79 113 93
79 113 93
79 113 93
79 113 93
78 112 92
79 113 92
79 113 92
79 113 92
79 113 92
79 113 92
79 113 92
79 112 92
79 112 92
79 113 92
79 112 92
79 113 92
78 112 92
78 112 92
79 113 92
78 112 92
78 112 92
79 112 92
78 112 92
79 112 92
79 112 92
78 112 92
78 112 92
78 112 92
78 112 92
78 112 92
78 112 92
78 112 92
78 112 92
78 112 92
84 119 97
84 119 97
84 119 97
84 119 97
84 119 97
84 119 97
84 119 97
84 119 97
84 119 97
84 119 97
84 119 97
84 119 97
84 119 97
84 119 97
84 119 97
84 119 97
84 119 97
84 119 97
84 119 97
84 119 97
84 119 97
84 119 97
84 119 97
84 119 97
84 119 96
84 119 97
84 119 97
84 119 97
84 119 97
84 119 97
84 119 97
84 119 97
84 119 97
84 119 97
84 119 97
84 119 97
84 119 97
84 119 97
84 119 97
84 119 96
84 119 97
84 119 97
84 119 97
84 119 97
84 119 97
84 119 97
84 119 97
84 119 96
84 119 97
84 119 97
84 119 97
84 119 97
84 119 96
84 119 97
84 119 97
84 119 97
84 119 97
84 119 97
83 119 97
84 119 96
84 118 96
84 119 96
84 119 96
84 119 96
84 119 96
84 118 96
84 119 96
83 118 96
83 118 96
83 118 96
84 119 96
84 119 96
84 118 96
84 119 96
84 119 96
83 118 96
83 118 96
84 119 96
83 118 96
83 118 96
83 118 96
83 118 96
83 118 96
83 118 96
83 118 96
83 118 96
83 118 96
83 118 96
83 118 96
83 118 96
84 118 96
83 118 96
83 118 96
83 118 96
83 118 96
83 118 96
83 118 96
83 118 96
83 118 96
83 118 96
83 118 96
83 118 96
83 118 96
83 118 96
83 118 96
83 118 96
83 118 96
83 118 96
83 118 96
83 118 96
83 118 96
83 118 96
83 118 96
83 117 96
83 117 96
83 117 95
83 118 96
83 117 96
83 117 96
83 117 96
83 117 96
83 117 95
82 117 96
83 118 96
83 117 95
82 117 95
82 117 96
83 117 96
83 117 96
82 117 95
82 117 95
83 117 95
82 117 95
83 117 95
82 117 95
82 117 95
82 117 95
82 117 95
82 117 95
82 117 95
82 117 95
82 117 95
82 117 95
82 117 95
82 116 95
82 117 95
82 117 95
82 117 95
82 116 95
82 116 95
82 117 95
82 116 95
82 117 95
82 117 95
82 116 95
82 116 95
82 116 95
82 117 95
82 116 95
82 116 95
82 117 95
82 116 95
82 116 95
82 116 95
81 116 95
82 116 95
82 116 95
81 116 95
82 116 95
82 116 95
82 116 95
82 116 95
82 116 95
82 116 95
81 116 94
82 116 95
81 116 94
81 116 95
81 116 95
81 116 95
81 116 94
81 116 94
81 116 94
81 116 94
81 116 94
81 115 94
81 115 94
81 116 94
81 115 94
81 116 94
81 115 94
81 115 94
81 115 94
81 115 94
81 115 94
81 115 94
81 115 94
81 115 94
81 115 94
80 115 94
81 115 94
81 115 94
81 115 94
81 115 94
81 115 94
81 115 94
81 115 94
80 115 94
81 115 94
81 115 94
81 115 94
80 114 94
80 115 94
81 115 94
80 115 94
80 115 94
80 115 94
80 114 94
80 115 94
80 115 94
80 114 94
80 114 94
80 114 94
80 114 93
80 114 93
80 114 93
80 114 94
80 114 94
80 114 93
80 114 93
80 114 93
80 114 93
80 114 93
80 114 93
80 114 93
80 114 93
79 113 93
80 114 93
80 114 93
80 114 93
80 114 93
80 114 93
80 114 93
80 114 93
80 114 93
79 113 93
80 114 93
80 114 93
80 114 93
80 114 93
80 114 93
80 114 93
80 114 93
79 113 93
79 113 93
79 113 93
79 113 93
79 113 93
79 113 93
79 113 93
79 113 93
79 113 93
79 113 93
79 113 93
79 113 93
80 113 93
79 113 93
79 113 93
79 113 93
79 113 93
79 113 93
79 113 93
79 113 93
79 113 92
79 113 93
79 113 92
79 113 92
79 113 92
79 113 92
79 113 92
79 113 92
79 112 92
79 113 92
79 112 92
79 113 92
78 112 92
79 113 92
79 112 92
79 113 92
79 112 92
78 112 92
79 112 92
79 112 92
78 112 92
79 112 92
79 112 92
78 112 92
78 112 92
78 112 92
78 112 92
85 120 97
84 119 97
84 120 97
84 119 97
84 119 97
84 119 97
84 119 97
84 119 97
84 119 97
84 119 97
84 119 97
84 119 97
84 119 97
84 119 97
84 119 97
84 119 97
84 119 97
84 119 97
84 119 97
84 120 97
84 119 97
84 119 97
84 119 97
85 120 97
84 119 97
85 120 97
84 119 97
84 119 97
84 119 97
84 119 97
84 119 97
84 119 97
84 119 97
84 119 97
84 119 97
84 119 97
84 119 97
84 119 97
84 119 97
84 119 97
84 119 97
84 119 97
84 119 97
84 119 96
84 119 97
84 119 97
84 119 97
84 119 97
84 119 97
84 119 97
84 119 97
84 119 96
84 119 97
84 119 97
84 119 97
84 119 97
84 119 97
84 119 97
84 119 97
84 119 97
84 119 97
84 119 97
84 119 96
84 119 96
84 119 96
84 119 96
84 119 96
84 119 97
84 119 97
83 118 96
84 119 97
84 119 97
83 118 96
84 119 96
84 118 96
84 119 96
84 118 96
83 118 96
84 119 96
83 118 96
84 119 96
84 118 96
84 119 96
83 118 96
84 118 96
84 118 96
83 118 96
84 119 96
83 118 96
84 118 96
83 118 96
83 118 96
83 118 96
83 118 96
83 118 96
83 118 96
83 118 96
83 118 96
83 118 96
83 118 96
83 118 96
83 118 96
84 118 96
83 118 96
83 118 96
83 118 96
83 118 96
83 118 96
83 118 96
83 118 96
83 118 96
83 118 96
83 118 96
83 118 96
83 118 96
83 118 96
83 118 96
83 118 96
83 118 96
83 118 96
83 117 96
83 118 96
83 118 96
83 118 96
83 118 96
83 117 96
83 117 96
82 117 95
83 117 95
82 117 95
83 117 95
83 117 95
83 117 96
82 117 95
82 117 95
83 118 95
83 117 95
82 117 95
83 117 95
83 117 95
82 117 95
82 117 95
82 117 95
83 117 95
83 117 95
82 117 95
82 117 95
82 117 95
83 117 95
82 117 95
82 117 95
82 117 95
82 116 95
82 117 95
82 117 95
82 117 95
82 117 95
82 117 95
82 117 95
82 116 95
82 116 95
82 117 95
82 116 95
82 116 95
82 116 95
82 116 95
82 116 95
81 116 95
82 116 95
82 116 95
82 116 95
82 116 95
82 116 95
81 116 95
82 116 95
81 116 95
81 116 95
82 116 94
82 116 94
81 116 95
81 116 95
82 116 94
81 116 95
81 116 95
81 116 95
81 116 94
81 115 94
81 116 94
81 116 94
81 116 94
81 116 94
81 115 94
81 116 94
81 115 94
81 116 94
81 115 94
81 115 94
81 115 94
81 115 94
81 115 94
81 115 94
81 115 94
81 115 94
81 115 94
81 115 94
81 115 94
81 115 94
81 115 94
81 115 94
81 115 94
81 115 94
80 115 94
81 115 94
81 115 94
80 115 94
81 115 94
81 115 94
80 115 94
80 115 94
81 115 94
80 115 94
80 114 94
80 115 94
81 115 94
80 115 94
80 114 94
80 114 94
80 114 94
80 114 94
80 114 93
80 115 94
80 114 93
80 114 93
80 114 93
80 114 93
80 114 93
80 114 93
80 114 93
80 114 93
80 114 93
80 114 93
80 114 93
80 114 93
80 114 93
80 114 93
79 114 93
80 114 93
80 114 93
80 114 93
80 114 93
80 114 93
80 114 93
79 113 93
80 114 93
80 114 93
79 113 93
80 114 93
80 114 93
79 113 93
79 113 93
80 113 93
79 113 93
79 113 93
79 113 93
79 113 93
79 113 93
79 113 93
79 113 93
79 113 93
79 113 93
79 113 93
79 113 93
79 113 93
79 113 92
79 113 93
79 113 92
79 113 93
79 113 92
79 113 93
79 113 92
79 113 92
79 113 92
79 113 92
79 113 92
79 113 92
79 112 92
79 113 92
79 113 92
79 113 92
79 112 92
79 112 92
79 113 92
79 113 92
78 112 92
78 112 92
79 112 92
78 112 92
78 112 92
79 112 92
78 112 92
85 120 97
84 120 97
85 120 97
84 120 97
85 120 97
84 120 97
84 120 97
85 120 97
85 120 97
85 120 97
85 120 97
85 120 97
85 120 97
84 119 97
85 120 97
84 120 97
85 120 97
85 120 97
84 119 97
84 119 97
85 120 97
85 120 97
85 120 97
85 120 97
85 120 97
84 119 97
84 120 97
84 120 97
84 119 97
85 120 97
84 119 97
84 120 97
84 120 97
84 120 97
84 119 97
84 120 97
84 119 97
84 119 97
84 119 97
84 119 97
84 119 97
84 119 97
84 119 97
85 120 97
84 119 97
84 119 97
84 119 97
84 119 97
84 119 97
84 119 97
84 119 97
85 120 97
84 119 97
84 119 97
84 119 97
84 119 97
84 119 97
84 119 97
84 119 97
84 119 97
84 119 97
84 119 97
84 119 97
84 119 97
84 119 97
84 119 97
84 119 97
84 119 97
84 119 97
84 119 97
84 119 97
84 119 97
84 119 97
84 119 96
84 119 97
84 119 96
84 119 97
84 119 97
83 118 96
84 119 96
84 119 97
84 119 97
84 118 96
84 119 96
83 118 96
83 118 96
83 118 96
84 119 96
83 118 96
84 118 96
83 118 96
84 119 96
84 119 96
83 118 96
84 119 96
84 118 96
84 118 96
83 118 96
84 118 96
83 118 96
83 118 96
83 118 96
83 118 96
84 118 96
83 118 96
83 118 96
83 118 96
83 118 96
83 118 96
84 118 96
83 118 96
83 118 96
83 118 96
83 118 96
83 118 96
83 118 96
83 118 96
83 118 96
83 118 96
83 118 96
83 118 96
83 118 96
83 118 96
83 118 96
83 118 96
83 118 96
83 118 96
83 117 96
82 117 95
83 117 96
83 118 96
83 118 96
83 118 96
83 117 95
83 117 96
83 118 96
83 117 96
83 117 95
83 117 96
82 117 95
83 117 96
83 117 95
83 117 95
82 117 95
83 117 95
82 117 95
82 117 95
83 117 95
83 117 95
82 117 95
82 117 95
82 117 95
82 117 95
82 116 95
82 116 95
82 117 95
82 117 95
82 117 95
82 117 95
82 117 95
82 117 95
82 116 95
82 117 95
82 117 95
82 117 95
82 117 95
82 116 95
82 116 95
82 116 95
82 116 95
82 117 95
82 116 95
82 116 95
82 116 95
81 116 94
82 116 95
82 116 95
82 116 95
81 116 95
82 116 95
82 116 95
82 116 95
82 116 95
81 116 94
81 116 95
81 116 94
81 116 94
82 116 95
81 116 95
81 116 95
81 115 94
81 116 94
81 116 94
81 116 94
81 116 94
81 115 94
81 115 94
81 116 94
81 115 94
81 116 94
81 115 94
81 116 94
81 116 94
81 115 94
81 115 94
81 115 94
81 115 94
81 115 94
81 115 94
81 115 94
80 115 94
81 115 94
81 115 94
81 115 94
81 115 94
81 115 93
81 115 94
81 115 94
81 115 94
80 115 94
80 115 94
80 115 94
80 114 94
81 115 94
80 115 94
81 115 94
80 115 94
80 114 94
81 115 94
80 114 93
80 114 93
80 114 94
80 114 93
80 114 94
80 114 94
80 114 93
80 114 93
80 114 93
80 114 93
80 114 93
80 114 93
80 114 93
80 114 93
80 114 93
80 114 93
80 114 93
80 114 93
80 114 93
80 114 93
80 114 93
80 114 93
80 114 93
80 114 93
80 114 93
80 114 93
80 114 93
79 113 93
80 114 93
80 114 93
80 114 93
79 113 93
79 113 93
79 113 93
79 113 93
79 113 93
80 114 93
79 113 93
80 113 93
80 113 93
79 113 93
79 113 93
79 113 93
79 113 93
79 113 93
79 113 93
79 113 93
79 113 93
79 113 93
79 113 93
79 113 93
79 113 93
79 113 93
79 113 92
79 113 92
79 113 92
79 113 92
79 113 92
79 113 92
79 112 92
79 113 92
79 112 92
79 113 92
79 113 92
79 113 92
79 112 92
79 113 92
79 113 92
79 112 92
78 112 92
78 112 92
84 120 97
85 120 97
85 120 97
84 120 97
85 120 97
85 120 97
85 120 97
85 120 97
85 120 97
85 120 97
85 120 97
85 120 97
85 120 97
85 120 97
85 120 97
85 120 97
85 120 97
85 120 97
85 120 97
85 120 97
85 120 97
85 120 97
85 120 97
85 120 97
85 120 97
85 120 97
84 120 97
85 120 97
85 120 97
84 120 97
84 120 97
84 120 97
85 120 97
84 120 97
84 120 97
84 120 97
85 120 97
84 119 97
84 120 97
85 120 97
85 120 97
85 120 97
84 119 97
84 119 97
84 119 97
84 119 97
84 120 97
85 120 97
85 120 97
84 120 97
85 120 97
84 119 97
84 119 97
84 119 97
84 119 97
84 119 97
84 119 97
85 120 97
84 119 97
85 120 97
84 119 97
84 119 97
84 119 97
84 119 97
85 120 97
84 119 97
84 119 97
84 119 97
84 119 97
84 119 97
84 119 97
84 119 97
84 119 97
84 119 97
84 119 97
84 119 97
84 119 97
83 118 96
84 119 97
84 119 96
84 119 97
84 119 96
84 119 97
84 119 96
84 119 96
84 119 97
84 119 97
84 119 97
84 119 97
84 118 96
84 119 97
84 119 96
84 119 96
83 118 96
84 118 96
84 118 96
84 119 96
84 119 96
84 119 96
83 118 96
84 119 96
84 119 96
83 118 96
84 118 96
83 118 96
83 118 96
83 118 96
83 118 96
83 118 96
83 118 96
83 118 96
84 118 96
83 118 96
84 118 96
83 118 96
83 118 96
83 118 96
83 118 96
83 118 96
83 118 96
83 118 96
83 118 96
83 118 96
83 118 96
83 118 96
83 118 96
83 118 96
83 118 96
83 118 96
83 118 96
83 118 96
82 117 95
83 117 96
83 117 96
83 117 96
83 117 96
83 118 96
83 118 96
82 117 96
83 117 96
82 117 95
83 117 95
82 117 96
83 117 96
83 117 96
82 117 95
83 117 96
82 117 95
83 117 95
83 117 95
82 117 95
82 117 95
82 117 95
82 117 95
82 117 95
82 117 95
82 117 95
82 117 95
82 117 95
82 117 95
82 117 95
82 117 95
82 117 95
82 116 95
82 117 95
82 117 95
82 116 95
82 116 95
82 117 95
82 117 95
82 116 95
82 117 95
82 116 95
82 116 95
82 116 94
82 116 95
82 117 95
82 116 94
82 116 95
82 116 95
81 116 95
82 116 94
81 116 95
82 116 95
81 116 95
81 116 95
81 116 94
81 116 94
82 116 95
81 116 94
81 116 94
81 115 94
81 116 95
81 116 95
81 116 95
81 115 94
81 116 94
81 116 94
81 116 94
81 116 94
81 116 94
81 116 94
81 116 94
81 116 94
81 115 94
81 115 94
81 115 94
81 115 94
81 115 94
81 116 94
81 115 94
81 115 94
81 115 94
81 115 94
81 115 94
81 115 94
81 115 94
81 115 94
81 115 94
81 115 94
80 115 94
80 115 94
81 115 94
81 115 94
80 115 94
80 114 94
80 115 94
80 115 94
80 115 94
81 115 94
81 115 94
81 115 94
80 115 94
80 115 94
80 114 94
80 115 94
80 114 93
80 114 93
80 114 94
80 114 93
80 114 94
80 114 93
80 114 93
80 114 93
80 114 93
80 114 93
80 114 93
80 114 93
80 114 93
80 114 93
80 114 93
80 114 93
79 114 93
80 114 93
80 114 93
80 114 93
80 114 93
80 114 93
80 114 93
80 114 93
80 114 93
80 113 93
80 114 93
79 113 93
79 113 93
80 114 93
79 113 93
79 113 93
79 113 93
80 113 93
79 113 92
79 113 93
80 113 93
79 113 93
79 113 93
79 113 93
79 113 93
79 113 93
79 113 93
79 113 93
79 113 93
79 113 93
79 113 93
79 113 93
79 113 93
79 113 93
79 113 92
79 113 92
79 113 92
79 113 92
79 113 92
79 113 92
79 113 92
79 113 92
79 112 92
79 113 92
78 112 92
79 113 92
79 112 92
79 112 92
85 120 97
85 120 97
85 120 97
85 120 97
85 120 97
85 120 97
85 120 97
85 120 97
85 120 97
85 120 97
85 120 97
85 120 97
85 120 97
85 120 97
85 120 97
85 120 97
85 120 97
85 120 97
85 120 97
85 120 97
85 120 97
85 120 97
85 120 97
85 120 97
85 120 97
85 120 97
85 120 97
85 120 97
85 120 97
85 120 97
85 120 97
85 120 97
85 120 97
85 120 97
84 120 97
85 120 97
85 120 97
84 120 97
85 120 97
85 120 97
85 120 97
85 120 97
85 120 97
84 120 97
85 120 97
84 120 97
85 120 97
85 120 97
84 119 97
85 120 97
84 119 97
85 120 97
84 120 97
85 120 97
84 119 97
85 120 97
85 120 97
84 119 97
84 120 97
84 120 97
84 120 97
85 120 97
84 120 97
84 119 97
84 120 97
84 119 97
84 119 97
84 119 97
84 119 97
84 119 97
84 119 97
84 119 97
84 119 97
84 119 97
84 119 97
84 119 97
84 119 97
84 119 97
84 119 97
84 119 97
84 119 97
84 119 97
84 119 97
84 119 97
84 119 97
84 119 96
84 119 97
84 119 97
84 119 97
84 119 97
84 119 97
84 119 97
84 119 96
84 119 97
84 119 96
84 119 96
84 119 96
84 119 97
84 119 97
84 119 96
84 119 96
84 119 96
84 119 96
84 119 96
84 119 96
84 119 96
84 118 96
84 119 96
84 118 96
83 118 96
84 119 96
83 118 96
83 118 96
83 118 96
84 118 96
84 118 96
83 118 96
83 118 96
83 118 96
84 118 96
83 118 96
83 118 96
83 118 96
83 118 96
83 118 96
83 118 96
83 118 96
83 118 96
83 118 96
83 118 96
83 118 96
83 117 96
83 118 96
83 118 96
83 118 96
83 117 96
83 118 96
83 118 96
83 118 96
83 118 96
83 117 96
83 117 96
83 117 96
83 117 95
83 118 96
83 117 96
83 117 95
83 117 95
83 117 95
82 117 95
83 118 96
83 117 95
82 117 95
83 117 95
82 117 95
83 117 95
82 117 95
82 117 95
82 117 95
82 117 95
82 117 95
82 117 95
82 117 95
82 117 95
82 117 95
82 117 95
82 117 95
82 117 95
82 116 95
116 113 90
156 104 82
193 95 71
205 90 65
200 89 65
188 91 68
170 95 73
134 105 83
88 115 94
82 116 95
82 116 95
82 116 95
82 116 95
82 116 95
82 116 95
82 116 95
82 116 95
82 116 95
82 116 95
82 116 95
82 116 95
82 116 95
82 116 95
82 116 95
82 116 95
81 116 95
81 116 95
81 116 95
82 116 94
81 116 95
82 116 94
81 115 94
81 116 94
81 116 94
81 115 94
81 116 94
81 115 94
81 116 94
81 115 94
81 115 94
81 115 94
81 115 94
81 115 94
81 115 94
81 115 94
81 115 94
81 115 94
81 115 94
81 115 94
81 115 94
81 115 94
81 115 94
80 115 94
81 115 94
81 115 94
81 115 94
81 115 94
80 115 94
81 115 94
80 115 94
80 115 94
81 115 94
80 115 94
80 114 93
80 114 94
80 114 94
81 115 94
80 114 94
80 114 94
80 114 93
80 114 93
80 114 94
80 114 94
80 114 93
80 114 93
80 114 94
80 114 93
80 114 93
80 114 93
80 114 93
80 114 93
80 114 93
80 114 93
80 114 93
79 114 93
80 114 93
80 114 93
80 114 93
80 114 93
80 114 93
80 114 93
80 114 93
80 114 93
80 114 93
79 114 93
80 114 93
79 113 93
79 114 93
79 113 93
79 114 93
80 114 93
79 113 93
79 113 93
79 113 93
80 114 93
79 113 93
80 113 93
79 113 93
79 113 93
79 113 93
79 113 93
79 113 93
79 113 93
79 113 93
79 113 93
79 113 93
79 113 93
79 113 93
79 113 93
79 113 92
79 113 92
79 113 92
79 113 92
79 113 92
79 113 92
79 112 92
79 113 92
79 113 92
79 113 92
79 112 92
79 112 92
85 120 98
85 120 98
85 121 98
85 120 97
85 121 98
85 120 98
85 120 98
85 120 97
85 120 98
85 120 98
85 120 98
85 120 98
85 120 97
85 120 98
85 120 98
85 120 97
85 120 98
85 120 97
85 120 98
85 120 98
85 120 97
85 120 98
85 120 97
85 120 98
85 120 98
85 120 98
85 120 98
85 120 98
85 120 97
85 120 97
85 120 97
85 120 97
85 120 97
85 120 97
85 120 97
85 120 97
85 120 97
85 120 97
85 120 97
85 120 97
85 120 97
85 120 97
85 120 97
85 120 97
84 120 97
85 120 97
84 120 97
85 120 97
85 120 97
85 120 97
84 120 97
85 120 97
85 120 97
85 120 97
84 120 97
85 120 97
85 120 97
85 120 97
85 120 97
84 120 97
85 120 97
84 120 97
85 120 97
84 120 97
85 120 97
85 120 97
85 120 97
84 120 97
85 120 97
84 119 97
84 120 97
85 120 97
84 119 97
84 119 97
84 119 97
84 119 97
84 119 97
85 120 97
84 119 97
84 119 97
84 119 97
84 119 97
84 119 97
84 119 97
84 119 97
84 119 97
84 119 97
84 119 97
84 119 97
84 119 97
84 119 97
84 119 97
84 119 97
84 119 97
84 119 97
84 119 97
84 119 97
84 119 96
84 119 96
84 119 97
84 118 96
84 118 96
84 119 97
84 119 96
84 119 97
84 119 97
83 118 96
84 119 96
84 119 96
84 119 96
84 119 96
84 119 96
84 118 96
83 118 96
83 118 96
84 119 96
83 118 96
84 118 96
84 118 96
83 118 96
83 118 96
83 118 96
83 118 96
83 118 96
83 118 96
83 118 96
84 118 96
83 118 96
83 118 96
83 118 96
84 118 96
83 118 96
83 118 96
83 118 96
83 118 96
83 118 96
83 118 96
83 118 96
83 118 96
83 118 96
83 118 96
83 117 96
83 118 96
83 117 95
83 118 96
83 118 96
83 117 96
83 118 96
83 117 95
83 117 96
83 117 96
83 117 95
83 117 96
83 117 96
82 117 95
82 117 95
83 117 95
83 117 95
83 117 95
82 117 95
82 117 95
82 117 95
83 117 95
82 117 95
82 117 95
82 117 95
82 117 95
113 113 91
192 98 74
235 86 58
236 85 56
233 84 56
230 83 56
226 82 55
221 81 54
217 79 53
210 77 52
193 79 56
138 101 80
89 115 93
82 116 95
82 116 95
82 116 95
82 116 95
82 116 95
82 116 95
82 116 95
81 116 95
81 116 95
81 116 94
81 116 95
82 116 95
82 116 95
81 116 94
82 116 94
81 116 95
82 116 95
82 116 95
81 116 94
81 116 95
81 116 94
81 116 94
81 116 94
82 116 95
81 116 94
81 116 94
81 116 94
81 116 94
81 116 94
81 115 94
81 116 94
81 115 94
81 115 94
81 115 94
81 116 94
81 115 94
81 115 94
81 115 94
81 115 94
81 115 94
81 115 94
81 115 94
81 115 94
80 115 94
81 115 94
81 115 94
81 115 94
81 115 94
81 115 94
81 115 94
81 115 94
80 115 94
80 115 94
81 115 94
80 115 94
81 115 94
81 115 94
80 114 94
81 115 94
80 115 94
80 114 93
80 114 94
81 115 94
80 115 94
80 114 94
80 114 94
80 115 94
80 114 93
80 114 94
80 114 93
80 114 93
80 114 93
80 114 93
80 114 93
80 114 93
80 114 93
80 114 93
80 114 93
80 114 93
80 114 93
80 114 93
80 114 93
80 114 93
80 114 93
80 114 93
80 114 93
80 114 93
80 114 93
80 114 93
80 114 93
80 114 93
80 114 93
79 113 93
79 113 93
79 113 93
80 114 93
80 114 93
79 113 93
80 114 93
79 113 93
79 113 93
79 113 93
79 113 93
79 113 93
79 113 93
79 113 93
79 113 93
79 113 93
79 113 93
79 113 93
79 113 92
79 113 92
79 113 93
79 113 92
79 113 93
79 113 92
79 113 92
79 113 92
79 113 92
79 113 92
85 121 98
85 120 98
85 120 98
85 121 98
85 121 98
85 121 98
86 121 98
85 120 98
85 120 98
85 120 98
85 121 98
85 120 98
85 121 98
85 120 98
85 121 98
86 121 98
85 120 98
85 121 98
85 120 98
85 121 98
85 120 98
85 120 98
86 121 98
85 121 98
85 121 98
85 120 98
85 120 97
85 120 97
85 120 98
85 120 98
85 120 98
85 120 98
85 120 97
85 120 98
85 120 97
85 120 98
85 120 98
85 120 98
85 120 98
85 120 98
85 120 98
85 120 98
85 120 98
85 120 97
85 120 98
85 120 97
85 120 97
85 120 97
85 120 97
85 120 97
85 120 97
85 120 97
85 120 97
85 120 97
85 120 97
85 120 97
85 120 97
85 120 97
85 120 97
85 120 97
85 120 97
84 120 97
85 120 97
85 120 97
85 120 97
84 119 97
85 120 97
85 120 97
84 119 97
85 120 97
84 120 97
84 120 97
84 119 97
85 120 97
84 119 97
85 120 97
84 120 97
84 120 97
84 119 97
84 120 97
85 120 97
85 120 97
84 119 97
84 119 97
85 120 97
84 119 97
84 119 97
84 119 97
84 119 97
84 119 97
84 119 97
84 119 97
84 119 97
85 119 97
84 119 97
84 119 97
84 119 97
84 119 97
84 119 97
84 119 96
84 119 97
84 119 97
84 119 97
84 119 97
84 119 97
84 119 96
84 118 96
84 119 97
84 119 96
84 119 97
84 119 97
84 119 96
84 119 97
84 118 96
84 118 96
84 119 96
83 118 96
84 119 96
84 118 96
83 118 96
83 118 96
83 118 96
84 118 96
83 118 96
84 118 96
83 118 96
83 118 96
83 118 96
83 118 96
83 118 96
83 118 96
83 118 96
84 118 96
83 118 96
83 118 96
83 118 96
83 118 96
83 118 96
83 118 96
83 118 96
83 118 96
83 118 96
83 118 96
83 118 96
83 117 96
83 118 96
83 118 96
83 118 96
83 118 96
82 117 95
83 117 96
83 117 96
83 117 96
83 117 96
83 118 96
83 117 96
83 117 96
83 118 96
83 117 95
83 117 95
83 118 96
82 117 95
82 117 95
82 117 95
82 117 95
83 117 95
149 107 85
236 87 59
242 87 57
241 86 57
239 86 57
236 85 57
233 84 56
229 83 56
224 82 55
219 80 54
213 78 53
208 76 51
200 73 50
170 81 60
97 112 91
82 116 95
82 117 95
82 117 95
82 116 95
82 116 95
82 117 95
82 116 95
82 117 95
82 116 94
82 117 95
82 116 95
82 116 95
82 116 95
81 116 95
81 116 95
82 116 94
81 116 95
81 116 94
82 116 95
82 116 95
81 116 94
81 116 94
81 116 95
81 116 94
81 116 95
81 116 95
81 116 95
81 116 95
81 116 94
81 115 94
81 116 94
81 115 94
81 116 94
81 115 94
81 116 94
81 115 94
81 115 94
81 115 94
81 115 94
81 115 94
81 115 94
81 115 94
81 115 94
81 115 94
81 115 94
81 115 94
81 115 94
81 115 94
81 115 94
81 115 94
80 115 94
80 115 94
81 115 94
80 115 94
80 115 94
81 115 94
80 115 94
81 115 94
81 115 94
81 115 94
80 114 94
81 115 94
80 115 94
80 114 94
81 115 94
80 114 93
80 114 94
81 115 94
80 114 94
80 114 93
80 114 94
80 114 94
80 114 93
80 114 93
80 114 93
80 114 93
80 114 93
80 114 93
80 114 93
80 114 93
80 114 93
80 114 93
80 114 93
80 114 93
80 114 93
80 114 93
80 114 93
80 114 93
80 114 93
80 114 93
79 113 93
80 114 93
80 114 93
80 114 93
79 113 93
80 113 93
79 113 93
80 114 93
79 113 93
79 113 93
79 113 93
79 113 93
79 113 93
80 113 93
79 113 93
79 113 93
79 113 93
79 113 93
79 113 93
79 113 93
79 113 93
79 113 93
79 113 93
79 113 93
79 113 93
79 113 93
79 113 93
79 113 93
79 113 92
86 121 98
85 121 98
85 121 98
86 121 98
86 121 98
86 121 98
86 121 98
85 121 98
86 121 98
85 121 98
86 121 98
86 121 98
85 121 98
86 121 98
85 121 98
86 121 98
85 121 98
85 120 98
85 121 98
85 120 98
85 121 98
85 121 98
85 121 98
85 121 98
85 121 98
85 121 98
85 121 98
85 121 98
85 121 98
85 120 98
85 120 98
85 121 98
86 121 98
85 120 98
85 120 98
85 120 98
85 120 97
85 121 98
85 120 98
85 120 98
85 121 98
85 120 97
85 120 98
85 121 98
85 120 98
85 120 97
85 120 98
85 120 98
85 120 97
85 120 97
85 120 97
85 120 97
85 120 97
85 120 98
85 120 98
85 120 97
85 120 98
85 120 97
85 120 97
85 120 97
85 120 97
85 120 97
85 120 97
85 120 97
85 120 97
85 120 97
85 120 97
85 120 97
85 120 97
85 120 97
85 120 97
85 120 97
85 120 97
85 120 97
85 120 97
85 120 97
85 120 97
84 119 97
84 120 97
84 119 97
84 119 97
84 119 97
85 119 97
84 120 97
84 119 97
84 120 97
85 120 97
85 120 97
84 119 97
84 119 97
84 119 97
84 119 97
84 119 97
84 119 97
84 119 97
84 119 97
85 119 97
84 119 97
84 119 97
84 119 97
84 119 97
84 119 97
84 119 97
84 119 97
84 119 97
84 119 97
84 119 96
84 119 97
84 119 96
84 119 97
84 119 97
84 118 96
84 119 97
83 118 96
84 119 96
84 119 96
84 119 96
84 119 96
84 118 96
84 119 96
84 119 96
83 118 96
83 118 96
84 118 96
83 118 96
84 119 96
84 118 96
83 118 96
84 119 96
83 118 96
83 118 96
84 118 96
83 118 96
83 118 96
84 118 96
83 118 96
83 118 96
84 118 96
83 118 96
83 118 96
83 118 96
83 118 96
83 118 96
83 118 96
83 118 96
83 118 96
83 118 96
83 117 95
83 118 96
83 118 96
83 118 96
83 117 95
83 118 96
83 118 96
83 117 95
83 118 96
83 117 96
83 118 96
83 117 96
83 117 96
83 117 96
83 117 95
82 117 96
83 117 95
82 117 95
169 103 80
241 87 57
246 88 58
245 88 58
243 87 58
240 86 57
238 86 57
234 85 56
230 83 56
226 82 55
221 80 54
215 79 53
210 77 52
203 74 50
193 71 48
173 71 50
93 112 90
82 117 95
82 116 95
81 116 95
82 117 95
82 116 95
82 116 95
82 116 95
82 116 95
82 117 95
82 116 95
82 116 95
82 116 95
82 116 95
82 116 95
82 116 95
82 116 95
82 116 94
82 116 95
81 116 94
81 116 94
82 116 95
82 116 94
82 116 94
82 116 95
81 116 95
81 116 95
82 116 95
81 116 95
82 116 95
81 116 95
81 116 94
81 116 94
81 115 94
81 116 94
81 116 94
81 116 94
81 115 94
81 115 94
81 115 94
81 115 94
81 115 94
81 115 94
81 115 94
81 115 94
81 115 94
81 115 94
81 115 94
81 115 94
81 115 94
81 115 94
81 115 94
81 115 94
81 115 94
81 115 94
80 115 94
81 115 94
81 115 94
81 115 94
80 115 94
80 115 94
80 115 94
81 115 94
80 115 94
80 115 94
80 115 94
80 115 94
80 114 93
80 114 93
80 114 94
80 114 94
80 114 94
80 114 93
80 114 94
80 114 93
80 114 93
80 114 93
80 114 93
80 114 93
79 113 93
80 114 93
80 114 93
80 114 93
80 114 93
80 114 93
80 114 93
80 114 93
80 114 93
80 114 93
80 114 93
80 114 93
80 114 93
80 114 93
79 114 93
80 114 93
80 114 93
80 114 93
80 114 93
79 113 93
79 113 93
79 113 93
79 113 93
79 113 93
79 113 93
80 114 93
79 113 93
79 113 93
80 113 93
79 113 93
79 113 93
79 113 93
79 113 93
79 113 93
79 113 93
79 113 93
79 113 92
79 113 93
79 113 93
79 113 93
86 121 98
86 121 98
86 121 98
86 121 98
86 121 98
85 121 98
85 121 98
86 121 98
86 121 98
86 121 98
86 121 98
86 121 98
85 121 98
86 121 98
86 121 98
86 121 98
85 121 98
86 121 98
86 121 98
85 121 98
85 121 98
86 121 98
85 120 98
85 121 98
86 121 98
85 121 98
86 121 98
85 120 98
85 121 98
85 121 98
86 121 98
85 121 98
86 121 98
85 121 98
86 121 98
86 121 98
85 121 98
85 121 98
85 121 98
85 120 98
85 120 98
85 121 98
85 120 98
85 121 98
85 121 98
85 120 98
85 120 98
85 120 98
85 120 98
85 121 98
85 121 98
85 120 98
85 120 98
85 120 98
85 120 98
85 120 97
85 121 98
85 120 98
85 120 98
85 120 97
85 120 98
85 120 98
85 120 98
85 120 97
85 120 98
85 120 98
85 120 97
85 120 97
85 120 97
85 120 97
85 120 97
85 120 97
85 120 97
85 120 97
85 120 97
84 119 97
84 120 97
85 120 97
85 120 97
85 120 97
84 120 97
85 120 97
85 120 97
85 120 97
85 120 97
85 120 97
85 120 97
84 120 97
84 120 97
84 119 97
85 119 97
85 120 97
84 119 97
84 119 97
85 120 97
85 119 97
84 119 97
84 119 97
84 120 97
84 119 97
84 119 97
84 119 97
84 119 97
84 119 97
84 119 97
84 119 97
84 119 97
84 119 97
84 119 96
84 119 97
84 119 96
84 119 97
84 119 97
84 119 97
84 119 96
84 119 97
84 119 97
84 119 96
83 118 96
84 119 97
84 119 97
84 119 97
84 119 97
84 119 96
84 118 96
84 119 96
84 119 96
84 118 96
84 118 96
84 118 96
84 118 96
84 118 96
84 118 96
83 118 96
83 118 96
84 118 96
84 118 96
83 118 96
83 118 96
84 118 96
83 118 96
83 118 96
84 118 96
83 118 96
83 118 96
83 118 96
83 118 96
83 118 96
83 118 96
83 118 96
83 118 96
83 118 96
83 118 96
83 118 96
83 117 96
83 118 96
83 118 96
83 118 96
82 117 95
83 118 96
83 118 96
83 118 96
83 118 96
83 117 95
143 109 85
236 85 56
247 88 58
247 88 58
247 88 58
244 87 58
241 87 57
238 86 57
235 85 56
231 83 56
227 82 55
222 81 54
217 79 53
212 77 52
204 75 51
197 72 49
183 68 46
148 78 59
85 115 93
82 117 95
82 117 95
82 117 95
82 117 95
82 116 95
82 117 95
82 117 95
82 116 95
82 116 95
82 116 95
82 117 95
82 116 95
82 116 95
82 116 95
82 116 95
82 116 95
82 116 95
82 117 95
82 116 95
82 116 95
82 116 95
82 116 95
82 116 95
82 116 95
82 116 95
82 116 95
81 116 94
81 116 94
81 116 94
82 116 95
81 116 94
81 116 95
81 115 94
81 115 94
81 116 94
81 115 94
81 116 94
81 116 94
81 115 94
81 115 94
81 116 94
81 115 94
81 115 94
81 115 94
81 115 94
81 115 94
81 115 94
81 116 94
81 115 94
81 115 94
81 115 94
81 115 94
81 115 94
81 115 94
81 115 94
81 115 94
81 115 94
81 115 94
81 115 94
80 114 94
81 114 93
81 115 94
80 115 94
81 115 94
81 115 94
80 115 94
81 115 94
80 114 94
80 115 94
80 114 94
80 114 93
80 115 94
80 115 94
80 114 93
80 114 93
80 114 94
80 114 94
80 114 94
80 114 93
80 114 93
80 114 93
80 114 93
80 114 93
80 114 93
80 114 93
80 114 93
80 114 93
80 114 93
80 114 93
80 114 93
80 114 93
80 114 93
80 114 93
80 114 93
80 114 93
80 114 93
80 114 93
80 114 93
80 114 93
79 113 93
79 113 93
79 113 93
80 114 93
80 114 93
79 113 93
79 113 93
80 113 93
80 113 93
79 113 93
79 113 93
79 113 93
79 113 93
80 113 93
79 113 93
79 113 93
79 113 93
79 113 93
86 122 98
86 121 98
86 121 98
86 121 98
86 121 98
86 121 98
86 121 98
86 121 98
86 121 98
86 121 98
86 121 98
86 121 98
86 121 98
86 121 98
86 121 98
86 121 98
86 121 98
85 121 98
86 121 98
85 121 98
86 121 98
86 121 98
86 121 98
86 121 98
86 121 98
85 121 98
86 121 98
85 121 98
86 121 98
86 121 98
86 121 98
86 121 98
86 121 98
85 121 98
85 121 98
85 121 98
86 121 98
86 121 98
85 121 98
85 121 98
85 120 98
85 121 98
86 121 98
85 121 98
85 120 98
85 121 98
85 121 98
85 121 98
85 120 98
85 121 98
86 121 98
85 121 98
85 121 98
85 121 98
85 120 98
85 121 98
85 120 97
85 121 98
85 120 98
85 120 97
85 120 98
85 120 98
85 120 97
85 120 98
85 120 97
85 120 98
85 120 98
85 120 98
85 120 98
85 120 98
86 120 97
85 120 97
85 120 98
85 120 97
85 120 97
85 120 97
85 120 97
85 120 97
85 120 97
85 120 97
84 120 97
84 120 97
85 120 97
84 119 97
85 120 97
85 119 97
85 120 97
85 120 97
84 120 97
85 120 97
85 120 97
85 120 97
84 119 97
85 120 97
85 120 97
84 119 97
84 119 97
84 120 97
84 120 97
84 119 97
84 119 97
84 119 97
85 120 97
84 119 97
85 119 96
84 119 97
84 119 97
84 119 97
84 119 97
84 119 96
84 119 97
84 119 97
84 119 97
84 119 97
84 119 97
84 119 97
84 119 96
84 119 97
84 119 96
84 119 97
84 119 97
84 119 97
84 119 97
84 119 97
84 118 96
84 118 96
84 119 96
84 119 97
84 119 96
84 119 96
83 118 96
84 119 96
84 119 96
83 118 96
84 118 96
83 118 96
84 119 96
84 118 96
84 118 96
84 118 96
84 119 96
83 118 96
83 118 96
83 118 96
83 118 96
83 118 96
84 118 96
83 118 96
83 118 96
83 118 96
83 118 96
83 118 96
83 118 96
83 118 96
83 117 96
83 117 95
83 117 95
83 118 95
83 117 95
83 118 96
83 117 96
83 117 96
83 117 96
90 117 95
216 88 61
243 86 56
245 87 57
247 88 58
248 88 58
245 90 60
244 91 62
239 87 59
235 85 56
231 83 56
228 82 55
223 81 54
217 79 53
212 77 52
205 75 51
198 72 49
185 68 47
168 63 43
118 94 74
82 117 95
82 117 95
82 116 95
82 117 95
82 117 95
82 117 95
82 116 95
82 117 95
82 116 95
82 116 95
82 117 95
82 116 95
82 116 95
82 116 95
82 116 95
82 116 95
82 116 95
82 116 95
81 116 95
82 116 95
81 116 95
82 116 95
82 116 95
81 116 95
81 116 95
82 116 95
82 116 95
82 116 94
82 116 95
81 116 95
82 116 94
82 116 95
81 116 94
81 116 95
82 116 95
81 116 94
81 116 95
81 115 94
81 116 94
81 115 94
81 116 94
81 115 94
81 116 94
81 115 94
81 115 94
81 116 94
81 116 94
81 115 94
81 115 94
81 115 94
81 115 94
81 115 94
81 115 94
81 115 94
81 115 94
81 115 94
81 115 94
81 115 94
81 115 94
81 115 94
81 115 94
80 115 94
80 115 94
80 115 94
81 115 94
81 115 94
80 115 94
80 115 94
81 115 94
81 115 94
81 115 94
80 114 94
80 114 94
80 114 94
80 115 94
80 114 94
80 115 94
81 115 94
80 114 94
80 115 94
80 114 94
80 114 93
80 114 93
80 114 93
80 114 93
80 114 93
79 114 93
80 114 93
80 114 93
80 114 93
80 114 93
80 114 93
80 114 93
80 114 93
80 114 93
80 114 93
80 114 93
80 114 93
80 114 93
80 114 93
80 114 93
80 114 93
79 114 93
80 114 93
79 113 93
80 114 93
80 114 93
79 113 93
79 113 93
79 113 93
80 113 93
79 113 93
79 113 93
79 113 93
79 113 92
79 113 93
79 113 93
86 121 98
86 121 98
86 122 98
86 122 98
86 122 98
86 121 98
86 121 98
86 121 98
86 121 98
86 121 98
86 121 98
86 121 98
86 121 98
86 121 98
86 121 98
86 121 98
86 121 98
86 121 98
86 121 98
86 121 98
86 121 98
86 121 98
86 121 98
86 121 98
86 121 98
86 121 98
86 121 98
86 121 98
86 121 98
86 121 98
86 121 98
85 121 98
86 121 98
86 121 98
86 121 98
86 121 98
86 121 98
86 121 98
86 121 98
86 121 98
85 121 98
86 121 98
85 121 98
86 121 98
86 121 98
85 121 98
86 121 98
86 121 98
85 120 98
86 121 98
85 121 98
85 121 98
86 121 98
85 120 98
85 121 98
85 121 98
85 121 98
85 121 98
85 120 98
86 121 98
85 121 98
85 121 98
85 120 98
85 120 97
85 120 97
85 120 97
85 120 98
85 120 98
85 120 98
85 120 97
85 120 97
85 120 97
85 120 97
85 121 98
85 120 98
85 120 98
85 120 97
85 120 98
85 120 98
85 120 97
85 120 98
85 120 97
85 120 97
85 120 97
84 120 97
85 120 97
85 120 97
85 120 97
85 120 97
85 120 97
85 120 97
85 120 97
85 120 97
85 120 97
85 120 97
84 119 97
85 120 97
85 120 97
84 119 97
85 120 97
85 120 97
84 119 97
85 120 97
84 120 97
84 119 97
85 120 97
84 119 97
84 120 97
84 119 97
84 119 97
84 119 97
84 119 97
84 119 97
84 119 97
84 119 97
84 119 97
84 119 97
84 119 97
84 119 97
84 119 97
83 118 96
75 104 86
65 88 75
56 74 65
56 73 65
55 71 63
60 81 69
73 101 84
81 115 94
84 119 97
84 119 96
84 119 96
84 119 96
84 118 96
84 118 96
84 119 97
84 119 96
84 119 96
84 118 96
83 118 96
84 118 96
83 118 96
83 118 96
83 118 96
83 118 96
83 118 96
83 118 96
83 118 96
83 118 96
83 118 96
83 118 96
83 118 96
83 117 96
83 118 96
83 118 96
83 118 96
83 118 96
83 117 96
83 118 96
83 118 96
83 117 96
83 118 96
83 118 96
158 103 79
233 83 53
239 85 55
242 86 56
246 87 57
247 93 63
255 123 92
255 133 102
245 100 71
236 85 57
232 83 55
227 82 55
223 80 54
218 79 52
212 77 51
205 74 50
195 71 48
184 68 46
168 63 43
150 65 46
86 115 93
82 117 95
82 116 95
82 116 95
82 117 95
82 116 95
82 116 95
82 116 95
82 116 95
82 116 95
82 116 95
82 116 95
82 117 95
82 116 95
82 117 95
82 117 95
82 116 95
82 116 95
82 116 95
82 116 95
82 117 95
82 116 95
82 116 95
82 116 95
82 116 95
82 116 95
82 116 95
81 116 94
81 116 94
82 116 95
81 116 94
82 116 95
82 116 95
81 116 95
81 116 94
82 116 95
82 116 95
81 116 94
81 116 94
81 115 94
81 116 95
82 116 94
81 115 94
81 115 94
81 115 94
81 115 94
81 116 94
81 115 94
81 115 94
81 115 94
81 115 94
81 115 94
81 115 94
81 115 94
81 115 94
81 115 94
81 115 94
81 115 94
81 115 94
81 115 94
81 115 94
81 115 94
81 115 94
81 115 94
80 115 94
81 115 94
81 115 94
81 115 94
80 115 94
81 115 94
81 115 94
81 115 94
80 115 94
80 115 94
81 115 94
81 115 94
80 114 94
80 114 94
80 114 94
80 114 93
80 115 94
80 114 93
80 114 94
80 114 94
80 114 94
80 114 93
80 114 93
80 114 93
80 114 93
80 114 93
80 114 93
80 114 93
80 114 93
80 114 93
80 114 93
80 114 93
80 114 93
80 114 93
80 114 93
80 114 93
80 114 93
80 114 93
80 114 93
80 114 93
80 114 93
79 113 93
80 113 93
79 113 93
79 113 93
80 114 93
79 113 93
79 113 93
79 113 93
79 113 93
80 113 93
79 113 93
79 113 93
86 122 99
86 122 99
86 122 98
86 122 98
86 122 98
86 122 98
86 121 98
86 122 98
86 122 98
87 122 98
86 122 98
86 121 98
86 121 98
86 121 98
86 121 98
86 121 98
86 121 98
86 122 98
86 122 98
86 122 98
86 121 98
86 122 98
86 121 98
86 121 98
86 121 98
86 122 98
86 121 98
86 121 98
86 121 98
86 121 98
86 121 98
86 121 98
86 121 98
86 121 98
86 121 98
86 121 98
86 121 98
86 121 98
86 121 98
86 121 98
86 121 98
86 121 98
86 121 98
86 121 98
86 121 98
86 121 98
86 121 98
86 121 98
86 121 98
86 121 98
85 121 98
85 121 98
86 121 98
86 121 98
86 121 98
86 121 98
86 121 98
86 121 98
86 121 98
86 121 98
86 121 98
85 121 98
85 121 98
85 120 97
85 121 98
85 120 98
85 121 98
85 121 98
85 121 98
85 120 98
85 121 98
85 121 98
85 120 97
85 120 97
85 121 98
85 121 98
85 120 97
85 120 98
85 121 98
85 120 98
85 120 98
85 120 97
85 120 97
85 120 97
85 120 97
85 120 97
84 119 97
84 119 97
85 120 98
85 120 97
85 120 97
85 120 97
85 120 97
85 120 97
85 120 97
85 120 97
84 119 97
85 120 97
85 120 97
85 120 97
85 120 97
84 120 97
85 120 97
84 120 97
85 120 97
85 120 97
85 120 97
85 120 97
84 120 97
84 119 97
84 119 97
85 119 97
84 120 97
84 119 97
84 119 97
84 119 97
85 120 97
84 119 96
84 119 96
69 95 80
48 59 56
40 43 46
40 42 46
39 42 46
39 42 45
38 41 45
37 40 44
36 39 43
38 43 45
53 71 62
79 112 91
84 119 97
84 119 96
84 119 96
84 118 96
84 119 96
84 118 96
84 119 96
84 119 97
83 118 96
84 119 96
84 118 96
83 118 96
83 118 96
83 118 96
84 119 96
84 118 96
84 118 96
83 118 96
83 118 96
84 118 96
83 118 96
83 118 96
83 118 96
83 118 96
83 118 96
83 118 96
83 118 96
83 117 95
83 118 96
83 118 96
83 118 96
83 118 96
206 86 60
233 83 54
233 83 53
241 85 55
243 87 57
252 109 80
255 175 140
255 173 138
250 112 83
235 85 57
230 82 55
227 81 54
223 79 52
216 77 51
211 75 50
200 72 48
191 69 46
178 66 44
169 63 43
149 57 38
110 99 79
83 117 95
82 117 95
82 117 95
82 117 95
82 117 95
83 117 95
83 117 95
82 117 95
82 117 95
82 117 95
82 117 95
82 117 95
83 117 95
82 117 95
82 116 95
82 116 95
82 117 95
82 116 95
82 117 95
82 116 95
82 116 95
82 116 94
82 116 95
82 116 95
82 116 95
82 117 95
82 116 94
82 116 95
82 116 94
82 116 95
82 116 95
82 116 94
81 116 95
82 116 95
81 116 94
82 116 95
82 116 94
82 116 95
81 116 95
82 116 95
81 116 94
82 116 94
81 116 94
81 116 95
81 116 94
81 116 94
81 115 94
81 115 94
81 116 94
81 115 94
81 115 94
81 115 94
81 115 94
81 116 94
81 115 94
81 115 94
81 115 94
81 115 94
81 115 94
81 115 94
81 115 94
81 115 94
81 115 94
81 115 94
80 115 94
81 115 94
80 115 94
81 115 94
81 115 94
81 115 94
80 114 94
81 115 94
80 115 94
81 115 94
81 115 94
80 114 94
80 115 94
81 115 94
81 115 94
81 115 94
81 115 93
80 114 93
80 114 94
81 115 94
80 114 93
80 114 93
80 115 94
80 114 93
80 114 93
80 114 93
80 114 93
80 114 93
80 114 93
80 114 93
80 114 93
80 114 93
80 114 93
80 114 93
80 114 93
80 114 93
80 114 93
80 114 93
80 114 93
80 114 93
80 114 93
80 114 93
79 113 93
80 114 93
80 114 93
80 114 93
80 114 93
79 113 93
79 113 93
80 114 93
79 113 93
79 113 93
86 122 99
86 122 98
86 122 99
86 122 99
86 122 99
86 122 99
86 122 99
86 122 99
86 122 98
86 122 98
86 122 98
86 122 99
86 122 99
86 122 99
86 122 99
87 122 99
86 122 99
86 122 99
86 122 98
86 122 98
86 122 98
86 122 99
86 122 99
86 122 98
86 122 98
86 121 98
86 121 98
86 122 98
86 122 98
86 122 98
86 121 98
86 121 98
86 122 98
86 121 98
86 122 98
86 122 98
86 121 98
86 121 98
86 121 98
86 121 98
86 121 98
86 121 98
86 121 98
86 121 98
86 121 98
86 121 98
86 121 98
86 121 98
86 121 98
86 121 98
86 121 98
86 121 98
86 121 98
86 121 98
86 121 98
86 121 98
86 121 98
86 121 98
85 121 98
86 121 98
86 121 98
86 121 98
86 121 98
86 121 98
86 121 98
85 121 98
85 121 98
85 121 98
86 121 98
85 121 98
85 121 98
85 121 98
85 121 98
85 120 97
85 121 98
86 121 98
85 121 98
86 121 98
85 120 97
85 121 98
85 120 97
86 121 98
85 120 97
85 121 98
85 120 97
85 120 97
85 120 97
85 120 98
85 120 98
85 120 97
85 120 97
85 120 97
85 120 97
85 120 97
85 120 97
85 120 98
85 120 97
85 120 97
85 120 97
85 120 97
85 120 97
85 120 97
84 120 97
85 120 97
85 120 97
85 120 97
85 120 97
84 120 97
84 120 97
85 120 97
85 120 97
84 120 97
84 120 97
84 119 97
85 120 97
84 119 97
84 119 97
80 113 92
55 70 63
41 43 47
41 43 47
40 43 47
40 43 47
39 42 46
39 42 46
38 41 45
38 41 45
37 40 44
36 39 43
35 38 42
35 39 42
67 93 78
84 119 96
84 119 97
84 119 97
84 119 97
84 119 96
84 119 97
84 119 96
83 118 96
84 119 97
84 119 96
84 118 96
84 119 96
84 119 96
84 118 96
84 119 96
83 118 96
84 119 96
84 118 96
83 118 96
84 118 96
83 118 96
83 118 96
84 118 96
83 118 96
83 118 96
83 118 96
83 118 96
83 118 96
83 118 96
83 117 95
107 113 91
217 77 49
228 81 52
230 82 53
234 83 54
234 84 54
241 101 73
255 143 112
255 129 99
238 93 64
229 81 53
228 81 53
222 79 52
217 76 50
213 76 50
206 73 48
197 70 46
184 66 44
171 63 42
157 59 40
147 56 37
127 80 62
83 117 95
82 117 95
82 117 95
82 116 95
82 117 95
82 117 95
82 117 95
82 117 95
82 117 95
82 117 95
82 116 95
82 116 95
82 117 95
82 117 95
82 116 95
82 117 95
82 116 95
82 116 95
82 116 95
82 117 95
82 116 95
82 116 95
82 116 95
82 116 95
82 116 95
82 117 95
82 116 95
82 116 95
82 116 95
81 116 95
82 116 95
82 116 95
82 116 95
82 116 95
82 116 95
82 116 94
82 116 94
81 116 95
81 116 95
82 116 95
82 116 95
81 116 94
82 116 95
82 116 95
82 116 95
82 116 94
81 116 94
81 116 94
81 116 94
81 115 94
81 115 94
81 116 94
81 116 94
81 115 94
81 115 94
81 115 94
81 115 94
81 115 94
81 116 94
81 115 94
81 115 94
81 115 94
81 115 94
81 115 94
81 115 94
81 115 94
81 115 94
81 115 94
80 115 94
81 115 94
81 115 94
81 115 94
80 114 94
81 115 94
80 115 94
81 115 94
81 115 94
81 115 94
80 115 94
80 115 94
80 114 93
81 115 94
81 115 94
80 114 94
80 114 94
80 115 94
80 114 94
80 114 93
80 115 94
80 114 93
80 114 93
80 114 93
80 114 93
80 114 93
80 114 93
80 114 93
80 114 93
80 114 93
80 114 93
80 114 93
80 114 93
80 114 93
80 114 93
80 114 93
80 114 93
80 114 93
80 114 93
79 114 93
80 114 93
79 113 93
79 114 93
80 114 93
80 114 93
79 113 93
79 113 93
80 113 93
87 122 99
86 122 99
87 122 99
86 122 99
87 122 99
86 122 99
86 122 98
86 122 99
87 122 99
86 122 99
86 122 99
87 122 99
87 122 99
86 122 99
87 122 99
86 122 99
86 122 99
87 122 99
86 122 99
86 122 99
87 122 99
86 122 99
86 122 99
86 122 98
86 122 99
86 122 99
86 122 99
86 122 98
86 122 99
86 122 98
86 121 98
87 122 99
86 122 98
86 122 99
86 122 98
86 122 98
86 122 99
86 121 98
86 122 98
86 121 98
86 122 98
86 122 98
86 121 98
86 121 98
86 121 98
86 121 98
86 122 98
86 121 98
86 121 98
86 121 98
86 121 98
86 121 98
86 122 98
86 121 98
86 121 98
86 121 98
86 121 98
86 121 98
86 121 98
86 121 98
86 121 98
86 121 98
86 121 98
86 121 98
86 121 98
86 121 98
86 121 98
86 121 98
86 121 98
86 121 98
85 121 98
85 121 98
86 121 98
85 121 98
86 121 98
86 121 98
85 121 98
86 121 98
85 120 97
85 120 98
85 121 98
86 121 98
85 120 98
85 120 98
85 121 98
85 120 98
85 120 97
85 120 97
85 120 98
85 120 97
85 120 98
85 120 97
85 120 98
85 120 97
85 120 97
85 120 97
85 120 97
85 120 98
85 120 97
85 120 98
85 120 97
85 120 97
85 120 97
85 120 97
85 120 97
85 120 97
85 120 97
85 120 97
84 119 97
84 120 97
84 119 97
85 120 97
85 120 97
85 120 97
85 120 97
84 119 97
77 107 88
46 54 53
41 44 47
41 44 47
41 43 47
40 43 47
40 43 47
40 42 46
39 42 46
38 41 45
38 41 45
37 40 44
36 39 43
35 38 42
34 37 41
32 35 39
60 82 69
84 119 96
84 119 97
84 118 96
84 119 97
84 119 96
84 119 96
84 119 97
84 119 97
84 119 96
84 119 96
84 119 96
84 119 97
84 118 96
83 118 96
83 118 96
84 119 96
83 118 96
84 118 96
83 118 96
83 118 96
83 118 96
83 118 96
83 118 96
83 118 96
83 118 96
83 118 96
83 118 96
83 117 95
83 117 95
135 106 83
220 78 50
218 77 49
224 79 51
226 80 51
227 80 52
224 82 54
233 91 63
228 86 59
223 80 52
221 78 51
219 77 50
212 75 48
211 74 48
205 72 47
197 70 46
190 67 44
176 63 42
166 60 40
151 56 37
144 55 36
128 67 49
82 117 95
83 117 96
83 117 95
82 116 95
82 116 94
82 117 95
82 116 95
83 117 95
82 117 95
83 117 95
82 117 95
82 116 95
82 117 95
82 117 95
82 117 95
82 116 95
82 116 95
82 117 95
82 116 95
82 116 95
82 117 95
82 117 95
82 117 95
82 116 95
82 117 95
82 117 95
82 116 95
82 116 95
82 116 95
82 116 95
82 116 95
82 117 95
82 116 95
82 116 95
81 116 95
82 116 95
82 116 95
82 116 95
82 116 95
81 116 94
82 116 94
81 116 95
82 116 95
82 116 95
82 116 94
81 116 94
82 116 94
81 116 94
81 116 94
81 116 95
81 116 95
81 116 94
82 116 94
81 116 94
81 116 94
81 115 94
81 115 94
81 116 94
81 115 94
81 115 94
81 115 94
81 115 94
81 115 94
81 115 94
81 115 94
81 115 94
81 115 94
81 115 94
81 115 94
81 115 94
81 115 94
81 115 94
81 115 94
80 115 94
81 115 94
81 115 94
80 115 94
81 115 94
80 115 94
80 114 94
81 115 94
80 115 94
80 115 94
80 115 94
80 115 94
80 115 94
80 114 94
80 114 94
80 114 94
80 114 93
80 114 94
80 114 94
80 114 94
80 115 94
80 114 93
80 114 93
80 114 93
80 114 93
80 114 93
80 114 93
80 114 93
80 114 93
80 114 93
80 114 93
80 114 93
80 114 93
80 114 93
80 114 93
80 114 93
80 114 93
79 113 93
79 114 93
80 114 93
80 114 93
80 114 93
80 114 93
86 122 99
87 122 99
87 122 99
87 122 99
86 122 99
87 122 99
87 122 99
87 122 99
87 122 99
86 122 99
86 122 99
86 122 99
87 122 99
86 122 99
87 122 99
86 122 99
86 122 99
86 122 99
86 122 99
87 122 99
86 122 99
86 122 99
86 122 99
86 122 99
87 122 99
86 122 99
86 122 99
86 122 99
86 121 98
87 122 99
86 122 99
86 122 99
86 122 99
86 122 99
86 122 99
86 122 99
86 122 98
86 122 99
86 122 98
86 122 98
86 122 98
86 121 98
86 122 99
86 122 99
86 122 98
86 122 98
86 121 98
86 122 99
86 121 98
86 121 98
86 122 98
87 122 98
86 122 98
85 121 98
86 122 98
86 121 98
86 121 98
86 121 98
86 122 98
86 121 98
86 121 98
86 121 98
86 122 98
86 121 98
86 121 98
86 121 98
86 121 98
86 121 98
86 121 98
86 121 98
86 121 98
85 121 98
86 121 98
86 121 98
86 121 98
85 121 98
85 120 98
85 121 98
85 121 98
85 121 98
86 121 98
85 120 98
86 121 98
86 121 98
85 121 98
86 121 98
85 121 98
86 121 98
85 120 97
85 121 98
85 120 98
85 121 98
85 120 97
85 120 98
85 121 98
85 120 98
85 120 98
85 120 98
85 120 98
85 120 97
85 120 97
85 120 97
85 120 97
85 120 97
85 120 98
85 120 97
85 120 97
85 120 97
85 120 97
85 120 97
85 120 97
85 120 97
84 120 97
85 120 97
84 120 97
82 116 94
47 56 54
41 44 47
41 44 47
41 44 47
41 44 47
41 43 47
40 43 47
40 42 46
39 42 46
38 41 45
38 41 45
37 40 44
36 39 43
35 38 42
34 37 41
33 36 40
30 33 37
68 94 78
84 118 96
84 118 96
84 119 97
84 119 96
84 119 97
83 118 96
84 119 96
84 119 97
84 118 96
84 119 96
84 119 96
84 118 96
84 118 96
84 119 96
84 119 96
83 118 96
83 118 96
84 119 96
83 118 96
84 118 96
83 118 96
84 119 96
84 118 96
84 118 96
83 118 96
84 119 96
84 118 96
83 117 95
136 101 79
204 73 46
214 76 48
217 77 49
214 75 48
218 77 49
216 76 49
218 77 50
216 77 49
222 78 51
215 75 48
213 74 48
207 72 46
201 70 45
197 70 45
188 66 43
179 64 42
166 60 39
154 56 37
141 52 34
138 52 34
131 65 47
83 117 95
83 117 95
83 117 95
82 117 95
82 117 95
82 117 95
83 117 95
82 117 95
82 117 95
82 117 95
83 117 95
82 117 95
82 117 95
82 117 95
82 117 95
82 117 95
82 117 95
82 116 94
82 116 95
82 117 95
82 116 95
82 116 95
82 117 95
82 117 95
82 116 95
82 116 95
82 116 95
82 117 95
82 117 95
82 116 95
82 116 95
82 116 95
82 116 95
82 116 95
82 116 95
82 116 95
82 116 95
82 116 95
82 116 95
82 116 95
82 116 95
82 116 95
82 116 94
82 116 95
82 116 95
82 116 95
81 116 95
81 116 95
82 116 95
82 116 95
81 116 94
81 116 94
81 116 94
81 115 94
82 116 94
81 116 94
81 116 94
81 116 94
81 115 94
81 116 94
81 116 94
81 115 94
81 115 94
81 116 94
81 115 94
81 115 94
81 115 94
81 115 94
81 115 94
81 115 94
81 115 94
81 115 94
81 115 94
81 115 94
81 115 94
81 115 94
81 115 94
81 115 94
81 115 94
80 115 94
80 114 94
81 115 94
81 115 94
81 115 94
81 115 94
81 115 94
80 115 94
80 114 94
81 115 94
80 114 94
80 115 94
80 114 94
81 115 94
80 114 93
80 114 94
80 114 93
80 114 94
80 114 93
80 114 93
80 114 93
80 114 93
80 114 93
80 114 93
80 114 93
80 114 93
80 114 93
80 114 93
80 114 93
80 114 93
80 114 93
80 114 93
80 114 93
80 114 93
80 114 93
80 114 93
79 113 93
87 123 99
87 123 99
87 123 99
87 122 99
87 122 99
87 122 99
87 122 99
87 122 99
87 122 99
87 122 99
87 122 99
86 122 99
87 122 99
87 122 99
87 122 99
87 122 99
87 122 99
87 122 99
87 122 99
87 122 99
86 122 99
86 122 99
86 122 99
87 122 99
86 122 99
87 122 99
86 122 99
86 122 99
86 122 99
86 122 99
87 122 99
87 122 99
86 122 99
86 122 99
86 122 99
87 122 99
87 122 99
86 122 98
87 122 99
86 122 99
86 122 99
86 122 99
86 122 99
87 122 99
86 122 98
86 122 99
86 121 98
86 122 99
86 122 99
86 122 98
86 122 98
86 122 98
86 122 99
86 121 98
86 122 98
86 121 98
86 121 98
86 121 98
86 122 98
86 121 98
86 121 98
86 121 98
86 121 98
86 121 98
86 121 98
86 121 98
86 121 98
86 121 98
85 121 98
86 121 98
86 121 98
86 121 98
85 121 98
86 121 98
86 121 98
86 121 98
86 121 98
86 121 98
85 121 98
86 121 98
86 121 98
86 121 98
86 121 98
86 121 98
85 121 98
86 121 98
86 121 98
85 121 98
85 120 98
85 121 98
86 121 98
85 120 98
85 121 98
85 120 97
85 121 98
85 120 98
85 120 98
85 120 98
85 120 97
85 120 98
85 120 98
85 120 97
85 121 98
85 120 98
85 120 97
85 120 98
85 120 98
85 120 97
85 120 97
85 120 97
85 120 97
85 120 97
84 119 97
85 120 97
84 120 97
58 76 66
40 42 45
41 43 46
41 44 47
41 44 47
45 47 49
56 56 56
54 54 54
42 44 47
39 42 46
38 41 45
38 41 44
37 40 44
36 39 43
35 38 42
34 37 41
33 36 39
31 33 37
32 38 39
77 109 89
84 119 96
84 119 96
84 119 97
84 119 97
84 119 97
84 119 96
84 119 97
84 118 96
84 119 96
83 118 96
84 118 96
84 119 96
84 119 97
84 119 96
84 118 96
84 118 96
84 118 96
83 118 96
83 118 96
83 118 96
84 118 96
83 117 95
83 118 96
83 118 95
83 118 96
83 118 96
83 117 95
126 105 83
200 71 45
203 72 45
210 74 47
210 74 47
209 73 46
212 75 48
211 75 47
211 75 48
207 73 47
204 71 45
200 70 44
196 69 44
190 66 42
187 65 42
175 62 40
169 61 39
152 55 35
140 51 33
136 51 33
133 51 33
123 60 43
83 117 95
83 117 95
83 117 95
82 117 95
83 117 95
83 117 95
83 117 95
82 117 95
83 117 95
83 117 95
82 117 95
82 117 95
82 116 95
82 117 95
82 117 95
83 117 95
83 117 95
82 116 94
83 117 95
82 117 95
82 117 95
82 117 95
82 116 95
82 117 95
82 116 95
82 116 95
82 116 95
82 116 95
82 117 95
82 116 95
82 116 95
82 116 95
82 117 95
82 116 95
82 116 95
82 117 95
82 116 94
82 116 95
82 117 95
82 116 95
82 116 95
82 116 95
82 116 95
82 116 95
82 116 95
81 116 94
81 116 95
82 116 95
81 116 95
82 116 94
81 116 95
82 116 95
81 116 94
82 116 95
81 115 94
81 116 94
81 116 95
81 115 94
81 116 94
82 116 94
81 115 94
82 116 94
81 116 94
81 115 94
81 115 94
81 115 94
81 115 94
81 116 94
81 115 94
81 115 94
81 115 94
81 115 94
81 115 94
81 115 94
81 115 94
81 115 94
81 115 94
81 115 94
81 115 94
80 115 94
81 115 94
80 115 94
81 115 94
80 115 94
81 115 94
80 115 94
80 114 94
80 115 94
81 115 94
80 115 94
80 115 94
80 115 94
80 114 94
80 115 94
80 114 94
80 114 94
80 114 93
80 114 93
80 115 94
80 114 94
80 114 93
80 114 93
80 114 93
80 114 93
80 114 93
80 114 93
80 114 93
80 114 93
80 114 93
79 114 93
80 114 93
80 114 93
80 114 93
80 114 93
80 114 93
80 114 93
87 123 99
87 123 99
87 123 99
87 123 99
87 122 99
87 123 99
87 123 99
87 123 99
87 123 99
87 123 99
87 123 99
87 122 99
87 122 99
87 122 99
87 122 99
86 122 99
87 122 99
87 123 99
87 122 99
86 122 99
86 122 99
87 122 99
87 122 99
86 122 99
87 122 99
86 122 99
87 122 99
87 122 99
87 122 99
87 122 99
87 122 99
86 122 98
87 122 99
86 122 99
87 122 99
87 122 99
87 122 99
87 122 99
87 122 99
86 122 98
87 122 99
86 122 99
86 122 98
86 122 98
86 122 98
86 122 99
86 122 98
86 122 99
86 122 99
86 122 99
86 122 99
86 122 98
86 122 99
86 122 99
86 122 98
86 121 98
86 121 98
86 122 98
86 122 98
86 122 98
86 121 98
86 122 99
86 121 98
86 121 98
86 121 98
86 121 98
86 121 98
86 121 98
86 121 98
86 121 99
84 116 101
83 115 101
83 115 101
84 117 100
86 121 98
86 121 98
86 121 98
86 121 98
86 121 98
86 121 98
86 121 98
86 121 98
86 121 98
85 121 98
85 121 98
85 121 98
86 121 98
86 121 98
86 121 98
86 121 98
85 120 97
85 121 98
85 121 98
85 121 98
85 120 98
85 121 98
85 120 97
85 121 98
85 120 97
85 120 98
85 120 97
85 121 98
85 120 98
85 120 97
85 121 98
85 121 98
85 120 97
85 120 97
85 120 97
85 120 98
85 120 97
85 120 97
85 119 97
85 120 97
76 106 87
39 41 43
40 42 45
41 43 46
41 43 46
46 47 49
88 84 77
132 124 108
112 105 93
55 55 55
40 42 46
38 41 45
37 40 44
37 40 43
36 39 43
35 38 42
34 37 41
33 35 39
30 33 36
28 30 34
53 72 61
84 119 97
84 118 96
84 119 97
84 119 97
84 118 96
84 119 96
84 119 96
84 119 96
84 119 97
84 118 96
84 118 96
84 119 97
84 119 97
84 119 96
83 118 96
84 118 96
83 118 96
84 118 96
84 118 96
84 118 96
84 119 96
83 118 96
84 118 96
84 118 96
83 117 95
83 118 96
83 118 95
120 107 85
183 65 40
196 69 43
199 70 44
203 72 45
200 70 44
198 70 44
194 68 43
197 70 44
194 68 43
192 67 42
187 65 41
181 63 40
179 63 40
171 60 38
167 60 38
154 54 34
140 51 32
128 47 30
126 48 30
122 47 30
112 70 53
82 117 95
83 117 95
83 117 95
82 116 95
83 117 95
82 116 95
82 117 95
82 116 95
82 116 95
82 117 95
82 116 95
83 117 95
83 117 95
82 117 95
84 117 95
98 119 94
124 124 91
121 123 90
106 120 92
88 117 94
82 117 95
82 117 95
82 117 95
83 117 95
82 116 95
82 117 95
82 116 95
82 117 95
83 117 95
82 116 95
82 116 95
82 117 95
82 116 95
82 117 95
81 116 95
82 116 95
82 116 95
82 116 95
82 116 95
82 116 95
82 116 95
82 116 95
82 116 95
82 116 95
82 116 95
82 116 95
82 116 95
82 116 95
82 116 94
82 116 94
81 116 94
82 116 95
81 116 94
82 116 95
82 116 94
82 116 94
81 116 94
81 115 94
81 116 95
81 116 94
81 116 94
81 116 94
81 115 94
81 115 94
81 115 94
81 115 94
81 115 94
81 115 94
81 115 94
81 115 94
81 115 94
81 115 94
81 115 94
81 115 94
81 115 94
81 115 94
81 115 94
81 115 94
81 115 94
81 115 94
80 115 94
81 115 94
81 115 94
81 115 94
81 115 94
81 115 94
81 115 94
81 115 94
81 115 94
80 115 94
80 114 94
80 115 94
81 115 94
81 115 94
80 114 94
80 114 94
80 115 93
81 115 94
80 114 94
80 114 94
80 114 94
80 114 93
80 114 93
80 114 94
80 114 93
80 114 93
80 114 93
80 114 93
80 114 93
80 114 93
80 114 93
80 114 93
80 114 93
80 114 93
80 114 93
80 114 93
87 123 99
87 123 99
87 123 99
87 123 99
87 123 99
87 123 99
87 123 99
87 123 99
87 122 99
87 123 99
87 123 99
87 123 99
87 123 99
87 123 99
87 123 99
87 123 99
87 123 99
87 123 99
87 123 99
87 123 99
87 123 99
87 122 99
87 123 99
87 123 99
87 122 99
86 122 98
87 122 99
87 123 99
87 122 99
86 122 99
87 122 99
87 122 99
87 122 99
87 122 99
87 122 99
87 122 99
87 122 99
87 122 99
87 122 99
87 122 99
86 122 99
86 122 99
87 122 99
87 122 99
86 122 99
86 122 99
86 122 98
87 122 99
87 122 99
87 122 99
86 122 99
87 122 99
86 122 99
86 122 99
86 122 98
86 121 98
86 122 99
86 122 98
86 122 99
86 122 99
87 122 99
86 121 98
86 122 98
86 122 98
86 122 99
86 122 98
86 121 99
80 107 106
71 84 116
67 71 120
64 63 122
62 59 122
61 59 121
61 59 119
64 71 114
72 91 108
79 108 102
86 121 99
86 121 98
86 121 98
86 121 98
85 121 98
86 121 98
86 121 98
86 121 98
86 121 98
86 121 98
86 121 98
85 121 98
86 121 98
85 121 98
86 121 98
86 121 98
86 121 98
85 121 98
85 120 98
85 120 97
85 120 97
85 120 98
85 121 98
85 120 97
85 120 97
85 120 98
86 121 98
85 120 97
85 120 97
85 120 97
85 120 97
85 120 98
85 121 98
85 120 97
85 120 97
85 120 97
85 120 97
57 76 65
38 40 43
40 42 45
40 42 45
41 43 46
61 60 58
140 130 113
186 173 148
129 121 106
57 57 56
39 42 45
38 40 44
37 40 44
37 39 43
35 38 42
34 37 41
34 36 39
32 35 38
30 33 36
27 29 32
28 31 32
78 109 89
84 119 96
85 120 97
84 119 96
84 119 96
84 119 96
84 119 96
84 118 96
84 119 97
84 119 97
84 118 96
83 117 95
84 119 96
84 118 96
84 119 96
83 117 95
84 118 96
84 118 95
84 118 96
83 118 95
83 117 95
84 118 96
84 118 96
83 118 96
83 117 95
83 118 96
83 118 96
91 113 91
180 69 44
189 67 41
193 68 42
191 68 42
188 67 41
184 65 40
192 68 43
190 67 42
182 65 40
178 63 39
175 61 38
167 59 36
163 58 36
159 56 35
146 52 32
137 50 31
122 46 28
117 44 27
123 46 29
118 46 29
102 91 72
83 117 95
83 117 95
82 117 95
82 116 95
83 117 95
83 117 95
83 117 95
83 117 95
83 117 95
83 117 95
83 117 96
83 117 95
136 127 90
209 147 78
244 159 68
250 160 65
249 159 63
246 157 63
240 154 62
224 147 65
194 138 72
149 127 83
85 117 95
82 117 95
82 116 95
82 116 95
82 116 95
82 116 95
82 117 95
82 117 95
82 117 95
82 117 95
82 117 95
82 117 95
82 117 95
82 117 95
82 117 95
82 116 95
82 116 95
82 117 95
82 116 95
82 116 95
82 116 95
82 116 95
82 116 95
82 117 95
82 116 95
82 116 95
82 116 95
82 116 95
82 116 95
82 116 95
82 116 95
82 116 94
82 116 95
81 116 95
81 116 94
81 116 94
81 116 94
81 116 94
82 116 94
81 116 94
81 116 95
81 116 95
81 116 94
81 116 94
81 116 94
81 116 94
81 116 94
81 116 94
81 116 94
81 115 94
81 115 94
81 116 94
81 115 94
81 115 94
81 115 94
81 115 94
81 115 94
81 115 94
81 115 94
81 115 94
81 115 94
81 115 94
81 115 94
80 114 94
81 115 94
81 115 94
81 115 94
81 115 94
80 115 94
81 115 94
81 115 94
81 115 94
81 115 94
81 115 94
80 114 93
80 115 94
80 114 94
81 115 94
80 115 94
80 114 93
80 114 93
80 114 94
80 114 94
80 114 94
80 114 93
80 114 93
80 114 93
80 114 93
80 114 93
80 114 93
80 114 93
80 114 93
80 114 93
80 114 93
87 123 99
87 123 99
87 123 99
87 123 99
87 123 99
87 123 99
87 123 99
87 123 99
87 123 99
87 123 99
87 123 99
87 123 99
87 123 99
87 123 99
87 123 99
87 123 99
87 123 99
87 123 99
87 123 99
87 122 99
87 122 99
87 123 99
87 123 99
87 123 99
87 123 99
87 123 99
87 123 99
87 123 99
87 122 99
86 122 99
87 123 99
87 123 99
87 122 99
87 123 99
87 122 99
87 122 99
87 122 99
87 122 99
86 122 99
87 123 99
86 122 99
86 122 99
87 122 99
86 122 99
87 122 99
87 122 99
86 122 99
87 122 99
86 122 99
87 122 99
87 122 99
87 122 99
87 122 99
86 122 99
86 122 99
87 122 99
86 122 98
87 122 99
87 122 99
86 122 99
86 122 98
86 121 98
87 122 99
87 122 98
87 122 99
81 110 105
68 75 120
65 62 125
64 61 125
64 61 125
63 61 124
62 60 123
62 59 122
61 58 121
60 58 119
59 56 117
57 55 114
62 72 108
80 111 100
86 121 98
86 121 98
86 121 98
86 121 98
86 121 98
86 122 98
86 121 98
86 121 98
86 121 98
86 121 98
86 121 98
85 121 98
86 121 98
86 121 98
85 121 98
86 121 98
85 121 98
86 121 98
85 121 98
86 121 98
86 121 98
85 120 97
85 121 98
85 120 97
85 120 97
85 120 97
85 120 97
85 119 97
85 120 97
85 121 98
85 120 97
85 120 98
85 119 97
85 120 97
84 118 96
43 51 48
38 40 42
39 41 43
40 42 45
40 42 45
55 54 53
105 99 88
120 113 99
81 77 71
44 45 47
38 40 43
37 39 43
36 39 42
36 38 41
35 37 40
33 36 39
33 35 38
30 32 35
29 31 34
27 29 32
25 27 30
63 88 73
84 119 97
84 119 97
84 119 96
84 119 97
84 119 97
84 119 97
84 118 96
83 118 95
84 119 97
84 118 96
84 119 96
84 118 96
84 119 97
84 119 97
83 117 95
84 118 96
84 119 97
83 118 96
83 117 95
83 117 95
83 118 95
83 117 95
83 118 95
83 117 95
83 118 95
83 117 95
83 117 95
144 79 58
172 62 37
180 64 39
176 62 37
175 62 38
178 63 39
174 61 37
174 62 38
173 61 37
166 59 36
161 57 34
161 56 34
151 54 33
133 49 29
126 46 27
118 43 26
108 41 24
113 43 26
110 43 26
110 43 26
85 105 84
81 114 93
81 115 94
81 114 93
80 113 92
80 114 93
81 114 93
81 114 93
80 114 93
81 115 94
81 115 94
111 120 91
214 149 77
255 166 66
255 167 66
255 165 65
255 163 65
253 161 64
248 159 64
243 156 63
238 153 62
232 150 60
224 145 59
202 137 64
131 122 84
82 116 95
83 117 95
82 117 95
82 117 95
82 117 95
82 116 94
82 117 95
82 116 95
82 117 95
82 116 95
82 117 95
82 117 95
82 116 95
82 116 95
82 116 94
82 116 95
82 117 95
82 117 95
82 116 95
82 116 94
82 116 95
82 116 95
82 116 95
81 116 94
82 116 95
82 116 94
82 116 95
82 116 95
82 116 95
82 116 95
82 116 95
82 116 95
81 116 95
81 116 95
82 116 94
82 116 95
81 116 94
82 116 95
81 116 94
81 116 95
81 116 95
81 116 95
81 115 94
81 116 94
81 115 94
81 116 94
81 116 94
81 116 94
81 116 94
81 115 94
81 116 94
81 115 94
81 115 94
81 115 94
81 115 94
81 115 94
81 115 94
80 115 94
81 115 94
81 115 94
81 115 94
81 115 94
81 115 94
81 115 94
81 115 94
81 115 94
81 115 94
81 115 94
81 115 94
80 115 94
81 115 94
80 115 94
80 115 94
80 114 94
80 115 94
81 115 94
80 114 93
80 114 94
80 114 93
80 115 94
80 114 93
81 115 94
80 114 94
80 114 94
80 114 93
80 114 93
80 114 93
80 114 93
80 114 93
80 114 93
80 114 93
80 114 93
87 123 100
87 123 99
87 123 99
87 123 100
87 123 99
88 123 100
87 123 100
88 123 100
87 123 99
87 123 99
87 123 99
87 123 99
87 123 99
87 123 99
87 123 99
87 123 99
87 123 99
87 123 99
87 123 99
87 123 99
87 123 99
87 122 99
87 123 99
87 123 99
87 123 99
87 123 99
87 122 99
87 123 99
87 123 99
87 123 99
87 123 99
87 123 99
87 123 99
87 123 99
87 123 99
87 122 99
87 123 99
87 123 99
87 122 99
87 123 99
87 122 99
87 123 99
87 122 99
86 122 98
87 123 99
86 122 98
87 123 99
87 122 99
87 122 99
87 122 99
86 122 99
87 122 99
87 122 99
87 122 99
87 122 99
86 122 99
86 122 99
86 122 99
86 121 98
86 122 99
87 122 99
86 122 99
86 122 98
86 122 98
76 97 110
65 62 124
65 62 126
65 62 126
64 61 126
64 61 125
63 61 124
63 60 123
62 59 122
61 59 121
60 58 119
59 57 117
58 56 115
56 54 112
54 55 107
72 95 100
86 121 98
86 122 98
86 122 99
86 121 98
86 121 98
86 121 98
86 121 98
86 121 98
86 121 98
86 121 98
86 121 98
86 121 98
86 121 98
86 121 98
86 121 98
86 121 98
86 121 98
85 121 98
86 121 98
85 121 98
85 121 98
85 121 98
86 121 98
85 121 98
85 120 97
86 121 98
85 120 97
86 121 98
85 121 98
86 121 98
85 121 98
85 120 97
85 120 97
78 110 89
36 38 39
37 39 41
38 40 42
38 40 42
38 40 42
41 42 44
53 52 52
54 54 52
43 44 45
38 40 43
37 38 41
36 38 41
35 37 41
34 36 39
33 35 38
32 35 38
31 33 36
29 32 34
27 30 33
25 27 30
25 26 28
53 74 62
84 119 97
84 119 96
84 119 97
84 119 97
84 118 96
84 119 96
84 119 96
84 118 96
84 119 96
84 118 95
85 119 96
83 117 95
84 118 96
84 117 95
83 117 95
84 118 96
84 118 95
83 117 95
84 118 95
84 118 96
83 117 95
83 116 94
83 116 94
83 117 95
83 117 95
83 117 95
83 115 93
107 101 80
152 55 32
164 59 35
161 58 34
160 57 33
161 57 34
165 59 35
159 57 34
154 55 32
156 56 34
144 51 30
140 48 27
132 47 27
124 45 26
107 41 23
105 40 23
106 41 24
103 40 24
102 41 24
89 60 46
74 106 87
73 104 86
75 106 87
73 105 87
74 106 88
75 107 88
74 106 88
75 107 88
76 108 88
77 110 90
154 128 84
255 165 67
255 170 67
255 169 67
255 168 66
255 166 66
255 164 65
254 162 65
250 160 64
245 157 63
239 154 62
233 151 61
227 147 59
220 143 58
211 137 56
160 123 72
84 117 95
82 117 96
82 117 95
83 117 95
83 117 95
83 117 95
83 117 95
82 117 95
82 117 95
82 116 95
82 117 95
82 116 95
82 117 95
82 117 95
82 117 95
82 116 95
82 116 95
82 116 95
82 117 95
82 116 95
82 117 95
82 116 95
82 116 95
82 116 95
82 116 94
82 116 94
82 116 95
82 116 95
82 116 95
82 116 95
81 116 95
82 116 95
81 116 95
82 116 95
82 116 95
82 116 95
81 116 95
82 116 95
82 116 95
81 116 95
81 115 94
82 116 95
81 116 94
82 116 94
82 116 95
81 115 94
81 116 94
81 116 94
81 115 94
81 116 94
81 116 94
81 116 94
81 115 94
81 115 94
81 115 94
81 115 94
81 115 94
81 115 94
81 115 94
81 115 94
81 115 94
81 115 94
81 115 94
81 115 94
81 115 94
81 115 94
81 115 94
81 115 94
81 115 94
80 115 94
81 115 94
81 115 94
80 115 94
81 115 94
80 115 94
80 115 94
80 114 94
80 115 94
80 115 94
80 114 94
80 114 94
80 114 94
80 114 94
80 114 94
80 115 94
80 114 94
80 114 94
80 114 93
80 114 93
80 114 93
80 114 93
88 124 100
87 123 100
87 123 100
88 123 100
87 123 100
88 123 99
88 124 100
88 123 100
87 123 99
88 123 99
88 123 100
87 123 100
87 123 99
87 123 99
87 123 100
87 123 99
87 123 99
87 123 99
87 123 99
87 123 99
87 123 99
88 123 100
87 123 99
87 123 99
87 123 99
87 123 99
87 123 99
87 123 99
87 123 99
87 123 99
87 123 99
87 123 99
87 123 99
87 123 99
87 123 99
87 123 99
87 123 99
87 122 99
87 123 99
87 123 99
87 123 99
87 123 99
87 122 99
87 123 99
87 123 99
87 123 99
87 122 99
87 123 99
87 123 99
87 123 99
87 123 99
86 122 99
87 123 99
87 122 99
87 123 99
87 122 99
86 122 99
87 122 99
87 122 99
87 122 99
87 122 99
86 122 99
87 122 98
76 97 108
64 61 123
65 62 126
65 62 126
65 62 126
65 62 126
64 61 125
63 60 124
62 60 123
62 59 122
61 59 121
60 58 119
59 57 117
58 56 115
56 55 113
55 53 110
51 49 103
70 94 98
86 121 98
86 122 99
86 121 98
86 121 98
86 122 98
86 121 98
85 120 98
86 121 98
86 121 98
86 121 98
86 121 98
86 121 98
86 121 98
86 121 98
86 121 98
86 121 98
86 121 98
85 121 98
85 121 98
86 121 98
85 120 97
85 120 97
85 120 97
85 120 97
86 121 98
86 121 98
85 120 97
85 120 97
85 120 97
85 120 97
85 120 98
85 120 98
74 103 85
35 37 38
36 38 40
36 38 40
37 39 41
38 40 42
38 39 42
37 39 41
38 39 41
37 39 42
36 38 40
36 38 41
35 37 39
34 36 38
33 35 37
31 33 36
31 33 35
30 32 35
28 30 33
25 27 30
25 27 29
24 26 28
42 56 48
84 119 96
84 119 96
84 119 96
84 119 96
84 119 97
85 119 97
84 119 97
84 118 96
84 117 95
83 117 95
84 118 96
83 117 95
84 118 96
84 118 96
84 118 96
83 117 94
84 118 96
84 118 96
83 117 94
84 117 95
83 116 94
83 116 94
83 117 95
83 116 94
83 115 93
82 116 94
83 115 93
83 115 93
128 78 58
141 51 30
142 52 30
144 52 30
147 54 31
144 52 30
143 52 30
142 51 29
132 48 27
125 46 26
115 43 24
106 40 22
95 35 18
91 35 19
91 36 20
91 37 20
93 38 22
93 41 26
68 81 68
63 92 78
62 91 77
62 90 76
61 90 77
65 95 81
64 94 79
66 95 80
68 98 82
68 99 83
149 121 79
255 165 65
255 171 67
255 170 67
255 169 67
255 168 66
255 166 66
255 164 65
254 162 65
250 160 64
245 157 63
240 154 62
234 151 61
228 148 60
222 144 58
213 139 56
202 132 54
152 120 71
84 117 95
82 117 95
83 117 95
82 117 95
83 117 95
82 117 95
82 116 95
82 117 95
82 117 95
82 117 95
82 117 95
82 116 95
82 116 95
83 117 95
82 116 95
82 117 95
82 116 94
82 116 95
82 117 95
82 116 95
82 116 95
82 117 95
82 116 95
82 116 95
82 116 95
82 116 95
82 116 95
82 117 95
82 117 95
82 116 95
82 116 95
82 116 95
82 116 95
82 116 95
82 116 94
81 115 94
82 116 95
82 116 94
82 116 94
82 116 95
81 116 95
81 116 94
81 116 94
81 115 94
81 116 95
81 116 94
81 116 94
81 115 94
81 115 94
81 116 94
81 116 94
81 115 94
81 115 94
81 116 94
81 115 94
81 116 94
81 115 94
81 116 94
81 115 94
81 115 94
81 115 94
81 115 94
81 115 94
81 115 94
81 115 94
81 115 94
81 115 94
80 115 94
81 115 94
80 115 94
81 115 94
81 115 94
80 115 94
80 115 94
81 115 94
80 115 94
81 115 94
80 115 94
81 115 94
80 115 94
80 114 94
80 115 94
81 114 93
81 115 94
80 115 94
80 114 94
80 114 94
80 115 94
80 114 94
80 114 94
88 123 100
87 123 100
88 123 100
88 124 100
88 123 100
88 124 100
88 123 100
88 123 100
88 123 100
87 123 99
88 124 100
88 123 100
87 123 99
87 123 99
87 123 99
87 123 100
87 123 100
88 123 100
88 123 100
87 123 100
87 123 99
87 123 100
87 123 99
87 123 99
87 123 99
87 123 99
87 123 99
87 123 99
87 123 100
87 123 100
87 123 99
87 123 100
87 123 99
87 123 99
87 123 99
87 123 99
87 123 99
87 123 99
87 122 99
87 123 99
87 123 99
87 123 99
87 123 99
87 123 99
87 122 99
87 123 99
87 123 99
87 122 99
87 123 99
87 123 99
87 122 99
87 122 99
87 123 99
87 122 99
87 122 99
87 122 99
87 122 99
86 122 99
87 122 99
87 122 99
87 122 99
87 122 99
78 102 106
63 60 120
65 62 124
65 62 126
65 62 126
65 62 126
67 63 126
68 64 126
65 62 124
62 60 122
61 59 121
61 58 120
60 57 118
59 57 117
58 56 115
56 54 113
55 53 110
52 50 105
49 48 98
73 99 95
86 122 98
86 122 98
86 121 98
86 121 98
86 121 98
86 121 98
85 121 98
86 121 98
86 121 98
86 121 98
86 121 98
86 121 98
86 121 98
86 121 98
85 120 98
85 121 98
86 121 98
85 120 97
85 120 97
86 121 98
86 121 98
85 120 97
85 120 98
86 120 97
85 120 97
86 121 98
85 120 97
85 120 97
85 120 97
85 120 98
86 120 97
73 101 83
34 36 38
34 36 37
35 37 39
36 38 40
35 37 39
36 37 39
36 37 39
36 37 39
35 37 39
35 36 39
33 35 37
33 35 37
32 34 36
31 33 35
30 32 34
29 31 33
28 29 31
26 28 30
23 25 27
22 24 26
23 25 26
42 56 48
84 119 96
84 119 96
84 119 96
84 119 97
84 119 97
84 118 96
84 118 96
84 118 95
85 118 96
84 118 96
84 118 96
84 118 96
84 117 95
84 116 94
83 117 94
84 118 95
84 118 95
84 117 95
83 116 94
83 116 94
84 118 95
83 116 94
83 115 93
82 115 93
82 114 92
82 114 92
82 115 93
82 113 92
85 106 85
116 55 37
128 47 26
130 48 27
128 47 26
126 46 26
123 46 25
120 44 24
117 44 24
102 40 21
91 36 19
84 34 18
76 32 15
77 33 17
77 33 17
78 33 18
79 33 18
72 61 50
57 83 70
57 84 72
57 84 73
58 86 74
59 87 74
58 86 73
60 87 75
60 87 75
62 91 77
118 108 77
255 161 65
255 170 66
255 172 67
255 171 67
255 169 67
255 168 66
255 166 66
255 164 65
255 162 64
250 160 64
246 157 63
241 154 62
235 151 61
230 148 60
222 144 58
217 140 57
206 134 54
189 125 51
135 116 76
82 117 95
82 117 95
82 117 95
82 117 95
82 117 95
83 117 95
82 117 95
82 117 95
82 116 94
83 117 95
82 117 95
82 117 95
82 117 95
82 117 95
82 117 95
82 116 95
82 116 95
82 116 95
82 116 95
82 117 95
82 117 95
82 116 95
82 116 95
82 116 95
82 116 95
82 117 95
82 116 95
82 116 94
82 117 95
82 116 95
82 116 95
82 116 95
82 116 95
82 116 95
82 116 95
82 116 95
82 116 95
82 116 95
82 116 95
81 116 94
82 116 95
81 116 95
82 116 94
81 116 94
81 116 95
81 115 94
81 116 94
81 116 95
82 116 95
81 116 94
81 115 94
81 115 94
81 116 94
81 115 94
81 116 94
81 115 94
81 116 94
81 115 94
81 116 94
81 115 94
81 115 94
81 115 94
81 115 94
81 115 94
81 115 94
81 115 94
81 115 94
81 115 94
81 115 94
81 115 94
81 115 94
81 115 94
80 115 94
80 114 94
81 115 94
81 115 94
80 115 94
80 115 94
80 115 94
81 115 94
80 115 94
80 115 94
80 114 93
80 114 94
80 114 94
80 114 94
80 114 94
80 114 93
80 114 94
88 123 99
88 124 100
87 123 100
88 123 100
88 123 100
88 124 100
88 124 100
88 124 100
88 123 99
88 123 99
88 124 100
87 123 100
87 122 99
87 123 99
88 124 100
88 123 100
88 123 99
88 124 100
88 123 100
88 123 99
87 123 99
87 123 100
87 123 100
88 124 100
88 123 99
87 123 99
88 123 100
88 123 100
88 123 100
87 123 100
87 123 99
87 123 100
87 123 99
87 123 99
88 123 99
87 123 99
87 123 99
87 123 99
87 123 99
87 123 99
87 123 99
87 123 99
87 123 99
87 123 99
87 123 99
87 122 99
87 123 99
87 122 99
87 123 99
87 123 99
87 123 99
87 122 99
87 122 99
87 123 99
87 123 99
87 123 99
87 123 99
87 122 99
87 123 99
87 122 99
87 123 99
84 118 100
63 64 116
64 61 122
65 61 124
65 62 125
65 62 125
75 71 128
108 100 141
116 108 144
86 81 131
65 62 122
62 59 120
61 58 119
60 57 118
59 56 116
57 55 114
56 54 112
55 53 109
51 49 102
49 47 98
47 50 90
82 115 96
87 122 99
86 121 98
86 121 98
86 121 98
86 120 97
86 121 98
86 121 98
86 122 99
86 121 98
85 121 98
86 121 98
86 121 98
86 121 98
85 121 98
86 121 98
86 121 98
85 120 97
86 121 98
86 121 97
85 120 97
85 120 98
86 121 98
85 120 97
85 120 97
85 120 98
85 120 97
85 119 97
85 120 97
85 120 97
85 120 98
75 105 86
32 34 35
32 34 35
34 36 37
34 35 36
34 36 37
34 36 38
34 35 37
34 35 37
34 36 37
32 34 36
32 33 35
32 33 35
30 31 33
29 31 32
28 30 32
26 28 29
25 27 29
22 25 26
21 23 25
22 24 25
21 23 24
45 62 51
84 118 96
84 119 96
84 119 96
84 118 96
83 117 95
84 118 96
84 119 96
84 118 95
84 118 96
84 118 95
84 117 95
84 119 96
84 116 94
83 117 94
84 118 96
84 117 94
84 116 93
83 114 92
83 116 94
83 115 93
83 115 93
83 116 94
82 114 91
82 112 90
82 114 92
81 112 90
81 111 89
80 111 89
80 109 87
82 102 81
101 51 34
109 41 22
105 41 22
108 42 22
103 40 21
97 39 20
87 36 18
80 33 17
76 33 16
73 32 15
69 31 15
69 31 15
66 30 15
71 31 16
63 59 48
55 79 68
57 84 71
57 82 70
57 84 72
57 84 72
57 82 70
58 84 71
58 84 72
60 89 77
59 88 76
231 148 65
255 166 64
255 169 66
255 169 66
255 171 67
255 171 69
255 172 73
255 168 70
255 164 66
255 162 64
250 159 63
246 157 63
240 154 62
235 151 60
229 147 59
222 143 58
215 139 56
205 134 54
189 124 51
169 114 48
99 115 89
82 117 95
82 117 95
82 117 95
83 117 96
82 117 95
83 117 95
82 117 95
83 117 96
83 117 95
82 117 95
82 116 95
82 117 95
82 117 95
82 117 95
82 117 95
82 116 95
82 116 95
82 116 95
82 116 95
82 117 95
82 117 95
82 117 95
82 116 94
82 117 95
82 116 94
82 116 94
82 116 95
82 116 95
82 117 95
82 116 95
81 116 94
82 117 95
82 116 94
82 116 95
82 116 95
82 116 95
81 115 94
81 116 94
82 116 95
82 116 94
82 116 94
82 116 95
81 116 94
81 116 95
82 116 94
82 116 95
81 115 94
82 116 95
81 116 94
81 116 95
81 116 94
82 116 94
81 116 94
81 116 94
81 116 94
81 116 94
81 116 94
81 115 94
81 116 94
81 115 94
81 115 94
81 115 94
81 115 94
81 115 94
81 115 94
81 115 94
81 115 94
81 115 94
81 115 94
81 115 94
81 115 94
81 115 94
81 115 94
81 115 94
81 115 94
81 115 94
81 115 94
81 115 94
80 115 94
80 114 94
81 115 94
81 115 94
81 115 94
80 114 93
81 115 94
80 114 93
80 115 94
81 115 94
88 124 100
88 124 100
88 124 100
88 124 100
88 124 100
88 124 100
88 124 100
88 123 100
88 124 100
88 123 100
87 123 100
87 123 100
88 124 100
87 123 100
87 123 100
87 123 100
88 124 100
88 124 100
88 124 100
87 123 99
88 124 100
88 124 100
88 124 100
88 124 100
87 123 100
87 123 100
87 123 100
88 123 100
87 123 100
87 123 99
88 123 100
87 123 99
87 122 99
87 123 99
88 123 100
87 123 99
87 123 100
87 123 99
87 123 99
87 123 99
87 123 99
87 123 99
87 123 99
87 123 99
87 122 99
88 123 99
87 123 99
87 123 99
87 123 99
87 123 99
87 123 99
87 123 99
87 123 99
87 123 99
87 123 99
87 122 99
87 123 99
87 122 99
87 122 99
86 122 98
87 123 99
74 96 104
61 58 116
63 60 121
64 60 121
65 61 124
68 65 125
111 103 142
179 166 179
178 165 178
106 99 139
66 63 122
61 58 119
60 58 118
59 57 117
58 56 115
57 55 113
56 54 111
54 51 106
51 49 101
47 46 95
43 42 88
63 84 89
86 121 98
86 122 98
85 120 97
86 122 98
86 121 98
86 121 98
86 121 98
86 121 98
86 121 98
85 120 97
86 121 98
86 121 98
86 121 98
86 121 98
86 121 98
85 120 98
86 121 98
86 121 98
85 120 97
86 121 98
85 120 98
86 121 97
86 121 97
85 120 97
85 121 98
86 120 97
85 121 98
85 120 97
85 120 98
85 120 97
81 113 91
31 33 34
30 32 32
32 34 35
31 33 33
32 34 35
32 33 34
31 33 34
32 34 35
31 33 34
30 32 33
30 31 33
28 30 31
27 29 30
27 29 30
25 27 28
24 26 27
22 25 26
20 22 24
20 22 23
21 24 24
20 22 23
56 78 64
84 119 96
84 118 95
84 119 96
84 118 95
84 118 95
84 119 96
84 119 96
84 117 95
84 118 95
84 118 95
84 117 95
84 117 94
83 115 94
84 115 93
84 117 95
84 116 94
84 117 95
84 117 94
83 116 94
83 115 93
83 114 92
82 112 90
82 113 91
81 112 89
81 111 89
80 109 87
79 109 87
79 107 85
78 107 85
77 103 82
75 98 77
79 53 38
78 32 16
82 34 17
77 32 16
79 33 16
77 32 15
75 32 16
74 31 15
73 32 15
68 30 15
63 28 14
55 29 18
52 51 42
52 73 62
51 73 62
53 77 65
55 79 68
54 78 66
56 80 68
57 81 70
57 82 70
58 85 72
57 83 71
156 116 70
255 161 62
255 166 64
255 166 65
255 169 66
255 172 70
255 189 98
255 202 115
255 182 90
255 166 68
254 161 64
251 159 63
246 156 62
241 154 61
234 150 60
228 146 59
222 143 58
214 138 56
204 133 54
187 124 50
175 116 47
143 112 65
83 118 96
82 117 95
82 116 94
82 116 95
82 117 95
82 116 95
83 117 95
82 117 95
83 117 95
82 116 94
82 117 95
82 117 95
82 117 95
82 117 95
83 117 95
82 117 95
82 116 95
83 117 95
82 116 94
82 117 95
82 116 95
82 117 95
82 117 95
82 117 95
82 116 95
82 116 95
82 116 95
82 116 95
82 116 95
82 116 94
82 116 95
82 116 95
82 116 95
82 116 95
82 117 95
82 117 95
82 116 94
82 116 94
82 116 95
82 116 95
81 116 94
82 116 95
82 116 95
82 116 95
82 116 95
82 116 95
82 116 95
81 116 95
81 116 95
81 116 95
82 116 94
81 116 95
81 116 95
81 116 94
81 115 94
81 115 94
81 115 94
81 115 94
81 116 94
81 115 94
81 115 94
81 115 94
81 115 94
81 115 94
81 115 94
81 115 94
81 115 94
81 115 94
81 115 94
81 115 94
81 115 94
81 115 94
81 115 94
80 115 94
81 115 94
81 115 94
81 115 94
81 115 94
80 115 94
80 114 94
81 115 94
81 115 94
81 115 94
80 114 94
80 115 94
80 115 94
80 114 94
80 114 94
88 124 100
88 124 100
88 124 100
88 124 100
88 124 100
88 123 100
88 124 100
88 124 100
88 123 100
87 123 99
76 117 91
67 113 84
57 109 78
52 106 75
51 105 75
51 105 75
58 107 78
66 110 83
76 115 90
87 123 99
88 124 100
87 123 100
88 123 99
88 123 100
88 124 100
88 123 100
87 123 100
88 124 100
87 123 99
88 123 100
87 123 99
87 123 99
87 123 100
87 123 99
87 123 100
88 124 100
88 124 100
87 123 99
87 123 99
87 123 99
87 123 99
87 123 100
88 123 100
88 123 99
88 123 100
87 123 99
87 123 100
87 122 99
87 123 99
87 123 99
87 122 99
87 123 99
87 123 99
87 123 99
87 123 99
87 123 99
87 123 99
87 122 99
87 122 99
87 123 99
86 120 99
61 64 109
60 57 114
62 59 118
63 60 120
64 60 122
70 66 123
111 104 141
163 151 168
143 133 157
86 80 128
63 60 120
61 57 117
60 57 116
59 56 114
58 55 111
57 53 109
55 52 108
52 49 102
50 48 100
47 45 94
42 41 86
44 50 81
85 120 98
86 122 98
87 122 98
86 121 98
86 121 98
86 121 97
86 121 98
86 121 98
86 121 98
86 121 98
86 121 98
86 121 98
86 121 98
86 121 98
86 121 98
86 122 98
85 120 97
86 120 97
85 120 97
86 121 98
85 120 97
86 121 97
86 121 97
85 120 97
85 120 97
86 120 97
84 119 96
85 120 97
85 120 97
85 120 97
84 119 96
44 58 50
28 31 30
30 32 32
30 32 32
30 32 32
31 33 33
29 31 31
29 31 32
29 31 31
28 30 31
27 29 30
27 29 30
25 27 27
24 26 27
22 24 24
21 23 24
19 21 22
18 20 21
18 21 21
18 21 21
17 20 19
67 93 76
83 117 95
83 117 95
83 117 95
83 118 95
83 117 94
84 119 96
83 118 95
84 118 95
84 115 94
89 103 99
94 91 103
97 79 105
98 71 106
97 68 105
95 69 104
93 72 101
89 86 98
86 101 95
84 115 93
83 115 93
83 115 93
82 112 90
82 112 90
82 112 90
81 110 88
80 109 87
79 107 85
77 105 83
77 104 83
75 99 78
73 97 75
65 85 66
53 53 41
57 30 19
72 29 14
73 30 14
66 28 13
71 29 14
69 28 14
62 26 13
52 24 13
42 34 26
34 45 38
40 56 47
43 59 50
46 65 55
49 69 59
53 74 63
54 77 65
54 76 65
56 81 69
57 82 70
57 80 68
61 87 74
218 140 62
255 160 62
255 159 62
255 164 64
255 165 65
255 177 83
255 221 139
255 232 151
255 190 103
255 165 68
253 160 63
249 158 62
244 155 62
237 151 60
233 148 59
225 144 58
218 140 56
209 135 54
199 130 52
186 122 50
169 113 46
162 109 45
94 116 91
83 117 95
83 117 96
82 116 95
83 117 95
82 117 95
82 117 95
82 116 95
83 117 95
83 117 95
82 117 95
83 117 95
82 117 95
82 117 95
82 116 95
82 116 94
82 117 95
82 117 95
83 117 95
82 116 95
82 116 95
82 117 95
82 117 95
82 117 95
82 116 95
82 117 95
82 116 95
82 117 95
82 116 94
82 116 94
82 117 95
82 116 95
82 116 95
82 116 95
82 116 95
82 117 95
82 116 95
82 116 94
82 116 94
81 116 94
81 116 94
82 116 95
82 116 94
82 116 95
82 116 94
82 116 94
82 116 94
81 116 95
82 116 95
82 116 95
82 116 94
81 116 94
82 116 94
81 116 95
81 115 94
81 116 94
81 116 94
81 116 94
81 116 94
81 115 94
81 115 94
81 115 94
81 115 94
81 115 94
81 116 94
81 116 94
81 115 94
81 115 94
81 115 94
81 115 94
81 115 94
81 115 94
81 115 94
81 115 94
80 115 94
81 115 94
81 115 94
81 115 94
81 115 94
81 115 94
81 115 94
81 115 94
81 115 94
81 115 94
81 115 94
80 114 94
80 115 94
80 115 94
88 124 100
88 124 100
88 124 100
88 124 100
88 124 100
88 124 100
88 124 100
86 123 99
68 113 85
55 109 77
50 107 75
50 107 75
50 106 75
49 106 74
49 105 74
48 104 73
48 103 72
47 102 72
46 100 70
49 100 71
73 113 88
86 122 98
88 124 100
88 124 100
88 124 100
88 124 100
88 124 100
88 124 100
87 123 100
88 123 100
88 124 100
88 124 100
87 123 99
88 123 100
88 124 100
88 123 100
88 123 100
87 123 100
88 123 100
87 123 100
87 123 100
87 123 100
88 123 99
87 123 99
87 123 99
87 123 99
87 123 99
87 123 99
87 123 99
87 123 99
88 123 100
88 123 100
87 123 99
87 123 99
87 122 98
87 123 99
87 123 99
87 123 99
87 123 99
87 123 99
81 112 100
57 54 107
60 57 114
61 58 116
61 58 116
61 58 115
64 60 118
77 73 124
89 83 128
78 73 123
64 60 118
60 57 115
60 56 115
59 55 112
58 54 111
56 52 107
54 51 104
53 49 101
50 47 97
48 47 96
44 43 88
40 39 81
37 37 76
75 105 92
86 122 98
86 121 98
86 121 98
86 121 98
86 122 99
86 122 98
86 121 98
86 121 98
86 121 98
86 121 98
86 121 98
86 121 97
85 121 98
86 121 98
86 121 98
85 120 97
85 120 97
86 121 97
86 120 97
85 119 96
86 121 98
85 120 98
86 121 97
85 120 97
85 120 97
85 119 96
84 118 96
84 119 96
84 119 96
85 119 97
60 83 68
27 29 29
28 30 30
28 30 30
28 30 29
27 28 28
28 30 30
27 29 29
27 29 30
25 27 27
24 26 26
23 25 25
22 24 24
22 24 24
19 21 21
17 19 19
17 19 18
19 21 21
17 19 18
18 21 21
23 30 26
78 110 90
81 115 94
81 114 92
80 113 92
81 114 93
82 115 94
81 113 92
82 113 92
90 101 98
101 77 107
104 68 110
103 68 110
101 67 109
100 66 108
98 66 107
97 65 106
95 63 104
93 62 102
91 61 100
87 69 96
84 96 93
83 113 92
83 113 91
83 113 91
81 111 89
80 109 87
80 109 87
80 108 86
78 104 82
76 102 80
74 99 77
73 96 74
70 92 71
62 80 62
48 62 48
32 39 31
31 23 17
33 17 11
38 25 19
33 26 20
32 35 28
32 43 35
33 46 38
39 53 44
41 56 47
44 63 53
48 68 57
49 69 59
50 69 58
54 75 63
58 83 70
63 90 76
64 92 76
68 96 79
95 104 80
241 151 58
247 154 59
254 158 61
255 161 62
255 161 63
255 172 81
255 202 120
255 199 116
255 169 78
255 158 63
249 156 61
246 155 61
240 151 60
233 148 58
228 145 58
217 138 55
209 134 54
201 129 52
190 124 50
176 116 47
168 112 45
165 110 44
108 114 84
82 117 95
83 116 95
82 117 95
82 117 95
83 118 96
82 116 95
82 116 95
83 117 95
82 117 96
83 117 95
82 116 94
83 117 95
83 117 95
82 116 94
83 117 95
83 117 95
83 117 95
82 117 95
82 116 95
82 116 95
82 117 95
82 116 95
82 117 95
82 117 95
82 116 95
82 117 95
82 116 94
82 117 95
82 116 95
82 116 95
82 117 95
82 117 95
82 116 95
81 116 95
82 116 95
82 116 95
82 116 95
82 116 95
82 116 95
82 116 95
82 116 95
82 116 95
82 116 95
82 116 95
82 116 95
82 116 95
82 116 95
82 116 95
82 116 95
81 116 95
82 116 94
82 116 94
82 116 94
82 116 95
82 116 94
82 116 94
81 116 95
81 116 94
81 115 94
81 116 94
81 115 94
81 116 94
81 115 94
81 115 94
81 115 94
81 115 94
81 115 94
81 115 94
81 115 94
81 115 94
81 115 94
81 115 94
81 115 94
81 115 94
81 115 94
81 115 94
81 115 94
81 115 94
81 115 94
81 115 94
81 115 94
81 115 94
81 115 94
80 115 94
81 115 94
81 115 94
81 115 94
88 125 100
88 124 100
88 124 100
88 124 100
88 124 100
88 124 100
82 121 96
59 110 79
50 108 75
50 108 75
50 107 75
50 107 75
50 106 75
49 106 74
49 105 74
48 104 73
48 103 73
47 102 72
46 100 71
46 99 70
45 97 68
55 99 73
81 117 94
87 123 99
88 124 100
88 123 100
88 124 100
88 123 100
88 124 100
88 124 100
88 124 100
88 124 100
88 124 100
88 124 100
88 123 99
88 123 100
88 124 100
87 123 99
87 123 100
87 123 99
88 124 100
88 123 100
88 123 100
87 123 99
87 123 99
88 123 99
87 123 99
88 123 100
87 123 99
87 123 99
88 123 100
87 123 99
87 123 99
87 122 99
87 122 99
87 122 99
88 123 100
87 123 99
88 123 99
87 123 99
73 96 100
55 52 103
58 55 108
59 56 111
59 56 112
60 56 113
60 57 115
62 59 117
62 59 115
60 56 111
60 56 113
59 55 110
58 54 110
58 54 109
55 51 102
55 51 103
53 49 100
51 48 98
49 47 95
46 43 88
42 41 84
39 39 80
36 36 74
66 89 85
86 121 98
86 121 98
86 122 98
86 121 98
86 122 98
86 122 98
86 121 98
86 121 98
86 121 98
86 121 98
86 121 98
85 120 97
85 120 97
85 120 97
85 120 97
86 121 98
86 120 97
85 120 97
85 120 97
85 120 97
85 119 97
85 120 97
85 120 97
85 120 97
85 120 97
85 120 97
85 119 96
84 119 96
84 118 95
84 118 96
80 113 91
29 36 32
25 27 27
26 28 27
25 27 26
24 26 25
26 27 27
25 27 27
24 26 25
24 25 25
21 24 23
20 22 21
19 21 20
17 20 19
14 18 17
16 18 17
15 18 17
15 18 16
14 17 15
14 17 16
47 67 56
72 103 85
73 104 86
71 102 84
71 100 82
74 106 87
75 107 88
78 105 90
98 81 104
105 69 110
105 69 111
104 68 111
103 68 110
101 67 109
100 66 108
99 66 107
97 65 106
95 63 104
93 62 103
91 61 101
88 59 98
86 58 95
82 72 91
83 109 90
82 112 90
81 110 88
81 110 88
81 109 87
81 111 89
79 105 83
79 105 83
77 104 82
76 101 79
77 104 81
74 98 76
71 95 73
69 91 70
65 86 67
55 72 56
53 71 55
50 67 53
49 66 53
47 64 51
50 68 55
54 74 60
55 76 62
59 81 67
64 89 72
67 93 75
67 93 75
71 99 80
75 104 84
77 107 87
79 108 87
80 112 90
141 121 80
234 146 55
251 156 60
250 156 60
248 154 59
254 158 61
254 159 65
255 164 73
255 163 71
250 156 62
247 154 60
242 152 59
240 151 59
232 145 57
229 145 57
219 139 55
207 132 52
203 130 52
193 124 50
178 117 47
161 106 43
162 108 43
156 105 42
128 110 70
83 117 95
82 116 95
83 117 95
83 117 95
83 117 95
83 118 96
83 117 95
83 117 95
83 117 95
83 117 95
82 117 95
83 117 95
83 117 95
83 117 95
83 117 95
83 117 95
83 117 95
83 117 95
82 117 95
83 117 95
82 117 95
82 117 95
83 117 95
82 117 95
82 116 95
82 116 95
82 116 95
82 117 95
82 116 95
82 117 95
82 116 95
82 116 95
82 116 95
82 116 95
82 116 95
82 116 94
82 117 95
82 116 95
82 117 95
82 116 95
82 116 94
82 116 95
82 116 95
82 116 95
82 116 95
82 116 95
82 116 95
82 116 94
82 116 94
81 115 94
82 116 94
81 115 94
82 116 95
81 116 95
81 116 94
81 116 95
81 116 95
81 116 94
81 116 94
81 116 95
81 115 94
81 116 94
81 116 94
81 115 94
81 116 94
81 115 94
81 115 94
81 115 94
81 115 94
81 116 94
81 115 94
81 115 94
81 115 94
81 115 94
81 115 94
81 115 94
81 115 94
81 115 94
81 115 94
81 115 94
81 115 94
81 115 94
81 115 94
81 115 94
80 115 94
81 115 94
80 114 94
88 124 100
88 124 100
88 124 100
88 124 100
88 124 100
80 119 93
53 107 75
51 108 75
50 108 75
50 108 75
50 107 75
50 107 75
49 106 75
49 105 74
48 104 74
48 104 73
48 103 72
47 101 72
46 100 71
46 99 70
45 97 69
43 94 67
45 90 65
78 114 91
88 124 100
88 123 100
87 123 99
87 123 100
88 124 100
88 124 100
88 124 100
88 124 100
88 123 100
88 124 100
88 123 100
88 123 100
88 123 100
88 124 100
88 124 100
88 124 100
88 123 99
88 124 100
88 123 100
87 123 99
88 123 100
87 123 99
87 123 99
87 123 99
87 123 99
88 123 99
87 122 99
87 123 100
88 124 100
87 123 99
87 122 99
87 123 99
87 123 99
87 123 99
87 123 100
87 122 99
70 89 99
54 52 101
55 53 103
57 54 106
56 53 105
58 55 109
58 55 109
59 55 110
58 55 110
58 55 109
57 53 107
56 52 104
56 51 103
55 51 102
54 51 103
51 48 97
49 46 92
48 45 90
46 44 88
43 41 84
38 38 78
36 37 74
35 34 69
56 74 80
86 121 98
86 121 98
86 122 99
86 121 98
86 122 99
86 121 98
86 121 98
86 121 98
86 121 98
85 120 97
86 122 98
85 120 97
86 121 98
86 121 98
85 120 97
85 120 97
86 121 98
85 121 97
85 119 96
85 119 96
85 120 97
84 118 96
85 120 97
85 119 96
85 120 97
85 119 96
84 118 95
84 117 95
84 118 95
84 118 95
82 115 93
67 93 75
21 24 22
22 24 22
23 25 24
22 24 22
23 24 23
22 24 22
21 24 22
21 23 22
20 22 21
16 19 17
15 17 15
13 16 14
12 16 14
12 16 13
13 17 15
14 17 14
15 17 16
23 33 29
56 83 71
59 87 74
58 85 72
61 90 76
61 90 76
63 92 77
70 91 83
100 73 105
106 69 111
106 69 112
105 69 111
104 68 111
103 68 110
102 67 109
100 66 108
98 65 107
97 64 106
95 63 104
93 62 103
91 61 101
89 60 99
87 58 96
83 56 93
79 66 87
82 111 92
83 114 91
83 113 91
83 113 90
81 111 89
81 109 87
80 109 87
81 110 88
80 108 86
80 108 86
79 106 84
78 105 83
78 105 82
75 101 79
75 101 80
77 104 82
74 100 78
75 101 79
76 102 80
77 104 82
77 103 81
76 104 82
77 105 84
79 107 85
78 106 85
80 111 89
79 109 87
81 112 90
80 111 89
81 112 90
81 112 90
148 123 79
231 144 54
238 148 56
239 148 56
242 150 57
246 152 58
248 154 60
244 151 58
242 150 58
245 153 59
239 149 57
234 146 57
227 141 54
222 139 54
217 137 54
206 130 51
205 130 51
199 127 51
184 119 47
171 112 45
161 106 43
160 107 43
157 105 41
131 105 62
83 117 95
83 117 95
83 116 94
83 117 95
83 117 95
83 117 95
83 117 95
83 118 95
82 117 95
83 117 95
83 117 95
83 117 95
83 117 95
82 117 95
83 117 95
83 117 95
82 117 95
82 117 95
82 117 95
82 117 95
83 117 95
83 117 95
83 117 95
82 117 95
82 117 95
82 116 95
82 117 95
82 116 95
82 117 95
82 117 95
82 117 95
82 116 95
82 117 95
82 116 95
82 116 95
82 117 95
82 116 95
82 116 95
82 117 95
82 116 95
82 116 95
82 116 95
82 116 94
82 116 95
82 116 95
81 116 95
82 116 94
82 116 95
82 116 95
82 116 95
82 116 95
82 116 95
82 116 94
81 116 94
81 116 95
82 116 95
81 116 94
82 116 95
81 116 94
81 116 94
81 115 94
81 116 95
81 116 95
81 115 94
81 115 94
81 116 94
81 116 94
81 115 94
82 116 94
81 115 94
81 116 94
81 115 94
81 115 94
81 115 94
81 115 94
81 115 94
81 115 94
81 115 94
81 115 94
81 115 94
81 115 94
81 115 94
81 115 94
81 115 94
81 115 94
81 115 94
81 115 94
88 124 100
89 124 100
88 124 100
88 124 100
82 120 95
54 106 75
50 107 74
50 108 75
50 107 75
50 107 75
51 107 75
54 108 76
58 109 78
53 106 75
49 104 73
48 103 73
47 102 72
47 101 71
46 100 70
45 98 69
45 97 68
43 94 67
41 90 64
43 86 62
79 114 91
88 124 100
88 124 100
88 124 100
87 123 99
88 124 100
88 124 100
88 124 100
88 123 100
88 124 100
87 123 99
88 124 100
87 123 99
87 123 99
87 123 99
87 123 99
88 124 100
88 124 100
87 123 100
87 123 99
88 123 100
87 123 99
88 124 100
87 123 99
87 123 99
88 123 100
87 122 99
88 123 100
87 123 99
87 123 99
87 123 99
87 122 98
87 123 99
87 122 99
87 123 99
87 122 99
68 89 95
52 50 97
53 51 99
55 53 103
56 53 104
55 52 103
55 52 102
55 53 104
55 53 105
56 53 105
55 52 103
53 49 98
52 49 98
53 49 99
51 47 94
51 47 93
47 44 89
46 42 85
43 41 84
40 38 75
36 36 74
36 35 71
32 32 63
56 74 79
86 121 98
86 122 99
86 121 98
86 121 97
85 120 97
86 122 99
86 121 98
86 121 98
86 121 97
86 121 97
85 120 97
85 119 96
85 120 97
86 121 98
86 120 97
85 120 97
85 119 97
85 120 97
85 119 96
85 119 96
84 118 96
84 118 95
84 118 95
85 119 96
84 118 96
84 117 94
82 116 93
83 117 94
82 115 92
82 115 92
82 114 92
82 114 92
51 71 57
18 21 19
19 22 19
18 21 19
19 22 20
18 21 18
18 20 18
16 19 16
15 18 16
14 17 15
12 16 14
12 15 12
12 15 12
12 16 13
11 15 12
12 15 12
15 21 18
50 74 63
52 78 67
55 81 70
54 80 69
53 80 69
55 82 70
60 83 74
95 69 100
105 69 110
107 70 112
106 69 112
105 69 111
104 69 111
103 68 110
101 67 109
100 66 108
98 65 106
96 64 105
95 63 104
93 62 102
91 61 100
89 60 98
86 58 96
84 57 94
79 54 89
74 65 83
82 112 91
83 116 93
83 113 90
83 114 92
83 114 91
81 112 90
83 113 91
82 110 88
82 110 88
82 112 90
80 109 87
81 110 88
81 110 88
80 108 86
80 110 88
79 109 87
79 107 85
80 111 89
81 109 87
79 108 86
80 110 88
82 113 90
80 111 89
81 112 90
82 114 91
81 113 91
82 114 92
81 113 91
81 112 90
82 114 92
165 125 74
224 140 53
223 138 51
233 143 54
233 144 54
238 146 56
236 147 56
234 145 55
236 147 56
230 143 54
229 144 55
223 140 54
220 138 53
210 132 51
206 129 50
199 127 49
188 119 47
185 119 47
177 114 46
162 107 43
149 99 39
154 103 40
150 101 39
133 105 59
83 117 95
83 117 95
83 117 95
83 117 95
83 117 95
83 117 95
82 117 95
83 117 95
83 117 95
82 117 95
83 117 95
83 117 95
83 117 95
82 117 95
82 116 94
82 117 95
83 118 96
83 117 95
83 117 95
82 116 95
83 117 95
82 117 95
82 117 95
82 116 94
82 117 95
82 117 95
82 116 94
82 117 95
82 117 95
82 117 95
82 117 95
82 116 95
82 117 95
82 117 95
83 117 95
82 116 95
82 117 95
82 116 95
82 116 95
82 116 95
82 116 95
82 116 95
82 116 94
82 116 95
82 116 95
82 116 95
81 116 95
81 116 94
82 116 95
82 116 95
81 116 94
82 116 94
82 116 95
82 116 94
82 116 95
82 116 95
81 116 95
82 116 95
82 116 95
81 116 94
81 116 94
82 116 94
81 116 94
81 116 94
81 116 94
81 116 94
81 115 94
81 115 94
81 115 94
81 115 94
81 115 94
81 115 94
81 116 94
81 115 94
81 115 94
81 116 94
81 115 94
81 115 94
81 115 94
81 115 94
81 115 94
81 115 94
81 115 94
81 115 94
81 115 94
81 115 94
81 115 94
89 125 101
89 125 101
88 124 100
87 124 99
55 105 75
49 104 72
50 106 74
50 107 74
50 107 74
53 108 75
73 117 85
119 145 112
117 143 110
80 120 88
53 105 75
48 102 72
47 101 71
46 100 71
46 99 70
45 98 69
44 96 68
43 93 66
41 89 63
39 84 60
46 86 64
86 121 98
87 123 99
88 124 100
88 124 100
88 124 100
88 124 100
88 124 100
88 123 100
88 124 100
87 123 100
88 124 100
88 124 100
88 123 100
88 123 99
88 124 100
87 123 99
88 124 100
88 124 100
88 124 100
88 124 100
88 124 100
88 124 100
88 123 99
87 123 99
87 123 100
87 123 99
88 123 99
88 123 100
87 123 99
87 123 99
87 123 99
87 122 99
87 123 99
87 122 99
86 122 98
67 87 92
51 49 95
51 49 95
53 51 100
53 50 99
53 51 99
54 51 100
54 51 102
54 51 100
53 49 96
51 47 93
51 48 95
50 46 92
49 45 90
47 43 83
47 43 86
43 41 80
42 39 78
40 38 75
36 35 69
36 35 70
34 34 69
33 33 65
58 78 76
86 121 98
85 120 97
86 121 97
86 121 98
85 120 97
85 120 97
86 121 98
86 121 98
86 121 98
86 121 98
86 121 98
86 121 98
85 120 97
85 119 96
86 121 98
85 120 97
85 120 97
85 120 97
85 120 97
85 119 96
83 117 94
84 118 95
83 117 94
84 118 95
83 116 93
83 116 94
83 117 94
83 116 93
81 114 91
82 115 93
81 113 91
80 112 89
79 111 89
46 64 51
14 18 15
14 18 15
15 19 16
14 18 15
13 17 14
13 17 14
13 16 13
12 16 13
13 17 13
12 16 13
11 16 13
11 15 12
10 14 11
14 20 17
43 64 54
50 73 62
52 76 65
54 80 69
53 77 66
54 80 68
54 80 69
85 75 93
105 68 108
106 69 110
106 70 111
106 69 111
107 72 112
113 80 115
112 80 115
104 70 110
99 66 107
98 65 106
96 64 105
94 63 103
93 62 102
90 61 100
89 60 98
86 58 96
83 56 93
80 54 90
74 50 82
73 81 83
84 116 93
83 114 92
84 116 93
84 116 93
83 115 92
82 114 92
83 115 93
83 115 93
82 112 90
83 114 92
83 115 93
82 112 90
82 113 91
82 113 91
82 112 90
82 113 91
81 111 89
81 112 90
82 113 91
82 112 90
82 113 91
82 112 90
82 114 92
82 113 91
82 113 91
83 116 94
82 114 92
83 115 93
82 114 92
148 122 79
213 133 49
219 136 50
228 141 53
229 142 53
226 141 53
225 139 52
226 140 53
222 138 52
222 139 53
218 136 52
214 135 51
203 127 48
201 127 49
193 122 47
183 116 45
177 113 44
170 110 43
162 107 42
141 94 37
143 96 37
142 96 37
141 96 37
118 103 64
83 117 96
83 117 95
82 116 94
83 117 95
83 117 95
82 116 95
82 117 95
82 117 95
82 117 95
82 117 95
82 116 95
82 116 94
83 118 96
83 118 96
83 117 95
82 117 95
82 117 95
83 117 95
83 117 95
82 117 95
83 117 95
83 117 95
83 117 95
82 116 94
82 117 95
82 117 95
82 117 95
82 116 95
82 116 95
82 117 95
82 117 95
83 117 95
82 116 95
82 116 95
82 117 95
82 117 95
82 116 94
82 117 95
82 116 95
82 116 95
82 116 95
82 116 95
82 117 95
82 116 95
82 116 94
82 117 95
82 116 95
82 116 95
82 116 95
82 116 94
82 116 95
82 116 95
82 116 95
81 116 95
82 116 95
81 116 95
81 116 95
81 116 95
81 116 95
81 116 95
82 116 95
81 116 94
81 116 94
82 116 94
81 115 94
81 115 94
81 115 94
81 116 95
81 116 94
81 115 94
81 116 94
81 116 94
81 115 94
81 115 94
81 116 94
81 115 94
81 116 94
81 115 94
81 115 94
81 115 94
81 115 94
81 115 94
81 115 94
81 115 94
81 115 94
81 115 94
81 115 94
89 125 101
89 125 101
89 125 101
72 113 87
47 101 70
49 104 72
50 106 73
50 106 74
50 106 74
64 112 80
123 148 114
187 197 158
170 183 146
104 134 102
56 106 75
48 102 71
47 100 71
46 99 70
46 98 69
45 97 68
44 94 67
43 91 64
41 88 62
39 84 59
36 77 54
65 100 78
88 124 100
88 124 100
88 124 100
88 124 100
88 124 100
88 123 99
88 124 100
88 124 100
88 124 100
87 123 99
88 124 100
88 123 99
88 124 100
88 123 99
88 124 100
87 123 99
88 124 100
88 123 99
88 124 100
88 124 100
88 123 100
87 123 99
87 123 99
87 122 98
87 123 99
87 122 99
88 123 100
87 123 99
87 122 98
87 123 99
87 123 99
87 123 99
87 123 99
86 121 98
72 97 91
47 45 86
49 47 90
48 46 89
49 47 91
49 47 90
50 48 93
49 47 92
50 47 92
50 47 92
48 45 88
48 44 87
46 43 85
45 41 80
44 41 81
42 40 78
39 36 70
37 35 68
36 34 67
32 32 62
33 32 63
31 31 60
28 30 57
65 89 81
86 122 98
86 121 98
86 121 98
86 121 97
86 121 98
86 122 98
86 122 99
86 121 97
86 121 98
85 120 97
86 121 98
85 120 97
86 120 97
85 119 96
85 120 97
85 120 97
84 118 95
85 119 96
84 118 95
84 118 95
84 118 95
84 118 95
84 118 95
83 117 94
82 114 92
83 117 94
81 114 91
81 112 90
81 114 92
79 110 88
79 110 87
80 111 89
77 105 83
73 101 80
50 70 56
15 21 17
12 16 13
12 16 13
13 16 13
12 16 13
13 16 13
13 16 13
12 16 13
11 15 12
10 14 11
9 13 10
20 30 25
36 53 45
43 64 54
47 70 60
49 72 61
50 74 63
52 76 65
53 79 68
65 74 75
100 65 102
104 67 106
105 68 109
105 69 109
108 72 111
135 104 128
168 140 150
149 120 137
112 81 114
99 66 107
97 65 105
96 64 104
94 63 102
92 61 101
90 60 99
88 59 97
86 57 95
83 56 92
78 53 88
73 50 83
66 47 75
80 106 91
84 116 93
84 115 93
83 116 94
83 115 93
83 116 94
84 116 94
84 116 94
84 116 94
83 115 93
83 115 93
83 114 92
83 114 92
83 114 92
84 117 94
84 116 93
83 115 93
83 116 94
82 114 92
83 116 93
83 115 93
83 113 91
83 115 93
82 114 92
82 115 92
83 116 94
83 116 94
82 115 93
83 116 94
124 117 82
203 127 47
209 129 48
213 133 49
214 133 49
215 133 49
215 134 50
213 132 49
210 131 49
208 131 49
206 130 49
201 126 47
197 123 47
193 121 46
180 113 43
170 109 41
168 108 42
155 101 39
143 95 37
142 95 37
137 93 36
133 90 35
135 92 35
116 109 74
83 117 95
83 117 95
83 117 94
83 117 95
83 116 94
83 117 95
83 117 95
83 117 95
83 117 95
83 117 95
83 117 95
83 117 95
82 117 95
83 117 95
82 117 95
82 116 95
83 117 95
83 117 95
83 117 96
82 117 95
82 117 95
82 117 95
82 116 95
82 116 95
82 116 95
83 117 95
83 117 95
82 117 95
83 117 95
82 117 95
82 117 95
82 117 95
82 116 95
82 116 95
82 116 95
83 117 95
82 117 95
82 116 95
82 117 95
82 117 95
82 117 95
82 116 94
82 116 95
82 116 95
82 116 95
82 117 95
82 116 94
82 116 94
82 116 94
82 116 95
82 116 95
82 116 95
82 116 95
82 116 95
82 116 94
82 116 94
81 116 95
82 116 95
81 116 95
81 116 94
81 115 94
81 116 94
81 116 94
82 116 95
81 115 94
81 116 95
81 115 94
81 116 94
82 116 95
82 116 94
81 115 94
81 116 94
81 116 94
81 116 94
81 115 94
81 115 94
81 115 94
81 115 94
81 115 94
81 116 94
80 115 94
81 115 94
81 115 94
81 115 94
81 115 94
81 115 94
81 115 94
89 125 101
88 125 101
88 124 100
51 100 71
47 100 69
48 103 71
49 104 72
49 105 73
50 105 73
65 112 80
116 142 109
154 170 134
131 153 119
78 117 86
51 103 73
47 101 71
46 99 70
45 98 69
45 97 68
44 95 67
44 93 65
42 89 63
40 85 59
38 82 58
35 75 53
36 73 53
86 122 98
88 124 100
88 124 100
88 124 100
89 124 100
88 123 99
88 124 100
88 123 99
88 124 100
88 124 100
88 124 100
88 124 100
87 123 99
88 124 100
88 124 100
87 123 99
87 123 99
88 123 99
87 123 99
88 124 100
86 122 98
88 123 100
88 123 99
87 122 98
87 123 99
87 123 99
87 122 99
87 122 99
87 123 99
87 123 99
87 123 99
87 123 99
87 122 99
87 122 98
79 110 93
44 43 81
45 44 84
46 44 85
46 44 84
47 45 86
46 44 83
46 44 85
48 46 89
47 44 85
46 43 82
44 40 77
43 41 79
43 40 77
41 38 73
38 36 69
37 34 67
32 30 57
31 29 54
30 30 58
31 31 61
28 29 54
28 29 54
76 106 89
85 120 97
86 120 97
86 121 98
86 120 97
85 119 96
86 120 97
86 121 98
107 120 96
124 120 94
110 121 95
99 120 95
85 120 97
85 120 97
85 120 97
85 119 96
85 120 96
85 119 96
85 120 97
84 119 95
85 119 96
84 118 95
84 118 95
83 117 94
83 116 93
84 117 94
83 116 93
81 114 91
81 113 90
80 111 88
79 110 87
79 109 86
76 105 83
76 105 82
74 102 80
64 88 69
43 61 49
26 37 30
12 16 13
12 15 12
11 14 11
11 14 11
10 13 11
10 13 10
10 14 11
13 18 15
26 36 30
38 55 46
40 59 49
42 62 52
43 63 53
47 69 59
46 68 58
50 75 64
51 76 65
82 70 88
100 64 101
102 66 104
103 67 107
105 68 109
116 83 116
175 146 154
212 184 180
163 135 146
112 80 113
99 66 106
97 64 104
95 63 103
94 62 101
92 61 100
90 60 97
87 58 96
84 56 93
81 55 90
76 51 85
70 48 80
68 45 75
72 80 81
84 117 94
84 117 94
84 117 94
84 117 95
84 117 94
83 116 94
83 116 94
84 114 92
83 115 92
83 116 94
83 115 93
84 117 95
83 116 93
84 116 93
83 116 94
83 115 93
83 116 94
84 116 94
83 115 93
83 116 93
84 116 93
83 116 93
83 115 92
83 115 93
83 116 94
83 117 95
83 116 94
83 115 93
89 115 90
187 121 48
205 129 47
201 125 46
205 127 46
201 125 46
207 128 47
203 126 47
199 125 46
203 128 48
197 124 46
184 117 43
176 112 41
177 112 42
164 104 39
152 98 36
140 92 34
129 87 32
132 89 34
135 92 35
122 84 31
127 87 32
121 84 31
97 109 82
82 115 93
83 117 95
82 117 95
83 117 95
82 115 94
83 117 94
83 116 94
83 117 95
83 117 95
83 117 95
83 118 95
83 117 95
83 116 94
82 117 95
83 117 95
83 117 95
83 117 95
83 117 95
83 117 95
83 116 95
84 112 96
84 113 96
83 114 95
83 116 95
83 117 95
83 117 95
82 117 95
82 117 95
83 117 95
82 116 95
82 117 95
82 117 95
83 117 95
82 117 95
82 116 95
82 116 95
83 117 95
82 116 95
82 116 95
82 117 95
82 117 95
82 117 95
82 116 95
82 117 95
82 117 95
82 117 95
82 116 95
82 116 94
82 116 95
82 116 95
82 116 94
82 116 95
82 117 95
82 116 95
82 117 95
82 116 95
82 116 95
82 116 95
82 116 94
82 116 94
81 116 94
82 116 95
81 116 95
82 116 95
81 116 95
82 116 94
82 116 95
81 116 94
81 116 94
81 116 94
81 116 94
81 115 94
81 116 94
81 116 94
81 115 94
81 115 94
81 115 94
81 116 94
81 116 94
81 115 94
81 115 94
81 115 94
81 115 94
81 115 94
81 115 94
81 115 94
81 115 94
89 125 101
89 125 100
77 116 90
45 97 66
47 99 68
48 101 70
48 102 70
48 103 71
49 103 72
53 105 74
70 113 82
76 116 85
66 110 79
51 102 72
47 99 69
45 97 68
45 98 68
44 95 67
43 93 65
43 91 64
42 90 63
41 86 60
39 85 60
37 79 56
34 75 53
30 68 48
73 107 85
88 123 100
88 124 100
88 124 100
88 124 100
89 125 101
88 124 100
88 124 100
88 124 100
88 123 99
88 124 100
88 124 100
88 123 99
88 123 99
88 123 99
88 123 99
87 122 99
88 123 99
87 123 100
87 123 99
88 123 99
87 123 99
87 123 99
88 123 99
87 122 98
88 123 100
87 122 98
87 122 99
87 123 99
86 121 98
87 123 99
87 123 99
86 121 98
87 122 99
86 121 98
53 66 78
41 40 75
43 42 78
43 41 77
42 41 77
43 41 78
44 43 82
43 42 79
43 41 78
41 39 74
38 36 68
38 36 67
36 34 63
35 33 63
32 31 57
30 30 55
31 30 55
31 29 55
30 30 57
28 28 52
25 26 47
36 46 52
83 117 95
84 118 96
85 120 97
84 118 95
92 117 94
152 121 92
212 123 83
244 125 78
255 124 74
255 123 73
254 122 72
247 120 72
230 118 74
195 116 80
138 118 91
96 119 95
84 118 95
85 119 96
84 118 95
85 120 97
84 118 95
85 119 96
83 117 94
83 116 94
82 115 92
82 115 93
81 114 91
81 114 91
79 110 88
80 111 88
79 110 87
78 108 86
76 105 83
75 102 80
74 102 80
70 95 75
58 79 62
43 60 48
32 45 36
19 28 23
14 20 16
14 18 15
16 22 19
16 22 18
20 29 24
24 33 27
33 46 39
36 52 44
39 58 49
39 57 48
42 61 52
47 69 59
48 69 59
53 78 66
60 82 72
94 64 96
100 64 101
101 65 103
101 65 103
102 67 105
116 83 113
156 127 140
167 139 148
129 100 124
103 70 107
98 64 104
96 63 102
95 62 101
93 61 100
91 60 99
90 59 95
86 57 92
82 55 90
78 52 86
74 50 83
69 47 78
67 44 72
64 47 70
82 114 93
84 118 96
83 116 94
84 118 95
85 117 95
83 117 95
84 117 94
84 117 94
84 116 93
84 116 93
84 116 94
84 117 94
84 117 94
84 117 95
84 117 95
84 116 94
84 116 94
84 116 94
84 117 95
84 118 95
83 116 93
83 117 94
83 115 93
84 116 93
83 114 91
84 117 95
83 115 93
83 115 93
83 116 94
161 115 58
183 116 41
191 120 44
194 120 43
193 121 44
188 117 42
193 121 44
185 115 41
183 116 42
186 117 43
170 109 40
168 106 39
156 99 36
154 99 36
141 93 34
128 86 32
121 83 31
127 86 32
118 82 30
119 83 30
124 85 31
127 90 39
84 115 93
81 115 94
82 115 94
82 116 95
81 115 93
82 115 93
81 115 93
81 115 94
82 115 94
82 116 95
82 116 94
82 116 94
82 116 94
83 116 94
82 116 94
83 117 95
82 117 95
87 110 98
92 96 101
98 77 105
98 67 106
97 65 105
96 65 104
94 63 102
91 69 100
88 80 98
84 101 96
83 113 95
83 117 96
82 116 95
83 117 95
82 117 95
83 117 95
83 117 96
82 117 95
83 117 96
82 117 95
82 116 95
82 116 95
82 116 95
82 117 95
82 116 95
82 116 95
82 116 94
82 116 95
82 116 95
82 116 95
82 116 95
82 116 95
82 116 95
82 116 95
82 116 95
82 116 95
82 116 95
82 117 95
82 116 95
82 116 95
82 116 95
82 116 95
82 116 95
82 116 95
82 116 95
82 116 95
82 116 94
81 116 94
81 116 95
82 116 94
81 116 94
81 116 95
82 116 94
82 116 95
81 116 95
81 115 94
81 116 94
81 116 94
81 116 94
81 116 94
81 116 94
81 115 94
81 115 94
81 115 94
81 115 94
81 115 94
81 116 94
81 115 94
81 115 94
81 115 94
81 115 94
89 125 101
89 125 101
67 107 81
44 94 63
45 96 65
46 98 67
47 100 69
47 101 69
47 101 70
48 101 70
48 101 70
48 101 70
47 99 69
46 98 68
45 96 67
44 95 66
44 94 66
42 91 64
42 89 62
41 88 61
40 86 60
39 83 58
37 81 56
35 76 53
33 71 50
29 64 45
56 88 68
88 124 100
88 124 100
88 124 100
88 124 100
88 124 100
89 125 100
88 124 100
88 124 100
88 123 99
88 123 99
88 123 99
88 124 100
87 123 99
87 123 99
87 122 98
88 123 99
88 124 100
88 123 99
87 123 99
87 123 99
87 122 98
87 123 99
88 124 100
87 123 99
87 122 98
87 123 99
87 122 98
87 122 99
87 122 98
86 121 98
86 121 97
86 121 98
86 121 98
86 121 97
72 100 88
36 36 65
39 38 70
38 38 69
38 38 68
38 37 68
39 39 72
40 39 73
38 37 68
36 36 66
35 34 62
34 32 58
32 32 59
29 28 50
30 28 51
28 27 49
26 26 46
28 27 48
25 26 46
24 26 44
24 26 46
58 82 72
78 110 90
78 110 90
80 110 90
168 119 87
251 125 77
255 128 75
255 127 74
255 126 74
255 125 74
255 123 73
254 122 72
250 120 71
246 118 70
242 117 69
238 114 68
207 113 74
145 115 87
85 118 95
85 120 97
84 118 95
84 119 96
84 117 94
84 118 95
83 117 94
84 118 95
84 118 95
81 113 91
81 114 92
82 114 92
80 111 88
80 111 89
77 107 85
79 109 87
77 106 84
75 103 81
75 103 81
74 102 80
69 93 73
64 87 68
60 82 64
50 69 55
44 61 49
45 63 50
43 60 48
45 63 51
45 63 51
45 64 53
49 70 57
53 75 62
56 79 65
59 84 69
65 92 75
66 93 75
71 100 81
79 90 86
93 60 93
97 62 97
98 63 99
99 64 101
101 65 102
104 70 105
114 82 111
111 80 111
102 69 105
96 64 102
96 63 101
93 61 98
92 60 97
90 59 95
89 58 94
87 57 92
84 55 90
80 53 87
76 50 82
71 48 79
66 45 75
65 43 71
63 42 68
77 99 86
84 118 95
85 118 96
84 117 95
84 117 94
84 117 95
84 117 95
84 118 96
84 117 94
84 116 94
84 118 96
84 117 95
84 117 95
83 117 95
84 117 94
84 116 93
84 116 93
83 116 93
83 117 95
83 115 92
83 116 93
83 115 93
83 116 94
83 115 92
83 116 93
83 115 93
83 116 94
83 116 93
83 115 93
101 112 84
164 105 37
166 106 36
173 109 38
175 109 38
176 109 38
174 110 39
177 111 39
170 108 38
166 105 37
156 101 36
140 90 31
139 91 33
125 83 29
115 77 27
109 77 27
104 74 26
111 77 28
111 78 28
116 81 29
114 80 29
101 97 66
77 110 89
76 108 89
76 108 89
77 109 89
77 110 90
75 107 88
76 108 89
78 110 90
78 111 91
79 112 92
78 111 91
79 112 91
80 113 92
81 114 93
81 115 93
86 108 97
98 84 105
103 68 109
102 67 109
101 67 109
99 66 108
98 65 107
96 64 105
94 63 104
92 62 102
90 61 100
88 59 98
85 64 96
82 88 93
82 115 95
82 117 95
82 117 95
82 117 95
82 116 95
82 116 95
82 117 95
82 117 95
82 117 95
82 117 95
82 116 95
82 117 95
82 117 95
82 116 95
82 117 95
82 116 94
82 117 95
82 116 95
82 117 95
82 117 95
82 117 95
82 116 95
82 117 95
82 116 95
82 116 94
82 116 94
82 117 95
82 116 95
82 116 95
82 116 95
82 116 95
82 116 94
82 116 95
82 116 95
82 116 95
82 116 95
81 116 94
81 116 94
82 116 94
82 116 94
81 115 94
82 116 95
82 116 95
81 116 94
81 116 94
81 116 95
81 115 94
81 116 94
81 115 94
81 116 94
81 115 94
81 116 94
81 115 94
81 116 94
81 115 94
81 115 94
81 115 94
81 115 94
81 115 94
89 125 101
89 125 100
59 100 74
43 93 63
45 95 65
45 96 65
45 96 66
46 98 67
46 97 67
46 98 67
46 98 68
45 96 66
44 95 65
44 93 65
44 94 65
42 91 63
42 90 63
41 88 61
40 86 60
39 84 58
38 81 56
37 79 55
36 77 53
33 72 50
30 66 46
28 63 44
45 77 58
88 124 100
89 124 100
88 124 100
88 124 100
87 122 98
88 123 99
88 123 99
88 124 99
88 123 99
88 124 100
88 123 99
88 124 100
89 125 101
88 124 100
87 122 98
87 123 99
88 124 100
88 123 99
88 123 99
87 122 98
87 123 99
87 122 99
87 122 99
86 122 98
87 123 99
87 122 98
87 121 98
87 122 99
86 121 98
86 121 98
86 122 98
86 121 98
86 122 98
86 121 97
84 117 94
49 63 69
33 34 60
34 34 60
34 34 60
35 35 63
35 35 63
36 36 65
34 34 61
32 32 57
31 31 54
26 27 45
25 25 43
26 26 42
25 24 39
27 25 43
22 24 39
23 25 42
23 26 44
22 25 42
27 36 44
61 89 75
65 95 79
108 100 79
226 119 76
255 128 75
255 128 75
255 128 75
255 127 75
255 125 74
255 124 73
255 123 73
253 122 72
249 120 71
246 118 70
241 116 69
237 114 68
231 112 67
224 109 65
173 109 76
89 116 93
84 118 95
83 117 94
85 119 96
84 117 94
84 118 95
84 118 95
83 116 93
83 117 94
82 114 92
82 114 91
82 114 92
81 113 91
80 111 89
80 110 87
80 111 88
80 111 88
78 108 85
77 107 85
77 106 84
75 104 81
76 106 84
74 102 80
75 104 82
75 104 82
75 103 81
73 100 79
73 101 80
76 104 82
76 105 83
78 107 85
80 111 89
77 108 86
79 110 88
78 109 87
80 112 90
84 92 90
93 60 93
95 61 95
98 63 99
97 62 98
96 62 97
98 63 99
97 63 99
95 62 98
95 62 99
94 61 98
92 60 96
91 60 96
90 58 92
88 57 90
86 55 89
83 54 86
81 53 85
76 50 81
74 48 79
68 45 73
64 43 71
63 42 67
59 40 63
76 93 85
84 118 96
84 118 95
84 118 95
84 119 96
84 117 95
84 118 96
83 117 95
85 117 95
85 117 95
84 117 94
84 117 94
84 118 95
84 117 95
84 116 94
84 118 95
84 118 96
84 117 95
84 117 95
83 116 94
83 115 92
83 114 92
83 116 93
83 116 94
83 116 93
83 116 94
83 116 93
83 115 92
83 116 93
82 114 91
130 101 57
153 98 34
157 101 34
156 100 34
157 100 34
158 101 35
154 98 33
155 99 34
145 94 32
142 93 32
125 83 28
118 80 28
102 71 24
101 73 25
94 68 23
93 68 23
92 68 22
97 71 24
107 77 27
97 77 38
66 93 77
65 95 80
66 95 79
66 95 79
66 96 80
68 98 82
67 97 81
69 99 83
71 102 84
70 101 83
72 103 86
73 105 87
74 106 87
75 107 88
77 109 90
90 95 98
105 70 110
105 69 111
104 68 110
103 68 110
101 67 109
100 66 108
98 65 107
97 64 106
95 63 104
93 62 103
91 61 101
89 60 99
86 58 97
83 56 94
79 66 91
81 106 93
82 117 95
82 117 95
82 117 95
83 117 95
82 117 95
83 117 95
82 117 95
82 116 95
82 117 95
82 116 94
82 116 95
82 117 95
82 117 95
82 116 95
82 117 95
82 117 95
82 116 95
82 117 95
82 116 95
82 116 94
82 116 95
82 116 95
82 116 95
82 116 95
82 116 95
82 116 95
82 116 95
82 116 95
82 116 95
82 116 94
82 116 95
82 116 95
82 116 95
82 116 95
82 116 95
82 116 95
82 116 95
82 116 94
82 116 95
81 115 94
81 116 95
82 116 95
81 116 95
81 116 95
81 116 94
82 116 95
81 116 95
81 116 94
81 116 94
81 115 94
81 115 94
81 115 94
81 115 94
81 115 94
81 116 94
81 116 94
81 115 94
89 125 101
89 125 100
50 93 66
42 90 61
43 92 62
43 93 63
44 95 65
44 94 64
44 95 65
43 93 63
44 94 64
44 94 64
43 92 63
42 90 62
42 89 62
40 85 59
39 85 59
39 84 58
38 81 56
37 80 55
36 77 54
34 73 50
33 71 49
31 69 48
28 61 42
25 56 39
35 66 48
87 123 99
88 124 100
88 124 100
88 124 100
88 124 99
88 123 99
88 124 100
88 123 99
88 123 99
88 123 99
88 123 99
87 123 99
88 123 99
87 122 99
87 123 99
88 123 99
88 123 99
88 123 99
87 123 99
87 122 99
87 121 98
87 122 98
87 123 99
86 121 97
87 121 98
86 120 97
87 121 98
87 122 98
85 120 97
85 119 96
85 119 96
86 120 96
85 120 97
85 120 96
85 120 96
78 109 89
34 43 51
28 29 50
29 30 51
29 30 51
28 30 51
27 29 47
27 28 48
25 27 45
23 25 41
22 25 40
22 24 37
23 24 38
21 24 37
21 23 35
21 23 36
20 23 37
19 22 35
20 23 36
48 71 62
55 82 70
88 85 70
242 119 73
255 129 75
255 128 75
255 128 75
255 127 75
255 126 74
255 125 74
255 124 73
255 122 73
251 121 72
248 119 71
244 118 70
240 116 69
235 114 68
231 112 67
226 109 66
216 104 63
190 101 65
90 118 95
84 117 94
84 118 95
85 120 97
84 117 94
84 118 95
83 117 94
85 119 96
83 117 94
83 117 94
83 116 93
81 113 90
83 116 93
81 113 91
82 115 92
81 112 90
80 111 89
79 110 88
81 112 90
79 111 88
80 111 88
79 110 88
80 111 89
79 110 88
78 108 85
78 107 85
79 110 88
81 113 90
80 111 89
80 111 88
80 112 90
80 111 89
81 113 91
82 114 92
83 115 93
84 90 89
90 57 88
92 60 93
94 61 94
94 60 94
93 60 93
94 61 95
94 61 95
93 60 95
91 60 95
91 59 94
88 57 90
88 56 89
86 56 90
84 54 87
84 54 86
78 51 83
77 51 83
72 47 76
67 45 73
63 42 67
62 42 68
61 42 67
63 41 65
68 83 77
84 118 95
85 118 95
84 118 95
84 117 95
84 118 95
84 118 95
85 118 95
84 116 93
85 118 95
84 118 95
84 118 95
84 117 95
83 117 94
84 117 94
84 117 94
84 118 95
84 117 94
84 117 94
85 118 95
83 116 93
83 116 93
83 115 93
83 115 93
83 115 93
82 113 90
82 113 90
82 113 90
82 113 90
81 113 90
85 110 86
121 87 39
137 91 30
137 90 30
137 90 30
137 90 30
135 89 29
132 86 28
128 84 28
116 78 25
104 73 23
93 67 21
80 62 19
84 64 20
83 63 20
84 65 20
81 62 19
100 73 25
87 65 23
66 80 63
57 84 72
58 85 72
59 87 73
58 86 73
59 86 73
59 87 75
60 88 75
61 89 75
61 88 74
64 93 79
65 95 80
66 96 81
69 100 84
72 103 86
93 85 99
105 68 109
106 69 111
105 69 111
104 68 111
103 68 110
101 67 109
100 66 108
98 65 107
96 64 105
95 63 104
93 62 103
91 61 101
89 60 99
86 58 97
84 57 95
81 55 92
74 55 85
80 104 92
82 116 94
83 117 95
83 117 95
83 117 95
83 117 95
83 117 95
82 117 95
83 117 95
82 117 95
82 117 95
82 117 95
82 116 95
82 117 95
82 117 95
82 117 95
82 117 95
82 117 95
82 117 95
82 117 95
82 117 95
82 116 95
82 117 95
82 116 95
82 115 94
82 116 95
82 116 95
82 116 95
82 117 95
82 116 95
82 116 95
82 116 95
82 116 95
82 116 95
81 116 95
82 116 95
81 116 94
82 116 95
82 116 95
82 116 95
82 116 94
81 116 95
81 116 95
82 116 95
81 116 95
82 116 94
81 116 94
81 116 94
82 116 94
81 116 95
81 116 94
81 115 94
81 116 94
81 115 94
81 115 94
81 116 94
81 116 94
89 125 101
89 125 101
50 91 65
40 87 58
41 89 60
42 90 61
43 92 62
42 90 61
42 90 61
43 92 63
42 91 62
42 91 62
40 86 59
39 84 58
40 86 59
38 83 57
38 82 56
37 79 54
36 76 52
36 77 53
34 73 51
32 70 48
30 64 44
28 64 44
26 58 40
25 56 38
29 59 41
87 123 99
88 124 100
88 124 100
88 124 100
87 123 98
88 124 99
87 123 99
88 124 100
88 123 99
88 124 99
88 123 99
88 124 100
88 124 100
87 122 99
87 122 98
88 123 99
87 122 99
87 123 99
87 123 99
87 123 99
87 122 98
88 124 100
87 122 99
87 122 98
86 121 97
86 121 97
86 120 97
86 121 98
85 119 96
85 119 96
86 120 96
86 120 96
85 119 96
83 116 93
84 118 95
84 117 94
72 99 81
32 41 47
22 25 39
23 26 40
22 25 40
21 25 38
21 24 37
22 25 38
20 23 35
22 24 37
22 24 37
21 23 35
20 23 35
20 23 36
18 22 33
17 20 31
17 22 32
40 59 54
53 79 68
81 81 67
225 112 69
255 128 74
255 129 75
255 128 75
255 127 75
255 127 75
255 127 76
255 126 75
255 123 73
253 122 72
250 120 71
247 119 71
243 117 70
239 115 69
234 113 68
229 111 67
225 109 65
218 106 63
204 99 60
166 99 68
90 118 95
85 119 96
84 118 95
85 119 96
84 118 95
85 119 95
83 116 94
83 117 94
83 116 93
84 117 94
83 117 94
84 117 94
83 115 93
83 116 93
82 115 92
83 115 92
81 113 90
81 113 91
82 115 92
82 115 92
82 115 92
81 114 91
82 114 92
82 113 90
82 114 92
81 114 91
82 115 92
83 116 93
82 115 92
82 114 91
82 115 93
82 115 92
83 116 93
82 115 93
83 90 88
87 56 86
88 57 88
88 57 87
91 58 90
89 58 90
90 58 89
89 58 91
89 58 91
88 58 91
86 57 90
85 55 87
85 55 86
83 53 84
81 52 83
79 51 82
74 49 78
71 47 74
67 44 70
61 41 65
61 42 67
60 41 66
56 39 61
57 39 61
71 86 78
84 117 94
84 117 94
85 118 95
84 118 95
84 117 95
84 117 95
84 117 94
83 115 92
84 118 95
84 118 95
84 117 94
84 118 95
84 118 95
83 117 94
84 116 94
84 117 94
83 116 93
84 116 93
84 117 94
84 116 93
83 115 92
82 113 91
82 114 91
83 114 92
82 113 90
82 114 92
82 112 89
82 112 88
80 109 87
80 108 85
86 103 78
108 80 35
114 78 25
118 81 25
115 79 25
113 78 24
106 75 23
103 73 22
90 67 20
83 64 19
81 64 19
75 60 17
74 59 17
73 60 17
81 63 19
80 62 19
80 61 22
63 73 55
56 82 69
55 80 67
57 82 70
58 84 71
57 84 72
58 85 72
58 85 72
58 85 72
59 86 74
60 88 74
60 88 75
60 89 75
62 91 77
65 95 79
86 83 94
104 68 107
106 69 111
106 70 112
105 69 111
104 68 110
103 68 110
101 67 109
100 66 108
98 65 106
96 64 105
94 63 104
93 62 102
91 61 101
88 60 99
86 58 97
84 57 95
81 55 92
77 53 89
70 53 82
78 104 90
83 117 95
83 117 95
82 117 95
82 116 95
83 117 95
83 117 95
82 117 95
82 117 95
83 117 95
83 117 95
82 116 95
83 117 95
82 117 95
82 117 95
82 117 95
82 117 95
82 116 95
82 117 95
82 117 95
82 116 95
82 117 95
82 116 95
82 116 95
82 116 95
82 116 95
82 116 95
82 116 95
82 116 95
82 116 95
82 116 95
82 116 95
82 116 95
82 116 95
82 116 95
82 116 94
82 116 95
81 116 94
82 116 95
82 116 94
81 116 94
81 116 94
81 116 95
81 116 94
81 116 95
82 116 95
82 116 94
82 116 94
82 116 94
82 116 95
81 116 94
81 116 94
81 116 95
81 115 94
81 116 94
81 115 94
89 125 101
89 125 100
54 92 67
38 82 55
39 86 57
40 86 57
40 86 58
40 87 58
41 88 59
40 86 58
39 85 57
39 84 57
38 82 55
38 81 55
37 81 55
36 79 54
35 76 51
34 74 50
34 72 49
32 69 46
30 65 44
27 61 41
28 62 42
24 55 37
25 56 37
24 55 37
39 68 49
88 124 99
88 124 100
88 124 100
88 123 99
88 124 100
88 123 99
88 124 100
87 123 99
88 124 100
87 122 99
87 123 99
88 124 100
88 124 100
88 123 99
88 123 99
88 124 100
87 122 98
88 123 99
87 123 99
87 122 98
87 122 98
86 121 97
86 121 97
86 121 97
86 121 97
86 120 97
86 120 97
86 120 96
85 118 95
84 118 95
86 120 96
84 118 95
84 118 94
84 117 94
82 114 91
82 114 91
81 113 90
70 98 79
35 47 47
20 23 35
20 24 36
22 25 37
21 24 36
21 24 36
20 23 35
21 24 37
21 24 37
20 23 35
18 22 33
17 21 32
16 19 30
16 21 28
37 54 48
44 65 55
49 70 60
209 105 66
255 124 71
255 128 74
255 128 74
255 127 75
255 129 77
255 144 94
255 153 104
255 140 92
255 125 76
252 121 72
248 119 71
244 118 70
240 116 69
237 114 68
233 112 67
228 110 66
223 108 65
217 105 63
206 99 60
190 92 55
141 104 77
84 118 95
85 119 96
86 121 97
85 120 96
85 120 97
84 118 95
85 118 95
84 119 96
84 118 95
83 117 94
84 117 94
83 116 93
83 116 93
83 116 93
83 116 93
84 118 95
83 116 93
82 114 92
82 115 93
83 117 94
83 115 92
82 115 92
82 115 93
83 116 93
82 115 93
83 116 93
82 115 92
83 116 93
83 116 93
84 117 94
84 118 96
84 117 95
84 117 94
79 91 85
82 53 81
83 54 81
85 55 84
86 56 85
87 56 86
86 55 85
85 55 85
83 54 84
85 56 88
84 55 87
81 52 81
79 52 80
77 50 77
75 49 76
74 48 75
71 46 73
64 42 65
63 42 67
58 39 62
61 40 62
54 37 57
53 36 56
52 36 56
70 87 77
84 118 95
84 118 95
84 118 95
85 119 97
84 117 95
84 117 94
84 117 94
85 117 94
85 117 94
84 118 95
85 118 95
84 117 94
85 117 93
84 116 94
83 115 92
84 116 93
84 116 93
83 116 93
84 117 94
84 116 93
82 114 91
83 114 92
82 113 90
82 113 90
82 112 88
81 111 88
81 111 88
80 109 86
78 106 83
79 107 84
78 106 83
77 98 74
87 74 40
91 66 19
90 66 19
89 66 19
85 63 18
88 65 18
84 64 18
82 64 18
80 62 18
79 62 18
73 59 17
71 58 17
66 54 16
61 52 20
54 66 51
54 76 63
52 75 63
52 76 64
54 78 65
55 81 69
56 82 70
57 82 69
59 85 72
58 85 72
57 84 72
58 86 73
57 85 73
59 88 75
61 89 76
76 85 86
103 68 105
105 68 109
106 69 110
106 69 111
106 69 111
106 71 111
105 71 111
102 68 109
100 66 107
98 65 106
96 64 105
94 63 103
93 62 102
90 61 100
88 59 98
86 58 96
84 57 95
81 55 92
77 53 89
72 50 84
70 57 81
82 115 95
82 117 95
82 117 95
82 117 95
83 117 96
82 117 95
82 116 95
82 117 95
82 117 95
83 117 95
83 118 96
82 117 95
83 117 95
83 117 95
82 117 95
82 117 95
82 117 95
82 117 95
82 116 95
82 116 95
82 116 94
82 116 95
82 117 95
82 117 95
82 116 95
82 117 95
82 116 95
82 116 95
82 116 95
82 116 94
82 116 94
82 116 95
82 116 95
82 116 94
82 116 94
82 117 95
82 116 95
82 116 95
82 116 95
82 116 94
82 116 95
82 116 94
81 116 94
81 116 95
81 116 95
82 116 95
82 116 95
81 115 94
81 115 94
81 116 94
81 115 94
81 115 94
81 116 94
81 116 94
81 116 94
89 125 101
89 125 101
63 99 75
36 78 52
36 80 53
38 82 55
38 82 54
38 83 55
38 84 56
37 81 54
37 81 54
37 80 54
36 78 52
35 76 51
34 75 50
32 71 48
32 71 48
32 69 47
30 66 44
29 63 41
27 60 39
25 56 37
24 53 35
25 58 39
24 55 36
21 50 32
54 82 63
88 124 100
87 123 99
87 123 99
88 124 100
87 123 99
87 122 98
87 122 98
87 123 99
88 123 99
88 124 100
87 123 99
87 122 98
87 123 99
88 124 100
88 124 100
86 121 98
87 122 98
87 122 98
87 122 98
86 121 97
86 121 97
86 121 97
86 121 97
86 121 98
86 121 98
87 121 97
86 120 96
85 119 95
84 118 94
84 117 94
85 119 96
83 115 92
82 114 92
82 114 91
82 113 90
79 110 87
79 109 86
74 103 82
60 84 68
35 49 44
19 23 33
19 22 33
19 22 33
19 23 34
19 22 33
19 22 33
18 21 32
17 20 31
15 18 28
14 16 25
24 35 33
35 51 43
41 61 52
38 57 48
123 80 59
255 121 69
255 124 71
255 126 73
255 127 74
255 128 75
255 147 97
255 191 142
255 199 150
255 159 112
255 127 78
250 120 71
246 118 70
243 117 69
239 115 68
235 113 67
231 111 67
225 109 65
221 107 64
214 103 62
203 99 59
187 90 54
173 86 53
101 115 91
85 120 96
85 119 96
85 120 96
85 119 96
84 118 95
85 119 96
86 120 97
85 119 96
84 118 95
85 120 97
83 117 95
84 117 94
84 118 95
84 118 95
84 118 95
83 117 94
84 118 95
83 117 94
84 117 94
83 117 94
84 118 95
84 118 95
84 117 94
84 117 94
83 117 95
83 117 94
84 118 95
83 117 94
83 117 94
83 116 94
84 117 94
84 119 96
81 100 88
78 51 76
79 51 78
81 53 79
81 52 79
82 52 80
80 52 80
80 52 79
83 54 84
80 53 81
78 51 79
74 48 73
73 47 73
72 47 72
68 44 68
69 45 69
65 43 66
59 40 62
55 37 57
55 36 56
55 37 57
53 37 57
55 38 59
53 36 54
76 101 85
84 118 95
84 119 96
84 117 95
84 118 95
84 117 95
85 119 96
84 118 95
84 117 95
84 116 93
84 117 94
84 117 95
84 116 93
84 117 94
84 116 93
83 116 94
84 117 95
84 116 93
83 115 92
84 116 93
84 115 91
83 114 91
83 113 90
82 113 90
82 113 90
82 112 89
81 111 88
80 108 85
80 109 85
78 107 84
77 103 80
75 102 79
73 98 75
69 92 70
65 66 42
78 59 18
81 61 17
81 61 17
83 62 18
81 61 17
81 60 17
74 57 16
70 55 16
65 53 15
59 49 17
49 50 30
41 56 45
46 65 54
50 69 57
50 71 59
51 73 61
54 77 65
54 78 65
55 79 66
56 81 69
56 82 70
57 83 71
59 86 73
60 87 73
58 85 72
61 90 76
65 90 78
97 69 100
104 67 106
105 67 106
105 68 108
107 70 110
114 80 116
134 104 128
129 99 125
110 78 113
100 67 107
98 65 105
96 64 104
94 63 103
92 62 101
90 61 100
88 59 98
86 58 96
83 56 94
81 55 92
77 53 88
72 50 84
67 47 78
74 85 85
82 117 95
83 117 95
82 117 95
83 117 95
82 116 95
82 117 96
82 117 95
83 117 95
82 117 95
82 117 95
82 117 95
82 117 95
82 117 95
83 117 95
82 116 95
82 116 95
82 116 95
82 117 95
82 116 95
82 116 95
82 117 95
82 116 95
82 116 95
82 116 94
82 117 95
82 116 95
82 116 95
82 117 95
82 117 95
82 117 95
82 117 95
82 117 95
82 116 95
82 116 95
82 116 95
81 116 94
82 116 95
82 116 95
82 116 95
82 116 95
82 116 95
82 116 95
81 116 94
82 116 95
81 116 95
82 116 94
82 116 95
81 116 95
81 116 95
82 116 94
82 116 95
82 116 94
81 116 95
81 115 94
88 124 100
89 125 101
75 109 86
33 73 48
34 75 48
35 77 50
35 77 50
35 77 50
34 76 50
35 76 50
34 74 49
33 74 49
33 74 49
32 71 47
32 70 47
31 69 46
29 65 43
28 64 42
24 55 34
24 55 35
22 52 33
22 51 33
22 51 32
23 54 35
22 51 32
21 49 31
66 97 76
88 123 99
87 122 98
87 123 99
87 123 99
88 124 100
87 123 99
87 122 98
87 122 98
87 122 98
87 123 99
89 124 100
88 123 99
88 123 98
87 122 98
87 122 98
86 121 97
87 123 99
87 122 99
86 121 97
87 122 98
87 122 98
87 123 99
86 121 97
85 119 96
86 121 97
85 119 96
84 118 95
85 119 96
85 118 94
84 117 94
84 117 94
82 115 92
82 114 91
81 112 89
80 111 88
78 108 86
78 108 85
73 101 80
59 83 67
45 63 52
31 44 37
23 31 30
17 22 25
15 19 24
14 16 23
13 15 23
13 16 21
14 18 21
15 22 20
27 37 31
31 45 38
31 45 38
35 51 44
41 60 51
202 101 62
255 120 69
255 121 70
255 124 72
255 125 73
255 128 77
255 158 109
255 197 148
255 186 138
255 144 97
253 123 74
248 119 70
245 117 69
241 116 69
237 114 68
233 112 67
230 110 65
222 107 64
217 104 62
210 101 61
201 96 57
187 90 54
172 85 52
138 98 72
85 120 97
86 121 98
86 120 97
85 119 96
85 120 97
86 121 97
85 119 96
84 118 95
84 119 96
85 119 96
85 119 96
85 119 96
85 118 95
85 119 96
85 119 96
85 120 96
84 118 95
85 119 96
84 118 95
85 120 97
84 117 94
83 117 94
85 119 96
84 118 95
84 118 95
84 117 95
85 119 96
85 119 96
84 118 95
84 118 96
85 119 96
85 119 95
82 113 93
73 50 72
76 49 73
78 50 75
78 50 76
76 49 72
75 48 72
78 51 77
74 49 74
73 48 73
72 48 74
70 46 70
69 45 67
65 42 63
64 42 65
61 40 61
57 38 57
53 36 55
53 35 53
53 36 55
51 36 55
50 34 51
48 34 51
49 38 50
80 110 89
84 118 95
84 117 94
85 119 97
85 117 94
84 117 95
84 117 95
84 117 95
84 118 96
83 117 94
84 116 94
84 117 94
85 118 95
84 118 95
84 117 94
84 117 94
85 118 95
84 117 94
83 115 92
83 114 91
83 115 92
83 115 92
83 113 89
83 114 90
82 114 91
82 111 87
81 109 85
80 109 86
79 107 83
79 107 84
77 103 80
75 101 78
74 99 76
71 93 69
61 81 61
44 58 44
48 40 21
57 43 16
63 47 15
65 48 13
52 41 13
59 44 14
49 38 13
35 37 25
31 40 30
37 52 42
40 57 47
41 58 47
49 69 57
48 70 59
51 74 62
54 79 66
53 76 64
55 79 67
54 79 66
56 81 68
57 84 72
60 87 73
60 87 73
64 91 76
65 94 78
81 83 86
101 65 102
103 67 105
104 67 106
105 67 106
112 77 112
152 123 138
199 171 171
170 143 151
120 90 119
100 67 107
97 64 105
96 64 103
94 62 102
92 61 100
90 60 99
88 59 97
86 57 95
83 56 93
80 54 90
76 52 87
71 49 82
68 47 80
68 54 78
82 113 93
83 117 95
82 116 95
83 117 95
83 118 96
83 117 95
83 117 95
83 117 95
83 117 95
82 117 95
83 117 95
82 117 95
83 117 95
82 117 95
82 117 95
82 117 95
82 116 95
82 117 95
82 117 95
82 116 95
82 116 95
82 117 95
83 117 95
82 117 95
82 117 95
82 116 95
82 117 95
82 117 95
82 116 95
82 116 95
82 116 95
82 117 95
82 116 95
82 116 95
82 116 95
82 116 95
82 116 95
82 116 95
82 117 95
82 116 94
82 116 95
82 116 94
82 116 95
81 116 94
82 116 95
81 116 95
81 116 95
81 116 95
81 116 95
81 116 95
82 116 95
81 116 94
82 116 95
82 116 95
88 124 99
89 124 100
86 121 97
37 72 49
31 70 45
31 70 45
32 72 46
32 71 46
33 72 47
31 70 45
32 71 46
31 69 45
30 67 44
29 65 43
29 65 43
27 61 39
25 58 37
24 55 35
22 52 33
21 50 31
21 50 32
20 50 31
21 49 30
21 50 31
20 47 29
23 49 31
78 111 89
82 115 93
76 105 85
73 100 82
69 94 78
70 96 80
73 100 83
78 109 89
86 121 97
87 122 98
87 123 98
87 122 98
88 123 99
87 122 98
87 122 98
87 122 98
87 122 98
87 122 98
86 121 97
86 121 98
86 121 97
87 122 98
87 122 98
87 121 97
85 120 96
86 120 97
86 121 97
86 120 96
85 119 96
86 120 96
84 117 94
83 115 91
83 116 92
82 113 90
80 111 88
80 111 88
77 106 83
77 105 82
76 104 82
71 97 77
62 85 67
48 66 53
34 48 40
31 45 38
27 38 31
24 34 28
19 28 24
24 35 29
27 40 34
31 45 38
35 52 44
35 51 44
42 60 51
45 65 55
80 70 55
242 114 65
255 120 69
253 119 69
255 122 71
255 122 71
255 125 75
255 137 88
255 150 103
255 140 92
254 124 75
250 119 70
246 117 69
242 116 68
238 114 67
235 113 67
230 110 66
223 107 64
221 106 63
213 102 60
204 99 59
196 95 57
174 86 51
169 82 49
156 81 50
91 118 95
85 120 97
86 120 97
85 120 97
86 121 97
86 120 97
85 119 96
86 120 97
85 119 96
85 120 97
85 119 96
85 119 96
85 119 95
85 120 96
84 118 95
85 120 96
85 118 95
85 119 96
85 120 96
85 119 96
85 119 96
84 118 95
84 118 95
85 118 95
84 118 96
84 118 96
85 119 96
85 120 97
83 116 94
85 119 96
84 118 95
84 118 95
84 117 94
71 72 74
71 46 69
71 46 68
72 47 68
72 47 69
72 47 69
70 46 69
69 46 69
66 44 66
66 44 66
65 42 63
63 41 61
59 39 57
60 40 60
53 36 53
46 32 46
50 34 51
51 34 50
46 31 46
46 30 42
44 32 47
42 30 44
55 61 60
83 117 94
83 116 93
82 116 94
83 116 94
83 116 93
83 117 94
84 117 94
84 117 94
83 117 95
85 118 95
83 116 94
83 116 94
83 116 93
84 117 94
97 118 92
139 128 89
164 133 84
180 137 81
190 139 77
172 134 80
125 123 88
99 117 90
85 114 90
84 113 89
83 114 91
82 113 89
82 112 88
80 109 86
81 110 87
80 107 83
78 106 82
76 102 79
76 103 80
73 97 73
73 95 71
66 87 65
55 73 55
45 59 44
33 44 34
30 39 30
26 36 29
27 36 29
30 42 34
30 41 33
40 57 46
41 57 46
43 62 51
45 64 52
49 70 58
50 71 59
51 73 61
54 77 64
55 78 65
56 81 67
59 85 72
62 88 74
64 92 76
65 94 77
70 100 82
73 103 84
74 105 86
94 75 97
99 64 99
102 66 103
102 66 103
104 67 105
117 84 114
175 147 153
205 177 174
158 130 142
112 81 112
99 66 105
97 64 104
96 63 102
93 62 101
92 61 100
89 60 98
88 58 94
85 56 93
83 55 91
79 53 87
73 49 82
69 48 80
67 46 77
65 45 74
74 93 86
82 117 95
83 117 95
82 117 95
83 117 95
83 117 96
83 117 95
82 117 95
83 117 95
83 117 95
83 117 95
82 117 95
82 117 95
82 117 95
82 117 95
82 116 94
82 117 95
82 117 95
82 117 95
82 116 94
82 116 94
82 117 95
82 116 95
82 116 95
82 116 95
82 116 95
82 116 95
82 117 95
82 117 95
83 117 95
82 117 95
82 116 95
82 116 94
82 116 95
82 116 95
82 116 95
82 116 94
82 116 95
82 116 95
82 117 95
81 116 94
82 116 95
82 116 95
82 116 95
81 116 95
82 116 95
81 116 94
81 115 94
81 116 95
81 116 94
81 116 95
81 116 94
82 116 94
81 116 94
88 123 99
89 125 100
88 124 99
65 97 75
27 62 39
28 64 40
30 67 42
29 65 41
29 66 42
28 63 40
28 65 41
28 63 40
27 61 39
25 57 36
24 55 35
21 51 32
21 51 31
20 49 30
20 49 30
20 46 27
20 47 28
19 46 27
20 46 27
18 45 25
20 43 26
36 50 43
52 65 59
42 46 48
40 43 47
40 43 47
40 43 46
39 42 46
39 42 46
39 42 46
43 50 50
60 80 69
77 106 86
88 123 99
87 121 97
87 122 98
87 123 99
87 122 98
86 121 97
86 121 97
87 121 98
86 120 97
87 121 97
87 121 98
86 121 97
86 121 98
86 121 97
86 120 96
86 121 97
84 117 94
84 117 94
84 118 94
85 118 95
83 116 93
83 117 94
83 115 92
82 113 90
81 112 88
80 111 88
79 109 86
80 111 88
77 106 84
77 105 82
74 101 79
69 94 74
64 88 70
59 82 65
53 75 60
53 74 60
51 71 58
52 74 60
50 70 57
57 80 65
55 78 63
61 86 70
65 92 74
149 100 71
236 111 63
245 115 66
252 119 68
254 120 69
251 119 69
250 119 69
254 122 72
253 122 73
250 119 70
248 118 69
245 117 69
240 114 67
238 113 67
235 111 65
232 110 65
225 108 64
219 105 62
213 101 60
209 98 58
194 94 56
185 89 53
174 85 51
163 80 48
156 77 46
108 107 84
86 121 98
86 121 97
86 120 97
85 120 97
85 120 96
85 119 95
86 121 97
85 120 97
86 120 97
85 120 97
85 119 96
85 119 96
85 119 95
85 119 96
85 120 97
85 119 96
85 119 96
85 120 96
85 120 97
84 118 95
85 119 96
85 118 95
85 119 96
85 119 96
84 117 95
85 119 96
84 118 95
83 117 94
84 118 95
84 117 94
84 117 94
83 117 94
78 101 86
61 41 58
63 42 60
65 43 62
67 44 63
65 42 61
65 43 63
63 43 63
63 42 62
59 40 58
57 39 56
54 37 53
52 35 49
50 33 48
46 31 45
45 31 44
44 31 43
44 30 41
40 28 39
43 31 44
44 32 46
41 29 42
68 93 77
76 107 87
75 105 86
77 109 89
78 110 90
79 111 90
78 110 89
79 110 90
80 112 91
79 111 90
80 112 90
82 115 93
82 115 93
140 126 86
221 152 76
252 162 68
255 165 65
255 163 65
254 161 64
250 159 63
245 157 63
240 154 62
234 151 61
199 138 69
153 126 80
89 114 89
83 113 90
82 113 90
82 110 86
83 112 89
82 112 88
80 110 86
78 106 83
79 107 84
77 103 80
77 104 81
75 101 78
75 100 77
72 96 74
69 93 71
66 87 66
62 84 65
60 81 63
59 81 63
58 78 62
60 83 66
59 81 65
57 79 64
58 81 65
62 86 69
62 87 71
65 91 74
66 94 76
69 97 79
70 98 80
72 101 81
76 106 86
76 107 86
77 108 87
79 110 89
80 112 90
82 107 91
95 64 95
99 64 99
99 63 98
101 65 102
101 65 101
112 78 109
141 113 129
150 121 134
119 88 115
100 67 104
97 64 103
95 62 101
94 62 101
91 60 98
91 60 97
88 58 95
86 56 92
83 56 92
81 52 86
77 51 83
71 48 80
69 47 78
64 45 74
66 46 76
66 68 77
83 117 95
83 117 95
83 117 95
83 117 95
82 117 95
83 117 96
82 117 95
82 117 95
82 116 94
83 117 96
82 116 94
83 117 95
82 117 95
82 117 96
82 117 95
83 117 96
82 116 95
83 117 95
82 116 94
82 117 95
82 117 95
82 117 95
82 117 95
82 116 95
82 117 95
82 116 95
82 116 95
82 117 95
82 117 95
82 116 95
82 117 95
82 116 95
82 117 95
82 116 95
82 116 95
82 116 94
82 116 95
82 117 95
82 116 95
82 116 95
82 116 95
82 116 94
82 116 94
81 116 95
82 116 95
81 116 94
82 116 94
81 116 94
82 116 95
81 116 94
81 116 95
81 116 95
81 116 94
88 124 99
88 123 99
88 123 99
86 122 97
40 70 49
24 57 34
26 60 37
25 58 35
25 58 35
24 57 35
26 59 37
24 56 34
22 52 32
21 51 31
19 47 27
18 46 26
18 44 25
18 45 27
17 44 24
17 43 24
18 44 25
17 42 23
18 43 24
29 44 36
39 43 45
41 44 47
41 44 47
41 43 47
40 43 47
40 43 47
39 42 46
39 42 46
39 42 46
38 41 45
38 41 45
37 40 44
37 40 44
56 74 64
81 113 91
86 121 97
87 122 98
86 121 97
87 122 98
87 121 98
87 122 98
86 121 97
87 122 98
86 121 97
87 121 98
87 121 98
87 122 98
85 120 96
86 120 96
85 119 95
86 120 96
85 119 95
85 119 95
85 118 95
84 116 93
83 116 93
83 116 93
82 114 91
81 113 90
83 115 91
82 114 90
80 110 87
81 112 89
79 110 87
80 111 88
80 110 87
79 108 86
77 106 83
77 106 84
78 107 85
79 110 87
77 107 85
79 109 86
81 113 90
79 109 87
80 111 88
184 110 75
232 110 62
239 112 64
245 115 66
243 115 66
244 115 66
244 115 67
244 116 67
244 115 67
243 115 67
239 113 66
237 112 66
234 110 64
227 108 63
228 107 63
222 105 61
215 102 60
213 100 58
208 99 58
199 93 54
187 89 53
172 83 49
164 81 48
159 78 46
152 76 45
113 102 78
86 121 97
87 121 98
86 120 97
86 120 97
85 119 96
85 120 96
87 121 98
85 119 96
84 118 96
86 120 97
85 120 97
85 119 96
85 119 96
85 119 96
85 119 96
86 120 97
85 118 95
84 117 95
84 118 95
85 119 96
85 120 97
85 119 96
84 118 95
84 118 96
85 119 96
84 118 95
84 118 96
84 118 95
83 116 94
83 116 93
83 116 93
83 116 94
83 116 94
65 73 68
57 38 52
59 39 55
57 38 53
57 38 54
57 39 54
56 38 54
56 38 54
52 36 51
47 33 46
43 31 42
41 29 39
39 28 36
42 29 40
39 28 37
40 28 35
39 28 36
38 27 37
37 27 37
35 27 36
45 52 51
66 94 79
66 95 79
65 93 78
65 93 78
69 98 81
69 98 81
70 100 83
72 103 85
72 103 85
75 106 87
76 107 87
113 116 86
224 151 74
255 169 67
255 168 66
255 167 66
255 165 66
255 163 65
252 161 64
249 159 64
244 157 63
240 154 62
235 151 61
231 149 60
223 145 58
202 137 65
126 120 83
83 113 89
83 113 89
82 113 90
82 111 88
81 111 88
81 111 88
81 109 85
80 109 86
79 107 84
79 106 83
79 107 84
77 105 82
77 104 81
78 107 84
77 105 82
77 105 82
75 102 80
77 106 83
77 105 82
78 107 84
76 104 82
76 106 84
78 107 85
78 108 86
79 109 87
80 111 89
80 111 89
81 112 89
81 112 90
81 113 91
82 114 92
82 115 92
81 112 90
82 115 93
83 102 90
94 61 94
95 61 95
98 63 98
100 64 100
98 63 99
101 66 100
106 72 103
105 73 103
99 65 100
95 63 100
94 62 99
92 60 97
91 60 97
89 59 94
88 58 93
86 56 91
83 54 88
81 53 86
78 51 84
75 49 81
70 46 76
65 45 74
64 44 72
64 44 72
60 50 69
82 116 95
83 117 95
82 117 95
83 117 95
82 117 95
83 117 95
83 117 96
82 116 94
82 117 95
83 117 95
83 117 95
82 117 95
83 117 95
83 117 95
82 117 95
83 117 95
82 116 94
82 117 95
82 116 95
82 117 95
82 117 95
82 117 95
82 117 95
82 117 95
82 117 95
82 117 95
82 117 95
82 117 95
82 117 95
82 116 95
82 116 95
82 116 95
82 116 94
82 116 95
82 117 95
82 116 95
82 116 94
82 116 95
82 116 95
82 116 95
82 117 95
82 116 95
82 116 95
82 116 94
82 116 95
81 116 94
82 116 94
82 116 95
82 116 95
81 116 94
82 116 94
81 116 95
81 116 95
88 124 99
88 123 99
87 123 98
87 122 98
78 111 88
27 56 36
21 52 31
20 51 29
20 50 29
20 50 29
22 53 31
20 49 28
19 48 28
19 47 27
18 46 25
16 42 23
16 42 22
15 40 21
15 41 21
16 43 23
16 42 23
18 41 24
34 42 40
41 44 47
41 44 47
41 43 47
40 43 47
40 43 47
40 43 47
40 42 46
39 42 46
39 42 46
38 41 45
38 41 45
37 40 44
37 40 44
36 39 43
36 39 42
36 40 42
71 98 80
86 120 96
86 121 97
87 123 99
87 122 98
87 123 99
87 123 99
87 122 98
86 121 97
86 121 97
87 121 97
87 121 97
86 121 97
86 121 97
85 120 96
86 121 97
86 120 96
87 121 97
85 119 96
85 119 96
85 118 95
85 119 96
85 118 95
84 117 93
82 115 92
83 115 92
84 117 93
82 114 91
83 114 91
81 113 90
82 113 90
82 114 91
83 115 91
81 112 89
82 114 90
82 113 90
83 115 92
82 114 91
84 116 93
83 115 92
84 117 94
191 106 68
223 105 59
237 112 64
233 110 63
239 113 65
229 108 62
234 110 64
234 111 64
233 111 64
235 111 65
232 110 64
229 109 63
225 107 62
224 106 62
218 103 60
215 102 59
207 98 57
198 95 56
196 93 55
189 90 52
174 84 49
167 80 47
161 80 47
156 76 44
148 73 42
120 93 68
86 121 98
86 121 97
86 120 97
86 121 98
86 121 98
85 119 96
86 120 97
86 120 97
86 120 97
85 120 97
86 120 97
86 121 97
86 120 96
85 119 96
85 119 96
84 118 95
86 120 97
84 118 95
84 118 95
85 119 96
85 119 96
85 118 95
85 119 96
84 118 95
84 117 94
83 116 94
84 117 94
84 117 94
83 116 93
84 118 94
82 115 92
82 114 91
82 114 92
79 108 87
52 49 51
52 35 48
50 34 46
50 34 47
48 34 46
47 34 45
45 32 42
43 31 41
39 29 38
36 27 34
36 27 34
37 27 34
35 27 33
35 26 33
35 26 33
36 27 36
33 25 33
31 25 32
36 33 39
53 78 67
55 81 69
56 82 70
57 83 71
57 83 71
58 84 72
58 86 74
60 88 75
63 91 76
63 90 76
67 96 80
147 119 77
254 161 67
255 171 67
255 170 67
255 168 66
255 167 66
255 165 65
255 163 65
252 161 64
247 159 63
243 156 63
239 154 62
234 151 61
230 148 60
225 145 59
220 142 57
209 136 56
152 121 74
88 116 92
83 116 93
83 113 90
83 113 90
83 112 89
82 111 88
83 114 90
81 111 88
82 112 88
81 111 88
80 110 87
81 111 88
80 110 87
79 109 87
79 109 87
80 111 88
79 108 85
78 107 84
80 111 88
80 111 88
81 112 89
81 112 90
81 112 89
80 112 89
82 114 91
82 114 92
82 114 91
81 113 91
82 115 93
82 115 92
82 114 92
82 116 94
82 115 93
85 95 90
92 59 91
94 61 94
95 61 94
95 61 95
96 62 96
95 61 95
97 63 98
95 61 96
93 61 96
93 61 97
91 60 95
90 59 94
88 58 92
86 56 89
85 56 90
84 54 87
80 51 83
78 51 82
75 48 79
72 47 78
66 44 72
66 45 73
63 43 70
59 41 66
60 46 69
80 112 92
82 116 94
83 117 95
82 117 95
82 117 95
82 116 95
83 117 95
83 118 96
83 117 95
82 117 95
82 117 95
82 117 95
82 117 95
82 116 95
83 117 96
82 117 95
83 117 95
82 116 95
82 116 94
83 117 95
82 117 95
82 116 94
83 117 95
82 117 95
82 117 95
82 116 94
82 116 95
82 116 95
82 116 95
82 116 95
82 117 95
82 116 94
82 116 95
82 116 95
82 116 94
82 116 95
82 116 95
82 117 95
81 116 94
82 116 95
82 116 95
82 116 95
82 116 95
82 116 95
82 116 94
81 115 94
82 116 95
82 116 95
82 116 95
82 116 95
82 116 95
81 116 94
81 116 94
87 122 98
86 120 96
86 121 96
86 120 96
86 120 96
70 100 78
26 52 32
18 46 25
18 47 26
18 46 25
19 48 26
18 47 26
19 47 26
18 47 25
17 44 23
16 42 22
17 44 23
15 42 21
15 40 20
15 41 21
18 40 23
37 42 42
41 43 47
41 44 47
41 43 47
41 43 47
41 43 47
42 45 48
42 45 48
40 43 47
39 42 46
38 41 45
38 41 45
38 40 45
37 40 44
37 40 44
36 39 43
35 38 42
35 37 41
33 35 39
69 95 77
87 122 98
87 121 97
87 122 98
86 121 97
87 122 98
86 120 96
87 122 98
87 122 98
86 121 97
87 122 98
86 121 97
87 121 98
87 122 98
87 122 98
85 119 96
86 121 97
85 119 96
87 121 97
85 118 95
85 119 95
86 120 96
85 118 95
84 117 93
85 119 96
82 114 92
84 117 93
84 117 94
83 115 92
85 118 94
82 115 92
85 118 95
84 118 94
84 116 93
84 117 94
85 118 94
84 117 94
84 118 94
86 120 96
84 117 94
189 103 64
220 104 59
225 106 60
226 107 61
224 106 60
226 107 61
225 106 61
231 109 63
224 106 61
223 106 61
219 104 60
221 105 61
212 100 58
209 100 58
205 97 56
199 95 55
198 94 55
189 89 51
184 87 50
172 83 48
166 80 47
160 77 45
159 77 44
151 74 43
143 71 41
122 92 67
86 120 97
86 121 97
86 120 97
85 120 97
86 120 97
85 119 95
86 121 98
86 120 97
86 120 97
86 120 97
86 120 97
86 120 97
86 120 97
85 119 96
85 119 96
85 118 95
84 118 95
85 119 96
85 119 96
85 119 96
84 117 94
85 118 95
84 118 95
83 116 93
84 117 94
83 116 93
83 116 93
83 116 93
83 116 93
82 113 90
82 115 93
82 113 90
81 113 91
81 112 89
72 97 78
42 41 42
41 30 38
41 30 39
40 30 38
40 30 38
35 27 34
35 27 33
35 27 34
33 27 33
31 26 31
33 26 33
30 25 30
32 25 30
29 25 30
29 24 31
29 23 29
30 33 34
45 66 57
52 76 65
52 77 66
52 76 65
54 79 67
55 82 70
54 79 68
53 79 68
55 82 70
59 87 75
59 87 74
157 119 73
255 166 66
255 171 67
255 171 67
255 169 67
255 168 66
255 166 66
255 164 65
254 162 65
250 160 64
247 158 63
242 155 62
238 153 62
234 151 61
229 148 60
224 145 59
217 141 57
212 138 56
202 132 54
160 121 69
89 115 91
84 116 93
83 115 92
84 115 92
83 115 92
83 116 93
84 114 91
82 114 91
83 114 91
81 112 89
82 114 91
82 112 89
81 113 90
80 110 87
83 115 92
81 112 89
82 113 90
82 113 90
82 115 93
82 115 93
82 115 92
81 112 89
81 113 91
81 112 90
81 113 90
82 114 92
82 115 93
83 116 93
82 115 93
82 115 93
82 115 92
83 116 94
84 91 89
90 58 88
91 59 90
93 59 91
93 60 93
93 60 93
92 59 91
92 59 91
92 59 93
90 59 92
90 59 92
88 58 91
87 57 91
86 56 90
85 54 86
81 52 82
81 52 84
76 49 79
76 50 81
71 47 76
65 43 69
65 44 72
62 42 68
62 42 69
62 43 70
58 41 65
79 109 91
83 117 95
82 117 95
83 117 95
82 116 94
83 117 95
83 117 95
82 117 95
82 116 94
82 116 94
83 117 95
82 116 95
82 116 94
82 116 95
82 117 95
82 116 95
83 117 95
83 117 95
82 116 95
83 117 95
82 116 95
82 117 95
82 117 95
82 116 95
83 117 95
82 117 95
82 117 95
82 117 95
82 116 95
82 116 95
82 116 95
82 117 95
82 116 95
82 117 95
82 116 95
82 117 95
82 116 95
82 117 95
82 117 95
82 116 95
82 117 95
82 116 95
82 116 94
82 116 95
82 116 94
82 116 95
82 116 95
81 116 95
82 116 94
82 116 95
82 116 95
81 115 94
81 116 95
86 120 96
86 119 95
84 118 94
85 119 95
85 119 94
83 115 91
68 97 76
26 50 32
17 43 23
17 44 23
16 43 22
16 43 22
17 44 23
17 44 22
16 43 22
16 42 22
16 42 21
16 42 21
14 38 19
15 38 20
34 41 39
41 43 46
41 43 47
41 43 47
41 43 47
45 46 49
67 66 63
86 82 75
81 78 72
57 57 56
42 44 47
38 41 45
38 41 45
37 40 44
37 40 44
36 39 43
36 39 43
35 38 42
34 37 41
34 36 40
31 33 36
68 93 76
87 122 97
87 123 99
87 122 98
87 122 98
87 122 98
86 121 97
87 121 97
87 123 99
87 122 98
87 123 99
87 121 97
86 121 97
87 122 98
87 122 98
86 121 97
86 121 97
87 121 98
86 120 96
86 121 97
85 118 95
86 120 96
86 120 97
87 121 97
86 120 96
85 119 95
86 119 96
84 117 94
85 118 95
85 119 96
85 118 95
84 118 95
85 118 95
85 119 95
85 118 95
86 119 96
86 119 96
86 120 96
86 119 96
181 104 68
208 99 55
214 102 57
214 101 57
214 101 57
213 101 57
214 101 57
215 102 58
212 101 57
214 102 59
216 102 58
213 101 58
205 97 56
199 94 54
194 92 52
190 91 52
187 89 51
183 87 50
170 80 46
161 78 45
152 74 42
156 76 44
146 71 40
148 72 41
141 69 39
121 90 65
87 121 98
86 120 97
86 121 97
86 120 97
85 119 96
85 120 97
87 121 98
86 121 98
85 119 96
86 120 97
86 121 98
86 119 96
85 119 96
85 119 96
86 121 97
85 119 96
85 119 96
85 119 96
84 117 94
85 120 97
85 118 95
84 117 95
84 117 94
85 118 95
83 115 93
83 116 93
82 115 92
82 114 92
82 114 92
82 114 92
81 112 90
81 112 89
80 110 88
79 110 87
79 108 86
71 96 76
44 50 45
33 26 31
34 27 32
34 27 33
33 26 31
33 26 32
34 27 32
32 26 31
32 26 31
30 25 30
29 24 29
28 24 28
27 23 28
25 21 26
26 31 30
42 60 52
49 72 62
50 74 63
50 74 63
52 75 64
54 80 69
51 75 64
55 80 68
56 84 72
55 81 70
56 83 71
133 106 69
255 163 65
255 170 66
255 171 67
255 170 67
255 168 67
255 168 67
255 166 66
255 164 65
252 161 64
249 159 64
245 157 63
241 155 62
237 152 61
232 150 60
227 147 59
222 144 58
217 141 57
212 138 56
203 133 54
187 122 50
144 115 69
84 116 93
83 115 92
84 117 94
84 116 93
84 117 94
83 116 93
83 114 91
83 114 91
83 115 92
83 115 92
83 116 93
83 114 91
82 115 92
82 115 92
82 114 91
82 114 91
82 115 92
83 115 93
82 115 93
82 114 92
82 114 92
82 115 92
82 114 91
83 116 93
82 114 92
83 117 94
82 115 93
82 115 93
82 115 92
82 115 93
83 116 93
84 97 89
85 55 83
86 56 84
87 56 85
89 57 88
89 57 88
88 56 85
87 56 86
87 56 87
87 56 88
85 55 86
82 53 83
83 54 86
83 54 85
82 53 83
78 50 80
74 47 75
73 47 75
71 45 72
66 43 69
63 42 68
60 40 65
62 42 67
60 40 63
56 39 62
59 42 65
81 112 93
82 116 95
83 117 95
82 117 95
83 117 95
82 116 95
83 117 95
82 116 95
82 117 95
82 116 94
82 116 94
83 117 95
82 117 95
82 116 94
82 117 95
83 117 95
83 117 95
82 116 95
83 117 95
82 117 95
82 117 95
82 117 95
82 117 95
82 117 95
82 116 95
82 117 95
82 116 94
82 117 95
82 117 95
82 116 95
82 117 95
82 117 95
82 117 95
82 117 95
82 116 95
82 116 94
82 116 95
82 116 95
82 116 95
82 116 95
82 116 95
81 116 94
82 116 95
82 116 95
82 117 95
82 116 95
82 117 95
82 116 95
82 116 94
82 116 95
81 116 94
82 116 94
81 116 94
87 122 97
86 121 96
84 117 93
84 117 93
82 115 90
80 111 88
70 98 78
57 82 65
35 56 43
16 40 22
15 40 20
14 39 20
16 41 21
14 39 20
14 38 19
14 39 20
14 36 19
13 35 18
12 33 17
29 37 34
40 42 45
41 43 46
41 43 47
40 43 47
44 46 48
75 73 68
139 130 113
169 157 135
137 128 112
78 75 70
44 46 48
38 41 45
37 40 44
37 40 44
36 39 43
36 39 43
35 38 42
35 38 42
34 37 41
33 35 39
32 33 36
32 35 36
80 112 90
87 122 98
88 123 99
87 122 98
87 122 98
87 122 98
87 121 97
87 123 99
87 122 98
87 122 98
86 121 97
88 123 99
87 121 98
87 123 99
87 122 98
87 122 98
87 121 98
87 121 97
86 120 97
86 120 97
86 120 97
87 121 97
87 122 98
88 123 99
86 120 97
86 120 97
86 121 97
86 121 97
86 120 96
86 120 97
86 120 96
87 122 98
85 120 96
86 121 97
86 120 96
87 121 97
87 120 96
86 120 97
151 104 73
199 95 53
200 96 53
201 96 53
209 99 56
206 97 55
204 96 54
208 99 56
209 100 57
203 97 55
198 95 54
199 94 53
197 93 53
187 89 50
177 85 48
184 88 50
168 80 45
166 79 44
159 76 43
147 72 41
144 70 39
143 70 39
140 69 39
133 66 36
125 63 35
109 94 71
86 120 97
86 120 96
87 121 97
86 119 96
86 121 97
86 120 97
86 120 97
86 120 97
86 120 96
86 120 97
86 120 97
85 118 95
85 120 97
85 120 96
86 121 98
86 121 97
85 118 95
84 118 95
85 119 95
85 119 96
85 119 96
84 116 94
85 119 96
83 116 93
83 115 92
83 115 92
83 115 92
83 115 92
81 113 91
80 111 88
80 110 87
79 109 87
80 111 88
76 104 82
76 104 82
74 102 80
68 92 72
46 57 48
32 30 32
32 25 30
31 25 30
31 25 29
32 26 31
30 24 29
31 25 30
30 24 28
28 23 27
24 20 24
22 19 23
27 35 32
38 55 47
42 60 51
43 63 54
46 68 58
47 68 59
49 72 62
49 71 60
53 78 67
53 78 67
55 81 69
56 81 69
85 88 69
248 157 65
255 167 65
255 170 66
255 170 67
255 169 67
255 172 73
255 177 83
255 173 80
255 165 69
252 161 64
248 158 63
244 156 62
240 154 62
235 151 61
230 149 60
226 146 59
221 143 58
215 140 57
210 137 56
204 132 54
192 126 51
178 115 47
112 115 83
84 117 94
85 118 95
84 117 94
84 116 93
84 116 93
83 117 94
83 116 94
83 115 92
83 117 94
83 116 93
83 115 92
83 115 92
83 115 92
83 115 93
84 116 93
83 116 93
83 116 94
83 116 93
82 115 92
83 116 94
82 115 93
83 115 93
83 116 94
83 117 94
82 115 93
83 116 93
81 114 92
83 116 93
83 116 94
82 115 93
82 101 89
82 52 78
85 54 82
85 55 83
86 55 83
83 53 81
85 54 83
84 54 84
84 55 85
82 54 83
82 54 84
80 53 82
80 53 82
77 49 77
75 48 75
73 46 73
73 47 75
68 45 72
65 42 67
62 42 67
59 41 65
60 40 63
62 41 65
56 38 60
54 38 59
57 50 64
82 115 94
82 116 94
82 116 94
83 117 95
83 117 95
83 117 95
82 115 94
83 117 95
83 117 95
82 116 94
82 117 95
83 117 95
83 117 95
83 117 96
83 117 96
82 117 95
82 116 94
82 116 94
82 117 95
82 117 95
83 117 95
82 117 95
82 117 95
82 117 95
82 116 94
82 116 95
82 117 95
82 117 95
82 117 95
82 117 95
82 117 95
82 117 95
82 116 94
82 117 95
82 117 95
82 116 95
82 116 94
82 117 95
82 117 95
82 116 95
82 117 95
82 116 95
82 116 95
82 116 95
82 116 95
82 116 95
82 116 95
82 116 95
82 116 95
82 116 95
82 116 95
82 116 95
82 116 95
86 120 95
85 118 93
84 117 92
84 117 93
81 112 88
75 105 83
68 96 76
55 79 64
42 62 51
33 49 40
23 39 29
17 34 21
12 30 16
12 31 16
10 29 14
10 28 15
9 25 13
9 21 12
20 28 24
38 41 43
40 42 45
40 42 45
40 43 46
40 43 46
52 52 53
105 99 88
167 155 134
177 165 142
132 123 108
69 67 63
42 44 47
37 40 44
37 40 44
36 39 43
36 39 43
35 38 42
35 38 42
34 37 41
34 36 40
32 34 38
32 34 37
29 31 33
48 64 54
86 121 97
88 123 99
88 123 99
87 122 97
87 122 99
87 122 98
87 123 98
87 122 98
88 122 98
87 121 97
87 122 98
87 121 98
87 122 98
87 121 97
87 122 98
87 122 98
86 121 98
87 122 98
87 121 98
87 121 97
87 122 98
86 120 97
87 121 98
86 120 97
86 121 97
87 122 98
87 121 98
86 120 96
87 121 97
86 119 96
86 119 96
86 120 97
86 120 96
86 119 96
86 120 96
87 121 97
87 121 98
128 109 82
185 89 48
193 92 51
190 91 50
192 92 51
192 91 51
194 92 52
195 94 52
189 91 51
186 89 50
184 88 49
182 88 49
179 85 48
169 81 45
161 78 44
157 76 43
156 76 43
142 70 39
134 66 36
144 70 39
145 71 39
134 66 36
138 68 37
127 64 35
116 58 31
93 104 82
87 121 97
86 121 97
86 121 97
86 120 97
86 120 97
86 121 98
86 121 97
85 119 95
86 120 97
86 120 97
85 119 96
86 121 97
85 119 96
85 118 95
85 119 96
86 120 97
84 118 95
85 119 96
85 118 95
85 118 95
85 118 96
85 119 96
84 117 94
84 117 94
83 115 93
83 115 92
83 115 93
82 114 91
82 114 91
81 112 89
80 111 88
78 107 85
78 108 86
77 106 84
75 102 80
74 102 80
68 92 72
53 72 57
33 46 38
25 30 27
26 22 24
27 22 25
27 21 25
24 19 23
25 19 23
21 17 20
19 17 18
25 34 29
33 46 37
33 48 40
37 54 46
41 59 49
45 65 55
46 66 56
50 73 62
49 71 61
49 72 61
51 76 65
52 77 67
55 81 69
55 81 70
187 127 65
255 163 63
255 165 64
255 167 65
255 169 66
255 173 75
255 198 110
255 214 132
255 195 111
255 168 76
251 160 64
246 157 63
242 155 62
238 152 61
233 150 60
229 148 59
224 145 58
219 142 57
213 139 56
207 135 55
202 130 53
192 124 51
177 116 47
155 110 55
86 117 94
84 117 94
83 117 94
84 116 93
84 116 93
83 117 95
84 117 94
84 116 93
84 117 94
84 117 94
83 116 94
84 117 94
83 117 95
84 116 93
83 116 94
83 117 94
83 117 94
83 117 95
83 116 93
83 116 94
83 117 94
83 116 94
83 116 94
82 116 94
83 116 93
83 116 93
82 116 94
82 115 93
82 115 93
82 116 94
81 109 90
77 51 74
79 51 75
80 51 75
82 52 78
81 52 78
81 52 79
79 51 76
78 51 78
79 51 79
76 50 77
76 50 77
74 48 74
75 48 75
71 45 70
66 43 67
65 42 66
61 40 63
60 39 61
59 39 62
56 38 59
55 38 59
56 38 59
52 36 56
51 36 56
59 67 67
82 116 94
82 116 94
82 115 94
82 117 95
82 117 95
83 117 95
81 115 94
83 117 95
83 117 95
82 116 94
83 117 95
82 116 95
82 116 94
82 117 95
82 117 95
82 117 95
82 117 95
82 117 95
82 116 95
82 116 95
82 117 95
82 117 95
82 117 95
82 117 95
82 117 95
82 116 95
82 117 95
82 117 95
82 117 95
82 116 94
82 116 94
82 116 95
82 117 95
82 117 95
82 117 95
82 117 95
82 116 95
82 116 95
82 116 95
82 117 95
82 116 95
82 117 95
82 116 95
82 117 95
82 116 95
82 117 95
82 116 95
82 116 94
82 116 95
82 116 95
82 116 95
82 116 95
82 116 95
85 119 95
84 118 93
84 117 93
82 113 89
81 112 88
78 109 86
69 96 75
57 81 65
45 66 53
37 55 45
29 43 35
35 51 43
25 36 30
21 30 25
16 23 18
17 26 20
19 29 24
29 41 34
33 38 37
38 41 43
40 42 45
39 42 45
40 42 46
40 43 46
51 51 52
83 79 72
114 107 94
101 96 85
72 69 65
46 47 48
38 40 44
37 40 43
36 39 43
36 39 43
35 38 42
35 38 42
34 37 41
34 36 40
33 35 39
31 34 37
31 32 35
29 30 33
26 29 31
74 103 83
88 123 99
88 123 98
88 123 99
88 122 98
88 123 99
88 123 99
88 122 98
88 123 99
88 123 99
87 122 98
87 122 98
87 121 98
88 123 99
88 122 98
87 122 98
88 123 99
87 123 99
87 122 98
87 122 98
87 121 98
87 121 97
87 122 98
86 120 96
87 121 97
87 121 97
87 121 97
87 122 98
87 122 98
87 121 97
87 120 96
87 122 98
87 121 97
87 120 97
86 120 96
86 120 96
87 121 97
100 118 93
168 85 48
179 86 47
181 87 47
182 87 48
179 86 47
175 84 46
174 84 46
178 86 48
176 86 47
170 82 45
165 81 44
163 78 43
157 76 42
147 72 39
139 69 37
139 70 38
143 70 38
141 68 36
133 65 34
125 63 33
126 64 35
126 63 34
121 62 33
102 60 36
90 117 93
85 119 95
86 120 97
86 121 97
85 118 95
86 120 96
85 119 95
86 120 97
86 119 95
86 120 96
85 119 96
85 119 96
85 118 95
86 119 96
86 120 97
85 119 96
85 119 96
86 120 97
84 117 95
85 118 95
85 119 96
85 119 96
84 118 95
83 116 93
84 118 95
84 117 94
82 114 92
83 115 92
82 114 91
81 112 89
82 113 91
80 110 87
80 111 89
79 108 86
77 105 83
75 103 81
74 100 78
73 99 77
66 90 70
54 73 58
40 55 44
30 42 34
22 29 24
20 28 23
18 22 18
18 25 20
21 28 22
22 31 26
31 45 38
36 52 43
40 56 47
39 56 48
43 60 51
47 67 57
49 71 60
50 74 63
49 73 62
52 76 64
53 78 67
54 79 67
58 85 72
97 97 73
248 155 62
255 162 62
255 165 64
255 166 64
255 167 67
255 183 91
255 227 146
255 234 155
255 195 112
255 166 74
249 158 63
244 156 62
240 154 61
236 151 60
231 149 60
228 146 59
223 144 58
217 140 57
212 138 56
206 133 54
197 125 51
187 121 49
175 112 46
168 110 45
113 114 83
85 119 96
84 117 95
84 118 95
83 118 95
84 118 95
84 117 94
84 117 94
83 116 94
83 116 94
84 117 95
83 116 93
84 117 95
83 116 94
83 116 94
83 115 93
84 117 95
83 117 95
84 117 95
84 118 95
82 115 92
82 116 94
83 116 93
83 116 94
82 115 93
81 114 93
82 115 93
82 114 92
82 115 92
82 116 94
82 115 93
74 65 74
72 47 68
75 48 71
76 50 73
77 49 73
76 49 72
76 49 73
74 48 72
73 48 72
73 48 72
71 47 72
70 46 70
69 44 67
66 43 65
62 40 60
59 38 59
57 38 58
53 36 54
55 37 57
52 34 52
52 35 53
52 35 53
50 35 53
48 34 52
67 86 76
82 116 94
83 117 95
82 116 94
83 117 95
82 116 94
83 117 95
82 117 95
82 116 94
83 117 95
83 117 95
83 117 95
83 117 96
82 116 95
82 116 94
82 116 94
82 117 95
82 116 95
82 116 95
82 117 95
83 117 95
82 116 95
83 117 95
82 116 95
82 117 95
82 117 95
82 117 95
82 116 95
82 117 95
82 116 95
82 116 95
82 117 95
82 116 95
82 117 95
82 116 95
82 117 95
82 117 95
82 117 95
82 117 95
82 117 95
82 116 95
82 116 95
82 117 95
82 116 95
82 117 95
82 117 95
82 116 95
82 117 95
82 116 95
82 116 95
82 116 95
82 116 95
82 116 95
82 116 95
85 118 93
84 117 93
84 117 92
82 114 89
82 113 89
83 115 91
78 108 85
71 99 77
65 91 72
58 82 65
47 67 53
40 59 47
40 58 47
33 49 40
34 51 42
32 47 39
37 55 46
35 50 42
36 39 41
38 40 43
38 41 44
39 41 44
39 41 45
39 42 45
42 44 46
49 49 50
55 54 54
49 49 50
41 43 46
38 40 44
37 39 43
36 39 43
36 39 42
35 38 41
35 38 41
34 37 40
33 36 40
33 35 38
32 34 38
30 32 36
29 31 34
28 30 33
26 27 30
54 74 61
87 123 98
88 123 99
87 122 98
88 123 99
88 123 99
87 122 98
88 123 99
88 123 99
88 123 99
88 123 99
88 123 99
88 123 99
88 122 98
88 123 99
88 122 98
88 123 99
88 123 99
87 123 99
87 122 98
88 123 99
87 122 98
87 122 98
87 122 98
87 122 98
87 122 98
87 121 98
87 122 98
87 121 98
87 121 97
87 122 97
87 121 97
86 120 96
87 121 97
87 121 97
87 121 97
86 120 97
86 120 96
136 93 65
167 81 43
166 81 43
165 80 43
164 80 43
157 77 41
159 78 41
155 76 41
158 77 42
153 75 41
152 75 40
140 69 37
136 67 36
126 63 34
126 64 34
126 63 33
127 64 34
131 63 32
131 64 33
122 61 32
119 60 31
115 59 30
104 55 28
92 83 62
84 117 94
84 117 94
85 118 95
84 117 94
86 120 97
85 118 95
85 120 97
85 118 95
85 118 95
86 119 96
86 120 96
86 120 97
91 122 99
91 122 99
87 120 97
85 119 95
85 119 96
85 119 95
86 120 97
85 119 96
85 119 96
84 118 94
84 117 94
85 118 95
84 118 95
84 116 93
84 117 94
83 115 93
83 115 93
83 115 93
82 114 91
82 113 90
80 110 88
80 110 87
80 109 87
77 106 84
77 106 84
75 103 81
75 102 80
73 99 77
69 93 72
65 89 69
52 71 56
46 63 50
45 63 51
41 58 48
38 53 43
43 61 51
40 57 48
42 58 49
46 65 54
46 67 57
47 67 56
50 71 60
52 76 64
55 80 67
58 84 70
61 88 73
65 91 75
67 95 78
70 99 81
166 125 75
252 157 60
255 160 61
255 160 62
255 161 62
255 166 67
255 180 90
255 203 121
255 200 118
255 172 83
252 160 65
246 156 62
243 154 61
239 152 61
234 150 60
230 147 59
226 145 58
220 141 57
215 139 56
207 134 54
202 129 52
194 125 51
183 118 48
178 116 48
165 108 44
139 106 59
84 118 96
84 117 94
84 118 96
84 117 94
83 117 94
84 116 93
84 117 95
83 116 93
84 118 95
84 117 94
82 115 93
84 118 95
83 116 93
83 116 93
84 117 94
83 116 93
82 115 93
83 116 93
83 116 93
83 116 94
82 115 93
83 116 94
82 115 93
82 115 92
83 116 93
82 114 92
82 115 93
82 116 93
82 115 93
82 115 93
76 89 81
68 45 65
70 46 66
73 47 69
72 47 68
69 45 66
71 46 66
71 46 67
67 44 65
66 44 65
63 43 63
64 43 65
61 40 60
59 39 58
54 35 51
54 36 55
52 35 53
53 35 53
52 35 54
52 35 52
47 33 49
47 32 47
45 32 48
50 45 55
79 110 91
81 114 93
81 115 93
81 114 93
81 114 92
81 115 93
82 116 94
81 115 94
81 115 93
81 115 94
81 115 93
82 117 95
82 116 94
82 117 95
82 116 94
82 116 94
82 117 95
82 116 94
82 117 95
82 116 95
82 117 95
83 117 95
82 116 95
82 117 95
82 117 95
82 117 95
82 116 95
85 117 95
88 116 94
87 117 94
83 117 95
82 116 95
82 116 95
82 116 95
82 116 94
81 116 94
82 117 95
82 116 95
82 116 95
82 116 95
82 116 95
82 117 95
82 117 95
82 117 95
82 117 95
82 116 95
82 117 95
81 116 94
82 116 95
82 117 95
82 117 95
82 117 95
82 116 94
82 116 94
86 120 95
85 119 94
85 119 95
84 117 92
83 116 91
81 113 88
83 116 91
82 113 89
80 110 86
78 108 84
75 104 81
72 100 78
71 98 78
68 95 75
65 90 71
65 91 72
63 89 70
59 80 65
36 39 41
37 39 42
37 40 42
38 40 43
38 40 43
38 40 43
38 40 44
38 41 44
38 41 44
38 40 44
37 40 43
36 39 43
36 39 42
35 38 41
35 37 41
34 37 40
34 36 40
32 35 38
32 34 38
31 33 37
30 33 36
29 32 35
28 30 33
27 28 31
26 28 30
38 49 43
86 120 96
88 123 99
88 122 98
88 123 99
88 123 98
88 123 99
88 123 99
88 124 99
87 122 98
88 123 99
88 124 100
87 122 98
88 123 99
89 124 100
88 123 99
88 123 99
88 122 98
88 123 99
87 121 97
88 122 98
87 122 98
87 122 98
87 121 98
88 122 98
88 122 98
87 122 98
87 122 98
87 121 98
87 122 98
87 122 98
87 121 97
87 122 98
86 119 95
87 120 96
87 120 96
86 119 96
86 120 97
103 109 85
144 73 39
147 73 37
154 75 40
147 73 38
150 74 39
148 73 38
147 72 38
143 71 38
132 67 35
131 65 34
116 60 30
110 57 28
112 58 29
121 61 31
118 60 31
119 60 31
120 61 31
109 58 29
111 57 28
115 57 28
96 53 26
91 50 26
80 98 78
78 109 88
79 111 90
78 109 88
78 110 89
80 112 91
81 113 92
83 115 93
82 114 92
108 128 106
172 167 146
205 189 168
221 199 179
224 202 183
225 202 184
215 195 177
201 186 168
175 168 149
133 142 123
90 121 98
86 121 97
84 118 95
85 119 95
84 117 94
85 118 95
84 117 94
84 116 93
84 117 94
83 116 93
83 115 93
83 116 93
82 114 91
80 110 88
83 115 93
81 113 90
80 110 88
79 108 86
80 111 88
78 107 85
78 107 85
77 106 84
76 105 83
76 104 82
76 104 82
74 101 80
73 100 79
72 98 77
69 95 76
71 97 77
69 95 76
68 95 76
69 95 76
70 96 77
71 98 79
75 103 83
71 98 79
76 106 85
76 108 87
77 107 86
79 110 89
80 111 89
80 112 90
202 138 69
253 157 60
253 157 60
252 157 60
254 159 61
255 160 63
255 164 71
255 168 78
255 165 74
251 159 65
246 155 62
242 153 61
238 152 60
234 149 59
231 147 59
228 145 58
223 143 57
219 139 56
209 134 54
204 131 53
195 125 51
187 119 48
175 114 47
168 110 44
166 108 43
153 100 42
91 117 93
84 118 95
84 117 95
84 119 96
84 117 94
83 116 94
83 117 95
84 117 94
84 116 94
83 117 94
83 116 94
83 116 94
84 117 94
83 116 94
84 118 95
83 116 94
83 116 94
83 116 94
83 116 93
82 116 93
82 115 93
83 115 93
82 115 93
80 112 91
83 117 95
81 114 92
81 114 92
81 114 92
82 114 92
81 114 92
80 111 91
66 53 64
63 41 58
65 43 61
66 43 62
66 43 61
65 42 60
64 42 62
63 42 61
61 41 60
59 40 59
54 38 54
52 36 52
50 34 49
45 30 42
45 31 45
45 31 44
47 31 45
43 30 42
48 31 44
45 31 44
46 32 48
45 33 49
57 71 66
75 107 88
75 107 88
75 108 88
75 107 88
76 108 88
76 109 89
76 108 89
77 109 90
78 112 91
78 111 91
79 112 92
79 113 93
79 112 92
80 113 92
79 112 91
81 115 94
81 114 92
81 115 94
82 117 95
82 116 95
82 115 94
82 117 95
82 116 94
118 118 93
176 118 85
211 119 80
222 119 78
235 118 73
235 118 73
222 116 74
211 114 74
181 114 80
149 114 86
91 116 94
82 117 95
82 116 95
83 117 95
82 116 95
82 116 95
82 116 95
82 117 95
82 116 95
82 116 94
82 117 95
82 117 95
82 117 95
82 117 95
82 116 94
82 116 95
82 116 95
82 117 95
82 116 95
82 116 95
82 116 95
86 121 96
87 121 96
86 120 95
85 119 95
85 118 93
85 118 94
84 117 93
83 116 91
83 116 92
83 115 90
83 115 91
83 115 91
82 113 89
83 115 91
82 114 90
81 113 89
82 115 91
61 82 67
35 37 39
36 38 40
36 39 41
37 39 42
37 39 42
37 39 42
36 39 42
37 39 43
37 39 42
36 39 42
35 38 41
35 37 40
35 37 41
34 36 40
34 36 40
32 35 38
32 35 38
31 34 37
30 32 36
30 32 35
29 31 34
27 30 33
26 29 31
25 27 30
24 26 28
24 27 28
84 117 94
88 123 99
88 123 99
88 123 99
88 124 100
88 123 99
88 124 100
88 123 99
88 124 99
88 123 99
88 123 99
88 123 99
88 122 98
88 123 98
88 124 100
88 124 100
88 123 99
87 121 97
88 123 99
87 122 98
87 122 98
87 122 98
86 120 96
87 122 98
87 121 97
87 122 98
87 122 98
87 120 96
87 121 97
88 122 98
87 120 96
87 121 97
87 121 97
86 119 95
86 120 96
86 120 96
86 118 94
86 119 95
109 86 61
119 62 30
130 66 33
123 63 31
126 64 32
125 63 32
116 60 29
121 63 32
118 60 30
101 55 26
100 54 27
96 52 24
100 54 26
108 55 26
106 54 26
107 56 27
101 54 26
106 55 27
102 53 26
92 50 24
92 48 23
71 69 54
64 89 74
65 93 77
64 91 76
69 99 82
70 100 83
72 102 84
72 102 84
120 131 112
204 187 166
245 217 196
245 217 197
242 215 196
240 213 195
236 211 193
233 209 191
230 206 189
227 203 187
223 200 185
218 196 181
204 185 170
153 151 134
101 126 104
85 118 95
85 118 95
85 118 95
85 119 96
85 119 96
85 118 95
84 118 95
83 115 92
84 117 94
83 117 94
84 116 93
82 114 92
82 115 92
81 113 90
81 112 90
81 113 91
81 112 89
81 112 90
80 110 88
80 111 89
79 110 87
80 109 86
80 110 88
79 110 87
79 109 86
79 110 87
80 110 87
81 111 88
79 110 88
81 112 89
80 111 89
81 112 89
81 112 90
81 113 91
82 114 91
81 114 91
83 115 93
82 114 92
83 115 93
86 116 93
227 144 61
244 151 57
247 153 58
252 157 60
249 155 60
252 158 61
249 155 61
244 153 61
246 155 61
239 151 59
242 152 60
235 149 59
232 147 58
230 147 58
226 144 57
222 141 56
216 137 55
210 135 54
205 131 52
200 125 50
191 121 48
175 112 45
174 112 45
165 108 43
158 104 41
155 99 39
105 114 86
84 118 95
84 118 95
84 118 95
84 118 95
84 117 94
85 119 96
83 117 94
84 118 95
84 116 93
83 116 93
83 118 95
83 117 94
84 117 95
83 116 94
83 116 94
82 115 93
83 115 93
82 115 93
83 117 94
83 116 94
82 114 92
81 113 91
82 115 92
82 114 92
81 113 91
81 113 91
81 113 91
80 112 89
80 112 90
80 113 91
73 94 80
57 38 53
58 38 53
58 39 52
58 39 54
57 38 53
58 38 53
55 37 52
54 37 52
51 36 50
48 34 48
42 30 42
44 30 42
42 29 40
42 29 40
40 27 36
41 28 38
41 30 42
40 28 38
39 28 38
36 28 39
44 41 49
62 89 76
63 92 77
64 94 79
65 95 80
63 92 78
65 95 80
67 98 82
67 97 81
69 100 83
70 102 85
70 101 83
72 104 86
73 105 87
75 107 88
76 108 89
75 107 88
77 110 90
78 111 91
78 112 92
80 114 93
80 114 93
82 114 92
134 117 91
226 122 79
255 124 74
255 124 73
255 123 73
254 122 72
250 120 71
246 118 70
241 116 70
237 115 69
232 112 67
227 110 66
214 108 67
166 109 78
105 115 91
82 117 95
82 117 95
82 116 94
82 116 95
82 117 95
82 117 95
82 116 95
82 116 95
82 115 94
82 117 95
82 116 95
82 116 95
82 117 95
82 116 95
82 117 95
82 116 95
82 116 95
82 116 95
87 122 97
87 122 97
86 121 96
87 121 97
86 120 95
86 120 95
85 118 94
85 119 94
87 121 96
84 118 93
85 119 95
84 118 93
85 119 94
84 117 93
84 118 93
84 117 93
84 117 93
55 73 62
34 37 38
35 38 40
35 38 40
35 38 40
36 38 41
36 38 41
36 38 41
35 38 41
35 38 41
35 38 41
34 36 39
34 36 39
33 36 39
33 35 38
33 35 38
31 33 37
31 33 37
30 33 36
29 31 34
28 30 33
27 29 32
26 28 30
25 27 30
25 27 29
23 24 26
23 25 26
77 107 86
88 124 100
88 123 99
88 123 99
89 125 100
88 123 98
88 123 99
88 124 100
88 123 99
88 123 99
88 122 98
88 123 99
88 123 99
88 123 98
88 122 99
88 123 99
88 123 99
88 122 99
87 121 97
88 124 99
88 123 99
88 123 99
88 122 98
88 122 98
87 121 97
88 122 98
87 120 96
87 122 98
87 121 97
87 121 97
87 121 97
87 120 96
86 119 95
86 118 94
87 120 96
86 119 95
86 119 95
86 118 94
86 115 92
95 71 47
109 58 28
103 55 26
106 56 27
104 56 27
97 54 25
100 55 26
99 54 26
93 52 24
94 52 24
93 52 24
95 51 23
95 52 24
85 49 21
86 49 22
87 49 22
87 49 22
88 47 21
76 42 19
67 52 36
55 73 61
54 78 66
57 82 70
57 82 70
57 81 69
59 86 72
79 99 84
188 171 152
247 218 197
249 220 199
247 219 198
243 216 197
240 214 196
237 212 194
234 210 192
231 207 191
227 204 188
224 202 186
221 199 184
218 196 181
214 193 179
209 189 175
193 177 163
127 138 118
85 118 95
85 119 96
85 118 95
85 119 96
85 119 96
85 118 94
85 118 94
84 117 94
85 118 95
84 117 95
85 118 95
83 115 93
83 115 92
83 115 92
83 115 92
82 114 91
82 115 92
82 113 91
81 113 90
82 114 91
82 113 90
81 112 90
81 113 90
82 113 89
81 112 89
83 116 93
83 115 92
82 114 92
82 114 91
81 113 91
82 114 91
83 116 93
82 114 91
83 116 93
83 115 92
82 114 92
83 116 93
83 116 93
99 119 93
225 141 55
233 144 54
238 148 56
241 149 57
239 149 57
240 149 57
243 152 59
238 149 58
236 148 58
236 149 58
233 147 58
230 145 57
223 141 55
221 140 55
219 138 54
215 135 53
208 133 53
202 129 51
194 124 49
187 120 48
177 112 44
168 108 43
164 108 43
159 104 41
159 105 42
155 99 39
111 111 80
84 117 95
84 117 94
84 118 96
84 117 95
84 117 95
84 118 95
84 118 95
84 117 95
84 117 94
83 116 94
84 118 95
82 115 93
82 116 93
83 116 94
83 116 94
82 115 93
83 116 93
83 115 93
82 116 94
82 115 93
82 115 93
81 113 91
80 112 91
81 113 91
81 114 92
81 114 92
80 111 89
78 109 88
79 111 89
79 110 89
79 110 89
63 75 67
51 35 48
51 35 47
51 35 47
50 34 46
50 35 47
48 34 45
44 31 41
43 31 42
37 28 37
37 28 39
33 26 32
39 29 39
32 25 32
37 28 37
36 27 35
38 27 35
38 28 39
31 25 33
35 30 39
50 70 62
54 81 70
56 83 72
56 83 72
57 85 73
55 82 70
59 87 74
60 88 75
58 87 74
61 90 77
62 92 78
64 93 78
66 96 81
66 96 80
68 98 83
70 101 84
71 103 86
73 105 87
74 107 88
76 108 89
77 109 89
104 111 89
215 120 80
255 126 74
255 127 74
255 126 74
255 124 73
255 123 73
254 122 72
250 120 71
245 118 71
241 117 70
237 115 69
232 113 68
227 111 67
222 108 65
216 106 64
202 104 65
146 108 80
84 116 94
82 116 95
82 116 95
82 117 95
82 117 95
82 116 94
82 117 95
83 117 95
82 116 95
82 117 95
82 116 95
82 116 95
82 116 94
82 117 95
82 116 94
82 116 95
82 116 95
89 124 99
88 123 99
88 123 98
87 121 97
87 122 97
87 121 97
86 119 95
86 120 96
86 120 96
85 119 95
87 121 97
87 121 96
86 121 96
87 121 97
85 119 95
86 120 95
86 120 95
46 59 51
33 36 37
34 37 39
34 36 38
34 36 38
35 37 39
35 37 40
35 37 40
34 37 39
33 36 38
33 35 38
33 35 38
32 34 37
31 33 36
31 33 36
31 33 36
29 32 35
29 32 35
28 30 33
28 30 32
26 28 31
25 27 29
23 25 27
24 26 29
24 26 27
23 24 26
23 24 25
77 107 86
88 123 98
88 124 99
88 123 99
88 123 99
88 123 99
88 123 99
87 122 98
88 124 99
88 123 98
88 123 98
88 123 99
89 123 99
88 123 99
88 123 99
88 123 98
88 123 98
87 121 97
88 122 98
88 122 98
87 122 98
88 122 98
88 121 97
87 121 97
87 121 97
87 120 96
87 121 97
87 121 97
87 120 96
87 120 96
86 118 94
87 121 97
86 118 94
87 118 94
86 117 93
86 117 92
86 118 95
84 115 91
85 116 92
85 107 84
90 66 42
92 51 23
91 51 23
90 51 23
96 53 24
93 52 23
95 53 23
91 51 23
90 50 21
92 51 23
83 49 21
81 48 21
81 48 21
76 46 20
75 46 20
76 45 20
69 41 18
62 45 28
49 68 57
50 71 60
53 77 65
54 77 66
53 77 66
54 77 66
103 106 92
217 193 172
251 221 199
249 220 199
247 219 198
243 217 197
241 215 196
238 213 194
235 211 193
232 208 191
229 206 189
225 203 187
222 200 185
219 198 183
215 195 181
211 191 178
207 188 175
204 185 171
195 177 164
143 145 128
86 120 97
86 119 96
85 117 94
84 118 94
85 119 96
85 118 95
84 117 94
84 118 95
84 117 94
85 118 95
85 118 95
83 115 93
84 117 94
84 117 94
84 117 94
84 117 94
83 116 93
84 117 94
84 118 95
83 116 93
82 114 91
83 116 93
83 116 93
83 115 92
83 116 94
83 116 93
83 116 93
83 116 93
83 116 93
82 115 93
83 116 93
84 117 94
83 115 93
82 116 93
84 117 94
84 117 94
82 115 92
100 118 91
224 139 52
236 147 55
228 140 52
236 146 56
234 146 55
228 142 54
231 145 56
226 141 54
227 142 55
226 142 55
222 140 55
222 140 55
217 137 53
211 132 51
209 132 52
206 130 51
195 125 49
191 123 48
184 119 47
178 114 45
170 108 43
167 108 43
162 104 41
158 104 41
156 101 39
145 96 37
113 107 74
85 119 96
84 117 95
84 117 94
84 117 95
84 118 95
84 118 95
83 117 94
84 118 96
83 117 95
82 115 93
84 117 95
83 117 94
83 117 94
84 118 95
83 117 94
83 117 94
83 116 94
82 115 93
82 114 92
81 114 92
82 113 90
81 113 91
80 112 90
82 115 93
80 112 90
80 111 89
78 109 87
78 109 87
78 108 87
77 107 85
76 106 84
76 105 84
57 70 61
42 31 40
42 31 40
43 31 41
42 31 40
38 29 36
36 28 34
34 27 32
33 26 33
32 26 32
30 25 30
30 25 31
31 25 31
29 24 30
30 24 30
30 25 31
29 24 31
31 27 34
49 70 62
52 78 67
52 77 66
54 80 69
56 83 71
55 82 70
56 84 72
55 82 71
58 86 74
57 86 74
58 86 74
57 86 74
58 87 75
59 88 75
61 90 77
63 93 78
65 96 81
67 98 82
70 101 85
71 103 86
71 103 85
124 110 86
246 123 76
255 127 74
255 128 75
255 127 74
255 126 74
255 125 73
255 123 73
254 122 72
250 120 71
245 118 71
241 116 70
236 115 69
231 113 68
226 110 67
222 108 65
215 106 64
210 103 63
201 99 60
165 101 70
91 115 93
82 117 95
82 116 94
82 117 95
82 116 94
82 117 95
82 116 94
82 116 95
82 116 95
82 117 95
82 117 95
82 117 95
82 117 95
82 116 94
82 116 95
82 116 95
88 124 99
88 123 98
88 123 98
88 123 98
88 124 99
88 123 99
87 122 98
88 123 98
87 122 98
87 122 98
87 123 98
88 124 99
87 122 97
87 121 97
86 120 96
88 123 99
88 123 99
51 68 58
31 34 35
32 35 37
32 35 36
32 35 37
33 35 37
33 36 38
33 35 37
33 36 38
32 35 37
32 34 36
31 33 36
30 33 35
30 32 35
30 32 35
28 31 33
28 30 33
27 29 32
26 28 30
25 27 30
23 26 28
23 26 28
21 24 25
23 25 27
21 24 25
22 23 24
22 24 24
75 104 84
88 123 98
88 124 99
88 124 99
87 122 98
88 122 98
88 124 99
87 122 98
88 123 99
88 123 99
88 123 99
88 123 98
88 123 99
88 123 99
88 123 98
88 123 99
88 122 98
88 122 98
88 122 98
89 123 99
88 122 98
88 122 98
88 122 98
88 122 98
88 122 98
87 121 97
88 121 97
88 122 98
87 119 95
87 120 96
87 120 96
87 120 96
87 119 95
86 117 93
86 118 94
85 117 93
85 116 92
84 115 91
83 112 88
82 112 89
82 109 86
86 73 50
85 49 21
87 50 21
89 50 21
93 52 22
88 50 21
88 50 22
87 50 21
89 50 22
82 47 20
79 46 20
78 45 19
71 43 18
65 39 17
61 37 16
50 43 31
44 61 51
46 64 54
48 68 58
49 69 58
49 69 58
54 77 65
88 95 83
228 201 180
249 219 197
250 221 199
248 219 198
245 217 197
242 215 196
240 214 195
236 211 193
233 209 191
229 206 190
227 204 188
223 201 186
220 199 184
216 196 181
213 193 179
210 190 177
206 187 174
201 183 171
197 178 166
190 169 156
141 142 126
86 119 96
85 119 96
84 116 93
86 120 97
85 118 95
85 119 96
85 119 96
85 118 95
85 118 95
85 119 96
85 119 95
85 119 95
85 119 95
85 118 95
84 117 94
84 117 94
84 117 94
84 118 95
85 118 95
84 118 94
83 116 94
84 118 95
83 116 94
83 115 92
85 118 95
84 118 95
83 114 91
84 118 95
85 118 95
84 117 94
85 118 95
83 117 94
84 117 94
83 116 94
85 118 96
84 117 94
104 118 90
211 132 48
228 142 53
226 141 53
222 138 52
221 138 52
227 141 54
219 137 52
218 136 52
214 134 51
219 138 53
219 138 54
212 134 52
206 129 50
202 127 49
197 125 49
192 122 48
191 122 48
185 119 47
171 112 44
164 105 41
164 107 42
159 103 40
154 98 38
155 101 39
146 98 38
143 95 37
109 106 75
84 118 95
84 119 96
84 119 96
84 117 94
84 116 94
84 118 95
84 118 96
83 116 94
84 118 95
83 117 94
83 116 93
83 117 94
83 117 94
83 117 94
82 115 93
83 116 94
82 115 93
83 115 92
82 114 92
82 115 93
81 113 91
82 114 92
80 112 90
81 112 90
80 112 90
79 109 88
78 108 87
77 107 86
77 107 85
75 104 83
76 104 83
74 102 80
73 100 79
56 73 59
34 32 33
32 26 31
32 25 31
32 25 31
33 26 31
33 27 32
30 25 30
30 25 30
30 25 30
28 24 28
28 24 28
27 24 28
26 22 27
26 22 27
32 36 37
45 65 56
49 72 62
50 73 63
51 76 66
53 79 67
52 78 67
55 82 70
55 82 71
57 84 72
55 82 71
58 86 74
57 85 73
57 86 74
57 85 73
58 86 74
58 86 74
60 89 76
62 91 78
64 94 80
66 96 80
67 97 81
120 105 82
250 121 73
255 127 74
255 128 75
255 128 75
255 127 74
255 126 74
255 124 73
255 123 73
253 121 72
248 120 71
245 118 70
240 116 69
236 114 69
231 112 68
226 110 67
221 108 65
216 106 64
210 103 63
203 100 61
191 95 58
163 95 64
91 115 93
82 116 95
82 117 95
82 117 95
82 115 94
82 116 95
82 116 95
82 116 95
82 116 94
82 117 95
82 116 94
82 116 95
82 116 94
82 117 95
82 116 95
89 125 100
89 125 100
89 125 100
88 123 99
88 123 98
88 123 99
89 124 100
89 124 100
88 123 98
89 125 100
88 123 98
88 123 99
88 124 99
87 121 97
88 124 99
88 123 99
87 122 97
56 75 62
30 32 33
31 33 34
30 32 33
31 34 35
31 34 35
31 34 35
31 33 35
31 34 35
31 33 35
30 33 35
29 31 33
29 31 33
28 30 32
27 29 32
27 30 32
26 28 30
26 28 31
24 27 28
22 25 27
22 25 27
21 24 25
21 23 25
21 24 25
22 24 25
19 21 21
21 23 23
76 105 85
88 123 99
88 123 98
88 124 99
89 124 99
88 123 99
88 123 98
89 124 100
88 123 99
88 124 100
88 124 99
88 123 99
88 123 99
89 123 99
88 122 98
88 123 99
88 123 99
88 122 98
88 122 97
88 123 99
88 122 98
88 122 98
87 121 97
88 121 97
87 121 96
88 122 98
87 121 97
87 122 98
86 119 95
86 117 93
87 120 96
86 118 94
86 117 93
86 117 93
85 116 92
85 116 92
83 113 90
83 113 89
82 111 87
81 110 86
77 104 81
67 89 69
68 67 49
81 49 26
86 48 20
82 47 20
83 47 20
80 46 19
82 46 20
79 45 19
73 42 18
75 43 18
69 40 17
54 33 14
46 32 18
39 41 32
41 57 47
39 54 45
45 61 51
46 64 54
44 64 55
50 72 61
65 80 68
216 190 168
249 219 196
250 220 198
248 219 198
244 217 197
244 217 198
248 221 201
247 221 201
238 213 195
232 208 191
227 204 188
225 202 186
221 199 184
217 197 182
214 194 180
211 191 178
207 188 175
203 185 172
200 182 169
196 178 166
190 169 157
179 161 151
124 130 111
85 119 96
85 120 96
86 120 97
85 119 96
85 119 96
86 120 97
86 120 97
85 118 95
85 118 95
85 119 96
85 119 96
85 119 96
86 119 96
85 119 96
85 118 95
85 119 96
85 118 95
85 118 95
84 118 95
84 118 95
84 118 95
84 117 94
85 118 95
84 117 94
84 117 94
85 119 95
84 116 93
84 117 94
85 117 94
85 119 95
85 118 95
85 117 94
84 117 94
85 118 95
85 118 95
88 118 94
199 127 50
217 135 50
215 133 49
214 134 50
211 132 49
212 133 50
213 133 50
210 132 50
210 132 51
208 132 51
204 129 50
202 129 49
195 125 48
196 124 48
185 118 45
181 116 45
175 112 44
167 108 42
162 106 41
161 103 40
156 101 39
156 100 38
146 95 36
151 96 37
141 94 36
133 89 34
105 108 79
84 116 94
83 117 94
84 118 95
84 118 95
84 118 95
84 117 94
83 116 94
83 117 94
83 117 95
83 117 94
83 117 94
83 117 95
83 117 94
83 116 93
83 115 93
83 115 93
83 116 93
82 114 92
82 115 93
82 114 92
82 114 92
80 111 89
80 112 91
80 111 89
79 110 88
79 110 88
78 107 86
78 108 86
76 105 84
75 103 81
75 105 83
73 100 78
71 97 76
71 96 75
57 77 60
38 42 38
29 24 28
29 23 27
32 25 30
31 25 29
31 24 29
31 24 29
29 24 29
28 23 28
25 21 26
24 20 25
22 20 24
27 35 33
40 59 50
47 68 58
46 68 58
50 73 63
49 72 62
52 78 67
52 78 67
53 79 68
54 79 68
55 80 68
55 81 69
54 81 70
56 84 72
57 85 73
59 87 75
57 86 73
58 87 74
58 87 74
61 90 77
63 92 78
64 94 80
95 98 80
244 121 74
255 125 72
255 128 74
255 128 75
255 128 75
255 127 74
255 125 74
255 124 73
255 123 72
251 121 72
247 119 71
244 118 70
240 116 69
235 114 68
230 112 67
225 110 66
220 108 65
215 105 64
209 103 63
203 100 61
195 97 59
184 91 56
150 97 68
83 116 94
82 116 95
83 117 96
82 116 95
82 116 95
82 117 95
82 116 94
82 116 95
82 117 95
82 116 95
82 117 95
82 116 94
82 116 95
82 116 95
89 124 99
89 124 99
89 125 100
89 125 100
89 125 100
89 124 99
88 123 99
88 124 99
89 125 100
88 123 99
88 123 99
89 125 100
88 124 99
88 124 99
87 122 97
89 124 100
88 123 98
66 91 74
27 30 31
29 31 32
29 32 33
29 32 33
29 32 33
29 31 33
29 32 33
29 32 33
28 30 32
28 31 32
27 30 32
26 29 30
27 29 31
25 28 30
24 26 28
24 26 28
23 25 27
22 24 26
20 23 24
20 23 24
20 22 23
21 24 25
19 22 22
20 23 23
19 22 22
23 30 27
85 119 96
88 122 98
88 121 97
88 123 99
87 122 98
88 122 97
89 124 99
89 124 99
88 124 99
88 122 98
87 121 97
88 122 98
87 122 98
88 122 98
88 123 99
89 123 98
88 123 99
88 122 98
87 121 97
88 122 98
88 122 98
88 123 99
88 123 98
88 121 97
87 120 96
87 121 97
88 120 96
88 121 97
87 121 97
86 120 96
86 117 93
86 118 94
85 116 92
85 116 92
85 116 92
84 114 90
84 114 90
82 109 85
82 110 86
81 108 84
76 101 78
67 89 69
53 70 54
38 50 39
50 41 29
63 39 21
60 35 16
63 35 15
62 35 15
57 33 14
52 30 13
42 27 13
37 28 18
31 36 28
29 40 33
34 46 38
37 51 43
42 58 48
44 59 49
49 71 60
48 67 56
50 71 60
166 150 132
242 212 189
246 216 194
247 217 195
245 217 196
247 219 198
255 235 211
255 254 226
255 242 217
244 219 198
230 206 189
226 203 186
222 200 184
219 197 182
217 195 180
213 192 178
208 189 176
205 186 173
200 183 171
197 180 168
193 176 164
187 169 157
180 162 151
158 144 132
97 122 99
86 120 97
86 120 96
86 120 97
85 118 95
85 120 97
85 119 96
85 120 97
85 119 96
85 119 96
85 119 96
85 119 96
86 119 96
85 118 94
86 119 95
84 118 95
86 120 96
85 118 94
85 119 96
85 119 96
86 120 97
85 118 95
85 119 96
84 118 95
85 119 95
84 118 94
85 118 95
85 118 95
84 117 94
84 118 95
85 119 96
84 117 93
84 118 95
85 118 95
85 117 94
86 118 94
180 121 56
203 126 46
208 130 48
211 131 49
209 131 49
201 126 47
199 125 47
194 123 46
197 124 46
196 125 47
198 126 48
191 122 46
185 117 44
184 116 44
168 108 41
166 108 41
156 102 39
149 98 38
154 100 38
157 99 38
149 94 35
149 96 36
141 93 34
142 94 35
142 94 36
129 88 33
90 112 87
84 119 96
84 117 95
84 118 96
84 117 95
84 117 95
83 116 94
84 117 95
83 116 94
84 117 95
84 118 95
83 117 95
83 116 94
83 116 94
83 116 93
83 117 95
83 116 93
82 115 93
82 115 93
82 114 92
82 115 92
81 113 91
81 114 92
80 112 90
79 110 88
80 111 90
78 108 87
76 104 83
78 108 86
77 106 85
76 105 84
74 101 80
72 99 77
70 95 74
70 94 73
63 84 65
50 67 52
29 37 31
24 24 24
28 24 26
27 22 25
28 22 26
25 20 24
22 18 21
20 17 20
22 24 23
24 32 28
31 44 37
38 54 45
38 55 46
41 60 51
44 66 56
47 68 58
51 75 64
51 75 64
51 76 65
51 76 66
53 78 66
54 80 69
55 83 71
55 82 71
55 83 71
56 84 72
58 87 75
58 86 74
58 87 74
60 90 76
63 93 78
65 95 80
68 99 83
197 112 75
255 123 70
255 126 73
255 128 74
255 128 74
255 128 75
255 130 78
255 130 80
255 127 77
255 123 73
251 120 71
247 119 70
243 117 70
238 115 69
233 113 68
229 111 67
226 110 66
219 107 65
214 105 64
208 102 62
201 100 61
195 97 59
182 91 56
177 89 54
128 105 80
82 117 95
82 116 95
82 116 95
82 117 95
82 116 95
82 117 95
82 116 95
82 116 94
82 116 95
82 116 95
82 116 95
82 116 95
82 116 95
90 126 101
90 125 100
89 125 100
89 124 99
89 125 100
89 125 100
89 124 100
89 125 100
89 125 100
88 124 99
88 124 99
88 123 99
89 125 100
89 124 99
89 125 100
88 124 99
89 124 99
75 105 84
26 29 29
27 30 30
27 30 31
26 29 30
27 30 30
27 30 30
27 29 30
27 30 31
26 29 30
25 28 29
26 28 29
25 28 29
23 26 27
23 26 27
22 25 27
19 22 23
20 23 24
21 24 25
20 23 23
19 22 22
19 22 22
20 22 22
19 21 21
18 21 21
17 20 19
40 55 45
88 122 98
88 123 99
87 121 97
87 121 97
88 122 98
87 122 98
88 123 98
88 123 98
88 123 98
87 122 98
88 123 98
88 123 98
88 122 98
88 122 98
88 122 98
89 124 99
88 122 98
87 120 96
87 121 97
88 121 97
87 122 99
88 122 98
88 122 97
87 121 97
88 120 96
88 122 98
88 122 98
87 121 97
87 119 94
88 120 95
86 119 95
86 119 94
86 118 94
85 115 91
85 115 91
84 113 89
84 113 89
83 112 88
82 109 85
81 108 83
79 105 81
72 97 76
62 83 64
49 65 51
36 48 39
29 39 31
28 37 30
22 30 24
20 24 19
24 29 22
23 30 23
22 31 25
28 37 30
31 43 35
32 43 35
39 56 47
44 59 49
47 66 55
48 69 58
50 70 59
49 69 58
92 96 83
232 204 180
240 211 188
242 213 192
246 216 195
245 216 195
255 227 204
255 255 229
255 255 239
255 243 218
239 214 195
228 204 187
224 201 184
220 198 182
216 195 180
213 193 178
210 190 176
207 187 174
203 184 171
199 181 168
194 177 166
189 172 161
184 166 155
173 156 146
164 149 139
135 134 119
87 121 97
86 120 96
86 120 97
85 119 96
87 121 97
86 120 97
86 121 97
85 119 96
86 120 97
86 119 96
86 120 96
85 119 96
85 119 96
85 119 96
85 119 96
85 119 95
85 119 96
86 120 97
86 119 96
86 120 97
85 118 95
85 119 96
85 118 95
85 119 96
85 118 95
85 118 95
85 119 96
85 118 95
85 118 94
85 119 95
85 119 96
84 118 95
85 118 95
84 118 95
84 118 95
148 119 73
189 118 42
194 122 44
194 123 44
195 123 45
190 119 44
190 120 44
189 120 45
185 118 44
180 116 43
179 116 43
176 114 43
173 111 42
164 105 39
160 102 38
149 97 37
148 97 37
134 88 32
147 96 36
146 93 35
141 90 33
141 91 34
143 92 34
132 88 32
127 84 31
125 88 42
85 116 93
84 117 94
84 118 95
84 117 95
85 118 95
84 117 94
83 117 94
84 117 94
83 116 93
83 117 95
84 117 94
83 116 93
83 117 94
84 117 95
83 116 93
83 116 93
83 116 93
82 115 93
82 115 93
82 114 92
81 113 91
81 113 90
81 113 91
80 112 90
79 111 89
79 110 88
80 111 89
78 107 86
78 108 87
77 106 84
78 107 85
74 102 81
75 103 81
72 99 78
71 97 75
70 95 74
67 91 70
55 74 57
38 52 41
31 43 34
21 30 24
22 30 25
21 29 24
21 29 24
22 31 26
27 38 31
29 42 35
32 46 38
38 54 46
41 60 51
43 62 53
44 65 55
44 65 55
48 70 60
50 73 63
51 75 64
52 77 66
52 78 67
54 80 69
54 80 68
55 82 71
55 83 71
57 84 72
58 86 74
60 88 75
63 92 78
66 96 81
67 97 81
68 99 82
142 106 80
255 122 70
255 123 70
255 124 71
255 127 73
255 127 74
255 137 86
255 158 109
255 161 113
255 139 90
255 124 75
250 120 71
246 118 70
242 116 69
238 115 68
233 113 67
228 111 66
223 109 65
219 107 64
213 104 63
207 102 62
201 99 60
193 96 59
183 91 56
175 88 54
164 87 55
92 112 90
82 116 95
82 116 94
82 117 95
82 116 95
83 117 95
82 117 95
82 116 95
82 117 95
82 117 95
82 116 94
82 117 95
82 116 94
90 126 101
89 125 100
90 125 101
89 125 101
89 125 100
89 125 100
89 125 100
89 125 100
89 124 99
89 124 99
89 124 99
89 125 100
88 124 99
89 124 100
88 124 99
89 124 100
88 123 99
88 123 99
40 54 46
25 27 28
24 27 27
25 28 29
25 28 28
24 27 27
25 28 28
24 27 28
24 27 28
24 27 28
23 25 26
21 24 24
21 24 25
21 24 24
20 23 24
18 21 21
18 21 21
18 21 21
18 21 21
18 21 20
19 21 21
19 21 21
18 21 21
18 20 20
17 19 18
64 88 71
88 122 98
87 122 98
88 122 98
87 121 97
88 123 98
87 121 97
87 121 97
89 123 99
87 121 97
88 122 98
88 124 99
88 122 98
88 123 99
89 123 99
88 123 98
88 123 99
88 123 98
88 121 97
87 122 97
88 122 98
87 121 97
88 122 97
87 121 97
88 121 96
88 122 98
88 122 98
87 120 96
87 120 96
86 119 95
88 121 97
86 118 94
87 118 93
85 117 92
86 118 93
85 116 92
86 116 92
84 115 90
83 112 88
84 114 90
82 111 87
81 108 84
79 105 81
77 102 79
70 93 72
63 83 65
53 72 58
46 62 49
40 55 45
39 51 41
35 47 38
33 44 36
40 55 45
37 49 40
40 55 45
45 63 52
44 63 52
47 66 55
48 66 56
52 72 60
55 77 64
58 81 68
167 151 132
234 205 182
236 208 186
240 211 190
240 211 190
241 213 192
253 225 202
255 243 216
255 239 214
245 219 198
230 206 188
225 201 184
221 198 182
218 196 180
214 193 178
212 191 176
208 188 174
204 185 171
200 182 169
195 178 166
190 173 162
186 168 157
178 162 152
168 154 145
164 146 135
155 140 127
94 123 101
86 120 96
86 120 97
86 121 97
86 120 96
85 119 96
85 119 95
87 121 97
87 121 98
86 120 96
86 120 97
86 120 97
85 119 96
85 120 96
86 120 97
86 120 97
86 119 96
86 119 96
85 119 96
86 119 96
85 119 95
86 120 97
85 119 95
85 118 95
85 119 96
85 118 94
85 119 96
85 118 94
85 119 95
85 119 96
84 118 95
84 117 94
85 118 94
85 118 95
84 117 94
108 115 86
177 112 39
182 114 40
182 115 41
186 117 42
185 116 42
177 113 41
174 109 40
168 108 39
170 110 41
163 106 39
160 104 39
159 103 38
152 100 37
139 91 33
136 90 33
139 92 34
139 94 35
141 93 35
132 86 31
136 88 32
133 87 32
128 84 30
122 82 29
128 82 30
109 97 66
84 117 94
83 116 93
84 118 95
83 116 94
84 117 94
84 118 95
83 116 94
84 117 94
83 116 94
84 117 95
84 117 95
83 116 93
83 117 95
83 116 94
84 117 94
83 117 94
83 117 94
83 116 94
82 115 93
82 115 93
82 115 93
82 116 94
82 115 92
81 112 90
81 112 90
81 113 91
81 113 91
80 111 89
81 112 90
78 109 87
78 108 86
77 107 85
76 104 82
74 101 80
73 100 79
72 98 77
69 94 73
71 96 75
66 90 69
61 83 65
53 73 57
45 62 50
41 58 48
37 53 43
37 51 42
38 53 45
40 58 48
37 54 45
40 59 50
42 61 51
44 64 55
49 71 61
49 72 62
50 74 63
50 73 63
51 76 65
53 78 67
54 80 69
56 83 71
57 84 71
57 84 72
62 90 76
64 93 78
66 94 79
67 97 80
69 100 83
71 101 84
73 105 86
76 108 89
213 114 73
255 121 69
255 123 70
255 125 71
255 125 72
255 131 80
255 167 118
255 206 156
255 190 141
255 147 99
254 124 75
249 119 70
245 117 70
240 116 69
236 114 68
232 112 67
228 110 66
222 108 65
216 106 64
212 104 63
206 101 61
199 98 60
191 95 58
180 90 55
179 89 54
171 86 52
122 102 77
82 116 95
82 116 94
82 117 95
82 115 94
82 116 95
82 117 95
82 117 95
81 116 94
82 116 94
82 117 95
82 116 95
82 116 94
89 125 100
90 126 101
89 125 100
89 125 100
89 125 100
89 125 101
89 124 100
89 124 100
88 124 99
89 124 99
89 124 100
89 124 100
88 124 99
90 126 101
88 124 99
88 124 99
88 123 98
88 123 99
67 93 75
22 25 25
23 26 26
22 25 24
22 26 25
23 27 27
21 24 24
21 25 24
21 24 24
19 23 23
19 23 23
19 22 22
17 20 19
18 21 21
17 20 20
17 20 20
17 20 20
18 21 21
16 19 18
17 20 19
16 19 18
17 20 19
17 20 19
14 17 15
27 36 29
81 113 91
85 119 96
85 118 94
85 118 94
86 120 96
85 119 96
87 121 97
87 120 96
87 121 97
87 122 98
87 121 97
88 122 97
88 122 98
88 123 99
88 122 98
88 123 99
88 121 96
88 122 98
88 122 98
89 123 98
88 122 98
88 122 97
87 121 96
88 121 97
88 122 98
87 121 97
88 122 98
88 122 98
88 121 97
87 120 96
87 120 96
87 119 94
86 118 94
87 118 93
86 117 93
86 118 94
85 116 92
85 115 91
85 115 91
85 115 91
83 112 88
83 111 87
82 111 86
82 110 86
81 109 85
80 108 85
76 103 80
73 97 75
68 91 71
63 85 66
61 82 65
59 80 64
61 84 67
58 78 63
61 83 67
64 87 71
62 85 69
67 92 74
68 94 76
69 95 77
71 98 79
84 103 85
213 188 164
229 200 178
231 203 181
235 207 185
235 207 186
235 207 187
240 212 191
244 216 194
238 212 191
231 205 187
226 201 183
222 199 182
219 196 180
216 194 178
211 190 175
207 187 173
204 185 171
200 181 169
193 176 164
190 173 161
186 169 157
181 165 154
173 156 146
161 147 136
162 146 135
161 142 129
126 130 112
86 120 97
87 121 97
86 120 97
86 121 97
86 120 97
86 121 97
86 120 97
86 120 97
86 120 97
87 121 98
87 121 97
86 120 97
86 119 96
85 119 96
86 120 96
86 119 96
85 119 96
86 119 96
86 119 95
86 119 96
84 117 94
86 119 95
85 119 95
85 118 95
86 118 95
86 119 95
85 117 93
85 119 95
85 117 94
85 117 93
85 119 96
85 117 94
84 116 93
85 116 93
85 116 92
148 105 53
165 104 36
171 110 38
169 108 38
168 106 38
162 103 36
160 102 36
155 101 36
153 99 36
154 101 37
145 96 35
133 88 31
128 86 31
123 82 29
118 81 28
117 81 29
121 82 29
125 86 31
117 80 28
123 82 29
119 77 27
118 79 27
116 80 28
102 72 25
88 107 82
82 113 90
81 114 92
82 114 92
81 113 91
82 114 92
82 114 92
81 113 91
82 115 92
82 115 93
83 116 94
83 117 94
83 116 94
83 116 94
84 118 95
82 116 93
83 116 94
83 118 95
82 115 93
83 115 93
83 117 94
82 114 92
82 114 92
82 115 93
82 114 92
82 113 91
81 114 92
81 113 91
81 112 90
79 110 89
80 111 89
79 110 88
78 108 86
78 109 87
77 107 86
78 108 87
76 104 83
77 106 84
73 101 80
74 102 81
73 99 78
72 98 77
71 98 77
69 95 75
65 89 71
66 90 72
61 85 69
59 83 67
56 78 64
55 77 63
56 80 66
58 82 68
58 83 69
58 84 70
60 85 70
62 88 73
62 88 74
64 92 76
65 93 77
65 93 77
68 97 80
70 100 83
70 100 82
73 103 85
75 106 87
74 104 85
76 108 88
78 110 90
77 108 88
121 112 87
245 115 65
254 118 67
255 120 68
255 122 70
255 123 71
255 136 86
255 177 129
255 205 156
255 176 128
255 137 89
253 121 72
249 119 70
243 117 69
240 115 68
236 113 67
231 111 66
227 110 65
222 108 64
216 105 63
211 103 62
204 100 61
196 97 59
185 92 56
181 90 55
179 89 54
172 86 52
161 88 56
86 115 93
83 116 94
82 116 95
82 117 95
82 116 94
82 117 95
82 116 95
82 117 95
82 117 95
82 116 95
82 116 95
81 115 94
90 126 101
90 126 101
90 126 101
90 126 101
89 124 100
89 125 100
90 126 101
89 124 100
89 124 100
89 125 100
89 125 100
88 124 99
89 124 99
89 125 100
88 123 98
89 124 100
88 123 98
88 123 98
86 121 97
39 53 43
20 23 22
19 23 22
20 23 22
19 23 22
19 23 22
20 23 23
19 22 22
18 22 21
17 20 19
17 21 20
17 20 19
16 19 18
16 20 19
15 18 17
14 17 16
15 18 16
14 17 16
14 17 16
16 18 17
14 18 15
15 18 16
12 15 13
59 82 67
77 108 88
76 108 88
78 109 88
79 111 90
81 109 90
85 108 95
87 106 96
91 106 100
90 105 99
89 108 98
87 115 97
87 122 98
87 121 97
87 121 97
88 122 98
87 122 97
88 123 98
88 122 98
88 123 98
88 121 96
88 122 97
88 123 99
88 123 99
87 119 95
88 120 96
88 121 97
87 121 97
88 122 97
88 121 96
88 121 96
87 120 96
87 120 96
87 119 95
87 120 96
87 120 96
87 119 95
86 119 95
85 116 92
85 116 92
85 116 92
84 115 91
85 116 92
85 115 91
85 117 93
84 112 88
83 112 87
83 113 89
82 112 88
83 112 88
83 112 88
81 109 85
81 111 88
80 109 85
79 107 84
81 110 88
81 110 87
81 110 87
82 112 89
82 113 90
83 115 92
84 116 92
129 136 114
220 193 170
222 194 172
229 201 179
229 202 181
231 204 183
229 203 183
229 201 180
229 201 182
229 201 182
226 200 182
223 196 179
220 196 178
217 194 177
212 190 174
208 187 172
206 185 170
197 178 165
193 174 162
188 170 157
181 165 154
177 161 150
172 157 147
161 148 138
162 149 139
160 143 131
155 140 129
136 132 118
86 120 96
86 121 97
87 121 97
86 121 97
86 120 96
87 121 98
86 120 97
86 120 97
86 120 97
86 120 96
86 119 96
86 120 96
86 119 96
86 119 96
86 120 96
86 120 96
87 120 97
86 120 96
86 120 97
85 119 96
85 119 95
85 119 96
85 120 96
85 120 96
86 119 95
85 118 94
85 117 94
85 118 95
85 117 94
85 117 94
84 118 94
85 118 94
85 117 93
84 116 92
85 117 93
105 111 81
147 94 33
152 97 33
156 101 35
151 98 34
147 95 32
146 94 33
143 95 33
140 93 33
130 88 31
130 89 32
121 83 29
102 73 24
111 76 26
108 76 26
112 77 26
119 80 27
119 82 28
114 77 26
108 73 24
105 70 23
108 73 25
105 71 24
89 85 57
74 103 84
74 104 85
74 104 85
75 105 86
73 103 84
75 106 86
76 108 88
77 109 88
77 108 87
78 111 90
79 111 90
79 112 90
80 112 91
80 113 91
81 114 92
81 114 93
83 116 94
82 115 92
83 116 93
82 114 92
83 115 93
102 125 104
137 144 124
142 147 127
141 147 127
138 144 125
109 128 107
94 119 98
81 112 90
82 114 92
81 112 90
79 109 87
80 111 89
80 111 89
79 110 88
79 111 89
79 109 87
79 110 88
79 110 89
76 105 84
75 103 82
77 107 85
78 107 86
75 104 83
76 104 83
75 104 83
76 104 83
76 105 84
76 105 84
75 104 83
75 105 84
76 105 85
75 105 84
74 103 83
75 105 85
76 106 85
76 107 86
77 108 88
76 107 87
78 109 88
78 110 89
79 112 91
79 111 90
80 113 92
80 113 92
80 113 92
82 114 93
81 114 92
82 115 94
164 113 81
245 115 64
252 118 67
255 118 67
255 119 68
255 123 71
255 128 79
255 153 105
255 159 112
255 140 93
254 124 75
249 119 70
245 117 69
242 115 68
239 114 67
233 112 66
228 110 65
224 108 64
217 105 63
213 103 62
206 101 61
201 99 60
192 95 57
183 91 55
176 88 54
163 82 49
170 85 51
168 84 50
107 109 86
82 116 94
82 117 95
82 117 95
83 117 95
82 116 94
83 117 95
82 116 95
82 116 95
82 117 95
81 115 94
82 116 94
90 126 101
89 124 100
89 125 100
90 126 101
89 125 100
89 125 100
89 125 100
89 124 100
89 124 100
89 124 100
89 124 100
88 124 99
88 124 99
88 124 99
88 123 99
88 124 99
88 122 98
88 122 97
88 123 98
75 104 83
24 31 27
17 21 19
18 21 20
18 22 20
18 22 20
16 20 18
18 21 20
17 20 19
15 19 18
16 20 18
15 19 17
14 18 16
14 18 16
13 17 14
13 17 15
13 17 14
13 17 15
13 17 14
12 16 13
13 16 14
13 16 14
32 46 39
60 86 72
63 91 76
69 91 80
83 89 92
98 79 105
103 71 110
103 70 110
103 68 110
102 67 109
101 67 108
100 66 107
99 67 105
96 75 103
91 95 99
88 113 97
87 121 97
87 121 96
87 122 98
88 122 97
87 121 97
87 121 97
87 121 97
88 122 98
88 122 98
87 120 96
88 122 98
87 121 97
88 121 97
87 120 96
88 121 97
88 121 97
87 120 95
87 120 96
88 121 97
87 120 95
87 119 94
87 118 94
86 119 94
86 117 93
87 119 95
87 118 94
85 117 93
85 116 92
85 115 91
86 117 93
86 118 94
84 114 90
84 113 89
85 116 92
85 115 91
84 114 90
84 116 92
84 115 91
84 115 91
85 117 93
84 115 91
84 114 90
85 116 93
85 115 91
85 115 90
86 118 94
85 118 94
154 152 128
216 189 166
221 194 173
224 198 176
222 196 174
223 196 175
224 197 177
222 195 175
221 196 177
220 194 175
217 192 175
217 192 174
214 190 174
210 188 172
207 186 170
200 180 165
196 176 164
193 175 162
186 169 158
182 166 154
179 163 153
171 156 145
161 147 137
158 145 136
153 141 130
159 143 131
154 138 125
142 130 116
92 121 99
87 120 96
87 122 98
86 121 97
86 120 97
86 120 97
86 120 97
87 121 97
87 121 97
87 121 97
86 121 97
86 120 96
85 119 95
86 121 98
85 119 96
86 120 97
86 120 97
86 120 97
86 118 95
86 120 96
85 119 96
85 118 94
85 119 95
86 119 96
86 120 96
85 118 95
85 119 95
84 117 94
86 119 95
84 116 92
84 116 92
83 115 92
84 116 92
84 117 93
83 114 91
83 115 92
111 97 60
131 86 28
132 87 29
134 89 30
128 85 28
119 82 27
126 86 29
112 78 26
109 77 26
107 75 25
98 72 24
97 71 23
100 71 23
103 73 23
107 74 24
98 70 22
101 72 23
98 70 22
101 70 23
97 68 22
97 67 23
83 64 31
62 85 71
60 87 73
61 86 72
62 90 75
64 90 75
65 92 76
64 92 77
64 92 77
70 99 82
71 100 83
72 103 84
73 104 85
75 106 86
76 108 88
77 108 88
78 110 90
80 112 91
80 112 91
83 116 94
125 135 115
186 174 153
217 196 176
238 212 192
236 210 191
233 208 190
230 205 188
225 202 186
222 199 183
212 191 176
184 172 156
151 151 134
94 119 99
81 114 92
80 112 90
82 114 92
80 111 89
79 110 89
79 110 89
79 110 88
79 110 89
80 111 89
78 109 88
79 110 88
77 107 86
80 112 90
78 108 86
78 109 87
79 110 88
79 110 88
79 110 89
79 110 89
78 108 87
79 110 89
79 110 89
79 110 89
79 110 88
79 110 88
80 111 90
80 112 90
81 114 92
79 110 89
81 113 91
82 114 92
80 113 91
81 113 92
81 114 93
82 116 94
81 115 93
82 115 94
81 114 92
189 113 77
243 113 63
249 116 66
249 116 65
255 119 67
253 118 68
251 120 70
255 125 76
255 126 77
249 120 71
248 118 69
240 114 67
240 114 67
236 113 66
231 111 65
226 109 64
223 108 64
218 105 63
215 104 62
206 100 60
200 98 59
193 95 57
183 91 55
174 87 53
173 86 52
169 85 51
164 83 49
156 79 47
119 101 77
82 116 94
82 116 95
82 116 94
82 116 95
82 116 94
82 117 95
82 116 95
82 116 95
82 115 94
82 116 94
82 116 95
90 126 101
90 127 102
90 126 101
89 125 100
89 124 99
90 126 101
89 124 100
90 125 100
89 125 100
88 124 99
88 122 97
89 125 100
88 123 99
87 122 98
87 121 97
87 121 97
87 121 97
88 123 98
87 121 97
86 120 95
66 92 73
16 20 18
17 21 19
17 20 18
17 20 19
16 19 17
16 20 17
15 19 17
16 20 18
15 19 17
14 18 16
13 18 15
13 17 15
13 17 14
12 16 13
12 17 14
12 16 13
12 16 13
11 15 12
10 13 11
21 30 25
46 69 58
52 72 64
87 71 94
102 71 108
105 69 111
104 69 111
103 68 110
102 68 110
101 67 109
100 67 108
99 66 107
98 65 107
97 65 106
96 64 104
95 63 103
94 62 102
91 81 98
88 107 97
87 121 98
88 122 98
88 123 98
87 120 96
88 123 98
88 122 98
89 121 97
87 121 97
88 122 98
88 122 98
88 122 97
88 122 98
87 121 97
88 121 97
88 122 98
86 118 94
88 121 96
87 121 97
87 121 97
87 120 96
87 120 95
87 121 96
87 119 95
87 120 96
86 119 95
86 119 95
87 119 95
86 119 95
86 119 95
86 119 94
86 117 93
87 120 95
86 118 94
86 118 94
86 118 94
85 116 92
86 118 94
86 117 93
86 119 95
86 120 96
85 118 94
86 118 93
85 117 93
85 118 94
86 119 95
167 158 135
207 183 159
212 187 164
211 185 164
217 192 171
216 189 168
219 192 172
216 190 171
215 190 170
213 189 170
211 186 168
209 185 167
205 181 164
201 178 163
197 176 161
190 171 157
189 171 157
185 167 154
178 162 150
173 158 148
163 147 137
164 150 140
156 143 134
151 137 127
143 133 121
147 134 121
147 132 118
140 125 109
96 121 99
87 121 97
87 121 97
87 122 98
87 122 98
87 121 97
86 121 98
86 120 96
86 121 97
86 120 96
86 120 97
86 120 97
86 120 97
86 120 96
87 120 97
86 121 97
86 119 96
86 119 95
85 119 96
86 120 97
86 118 95
85 119 95
85 119 95
85 119 95
86 120 96
85 118 94
85 118 95
85 117 93
85 117 93
84 116 92
84 116 92
84 116 92
84 115 91
83 113 89
82 113 90
82 113 89
83 110 86
102 85 48
108 76 24
112 77 24
110 76 24
110 74 24
96 70 21
94 70 21
94 70 22
90 68 21
95 71 23
83 64 20
89 67 20
92 69 22
90 67 20
88 66 20
92 67 21
88 66 21
82 61 19
92 65 21
81 59 21
63 75 59
55 79 67
56 79 67
57 81 69
56 82 70
55 81 68
57 84 71
57 83 71
60 89 75
61 88 74
62 90 76
64 93 78
67 97 81
68 97 81
70 100 82
72 103 85
74 105 86
74 105 86
113 126 106
195 180 159
244 216 195
244 217 196
241 215 195
238 212 194
235 210 192
232 207 190
228 205 188
224 202 186
221 199 184
216 196 181
212 192 178
209 189 175
195 179 165
146 145 129
99 121 100
82 114 92
81 114 92
81 113 91
81 113 91
80 111 90
81 112 90
81 112 90
81 113 91
80 111 89
80 110 88
81 113 91
80 112 90
79 110 89
80 111 90
81 113 92
80 112 90
80 111 90
79 111 89
81 114 92
80 112 91
80 112 91
81 113 91
80 113 91
82 114 92
81 113 91
80 111 90
81 114 92
81 113 92
81 115 93
82 115 93
81 114 93
82 115 93
82 116 94
82 116 94
83 116 94
82 116 94
206 110 70
238 110 61
245 114 64
244 114 64
246 115 65
246 115 65
244 115 66
246 116 67
246 116 67
241 114 66
242 114 66
236 112 65
233 111 65
230 110 64
226 108 63
221 106 62
218 105 62
209 101 60
207 101 60
198 97 57
194 95 57
185 92 55
178 88 53
170 85 51
171 85 51
167 84 50
165 83 49
149 76 44
134 98 72
82 116 95
82 116 94
82 116 94
82 116 94
82 116 94
82 116 94
82 117 95
82 116 94
82 116 94
82 117 95
82 116 95
90 126 101
90 125 101
89 125 100
89 125 100
89 124 100
89 125 100
89 124 99
89 124 100
89 124 99
89 124 100
88 124 99
89 124 100
89 124 99
88 123 98
87 120 96
87 120 96
87 120 96
87 120 95
86 119 94
85 118 94
85 118 94
61 85 67
16 20 17
15 19 16
14 18 16
16 19 17
14 18 15
14 18 15
14 18 15
14 18 15
14 18 14
13 17 14
12 16 13
11 15 12
11 16 12
11 15 12
11 15 12
10 14 11
9 13 10
22 32 28
43 62 53
65 69 74
98 68 103
106 69 112
105 69 111
104 69 111
103 68 110
102 68 110
101 67 109
100 66 108
99 66 107
98 65 107
97 65 106
96 64 105
95 63 104
94 63 103
93 62 101
91 61 100
91 63 97
86 97 94
87 120 97
88 122 98
88 123 98
88 121 97
88 123 99
88 123 99
88 123 98
88 122 98
88 122 98
88 123 99
88 122 98
88 122 98
88 121 96
88 121 97
88 122 98
88 121 97
88 121 97
88 122 97
88 122 97
87 121 96
88 121 97
87 120 96
87 120 96
87 120 96
87 119 95
88 120 96
87 119 95
87 119 95
87 121 97
86 119 95
87 119 95
87 120 96
87 120 96
87 121 97
87 120 95
86 119 95
86 119 95
86 119 94
87 119 95
86 119 95
87 120 96
86 119 95
87 121 97
86 119 95
176 162 139
201 178 154
207 183 160
210 185 164
209 183 162
212 186 165
212 184 164
209 182 163
209 185 166
205 181 162
205 181 163
202 179 161
200 177 160
193 170 154
191 169 154
181 162 149
182 164 151
174 158 145
167 153 141
166 151 140
154 142 132
152 140 130
146 134 123
145 133 121
146 135 123
149 138 125
143 130 116
140 126 111
97 122 100
87 122 98
86 120 96
87 120 97
87 121 98
86 120 96
87 120 97
86 120 97
87 121 97
86 120 97
86 121 97
86 121 97
86 121 97
86 120 97
86 120 96
86 120 97
86 119 96
86 120 96
87 120 96
86 119 95
86 119 95
86 119 94
86 120 96
86 118 95
85 117 94
85 118 94
85 117 93
86 117 93
85 117 93
83 114 91
84 116 92
83 114 89
82 113 89
82 112 89
82 112 89
82 111 88
81 111 87
79 105 81
84 78 45
88 66 19
86 65 19
88 66 19
89 66 19
90 67 20
81 64 18
86 66 19
83 65 19
81 64 19
81 64 19
81 64 19
78 63 18
75 60 17
75 60 18
71 58 17
70 56 17
66 52 19
51 66 52
51 72 59
53 76 64
54 76 64
54 77 65
56 81 68
56 81 68
56 82 69
56 82 70
58 84 71
57 85 73
59 85 72
60 87 73
60 86 73
63 93 78
65 94 79
69 99 82
73 101 84
166 158 139
244 215 193
249 220 198
246 218 198
243 216 196
240 214 195
237 212 193
233 209 192
229 206 190
226 204 188
223 201 186
219 198 183
215 195 181
212 192 178
207 188 175
202 184 172
199 181 168
176 163 151
113 128 110
81 114 92
83 116 94
82 114 92
81 114 92
82 115 93
81 113 92
79 111 90
81 114 92
81 113 91
82 115 93
82 114 92
81 113 91
81 113 91
80 112 90
80 112 90
81 113 91
81 114 93
82 114 92
81 113 92
81 114 92
81 113 91
81 114 93
82 115 93
82 115 93
82 115 93
82 115 93
82 114 93
82 116 93
82 116 94
81 115 93
82 116 94
82 115 93
82 115 93
82 116 94
84 116 94
208 107 65
237 110 61
235 109 61
236 110 61
241 112 63
236 111 62
234 110 63
235 110 62
237 111 64
235 111 63
229 109 62
228 109 62
230 110 63
225 107 62
219 105 61
214 103 60
210 102 60
206 100 59
198 97 57
195 95 56
188 93 55
175 87 52
166 83 50
170 85 51
167 84 50
166 83 49
159 80 47
157 79 47
138 89 62
82 117 95
82 116 94
82 116 94
83 117 95
82 117 95
82 116 94
82 117 95
82 117 95
82 116 94
82 116 95
82 117 95
90 126 101
90 126 101
90 126 101
89 125 100
89 124 100
89 124 99
89 125 100
88 124 99
88 124 99
88 122 98
88 123 98
88 124 99
88 123 98
88 123 98
86 120 96
87 121 97
87 121 96
86 119 94
85 117 93
85 117 93
82 113 89
81 112 89
64 90 71
29 40 32
13 17 13
13 17 14
12 17 13
13 17 14
13 17 13
12 17 13
13 17 13
12 16 13
11 16 13
11 15 12
10 14 11
10 14 11
9 13 11
8 12 10
23 33 27
41 59 50
68 62 74
105 70 110
106 69 111
105 69 111
104 68 111
103 68 110
102 68 110
102 69 109
100 67 108
99 66 107
98 65 107
96 64 106
96 64 105
95 63 104
93 63 103
92 62 102
91 61 101
90 60 99
89 60 98
87 58 94
84 84 92
87 119 97
88 123 99
87 122 98
89 123 98
88 122 98
88 122 98
87 121 97
88 123 98
88 122 98
88 122 98
88 122 98
88 123 98
88 123 98
88 121 97
88 123 99
88 122 98
88 122 97
88 121 97
88 121 97
87 120 96
88 122 98
87 121 97
88 122 97
87 120 96
88 121 96
88 121 96
87 121 96
87 121 96
87 121 97
86 119 95
87 120 96
87 121 97
86 119 95
87 120 96
87 120 96
87 120 96
87 121 97
87 120 96
87 121 96
87 120 96
87 121 97
87 120 95
87 120 96
164 155 131
200 177 154
197 174 151
199 176 154
204 180 158
204 179 158
199 176 156
196 174 154
196 173 153
201 178 160
194 172 154
194 171 153
190 170 153
181 163 148
183 163 149
175 156 141
168 152 138
161 147 136
156 145 133
158 146 136
143 133 122
153 140 129
145 134 122
135 126 115
137 128 115
139 129 115
141 127 110
134 120 103
103 122 100
86 121 97
86 120 97
86 120 97
86 121 97
86 121 98
86 121 97
86 120 96
86 120 97
85 119 95
86 120 97
86 120 97
86 120 96
86 120 97
86 119 95
86 120 96
86 119 95
86 119 95
86 120 96
86 120 96
86 118 94
86 119 95
85 118 95
86 118 94
85 118 94
84 116 93
85 117 93
85 116 91
84 115 92
84 116 93
83 113 89
84 116 93
83 112 88
82 112 88
80 109 85
80 108 84
79 108 84
79 106 83
77 102 79
79 78 49
84 64 20
86 65 19
87 67 19
86 65 19
83 63 18
82 65 19
83 64 18
79 63 18
78 62 17
75 60 17
72 58 17
67 55 16
65 54 15
62 51 15
52 49 26
46 62 50
49 70 58
50 71 59
50 70 58
55 80 68
53 76 64
53 78 66
56 82 69
54 78 65
57 84 71
56 81 69
56 81 69
59 84 71
57 83 71
60 86 73
58 86 73
62 89 75
76 98 82
198 179 158
251 219 195
251 221 199
248 219 198
245 217 197
242 215 196
239 213 194
235 210 193
232 208 191
228 205 189
224 202 187
221 200 185
217 197 182
213 194 180
210 191 178
205 187 175
201 184 172
196 180 169
192 176 165
181 163 152
123 132 115
83 116 94
82 115 93
83 116 93
82 115 92
82 114 92
82 115 93
82 116 93
81 113 91
82 115 93
82 115 93
82 114 92
83 116 94
82 115 93
81 114 92
81 113 92
80 113 91
82 115 93
82 114 92
83 116 94
82 114 92
82 115 93
81 114 93
81 114 92
81 114 92
82 115 93
82 114 93
82 115 93
83 116 94
82 115 93
82 115 93
81 115 93
82 115 93
82 115 93
83 114 92
205 104 62
226 105 58
229 106 58
230 107 59
232 108 61
229 107 60
230 107 61
231 109 62
226 107 60
225 106 60
227 107 62
223 106 61
218 104 60
217 104 60
213 102 59
204 99 57
203 98 57
200 97 57
189 92 54
180 89 52
177 87 52
167 84 50
168 84 50
161 81 48
158 80 47
163 82 48
160 81 47
151 76 44
135 86 59
82 115 94
82 116 94
82 116 94
82 116 94
82 116 95
82 117 95
82 117 95
82 117 95
82 116 94
82 116 94
82 117 95
90 126 101
89 124 99
89 125 100
89 125 101
89 124 100
89 125 100
89 124 100
88 124 99
88 123 98
87 122 97
88 123 98
88 123 98
86 121 96
86 120 95
87 121 96
86 120 96
84 117 93
84 116 92
83 115 91
84 117 92
80 111 87
76 105 83
67 93 73
52 73 59
30 43 35
17 24 20
12 15 12
11 15 12
11 15 12
11 15 12
11 14 11
10 14 11
9 13 10
9 12 10
8 11 9
7 10 8
16 23 19
25 37 31
32 47 40
69 56 73
103 68 108
106 69 111
104 69 110
104 68 110
104 69 110
112 80 115
121 91 120
122 94 121
111 81 114
100 69 108
97 65 105
95 64 104
94 63 104
93 62 103
92 62 102
91 61 101
90 60 100
89 60 98
88 59 97
86 58 94
84 55 90
83 84 92
87 120 97
88 123 99
88 122 98
88 122 98
89 123 98
88 123 98
88 122 98
88 122 98
88 123 99
88 123 99
88 122 98
89 123 98
87 122 98
88 123 99
88 123 99
87 121 97
89 123 99
87 121 96
89 122 97
88 122 98
88 123 98
88 122 98
88 122 97
87 120 96
87 122 98
87 122 98
87 121 96
88 122 97
87 121 97
88 121 97
87 120 96
87 120 96
87 121 97
87 122 98
88 121 97
88 121 97
87 121 97
87 120 96
87 121 97
87 121 97
87 120 96
87 121 98
161 153 130
188 167 144
191 170 147
193 172 149
195 170 148
193 170 150
189 167 147
188 165 145
188 166 146
186 166 147
188 167 149
183 164 146
180 160 143
175 156 141
165 150 134
165 148 135
158 145 132
152 140 127
148 138 127
144 133 122
140 131 119
138 128 116
135 123 110
136 124 111
128 120 106
135 124 108
138 124 108
130 118 100
93 118 95
86 120 96
87 120 96
86 121 97
87 121 97
86 120 97
86 120 96
86 122 98
86 120 96
86 120 96
86 121 97
87 120 95
86 120 97
87 121 97
86 119 95
86 120 96
86 120 96
87 120 96
86 120 97
87 120 96
86 118 94
86 117 93
86 119 95
86 118 94
86 118 94
85 117 93
84 115 90
84 116 92
85 117 93
84 114 90
84 114 90
82 111 87
82 112 87
82 110 86
81 108 84
81 110 86
78 104 80
77 102 78
77 101 77
71 96 73
65 77 56
71 60 30
79 60 17
85 63 18
83 62 17
84 62 18
81 62 18
79 60 17
73 57 16
68 53 15
64 51 15
57 46 13
50 43 18
41 45 31
42 58 48
42 60 50
44 63 52
48 66 55
49 71 59
52 75 62
52 75 63
53 76 64
57 82 70
55 80 68
56 82 69
56 81 69
55 82 70
58 85 72
57 84 72
57 83 71
57 82 69
66 92 77
201 181 160
248 216 192
251 220 198
249 220 199
246 218 198
243 216 196
240 214 195
236 211 193
233 209 192
230 206 190
227 204 188
223 201 186
220 198 184
215 195 181
212 192 179
207 189 177
203 186 174
199 182 171
196 179 168
191 175 164
185 170 160
176 160 150
121 130 115
83 116 94
83 117 95
82 115 93
82 115 93
82 115 93
82 115 93
82 115 93
82 116 93
82 115 93
83 117 94
83 116 94
83 116 94
82 116 94
83 116 94
83 116 93
83 115 93
81 114 93
83 115 93
82 114 92
83 117 94
82 114 92
82 115 93
82 113 91
82 116 94
82 115 93
82 115 93
82 114 92
83 116 94
82 115 94
83 115 93
83 115 93
81 114 92
82 115 93
182 102 66
218 102 55
220 103 56
222 103 57
225 105 59
226 106 59
221 104 58
220 104 58
218 103 58
217 102 58
219 104 59
215 102 58
213 102 59
205 99 57
205 99 57
196 95 55
191 93 54
186 91 53
184 90 53
171 85 49
163 82 48
161 81 48
163 82 48
162 81 48
159 80 47
147 75 43
152 77 44
152 77 45
123 92 67
82 116 95
82 115 94
82 117 95
82 116 95
82 116 94
82 117 95
83 117 95
82 116 95
82 116 94
82 116 95
82 116 95
90 126 101
89 125 100
90 126 101
89 125 100
89 125 100
88 123 98
89 124 99
89 124 100
88 123 98
87 122 97
88 122 98
87 122 97
86 120 95
87 120 96
87 120 96
85 118 93
84 117 92
84 116 92
83 115 91
82 113 89
79 108 85
72 101 80
62 86 69
49 69 56
35 51 43
30 44 37
26 39 32
17 25 20
12 17 13
9 12 10
7 10 8
6 9 7
9 12 10
9 13 11
18 25 20
23 32 27
26 36 30
31 44 36
60 52 65
100 66 105
104 68 109
104 68 110
103 68 109
104 70 110
120 90 119
165 138 148
187 160 163
166 140 149
127 99 123
102 72 108
96 64 105
94 63 103
93 62 102
92 62 101
91 61 100
90 60 99
89 60 98
88 59 97
86 58 96
85 57 94
82 55 91
79 53 86
80 86 89
87 122 97
88 124 99
88 122 98
88 123 98
88 123 99
89 123 98
88 122 98
88 122 98
88 122 98
88 122 98
89 123 98
88 122 97
88 123 98
88 122 97
88 123 99
89 123 98
88 122 97
88 122 98
88 122 98
87 121 97
88 121 97
88 121 97
88 122 98
87 120 96
88 122 97
87 120 96
87 121 97
88 121 97
88 122 98
87 121 97
87 122 98
87 122 98
87 122 98
87 120 96
88 122 97
87 121 97
87 121 96
87 121 97
87 122 98
87 122 98
87 121 97
140 141 118
177 158 134
182 163 140
182 163 140
181 161 139
180 161 140
182 161 141
181 162 142
179 159 140
179 159 140
181 162 143
173 155 137
164 147 131
161 146 130
157 142 127
149 135 122
146 135 123
135 125 113
140 132 120
135 127 115
135 127 114
131 123 110
135 125 112
131 121 108
127 119 105
130 121 105
134 122 104
123 113 95
89 120 97
86 120 96
87 120 97
87 121 97
86 120 97
86 120 96
86 119 96
86 120 97
86 120 96
86 120 96
86 120 97
86 120 96
87 121 97
87 120 96
87 120 95
86 120 97
86 119 95
86 118 94
86 119 95
86 119 95
87 120 96
86 119 95
86 119 95
85 118 94
85 118 94
85 117 93
85 118 94
85 117 93
85 117 94
85 116 92
83 113 89
84 114 90
82 111 87
82 113 89
81 108 83
79 106 82
79 106 82
77 103 79
76 102 78
73 96 73
60 80 61
44 58 44
45 47 33
54 43 18
59 45 16
61 47 13
63 46 13
58 44 12
49 39 12
44 35 12
36 32 16
33 36 24
30 41 33
37 52 42
41 57 47
43 61 51
47 65 54
46 66 55
47 67 56
52 73 61
54 78 65
55 79 67
56 80 67
54 76 64
55 79 66
55 80 68
56 83 70
55 81 68
58 84 72
58 84 71
63 91 77
163 152 133
246 215 191
250 219 197
248 219 197
248 219 198
245 217 197
244 217 197
241 215 196
237 212 193
232 208 191
228 205 188
225 202 186
222 200 184
218 197 182
214 194 180
210 191 178
206 188 175
202 184 173
198 181 170
193 177 167
188 173 163
184 169 160
176 162 153
162 147 138
105 122 104
83 116 94
83 117 95
84 117 95
83 116 94
83 116 94
83 117 94
82 115 93
82 116 93
82 115 93
83 116 94
83 116 94
83 116 94
82 115 92
82 115 93
82 116 94
83 115 93
83 116 93
82 116 94
82 115 93
82 113 91
82 115 93
82 115 93
82 115 93
82 115 93
82 114 92
83 116 94
83 116 94
82 114 92
82 115 93
82 115 93
82 114 92
82 115 93
172 102 68
209 98 53
214 100 54
214 100 54
219 103 57
216 101 56
216 102 57
213 101 56
208 98 55
202 96 54
207 98 55
203 97 55
193 93 52
195 95 54
192 93 53
188 92 53
181 89 51
177 87 50
174 86 50
162 81 47
160 80 47
155 78 46
153 77 45
147 75 43
145 74 42
151 76 44
147 75 43
140 72 41
110 95 72
82 116 94
83 116 94
82 116 95
82 117 95
82 116 94
82 116 94
82 116 95
82 116 94
82 117 95
82 117 95
82 116 94
90 126 101
89 125 100
90 125 100
89 125 100
89 125 100
89 125 100
88 123 98
88 124 99
89 124 99
88 123 98
88 123 98
88 122 97
86 120 96
86 119 94
86 120 95
85 118 94
85 118 93
84 117 93
83 114 90
83 115 90
79 109 86
74 103 81
63 88 70
54 75 61
42 61 50
33 49 41
26 39 32
27 39 33
24 35 29
21 31 26
21 31 25
19 28 23
22 32 26
23 33 27
25 35 29
30 42 35
33 47 39
40 51 46
94 64 98
102 67 107
103 68 109
103 68 109
103 68 109
112 80 114
154 127 141
202 175 173
207 180 176
167 141 149
121 93 119
98 68 106
94 63 103
93 62 102
91 61 101
90 61 100
90 60 99
88 59 98
87 59 97
87 58 96
85 57 95
84 56 93
80 53 88
77 52 86
72 49 79
81 101 90
88 123 98
89 123 98
89 123 99
88 123 99
88 123 98
87 121 97
88 123 99
88 124 99
88 122 97
87 122 98
89 123 99
88 122 98
89 123 99
88 123 98
88 123 98
88 123 99
88 123 99
89 123 99
88 122 98
88 121 97
88 122 97
87 121 97
88 122 98
88 122 98
88 121 97
87 122 97
88 122 97
88 122 98
88 122 98
88 122 98
88 122 98
88 122 97
87 122 98
88 123 99
88 122 98
88 122 98
86 121 97
88 122 98
87 121 97
87 122 98
115 130 105
165 148 123
172 154 132
170 152 130
171 151 129
172 153 131
170 149 129
167 149 128
168 151 131
171 152 133
164 149 129
160 145 127
158 143 127
148 135 118
142 129 115
141 127 113
131 123 109
139 129 117
128 122 109
126 120 106
126 120 104
116 111 95
124 117 103
127 117 103
124 116 99
130 118 100
121 111 93
110 111 92
87 121 97
86 120 97
87 121 97
86 121 97
87 121 97
86 121 97
86 120 96
87 120 96
86 121 97
86 120 97
87 120 96
86 120 97
86 120 96
87 121 97
86 120 96
86 121 97
87 120 96
86 119 95
86 119 95
86 118 94
86 120 96
86 119 95
86 119 95
86 118 94
86 118 95
86 118 94
85 117 93
85 116 92
85 116 92
84 115 91
85 115 90
84 114 89
83 112 88
83 111 87
80 108 84
81 109 85
80 109 85
78 104 80
78 105 80
76 102 78
71 95 72
61 82 62
49 67 52
35 48 37
29 38 29
26 35 28
23 29 22
26 35 27
27 37 30
25 34 27
29 41 33
32 43 34
37 51 41
38 54 43
36 50 40
44 62 51
47 65 54
48 69 57
50 72 60
51 72 60
52 74 61
54 78 65
54 77 65
55 79 67
57 82 69
56 81 69
57 83 70
57 83 71
59 85 71
61 89 75
109 118 101
239 210 186
246 216 193
246 216 194
247 218 196
246 218 197
251 223 200
255 233 209
255 230 207
242 217 197
232 207 190
227 204 187
223 201 185
220 198 183
216 195 181
212 192 179
208 189 176
205 186 174
199 182 171
196 180 168
192 176 165
186 171 162
182 168 159
173 159 150
163 151 143
150 139 128
87 116 94
83 116 94
84 117 95
83 116 93
83 117 94
83 116 94
83 116 94
82 115 93
83 116 94
83 116 94
82 115 93
83 116 93
83 116 94
83 116 93
82 115 93
83 116 94
83 116 94
82 115 93
83 116 94
82 115 93
83 116 94
83 116 94
83 117 95
82 113 91
83 116 94
82 115 93
81 114 92
83 115 92
83 115 93
82 115 94
82 115 93
82 114 92
139 105 77
195 91 49
207 96 52
201 94 51
210 98 54
206 97 53
206 97 53
205 97 54
199 94 52
197 94 52
192 92 51
192 92 52
194 93 53
185 90 51
180 88 50
172 85 48
168 83 47
168 83 48
153 77 44
153 77 44
152 77 44
139 72 41
147 75 43
151 76 44
151 76 44
141 72 41
132 68 38
132 68 38
100 104 81
82 116 94
82 116 94
82 116 95
82 116 95
82 115 93
82 116 94
82 117 95
82 116 94
82 116 94
82 116 94
82 116 94
89 125 100
89 125 100
90 126 101
89 124 99
89 125 100
88 123 99
89 124 99
88 122 97
88 123 98
87 121 97
87 122 97
88 123 98
87 121 96
88 122 98
87 120 96
85 118 94
84 116 92
83 114 90
84 116 91
82 114 90
81 111 87
79 108 85
73 101 80
65 91 72
55 78 63
43 61 50
37 54 45
39 57 48
34 50 42
30 45 37
33 48 40
33 48 40
33 48 41
35 51 43
37 54 46
33 50 42
39 57 48
77 60 82
99 65 103
101 66 106
102 67 107
102 67 108
102 68 108
114 84 115
146 119 135
167 141 149
153 126 139
122 95 120
102 72 107
94 64 103
92 62 102
91 61 101
90 61 100
89 60 99
88 59 98
87 59 97
86 58 96
85 57 95
83 56 93
81 54 90
79 53 88
76 51 85
72 48 80
69 60 77
86 120 97
88 123 98
88 123 99
88 123 99
88 123 98
89 124 99
89 123 99
88 123 99
88 123 99
88 123 99
89 123 98
89 123 99
87 121 97
88 123 99
88 123 99
88 122 98
89 123 98
89 124 99
87 122 98
88 123 99
88 123 98
88 123 99
88 122 98
88 123 99
88 121 97
88 121 97
88 122 98
87 121 97
88 122 97
88 122 98
88 123 99
88 122 98
88 121 97
88 121 97
87 121 96
87 121 97
88 122 98
87 121 97
87 121 96
87 120 96
91 122 98
147 135 110
162 146 123
164 147 124
161 144 122
158 142 120
157 141 120
160 144 123
157 139 119
153 139 119
154 141 122
151 138 121
143 129 113
140 127 112
134 123 108
123 115 101
121 114 100
121 115 100
114 111 96
121 116 100
121 115 99
118 113 97
118 113 98
109 104 87
117 110 94
116 111 94
110 105 86
95 109 85
86 120 96
86 120 96
86 119 96
86 119 95
86 120 96
86 120 96
87 121 97
86 120 97
86 120 97
86 121 97
86 120 96
86 120 96
86 119 95
87 121 97
86 120 97
86 119 96
86 120 97
86 120 96
86 120 96
86 119 95
86 118 94
85 119 95
86 118 94
86 118 94
85 118 94
85 117 93
85 117 93
86 117 93
85 117 93
84 116 92
84 115 91
83 114 90
84 114 90
83 114 90
82 111 87
82 110 86
80 109 85
80 107 83
79 107 83
78 105 81
77 102 78
74 98 75
71 93 71
61 81 62
52 69 53
43 59 45
37 50 39
38 52 42
38 52 42
37 50 40
38 53 44
39 55 45
42 59 49
44 63 52
47 66 55
48 66 54
49 71 59
50 71 59
52 74 62
54 78 65
54 78 66
55 80 68
55 78 66
58 82 69
58 83 70
61 88 74
61 88 73
64 92 77
66 95 78
75 99 82
208 186 163
242 212 187
242 212 189
244 214 191
244 215 193
249 221 199
255 243 217
255 255 234
255 249 222
246 220 199
231 207 189
225 202 185
222 200 184
218 196 181
214 194 179
211 191 177
207 188 175
202 184 172
199 181 169
194 178 167
191 175 164
184 170 161
180 166 157
169 157 148
164 152 143
161 148 139
117 128 111
84 117 95
83 117 95
84 117 94
84 118 95
83 117 94
83 116 93
82 116 94
84 117 95
83 115 93
84 117 95
82 115 93
83 116 94
83 116 94
82 115 92
84 117 94
83 116 94
83 115 93
83 116 93
83 116 94
83 115 93
83 117 95
82 115 92
82 114 92
82 114 92
83 115 92
83 115 93
82 114 92
82 114 92
81 114 92
83 115 93
82 115 93
102 110 87
179 88 48
190 89 47
196 92 49
193 91 48
196 93 50
194 92 49
192 91 49
189 90 50
185 88 48
180 87 47
184 89 49
179 87 48
180 88 49
166 82 46
162 80 45
155 78 43
148 75 42
143 73 41
140 72 40
140 72 40
147 74 42
140 71 40
140 71 40
138 71 40
129 67 37
137 70 40
128 70 42
86 114 92
82 116 94
82 115 93
83 116 95
82 115 93
82 115 94
82 116 94
82 116 94
81 115 94
82 116 94
82 115 94
82 117 95
90 126 101
89 125 100
90 126 101
89 125 100
89 124 100
89 125 100
89 124 99
88 123 98
88 123 98
87 122 97
88 123 98
86 120 96
87 122 97
87 122 98
86 120 95
86 119 95
85 118 94
85 118 94
84 116 92
85 118 93
84 116 92
82 113 89
81 111 88
75 103 81
71 98 77
68 94 75
60 84 67
57 81 65
50 71 58
48 67 55
47 67 55
45 64 53
47 68 57
47 68 56
48 70 59
48 70 59
56 70 65
95 64 98
98 64 102
99 65 104
99 65 104
100 66 106
100 67 106
105 74 109
114 84 114
115 86 115
107 77 110
98 68 105
94 63 102
92 62 101
91 61 100
90 61 99
89 60 98
88 59 97
87 58 97
86 58 95
85 57 94
83 56 93
81 54 90
78 53 87
76 52 86
74 49 82
68 46 77
65 44 73
81 103 91
88 123 99
88 122 98
88 122 98
88 123 99
88 122 98
89 123 99
88 123 99
88 123 99
88 124 99
88 124 99
88 123 98
89 124 99
89 123 98
88 123 99
88 122 98
88 122 98
88 123 99
89 124 99
88 123 99
88 122 97
88 122 98
88 123 98
88 123 99
88 122 98
88 122 98
88 123 99
88 122 97
88 122 98
87 121 97
88 122 98
87 122 98
87 121 97
88 122 98
88 122 98
87 120 95
88 122 98
87 122 98
86 121 97
87 121 96
87 121 97
121 125 101
146 133 108
150 136 112
150 134 111
147 133 110
142 126 104
142 129 108
141 130 109
142 130 110
143 131 112
134 124 106
124 117 100
115 111 95
115 109 95
110 103 85
111 107 92
112 109 93
118 114 98
111 108 91
105 103 86
114 108 90
109 102 85
107 105 87
101 100 81
107 103 83
103 98 79
91 117 93
86 120 96
86 120 96
85 119 95
86 120 96
86 119 95
86 120 96
87 121 97
86 120 96
85 118 94
85 118 95
86 120 96
87 121 97
87 121 97
86 120 96
87 121 97
86 119 95
86 120 96
86 118 94
87 120 97
86 120 96
86 119 95
86 119 96
86 119 95
86 118 94
86 119 95
86 118 94
85 117 93
85 119 95
85 117 93
86 118 94
84 114 90
84 115 90
85 117 93
83 113 89
83 112 88
82 110 86
83 112 87
82 112 88
81 110 86
81 110 85
79 106 82
78 104 80
77 104 80
76 102 79
75 101 78
71 95 73
65 88 68
63 84 66
60 81 64
58 81 64
55 76 61
53 74 59
54 76 62
53 75 62
54 75 61
53 73 60
56 79 65
56 79 66
55 79 65
60 84 69
60 86 72
63 89 73
64 89 73
63 90 74
68 97 79
70 99 80
71 100 81
73 102 83
75 106 87
129 134 112
234 204 179
237 207 183
240 210 187
240 211 188
242 213 191
255 226 203
255 255 229
255 255 236
255 241 215
238 213 193
228 204 186
223 200 184
220 198 182
217 195 180
213 192 177
209 189 175
206 186 173
201 183 170
197 180 168
192 176 165
189 173 162
185 169 159
176 163 154
169 158 150
160 150 141
161 147 137
149 137 126
89 118 97
83 117 94
84 117 94
84 117 95
83 117 95
83 117 95
84 118 95
83 117 95
84 118 96
84 118 95
84 117 95
83 116 94
83 116 94
83 116 94
83 116 94
83 116 94
82 115 93
82 115 93
82 114 92
83 116 94
82 115 93
82 114 92
83 115 93
83 116 94
81 113 91
82 113 91
82 115 93
82 114 92
82 113 91
82 115 93
81 112 90
82 114 92
152 93 61
175 82 42
181 85 45
183 86 46
181 86 46
182 87 46
175 83 44
183 87 47
170 82 44
169 82 45
161 79 43
164 81 44
165 81 45
156 78 43
147 74 41
143 73 40
137 70 39
135 69 38
136 70 39
132 68 38
135 70 39
127 66 36
124 65 35
131 67 37
117 62 33
124 65 35
111 89 66
82 116 94
82 115 94
82 115 93
82 116 94
82 115 93
82 116 94
82 116 95
81 114 92
82 116 94
82 116 94
82 115 93
82 116 93
90 126 101
89 125 100
89 124 99
89 125 100
89 124 100
88 124 99
89 125 100
88 123 99
88 123 98
87 122 98
87 122 97
88 122 98
88 123 98
87 122 97
86 120 95
87 121 97
87 121 96
86 119 95
84 116 92
86 119 95
84 116 92
85 118 94
83 114 90
81 112 88
83 115 91
82 113 89
78 108 85
76 106 84
75 104 83
73 102 81
71 98 78
71 99 79
68 95 76
73 101 81
69 96 77
72 101 81
83 87 89
95 63 98
97 64 101
99 65 103
98 65 104
98 64 104
98 65 104
98 66 105
98 66 105
97 66 104
95 63 102
94 62 101
92 61 100
91 61 100
90 60 99
89 59 98
88 59 97
87 58 95
86 57 95
85 57 94
83 56 92
79 54 89
78 53 87
75 51 85
72 49 82
70 48 80
69 46 76
64 43 71
67 68 75
89 123 99
88 124 99
88 122 98
88 123 99
88 122 98
88 123 99
89 123 98
89 123 99
88 123 99
88 123 99
88 122 98
88 123 99
88 122 98
88 123 98
89 123 99
88 123 99
88 123 98
88 123 99
88 123 99
88 122 97
88 122 98
88 123 99
87 122 98
88 122 98
87 122 98
88 123 98
88 123 98
88 122 98
87 121 97
87 120 96
87 122 97
87 121 96
87 122 97
86 120 96
87 122 98
87 119 95
88 122 97
87 121 96
87 122 98
86 120 96
95 120 96
132 122 99
134 124 100
133 122 98
137 123 99
131 118 95
127 118 96
126 118 97
121 116 95
124 118 98
115 109 89
119 112 94
114 108 92
110 105 87
102 98 80
99 99 81
104 103 85
105 104 86
107 105 88
98 98 80
99 99 80
97 97 77
99 96 76
96 96 77
94 94 75
91 103 83
82 114 92
81 114 92
82 114 92
83 116 93
81 114 92
83 116 93
84 116 93
85 118 95
85 118 94
85 118 95
85 118 95
85 119 96
86 119 96
86 120 96
86 120 96
86 119 95
86 120 96
86 119 96
86 121 97
86 118 94
87 120 97
86 119 95
86 118 94
86 117 93
86 120 96
85 118 94
85 118 94
87 119 95
85 117 94
85 119 95
86 118 94
85 116 92
85 115 91
85 116 92
84 115 90
85 116 92
84 115 91
83 113 89
83 113 89
82 113 90
82 111 86
80 108 84
81 111 87
81 110 86
79 108 84
80 109 86
78 105 81
78 105 82
79 106 82
78 107 83
77 104 82
77 105 83
76 103 81
72 99 78
73 101 81
71 98 78
72 100 80
73 101 81
72 100 80
73 102 82
72 100 81
74 102 82
74 103 83
75 106 86
78 109 88
78 109 88
79 110 89
80 112 91
80 110 88
82 114 91
181 167 143
230 201 177
235 205 182
236 207 185
234 205 183
238 210 189
250 221 198
255 237 211
255 236 211
245 218 197
231 206 187
225 201 184
222 199 182
218 196 180
215 193 178
211 190 176
208 188 174
204 185 171
199 181 169
196 178 166
191 174 163
186 170 160
181 166 156
169 157 149
162 152 143
161 150 141
158 146 136
157 143 133
113 125 106
83 116 94
84 118 95
84 116 94
84 118 95
82 115 93
83 116 93
83 117 95
83 117 95
84 117 95
83 116 94
83 115 93
82 116 94
84 118 95
83 116 94
83 115 93
83 116 94
83 116 93
83 116 94
83 114 92
83 114 92
82 114 92
83 116 94
83 115 93
82 114 92
82 113 91
82 114 92
83 114 92
82 113 91
82 113 91
80 111 89
81 112 90
99 104 81
162 79 41
169 80 41
168 80 41
166 79 41
177 84 44
169 81 43
162 78 41
164 80 42
158 77 41
154 76 41
147 74 39
146 74 40
143 72 40
130 67 36
129 67 36
120 64 34
124 65 35
127 66 36
126 66 36
127 66 36
130 68 37
119 63 34
121 64 34
118 62 33
109 60 34
83 102 82
78 110 89
79 112 91
80 113 92
78 110 90
80 112 91
79 111 91
80 113 93
80 113 92
81 114 93
79 113 92
81 114 93
81 113 92
89 125 100
90 126 101
89 125 100
89 125 100
89 125 100
89 125 100
89 124 99
89 125 100
88 123 99
88 123 99
89 124 100
88 123 99
87 122 97
88 122 98
87 121 97
86 120 95
87 121 96
86 119 95
88 123 98
86 120 96
85 119 95
85 118 94
85 118 94
85 118 94
84 117 92
85 118 93
84 116 92
84 116 91
84 116 92
83 114 90
84 116 92
84 116 91
84 117 93
82 113 89
83 116 92
85 118 93
89 75 93
94 62 97
95 62 98
96 63 100
96 63 102
95 63 101
95 63 102
94 62 101
95 63 102
94 62 101
93 62 100
92 61 100
91 61 99
90 60 98
89 59 97
89 58 95
88 58 94
85 57 94
85 56 92
83 55 90
80 53 88
78 52 87
76 51 85
74 50 84
69 47 79
66 46 76
68 45 75
63 43 70
63 47 69
86 118 97
89 124 99
88 123 98
88 123 99
88 124 99
88 123 98
89 124 99
88 123 99
89 123 98
88 123 98
88 123 99
88 123 99
88 122 97
88 123 99
88 123 98
88 123 99
88 123 98
88 124 100
88 122 98
87 122 98
88 123 98
88 123 99
88 122 98
88 123 99
89 123 99
88 122 97
88 122 98
88 123 99
87 121 97
88 122 98
88 122 97
87 122 98
87 122 98
88 122 97
88 122 98
87 121 96
86 119 95
87 120 95
87 121 96
86 121 96
86 120 95
102 114 89
115 110 85
114 109 84
112 107 83
112 107 83
114 108 86
105 103 80
107 106 85
111 108 87
105 103 83
106 101 81
102 98 79
103 99 81
93 93 74
94 96 76
93 95 76
93 96 76
94 96 77
86 90 70
89 91 71
94 94 73
88 89 68
87 87 66
89 87 67
68 95 77
72 103 84
73 102 83
73 103 84
75 106 86
77 109 89
78 110 89
80 112 90
79 111 89
81 113 91
81 114 91
82 115 93
82 115 93
85 118 95
84 118 95
85 119 95
85 119 95
86 119 96
86 119 96
86 120 96
87 121 97
86 120 97
86 120 96
86 120 96
86 119 95
86 120 96
86 120 96
87 120 96
86 119 94
86 118 94
86 118 94
86 118 95
85 117 93
85 118 94
85 116 93
85 116 92
85 118 94
84 117 94
84 116 92
83 115 91
84 115 92
83 114 90
83 114 90
83 113 89
82 112 88
82 112 88
83 114 90
81 111 87
82 112 89
81 111 87
81 111 88
81 111 87
81 111 88
81 110 87
80 110 87
83 114 90
81 112 89
81 112 89
82 113 90
82 113 90
82 113 90
81 112 89
83 115 92
82 114 91
82 115 92
83 115 92
83 115 92
83 115 92
83 115 92
84 117 94
90 119 96
212 187 161
226 196 172
229 199 176
231 203 180
234 205 184
236 208 186
237 210 188
239 212 191
234 208 188
230 205 185
228 202 184
224 199 181
220 196 180
217 194 178
213 191 176
211 189 174
205 185 171
201 182 169
196 179 167
192 175 164
187 171 159
182 167 157
174 161 152
168 156 148
161 151 142
161 150 141
158 147 138
156 140 130
130 128 113
84 118 96
85 118 95
84 117 95
84 117 94
84 117 95
83 117 95
84 117 95
84 117 95
84 117 94
84 116 94
84 117 94
84 118 95
84 116 94
84 116 93
83 115 93
83 116 93
84 116 94
83 116 93
82 114 92
83 115 93
83 114 92
82 114 92
83 114 92
82 113 91
83 114 91
82 113 91
82 113 91
82 113 90
81 111 88
80 109 87
81 112 90
81 109 87
122 91 65
153 74 37
155 75 38
156 75 38
151 74 37
155 75 39
150 73 37
145 71 37
146 73 38
139 70 37
129 66 35
133 68 37
116 62 32
123 64 34
115 61 32
108 59 30
110 60 31
111 60 31
122 64 34
113 60 32
118 62 33
116 61 33
117 61 33
109 58 31
95 79 59
71 100 82
72 101 83
74 105 86
72 102 84
72 102 84
73 104 85
74 106 87
74 105 87
75 105 86
74 106 87
77 109 90
76 108 89
77 110 90
90 126 101
90 126 101
90 125 100
90 126 101
90 126 101
89 124 99
90 126 101
88 123 99
89 124 99
88 123 99
89 124 99
88 123 98
89 124 99
88 122 98
88 122 97
87 121 97
88 123 98
87 121 97
88 123 98
87 122 98
88 123 98
86 120 95
86 119 94
86 119 95
86 120 96
86 119 95
86 119 94
86 120 96
84 117 92
86 119 95
85 118 93
85 118 93
86 119 95
85 118 93
86 119 95
86 115 94
89 63 92
92 61 95
92 61 96
92 61 97
93 62 99
94 62 99
93 61 99
93 61 99
92 61 99
92 61 99
91 60 98
89 60 97
89 59 97
88 58 96
87 58 94
87 57 92
85 56 91
84 55 90
82 54 88
79 52 85
77 51 85
75 50 82
72 48 80
70 47 78
67 46 76
65 45 74
64 44 71
60 41 67
60 41 65
79 102 87
88 122 98
88 123 99
89 123 99
88 124 99
87 122 98
87 122 98
87 122 98
89 124 100
88 123 99
88 123 99
88 123 98
88 123 99
88 123 99
88 123 98
89 123 99
89 124 100
88 123 99
88 123 99
88 123 99
88 123 99
87 121 97
88 122 98
88 123 98
88 123 99
87 121 97
87 122 98
87 121 97
87 122 97
88 122 98
87 121 97
87 121 97
87 121 96
86 120 96
87 120 96
86 119 95
86 119 95
86 119 94
85 117 93
85 118 94
85 118 94
85 116 92
92 100 75
97 97 73
96 96 70
95 94 69
96 95 71
94 95 70
103 98 74
103 99 76
95 96 73
94 93 70
85 87 64
94 96 73
93 94 73
87 90 70
85 90 69
85 89 68
81 87 65
82 88 65
78 83 61
89 91 71
84 85 65
78 78 58
69 80 64
58 84 70
57 81 67
60 88 74
62 88 73
62 89 74
66 94 78
67 96 79
69 97 79
73 103 85
74 104 85
75 107 87
77 108 88
79 112 91
81 113 91
81 114 92
82 113 94
79 106 100
77 100 106
75 94 109
75 96 107
76 98 107
77 98 105
82 109 98
85 118 97
87 120 96
86 120 96
86 120 96
86 119 96
86 119 95
86 119 95
86 119 95
86 119 94
86 119 95
86 117 93
86 117 93
85 117 93
85 117 93
85 116 92
85 117 93
83 115 91
84 116 92
85 117 93
84 115 91
83 115 91
84 116 92
83 115 92
82 112 89
84 115 91
83 113 89
84 116 92
83 114 91
83 113 89
82 112 89
82 113 89
83 114 91
83 114 91
83 115 92
83 115 92
84 115 92
83 115 92
83 115 92
83 115 92
84 117 93
83 115 92
84 116 92
84 116 93
85 117 94
84 117 94
85 118 94
84 117 94
114 130 106
221 193 167
223 194 170
222 194 171
228 201 178
229 201 180
227 200 179
227 200 180
223 197 177
221 196 177
221 196 177
219 195 177
219 195 178
217 194 177
213 190 174
208 187 171
204 184 170
201 182 168
197 178 165
192 174 161
185 169 157
180 166 155
174 161 151
167 155 146
163 152 143
161 150 141
157 147 137
151 141 130
150 139 128
134 125 111
86 118 96
84 116 93
84 117 95
84 117 94
84 117 95
83 116 94
83 117 94
84 116 93
83 116 94
83 116 94
84 117 94
83 116 93
83 117 94
83 116 94
84 116 94
82 115 93
83 115 93
83 115 93
83 114 92
83 113 91
83 113 91
83 115 92
83 115 92
83 113 91
83 114 91
82 113 91
82 112 89
81 111 89
79 108 86
80 110 88
80 110 88
80 110 88
85 107 85
122 76 49
138 68 33
134 66 32
136 67 33
133 66 33
134 67 33
131 66 33
126 65 33
121 63 32
116 61 31
105 57 28
101 56 28
110 59 31
106 58 30
99 55 27
103 57 29
109 59 30
108 58 30
103 56 28
93 52 26
111 59 31
101 55 29
92 61 41
60 83 69
60 87 74
61 88 75
61 89 75
63 91 77
63 91 77
64 93 78
64 92 77
66 96 80
68 98 82
69 99 82
69 98 82
71 102 85
72 103 85
90 126 101
90 126 101
90 126 101
90 125 100
90 126 100
90 125 101
89 125 100
90 125 101
89 124 99
89 125 100
89 124 99
89 125 100
89 124 100
88 124 99
88 124 99
88 123 98
88 123 98
88 122 98
87 121 97
88 123 98
87 121 97
88 122 97
87 121 97
87 120 96
87 121 96
87 122 97
87 121 96
86 120 95
87 121 97
86 120 96
87 122 97
87 121 97
87 121 97
86 120 96
87 122 97
85 110 93
87 58 90
89 59 92
89 59 93
90 60 94
91 60 96
90 60 95
89 59 95
89 59 94
90 60 96
88 59 95
88 59 95
86 58 93
85 57 92
87 56 91
85 55 90
84 55 90
83 54 88
81 52 85
79 52 86
76 50 83
75 48 78
72 47 78
67 45 74
66 44 72
64 44 73
64 44 73
61 42 69
61 41 64
59 41 65
76 94 84
89 124 100
88 122 98
88 123 98
89 124 100
88 123 98
88 123 98
88 123 99
88 123 99
88 122 97
88 123 99
87 122 98
88 122 98
89 123 98
89 123 99
88 123 99
88 123 98
88 123 98
89 124 99
88 122 98
88 122 98
88 122 98
87 120 96
88 122 97
88 122 98
87 122 98
87 121 97
87 121 97
88 122 98
87 121 96
87 121 97
88 122 97
87 120 95
87 120 96
86 121 96
86 120 96
86 120 95
86 120 95
85 119 94
85 117 93
86 118 94
84 116 92
82 110 85
80 89 63
89 91 65
86 90 65
88 91 66
86 90 65
92 92 65
90 92 65
88 91 64
86 91 66
88 91 67
87 91 67
77 85 60
80 87 63
76 84 60
72 81 56
73 82 58
76 83 61
72 80 57
67 74 52
77 78 58
64 74 58
52 76 64
52 76 64
55 80 68
54 77 65
54 80 68
55 80 67
57 84 70
60 87 73
61 89 75
63 91 76
67 95 78
70 99 81
72 102 84
73 103 86
75 99 97
70 83 111
66 66 123
64 61 123
63 60 122
62 59 121
61 59 120
60 58 119
59 57 118
59 57 116
60 63 113
70 87 107
77 101 100
85 119 96
85 119 95
86 120 96
86 118 94
86 119 95
85 119 96
86 119 95
86 118 95
85 118 94
85 118 95
85 117 94
86 119 95
85 118 95
85 118 94
84 117 93
84 116 92
84 116 92
84 116 92
85 118 94
84 117 93
85 117 94
84 116 92
84 116 92
83 114 90
84 117 93
84 115 92
84 114 91
83 115 92
83 115 92
84 116 92
84 116 93
84 115 92
84 116 93
84 116 93
83 116 92
84 116 93
84 116 93
84 118 95
84 117 94
84 116 93
85 118 95
84 117 93
83 116 93
84 117 93
145 146 122
214 187 162
217 190 166
219 192 170
222 195 173
218 192 170
221 194 173
219 193 173
216 191 171
217 193 173
217 193 174
216 193 174
214 191 173
209 187 170
207 185 169
202 182 165
199 180 165
195 176 162
191 173 159
185 169 156
182 167 155
177 163 152
166 154 143
161 150 141
157 147 137
153 144 134
153 144 133
148 139 128
147 135 123
146 132 119
90 116 95
83 117 94
83 117 94
84 116 94
84 118 95
84 118 95
84 116 93
83 116 94
84 118 95
83 117 95
84 116 94
83 116 93
84 117 94
84 116 94
84 116 94
83 115 93
83 115 92
83 115 93
83 113 90
83 115 93
83 112 90
83 114 92
83 114 92
83 112 90
82 113 90
81 111 88
80 110 88
81 111 88
80 109 87
80 109 87
80 108 86
79 107 85
79 107 85
83 98 76
111 69 42
117 60 28
117 60 28
114 59 28
114 59 28
110 58 28
105 56 27
100 55 26
92 52 24
97 54 26
90 52 24
90 52 24
95 53 26
91 52 25
95 53 26
92 52 25
91 52 25
90 51 25
88 50 24
95 52 26
95 58 37
58 79 67
54 78 66
56 82 69
57 83 71
57 84 72
59 87 74
58 85 73
58 86 73
59 87 74
59 87 74
60 87 75
62 90 76
63 92 78
64 93 78
65 95 80
90 126 101
90 125 101
90 126 101
89 125 100
90 126 101
90 126 101
89 125 100
90 126 101
90 126 101
89 125 100
89 125 100
89 124 100
89 124 99
89 125 100
88 123 98
89 124 99
89 124 99
88 123 99
89 124 99
88 123 99
88 122 97
87 121 97
88 123 99
88 124 99
87 122 98
87 122 98
88 122 98
88 122 98
88 122 98
87 122 97
88 124 99
88 123 98
87 122 98
88 123 98
88 122 98
85 108 93
85 57 88
87 58 90
87 58 91
89 59 93
88 58 92
87 58 91
87 58 92
87 58 93
87 58 93
84 56 91
85 57 92
85 56 90
83 55 89
82 54 88
81 53 86
80 53 86
79 51 84
77 51 83
75 49 80
74 48 79
72 47 76
66 44 72
67 45 74
66 44 73
66 44 72
60 41 68
60 42 67
58 40 64
58 40 63
71 84 77
88 123 99
88 123 98
88 123 99
89 124 99
88 123 98
88 122 98
89 124 99
89 124 99
87 122 98
88 123 98
87 122 98
88 122 98
88 123 98
88 123 99
88 122 97
89 123 99
88 123 99
88 122 98
88 122 97
88 123 98
88 123 99
88 122 98
87 121 97
88 121 97
87 120 96
87 122 97
88 122 97
88 122 98
87 120 96
87 121 97
87 121 96
87 120 95
86 120 96
87 121 97
86 119 94
86 119 94
85 118 94
86 119 95
85 117 93
82 113 89
84 115 90
82 112 87
81 108 83
81 93 67
82 87 59
83 89 61
80 86 59
81 88 60
83 88 59
84 90 62
82 88 61
77 85 58
75 84 58
72 81 55
71 81 55
68 79 53
66 77 52
63 74 49
63 73 50
61 71 49
56 64 44
54 67 52
50 73 61
49 71 59
51 74 62
53 78 65
54 80 67
55 80 67
55 81 68
56 82 69
56 81 69
57 83 70
59 86 72
61 89 75
63 90 76
67 89 93
66 70 118
65 61 125
64 61 125
63 61 124
63 60 123
62 59 122
61 59 121
60 58 120
59 57 119
59 57 117
58 56 116
57 55 115
56 55 113
56 54 111
60 67 106
77 104 99
86 120 96
86 119 96
86 118 94
85 118 94
86 121 97
86 119 95
86 119 95
86 118 94
85 117 93
86 119 95
85 119 95
85 118 94
85 118 94
85 118 95
85 117 93
85 119 95
84 118 95
85 117 93
84 117 94
84 116 92
84 117 93
85 117 94
84 117 94
84 117 94
84 116 93
83 115 92
85 118 95
85 117 94
83 116 92
84 116 92
85 118 94
84 117 94
84 117 94
84 116 92
84 117 94
84 117 93
84 117 94
84 117 94
84 117 94
84 117 94
84 116 93
84 117 94
134 140 115
207 181 155
212 185 161
212 186 163
213 187 164
213 188 166
212 187 167
215 190 169
210 185 166
211 188 168
210 187 169
208 186 167
206 185 166
203 182 165
199 179 163
196 177 160
194 175 160
187 170 155
184 168 154
179 164 151
174 160 147
163 151 140
161 150 140
155 145 135
155 145 134
154 144 133
153 143 131
145 136 124
143 133 120
138 127 114
102 121 101
84 117 95
84 118 95
84 117 95
84 117 94
84 117 94
83 117 95
84 116 93
84 117 94
83 116 94
84 117 95
84 116 94
84 117 94
83 116 94
84 116 93
84 116 94
83 115 92
83 115 92
83 114 91
82 113 91
83 115 92
83 115 92
83 114 92
82 112 90
82 110 87
82 112 89
81 110 87
80 109 87
81 109 86
79 106 84
78 104 82
76 102 80
77 105 83
75 101 79
77 94 72
87 62 38
98 52 23
95 51 23
90 50 22
86 49 22
86 49 21
87 49 21
81 47 20
82 48 21
80 48 21
82 48 22
82 48 22
82 48 22
78 47 21
85 49 23
78 46 21
77 45 21
77 45 21
78 55 37
60 73 61
53 75 64
56 79 67
55 80 68
56 82 70
59 85 72
58 85 73
57 83 71
58 84 72
59 86 74
59 86 73
58 86 74
59 88 75
60 89 76
60 88 75
60 88 75
90 126 101
90 126 101
90 127 101
90 127 101
90 126 101
90 126 101
90 126 101
90 125 101
90 126 101
90 126 101
89 124 99
90 127 102
89 125 100
88 124 99
89 124 100
89 125 100
89 124 99
88 123 99
88 124 99
89 124 99
90 125 100
89 125 100
89 124 100
88 122 98
88 123 99
89 124 99
88 122 98
88 122 98
88 123 99
89 124 99
88 123 98
88 123 98
88 123 98
87 123 98
88 124 99
86 107 94
81 54 83
84 56 87
83 55 86
85 57 89
85 56 89
84 56 89
83 55 88
84 56 89
83 55 88
83 55 89
80 53 85
80 53 84
81 53 85
80 51 82
77 50 81
76 50 80
75 48 79
74 48 79
71 47 76
68 45 74
66 43 70
64 43 70
65 43 70
62 41 65
62 41 66
59 41 66
59 41 65
55 38 60
55 38 59
73 87 80
88 123 99
88 123 99
88 122 98
88 123 99
88 123 99
89 124 99
88 123 99
88 122 98
88 122 98
88 122 98
88 122 98
88 123 99
88 123 98
87 122 98
88 123 99
89 124 100
88 123 99
88 124 99
88 122 98
88 123 99
88 123 98
88 122 98
88 122 98
87 121 97
87 121 97
88 122 98
87 121 97
87 121 97
88 122 97
87 121 96
86 120 96
87 120 96
86 119 95
86 120 95
86 120 95
84 117 92
85 117 93
83 115 90
82 113 88
83 114 89
81 112 87
81 111 86
81 111 86
78 106 81
74 88 62
78 85 56
77 83 55
79 86 57
80 87 58
76 85 56
73 81 54
77 84 56
76 83 55
71 80 53
67 76 51
64 74 49
60 70 47
57 67 46
51 60 41
47 58 41
42 56 43
43 62 50
46 67 55
48 69 57
48 71 59
50 71 59
51 74 62
54 77 64
53 77 65
57 82 70
54 79 67
57 84 71
57 84 71
57 82 74
63 73 108
65 62 124
65 62 125
64 61 125
63 61 124
63 60 123
62 59 122
61 59 121
60 58 120
60 57 119
59 57 118
58 56 117
57 55 115
56 55 114
55 54 112
55 53 111
54 52 109
53 53 107
65 79 98
84 116 96
85 119 96
86 120 96
86 120 96
86 119 96
86 120 96
86 119 95
86 119 95
86 119 95
86 119 95
85 119 96
85 118 95
84 117 93
86 120 96
84 117 94
85 118 94
85 118 95
85 118 94
85 117 93
85 117 93
85 118 95
85 119 95
85 118 95
85 118 94
85 118 94
85 118 94
85 117 94
85 118 94
84 117 94
85 118 95
85 118 95
85 119 95
84 117 94
85 118 94
84 117 94
85 118 95
85 119 96
85 119 96
85 118 95
85 119 95
84 116 93
139 141 115
206 181 156
204 179 154
206 181 157
208 183 160
207 183 162
206 182 160
210 186 166
204 181 162
200 178 157
203 181 162
204 183 164
195 176 157
197 177 159
193 174 157
188 170 154
185 168 153
177 162 147
173 158 144
172 158 145
160 148 136
157 147 136
152 142 131
154 143 132
154 144 133
152 142 130
146 138 126
143 135 121
148 136 124
139 122 107
101 118 98
84 117 94
84 118 95
84 117 95
83 117 94
84 117 94
84 116 94
84 117 94
84 118 95
83 116 93
84 116 94
84 117 95
85 116 93
84 117 95
84 116 93
83 116 93
83 114 92
83 116 93
84 115 92
84 115 92
83 115 92
83 113 91
83 113 90
83 112 90
83 113 91
81 110 88
81 109 87
81 109 87
80 109 86
79 105 83
79 106 84
78 105 83
77 102 80
74 96 74
72 95 73
73 93 71
72 67 46
80 48 23
83 46 20
90 50 21
83 47 20
81 46 20
84 48 21
80 46 20
80 47 20
74 45 19
73 44 19
72 44 19
69 42 18
68 41 18
65 40 18
65 40 18
64 55 40
50 69 58
51 74 62
53 75 63
55 78 66
55 79 68
55 78 66
56 81 69
56 81 69
57 83 70
57 84 72
58 84 72
58 85 73
59 86 73
59 86 74
59 86 73
59 87 74
59 88 75
90 126 101
90 126 101
90 126 101
90 126 101
90 126 101
90 126 101
90 126 101
90 126 101
90 125 100
89 124 100
90 125 100
89 125 100
89 124 99
90 126 101
90 125 100
89 124 100
89 124 100
89 124 99
88 123 98
89 125 100
90 126 101
89 124 99
89 125 100
88 124 99
89 124 100
89 125 100
88 123 98
89 124 99
88 123 98
89 124 99
88 123 99
89 124 99
88 124 99
88 123 98
88 123 99
84 105 92
78 52 81
80 53 82
80 53 83
80 54 84
79 53 83
79 53 83
82 55 88
77 52 81
79 53 84
78 52 83
78 52 82
77 51 81
75 50 80
76 50 80
72 47 76
72 47 76
71 47 76
69 45 74
67 45 73
66 43 70
64 42 69
61 41 67
62 41 66
61 40 65
59 39 63
56 39 61
56 39 63
54 38 59
52 36 54
73 91 80
88 123 99
88 122 98
88 123 99
88 123 99
89 124 99
89 124 100
88 123 99
89 124 99
88 122 98
88 123 98
88 124 100
88 123 98
89 123 98
88 123 99
88 123 99
88 122 98
88 123 99
87 122 98
88 122 98
88 123 99
88 123 99
88 123 98
87 121 97
88 123 98
88 123 99
87 122 98
88 122 97
87 121 97
87 122 97
87 120 96
86 119 95
86 119 94
86 119 94
86 120 95
86 118 94
85 118 93
84 116 91
84 116 91
84 115 90
82 112 87
82 113 88
81 111 86
81 111 86
75 102 79
64 87 66
55 70 52
66 72 49
72 77 51
70 77 51
72 78 52
70 77 50
68 75 50
69 76 51
64 69 46
61 68 46
54 63 42
48 57 38
41 51 35
39 51 38
38 53 42
42 59 48
43 62 51
44 62 50
47 67 55
49 71 59
51 74 62
52 75 63
53 78 66
55 79 67
55 80 68
56 82 69
57 83 70
57 80 78
63 64 115
66 62 125
65 62 125
64 61 125
64 61 124
63 60 123
62 60 122
61 59 121
60 58 120
60 58 119
59 57 118
58 56 117
57 55 116
56 55 114
56 54 113
55 53 112
54 53 110
53 52 109
52 51 107
51 50 104
59 69 99
83 116 96
85 119 96
86 121 97
86 119 96
85 119 95
86 120 96
86 120 97
85 119 95
86 119 95
86 120 96
85 119 96
85 118 95
85 119 95
85 119 96
85 119 95
85 119 95
85 118 95
85 119 96
85 120 96
86 119 95
85 119 96
85 119 95
86 119 95
85 118 94
84 117 93
85 118 94
84 117 93
85 118 95
84 117 93
84 117 93
84 117 94
85 119 96
85 118 95
85 118 95
85 118 94
84 118 94
85 118 95
85 118 95
84 118 95
84 118 95
136 140 117
197 172 147
201 176 151
196 173 149
198 174 151
200 176 155
199 176 154
199 176 156
191 170 150
197 175 156
190 170 150
194 174 155
195 175 158
187 169 151
189 170 154
181 165 149
178 162 147
173 158 144
167 153 139
162 150 136
155 144 132
150 141 129
154 144 133
150 140 128
150 140 128
146 137 125
142 134 121
145 136 124
138 129 115
130 121 106
93 113 92
84 118 95
84 117 95
84 117 94
83 116 93
84 118 95
83 117 94
83 117 94
84 117 94
84 116 93
84 116 93
84 117 95
83 116 94
84 116 93
83 115 93
84 116 93
83 115 93
84 116 94
84 115 93
83 113 91
83 113 90
82 113 90
82 112 90
82 112 89
83 113 90
82 109 87
82 110 88
82 110 88
81 108 86
79 106 83
79 107 85
76 101 79
77 102 80
75 99 76
73 96 74
72 94 72
68 88 67
64 69 51
68 47 28
76 43 19
81 44 19
82 46 19
79 45 19
74 43 18
79 45 19
74 43 18
69 41 18
65 40 17
62 38 16
57 35 15
48 42 29
46 56 45
43 60 50
47 65 55
50 70 59
50 69 58
52 73 62
53 75 63
53 76 64
57 82 69
56 81 69
56 81 69
57 83 71
57 82 70
58 84 71
58 85 73
59 85 73
58 86 73
58 85 72
58 85 73
91 127 102
90 126 101
91 127 102
90 126 101
90 126 101
90 126 101
89 125 100
90 125 101
90 126 101
90 125 100
90 126 100
90 126 101
89 124 100
90 125 101
90 125 101
89 125 100
89 125 100
89 125 100
90 125 100
90 125 101
89 125 100
89 124 99
89 124 99
88 124 99
88 123 99
89 124 99
89 125 100
89 123 99
89 124 99
88 123 99
88 123 98
89 124 100
89 125 100
89 125 100
89 124 99
86 113 94
74 50 76
74 50 75
78 52 81
77 52 81
74 50 77
75 51 79
76 51 80
76 51 80
74 50 78
72 49 76
72 48 77
72 46 73
72 47 75
71 46 73
69 45 72
69 46 74
67 44 72
63 41 66
61 41 65
63 42 67
60 39 63
60 40 65
59 40 63
60 40 63
56 38 60
56 38 60
52 37 57
53 37 57
50 35 53
77 100 85
88 123 99
88 122 98
88 123 98
88 122 98
88 122 98
88 123 99
88 123 99
88 123 99
88 123 99
88 123 99
88 122 97
87 122 97
88 124 99
88 123 99
87 122 97
88 123 98
88 123 98
88 123 98
88 123 99
87 122 98
88 123 98
87 121 96
88 123 99
88 122 97
88 122 97
87 122 98
87 121 96
87 122 98
87 122 98
87 121 96
87 121 97
86 119 95
85 118 94
86 119 94
86 119 94
84 117 92
85 118 93
84 115 90
81 112 87
82 113 89
82 113 88
81 111 85
80 109 83
74 101 78
66 90 69
48 66 50
38 53 41
32 42 31
40 48 34
58 61 41
51 57 38
49 55 36
46 52 35
42 48 32
35 41 28
32 39 28
26 34 25
31 43 35
33 48 39
36 53 43
38 55 44
43 61 50
43 62 51
45 64 52
51 72 60
51 75 62
52 75 62
52 75 63
53 77 64
52 75 63
54 79 67
56 79 76
63 65 113
65 62 124
65 62 125
65 61 125
64 61 124
66 63 124
69 66 124
68 65 123
63 61 121
60 58 119
59 57 118
58 56 117
57 56 116
57 55 115
56 54 113
55 53 112
54 53 111
53 52 109
52 51 108
52 50 106
51 49 104
49 48 101
53 60 94
83 115 95
86 120 96
86 120 96
86 120 96
86 120 97
86 120 96
86 120 97
86 120 97
86 119 96
86 120 96
86 119 95
85 119 96
86 120 96
86 119 96
86 120 96
85 119 95
86 119 96
86 120 96
86 120 96
85 120 96
86 119 95
85 119 95
85 118 95
85 120 96
86 120 97
85 118 94
86 118 95
85 118 94
85 119 95
85 118 95
85 118 94
85 119 95
85 119 95
85 119 95
85 119 95
85 119 96
84 118 95
85 117 94
84 117 94
121 133 109
186 164 138
195 172 147
193 170 146
189 167 144
190 168 146
194 173 151
190 170 148
187 167 147
189 169 150
185 165 146
187 168 150
186 168 149
177 161 142
174 159 142
168 154 137
169 155 139
162 149 134
162 150 136
150 141 128
150 141 129
144 136 122
143 135 123
146 137 124
143 135 122
141 134 120
139 131 117
130 124 109
135 127 113
127 117 102
91 117 96
84 118 95
84 117 94
84 117 95
84 117 94
84 118 95
83 116 94
84 117 94
84 117 95
84 117 95
84 116 93
84 117 94
84 117 94
84 117 94
84 117 94
84 116 93
84 117 94
84 118 95
83 115 92
83 115 92
83 115 92
83 113 91
83 113 91
83 113 91
82 112 89
82 112 89
81 108 86
81 109 87
81 108 85
80 107 85
79 105 83
77 103 81
77 104 82
75 99 77
74 97 75
72 94 72
70 92 70
64 85 66
47 61 47
35 39 29
51 33 20
57 34 18
59 33 15
65 36 15
64 36 15
59 35 17
49 33 17
46 35 22
36 35 25
34 46 38
38 54 45
42 57 47
44 61 51
45 63 53
49 68 57
52 74 62
51 72 61
52 74 63
54 76 64
56 80 68
53 75 64
55 80 68
57 82 70
57 82 70
55 80 69
59 87 74
58 83 71
57 84 72
58 86 73
60 88 75
90 127 102
90 126 101
90 127 102
90 126 101
90 126 101
90 125 100
91 126 101
90 126 102
91 127 102
89 125 100
90 125 101
90 125 100
90 126 101
90 126 101
89 125 101
89 125 100
90 126 101
90 125 100
90 125 100
89 125 100
89 125 100
88 124 99
89 125 100
89 125 100
89 124 100
89 124 100
89 124 100
89 125 100
88 123 99
89 124 100
88 123 98
88 124 99
89 124 100
89 124 99
88 122 98
88 120 97
70 51 72
73 49 76
72 49 75
73 49 77
71 48 75
74 50 78
71 48 75
71 48 75
71 48 76
69 46 72
69 46 72
68 45 71
66 44 69
65 43 67
63 41 64
63 42 67
62 40 63
61 40 63
58 39 61
62 40 63
59 39 62
59 39 62
53 36 56
57 37 58
56 37 58
53 37 57
51 36 54
45 32 46
47 34 50
78 105 87
88 122 97
87 121 97
88 123 98
88 123 99
87 122 98
87 122 98
87 120 96
88 122 98
88 122 98
87 121 97
87 122 98
89 123 98
88 122 98
88 123 99
88 123 99
88 123 99
88 122 98
88 122 98
87 122 98
87 121 97
87 121 97
88 122 98
88 122 98
88 122 98
88 122 98
87 121 97
87 121 97
87 122 97
88 122 97
86 120 96
86 120 95
86 120 96
86 119 95
86 119 94
85 117 92
84 117 92
85 117 92
84 115 91
82 113 89
82 114 89
81 111 87
81 111 86
80 109 84
76 103 79
71 98 75
60 82 62
46 64 50
34 49 39
29 42 33
27 38 31
24 34 27
22 33 26
22 30 24
24 33 26
24 35 28
30 43 35
34 48 39
32 46 37
34 49 40
41 60 50
40 59 48
46 68 56
44 64 53
49 71 60
51 75 63
49 71 59
52 77 65
53 77 64
53 78 66
55 80 68
56 80 69
61 65 109
64 60 121
65 62 124
65 61 124
65 62 124
76 72 127
102 95 137
113 105 142
95 89 133
72 68 123
61 58 118
58 56 117
57 56 116
57 55 115
56 54 113
55 54 112
54 53 111
53 52 109
52 51 108
52 51 106
50 50 105
50 49 103
48 47 100
46 46 96
59 74 90
84 117 96
86 119 95
85 119 96
86 120 97
86 120 96
86 120 97
85 120 97
86 119 96
86 119 95
86 120 96
85 120 96
86 120 96
85 119 96
85 118 94
86 119 95
85 119 95
85 118 95
86 120 96
86 119 95
85 119 96
86 120 97
86 119 96
85 120 96
85 119 96
85 119 96
85 118 95
85 118 94
84 117 94
85 118 95
85 119 96
85 117 94
85 119 96
85 119 95
85 118 95
84 117 94
85 119 96
84 117 93
84 117 94
93 120 97
173 154 127
181 160 135
187 165 140
177 157 133
184 164 141
184 164 143
179 160 139
177 158 139
177 159 139
174 157 138
174 157 138
166 152 132
166 152 134
166 152 134
165 151 135
161 148 133
154 144 129
144 136 122
139 132 118
139 132 118
139 132 119
141 133 119
141 133 119
137 130 116
137 130 115
131 126 111
127 122 108
123 117 101
121 112 97
85 118 96
84 116 93
84 117 95
83 117 95
84 117 94
84 118 95
84 117 95
84 118 95
84 116 94
83 117 94
84 118 95
84 117 94
84 117 94
84 116 93
84 116 94
84 115 93
84 114 92
84 116 93
84 115 93
84 115 92
84 115 92
83 114 91
83 113 90
82 112 90
83 112 89
82 111 88
82 111 89
82 112 89
81 107 85
79 106 84
79 107 85
78 104 81
78 103 81
76 102 80
74 98 76
74 97 75
74 99 77
70 92 71
66 86 65
56 72 55
41 53 41
30 40 31
27 37 29
26 33 26
23 31 25
25 35 28
27 35 28
30 41 34
32 43 35
37 51 42
39 55 45
41 57 48
47 67 56
48 67 56
44 61 51
48 67 56
52 75 63
54 75 63
52 73 62
55 79 67
55 76 64
55 79 67
56 81 69
58 83 70
56 82 70
57 83 71
58 85 72
58 84 72
59 87 74
59 87 74
90 127 101
91 127 102
90 126 102
90 126 101
90 126 101
90 126 102
91 127 102
91 127 102
90 126 101
90 126 101
90 126 101
90 126 101
90 126 101
90 126 101
90 126 101
90 126 101
89 125 100
90 125 101
90 125 100
90 126 101
89 125 100
89 125 101
89 125 100
89 124 99
89 124 99
89 124 100
90 126 101
89 125 100
89 125 100
90 125 101
89 124 100
88 123 99
89 125 100
89 124 99
89 124 100
88 122 98
68 65 71
67 46 69
68 47 71
70 48 74
68 46 71
67 46 71
68 47 73
68 46 72
67 46 72
65 45 70
64 44 69
61 41 64
60 41 63
60 39 60
61 40 64
59 40 62
54 37 57
58 38 60
58 39 60
55 38 59
54 37 57
56 38 59
53 34 52
50 35 52
53 36 55
49 35 53
50 35 54
45 32 47
50 46 54
86 119 96
88 122 97
88 122 97
87 122 98
87 120 96
88 123 99
88 122 98
88 123 98
88 123 98
88 123 98
87 120 96
88 122 98
87 121 97
88 122 98
88 122 98
87 121 97
88 122 98
88 123 99
88 123 99
87 122 98
87 122 97
88 122 97
87 122 97
87 121 97
88 123 98
87 122 98
88 122 98
87 121 97
88 121 97
87 121 96
87 121 96
86 120 96
86 120 95
87 120 96
86 119 95
84 116 92
85 118 93
85 117 93
83 115 91
84 116 92
83 114 90
82 113 88
82 112 87
81 111 86
79 107 83
78 106 82
72 99 76
63 87 67
51 72 56
47 67 53
35 51 40
33 49 39
33 48 38
31 45 35
36 52 42
36 53 43
37 53 43
38 54 44
37 55 44
41 59 48
43 63 52
47 69 57
45 65 54
49 71 58
51 74 62
51 74 62
51 75 63
50 73 60
55 81 69
54 79 66
57 84 71
59 70 96
64 60 121
64 60 121
64 61 123
65 62 124
78 74 128
127 118 149
171 158 173
165 153 169
115 107 141
76 72 124
60 58 117
58 56 116
57 55 115
56 54 113
55 54 112
54 53 111
53 52 110
52 51 108
52 51 107
51 50 105
50 49 104
49 48 102
48 47 99
45 45 95
43 43 90
69 92 91
87 121 97
85 120 96
86 121 97
86 121 97
86 121 97
86 120 97
85 119 96
86 121 98
86 120 96
85 119 96
85 119 95
86 120 96
86 120 96
86 119 96
85 119 95
86 119 96
86 120 96
86 119 96
85 119 95
86 120 96
85 119 96
85 118 95
85 119 96
85 118 95
85 119 95
85 119 96
85 118 95
85 118 95
85 119 95
84 117 94
84 118 94
85 117 93
85 118 94
84 118 95
84 117 94
84 117 94
84 117 94
85 118 95
157 146 120
177 155 130
174 154 129
173 154 130
175 156 132
171 153 132
169 152 130
169 152 131
167 150 131
170 154 134
165 150 131
164 150 131
157 145 126
153 142 125
156 145 129
140 132 116
146 137 122
142 134 120
140 132 118
130 125 110
132 126 110
132 125 110
135 128 113
132 126 110
126 121 105
129 123 107
131 124 109
119 114 98
109 115 98
84 117 94
84 117 95
83 116 94
84 117 94
85 117 94
84 116 93
84 116 93
83 117 94
84 116 93
84 116 93
84 116 93
83 116 93
84 116 94
84 118 96
84 116 94
83 116 94
84 115 92
84 115 93
83 115 93
83 115 92
83 115 93
83 114 92
83 113 90
83 114 92
83 113 91
83 113 91
82 111 89
81 110 87
83 112 89
81 110 88
81 109 86
80 109 87
79 106 84
78 106 83
76 101 79
76 100 78
75 101 79
75 99 77
73 97 75
71 93 71
65 86 67
57 75 58
50 66 52
39 52 42
40 55 45
38 51 42
38 52 42
38 52 43
41 57 47
41 57 47
43 60 49
44 60 50
46 64 54
48 68 57
50 71 60
51 71 60
53 74 62
51 73 62
53 76 64
54 78 66
56 80 68
58 85 72
57 83 71
57 82 70
58 85 72
57 83 71
58 86 73
59 86 73
58 86 73
60 87 74
90 127 102
91 127 102
90 127 102
90 126 101
91 127 102
91 127 102
90 126 101
91 126 101
90 126 101
90 126 101
90 126 101
90 126 101
90 126 101
90 126 101
89 125 101
90 125 101
89 125 100
90 126 101
89 124 100
89 124 99
89 125 100
89 124 100
89 124 99
89 124 100
89 125 100
90 125 100
89 125 101
88 123 99
89 125 100
89 124 100
89 125 100
89 124 100
88 123 99
89 124 99
89 124 99
89 124 100
77 98 85
61 42 63
60 42 62
63 43 65
61 43 65
61 43 65
59 42 63
61 42 65
59 41 63
58 40 62
59 41 63
59 40 62
56 38 58
55 37 56
57 38 58
55 37 57
55 37 57
54 36 55
55 36 55
54 37 56
52 35 53
49 34 51
51 34 49
50 34 50
49 34 51
47 34 50
45 33 48
47 32 48
65 83 73
87 120 96
87 122 98
86 120 96
88 123 99
86 120 97
87 121 97
87 122 97
87 121 97
86 120 96
87 122 98
87 122 98
87 122 97
87 121 97
87 122 98
87 121 97
88 123 99
88 123 98
87 122 98
88 123 98
87 121 97
87 122 98
88 123 98
87 121 97
87 121 97
88 122 98
88 123 98
87 121 97
88 122 97
87 121 96
86 120 95
87 120 96
87 121 96
87 121 96
86 120 95
85 119 95
86 119 95
86 119 94
85 117 92
85 118 93
84 116 92
83 114 90
83 115 90
83 114 90
84 115 91
81 112 87
80 109 84
79 109 84
76 103 79
72 99 77
65 90 70
59 82 63
54 76 59
51 71 56
47 67 55
44 64 51
44 65 53
43 63 52
46 66 54
47 69 57
48 69 57
48 70 59
50 73 61
49 71 59
52 75 62
53 78 66
54 78 65
57 83 69
57 83 70
59 86 71
63 92 76
63 87 83
62 59 114
63 59 117
63 59 120
64 60 122
70 66 124
110 103 140
171 158 172
197 182 188
162 150 166
104 97 135
68 65 120
59 57 116
57 55 115
56 54 113
55 54 112
54 53 111
53 52 110
52 51 108
52 51 107
51 50 106
50 49 104
49 48 102
48 48 101
46 45 96
45 44 94
42 42 88
44 47 86
80 111 94
86 120 96
86 120 97
86 120 97
85 120 96
86 120 96
86 120 97
86 119 95
86 119 95
86 119 96
86 120 96
86 121 97
86 121 98
85 119 96
85 119 96
85 119 96
86 120 96
85 119 96
85 119 95
85 119 95
85 118 95
85 118 95
86 119 96
85 118 95
85 119 96
85 120 96
85 119 96
85 119 96
85 118 94
84 117 94
85 118 95
85 119 95
84 118 94
84 118 94
84 118 94
84 116 93
84 117 93
84 117 94
124 128 103
163 145 120
164 147 121
166 149 124
162 146 121
159 143 120
159 144 122
157 143 121
152 139 118
154 142 121
156 143 124
149 138 118
146 136 117
143 134 116
136 129 112
135 128 112
129 124 108
124 121 104
131 125 109
136 129 114
130 125 109
131 125 109
121 117 100
119 116 99
121 117 100
125 119 104
115 112 95
122 116 102
95 113 93
84 116 94
83 116 93
83 115 92
84 117 94
83 116 93
83 118 95
84 117 94
84 117 94
84 117 94
83 116 94
84 117 95
84 117 95
84 117 94
84 116 94
84 117 95
84 117 95
83 116 94
84 115 93
84 115 93
84 116 93
84 116 93
84 114 92
83 114 92
84 116 93
83 114 91
83 114 91
82 111 89
83 114 91
81 110 88
82 111 88
81 109 87
81 108 85
81 110 88
80 109 86
80 106 83
79 106 84
77 103 80
76 102 80
77 104 82
76 101 79
73 97 76
74 101 79
73 98 76
69 92 72
63 84 66
60 82 65
55 73 58
51 68 55
48 66 54
50 68 57
49 70 59
48 67 55
50 70 58
51 71 60
51 72 61
52 74 63
52 74 63
53 75 63
54 77 65
56 81 68
57 82 69
56 83 71
58 85 73
59 87 74
58 85 72
60 87 74
60 87 74
61 88 74
61 88 75
62 89 75
90 127 102
90 126 101
90 126 101
90 126 101
91 127 102
91 127 102
90 126 101
90 126 101
91 127 102
90 126 101
90 126 101
90 126 101
90 126 101
90 126 101
90 126 101
90 126 101
90 125 101
89 125 100
90 126 101
89 124 100
89 125 100
89 125 100
89 125 100
90 125 100
89 124 100
90 125 100
89 124 100
88 124 99
89 124 99
88 123 99
89 124 100
89 125 100
88 122 98
88 123 99
88 123 99
88 123 99
85 117 95
57 46 60
54 38 55
57 40 59
57 40 61
55 39 59
54 39 58
52 38 56
53 38 58
54 38 57
52 37 55
53 36 55
51 35 51
53 35 51
56 37 57
52 35 53
53 36 54
52 35 52
51 35 53
50 34 50
52 34 50
47 33 47
44 31 44
47 32 47
45 33 48
43 31 45
42 31 45
42 34 43
77 105 85
86 120 96
87 121 97
87 121 97
86 119 95
87 122 97
87 121 97
87 121 97
86 120 96
87 122 97
87 121 97
87 121 97
87 122 98
87 121 97
87 122 98
88 122 98
88 122 98
87 122 98
88 122 98
87 121 96
88 123 98
87 121 97
88 122 98
88 122 98
87 122 97
88 122 98
87 122 98
87 122 97
87 122 97
88 122 98
87 121 97
87 121 97
87 121 97
87 121 96
86 118 94
86 119 95
86 120 96
87 120 95
85 118 94
85 119 94
85 118 94
85 118 94
85 117 92
84 116 91
84 116 91
82 112 88
82 113 88
82 113 88
80 111 86
80 110 86
80 110 87
77 107 83
75 104 81
72 100 79
69 96 75
67 93 74
64 91 73
64 90 72
62 87 71
62 88 71
60 86 70
62 88 72
63 91 75
60 86 70
64 91 75
66 95 78
68 96 79
67 95 78
69 98 79
72 103 83
75 105 85
66 78 103
62 58 114
62 58 117
62 58 117
63 60 120
74 69 124
113 105 140
153 142 161
152 141 160
111 103 138
73 70 121
60 58 116
57 55 114
56 54 113
55 54 112
55 53 111
54 52 110
53 52 108
52 51 107
51 50 106
50 49 104
50 49 103
48 48 101
47 46 98
45 45 96
44 44 93
42 42 88
41 41 86
60 78 88
86 120 96
85 120 96
86 121 98
86 120 97
86 121 97
86 120 97
86 120 97
86 120 97
86 120 97
86 119 96
86 120 96
85 119 96
85 119 95
86 120 96
84 118 96
85 119 96
85 119 96
85 119 95
85 119 96
85 119 95
86 120 96
85 119 95
86 120 96
85 118 95
85 119 96
85 118 95
84 118 95
85 118 95
85 119 96
84 117 93
85 119 95
84 117 94
83 116 93
84 117 94
84 117 94
83 116 92
85 118 94
91 117 94
146 134 108
149 135 109
154 139 114
158 143 120
147 133 110
146 134 110
149 136 115
144 133 112
145 134 114
141 132 112
141 132 113
135 128 109
136 128 111
128 123 106
120 117 99
131 125 109
125 121 104
126 121 104
127 122 105
117 114 96
120 117 99
119 116 98
110 109 90
115 113 95
111 109 91
115 112 95
110 104 87
85 117 95
83 115 93
83 116 94
83 116 94
84 117 95
84 116 94
84 116 93
84 117 94
84 116 93
84 117 94
84 116 94
83 115 93
83 116 93
84 116 93
84 117 94
84 116 94
83 115 93
84 116 93
84 117 94
83 116 94
84 117 94
84 116 93
84 116 94
84 114 91
84 115 92
83 114 91
83 115 93
84 114 92
83 114 92
83 114 91
82 112 89
82 112 90
82 111 88
81 110 88
80 110 87
79 108 86
81 110 88
80 108 85
79 107 85
78 106 84
77 103 81
77 103 81
77 103 81
76 103 81
76 103 81
76 102 80
75 101 79
75 102 80
72 98 78
71 95 75
66 90 72
66 91 74
63 88 71
64 88 71
62 87 72
61 85 70
62 86 71
60 83 68
61 85 71
61 87 72
62 87 73
63 90 75
64 91 76
65 93 78
64 92 77
65 93 78
66 94 78
67 95 79
67 97 80
70 101 84
69 99 82
90 127 101
91 127 102
91 127 102
90 126 101
91 127 102
90 126 101
91 127 102
90 126 101
90 126 101
90 126 101
90 126 101
90 126 101
90 126 102
90 125 100
90 126 101
90 125 100
90 126 101
90 125 101
90 126 101
90 125 100
90 125 100
89 124 100
89 124 100
89 125 100
90 125 100
89 124 99
89 123 99
89 124 99
89 124 100
88 123 98
88 124 99
88 123 99
89 124 99
87 122 97
88 122 98
88 123 99
87 122 98
68 86 75
49 36 51
52 37 54
51 37 54
50 37 54
46 34 50
50 36 53
49 36 53
51 37 55
48 35 52
49 35 51
48 34 49
49 34 49
50 34 50
50 34 49
51 34 49
50 33 48
50 33 46
48 32 45
45 30 42
44 31 44
42 29 39
39 29 41
42 30 44
39 29 41
39 29 40
59 76 65
82 114 91
82 115 92
82 114 92
84 117 94
83 116 93
84 117 94
85 118 95
86 120 97
86 120 97
87 121 97
87 121 98
86 121 97
87 121 97
87 122 98
87 121 98
88 123 98
87 122 97
87 121 97
87 121 97
88 122 97
88 122 98
88 123 98
87 121 97
88 122 98
87 120 96
88 122 98
87 122 97
88 122 98
88 123 98
87 122 98
88 122 98
88 122 98
87 121 97
86 120 96
87 122 97
87 121 96
86 120 95
87 121 96
87 120 96
87 121 96
85 118 94
85 117 93
85 118 93
86 119 95
85 117 93
85 118 93
85 117 92
83 115 90
84 116 92
83 114 89
83 115 90
83 113 88
82 114 90
83 114 90
82 114 90
81 113 89
80 112 88
79 109 86
78 108 86
75 105 84
78 109 87
77 107 85
78 108 87
77 108 86
77 108 87
80 112 90
78 109 87
79 111 88
79 111 89
80 112 90
80 109 94
61 60 108
61 57 113
62 58 116
62 58 116
63 59 117
71 67 121
88 82 127
99 92 132
91 85 129
70 66 120
61 58 116
57 55 114
56 55 113
56 54 112
55 53 111
54 53 110
53 52 108
52 51 107
51 50 106
50 50 104
49 49 103
48 48 101
47 47 99
46 45 97
44 44 93
42 42 89
43 43 90
42 41 86
43 47 82
83 115 95
86 121 97
86 120 96
85 119 96
86 120 96
85 120 97
86 120 97
85 119 96
86 120 97
86 120 97
86 120 97
86 119 96
85 119 96
86 119 95
86 120 97
86 120 96
85 120 96
86 119 96
86 119 96
85 119 96
85 120 96
85 120 97
85 118 95
84 118 95
85 119 95
85 118 94
85 119 95
84 118 95
85 117 94
85 119 95
84 117 93
85 118 94
84 116 93
83 116 93
84 118 95
83 116 92
82 114 91
83 116 92
111 120 96
135 124 98
138 127 101
135 125 99
136 125 101
135 125 102
130 121 99
132 123 102
130 122 101
125 119 99
118 115 95
120 116 97
119 116 97
119 116 98
118 115 96
117 115 96
115 113 95
118 115 97
115 113 95
109 108 89
107 107 87
112 111 92
110 108 89
101 102 83
100 100 82
104 102 85
90 104 85
80 112 91
80 112 90
80 113 91
80 112 91
81 113 91
82 115 93
80 113 92
81 113 91
80 113 91
82 114 92
82 115 93
83 114 92
83 115 93
82 115 92
83 116 94
83 116 93
84 115 92
84 116 93
84 116 94
84 116 94
84 116 94
84 115 93
83 115 93
84 116 93
83 116 94
83 113 90
84 115 92
83 114 91
84 114 91
83 114 92
83 114 92
83 114 92
82 112 90
82 111 89
81 111 88
81 111 89
81 111 89
80 110 88
80 109 87
80 109 87
81 110 88
79 108 87
79 107 85
79 107 85
78 106 84
79 107 85
77 104 82
78 107 85
77 104 82
78 107 85
78 105 83
78 107 85
77 105 84
78 107 85
75 103 82
76 104 83
75 105 85
74 103 83
75 103 84
75 106 86
73 102 83
74 103 84
74 103 84
74 103 84
75 106 87
74 105 86
75 107 88
75 106 87
76 108 89
76 107 87
76 108 88
90 127 102
91 127 102
91 127 102
91 127 102
90 126 101
90 126 101
90 127 102
90 126 101
91 127 102
90 126 101
90 126 101
90 125 101
90 126 101
90 125 101
90 125 100
90 126 101
90 126 101
90 126 102
89 125 100
90 125 100
90 126 101
89 125 100
89 124 99
89 124 100
89 124 99
89 124 99
89 124 100
89 124 99
89 124 100
89 124 100
89 124 100
89 124 99
88 123 98
87 121 97
87 122 98
88 123 98
86 120 96
84 116 93
54 52 57
47 34 48
47 34 48
48 35 51
46 34 49
46 34 49
47 35 50
44 33 47
45 33 48
46 34 49
45 33 46
47 34 48
48 33 46
42 30 40
48 32 45
43 30 42
47 30 41
43 30 41
39 27 36
42 29 41
37 28 37
32 25 33
34 26 36
34 27 36
36 38 39
66 92 76
70 100 81
74 105 86
73 103 83
76 107 87
76 107 86
77 108 87
81 113 92
81 114 92
82 114 92
84 117 94
84 117 94
86 120 96
86 120 96
87 121 98
87 121 97
87 120 96
88 122 98
88 122 98
88 122 98
88 122 98
87 121 97
88 123 98
88 122 97
88 123 98
88 123 99
88 123 98
88 122 98
88 123 98
88 122 97
87 122 98
87 121 97
87 121 97
87 121 97
87 121 97
87 121 97
87 122 97
87 121 97
87 121 97
87 121 96
87 120 96
87 120 96
85 119 94
86 120 95
85 118 94
85 118 94
85 118 94
85 118 94
85 117 93
84 117 93
84 115 91
84 116 92
84 117 93
84 116 92
84 117 92
84 115 91
84 116 92
84 116 92
85 118 94
84 117 93
83 115 91
84 115 92
84 117 93
85 118 94
85 118 94
85 117 92
83 115 91
85 118 94
84 118 94
84 117 94
85 119 95
74 96 98
59 55 109
60 56 111
60 56 113
60 56 112
61 57 114
63 59 116
66 62 116
67 63 117
63 60 117
59 57 115
58 56 114
57 55 113
56 54 112
55 53 111
54 53 109
53 52 108
53 51 107
52 50 106
50 50 104
50 49 103
49 48 101
47 47 99
46 45 96
44 44 93
43 43 91
42 42 90
41 41 86
41 41 85
40 40 82
69 93 90
86 120 97
86 121 97
86 121 98
85 119 95
86 121 97
85 120 96
86 120 97
85 120 97
86 120 96
85 119 96
86 120 97
86 120 96
86 120 97
86 120 96
86 119 95
85 119 96
85 118 95
85 119 95
85 119 96
85 120 97
85 119 95
86 120 97
84 118 95
85 119 95
86 119 95
84 117 93
84 118 94
85 118 94
83 115 92
84 117 94
85 117 94
84 117 94
84 117 94
83 116 93
83 116 93
82 114 91
82 113 90
85 114 91
112 111 85
122 114 89
122 114 89
123 116 91
118 112 88
122 116 93
111 108 84
112 110 88
117 114 94
110 109 89
102 103 82
100 102 81
101 103 82
104 105 85
106 106 86
104 105 85
105 106 85
102 104 83
106 106 86
101 102 82
114 111 93
100 101 81
96 97 79
96 97 79
96 96 80
73 99 81
70 99 81
72 101 83
73 103 84
74 104 85
74 105 85
74 104 85
75 106 86
77 108 88
77 109 88
77 108 88
80 112 90
80 111 90
81 113 91
81 114 92
81 114 93
82 114 92
81 114 92
82 114 92
82 116 94
83 116 94
84 117 94
83 116 94
83 116 94
83 117 95
83 115 92
84 116 94
83 115 93
83 114 92
83 114 92
83 114 92
83 114 92
83 115 93
82 113 90
82 114 91
83 115 92
83 113 91
82 113 90
82 111 89
81 112 90
81 112 90
81 111 89
82 112 90
80 110 88
79 109 87
81 111 89
80 110 88
80 110 88
80 110 88
79 109 86
81 111 89
79 109 87
80 110 88
78 107 85
80 109 87
80 110 88
80 110 88
80 110 89
81 112 90
81 113 91
81 111 89
81 112 91
80 111 89
81 112 90
81 113 92
81 113 91
80 111 89
81 113 91
81 113 92
81 112 91
81 114 93
81 114 93
91 127 102
90 126 101
91 127 102
90 126 101
90 126 101
90 126 101
91 127 102
90 127 102
91 127 102
91 126 101
90 126 101
90 126 101
90 126 101
89 125 100
90 125 101
89 124 99
90 125 100
89 125 100
89 125 100
89 124 100
89 124 99
89 125 100
90 125 100
89 124 99
89 125 100
89 124 99
88 123 98
89 124 99
89 123 99
88 123 99
88 122 97
88 123 99
89 124 99
88 122 98
87 122 98
86 119 95
87 121 97
86 120 95
77 104 84
47 37 48
39 30 39
45 33 47
41 32 43
43 32 45
43 32 45
41 31 43
43 32 45
43 32 45
44 32 45
42 30 41
40 30 40
38 28 36
38 28 35
38 28 35
39 28 36
40 28 38
35 26 34
36 27 36
34 26 35
29 24 30
31 25 32
32 27 33
46 64 56
59 85 71
56 82 69
60 87 72
64 92 76
63 91 75
68 97 80
70 99 81
72 102 83
76 108 88
79 110 89
78 110 90
81 113 91
83 116 94
84 118 95
85 118 95
85 119 95
87 122 98
86 120 96
86 120 97
87 121 97
88 122 98
87 122 97
88 123 99
87 121 97
88 123 99
88 123 98
87 121 97
88 123 98
88 122 98
88 123 98
87 121 97
87 122 97
88 123 98
87 121 97
88 122 98
87 121 96
87 121 97
87 121 97
87 121 96
87 121 97
86 119 95
86 120 95
86 120 96
86 119 95
86 120 96
86 120 96
86 120 95
85 118 94
85 118 94
85 118 93
85 117 93
85 117 93
84 117 93
85 119 94
85 118 94
86 118 94
86 119 95
85 119 95
85 118 93
83 115 91
85 118 94
84 117 93
85 118 94
85 119 95
85 119 95
85 118 94
86 119 95
86 120 96
86 120 96
85 118 95
85 118 95
67 80 101
58 54 106
59 55 110
59 55 111
60 56 112
59 56 112
60 56 112
59 56 113
59 56 114
58 55 113
57 55 112
56 54 112
56 54 111
55 53 110
54 53 109
53 52 108
53 51 107
52 51 105
51 50 104
50 49 103
48 48 100
48 47 99
46 45 96
44 44 92
43 43 91
41 42 88
41 41 87
41 41 86
40 40 82
39 39 81
59 76 83
86 120 97
86 121 98
85 120 96
86 120 97
86 120 97
85 120 97
86 121 98
86 120 96
86 120 96
86 119 96
86 121 97
86 120 97
85 120 96
85 120 96
86 120 96
86 120 96
85 119 95
85 119 95
86 120 96
85 119 95
84 118 94
85 119 95
85 119 96
85 118 95
85 118 95
84 117 94
85 119 95
84 117 93
85 118 94
84 116 92
84 116 93
82 114 90
83 114 91
83 115 92
83 114 91
82 113 90
82 113 90
82 113 89
85 109 85
107 104 77
105 102 76
110 105 80
107 104 79
106 104 78
100 99 75
98 99 76
93 96 73
93 96 74
93 97 75
99 101 80
96 99 78
100 102 81
103 105 84
101 102 81
96 99 77
92 96 74
97 99 78
95 97 76
87 91 70
84 87 68
81 86 66
75 80 62
71 86 72
59 86 72
58 83 69
61 88 73
60 86 72
64 92 77
65 93 78
66 93 78
67 96 80
67 96 80
70 99 82
71 101 83
72 102 84
75 106 87
76 107 88
76 107 87
77 110 90
78 109 89
80 111 90
81 112 91
81 114 92
81 112 91
81 113 92
82 115 93
83 115 93
83 116 93
84 116 94
83 116 94
84 116 94
84 117 94
83 115 93
83 114 92
83 115 92
83 115 93
83 115 93
83 115 92
83 115 92
82 114 91
83 116 93
82 113 91
82 114 92
81 113 92
81 113 91
82 113 91
82 112 90
81 112 90
81 113 91
80 111 89
81 112 90
80 110 88
81 113 90
81 111 89
82 112 90
81 111 89
80 111 89
81 113 91
81 113 91
81 113 91
81 113 92
81 113 91
82 114 92
81 112 91
82 115 93
80 112 91
81 112 90
82 115 93
81 114 92
81 114 92
82 116 94
82 115 94
82 114 93
82 115 93
82 116 94
90 126 101
91 127 102
91 127 101
90 127 102
91 127 102
91 127 102
90 127 102
90 126 102
90 126 101
89 125 101
90 126 101
90 126 101
90 126 101
90 126 101
89 125 100
90 125 100
90 126 101
90 125 100
90 126 101
90 126 101
89 125 100
89 124 100
88 123 99
90 126 101
88 123 99
88 123 99
89 124 99
88 123 98
88 122 98
88 123 98
88 122 98
88 122 98
88 122 98
88 122 97
88 122 97
86 120 96
86 119 95
86 119 94
85 118 94
72 94 78
45 38 46
41 31 42
39 31 40
41 31 40
41 31 41
39 30 40
40 31 41
39 30 40
39 30 40
38 28 37
37 29 38
37 29 38
35 27 34
37 27 34
33 26 33
32 25 30
30 25 31
31 25 33
30 24 32
25 21 27
25 21 26
38 53 47
46 67 57
47 69 59
51 75 64
48 71 61
52 76 64
58 84 71
59 85 72
61 88 73
65 93 77
71 98 81
78 101 82
102 109 87
131 112 86
142 117 89
129 117 90
134 117 89
96 118 94
86 119 95
86 121 97
87 122 98
87 121 97
88 123 98
88 123 99
87 121 97
88 122 98
87 121 96
88 122 98
88 122 98
87 122 98
87 122 98
87 122 98
88 122 98
88 122 98
87 122 98
87 121 96
87 122 98
86 121 97
87 122 97
87 121 97
87 122 98
87 121 97
86 120 96
87 121 97
87 121 96
86 121 97
86 120 96
86 120 96
86 120 95
86 120 96
85 118 94
86 119 95
85 118 94
85 119 95
85 119 95
86 120 95
85 118 94
85 118 95
86 120 96
85 118 94
85 119 95
86 120 96
86 119 95
84 117 93
85 119 96
85 119 96
85 118 94
86 120 96
85 119 96
85 119 95
86 120 97
86 120 96
86 120 96
60 65 100
57 54 106
58 54 107
57 54 107
58 54 108
58 55 111
57 54 108
58 54 110
57 54 109
56 53 109
56 54 110
56 53 109
54 52 108
54 52 108
53 52 107
52 50 105
52 50 105
50 49 102
49 48 100
48 47 99
47 46 97
45 45 94
44 44 92
43 43 91
42 42 88
42 42 88
41 41 87
42 42 87
40 40 82
38 38 78
47 57 76
85 119 96
85 120 97
86 121 98
85 119 96
85 120 96
85 119 96
85 119 96
86 120 97
86 120 96
86 121 97
86 120 96
86 119 96
86 120 97
85 119 96
85 119 96
86 120 96
86 120 97
85 119 95
85 119 95
85 119 96
85 119 96
85 118 95
84 118 94
84 117 94
85 118 95
84 117 94
85 117 93
85 118 94
84 117 93
84 117 93
84 117 93
83 115 91
83 115 91
83 114 90
83 115 91
80 111 88
81 112 88
80 111 87
80 110 86
83 104 80
84 89 62
87 90 63
89 93 67
90 93 67
91 94 69
90 93 68
90 95 70
85 91 66
86 92 68
88 93 70
86 92 68
85 92 68
90 95 72
85 91 68
86 92 69
89 93 71
87 91 70
79 86 63
82 87 66
81 85 65
75 80 62
68 81 67
55 80 68
55 79 67
55 81 69
56 80 68
56 83 71
58 85 72
57 82 69
58 87 74
60 88 75
60 88 74
64 93 78
64 94 78
65 94 79
67 97 81
70 99 82
70 100 82
72 102 84
74 105 86
76 107 88
77 107 87
77 108 88
78 110 89
80 112 91
81 113 92
82 114 93
81 115 93
83 115 93
82 115 93
83 116 94
83 116 94
83 116 93
83 116 94
82 114 92
82 115 92
83 115 92
82 114 92
83 115 93
83 115 93
83 115 93
83 113 91
82 114 92
83 114 92
83 114 92
82 113 90
82 114 92
82 113 91
82 113 91
82 114 92
82 114 92
82 113 91
82 113 90
82 115 93
82 113 91
82 114 92
82 114 92
81 114 92
81 113 91
82 112 90
81 113 90
82 114 92
81 113 91
81 113 91
82 114 92
81 114 92
82 115 93
81 113 92
82 114 93
82 114 92
82 115 93
81 114 92
82 115 93
81 113 92
82 116 94
91 128 103
91 128 103
90 126 101
91 126 101
91 128 103
90 126 101
91 127 102
90 126 102
90 126 101
90 126 101
90 126 101
90 126 101
90 126 101
90 127 102
90 126 101
89 125 100
90 125 100
90 126 101
89 125 100
89 124 99
90 125 100
89 124 100
89 125 100
89 124 99
88 123 99
89 124 100
89 124 99
88 124 99
88 122 98
88 123 99
87 122 98
87 121 96
87 121 96
86 120 95
87 120 96
85 118 94
85 117 93
86 119 95
84 116 92
83 115 91
72 97 78
40 36 40
36 28 35
35 28 34
37 29 36
37 29 36
36 29 37
36 28 36
32 27 33
35 28 35
31 26 32
31 26 32
30 25 30
28 24 28
28 24 29
27 23 27
26 23 28
25 22 27
24 21 26
23 22 25
36 50 44
45 65 56
47 69 59
49 72 61
46 67 57
49 73 62
51 75 65
51 75 64
52 76 65
108 90 71
187 105 71
233 119 75
255 124 74
255 125 74
255 124 73
255 123 72
255 122 72
252 121 72
245 120 72
217 118 77
182 119 84
126 119 92
86 120 96
87 121 97
87 121 97
88 124 99
88 123 99
87 121 97
87 122 98
88 123 98
87 122 98
88 122 98
88 123 99
88 123 98
87 121 97
87 122 98
87 122 98
87 121 97
88 122 98
87 121 97
87 122 98
87 121 96
87 121 96
87 122 98
87 121 97
87 121 97
86 120 96
87 121 97
87 121 97
87 121 97
86 121 97
86 120 96
86 121 97
86 121 97
86 121 97
85 119 96
86 121 97
86 120 96
85 119 94
85 119 95
86 119 95
85 119 95
86 120 96
86 121 97
86 120 96
85 119 95
86 120 96
85 119 96
86 121 97
85 119 96
87 120 96
86 120 96
86 120 96
84 116 97
56 56 100
55 52 101
55 52 102
56 52 104
55 52 102
56 53 105
57 53 107
57 54 108
56 53 106
55 52 105
54 52 106
53 51 105
53 51 105
51 50 102
51 50 103
50 49 101
50 48 99
49 47 98
47 46 96
46 45 95
45 45 93
44 44 92
42 42 89
41 41 85
41 41 87
41 41 87
40 40 84
40 40 84
39 39 79
38 38 76
39 42 74
82 115 93
86 120 96
86 120 97
85 120 97
86 120 97
85 119 96
85 120 96
86 120 97
86 120 96
86 120 97
85 120 96
86 120 96
86 120 97
86 119 96
85 119 96
86 120 97
86 120 97
86 120 96
86 120 97
85 120 97
85 118 94
85 119 95
85 119 96
85 117 93
85 119 95
85 118 95
84 117 94
84 117 94
84 116 92
84 116 93
83 115 92
82 114 90
83 115 91
82 113 89
81 112 88
81 111 87
80 110 86
79 107 84
78 106 82
78 107 84
75 97 73
77 83 56
73 81 54
80 86 57
81 86 59
82 87 59
82 88 61
78 86 58
82 89 62
81 88 63
77 86 61
79 87 62
74 84 58
76 84 60
73 82 57
71 81 57
72 81 58
75 81 60
66 74 53
73 78 60
53 71 58
49 72 61
52 74 62
56 82 70
54 79 66
55 80 67
57 83 70
57 84 71
56 83 70
56 82 69
58 85 72
57 84 72
59 86 73
60 88 74
61 90 76
63 92 77
64 94 79
66 95 79
67 97 80
69 99 82
71 100 83
74 106 87
76 107 88
75 107 88
78 110 90
78 110 90
80 112 91
80 113 92
81 113 92
82 116 94
82 115 93
83 115 93
82 115 93
83 117 95
83 117 94
83 117 94
84 115 93
83 116 94
83 117 94
83 115 92
83 114 92
83 115 93
83 116 94
83 114 92
83 115 93
83 115 93
83 115 93
82 114 92
83 115 93
82 114 92
83 116 93
82 114 92
83 116 94
82 113 91
82 113 91
82 114 92
82 114 92
81 112 90
82 115 93
82 115 93
82 114 92
82 115 94
82 115 93
83 115 93
81 113 92
82 115 93
82 114 92
83 116 94
82 115 93
82 114 92
82 115 93
82 115 93
82 116 94
83 117 95
82 114 93
91 127 102
90 126 102
91 127 101
91 127 102
90 127 102
91 127 102
89 124 100
91 127 102
91 127 102
90 126 101
90 126 101
90 126 101
89 125 100
89 125 101
90 125 100
89 125 100
90 125 100
89 125 100
90 125 100
89 124 99
89 124 100
89 124 100
89 124 99
90 125 101
89 123 99
88 123 99
88 123 99
88 123 98
87 122 97
87 122 98
88 122 98
87 120 96
86 119 94
87 121 96
85 118 94
86 119 95
84 116 91
83 115 91
83 113 90
82 112 88
82 112 88
71 95 76
44 51 46
31 26 31
32 26 32
32 26 31
33 27 32
31 26 31
30 25 30
30 25 30
29 25 30
27 23 28
26 23 27
26 22 27
24 20 25
24 21 25
22 19 24
21 18 23
24 28 28
37 52 44
38 55 46
39 57 49
43 62 52
48 70 59
47 69 59
46 69 59
50 73 63
122 86 65
222 113 71
255 126 74
255 127 74
255 126 74
255 125 74
255 124 73
255 123 73
254 122 72
252 121 72
250 120 71
247 119 70
245 118 70
242 116 69
239 115 69
205 114 76
134 118 90
88 122 97
87 121 97
88 123 98
87 122 97
87 121 97
88 123 99
88 122 98
87 121 97
87 122 98
88 122 98
87 121 97
88 123 98
88 123 99
87 121 97
87 121 97
87 122 98
87 121 97
87 122 98
87 122 98
87 122 98
87 122 97
87 122 97
86 121 97
87 121 97
87 121 96
87 121 97
87 121 97
87 121 97
87 122 98
86 121 97
86 120 96
86 121 97
86 120 96
86 120 96
87 122 98
87 121 97
86 120 96
86 119 95
86 120 97
86 120 97
86 121 97
86 121 97
86 120 96
86 121 97
87 122 98
85 119 95
86 121 97
86 120 96
86 120 96
82 113 95
54 53 95
53 50 97
54 50 99
55 52 103
54 51 100
54 50 100
54 51 102
54 51 103
54 51 102
53 50 102
52 50 101
53 51 103
51 49 100
51 49 100
50 48 99
48 47 97
48 47 97
47 46 95
46 45 93
44 44 91
42 42 88
43 42 89
42 42 88
39 40 83
41 41 85
39 39 81
40 40 84
38 39 79
38 38 79
37 37 76
38 39 74
81 113 93
85 120 97
86 119 96
85 119 96
85 119 96
85 118 95
85 120 97
85 119 95
86 120 96
85 119 96
86 120 97
86 120 96
85 119 95
85 120 97
86 120 97
85 119 96
85 119 96
85 118 95
85 119 96
85 120 96
86 119 95
85 118 95
85 118 94
85 119 95
85 117 93
86 120 96
84 118 94
83 116 92
85 118 93
84 116 93
83 115 91
83 114 90
81 113 89
83 114 90
82 114 90
80 110 87
80 110 86
78 108 83
78 107 83
77 104 80
76 105 81
75 99 75
74 85 59
75 82 54
76 82 54
78 84 56
78 84 56
80 85 57
76 83 56
73 82 55
70 80 54
69 79 53
67 77 51
66 77 52
63 73 49
61 71 48
60 69 47
55 65 44
50 61 44
49 67 55
48 68 56
51 74 62
52 75 63
51 73 61
52 76 64
55 79 66
55 81 68
55 80 67
55 81 68
57 84 71
57 84 72
58 84 71
58 85 72
58 85 72
59 86 73
58 85 73
60 89 75
61 91 77
63 90 76
65 94 78
70 100 83
70 99 82
71 101 84
73 104 86
75 105 86
76 108 89
79 110 89
78 110 89
80 113 91
81 114 93
82 114 93
82 115 93
82 114 92
83 116 94
83 116 94
83 117 94
83 115 93
84 116 94
83 117 94
83 115 93
84 116 93
83 117 94
83 115 92
83 116 93
83 116 93
83 116 94
82 115 92
83 115 93
82 116 93
83 116 94
83 116 93
83 115 93
83 116 94
83 115 93
82 114 92
83 115 93
82 114 92
83 115 93
82 115 93
82 115 93
82 115 93
82 115 93
82 115 93
81 112 90
82 116 94
82 115 93
83 116 94
83 116 94
82 115 93
83 117 94
82 115 93
82 116 94
82 116 94
82 116 94
82 116 94
90 127 102
90 126 101
91 127 102
91 127 102
90 126 101
90 126 101
91 127 102
91 127 102
90 127 102
91 127 102
90 126 101
90 126 101
90 125 100
90 126 101
89 125 101
89 125 100
90 126 101
90 125 101
90 125 100
89 124 99
90 125 100
89 125 100
88 123 98
88 123 98
88 123 98
88 122 98
89 124 100
88 122 98
88 123 98
87 122 98
86 120 96
86 120 96
85 118 94
87 120 95
84 117 93
84 116 92
84 115 91
83 114 90
83 114 90
82 112 88
77 105 83
71 98 78
62 86 69
39 51 43
29 28 30
29 24 29
27 23 27
28 23 28
27 22 27
26 22 27
25 21 26
24 21 25
22 19 23
21 18 22
20 18 22
18 16 19
19 20 21
24 33 28
33 47 40
33 47 40
39 56 47
39 55 46
41 59 50
45 66 57
47 69 59
72 76 62
200 105 68
255 125 73
255 127 74
255 127 74
255 126 74
255 124 73
255 123 73
255 122 72
252 121 72
250 120 71
247 119 71
244 118 70
242 117 70
241 116 69
237 115 68
236 114 68
233 112 67
227 111 66
180 113 79
102 121 96
88 123 99
87 121 98
88 123 98
87 122 98
87 121 98
87 121 97
88 123 99
87 122 98
88 123 98
87 122 98
87 121 97
87 121 97
87 121 97
87 122 98
88 122 98
88 122 97
87 121 97
87 122 98
87 122 98
87 121 97
87 121 97
87 121 97
87 121 97
87 121 97
87 121 97
87 122 98
86 120 96
87 122 97
86 121 98
87 120 97
87 122 98
87 121 97
86 120 97
87 121 97
86 121 97
87 122 97
86 120 96
86 121 97
86 120 96
86 120 97
86 120 97
86 120 96
86 120 96
85 120 96
86 120 96
86 120 96
87 121 98
82 114 96
51 50 92
51 48 92
52 49 97
54 51 100
52 49 96
52 49 97
53 49 99
51 48 95
52 49 99
51 49 99
51 49 100
49 48 97
49 48 97
48 47 97
47 46 94
47 46 96
45 45 92
44 44 90
43 43 88
43 43 89
42 42 87
41 41 86
40 40 83
39 39 80
38 39 79
39 39 80
39 39 80
38 39 79
37 37 76
38 38 77
35 36 69
82 114 94
85 118 95
85 119 95
85 119 96
85 118 95
86 120 96
85 119 96
86 120 97
86 120 96
86 121 97
86 120 97
86 120 96
85 120 96
86 120 96
85 118 95
86 120 96
85 119 95
85 120 96
85 118 95
85 119 95
85 118 95
85 119 96
85 119 95
84 118 94
84 118 95
84 117 93
84 117 93
83 115 91
84 117 93
84 116 92
81 112 89
82 114 90
82 114 91
82 114 90
81 112 88
81 112 88
80 110 86
78 107 83
78 107 83
76 104 80
75 102 77
72 98 74
65 88 66
59 72 51
70 75 50
73 78 51
73 79 52
74 80 53
72 79 53
72 78 52
71 79 52
65 73 48
62 70 47
61 69 46
55 64 43
53 62 42
46 56 39
40 54 41
41 59 48
42 60 50
46 67 55
48 69 58
50 74 62
52 75 63
53 77 64
55 81 68
53 77 65
56 82 69
56 82 69
56 81 68
56 81 68
57 85 72
58 85 72
57 85 72
58 86 73
58 86 74
59 87 74
60 88 75
61 89 76
63 93 78
66 96 81
68 99 82
68 98 82
72 103 85
74 104 85
75 107 88
77 107 88
77 109 89
78 110 90
80 113 92
81 113 92
81 115 93
82 116 94
82 116 94
83 116 94
83 116 94
83 116 94
84 116 93
84 118 96
83 116 94
83 116 94
83 117 94
83 116 94
83 115 93
83 116 94
83 116 94
83 116 94
83 116 94
83 116 94
83 115 93
83 116 94
83 116 94
83 117 95
83 116 94
83 115 93
82 116 94
82 114 92
82 115 93
83 115 93
82 115 94
83 117 95
83 116 94
82 116 94
83 116 94
83 116 94
82 115 94
83 116 94
82 116 94
83 116 93
83 116 94
83 116 94
82 117 95
83 117 94
83 116 94
82 116 95
91 127 102
90 126 101
90 127 102
91 127 102
90 127 102
90 126 102
90 125 101
90 126 101
90 126 101
90 126 101
90 126 101
90 126 101
90 126 101
90 125 101
90 125 100
90 125 101
90 125 100
89 124 99
89 125 100
90 125 100
89 124 99
89 124 100
88 123 99
88 123 98
88 123 98
88 123 99
88 123 98
87 121 97
89 124 100
87 120 96
87 121 97
87 121 96
87 120 96
86 120 96
86 119 94
84 117 93
84 116 92
83 113 89
81 111 87
79 108 85
73 101 79
65 89 70
51 70 56
39 55 46
35 49 42
24 32 28
24 29 27
20 19 21
20 20 22
19 16 20
18 15 19
18 16 20
16 15 18
15 16 17
20 23 21
21 27 23
30 40 33
31 44 36
33 49 41
35 51 43
39 56 47
41 60 51
44 64 54
46 68 58
130 87 64
249 120 71
255 128 74
255 127 74
255 126 74
255 125 74
255 124 74
255 124 73
254 122 73
251 121 72
248 120 71
246 119 71
243 117 70
241 116 70
238 115 69
236 114 68
233 113 68
232 112 67
229 111 66
228 110 66
223 108 64
201 106 68
116 118 92
88 123 99
88 123 99
88 122 98
88 122 98
88 123 98
87 122 98
88 123 99
87 122 98
88 122 97
87 121 97
88 122 98
88 123 99
88 122 98
87 122 98
87 122 98
88 123 99
88 123 99
88 123 99
88 122 98
87 121 97
87 123 99
87 122 98
87 121 97
87 121 97
87 121 97
87 121 97
87 122 98
87 122 98
87 121 97
87 122 98
87 122 97
86 121 97
87 122 98
86 120 97
87 121 98
86 122 98
86 119 96
86 120 96
86 120 96
87 121 97
86 120 96
86 121 97
85 119 96
85 119 96
86 120 97
86 121 97
83 116 95
52 52 91
50 46 89
49 46 88
51 48 94
51 47 93
50 47 92
50 47 93
50 48 95
48 46 91
48 46 91
49 47 95
47 46 93
47 46 93
46 45 91
45 44 90
44 43 89
43 43 88
41 41 84
40 40 83
41 41 84
40 40 82
37 38 78
40 40 83
39 39 80
38 38 78
38 38 77
36 37 75
37 37 74
35 36 73
35 36 71
37 42 68
81 113 93
85 119 95
85 119 96
85 120 96
86 120 96
85 120 96
85 119 96
85 119 96
85 119 96
85 119 96
86 120 96
86 120 97
85 119 96
86 121 97
85 119 96
86 120 96
86 120 97
85 119 95
85 119 95
85 119 96
84 117 94
85 119 95
85 118 94
85 117 93
84 117 93
84 117 93
84 117 93
84 116 93
85 118 94
84 117 93
83 115 91
83 114 90
84 115 91
82 114 91
81 112 87
80 110 86
79 109 85
79 109 85
78 106 82
76 103 79
74 101 77
74 101 77
66 89 67
56 77 59
39 53 40
47 52 37
52 58 39
60 64 42
59 64 42
61 65 43
57 61 40
53 58 39
50 57 39
42 50 34
37 45 32
34 48 38
37 52 42
40 57 46
40 57 47
40 58 48
45 66 55
48 70 58
48 71 59
50 73 61
53 78 66
55 79 67
56 80 67
53 77 65
56 81 68
56 81 69
57 84 71
57 83 71
57 84 72
58 85 72
57 85 73
59 85 72
59 87 74
60 88 75
60 88 75
62 90 76
66 95 80
67 97 81
68 99 82
69 100 83
73 104 85
75 106 87
74 106 87
77 109 89
79 111 91
79 111 90
80 113 92
80 113 92
82 115 94
82 115 93
83 116 94
83 117 94
82 117 95
84 116 93
84 117 95
83 117 94
83 116 93
83 116 94
83 116 93
83 117 95
83 116 94
83 117 95
83 117 95
83 117 94
83 116 93
83 117 95
83 116 94
82 116 94
83 117 94
83 116 94
83 116 94
83 115 93
83 116 94
83 116 94
83 117 95
83 117 95
83 116 94
83 117 95
83 116 94
83 116 94
82 116 94
83 116 95
83 116 95
83 115 93
83 117 95
83 116 94
82 116 95
83 116 94
83 117 95
83 116 94
83 117 95
91 127 102
91 127 102
90 126 102
90 127 102
90 126 102
90 126 101
90 127 102
90 126 102
90 126 102
91 127 102
90 125 100
89 125 100
90 125 101
90 126 101
89 124 100
90 125 100
90 125 100
90 125 100
89 125 100
89 124 99
89 124 99
89 125 100
89 125 100
88 122 98
89 125 100
88 122 98
87 121 97
88 123 98
88 122 98
87 121 97
86 120 96
86 120 96
86 119 95
86 119 95
84 116 92
85 117 93
84 116 92
82 113 89
83 113 89
79 108 84
72 100 79
65 89 71
54 74 60
42 60 50
33 48 41
28 39 33
31 45 38
27 38 32
21 29 24
20 25 21
22 31 26
23 30 25
19 27 22
23 30 25
30 41 34
30 40 33
35 49 41
36 51 43
37 54 45
41 59 50
43 62 52
46 66 56
47 69 59
131 85 63
254 122 72
255 127 74
255 127 74
255 126 74
255 125 74
255 128 78
255 132 84
255 133 85
254 128 80
249 122 74
245 119 71
241 117 70
239 116 69
237 115 69
235 114 68
231 112 68
229 111 67
227 110 66
225 109 66
223 108 65
219 107 64
214 103 62
200 100 61
130 116 89
87 122 98
88 123 98
87 122 98
88 122 98
88 123 99
87 121 98
87 122 98
87 121 97
87 121 97
87 122 98
87 122 98
87 122 97
87 122 98
87 122 98
87 122 98
87 122 98
87 121 97
86 121 98
87 122 98
87 120 97
87 121 98
87 122 97
88 122 98
87 122 98
87 121 98
87 121 97
87 122 98
86 120 96
87 120 97
86 121 97
87 122 98
86 121 97
86 120 96
86 119 96
87 122 98
87 122 98
86 121 97
86 121 97
87 121 98
86 121 98
86 120 96
86 120 96
85 119 96
85 119 96
86 120 96
85 118 95
53 58 86
49 46 88
48 45 88
48 44 86
47 44 85
49 46 91
47 44 87
47 45 88
47 45 89
46 44 88
46 45 89
45 44 89
45 44 89
44 43 87
44 44 89
41 41 84
41 41 83
41 41 83
38 38 78
38 38 77
39 39 80
39 39 80
37 38 76
37 38 77
37 38 76
36 37 74
35 36 71
35 36 72
35 36 71
34 34 66
44 56 68
84 118 95
84 118 95
85 120 97
85 119 96
85 119 96
86 120 96
86 120 97
85 120 96
85 119 96
84 119 96
85 119 96
85 120 96
85 119 96
85 120 96
86 120 96
85 119 95
85 119 96
85 119 96
85 118 95
84 118 95
85 118 94
85 118 94
85 118 95
85 119 95
84 117 93
84 117 93
84 118 94
83 116 93
84 117 94
82 113 89
84 117 93
83 116 92
82 114 90
82 113 89
82 113 89
82 114 90
80 111 87
80 110 86
78 107 83
77 106 82
76 103 79
74 100 76
72 98 75
63 85 64
53 74 57
40 56 43
26 38 29
24 35 27
25 35 28
27 36 28
27 37 29
25 34 26
25 34 26
25 36 29
27 36 28
30 44 35
37 53 43
37 55 45
40 59 48
45 64 53
46 68 56
47 68 56
49 72 60
49 71 59
52 75 63
51 74 62
54 78 66
54 80 68
54 80 68
54 79 66
57 83 70
58 85 72
56 81 68
57 83 70
58 85 72
58 85 72
57 84 71
59 87 74
61 89 75
62 91 76
65 94 79
68 97 81
70 100 83
71 102 84
73 104 86
76 107 87
75 107 88
78 110 90
78 111 90
79 112 91
81 114 92
81 114 93
81 115 94
82 114 93
82 116 94
83 116 94
83 116 94
83 117 95
83 117 95
83 117 94
83 117 95
83 117 95
84 118 95
83 116 94
83 116 94
83 117 95
83 117 95
83 116 94
83 117 95
83 116 94
83 115 93
83 116 94
83 117 95
83 116 94
83 117 95
83 117 94
83 116 94
83 117 95
83 117 95
83 117 95
83 117 95
83 116 94
83 116 94
83 116 94
83 116 94
83 117 95
82 116 94
83 116 94
82 116 93
82 116 94
83 117 95
82 116 94
83 117 95
83 117 95
83 117 95
91 127 102
91 127 102
91 127 102
91 127 102
90 126 102
90 127 102
91 127 102
90 126 101
90 126 101
90 126 101
90 126 101
90 126 101
90 126 101
90 125 100
90 125 101
89 125 100
89 125 100
89 125 100
89 125 100
89 124 99
90 126 101
89 124 99
88 123 98
88 123 99
88 123 99
89 124 99
88 123 98
88 122 97
87 121 97
87 121 96
87 120 96
86 119 95
86 119 95
86 120 95
85 117 93
83 115 91
83 114 91
83 115 91
82 112 89
80 109 86
75 104 82
68 94 75
60 82 65
51 72 59
40 56 47
35 51 43
33 47 40
32 45 38
29 41 35
35 49 41
29 41 34
26 37 31
31 45 37
32 46 38
32 46 39
37 53 45
38 56 47
40 58 49
39 57 48
43 64 54
46 67 57
46 66 57
123 84 63
250 120 71
255 126 73
255 126 74
255 125 73
255 126 75
255 136 87
255 159 113
255 177 130
255 163 117
255 140 94
247 123 77
241 117 71
238 115 69
235 114 68
233 113 68
230 112 67
228 111 67
225 110 66
223 109 66
220 108 65
218 106 64
215 105 63
211 103 62
205 99 60
185 95 59
120 116 89
88 123 99
88 123 99
88 123 98
88 122 98
87 122 97
88 122 98
88 123 99
87 122 98
88 123 99
88 123 99
87 122 98
87 122 98
88 123 99
88 122 99
87 122 98
88 123 99
88 122 98
86 120 97
87 122 98
87 122 98
87 122 98
87 122 98
87 121 97
87 122 98
86 120 97
87 122 98
87 122 98
87 123 99
87 122 98
87 122 98
86 120 97
86 120 97
86 120 97
86 120 97
86 120 97
86 121 97
86 121 97
86 120 97
86 120 97
86 120 96
86 120 96
86 120 96
86 120 96
86 121 97
86 119 96
59 73 84
46 43 82
46 43 82
45 43 83
47 44 85
46 43 84
44 42 82
44 41 80
45 42 83
43 42 81
44 43 87
44 43 86
44 43 86
42 41 83
41 41 83
37 38 76
37 38 76
36 37 75
37 38 77
36 37 74
37 38 76
37 38 76
38 38 78
35 36 72
34 35 69
35 36 71
36 37 73
34 35 68
33 34 67
32 33 64
53 71 71
84 118 95
84 117 94
84 118 95
86 121 97
85 119 96
85 120 97
85 119 96
85 119 96
85 120 97
85 119 95
85 119 96
85 119 96
85 119 96
86 120 97
85 119 96
84 117 94
84 118 95
85 120 97
86 120 96
86 120 97
85 119 95
85 119 96
85 118 95
84 118 95
85 119 96
84 117 94
84 117 94
85 117 93
85 117 93
84 116 92
85 118 94
82 114 91
82 114 91
83 114 90
82 114 90
81 112 88
81 112 88
80 110 86
79 108 84
76 104 80
76 105 81
76 104 80
76 104 80
73 99 76
70 95 73
60 82 63
48 67 53
44 62 49
33 48 37
31 45 36
33 48 38
31 45 37
34 48 38
32 47 38
36 52 42
35 51 42
40 58 47
42 60 49
46 66 54
45 64 52
48 70 58
49 72 61
50 73 61
51 75 63
52 76 64
55 81 68
54 79 66
55 80 67
57 84 71
56 82 69
56 83 70
56 82 69
58 86 73
58 85 72
56 83 70
59 87 74
60 88 75
61 90 76
64 93 79
65 93 78
67 96 79
68 97 81
71 102 84
72 103 85
73 104 86
75 107 88
77 109 89
78 111 91
79 112 92
79 113 92
81 114 92
82 115 93
81 115 93
83 116 94
83 117 94
83 116 94
83 117 95
83 117 95
83 117 95
84 117 94
84 117 95
84 118 95
84 118 95
84 117 95
84 118 95
83 117 95
83 116 94
83 118 96
83 117 95
83 116 94
82 116 94
83 117 95
84 117 95
83 117 94
83 116 94
83 116 94
83 117 95
83 118 96
83 116 94
83 117 95
83 117 95
83 117 95
83 117 94
83 117 95
83 116 94
83 117 94
83 117 96
83 118 95
83 117 94
83 117 95
83 118 96
83 117 95
82 116 95
83 117 95
83 116 94
91 128 102
90 126 101
91 128 102
91 127 102
91 127 102
90 126 101
90 126 101
90 126 101
90 126 101
90 127 102
90 126 101
90 125 101
90 126 101
89 125 100
89 125 100
90 126 101
89 125 100
89 125 100
89 124 100
89 125 100
89 125 100
90 125 100
89 124 99
89 123 99
87 121 97
89 124 99
88 122 98
87 121 97
87 121 96
87 122 97
87 121 97
87 121 97
86 119 95
86 118 94
85 117 94
83 115 92
84 115 91
84 116 92
83 115 91
83 114 90
78 107 84
75 103 81
69 96 76
62 86 69
55 77 63
46 65 54
43 61 52
42 60 50
38 55 47
40 57 48
40 57 48
40 58 49
37 54 46
42 60 51
39 58 49
42 62 53
43 62 53
44 64 55
46 68 58
49 71 60
49 71 61
80 78 64
236 115 68
255 124 72
255 126 73
255 125 73
255 125 74
255 137 88
255 171 124
255 204 155
255 204 156
255 174 128
255 139 94
242 120 75
238 116 70
234 114 68
232 113 68
229 111 67
226 110 67
224 109 66
222 108 65
218 107 65
216 106 64
214 105 63
213 104 63
207 101 61
201 98 59
190 93 56
162 94 64
94 121 96
87 122 98
88 122 98
87 122 97
88 123 99
87 121 97
88 123 99
88 123 99
87 121 97
87 122 98
87 122 98
88 122 98
88 123 99
87 121 97
88 123 99
87 122 98
88 122 98
87 121 98
87 122 98
88 123 100
88 123 99
88 123 99
86 121 97
87 122 98
86 121 97
87 122 98
86 121 97
87 121 97
87 121 98
87 121 98
86 121 97
87 121 98
86 119 96
86 120 97
86 120 97
86 120 97
87 121 97
86 120 97
86 121 97
85 120 96
86 121 97
86 120 96
86 121 97
85 118 95
84 118 94
68 91 88
41 39 72
44 42 79
43 42 79
42 41 78
43 41 78
43 41 79
42 39 76
42 40 78
41 40 78
41 41 80
40 40 78
41 41 82
38 38 76
37 37 74
36 37 73
37 38 75
37 37 75
36 37 73
36 36 72
35 36 71
36 36 72
36 37 74
35 36 71
35 36 71
34 35 69
33 34 66
31 32 62
32 32 63
29 30 58
65 89 80
84 117 94
84 118 94
85 118 95
84 118 95
85 119 96
84 117 94
85 120 96
85 119 96
84 118 96
85 119 95
85 119 96
85 119 96
85 118 95
85 119 95
85 119 96
85 119 96
85 119 96
85 119 96
85 118 95
84 117 94
84 118 95
85 119 95
85 118 95
85 119 95
85 117 94
84 117 94
84 117 94
84 116 93
84 118 95
84 117 93
84 117 93
84 117 93
83 115 92
82 113 89
83 115 91
82 114 90
80 110 86
82 114 90
81 112 88
79 109 86
79 109 85
80 110 86
77 105 81
76 105 81
76 104 80
73 100 77
70 97 76
64 88 69
56 78 62
46 66 52
44 63 50
43 62 50
42 61 50
43 61 50
41 59 47
43 63 52
43 63 51
47 69 57
46 68 57
49 72 60
51 75 63
52 76 64
52 77 65
53 78 65
53 78 66
53 78 66
55 80 68
55 81 68
55 81 68
56 83 71
58 86 73
57 84 71
60 88 75
58 86 72
59 88 74
59 86 73
61 90 76
65 95 80
66 95 79
68 98 82
69 99 82
70 101 84
72 104 86
74 106 88
77 108 89
77 110 90
79 112 91
79 112 92
80 113 92
81 114 92
82 115 93
82 114 92
83 116 94
83 116 94
83 117 94
84 118 96
84 117 95
84 118 95
84 118 96
84 118 96
84 117 95
84 117 95
83 117 95
83 117 95
83 118 95
83 117 95
83 118 95
83 117 95
83 117 95
84 117 94
83 117 95
83 117 95
83 117 95
83 117 95
84 118 96
83 117 95
83 117 95
83 117 95
83 117 95
83 117 95
83 118 96
83 118 95
83 117 95
83 117 95
83 117 95
83 117 95
83 117 95
83 117 95
83 117 95
82 116 94
83 117 95
83 117 95
83 117 95
83 117 95
83 116 93
90 126 101
91 127 102
90 127 102
91 127 102
90 127 102
90 127 102
90 126 101
91 127 101
90 126 101
90 126 101
90 126 101
90 126 101
90 126 101
90 125 101
89 125 100
90 126 101
90 125 101
89 124 100
89 125 100
89 124 100
89 125 100
89 124 99
88 123 99
88 122 98
89 124 99
88 123 99
88 122 98
88 123 98
88 122 98
87 122 98
87 122 97
88 123 98
87 120 96
87 121 97
86 120 95
85 118 94
84 116 92
84 116 92
83 115 91
82 112 89
84 116 92
81 112 89
77 107 85
74 102 81
70 98 78
63 89 72
59 83 67
54 77 64
51 74 62
47 68 57
45 64 54
45 65 55
43 61 52
47 68 58
44 65 55
47 69 59
48 69 58
49 71 61
49 73 62
50 74 63
52 76 65
194 101 64
255 122 70
255 123 72
255 124 72
255 123 73
255 127 78
255 151 104
255 180 133
255 198 151
255 182 136
255 147 103
244 124 79
237 116 70
233 113 68
230 112 67
228 111 67
226 110 66
223 109 66
221 108 65
218 107 64
216 106 64
212 104 63
211 103 62
208 102 62
203 99 60
196 96 58
188 92 56
179 89 54
137 102 75
88 123 99
88 122 98
88 122 98
88 123 99
88 123 98
88 122 98
88 123 98
87 121 98
88 123 99
88 123 98
87 122 98
87 122 98
88 122 98
87 121 97
87 121 98
88 123 99
87 122 98
87 122 98
87 122 98
87 121 97
88 122 98
87 122 98
87 121 97
87 121 98
87 121 97
87 122 98
86 121 98
87 121 97
86 121 97
87 121 98
86 120 96
87 121 98
86 120 97
86 120 97
86 120 97
86 121 97
85 119 95
85 118 95
86 119 96
85 119 96
85 119 95
86 120 97
85 119 95
85 120 97
80 111 93
38 38 67
40 39 72
41 39 74
42 40 76
40 39 74
40 38 73
40 38 74
38 37 71
39 38 74
37 37 71
37 38 74
36 37 72
35 36 70
37 37 75
36 37 73
35 36 72
34 35 69
35 36 70
35 36 71
34 35 69
33 34 66
36 36 72
33 34 67
31 32 62
30 32 61
31 32 61
30 32 61
28 29 55
31 33 58
80 112 92
84 118 95
84 117 94
85 119 95
84 117 94
85 119 96
85 118 95
85 119 95
84 118 95
85 119 95
85 120 96
85 119 96
85 118 95
85 119 96
85 119 96
85 118 95
85 119 96
85 118 95
84 118 95
85 119 96
85 119 95
84 118 95
85 118 95
85 119 96
85 119 96
85 119 96
85 119 96
84 118 94
85 118 95
85 119 95
84 117 93
84 117 93
85 118 94
83 116 92
83 114 90
84 118 95
82 114 90
82 114 90
81 113 90
81 112 89
82 114 91
80 111 88
80 111 87
79 109 85
79 109 85
78 107 83
77 105 82
76 105 81
75 103 80
74 102 80
71 98 77
65 91 71
62 88 70
55 78 62
56 80 64
55 77 62
48 70 56
52 76 62
51 74 61
51 75 63
51 74 62
53 78 66
52 76 63
53 78 66
55 80 67
56 82 69
55 81 68
58 85 72
56 83 70
59 86 73
57 84 71
58 86 73
59 86 72
62 91 77
63 91 76
64 93 78
66 96 80
66 96 80
68 98 81
70 101 84
72 103 85
73 104 86
74 105 86
76 107 88
77 109 89
79 111 91
79 112 91
80 113 92
80 114 93
81 114 93
83 116 94
82 116 94
83 116 94
83 117 95
83 116 94
83 117 95
84 117 95
84 117 95
84 118 95
83 117 95
84 118 96
84 118 96
84 117 95
83 117 95
84 118 95
84 118 96
84 118 95
84 118 96
84 117 95
83 117 94
83 117 95
83 117 95
83 118 96
83 117 95
83 118 96
83 117 95
83 117 95
83 118 96
83 117 95
83 117 95
83 118 95
83 117 95
83 118 95
83 117 95
83 117 94
83 117 95
83 117 94
83 117 95
83 117 95
83 117 95
83 117 96
83 118 95
83 117 96
83 117 95
83 117 95
83 118 96
91 127 102
90 126 101
91 127 102
90 126 102
90 126 101
90 126 101
90 126 101
90 126 101
90 126 102
90 126 101
90 126 101
90 126 101
90 126 101
89 125 100
90 126 101
89 125 100
90 125 100
89 124 99
90 125 100
89 124 99
89 125 100
89 125 100
88 123 99
89 124 99
88 123 99
89 124 99
88 123 98
89 124 99
87 122 98
88 122 97
87 122 97
87 121 97
87 121 96
87 121 96
86 119 95
85 118 94
85 118 94
86 120 96
85 119 95
85 118 93
85 118 94
85 118 94
83 115 91
82 114 90
78 109 86
78 108 86
75 105 84
72 100 81
64 90 73
65 91 74
62 88 72
61 87 72
61 86 71
60 85 70
62 88 73
60 86 72
62 88 73
61 88 73
63 90 75
62 88 73
144 99 72
253 120 70
255 121 70
255 122 71
255 122 71
255 122 72
255 127 78
255 141 95
255 155 110
255 151 106
254 136 91
242 122 77
235 115 70
233 113 68
230 112 67
227 110 66
225 110 66
222 108 65
219 107 65
216 106 64
214 105 64
212 104 63
209 103 62
207 101 62
204 100 61
200 98 59
192 95 58
185 91 55
172 85 52
164 82 50
104 115 90
88 123 99
88 122 98
87 121 98
87 122 98
87 122 98
88 122 98
88 123 98
87 122 98
88 123 99
87 122 98
88 123 99
87 122 98
88 123 99
87 122 98
87 121 97
87 122 98
87 121 98
87 122 98
87 122 98
86 121 97
87 123 99
87 121 97
87 121 97
87 121 97
87 121 98
87 121 97
86 121 97
87 121 97
87 122 98
86 120 97
86 121 97
86 121 97
86 121 97
85 120 96
85 120 97
86 120 97
85 119 96
86 120 97
85 119 96
84 117 94
85 119 96
85 119 95
84 117 94
83 116 93
52 65 71
37 36 65
36 35 64
38 37 67
35 35 64
38 37 70
37 36 69
35 35 65
36 35 68
34 35 68
34 35 68
33 34 66
34 35 68
33 34 66
34 35 69
31 33 63
35 35 69
31 33 62
33 34 66
30 32 60
32 34 65
32 33 64
28 30 57
32 33 63
32 33 63
30 31 60
28 30 57
28 29 55
54 72 71
85 119 96
84 117 94
83 117 94
84 118 95
85 119 96
83 117 94
85 119 96
84 118 95
85 119 96
85 119 96
84 118 95
84 118 95
84 119 96
85 119 96
86 120 96
85 118 95
85 119 96
85 119 96
85 119 96
85 119 96
84 119 96
85 120 97
84 118 95
85 119 96
85 118 95
84 118 95
84 117 94
84 118 95
84 118 94
85 118 95
85 118 94
84 117 94
84 117 93
84 117 94
83 115 92
84 117 94
83 116 92
82 115 91
82 115 91
82 114 90
81 113 89
81 113 89
81 113 90
80 111 87
80 111 87
80 111 88
79 110 87
79 110 87
79 109 86
78 108 85
78 108 85
77 107 84
79 109 86
74 103 81
74 103 82
72 101 81
69 97 78
68 95 77
64 91 74
64 91 74
66 94 77
62 88 72
63 91 75
62 88 73
61 89 73
61 89 74
64 92 76
63 91 75
63 90 75
65 95 79
67 96 79
67 97 81
68 97 81
68 99 82
69 98 81
68 98 81
73 104 85
74 106 86
74 106 87
75 107 87
77 108 88
77 108 88
78 111 90
79 113 92
79 112 91
81 114 93
82 115 93
81 115 93
83 116 94
83 116 94
82 116 94
82 116 94
84 118 95
83 118 95
84 118 96
84 118 95
84 118 95
84 118 96
84 118 95
84 118 95
83 118 95
84 118 96
83 117 95
84 117 95
84 118 96
83 117 95
84 118 95
83 117 95
83 116 94
83 117 95
83 117 95
84 118 96
84 117 95
83 117 95
83 117 95
83 117 95
83 117 95
83 116 94
83 117 94
83 117 95
83 117 95
83 118 96
83 118 96
83 117 95
83 116 94
83 118 96
83 117 95
83 118 96
83 118 96
83 117 95
83 117 95
84 118 96
83 117 95
83 117 95
83 118 96
83 117 95
91 127 102
91 127 102
91 127 102
90 125 101
91 127 102
90 126 101
90 126 101
90 127 102
90 127 102
91 127 102
90 125 101
90 125 101
90 126 101
90 126 101
90 125 100
90 126 101
90 125 101
89 125 100
90 126 101
89 125 101
89 124 100
88 123 98
89 123 99
89 124 100
88 123 99
89 125 100
88 123 98
88 123 99
88 122 98
87 121 97
87 121 97
88 122 98
87 120 96
87 121 97
86 120 96
85 118 94
86 119 95
86 119 95
86 120 95
86 118 94
85 117 94
85 117 93
85 118 94
85 117 93
84 116 92
83 114 90
82 114 91
81 112 89
80 112 89
76 106 85
79 110 88
78 109 88
76 106 85
75 105 85
73 102 82
74 103 83
73 102 82
76 107 87
75 105 85
79 108 87
211 113 71
248 118 67
253 120 70
255 121 70
254 121 71
251 120 71
251 122 74
250 125 78
250 127 80
244 122 76
240 117 71
235 114 68
233 113 67
229 111 67
227 110 66
224 109 66
221 108 65
218 107 64
216 106 64
213 104 63
211 103 63
208 102 62
207 101 61
203 100 61
199 98 59
191 94 57
186 92 56
173 86 52
166 83 50
163 81 49
140 95 67
87 122 97
87 122 98
88 123 99
88 122 98
88 123 99
87 122 98
88 122 98
88 122 98
88 123 99
88 123 99
88 123 99
87 122 98
87 121 97
87 122 98
87 122 98
87 122 98
87 122 98
87 122 99
88 123 99
87 122 98
87 122 98
87 121 98
86 121 98
87 121 97
86 120 96
87 121 97
86 120 96
87 122 98
87 121 97
86 121 97
86 120 97
86 120 97
86 121 97
85 118 95
85 118 95
85 118 95
85 119 95
85 119 96
84 117 94
84 118 95
85 119 96
83 116 93
84 117 93
83 117 94
73 101 85
34 34 57
33 33 58
32 32 57
34 33 60
32 32 58
32 33 61
31 32 59
32 33 63
32 33 63
31 33 63
32 33 63
31 32 61
32 33 63
29 31 57
31 32 61
31 32 61
31 33 63
30 32 60
29 31 58
30 31 59
30 32 60
29 30 57
29 30 57
26 29 52
27 29 54
26 28 52
26 28 52
69 96 81
81 113 91
81 114 92
82 114 92
83 116 93
82 115 93
84 117 95
83 117 94
84 118 95
83 116 93
84 117 95
84 118 95
83 116 94
84 118 96
85 119 96
85 119 95
84 118 95
84 118 95
84 118 95
85 119 96
85 119 96
85 118 95
85 119 95
85 119 96
85 119 96
84 118 94
85 119 96
84 118 95
84 118 95
85 119 96
84 117 94
85 119 95
84 118 94
84 117 94
85 118 94
84 116 93
83 117 93
83 116 93
83 115 91
83 116 93
83 116 92
84 116 92
83 115 92
82 114 90
81 113 89
80 111 88
81 112 89
81 113 90
81 113 90
81 112 89
81 112 88
81 112 89
80 111 88
81 112 89
81 112 89
79 110 86
80 111 88
78 109 87
79 110 87
77 107 86
76 106 84
76 108 87
75 106 85
74 105 84
75 104 84
75 105 85
74 104 84
73 103 83
76 108 88
73 104 85
76 108 88
76 109 89
76 109 89
75 107 87
76 106 86
77 109 89
79 112 91
78 110 90
78 110 90
79 113 92
80 114 93
80 113 92
81 113 91
81 115 93
82 115 93
82 115 93
83 116 94
83 116 94
82 116 94
83 117 95
84 117 95
84 118 96
84 119 96
84 118 96
83 118 96
84 118 96
84 118 96
84 118 96
84 118 96
84 119 96
83 117 95
83 117 95
84 118 96
83 117 95
84 118 95
84 118 96
83 118 96
84 118 95
84 118 96
84 118 96
83 118 96
83 117 95
83 117 95
84 118 95
83 118 96
84 118 95
83 118 96
83 118 96
83 118 96
83 118 96
83 117 95
84 118 95
84 118 95
83 117 95
83 117 95
83 117 95
83 118 96
83 117 96
83 118 96
83 117 95
83 117 95
83 118 96
83 118 96
83 117 95
83 117 95
83 117 95
83 118 95
91 128 103
91 127 102
91 127 102
90 126 101
91 127 102
90 127 102
90 126 101
90 126 101
90 126 101
91 127 102
91 127 102
90 126 101
90 126 101
90 126 101
89 125 101
91 127 102
90 126 101
90 126 101
90 126 101
89 125 100
89 124 99
89 124 100
89 123 99
88 123 99
89 125 100
88 124 99
89 124 99
88 123 99
87 122 98
88 123 99
88 122 98
87 121 97
88 123 98
87 122 98
87 122 97
87 121 97
85 118 94
87 121 96
87 120 96
87 121 96
86 120 96
86 118 95
86 119 95
86 118 94
86 119 95
85 118 94
85 116 92
84 116 92
84 116 92
84 117 93
84 117 93
84 116 92
86 119 95
84 116 93
84 116 93
83 115 92
84 116 93
83 116 93
84 116 93
128 116 89
243 116 67
246 117 67
243 116 67
248 117 68
249 118 69
245 117 69
247 118 70
243 117 70
241 116 69
238 115 68
234 113 68
233 112 67
229 111 66
227 110 66
224 109 65
221 108 65
217 106 64
216 105 64
212 104 63
209 103 62
208 102 62
204 100 61
203 100 60
197 97 59
192 95 58
187 93 56
179 89 54
175 87 53
170 85 51
162 81 49
152 80 50
98 117 93
87 122 98
88 123 99
88 122 98
88 123 99
88 124 100
88 123 99
88 123 99
87 122 98
87 122 98
88 123 99
87 122 98
87 121 97
88 123 99
87 121 98
86 121 97
87 122 98
86 121 97
87 122 98
87 122 98
87 121 97
87 122 99
87 122 98
87 122 98
86 120 97
86 120 96
86 120 97
86 120 97
86 120 96
86 121 98
85 119 96
85 119 96
86 120 96
86 121 97
85 119 95
85 119 96
85 119 96
85 119 96
86 120 96
84 117 94
83 115 92
84 118 94
84 117 94
83 116 93
82 114 91
54 73 69
29 30 52
30 30 53
28 29 50
30 30 53
28 29 53
26 28 49
26 28 51
27 29 53
28 30 55
29 31 58
27 30 53
30 32 60
29 31 58
30 31 59
29 31 57
28 30 55
30 32 60
29 31 57
26 29 51
27 29 53
27 29 54
25 28 50
26 28 52
24 27 48
24 26 47
42 58 58
74 104 85
73 104 84
73 103 84
76 108 88
77 108 88
78 110 89
77 108 88
80 113 92
79 111 90
80 113 91
80 112 90
82 115 93
82 115 92
84 117 94
84 117 95
85 120 96
85 119 96
85 118 95
85 119 96
85 120 96
85 119 96
85 118 95
84 117 94
85 119 96
85 118 95
85 119 96
85 120 97
85 119 96
84 118 94
84 119 96
84 117 94
84 118 94
85 119 95
84 118 95
84 118 95
85 119 95
84 118 94
83 116 93
84 117 94
84 117 94
83 115 92
83 117 93
83 116 92
84 117 93
83 115 92
83 115 92
83 115 91
81 113 90
82 114 91
81 113 90
81 113 90
82 115 92
82 114 91
81 114 90
81 114 91
82 115 91
82 114 90
81 114 90
81 112 89
82 115 91
82 114 91
82 114 91
81 114 91
82 115 92
82 115 93
80 112 90
81 114 92
81 113 91
81 114 91
81 114 91
82 115 93
81 114 92
81 114 91
83 116 93
81 114 93
82 115 94
82 115 93
82 115 93
83 116 94
82 116 93
82 116 93
82 116 94
83 116 94
83 117 95
83 117 94
83 117 95
83 118 96
84 118 95
83 118 95
83 118 95
84 118 96
84 118 96
84 118 96
84 118 96
84 119 96
83 117 95
84 118 95
84 119 96
84 118 96
83 118 95
84 118 95
84 118 96
83 118 96
84 118 96
84 118 95
84 118 96
83 118 96
84 118 95
84 118 95
84 117 95
83 118 96
84 117 95
83 118 96
84 118 96
83 117 95
83 117 95
83 117 95
83 118 96
83 118 96
83 117 95
83 117 95
83 117 95
83 117 95
83 118 95
83 118 96
83 118 96
83 118 95
83 117 95
83 117 95
83 117 95
83 118 95
83 117 95
83 117 95
83 118 95
83 118 96
83 117 95
83 118 96
91 127 102
91 127 102
90 126 101
91 127 102
90 126 101
90 127 102
90 127 102
90 126 101
90 126 102
90 126 101
90 126 101
90 126 101
90 126 101
90 126 101
89 125 100
89 125 100
89 125 100
90 125 101
89 124 100
90 126 101
90 125 100
90 125 101
90 125 100
89 124 99
89 124 100
88 123 99
89 124 100
89 124 99
88 122 98
88 123 99
88 122 98
88 123 98
88 123 99
87 122 97
88 122 98
88 122 98
87 122 98
87 122 97
87 120 96
87 122 98
86 120 96
87 121 96
87 121 97
86 120 96
85 118 94
86 119 95
85 118 94
87 120 96
86 119 95
86 119 95
87 120 96
86 120 96
85 118 94
86 118 94
87 121 97
86 119 95
86 120 96
87 121 97
86 119 95
183 115 79
241 114 65
239 114 65
244 116 66
245 117 68
245 117 68
241 115 68
241 115 68
239 115 68
238 114 68
235 113 67
232 112 66
228 110 66
225 109 65
224 108 65
220 107 64
218 106 64
215 105 63
212 104 63
208 102 62
206 101 61
204 100 61
201 99 60
194 96 58
190 94 57
186 92 56
180 90 55
174 87 53
170 85 51
167 84 51
168 84 50
150 75 45
116 107 82
88 122 98
87 121 98
87 122 98
88 123 99
88 122 98
88 122 98
88 122 98
87 122 98
87 122 98
88 123 99
87 121 97
87 123 99
87 122 98
88 122 97
87 122 98
88 123 99
87 121 98
87 122 98
87 121 98
87 121 98
88 123 99
86 121 98
87 122 99
87 122 98
86 120 97
86 120 96
86 120 97
87 121 97
86 120 96
85 119 96
85 119 96
86 120 96
86 120 96
85 119 96
84 117 94
84 118 95
85 118 94
85 119 95
85 118 95
84 116 93
83 116 93
83 116 93
83 116 93
83 115 92
80 110 89
38 47 53
28 27 46
26 27 46
26 27 45
26 27 47
26 27 47
26 29 52
27 29 53
27 29 52
28 30 55
28 30 55
28 30 55
26 29 51
28 30 55
28 30 54
27 30 54
26 28 50
26 28 51
25 27 49
25 27 49
24 27 47
22 25 43
22 25 43
23 25 45
27 35 44
57 83 70
60 87 72
61 90 75
64 92 76
65 93 77
68 99 82
69 98 81
69 99 82
73 104 85
73 104 86
77 109 89
76 107 87
78 111 90
80 113 92
80 113 91
81 114 92
81 113 91
83 117 95
84 117 94
84 118 95
84 118 94
85 119 96
84 118 95
85 119 95
85 119 96
85 119 96
85 118 95
85 119 97
85 119 96
85 119 96
85 119 96
85 119 96
84 118 95
85 119 95
85 119 96
84 118 94
84 117 94
85 118 95
84 118 95
83 116 93
84 118 95
84 117 93
84 117 94
83 115 92
85 119 96
83 116 93
83 116 93
83 116 93
83 116 93
83 115 92
82 115 91
83 117 93
83 117 93
82 114 91
83 115 92
82 116 93
83 115 92
82 116 93
82 115 92
83 116 93
83 116 93
82 115 92
82 115 92
84 117 94
83 116 93
83 117 94
83 116 94
83 116 94
83 117 94
82 115 93
83 116 93
84 117 95
83 116 93
83 116 94
83 117 94
84 117 95
84 118 95
84 118 95
84 118 95
83 117 94
84 118 95
84 118 96
83 118 95
84 118 95
84 118 95
84 118 95
84 117 95
84 118 95
84 118 95
84 118 96
84 118 95
84 118 95
84 118 96
84 118 95
83 118 95
83 117 95
84 118 96
84 118 95
84 118 96
84 118 96
84 118 96
84 118 96
83 117 95
84 118 96
84 119 96
84 119 96
84 118 96
83 117 95
84 118 95
84 119 96
83 118 96
84 118 96
84 118 95
84 118 96
83 117 95
84 118 96
83 118 96
84 118 96
83 118 96
83 118 96
83 118 95
84 117 95
84 118 95
84 118 96
84 118 96
83 117 95
84 118 95
83 118 95
84 118 96
83 118 96
83 118 96
83 117 96
83 117 95
83 117 95
83 118 96
83 118 96
83 118 96
83 117 95
91 127 102
90 127 102
90 126 102
91 126 101
91 127 102
90 126 102
90 127 102
90 126 101
91 127 102
90 126 101
90 126 101
90 126 101
90 127 102
90 126 102
90 126 101
90 126 101
90 126 101
90 125 101
89 125 100
90 126 101
89 125 100
89 124 100
89 124 100
89 124 100
89 124 99
89 124 100
90 125 100
89 124 99
89 123 98
89 124 100
88 124 99
88 122 98
87 122 98
88 123 98
89 124 99
88 122 97
88 122 98
87 121 97
87 122 97
88 123 99
87 121 97
88 123 98
88 122 98
87 120 96
89 125 100
87 121 96
87 121 96
86 120 96
88 122 98
87 121 97
88 122 98
88 122 98
87 121 96
86 120 96
87 121 97
86 119 95
87 121 97
88 121 97
90 121 96
213 113 71
234 111 63
237 113 65
234 112 64
236 112 65
236 113 66
237 113 66
236 113 66
234 112 66
232 111 66
229 111 66
227 110 65
225 109 65
223 108 64
221 107 64
217 106 63
216 105 63
212 103 62
209 102 62
205 101 61
202 99 60
196 97 59
194 96 58
188 93 57
184 92 56
179 89 54
175 88 53
170 85 51
171 86 52
166 83 50
164 82 49
155 78 46
130 92 66
88 123 99
88 122 98
88 123 98
88 122 98
88 122 98
88 123 99
87 122 98
87 121 97
87 122 98
88 123 98
87 122 98
87 121 97
87 122 98
87 122 98
87 122 98
86 120 97
86 121 97
86 120 97
87 121 98
87 121 97
87 122 98
86 121 97
87 122 98
86 120 97
86 121 97
85 120 96
86 120 96
87 121 97
85 118 95
86 120 97
86 120 97
86 121 97
85 118 95
85 118 95
84 118 95
83 116 93
84 117 94
84 117 94
84 118 95
83 115 92
84 118 95
82 114 91
81 113 90
82 113 90
80 110 88
73 100 81
30 37 44
23 25 39
23 25 40
24 26 43
24 26 45
25 27 46
25 27 47
25 28 49
25 28 49
23 26 45
24 27 48
24 27 47
23 27 46
22 26 44
25 28 49
24 27 46
22 25 42
22 25 43
23 26 46
22 25 43
21 24 42
19 22 37
20 26 37
45 67 60
52 77 66
51 75 65
53 79 68
54 80 68
56 83 71
57 84 71
56 83 70
60 88 74
61 89 75
66 96 80
66 95 79
72 103 84
73 103 85
75 107 88
76 108 88
77 109 89
80 113 92
80 112 91
81 115 93
82 116 94
82 116 93
84 118 96
83 117 94
84 117 95
84 118 95
84 118 95
85 119 96
85 119 96
85 119 96
85 119 96
84 118 95
84 118 95
84 118 95
85 120 97
85 119 96
85 119 96
85 118 95
85 119 96
85 118 95
84 118 95
85 119 96
84 118 95
84 117 93
84 118 94
84 118 95
83 117 93
84 117 93
83 117 94
84 117 94
84 117 94
83 116 93
83 117 94
83 116 93
83 116 93
83 116 93
83 117 94
82 115 92
84 118 95
83 116 93
83 116 93
82 115 92
83 117 95
83 116 93
83 116 93
83 117 94
83 117 94
83 117 94
84 117 94
83 117 94
84 118 95
84 117 94
83 117 94
83 118 95
84 118 95
83 117 94
83 117 95
84 119 96
84 118 96
84 118 95
84 118 96
84 117 94
84 118 95
84 118 96
84 118 95
84 117 95
84 118 95
84 118 96
83 118 95
84 118 96
84 119 96
84 118 95
84 118 96
84 119 96
84 118 96
84 118 96
84 118 95
84 118 95
84 118 96
84 119 96
83 118 95
84 119 96
84 119 96
84 118 96
84 118 96
84 118 95
83 118 96
83 118 95
83 118 95
84 118 96
84 118 96
84 118 96
83 118 96
83 118 96
83 117 95
83 118 96
83 118 96
83 118 95
84 118 96
83 117 95
84 118 96
84 118 96
83 117 95
83 118 95
83 117 95
83 117 95
83 118 96
83 117 95
83 118 96
83 117 96
83 118 96
83 117 95
83 117 95
84 118 96
83 118 96
83 117 95
83 118 96
83 118 96
83 117 95
91 127 102
91 127 102
91 127 102
91 127 102
90 126 101
91 127 102
90 126 101
91 127 102
90 127 102
90 126 101
90 127 102
90 126 101
89 125 101
90 125 101
90 126 102
90 125 100
90 126 101
89 125 100
90 126 101
90 125 101
90 125 100
90 126 101
90 126 101
89 124 99
90 125 100
89 124 100
90 125 101
89 124 99
89 125 100
88 123 99
89 124 99
89 124 99
88 123 99
89 123 99
88 122 98
88 124 100
88 122 98
88 122 98
87 121 97
89 123 99
88 123 99
88 123 99
87 120 96
88 123 99
88 122 98
88 123 98
87 121 97
88 122 98
88 122 97
87 121 97
88 121 97
87 121 97
88 122 97
87 121 96
88 122 97
87 121 97
88 122 98
87 122 98
104 120 95
223 108 63
229 109 62
231 110 63
233 111 64
233 111 65
231 111 64
231 111 65
232 111 65
229 110 65
226 109 64
224 108 64
223 107 64
220 107 64
218 105 63
215 104 63
212 103 62
210 102 61
206 100 61
201 99 59
201 98 60
195 96 58
190 93 56
185 92 56
180 89 54
177 88 54
179 89 54
171 86 52
167 84 50
166 84 50
161 81 48
157 79 47
155 77 46
138 81 54
90 123 98
88 122 98
88 123 99
88 122 98
87 121 98
88 122 98
87 122 98
88 123 99
87 122 98
87 121 98
87 121 97
87 121 98
87 121 97
87 122 98
87 122 98
87 121 97
87 122 99
87 122 98
87 122 99
87 121 98
86 120 97
86 121 97
86 121 97
87 121 98
86 121 98
86 120 97
87 122 98
85 120 97
87 121 98
85 119 95
86 120 96
84 117 94
84 117 94
85 118 95
85 119 95
85 118 95
84 117 94
84 116 93
84 117 94
82 114 91
83 116 92
81 113 90
80 112 89
79 110 87
79 109 87
79 108 86
68 92 74
34 44 48
22 24 38
22 25 39
21 24 38
23 26 41
25 27 44
21 24 39
21 25 40
23 26 43
21 24 39
22 26 43
20 24 39
21 25 41
22 26 44
21 24 40
19 23 37
21 24 41
18 22 37
17 21 34
17 20 34
22 28 40
44 65 56
48 70 60
46 69 59
48 71 61
53 80 68
51 75 64
53 79 67
52 78 67
55 81 70
57 84 72
56 84 72
60 88 75
63 92 77
65 94 78
66 96 80
70 101 83
70 100 83
74 105 87
76 108 89
75 107 87
79 112 91
79 111 90
81 115 93
82 115 93
83 117 94
82 116 94
84 118 95
84 118 95
84 118 95
84 118 96
85 119 96
85 119 96
85 119 96
85 120 96
84 119 96
84 118 96
85 119 96
85 119 95
84 119 96
85 119 96
85 119 96
85 119 96
84 117 94
85 118 95
84 117 94
84 118 95
84 118 95
84 118 95
84 117 94
85 119 96
84 119 96
84 119 95
84 117 94
83 116 93
83 116 93
84 118 95
84 117 94
83 116 93
84 117 94
84 117 94
83 117 94
84 117 94
84 118 94
83 117 94
84 117 94
83 116 93
84 117 94
83 117 94
84 118 95
84 118 96
83 116 94
85 119 96
84 118 95
84 118 95
83 117 94
83 117 95
84 118 96
84 118 95
84 118 96
84 118 95
84 119 96
84 118 95
84 119 96
84 118 96
84 118 96
84 118 96
84 118 96
84 118 95
84 118 96
84 118 96
84 118 96
84 119 96
84 119 96
84 118 96
84 117 95
84 118 96
84 119 96
84 118 96
84 119 96
84 118 96
84 118 96
84 118 96
83 118 96
84 119 96
84 119 97
84 119 96
84 118 96
84 118 95
84 119 96
84 118 96
83 118 96
84 118 96
84 118 96
84 119 96
84 118 96
83 118 96
84 118 96
84 118 96
83 118 95
83 118 96
83 118 95
83 118 96
83 118 96
83 118 96
83 117 95
83 118 96
83 118 96
83 118 96
84 118 95
83 117 95
83 118 96
84 118 95
83 118 95
83 118 96
83 118 95
83 118 96
83 117 95
83 117 95
83 118 96
83 117 95
90 127 102
91 126 101
91 127 102
90 127 102
91 127 102
91 127 102
90 126 101
90 126 102
91 127 102
90 126 101
90 126 101
90 126 101
90 126 101
90 126 101
90 126 101
90 126 101
89 124 100
90 126 101
90 126 102
90 126 101
90 125 100
89 125 100
90 125 100
90 126 101
89 124 100
89 124 99
89 124 100
89 124 99
89 125 100
89 125 100
89 124 100
89 124 100
89 123 99
89 124 99
89 123 99
90 126 101
89 123 98
89 124 99
89 124 99
88 122 98
89 124 99
88 122 98
88 123 99
89 124 99
88 122 98
88 122 98
88 122 98
88 122 97
88 123 98
87 121 97
88 122 98
88 122 98
88 122 98
87 121 96
88 122 98
87 121 97
88 122 98
88 123 99
120 119 92
220 105 59
224 107 61
225 108 62
224 107 62
226 108 63
229 109 64
223 107 62
222 107 62
221 106 62
216 104 61
217 105 62
214 104 61
211 102 61
209 102 61
208 101 61
207 101 61
202 98 59
198 97 58
196 96 58
192 95 57
187 92 56
179 89 54
175 87 53
176 88 53
169 85 51
172 86 52
171 85 51
173 86 52
164 83 49
165 82 49
154 78 46
155 78 45
138 76 47
91 119 95
87 121 97
87 122 98
88 123 99
87 122 98
88 122 99
87 122 98
86 120 96
88 123 99
87 122 99
88 123 99
88 122 98
87 121 98
88 123 99
88 123 99
87 121 97
87 122 98
86 121 97
87 122 98
86 121 97
87 122 98
87 122 98
86 121 97
86 121 97
86 120 97
87 122 98
87 121 98
85 120 96
85 118 95
85 119 95
85 119 96
85 119 96
85 118 95
85 118 94
84 118 95
83 116 93
83 116 93
84 117 94
82 115 91
81 112 90
81 113 90
81 112 90
80 111 89
79 109 86
78 107 85
79 109 86
78 107 85
69 94 76
34 45 45
19 23 35
20 24 37
20 24 36
20 24 36
20 24 37
20 23 36
19 23 35
20 24 38
18 22 33
18 22 35
18 22 34
16 20 31
17 21 32
16 20 31
15 19 29
14 18 29
13 17 27
20 28 30
41 62 54
43 64 55
46 68 58
49 72 62
49 73 63
51 75 64
50 75 64
51 76 65
52 78 67
52 78 67
54 81 69
55 81 70
55 81 70
58 85 72
58 86 73
61 90 77
64 94 78
68 99 82
69 98 82
72 103 86
75 106 87
75 108 88
77 110 90
78 110 89
80 113 92
81 115 93
82 116 93
82 115 93
83 117 95
84 118 95
85 119 96
85 119 96
85 119 96
85 120 97
85 120 97
85 119 96
85 119 95
85 119 96
85 120 96
85 120 96
85 119 96
86 120 97
84 118 95
85 119 96
84 118 96
84 119 96
85 119 95
85 119 96
85 119 96
84 117 94
84 118 95
84 118 95
84 118 94
84 117 94
84 119 96
84 118 95
84 117 94
84 117 94
84 118 95
84 117 94
84 118 95
84 119 96
84 117 94
84 118 95
83 116 94
84 118 95
84 118 95
84 117 94
83 117 95
84 117 94
83 117 95
84 118 95
84 118 95
84 118 95
84 118 95
84 118 96
84 119 96
84 119 96
84 118 95
84 118 95
84 118 95
84 118 95
84 119 96
84 118 95
84 119 97
85 119 97
84 118 95
84 118 95
84 119 96
84 118 95
84 119 96
84 118 96
84 118 96
84 118 96
84 118 96
84 118 96
84 118 96
84 118 95
84 118 96
84 119 96
84 118 95
84 118 96
84 119 96
84 119 96
84 118 96
84 119 97
84 118 96
84 118 96
84 119 96
84 118 96
84 118 96
84 118 96
84 118 96
84 118 96
84 118 96
84 118 96
84 118 96
84 118 95
84 118 96
84 118 96
84 118 96
84 118 96
84 118 95
84 118 96
83 118 96
83 117 95
83 118 95
83 118 96
83 118 96
83 118 96
83 118 96
83 117 95
83 118 96
83 118 96
83 118 96
83 118 96
83 118 96
83 118 96
83 118 96
83 118 96
83 118 96
91 127 102
90 127 102
90 126 101
91 127 102
90 127 102
90 127 102
90 127 102
91 127 102
90 126 101
89 125 100
90 126 101
90 127 102
90 127 102
90 126 101
90 126 101
90 126 101
90 126 101
90 125 100
89 125 100
90 126 101
90 126 101
90 125 100
89 124 100
90 125 101
90 126 101
90 126 101
89 125 101
89 125 100
89 125 100
89 124 100
89 124 99
88 123 98
89 124 100
89 123 99
89 124 99
89 125 100
89 125 100
88 123 99
89 123 99
88 123 99
89 123 99
88 123 99
88 123 99
88 122 98
88 123 99
88 122 98
88 123 99
88 124 99
88 123 99
88 122 98
89 124 100
88 123 99
88 123 98
88 124 99
88 122 98
88 123 99
88 122 97
88 121 97
125 118 91
212 102 57
219 105 60
216 104 59
215 103 59
218 105 60
217 105 61
217 104 61
212 103 60
214 103 60
211 102 60
210 102 60
208 101 59
206 100 59
202 99 58
196 96 57
197 96 58
198 97 58
193 95 57
186 92 55
182 90 55
173 87 52
171 85 51
173 87 52
165 83 50
170 85 51
169 85 51
166 83 50
165 83 49
164 82 48
156 79 46
152 77 45
150 75 44
135 72 43
93 118 94
88 123 99
87 122 98
87 122 98
88 122 98
88 123 99
87 122 98
87 122 98
87 122 98
87 122 98
87 121 97
87 121 97
87 121 98
87 122 98
87 121 97
87 121 98
87 121 98
87 122 98
87 122 98
86 120 97
86 121 97
86 120 97
86 121 97
87 121 98
86 120 97
86 121 97
86 121 97
86 120 97
86 121 97
85 119 96
84 117 94
86 120 96
84 118 95
85 118 95
84 117 93
84 117 93
84 118 95
83 115 92
81 112 90
81 113 90
83 115 92
79 109 87
81 112 89
79 110 87
79 108 85
78 108 85
77 106 83
76 105 82
68 94 73
46 62 53
22 27 35
19 22 34
19 23 35
20 23 35
19 22 34
19 23 35
18 22 33
18 22 33
16 21 32
16 20 31
15 19 30
15 19 29
14 18 28
13 16 26
13 18 25
28 41 37
36 53 45
38 56 48
42 61 53
43 65 56
46 68 58
49 73 62
51 76 65
51 75 64
52 77 65
53 78 67
52 77 66
53 79 68
54 80 68
54 81 70
54 81 69
56 84 72
59 88 75
61 90 77
63 92 78
64 94 79
68 98 82
72 104 86
72 103 84
75 107 87
77 109 89
77 110 89
79 113 92
82 116 94
81 115 93
83 116 94
84 118 95
83 117 94
84 119 96
85 120 97
85 119 96
85 119 96
85 119 96
85 119 96
85 119 96
85 119 96
85 119 96
85 119 95
85 119 96
85 119 95
84 118 95
85 119 96
84 118 95
85 119 96
84 118 95
85 119 96
84 119 96
85 119 97
84 118 95
85 119 96
84 118 96
84 118 95
84 118 95
84 118 94
84 119 96
84 118 95
84 118 95
84 118 95
84 118 95
83 117 95
84 117 94
84 118 95
84 118 95
84 119 96
84 119 96
84 119 96
85 119 96
83 117 95
84 118 95
84 118 95
84 118 96
84 118 95
84 118 95
84 119 96
84 119 96
84 119 96
84 119 96
84 118 96
84 119 96
84 118 96
84 119 97
85 119 96
84 118 96
84 118 96
84 118 95
84 118 96
84 119 96
84 118 96
84 118 95
84 119 96
84 119 96
84 119 96
84 118 95
84 119 96
84 119 96
84 118 96
84 118 96
84 118 96
84 118 96
84 119 96
84 119 96
84 119 96
84 118 96
84 118 96
84 119 96
84 119 96
84 118 96
84 118 96
84 119 96
84 118 96
83 118 96
84 119 96
84 118 96
84 119 96
84 118 96
84 118 96
84 118 96
84 118 96
83 118 96
83 118 96
84 118 96
83 118 96
83 118 96
84 118 96
84 118 96
84 118 96
83 118 96
84 118 96
83 118 96
83 118 96
84 118 96
83 118 96
83 118 96
83 117 95
83 118 96
83 117 95
83 118 96
83 118 96
91 127 102
90 126 102
90 126 101
90 126 101
90 126 101
91 127 102
91 127 102
91 126 101
91 127 102
90 127 102
90 126 101
90 127 102
90 126 101
91 127 102
90 126 102
90 125 100
89 125 101
90 125 100
90 127 102
90 126 101
90 125 101
89 125 101
90 126 101
89 124 100
89 124 99
89 125 100
89 124 100
89 124 100
89 124 99
89 125 100
89 124 100
90 125 100
89 125 100
89 125 101
88 124 100
88 124 99
89 124 100
89 124 99
88 123 99
89 124 99
89 124 100
89 124 99
89 124 100
88 123 99
89 124 100
88 123 99
89 124 99
89 124 100
88 122 98
88 123 98
89 124 99
88 123 99
88 122 98
88 122 98
88 123 99
89 123 99
89 124 100
88 122 98
123 117 90
207 100 56
209 100 56
217 104 60
210 101 58
214 103 59
209 101 58
209 101 58
207 100 58
205 99 57
205 99 58
203 99 58
202 98 58
198 97 57
195 96 57
192 94 56
193 95 57
186 92 55
182 90 54
176 87 52
172 86 51
172 86 51
173 86 51
169 84 50
170 85 51
166 83 50
163 82 48
164 82 48
162 82 48
159 80 47
150 76 44
149 75 43
140 72 41
132 69 40
94 116 92
87 122 98
87 121 97
87 122 98
87 122 97
87 122 98
87 122 98
88 123 99
87 122 98
86 120 97
87 122 98
87 121 97
87 121 98
87 122 98
87 121 98
87 121 97
87 122 98
86 120 97
87 122 98
87 121 98
87 122 98
87 122 98
86 119 95
86 121 97
86 121 98
86 121 98
85 118 95
86 120 96
85 119 96
85 119 95
85 118 95
84 118 95
85 118 95
83 117 94
84 117 94
84 117 94
83 117 94
83 116 93
81 112 89
83 115 92
82 113 91
81 113 90
80 111 89
79 110 87
77 106 84
77 106 83
76 104 82
74 101 79
68 93 73
57 78 62
41 57 47
28 39 37
19 23 31
18 21 31
18 20 31
18 21 31
17 20 30
15 18 28
15 18 28
13 17 26
11 15 23
11 15 23
10 14 21
21 29 28
30 44 38
33 48 40
40 59 50
42 61 52
44 66 56
44 65 55
45 68 58
48 71 61
48 71 61
49 73 63
51 77 66
53 80 69
53 79 68
55 82 70
54 81 69
55 82 70
54 81 70
56 83 71
57 85 73
58 86 73
60 88 74
64 93 78
67 97 81
68 98 82
70 100 82
72 104 86
76 109 89
78 110 90
80 113 92
79 112 91
81 114 93
81 115 93
83 116 94
83 117 95
84 119 96
84 118 95
85 119 97
85 119 96
85 119 96
85 119 96
85 120 97
85 119 96
85 120 97
85 120 97
85 120 96
85 119 96
85 120 96
85 119 96
84 119 96
85 119 96
84 118 96
84 119 96
85 119 96
84 118 95
85 120 97
84 118 95
85 119 97
85 119 95
85 119 96
85 119 96
85 120 97
85 119 96
85 120 96
85 119 96
84 118 95
85 119 96
84 119 96
84 119 96
85 119 96
84 119 96
84 119 96
84 118 96
84 119 97
84 118 96
84 118 96
84 118 95
84 119 96
85 119 96
84 118 96
84 118 95
83 117 95
84 118 96
84 119 96
84 119 96
85 119 96
84 118 95
84 119 96
84 118 95
84 118 96
84 119 96
84 118 95
84 119 96
84 119 96
84 119 96
84 119 97
84 119 96
84 118 96
84 119 96
84 119 96
84 119 96
84 118 96
84 118 96
84 118 95
84 119 96
84 118 96
84 118 96
84 118 96
84 118 96
83 118 95
84 119 97
84 119 96
84 119 97
84 118 96
84 118 96
84 119 96
84 118 96
83 118 96
84 118 95
84 118 95
84 118 95
84 119 96
83 118 95
83 117 95
84 118 96
84 119 96
84 119 96
84 119 96
83 118 96
84 118 96
83 118 96
83 118 96
84 119 96
83 118 96
83 118 96
83 118 96
83 117 95
83 118 96
83 118 96
83 118 96
83 117 95
83 117 95
83 118 96
83 117 95
83 118 96
90 126 101
91 126 102
90 127 102
90 127 102
91 126 101
90 126 101
90 127 102
90 126 101
91 127 102
90 126 102
90 126 101
90 126 101
90 126 101
90 126 101
90 126 101
90 125 101
90 126 101
90 126 101
90 126 101
90 126 101
90 126 101
90 126 101
89 125 101
90 125 100
89 125 100
89 124 99
90 125 100
89 125 100
89 125 100
89 125 100
89 125 100
89 125 100
90 125 101
89 124 99
89 124 100
89 123 99
89 124 99
90 125 101
88 123 98
89 124 100
89 123 99
89 124 99
89 123 99
89 124 99
88 123 99
88 123 98
89 123 99
89 123 99
89 125 100
88 123 99
88 122 98
88 123 98
87 121 97
89 123 99
87 122 98
88 123 98
88 121 97
88 123 99
124 116 89
203 98 55
205 99 56
201 97 55
205 99 57
205 99 57
205 99 57
200 97 56
198 96 56
201 98 57
195 95 55
190 93 54
194 95 56
193 94 56
184 90 53
180 89 53
173 86 51
174 87 52
173 86 52
171 86 51
173 86 52
166 83 49
168 84 50
163 82 48
161 81 48
162 82 48
165 83 49
158 80 46
156 79 46
153 78 45
153 77 45
143 73 42
136 70 40
134 73 44
89 118 94
88 122 98
88 123 98
87 122 98
87 121 97
88 122 98
87 121 97
87 122 98
87 121 97
87 121 98
86 120 96
87 122 98
87 121 97
87 120 97
87 121 98
87 122 98
86 120 96
86 120 96
86 121 97
85 119 96
87 121 97
87 122 98
87 121 97
86 121 97
86 120 97
86 120 96
86 121 97
85 120 96
85 119 96
85 119 96
85 119 95
85 118 95
85 118 95
83 116 93
84 117 94
84 117 94
83 116 93
84 116 93
82 113 90
80 111 88
81 113 90
80 111 89
79 109 87
79 108 86
81 112 89
78 108 85
76 104 81
75 102 80
68 93 73
58 80 63
46 65 52
33 47 39
25 36 30
24 33 28
19 26 26
14 19 22
15 21 23
12 16 20
12 16 19
15 22 22
21 29 26
21 29 25
24 34 28
27 40 34
33 48 40
35 51 43
40 58 50
42 62 53
43 64 54
46 68 58
44 66 57
46 69 59
51 75 64
51 75 64
50 75 64
49 73 63
52 79 68
53 80 68
55 82 70
54 80 69
56 84 73
55 82 70
57 84 73
57 84 72
61 90 77
63 92 77
66 96 80
67 97 81
71 102 85
74 105 87
74 106 87
76 108 88
78 111 91
79 112 91
81 114 93
82 115 94
84 119 96
83 116 94
84 118 95
84 118 95
85 120 96
85 120 97
85 119 96
85 119 97
85 119 97
85 120 97
85 120 97
85 119 96
84 118 95
84 118 95
85 120 97
85 120 97
85 120 97
85 119 96
84 119 96
85 119 96
85 119 96
85 119 97
85 119 96
84 119 96
85 119 97
85 120 97
84 119 96
85 119 96
84 119 96
84 118 95
84 118 95
84 119 96
84 119 96
84 119 96
85 120 97
84 119 96
85 119 96
84 119 97
84 118 95
84 119 96
84 118 95
84 118 96
85 120 97
84 118 95
84 119 96
85 119 96
84 118 96
85 119 96
84 119 96
85 119 96
84 119 96
84 118 95
84 119 96
84 119 97
84 118 95
84 119 96
84 119 96
84 119 96
85 119 96
84 119 96
84 118 95
84 118 96
84 118 96
84 119 96
84 119 96
84 118 96
84 119 96
84 119 97
84 118 95
84 118 96
84 119 96
84 119 96
84 119 97
84 119 96
84 119 96
84 119 97
84 118 96
84 119 97
84 118 96
84 118 96
84 119 96
84 118 96
84 118 96
84 118 96
84 118 96
83 118 96
84 118 96
83 118 96
84 118 96
84 118 96
84 118 96
84 118 96
84 118 96
84 119 96
83 118 96
83 117 95
83 118 96
84 119 96
84 118 96
83 118 95
83 118 96
83 118 96
83 118 95
83 118 96
84 118 96
83 117 95
83 118 96
83 118 95
83 117 95
84 118 96
83 118 95
83 118 95
91 127 102
91 127 102
91 127 102
91 127 102
91 127 102
91 127 102
90 127 102
90 126 102
90 126 101
90 126 102
90 126 101
90 126 101
90 127 102
90 127 102
90 125 101
90 126 101
90 126 101
90 126 101
90 126 101
90 126 101
90 126 102
90 125 100
90 126 101
89 124 100
90 125 100
90 125 101
89 125 100
89 124 100
90 125 101
89 124 100
90 125 100
89 125 101
89 125 100
89 125 100
90 125 100
89 124 100
89 125 100
89 125 100
89 124 100
89 124 100
89 123 99
89 124 99
88 123 99
89 125 101
89 123 98
88 123 99
88 123 99
89 124 100
89 123 99
89 124 99
88 123 98
88 123 99
89 123 98
88 123 99
88 122 98
89 123 98
89 124 99
88 122 98
127 116 88
191 93 51
191 93 52
198 96 54
191 93 52
194 94 54
191 93 53
192 94 54
188 92 53
188 92 53
182 90 52
184 90 52
184 90 53
181 89 53
175 87 51
172 85 50
166 83 49
169 85 50
162 82 48
167 83 49
162 81 48
165 83 49
167 84 49
162 82 48
159 80 47
150 76 44
158 80 46
156 79 46
141 73 41
151 77 44
140 72 41
135 69 39
133 69 39
116 71 46
88 121 97
87 121 97
87 122 98
88 122 98
87 120 96
86 119 95
87 121 97
87 121 97
87 121 97
87 121 97
87 122 98
87 121 97
86 120 97
87 122 98
87 120 96
86 121 97
87 121 97
87 120 97
86 121 98
87 121 97
86 120 97
86 121 97
87 121 98
87 122 98
86 120 97
87 122 98
87 122 98
86 119 96
85 119 96
85 119 96
84 118 95
85 119 96
84 116 93
84 117 94
84 118 95
84 117 94
84 117 94
84 116 93
83 115 92
82 114 91
82 114 91
81 113 90
80 111 89
80 111 88
80 111 88
78 106 84
76 104 82
75 103 81
72 99 78
66 90 71
53 73 58
40 57 47
33 47 39
30 44 37
30 43 36
28 40 33
25 34 28
23 34 28
26 36 30
25 36 30
28 41 34
31 45 38
32 47 39
34 48 41
39 56 47
39 57 49
42 61 52
44 65 56
43 64 54
46 69 59
47 70 60
49 73 62
51 75 65
48 72 62
52 78 67
53 79 69
53 79 67
55 82 70
55 82 71
55 83 71
55 81 70
55 83 71
56 84 72
59 88 75
61 90 76
64 93 78
66 96 80
69 99 83
71 102 84
73 104 85
73 105 87
77 109 89
78 111 91
81 114 93
81 114 92
82 116 94
83 117 95
84 118 96
83 117 94
84 119 96
85 120 97
85 120 97
85 120 97
85 120 97
85 119 96
85 120 97
85 119 96
85 119 96
85 119 96
85 120 97
85 119 96
85 119 96
85 119 96
85 119 96
85 120 97
85 119 97
85 119 96
85 119 96
85 119 96
84 119 96
85 120 97
85 119 96
84 119 96
85 120 97
85 120 97
84 119 96
85 119 96
85 119 96
84 119 96
85 119 96
84 119 96
84 119 96
84 119 96
84 119 96
84 118 96
84 118 95
85 120 97
84 119 96
84 119 96
84 118 96
85 120 97
84 118 95
84 119 96
84 119 96
84 119 96
84 119 97
84 119 96
84 119 97
84 119 96
84 119 96
84 119 96
84 119 96
85 120 97
84 119 96
84 119 96
84 119 96
84 118 96
84 119 97
84 119 96
84 119 96
84 119 96
84 119 96
84 119 96
84 119 96
84 118 95
84 119 96
84 119 97
84 119 96
84 119 96
84 119 96
84 118 96
84 119 96
84 118 96
84 118 96
84 118 96
84 119 96
84 119 97
84 118 96
84 118 96
84 119 96
84 119 96
83 118 96
84 118 96
84 119 96
83 118 96
83 118 96
83 118 96
84 118 96
84 119 97
83 118 96
84 119 96
83 118 96
84 118 96
84 118 96
84 118 96
83 117 95
84 119 96
83 118 96
83 118 96
84 118 96
83 118 95
84 118 96
83 118 96
83 117 95
83 118 96
83 118 96
83 118 96
83 117 95
90 125 101
90 127 102
90 126 101
91 127 102
91 126 101
90 126 101
90 126 101
91 127 102
90 127 102
91 126 101
90 126 101
91 127 102
90 126 101
91 127 102
90 126 101
90 126 102
90 125 101
90 126 101
90 126 101
90 125 101
90 125 101
90 125 101
90 125 100
90 125 100
90 125 100
90 125 101
89 124 99
90 125 100
90 125 100
90 126 101
89 124 100
89 124 100
89 124 99
90 125 100
89 124 100
90 125 101
88 123 99
89 124 99
89 124 100
90 125 100
89 124 99
89 123 99
89 124 99
89 124 99
89 123 99
89 124 100
88 123 98
89 124 99
89 124 99
89 124 99
89 124 99
89 123 99
89 124 99
89 123 99
89 124 99
89 123 98
88 122 98
88 122 97
105 119 93
184 91 52
182 89 49
186 91 51
185 91 51
182 89 50
176 87 49
176 87 49
181 89 51
175 87 49
172 85 49
179 88 51
172 85 50
166 83 48
163 82 48
168 83 49
159 80 47
161 81 47
160 81 47
160 81 47
165 82 48
161 81 47
152 77 44
156 79 46
158 79 46
156 79 45
151 77 44
144 74 42
148 75 43
151 77 44
143 73 41
136 70 39
130 67 37
106 81 58
86 119 96
86 120 96
86 120 96
87 120 96
87 122 98
87 121 97
87 121 98
87 122 98
87 121 97
88 122 98
87 121 98
87 121 98
87 121 98
87 121 97
86 119 95
87 120 96
87 122 98
87 122 98
86 120 97
86 121 97
87 121 97
86 120 96
87 122 98
86 121 98
86 120 97
86 120 96
85 119 96
85 120 96
85 119 96
85 120 96
85 118 95
85 119 96
85 119 96
85 118 95
84 116 93
83 115 92
83 116 93
83 116 93
83 115 92
82 114 91
82 114 91
80 111 88
81 112 90
80 111 89
79 109 87
77 106 83
78 108 85
75 103 81
76 104 82
71 98 77
63 87 68
55 76 61
46 65 53
34 49 41
35 51 43
33 48 41
35 50 42
33 48 41
35 51 43
31 45 38
34 50 43
37 54 46
38 56 48
40 58 49
39 58 50
40 59 51
43 64 55
47 70 59
44 66 57
45 67 58
49 73 62
48 71 61
51 77 66
51 76 65
53 80 69
52 77 67
52 79 68
54 81 70
54 81 70
55 82 71
56 83 71
57 85 73
59 88 75
60 89 76
61 90 76
67 96 80
67 97 81
69 100 82
72 104 86
74 106 87
76 108 89
77 110 90
78 111 90
79 112 91
81 115 94
83 118 96
83 116 94
83 117 94
84 119 96
84 119 96
85 120 97
85 120 97
85 119 96
85 120 97
85 120 97
85 120 97
85 119 97
85 120 97
85 119 96
85 119 96
84 119 96
85 119 96
84 118 95
85 120 97
85 120 97
85 119 96
85 120 97
84 119 96
84 118 95
84 119 96
84 119 96
85 120 97
85 119 96
85 119 97
85 120 97
85 119 96
85 119 96
85 119 96
85 119 96
85 119 96
84 119 97
84 119 97
85 119 96
84 119 96
85 119 96
84 118 96
84 119 96
85 119 96
84 119 96
84 119 96
84 118 96
85 119 96
84 119 96
85 119 96
84 119 96
84 119 96
84 118 96
84 119 96
84 119 96
84 119 96
84 119 97
84 119 96
84 118 95
84 119 96
84 118 96
84 119 96
84 119 96
84 118 96
84 119 96
84 118 96
84 119 96
85 120 97
84 118 96
84 119 97
84 119 96
84 120 97
84 119 97
84 118 96
84 118 96
84 119 96
84 119 96
84 119 97
84 119 97
84 119 97
84 118 96
84 119 97
84 118 96
84 119 96
84 118 96
84 118 96
84 118 96
84 119 96
84 119 96
84 119 96
84 119 97
84 119 96
84 118 96
84 119 96
83 117 95
84 119 96
84 118 96
84 118 96
84 118 96
83 118 95
83 118 96
84 118 96
83 118 96
83 118 96
84 118 96
83 118 95
84 118 96
83 118 96
83 118 96
83 117 95
83 118 96
83 118 96
84 118 96
83 117 95
91 127 102
91 127 102
91 127 102
91 127 102
91 127 102
90 127 102
90 127 102
90 126 101
90 125 101
90 126 101
90 127 102
90 126 101
91 126 101
90 127 102
90 126 101
90 127 102
90 125 101
90 127 102
90 125 101
89 125 100
90 125 100
90 126 101
90 126 101
89 125 101
90 126 101
89 125 100
89 124 100
90 125 100
89 124 99
90 125 101
90 125 100
89 124 100
89 123 99
89 124 100
89 124 100
90 125 100
90 125 100
90 125 100
90 125 100
89 124 100
88 124 99
89 123 98
89 124 100
89 123 99
89 124 100
89 123 99
89 123 99
89 124 99
89 124 99
89 124 99
89 124 99
89 124 100
89 123 99
89 122 98
89 124 99
89 124 99
89 123 98
89 123 99
92 122 98
162 92 58
177 87 48
172 85 47
173 86 48
176 87 49
175 86 49
170 84 48
167 83 47
163 81 46
167 83 48
160 80 46
160 80 46
153 77 44
155 78 45
158 80 46
157 79 46
160 80 46
160 80 47
155 78 45
155 78 45
151 77 44
157 79 46
157 79 46
148 75 43
145 74 42
145 74 42
139 72 40
138 71 40
142 72 40
128 67 36
120 63 34
125 65 36
96 92 69
87 121 97
86 120 96
87 120 96
87 121 97
86 119 96
87 120 96
87 121 97
87 121 97
87 121 97
87 121 97
86 120 97
87 121 97
87 121 97
86 120 96
86 120 96
86 120 96
87 122 98
86 120 97
87 121 97
86 120 97
86 120 96
87 121 98
87 121 97
86 121 97
87 121 97
85 120 96
86 120 96
86 120 97
86 120 97
86 121 98
86 120 97
85 119 96
85 118 95
84 117 94
85 118 95
84 117 94
84 118 94
83 116 93
82 114 92
83 115 92
82 114 91
83 115 92
81 113 90
81 111 88
81 112 89
80 111 88
79 109 86
78 106 84
78 107 84
78 107 84
74 102 80
67 93 74
61 85 68
54 77 62
49 70 58
43 62 52
38 55 46
42 61 51
36 53 46
38 57 49
41 61 52
42 62 53
42 62 53
43 63 54
43 64 54
47 70 60
46 68 59
44 65 57
46 68 58
49 73 62
49 73 63
52 77 66
52 77 66
52 78 67
54 81 69
55 82 70
55 82 70
55 83 71
54 81 70
56 84 73
57 85 72
59 87 73
61 89 75
64 93 78
66 96 81
67 97 81
70 101 84
73 105 87
73 104 86
76 109 89
76 108 89
79 112 92
81 115 93
80 112 91
82 115 94
83 116 94
84 118 95
83 117 95
84 119 96
85 119 96
85 119 96
85 119 96
84 118 95
85 120 97
86 121 97
85 119 97
85 119 96
85 119 96
85 120 97
85 119 96
85 120 97
85 120 97
85 120 97
85 120 97
85 119 97
85 120 97
85 119 96
84 119 96
84 119 97
85 119 96
85 119 96
85 120 97
85 120 97
85 120 97
85 120 97
84 118 95
84 119 96
85 120 97
85 119 96
84 119 96
85 120 97
85 119 97
85 120 97
84 119 96
85 119 96
84 118 95
85 119 97
84 119 97
85 119 97
84 119 96
84 119 96
85 119 96
84 118 96
84 119 96
84 119 97
85 119 97
84 119 96
85 119 97
84 119 97
84 119 96
85 119 97
84 119 97
84 119 97
84 119 96
84 119 96
84 119 96
84 119 97
84 119 96
84 119 97
84 119 97
85 119 97
84 119 97
84 119 96
84 119 96
84 119 96
84 119 96
84 119 96
84 118 96
84 119 97
84 119 97
84 119 96
84 118 95
84 119 96
84 118 96
84 119 96
84 119 96
84 119 96
84 119 96
84 118 96
84 118 96
84 119 96
84 119 96
83 118 96
84 119 96
84 119 96
84 118 96
84 118 96
84 118 96
84 118 96
83 118 96
83 118 96
83 118 96
83 117 95
84 118 96
84 118 96
84 118 96
84 118 96
83 118 96
84 118 96
83 118 96
83 118 96
84 118 96
83 118 96
83 118 96
83 118 96
83 118 96
83 118 96
83 118 96
91 127 102
91 127 102
91 127 102
90 127 102
91 127 102
90 127 102
90 126 102
91 127 102
90 126 101
90 127 102
90 127 102
90 126 101
90 126 101
90 126 101
90 125 101
90 126 101
90 126 102
90 126 101
90 126 101
90 126 101
90 126 101
90 126 101
90 125 101
90 126 101
90 126 101
90 125 100
90 125 100
90 126 101
90 126 101
89 125 101
90 126 101
90 125 100
89 124 100
89 125 100
89 125 100
89 125 100
90 125 101
89 125 100
89 124 99
89 124 99
89 125 100
89 123 99
89 124 100
89 125 100
89 124 100
90 125 100
89 124 99
89 124 99
89 123 99
89 124 100
88 122 98
89 123 98
89 123 98
89 122 97
89 124 99
89 123 98
89 122 98
89 123 99
88 122 98
131 98 70
164 81 44
161 80 44
166 83 46
160 80 44
156 78 43
164 82 46
156 79 44
157 79 45
152 77 44
146 75 42
141 73 41
148 75 43
156 79 46
151 77 44
153 77 44
150 76 43
153 77 44
152 77 44
149 76 43
144 74 42
150 76 44
140 72 41
142 73 41
141 72 41
144 74 42
137 71 39
131 68 37
124 66 36
129 67 37
113 60 32
112 60 33
92 108 84
85 118 94
87 121 97
87 120 96
85 118 94
87 121 97
87 121 97
86 119 95
86 120 96
86 120 96
86 120 97
87 120 97
88 122 98
87 121 97
87 121 98
87 121 97
87 121 98
86 120 96
86 121 97
87 121 97
86 120 97
86 121 97
86 120 96
85 119 96
86 120 97
86 120 96
86 120 96
85 118 95
85 118 94
85 119 95
85 118 96
85 118 95
84 118 95
85 118 95
85 118 95
84 117 94
84 116 94
85 119 96
84 117 94
85 118 95
82 114 91
84 117 94
83 116 93
81 113 90
80 112 89
81 112 90
81 112 89
80 110 88
79 109 87
81 112 89
79 110 87
80 111 89
76 105 83
73 101 80
68 93 74
65 91 73
57 81 66
57 81 67
48 70 59
47 69 58
45 67 57
44 64 54
45 67 57
45 67 58
47 69 59
48 72 62
50 74 63
49 73 63
52 77 66
51 76 65
52 77 66
50 75 65
50 75 64
54 81 70
53 79 68
55 82 71
54 80 69
56 83 71
57 85 73
58 87 74
58 86 73
62 91 77
64 93 78
68 98 82
66 96 80
69 100 83
71 102 84
72 103 85
75 107 88
76 109 89
78 111 91
79 112 91
80 113 92
81 114 93
83 118 96
84 118 95
84 118 96
84 118 96
84 119 96
85 120 97
85 119 96
85 120 97
85 120 97
85 120 97
85 119 97
85 120 97
86 120 97
85 120 97
85 120 97
85 120 97
85 119 96
85 120 97
85 120 97
85 120 97
85 121 98
85 120 96
85 119 96
85 120 97
85 120 97
86 120 97
85 119 96
85 120 97
85 120 97
85 120 97
84 119 96
85 120 97
85 119 97
85 120 97
85 120 97
85 120 97
85 119 96
85 120 97
84 119 96
84 118 95
85 119 96
85 119 96
84 119 97
85 119 97
84 119 96
84 119 96
85 119 97
85 119 96
84 119 96
85 119 97
85 119 97
84 119 96
85 119 97
84 119 96
84 119 96
84 119 97
85 119 97
84 119 97
84 119 97
85 119 97
85 119 96
84 119 96
84 119 97
85 119 96
84 119 96
84 119 97
84 118 95
85 119 97
84 119 96
84 119 97
84 119 96
84 119 97
84 119 96
84 119 96
84 119 96
84 119 96
84 119 96
84 119 96
84 119 97
84 119 97
84 119 97
84 119 97
84 119 96
84 118 96
84 118 96
84 118 96
84 118 96
84 119 96
84 119 96
84 118 96
83 118 96
83 118 96
83 118 96
84 119 96
84 118 96
84 118 96
84 118 96
83 118 96
83 118 96
84 118 96
84 118 96
83 118 96
84 119 96
84 118 96
84 118 96
83 118 96
83 118 96
83 118 96
83 118 96
83 118 96
83 118 96
84 118 96
83 117 95
83 118 96
83 118 96
91 127 102
91 127 102
90 127 102
90 127 102
91 127 102
91 127 102
90 127 102
90 127 102
90 126 101
90 126 101
90 127 102
90 126 101
90 127 102
90 126 101
90 126 101
90 125 101
90 126 101
90 127 102
90 126 101
90 126 101
90 125 101
89 125 100
90 126 101
90 125 101
90 126 101
90 126 101
90 126 101
90 125 101
90 126 101
89 125 100
90 125 100
90 125 100
90 125 100
90 126 101
90 125 100
89 125 101
90 125 100
90 125 100
89 125 100
89 123 99
89 124 100
89 125 101
90 125 100
90 125 100
90 126 101
89 124 100
89 123 99
89 124 100
89 123 98
89 124 99
89 124 99
89 123 99
89 123 99
89 123 99
88 122 98
89 123 98
89 124 100
88 122 97
88 122 97
111 111 85
157 79 43
154 77 42
147 75 41
152 77 42
146 75 41
151 76 43
146 75 42
141 73 41
138 71 39
146 75 42
143 73 41
147 75 42
139 72 40
145 74 42
149 76 43
146 75 42
142 73 41
142 73 41
137 71 39
145 74 42
142 73 41
141 72 40
128 67 37
141 72 40
133 69 38
126 66 35
126 66 36
124 65 35
125 65 35
112 59 32
91 70 49
86 119 95
86 118 95
86 119 96
86 120 96
87 120 96
87 120 96
86 119 95
86 119 95
87 120 96
86 119 95
86 120 96
86 119 95
87 121 97
86 119 96
86 120 96
86 120 97
87 122 98
86 121 97
87 122 98
86 121 97
86 121 97
86 120 96
86 120 97
86 120 96
86 120 97
86 120 96
86 120 97
86 121 97
85 119 96
86 121 97
85 119 96
86 120 96
85 119 96
85 118 95
86 120 96
85 118 95
85 119 95
85 119 95
84 117 94
85 119 95
84 117 94
84 117 94
83 116 93
82 115 93
82 113 91
81 113 90
82 114 91
80 112 89
81 113 90
82 113 91
80 111 88
80 111 88
81 112 89
79 109 87
77 107 85
76 105 84
74 103 82
69 97 78
66 93 75
64 90 73
59 83 68
61 88 73
54 78 65
54 79 66
54 79 66
52 77 65
50 74 64
54 80 68
51 75 64
55 81 69
55 82 70
55 81 69
56 83 70
57 85 72
56 83 71
58 85 72
62 91 76
59 87 73
64 93 78
65 94 79
66 95 80
67 97 81
68 99 82
71 102 84
73 104 85
74 106 87
76 108 88
77 110 90
78 111 91
79 113 92
80 114 93
81 115 94
82 115 94
82 116 94
84 118 95
84 118 95
84 119 96
85 119 96
85 120 97
85 120 97
85 120 97
85 120 97
85 120 97
85 120 97
85 120 96
85 119 96
86 121 98
84 119 96
85 120 97
85 120 97
85 119 96
85 120 97
85 119 96
85 120 97
85 120 97
85 120 97
85 120 97
85 120 97
85 119 97
85 120 97
84 119 96
85 120 97
85 119 96
85 120 97
85 120 97
85 120 97
85 119 97
85 119 97
85 120 97
85 120 97
85 119 96
85 120 97
85 119 96
85 119 97
84 119 96
85 119 96
85 120 97
85 119 97
85 120 97
85 119 96
85 119 96
84 119 96
84 119 97
85 119 96
84 119 97
85 120 97
84 120 97
85 120 97
85 120 97
85 119 96
84 119 96
85 119 97
84 119 96
85 119 97
85 119 96
85 119 96
84 119 97
84 118 96
84 119 96
84 118 96
84 119 97
84 119 97
84 119 97
84 119 97
84 119 96
84 119 97
84 119 97
84 119 97
84 119 96
84 119 97
84 119 96
84 119 97
84 118 96
84 119 97
84 118 96
84 119 97
84 118 96
84 118 96
84 119 97
84 119 96
84 118 96
84 118 96
84 119 96
84 119 96
84 118 96
84 119 96
84 119 96
84 119 96
84 119 96
84 119 96
84 119 97
84 119 96
84 118 96
84 118 96
84 119 96
84 118 96
84 118 96
83 118 96
83 118 96
83 118 96
83 118 96
83 118 96
84 118 96
83 118 96
84 118 96
83 118 96
83 118 96
83 117 95
83 118 96
90 126 102
90 126 102
90 126 101
90 126 102
90 127 102
90 126 101
90 126 101
90 126 102
90 126 101
91 126 101
91 127 102
90 126 101
90 127 102
90 125 101
90 126 101
90 126 102
90 126 101
90 126 101
90 124 100
90 126 101
90 126 101
90 126 101
90 125 100
90 125 101
90 126 102
90 125 100
90 126 101
90 126 101
90 125 100
90 125 100
90 125 100
89 125 100
90 125 100
89 125 101
90 125 100
89 124 99
89 123 99
89 125 101
89 124 99
90 125 100
90 124 100
89 125 100
89 125 100
89 124 99
89 123 99
89 124 99
89 123 99
89 124 99
89 123 99
89 123 99
89 123 99
90 124 99
89 123 99
89 123 99
89 123 99
88 121 97
89 122 97
89 122 97
88 121 97
89 121 97
132 82 53
132 69 36
145 74 40
132 69 37
131 69 37
127 67 36
132 69 37
137 71 39
130 68 37
142 73 41
136 70 39
144 73 41
136 71 39
141 73 40
132 69 38
134 70 39
142 73 41
133 69 38
133 69 38
134 70 38
135 70 38
135 70 39
132 68 37
119 63 34
122 64 34
118 63 33
122 64 35
120 63 34
108 58 31
105 56 30
89 95 73
85 117 94
86 119 95
86 120 96
87 120 96
87 119 95
87 120 96
87 120 96
86 118 95
86 119 95
87 120 96
86 120 96
87 120 96
86 118 95
87 120 96
86 120 96
87 120 97
86 120 97
86 119 96
86 120 96
86 121 97
87 121 97
86 121 98
86 120 97
86 120 97
86 120 96
85 119 96
86 120 97
86 120 97
86 120 96
86 121 97
85 119 96
85 120 97
85 119 96
86 120 96
85 120 96
85 119 96
85 118 95
84 117 94
85 119 95
83 116 94
84 117 94
84 117 94
83 116 94
83 116 93
83 116 93
83 115 92
82 114 91
83 115 92
82 115 92
82 113 90
81 112 89
82 113 91
81 113 91
81 112 90
80 110 88
80 111 88
79 109 87
80 111 89
77 106 85
75 105 84
73 102 83
74 104 84
71 100 81
70 99 81
68 97 80
68 96 79
66 94 77
66 95 79
65 93 77
65 93 77
65 95 79
66 95 78
63 91 76
65 93 77
66 95 79
67 97 80
69 99 82
69 99 82
69 99 82
73 104 86
72 104 86
74 106 87
74 105 86
77 110 90
78 111 90
79 112 91
79 112 91
79 112 91
81 115 93
82 116 94
83 116 94
82 116 94
84 119 96
85 119 96
84 119 96
85 120 97
85 120 97
85 119 96
85 120 97
85 120 97
85 119 96
85 119 96
86 120 97
85 119 96
85 120 97
85 120 97
85 120 97
86 121 98
85 119 96
85 120 97
85 120 97
85 120 96
85 120 97
85 120 97
85 120 97
85 120 97
85 120 97
85 119 96
85 119 97
85 120 97
85 120 97
85 120 97
85 120 97
85 120 98
85 120 97
85 120 97
85 119 96
84 119 96
85 120 98
85 120 97
85 120 97
85 120 97
85 120 97
84 119 96
85 120 97
85 119 97
85 120 97
85 120 97
85 119 96
85 120 97
85 120 97
84 119 97
85 120 97
85 120 97
85 119 96
85 120 97
84 119 97
85 119 96
84 119 96
85 119 97
85 119 97
84 119 97
85 119 96
84 119 96
84 119 97
84 119 97
85 119 97
84 119 97
84 119 96
84 119 96
84 119 97
84 118 96
84 119 96
84 119 97
84 118 96
84 119 97
84 119 96
84 119 96
84 119 96
84 119 96
84 119 97
84 118 96
84 119 96
84 118 96
84 118 96
84 118 96
84 119 97
84 119 97
84 119 97
84 119 97
84 119 97
84 119 96
84 118 96
84 119 96
84 118 96
83 118 96
84 119 96
84 119 96
84 118 96
84 118 96
83 118 96
84 118 96
84 119 96
83 118 96
83 118 96
84 118 96
84 119 96
83 118 96
84 118 96
83 118 96
84 118 96
84 118 96
83 118 96
84 118 96
83 118 96
84 118 96
83 118 96
83 118 96
84 118 96
90 127 102
90 126 102
91 127 102
91 127 102
90 126 101
90 126 102
90 127 102
90 126 101
90 127 102
90 126 101
91 126 101
90 126 102
90 126 101
90 126 101
90 126 101
90 126 101
90 126 101
90 126 101
90 125 101
90 125 100
90 125 101
90 125 101
90 126 101
90 126 101
89 125 101
90 125 101
90 126 101
89 125 101
90 125 101
89 125 100
90 125 101
90 125 100
89 125 100
89 124 100
89 125 101
90 124 99
89 124 100
89 124 100
90 124 100
89 124 99
89 124 99
90 124 100
89 123 99
89 124 99
89 124 100
89 124 100
89 124 99
88 122 98
88 123 99
89 123 98
88 123 99
89 124 99
89 123 99
89 122 98
88 122 98
88 122 98
88 120 96
88 120 96
88 120 96
87 120 96
100 105 81
121 66 36
117 62 32
125 66 35
124 66 35
129 67 36
132 69 37
128 67 36
137 71 39
130 68 37
126 67 36
132 69 37
133 69 38
132 69 37
132 68 37
137 71 39
131 68 37
131 68 37
124 66 35
124 65 35
110 60 31
121 64 34
118 63 33
125 65 35
130 67 37
111 60 31
114 60 32
107 58 30
106 56 30
85 67 46
81 109 87
82 112 89
83 114 91
83 114 91
84 116 93
85 117 94
85 117 94
85 117 94
86 119 95
86 119 95
86 119 96
86 119 95
86 118 95
86 121 97
86 119 96
86 120 96
87 121 97
87 121 97
86 120 97
87 121 97
86 120 97
87 122 98
86 120 97
86 121 97
86 121 97
86 121 97
86 120 97
86 121 97
86 121 98
86 120 97
86 120 96
86 120 97
87 121 98
85 118 95
85 118 95
85 119 96
86 120 96
85 119 96
85 119 96
84 117 94
84 118 94
85 119 96
84 118 95
84 118 95
85 119 96
84 117 94
83 117 94
82 115 92
83 116 93
83 116 93
82 114 92
82 114 92
82 115 92
83 115 92
82 114 91
82 115 92
82 115 93
83 116 93
82 115 92
81 113 91
81 113 91
82 115 92
80 112 90
79 110 89
78 109 87
77 108 87
76 107 87
76 107 86
76 107 87
74 105 85
75 106 87
74 105 85
75 106 87
75 106 87
76 107 87
75 107 87
76 108 89
75 107 87
78 110 90
79 111 91
77 110 90
78 110 89
79 112 91
79 112 91
82 116 94
81 114 93
82 115 93
82 116 94
83 117 94
84 118 96
84 118 95
84 119 96
85 119 97
84 119 96
84 118 95
86 120 97
86 120 97
85 120 97
84 118 95
85 120 97
86 121 98
86 121 97
85 120 97
85 121 98
85 120 97
85 120 97
85 120 97
85 120 97
85 120 97
85 120 97
86 121 98
85 121 98
85 120 97
85 119 96
85 120 97
85 120 97
85 120 97
84 119 97
85 120 97
84 119 96
85 120 97
86 120 97
85 120 97
85 120 97
85 120 97
85 119 96
85 119 97
85 120 97
85 120 97
85 119 96
85 120 97
85 120 97
85 120 97
85 120 97
85 119 96
85 119 97
85 120 97
85 120 97
85 120 97
85 120 97
85 119 96
85 120 97
84 119 96
85 119 96
85 119 97
84 119 97
85 120 97
84 118 96
85 120 97
85 120 97
84 119 97
85 119 97
84 119 96
84 119 96
85 119 96
84 119 96
84 119 96
84 119 96
84 119 96
84 119 96
84 119 97
84 118 96
84 119 96
84 119 97
84 119 97
84 119 96
84 119 97
84 119 96
84 119 97
84 118 96
84 119 97
84 119 97
84 119 97
84 119 97
84 119 96
84 119 96
84 119 97
84 119 97
84 118 96
84 119 96
84 119 97
84 119 96
84 118 96
84 119 97
84 118 96
84 118 96
84 119 96
83 118 96
84 118 96
84 119 96
84 119 96
84 118 96
83 118 96
84 119 96
83 118 96
84 118 96
84 118 96
83 118 96
83 118 96
84 118 96
83 118 96
83 118 96
83 118 96
83 118 96
83 118 96
83 118 96
84 118 96
83 118 96
83 118 96
83 118 96
91 127 102
91 126 101
91 127 102
91 127 102
90 126 102
90 126 102
90 127 102
90 126 102
90 126 101
90 126 101
90 127 102
90 126 101
90 126 101
90 126 101
90 126 102
90 126 101
90 126 101
90 126 101
90 125 101
90 126 101
90 126 102
90 126 101
90 126 101
90 126 101
89 125 100
90 125 100
90 126 101
90 125 100
90 124 100
90 125 101
90 125 101
90 125 100
89 125 100
89 124 99
90 125 100
90 125 101
90 125 100
90 125 100
90 124 99
89 124 100
89 124 99
89 125 100
89 125 100
90 123 99
89 124 100
89 124 100
88 122 98
89 122 98
89 123 98
88 123 98
88 122 97
88 122 97
88 122 97
88 121 97
89 122 98
89 122 97
88 121 96
87 119 95
88 120 95
87 119 95
88 118 94
111 86 61
118 63 32
123 65 33
121 64 33
117 63 32
122 65 34
118 63 33
120 64 34
119 64 33
132 69 37
124 66 35
125 66 35
121 64 34
127 67 36
116 62 32
119 63 33
123 65 35
127 67 36
109 60 30
122 64 34
114 61 32
123 65 35
112 60 31
106 57 30
107 58 30
100 55 28
106 56 30
82 48 25
78 89 70
74 103 83
76 106 85
77 107 86
79 109 88
79 109 88
80 111 89
81 113 91
84 116 93
83 115 92
85 118 95
84 117 94
85 117 94
86 120 96
86 120 96
86 121 97
85 119 95
86 120 97
86 120 97
86 121 97
87 121 97
86 120 97
86 120 96
86 120 96
86 120 97
86 120 96
86 120 96
86 121 97
87 121 97
86 121 97
86 121 97
86 120 97
86 120 97
85 119 95
86 119 96
86 121 98
85 119 95
85 119 96
86 120 97
86 121 98
86 120 97
85 120 97
86 120 96
84 118 95
85 119 96
83 116 94
85 118 95
83 116 94
84 118 95
84 118 95
84 117 94
84 117 94
83 116 93
83 116 93
82 115 93
83 116 93
82 115 93
83 116 93
83 116 93
83 117 94
83 116 93
82 115 92
81 114 91
82 114 91
82 114 91
83 116 93
83 116 93
83 116 94
82 114 92
82 115 92
82 115 93
81 113 91
81 113 92
81 114 92
81 114 92
81 114 93
81 114 92
80 112 90
81 114 92
82 115 93
82 115 93
83 116 94
82 116 94
82 116 93
83 117 95
84 117 95
83 117 95
84 118 95
84 118 95
84 119 96
84 118 95
85 120 97
85 120 97
84 118 96
84 119 96
85 121 98
84 119 96
85 121 98
86 121 97
85 120 97
85 119 96
86 120 97
85 119 96
85 120 97
85 119 96
85 120 97
86 121 98
85 120 97
85 119 96
86 120 97
85 119 97
85 120 97
85 120 97
86 121 97
85 120 98
85 120 97
84 119 96
85 120 97
85 120 97
85 120 97
85 120 97
85 120 97
85 120 98
85 120 97
84 119 96
85 120 97
85 119 96
85 120 97
85 119 96
85 120 98
85 120 97
85 119 96
85 120 97
85 119 96
85 120 98
85 119 97
85 119 97
85 120 97
84 119 97
85 120 97
85 120 97
85 120 97
85 119 97
85 120 97
84 119 97
85 120 97
85 119 96
85 120 97
85 120 97
85 119 97
85 120 97
85 120 97
85 120 97
84 120 97
85 119 97
84 119 97
84 119 97
85 120 97
84 119 96
85 119 96
84 119 97
84 119 97
85 119 97
84 119 97
84 119 96
84 119 96
84 119 96
84 119 97
84 119 97
84 119 96
84 119 97
84 119 97
84 119 97
84 119 97
84 119 97
84 118 96
84 119 96
84 119 97
84 119 96
84 119 96
84 119 96
84 119 96
84 119 96
84 119 97
84 119 96
84 119 97
84 118 96
84 119 97
84 119 97
84 118 96
84 119 97
84 118 96
84 118 96
83 118 96
83 118 96
84 118 96
83 118 96
83 118 96
84 118 96
84 118 96
84 118 96
84 118 96
83 118 96
84 118 96
84 118 96
84 119 96
84 118 96
83 118 96
83 118 96
83 118 96
83 118 96
90 127 102
90 126 101
91 127 102
91 127 102
90 126 101
91 127 102
90 126 101
90 127 102
90 126 101
91 126 101
90 126 101
90 126 102
90 126 101
90 127 102
90 126 101
90 126 101
90 126 101
90 125 101
90 126 101
90 126 101
90 126 101
90 126 101
90 125 101
90 125 100
90 125 101
90 126 101
90 125 101
89 124 100
90 125 100
90 125 101
90 125 101
89 125 100
89 125 100
89 124 99
90 125 100
89 125 101
89 124 99
89 125 100
90 125 100
89 124 99
89 124 100
89 124 99
89 123 98
89 123 99
88 123 98
89 123 99
89 124 99
90 124 99
89 123 98
88 121 97
88 122 97
88 122 98
88 121 97
88 121 97
88 121 96
88 119 95
88 120 96
88 120 95
87 119 95
88 119 94
86 118 94
89 112 88
104 69 42
109 59 29
119 63 32
114 61 31
113 61 31
117 63 32
110 60 30
115 62 32
117 63 32
114 62 32
113 61 31
115 62 32
112 61 31
113 62 32
110 60 30
108 59 30
109 59 30
106 58 29
107 58 30
103 57 28
102 56 29
99 54 27
103 56 29
91 51 26
86 48 24
94 51 26
76 67 51
62 87 72
63 88 72
67 95 78
68 94 77
69 97 79
72 101 83
74 104 84
77 107 87
76 107 86
79 109 88
80 111 90
81 113 91
83 116 93
84 118 94
84 117 94
84 118 95
85 119 95
85 119 96
87 121 97
86 120 96
86 120 96
86 120 97
86 120 97
86 121 97
86 120 97
86 120 97
86 121 97
87 121 98
86 119 96
87 122 98
86 121 97
86 120 97
87 121 97
85 119 96
87 121 98
86 121 98
87 121 98
86 120 97
85 119 96
86 120 96
85 119 95
85 119 96
85 119 96
85 119 96
84 117 94
84 118 95
84 117 94
85 118 94
85 118 95
84 118 95
85 119 96
84 117 94
83 117 94
84 117 94
83 116 93
84 118 95
84 118 94
83 116 93
84 118 95
83 117 94
83 117 94
82 115 92
82 114 92
83 116 94
84 118 96
82 115 92
84 118 95
82 115 92
83 116 94
84 118 95
83 116 93
84 117 95
83 116 93
84 117 94
84 118 95
85 118 95
85 119 96
84 118 95
85 120 97
84 118 95
84 119 96
84 119 96
83 117 94
83 118 95
84 118 95
84 118 95
84 119 96
84 118 95
85 119 96
85 120 97
85 119 96
85 120 96
85 120 97
86 121 98
85 120 97
86 121 98
86 121 97
86 121 98
85 120 97
85 120 97
85 120 97
85 120 97
85 120 97
85 120 97
85 120 97
85 120 97
86 121 98
85 120 97
85 120 97
85 120 97
86 120 97
85 120 97
85 120 98
86 121 98
85 120 97
85 120 97
86 120 97
85 120 97
85 120 97
85 120 98
85 121 98
85 120 97
84 119 96
85 120 97
85 120 97
85 120 97
85 119 96
85 120 97
85 120 97
85 120 97
85 120 97
85 120 97
85 120 97
85 120 98
85 120 97
85 120 97
85 120 97
85 120 97
85 120 97
85 120 97
85 120 97
85 120 97
84 119 96
85 119 96
85 120 97
85 120 97
85 120 97
84 119 97
85 120 97
84 119 96
84 119 97
85 120 97
85 120 97
84 119 97
84 119 97
84 119 96
84 119 96
84 119 97
84 119 96
84 119 96
84 119 96
84 119 96
84 119 97
84 119 96
84 119 97
84 119 97
84 119 97
84 119 97
84 119 96
84 119 97
84 119 97
84 118 96
84 119 97
84 119 97
84 119 97
84 119 97
84 119 96
84 118 96
84 119 96
84 119 97
84 119 96
84 119 96
84 119 96
84 118 96
84 119 97
84 119 96
84 118 96
84 119 96
84 118 96
83 118 96
84 118 96
84 118 96
84 119 96
84 119 97
84 118 96
84 118 96
84 118 96
84 119 96
83 118 96
84 118 96
83 118 96
84 119 96
84 118 96
83 118 96
84 119 96
83 118 95
83 118 96
83 118 96
83 118 96
83 118 96
83 118 96
91 126 102
90 126 101
91 127 102
90 127 102
91 126 101
90 127 102
90 126 102
91 126 102
90 126 101
91 126 102
90 127 102
90 126 101
90 126 101
90 126 101
90 126 101
90 126 101
90 126 101
90 126 101
90 125 100
90 126 101
90 125 101
90 126 101
90 126 101
90 125 100
89 125 100
90 126 102
90 126 101
90 126 101
90 125 100
90 125 100
90 125 100
89 124 100
90 124 99
89 124 100
89 124 100
89 125 100
90 125 100
89 124 99
89 125 100
89 124 100
90 124 99
90 124 99
89 124 99
89 123 98
89 123 99
88 122 97
89 123 98
89 123 98
88 122 98
89 122 98
88 121 97
88 121 97
88 121 96
88 122 98
87 120 96
88 119 95
88 121 96
87 119 95
86 118 94
86 118 93
87 118 94
85 115 91
91 107 83
108 63 34
110 60 29
107 58 28
114 61 31
107 59 29
104 58 28
101 57 28
107 59 29
103 57 28
107 59 30
101 57 28
109 59 30
107 59 30
103 57 29
102 56 28
103 57 28
100 55 28
92 52 25
90 51 25
87 50 24
81 47 22
84 48 23
79 45 22
68 40 19
66 54 40
50 71 60
53 75 63
55 78 65
55 78 65
57 82 68
61 85 71
61 86 71
66 93 77
68 95 78
70 99 81
72 100 81
73 102 84
78 109 89
78 109 88
80 111 89
83 115 93
84 117 94
85 119 96
85 118 95
86 121 97
86 121 97
87 120 97
87 121 98
86 121 97
86 120 96
86 119 96
86 120 97
87 121 98
85 118 95
86 120 97
86 120 97
87 120 97
86 121 97
86 120 96
86 120 97
86 120 97
86 121 97
86 121 98
86 120 97
85 119 95
86 119 96
85 119 96
86 119 95
86 120 97
85 119 95
86 120 97
85 119 96
85 119 96
85 120 96
86 120 97
84 118 95
85 119 96
85 119 96
84 118 95
84 118 95
84 117 94
84 117 94
85 119 96
84 117 94
85 119 96
85 119 96
84 117 94
83 116 94
83 117 94
84 117 94
84 118 95
83 116 93
84 118 95
84 118 95
83 116 93
85 119 96
85 120 96
85 120 96
85 119 96
84 117 94
85 120 97
84 118 95
84 117 95
85 119 96
84 119 96
85 119 96
84 118 95
85 120 97
85 120 97
85 119 96
85 119 96
85 120 97
85 120 97
86 121 98
85 119 96
85 119 96
85 121 98
86 120 97
85 120 97
85 120 97
86 121 98
85 120 97
85 120 97
85 120 97
85 120 97
85 120 97
85 119 96
85 120 97
86 121 98
86 121 97
85 120 97
85 120 97
85 120 97
85 120 97
86 121 98
86 121 98
86 121 98
85 120 97
86 121 98
85 121 98
85 120 97
86 120 97
85 120 98
85 119 96
85 120 97
85 121 98
86 121 98
85 120 97
85 120 97
85 120 97
85 120 97
85 120 97
85 120 98
85 119 96
85 120 97
85 120 97
85 120 97
85 119 96
85 120 97
85 120 97
85 120 97
85 120 97
85 119 97
84 119 97
85 120 97
85 120 97
85 120 97
85 120 97
85 120 97
85 120 97
85 120 97
85 120 97
85 119 96
85 119 97
85 120 97
84 119 96
85 120 97
84 119 96
84 119 97
85 120 97
85 120 97
85 119 97
85 120 97
84 119 97
85 119 97
85 120 97
84 120 97
84 119 97
84 119 96
84 119 97
84 119 97
84 119 96
85 119 97
84 119 96
84 119 97
84 119 96
84 119 96
84 119 96
84 119 97
84 119 96
84 119 97
84 118 96
84 119 96
84 119 97
84 119 96
84 119 96
84 118 96
84 119 97
84 119 97
84 118 96
84 119 96
84 118 96
84 119 96
84 119 96
84 118 96
84 118 96
84 119 97
84 118 96
84 119 96
84 119 96
83 118 96
84 119 96
84 118 96
83 118 96
83 118 96
83 118 96
84 119 96
84 118 96
84 118 96
84 118 96
83 118 96
83 118 96
83 118 96
83 118 96
83 118 96
83 117 95
83 118 96
90 127 102
91 127 102
91 127 102
91 126 101
90 127 102
90 127 102
90 126 101
90 126 101
90 126 101
90 126 101
90 126 101
90 126 101
90 127 102
90 126 101
90 126 102
90 125 101
90 125 101
90 126 101
90 126 102
90 126 101
90 126 101
89 125 101
90 125 101
90 125 100
90 125 101
90 125 101
89 125 100
90 125 101
89 124 100
89 124 100
90 126 101
89 124 99
89 125 100
89 124 99
89 125 100
90 125 101
90 124 99
89 124 99
89 123 99
89 124 99
89 124 99
90 124 99
89 123 98
89 124 99
88 123 98
89 124 99
89 123 99
89 123 98
88 120 96
89 121 96
88 121 97
88 121 97
88 121 97
88 119 94
88 120 96
88 121 96
87 119 95
86 117 93
87 118 93
85 115 90
84 115 91
84 114 90
85 113 89
90 100 76
102 61 33
97 55 25
97 55 25
101 56 26
101 56 27
93 53 24
95 54 25
92 53 25
99 55 27
91 52 24
96 54 26
90 52 24
83 49 23
88 51 24
88 50 24
80 48 22
86 49 23
79 46 21
78 46 21
71 43 20
66 40 18
60 38 17
63 50 35
48 66 56
48 69 59
50 72 61
52 73 61
50 72 61
53 76 64
53 76 65
56 80 67
59 84 70
60 86 72
64 90 75
65 92 76
70 99 81
73 102 83
75 106 86
75 105 85
79 109 88
80 112 91
83 115 92
83 116 94
85 120 96
85 119 95
87 121 97
86 120 97
87 121 97
86 121 97
86 120 97
86 119 96
86 120 97
87 121 97
86 120 97
87 121 98
87 121 97
86 121 98
86 121 97
86 121 98
86 121 97
85 120 96
85 120 96
86 120 97
86 121 97
86 120 97
86 120 97
85 120 97
85 119 96
85 119 96
85 120 96
85 119 96
85 119 96
86 120 97
85 118 95
84 118 95
85 119 96
85 119 96
85 120 96
84 118 95
85 119 96
85 119 96
85 120 97
85 118 95
85 120 97
85 119 95
84 118 95
85 119 96
85 119 97
86 120 97
84 119 96
84 118 96
84 118 95
84 118 95
83 117 94
84 118 95
85 119 96
85 119 96
85 119 96
85 120 97
84 119 96
85 119 96
85 118 95
85 119 96
85 120 97
85 120 97
84 118 96
85 120 97
86 121 98
85 120 97
85 120 97
84 118 96
85 119 96
85 120 97
86 120 97
85 120 97
86 121 98
85 119 97
86 120 97
85 119 97
85 120 97
85 120 97
86 121 98
85 120 97
85 120 97
85 120 97
85 121 98
85 121 97
85 120 97
85 121 98
86 120 97
86 121 98
85 120 97
85 120 97
86 120 97
85 121 98
85 120 97
85 120 97
85 120 97
86 120 97
86 121 97
85 120 98
85 121 98
85 120 97
85 120 97
85 121 98
85 120 97
85 120 97
85 120 97
85 120 97
86 121 98
85 121 98
85 120 97
85 119 97
85 120 97
85 120 97
85 120 97
85 120 97
85 119 97
84 119 97
85 119 97
84 119 97
85 120 97
85 120 97
85 120 97
85 120 97
85 120 97
85 120 98
85 120 97
85 120 97
85 120 97
85 120 97
84 119 97
84 120 97
85 120 97
85 120 97
84 119 97
85 119 97
85 120 97
84 119 96
84 119 97
85 119 97
85 119 97
84 119 97
85 120 97
84 119 96
84 119 96
85 119 97
84 119 96
84 119 96
85 120 97
84 119 96
84 120 97
84 119 96
84 119 97
84 119 97
84 119 97
84 119 96
84 119 97
84 119 96
84 119 97
85 120 97
84 119 96
84 119 97
84 119 97
84 119 96
84 119 96
84 119 97
84 119 96
84 118 96
84 119 96
84 119 96
84 119 96
84 118 96
84 118 96
84 119 97
84 119 97
84 119 96
84 119 97
83 118 96
84 118 96
83 118 96
84 119 97
84 118 96
83 118 96
84 119 96
83 118 95
83 118 96
83 118 96
84 119 96
83 118 96
83 118 96
83 117 95
83 117 96
84 118 96
83 118 96
83 118 96
91 127 102
90 126 102
91 127 102
90 127 102
91 127 102
90 127 102
90 126 101
91 127 102
90 127 102
90 126 102
90 127 102
90 126 101
90 126 101
90 126 102
90 126 101
90 125 101
90 126 101
90 126 101
90 127 102
90 126 101
90 126 101
90 125 101
90 126 101
90 126 101
89 125 100
90 126 101
90 126 101
90 126 101
90 125 100
90 126 101
90 125 101
90 124 100
90 124 100
90 124 100
89 124 99
90 124 99
90 125 100
89 124 100
89 125 100
90 124 100
90 124 99
89 124 99
89 124 99
89 123 99
89 123 98
89 123 98
89 122 98
88 122 98
88 121 96
89 121 96
88 120 96
88 120 95
88 121 96
87 119 95
88 120 95
87 118 93
86 117 93
86 116 92
86 116 92
85 115 90
86 116 92
83 112 87
84 112 88
82 109 85
86 101 77
88 61 37
89 51 22
95 53 24
93 53 24
89 52 23
87 51 23
85 50 22
81 49 21
82 49 22
78 47 21
82 49 22
80 48 22
77 47 21
70 44 19
70 43 19
68 42 19
66 41 18
62 40 18
57 35 15
54 34 16
48 47 35
47 62 52
43 61 51
46 63 53
47 66 55
50 72 61
51 70 59
52 75 64
51 73 62
53 74 63
54 78 66
56 81 68
58 83 70
62 88 74
64 92 77
68 96 79
69 98 80
75 106 86
75 106 87
79 111 90
78 109 89
82 114 92
82 116 94
84 117 94
84 118 95
86 121 97
85 119 95
86 120 97
86 120 97
87 121 98
86 120 97
87 121 97
86 120 97
86 121 97
86 120 96
86 121 97
87 122 98
87 121 97
86 120 96
87 121 97
87 121 97
86 121 97
86 120 97
86 121 98
86 120 97
86 120 97
86 120 97
85 119 96
86 120 97
86 120 97
85 119 96
85 119 96
86 121 98
86 121 97
85 120 97
85 119 96
85 120 96
85 119 96
84 118 95
85 119 96
86 120 97
85 120 97
85 119 96
85 119 96
84 118 95
85 119 96
85 119 96
85 119 96
86 120 97
84 117 95
85 119 97
85 119 96
85 119 96
85 119 96
85 119 96
85 120 97
85 119 96
84 119 96
85 120 97
85 120 97
85 120 96
85 120 97
85 120 96
85 120 97
85 120 97
86 121 97
85 121 98
85 119 96
85 119 96
86 120 97
85 120 97
86 121 98
85 120 97
85 119 96
85 120 97
86 121 98
85 120 97
85 119 97
86 121 98
86 121 98
86 121 98
86 121 97
86 120 97
85 120 97
85 120 97
86 120 97
85 121 97
85 120 97
86 120 97
86 121 98
85 120 97
86 121 98
85 120 97
86 121 98
86 121 98
85 120 97
86 121 98
85 120 97
85 120 97
85 120 98
85 120 97
85 121 98
85 120 97
85 120 98
85 121 98
85 120 97
85 121 98
85 120 97
85 120 97
85 121 98
86 121 97
85 120 98
85 120 97
85 120 97
85 119 97
85 120 97
85 120 97
85 120 97
85 120 97
85 120 97
85 120 97
85 120 97
85 120 97
85 120 97
85 120 97
85 119 97
85 119 97
85 120 97
85 120 97
85 120 97
85 120 97
84 119 97
84 119 96
85 120 97
85 120 97
85 119 97
85 119 97
84 119 96
84 119 97
85 120 97
85 119 97
84 119 96
85 120 97
84 118 96
85 120 97
85 119 97
84 119 97
84 119 97
84 119 97
84 119 96
84 119 97
84 119 96
84 119 97
84 119 97
84 119 97
84 119 96
84 119 97
84 119 97
84 119 97
85 119 97
84 119 97
84 119 96
84 119 96
84 119 97
84 119 96
84 119 97
84 119 97
84 119 97
84 119 96
84 119 97
84 119 96
84 119 97
84 119 96
84 119 96
84 118 96
84 118 96
84 118 96
84 119 96
84 119 96
83 118 96
83 118 96
84 119 96
84 119 97
84 119 96
83 118 96
84 118 96
83 118 96
84 119 96
84 118 96
84 118 96
83 118 96
84 118 96
83 118 96
83 118 96
83 118 96
91 127 102
90 126 102
90 126 101
91 127 102
90 126 101
91 126 102
91 126 101
90 127 102
90 126 102
90 126 102
90 126 101
90 126 101
90 126 101
90 126 101
90 126 101
90 126 101
90 126 101
90 126 101
90 127 102
90 125 101
90 126 101
90 126 101
90 125 101
90 126 101
90 126 101
90 125 100
90 126 101
90 125 101
89 125 100
90 125 100
89 124 99
89 125 100
89 125 101
90 125 100
89 125 101
90 125 100
90 125 100
90 125 100
89 125 100
90 124 99
89 124 99
89 123 98
89 124 100
89 123 98
88 122 98
89 122 98
88 123 98
89 121 97
88 121 96
88 120 95
89 122 97
88 121 96
88 121 96
88 120 96
87 119 95
87 119 95
87 119 94
85 115 91
85 114 90
86 116 91
84 113 89
84 112 88
82 109 85
82 110 86
81 109 85
77 100 77
77 65 44
83 47 21
78 46 20
86 50 21
83 48 21
78 46 20
74 44 19
74 45 19
71 43 18
70 43 19
68 42 18
65 40 17
60 37 16
60 37 16
58 37 16
56 35 15
53 33 15
48 35 21
38 47 38
38 54 45
42 60 51
44 61 50
48 67 56
45 64 54
50 70 59
53 74 63
51 73 62
52 74 63
52 74 63
55 78 66
54 77 65
56 80 68
58 85 72
60 86 72
63 90 75
68 96 80
70 99 81
74 104 85
75 105 85
76 105 85
79 112 91
82 114 92
82 115 93
85 119 96
84 117 95
86 120 96
86 120 96
87 121 98
86 120 96
87 121 98
87 121 98
87 121 97
86 121 98
86 121 97
87 122 98
86 121 97
87 121 97
86 121 97
87 121 98
86 121 97
85 119 96
87 122 98
86 121 97
86 121 97
86 120 97
86 121 98
86 120 97
85 120 97
86 121 97
86 120 97
85 120 96
85 120 97
85 119 96
86 120 97
86 120 97
85 119 96
85 119 96
85 119 96
85 120 97
86 120 97
85 120 97
85 119 96
85 119 96
86 120 97
86 121 97
85 120 97
86 120 97
85 119 96
86 120 97
85 120 97
85 119 96
85 120 97
85 120 97
86 120 97
86 121 97
85 120 96
85 120 97
86 121 98
85 119 96
85 120 97
86 121 97
85 120 97
86 121 98
85 120 97
85 120 97
85 120 97
85 120 97
85 120 97
85 120 97
85 120 97
85 120 97
85 119 96
85 120 97
85 119 96
85 121 98
85 120 97
85 120 97
86 121 98
86 121 97
86 121 97
85 120 97
85 120 97
85 120 97
85 120 97
86 121 97
85 121 98
86 121 98
85 120 97
86 121 98
85 120 97
86 121 98
86 121 98
85 120 97
85 120 97
85 120 97
85 120 97
85 120 97
85 120 97
85 120 97
85 120 97
85 121 98
85 120 97
85 120 97
85 120 97
85 120 97
85 120 97
85 120 97
85 121 98
85 121 98
85 120 98
85 120 97
85 120 97
85 120 97
85 120 97
85 120 97
85 120 98
85 120 97
85 120 97
85 120 97
85 120 97
85 120 97
85 120 97
85 119 97
85 120 97
85 120 97
85 120 97
85 120 98
84 120 97
85 120 97
85 120 97
85 120 97
85 120 97
85 120 97
85 120 97
85 120 97
85 120 97
85 119 97
85 119 97
85 119 97
84 120 97
85 119 97
84 119 97
85 119 96
85 120 97
84 119 96
84 119 96
84 119 97
84 119 96
85 119 97
84 119 96
84 119 97
84 119 96
84 119 97
84 119 96
84 119 97
84 119 97
84 119 97
84 119 97
84 119 96
84 119 96
84 119 97
84 119 96
84 119 97
84 119 97
84 119 96
84 119 97
84 119 97
84 119 96
84 118 96
84 118 96
84 119 96
84 119 96
84 119 97
84 119 96
84 119 96
84 119 97
84 119 97
84 119 96
84 119 97
84 118 96
84 119 96
83 118 96
83 118 96
84 119 96
84 118 96
83 118 96
84 118 96
84 118 96
83 118 96
83 118 96
83 118 96
83 118 96
83 118 96
83 118 96
91 127 102
90 126 101
90 126 102
91 127 102
90 126 101
90 126 102
90 126 102
91 127 102
91 126 101
90 126 101
90 126 101
90 127 102
90 126 102
90 126 101
90 126 101
90 126 101
90 127 102
90 126 101
90 125 101
90 126 101
90 125 101
90 125 100
90 126 101
90 125 100
90 125 100
90 125 100
90 126 101
90 125 101
90 126 101
90 125 100
90 125 100
90 125 101
89 125 100
89 124 100
90 125 101
89 123 98
89 123 98
89 123 99
89 124 99
90 124 100
89 124 99
89 123 99
89 123 99
89 123 98
89 123 98
89 124 99
88 120 96
89 123 98
88 121 96
89 122 97
88 121 96
88 121 96
88 120 96
87 119 94
87 119 94
87 118 93
87 117 93
85 115 91
85 114 90
85 115 91
84 113 89
83 111 87
83 113 88
82 108 84
78 103 79
71 94 72
65 86 67
60 69 53
63 44 27
68 42 20
73 42 18
70 42 18
72 42 18
66 40 17
62 38 16
63 38 16
59 37 16
55 34 15
52 33 14
50 31 14
46 29 13
42 32 20
35 38 30
31 41 33
33 45 37
41 57 48
45 61 51
42 58 49
47 66 56
45 64 54
50 71 60
49 70 59
53 75 63
54 76 64
54 78 67
54 78 66
57 82 70
54 77 66
57 82 69
58 85 72
62 88 73
65 93 77
67 94 77
72 102 84
74 105 86
77 109 89
79 111 91
81 113 92
83 115 93
84 116 94
83 117 94
85 119 95
86 120 97
86 120 97
86 120 97
86 119 96
87 121 97
87 122 98
87 121 97
87 121 98
86 121 98
86 121 97
86 121 98
87 122 98
86 120 97
87 121 97
86 120 96
87 122 98
86 120 97
86 120 97
86 121 98
86 121 98
87 122 98
86 120 97
85 119 96
85 119 96
86 121 98
86 121 97
86 120 97
86 121 97
85 120 96
86 121 98
85 120 97
86 121 98
86 120 97
85 120 97
85 120 97
86 121 98
86 121 98
85 120 97
85 119 96
85 120 97
86 120 97
86 121 98
86 121 97
86 120 96
85 119 96
85 120 97
85 119 96
85 120 97
86 120 97
85 120 97
85 119 96
85 120 97
85 120 97
85 119 96
85 119 96
86 121 98
86 120 97
85 120 97
86 121 97
86 121 98
85 120 96
86 120 97
86 121 98
85 120 97
85 120 97
86 120 97
86 121 98
86 121 98
85 120 97
86 121 98
85 121 98
85 121 98
86 121 98
85 120 97
86 120 97
86 121 98
85 121 98
85 120 97
86 121 98
85 120 97
86 121 97
86 121 98
86 120 97
86 121 98
85 120 97
85 120 97
85 120 97
85 120 98
85 120 97
85 120 97
86 121 98
85 120 97
85 120 97
86 121 98
85 120 97
85 120 97
85 120 98
85 120 98
85 120 97
85 120 97
85 120 97
85 120 97
86 121 98
85 120 97
85 120 97
86 120 97
85 120 97
85 120 97
85 120 97
86 121 98
85 120 97
85 120 97
85 120 98
85 120 97
85 120 97
85 120 97
85 120 97
85 120 97
85 120 97
85 120 97
85 120 98
85 120 97
85 120 97
85 120 97
85 120 97
85 120 97
84 120 97
85 120 97
85 120 97
85 120 97
84 119 97
84 119 97
84 119 97
84 119 96
84 119 97
84 119 97
84 119 97
84 118 96
84 119 97
85 120 97
84 119 97
84 119 97
84 119 97
84 119 96
84 119 97
85 119 97
84 119 97
84 119 97
84 119 96
84 119 97
84 119 97
84 119 96
84 119 97
84 119 97
84 119 96
84 119 97
84 119 97
84 119 97
84 119 96
84 119 97
84 119 96
83 118 96
84 119 97
84 118 96
84 119 97
84 119 97
84 119 96
84 118 96
84 119 96
84 119 96
84 118 96
84 119 96
84 119 96
83 118 96
84 118 96
83 118 96
84 119 96
83 118 96
84 118 96
83 118 96
84 118 96
83 118 96
84 118 96
84 118 96
84 118 96
84 118 96
83 118 96
83 118 96
90 127 102
91 127 102
91 127 102
90 126 102
90 127 102
90 126 102
91 127 102
90 126 101
90 126 102
90 126 101
91 127 102
90 127 102
90 126 102
91 126 101
90 126 101
90 126 102
90 126 101
90 126 101
90 126 101
90 126 101
90 126 101
90 126 101
90 126 101
90 126 101
90 126 101
89 125 100
90 125 100
90 126 101
90 125 101
90 125 100
89 124 100
89 124 100
89 124 100
90 125 100
89 125 100
89 126 101
90 124 100
89 124 99
89 123 99
89 124 99
90 124 99
89 124 99
89 122 97
88 122 98
89 122 98
89 122 97
88 122 98
89 122 98
89 123 98
88 122 97
88 121 97
87 119 95
88 120 95
87 119 95
87 118 94
87 118 93
86 115 91
86 117 92
86 116 92
84 113 89
83 111 87
84 113 89
83 109 85
81 109 84
76 102 79
66 88 68
58 76 59
48 64 51
43 59 48
35 40 31
41 35 24
48 35 21
49 32 17
53 33 16
46 29 13
49 32 16
43 26 11
42 29 16
36 24 12
34 30 21
31 39 31
29 41 34
31 43 36
37 52 44
37 51 43
41 58 48
44 61 51
45 63 52
47 65 55
50 70 59
47 66 56
52 73 62
51 73 62
54 78 66
53 77 65
54 78 66
56 81 69
55 79 67
57 83 71
59 86 73
62 90 75
66 94 78
68 97 81
70 99 82
72 103 84
76 107 88
78 108 87
79 111 90
81 113 91
83 116 94
84 117 94
85 119 96
85 119 96
85 118 95
87 122 98
87 122 98
86 121 97
87 121 98
87 122 98
86 121 97
87 121 98
87 122 98
87 121 97
86 121 98
86 120 97
87 122 98
86 120 97
87 122 98
86 120 97
86 121 98
86 121 97
86 121 97
86 121 97
86 120 97
85 120 97
86 120 97
86 121 97
86 121 98
86 121 98
86 121 98
85 119 96
86 121 98
85 120 97
85 119 96
86 121 97
86 121 97
86 122 99
85 120 97
85 120 97
86 120 97
86 121 97
85 119 96
85 119 96
86 120 97
86 121 97
85 119 96
86 120 97
86 120 97
86 121 98
86 120 97
86 121 98
85 119 96
85 120 97
85 119 96
86 121 98
86 121 97
86 121 98
86 121 98
86 121 98
86 121 98
85 120 97
86 121 98
85 120 97
86 121 98
85 120 97
86 121 98
85 120 97
86 121 98
85 120 97
85 120 97
86 121 98
85 120 97
85 120 97
86 121 97
86 122 98
85 120 97
85 120 97
86 121 98
85 120 97
85 121 97
86 121 98
86 121 98
85 120 98
86 121 98
85 119 96
85 120 97
86 121 98
86 121 98
86 121 98
85 120 97
85 120 97
85 121 98
85 120 97
85 120 97
85 120 97
85 120 97
86 121 98
85 120 97
85 121 98
86 121 97
86 120 97
85 120 97
85 120 98
85 120 97
85 120 97
85 120 97
85 120 97
85 120 97
85 120 97
85 120 97
85 120 97
85 120 97
85 120 97
85 120 97
85 120 97
85 120 97
85 120 97
85 120 97
85 120 97
85 120 97
85 120 97
84 119 97
85 120 97
85 119 96
85 120 97
85 120 97
85 120 97
85 120 97
85 120 97
85 120 97
85 120 97
84 120 97
84 119 97
85 120 97
85 120 97
85 120 97
84 119 97
85 120 97
84 119 97
84 119 97
84 119 96
84 119 97
84 119 96
84 119 97
84 119 97
84 119 97
84 119 96
84 119 96
84 119 96
84 119 97
84 119 97
84 119 96
84 119 96
84 119 97
84 119 97
84 119 97
84 120 97
84 119 97
84 119 97
84 119 97
84 118 96
84 119 96
84 119 97
84 119 97
84 119 96
83 118 96
84 119 96
84 119 97
84 118 96
84 119 97
83 118 96
83 118 96
83 118 96
84 119 96
84 118 96
84 118 96
83 118 96
84 118 96
84 119 96
83 118 96
84 119 96
84 119 96
84 118 96
84 118 96
83 118 96
83 118 96
84 119 96
83 118 96
83 118 96
83 118 95
90 127 102
90 127 102
90 127 102
90 126 102
90 126 101
91 127 102
90 126 101
90 126 102
90 126 101
90 126 101
90 126 101
90 126 101
90 126 101
90 126 101
90 125 101
90 126 101
90 126 101
90 126 101
90 125 101
90 126 101
90 126 101
90 126 101
90 126 101
90 126 101
90 125 101
90 126 101
90 125 100
90 125 100
90 124 100
90 125 101
89 124 99
90 126 101
90 125 101
89 124 99
89 125 101
89 125 100
89 123 98
89 124 99
89 124 99
89 124 99
89 123 98
89 123 98
89 124 99
89 122 98
89 122 98
89 122 97
89 123 99
89 122 97
89 122 98
88 121 97
88 121 97
87 120 96
87 120 96
87 120 96
87 118 93
86 118 93
86 117 92
86 117 92
85 115 91
85 116 91
84 114 89
83 113 88
82 110 86
80 108 84
77 102 79
68 91 71
58 76 60
49 66 52
40 54 44
34 46 37
34 47 38
32 43 35
31 43 35
27 38 31
25 31 25
27 36 29
27 36 29
29 40 32
26 34 28
30 42 35
32 45 37
34 46 38
35 48 40
37 52 43
43 59 49
45 62 51
45 62 52
47 65 55
47 67 56
51 73 61
51 72 60
51 72 61
51 74 62
53 76 65
54 78 67
54 77 65
57 82 70
55 81 69
56 81 69
59 86 73
63 90 75
65 92 77
68 96 80
71 100 82
73 103 84
75 106 87
78 108 88
80 112 91
82 114 92
83 116 93
83 117 94
84 117 94
85 119 96
86 120 96
86 120 96
87 121 98
86 120 96
87 122 98
87 122 98
87 122 98
86 120 97
87 121 98
87 122 98
86 121 97
87 121 98
86 121 98
87 122 98
86 121 98
87 122 98
87 122 99
86 122 98
86 121 97
86 121 97
86 121 98
86 120 97
86 121 97
86 121 98
86 120 97
86 121 98
86 120 97
86 121 98
86 121 98
85 120 97
86 121 98
85 120 97
86 121 97
87 122 98
86 121 98
86 120 97
86 121 98
85 120 97
86 120 97
86 120 97
85 120 97
86 121 97
86 121 98
86 121 98
85 119 97
85 120 97
85 120 97
86 121 98
85 120 97
86 121 98
86 121 98
87 122 98
86 121 98
86 121 98
86 120 97
86 121 98
86 121 98
86 121 97
85 120 97
85 120 97
85 120 97
85 120 97
86 121 98
85 120 97
86 121 98
86 121 98
86 121 98
86 121 98
86 121 98
86 121 98
85 120 97
86 121 98
86 121 97
86 121 98
85 121 98
86 121 98
85 120 97
86 121 98
86 121 98
85 120 97
85 120 97
86 121 98
85 121 98
85 121 98
85 120 97
86 121 98
85 120 97
85 121 98
85 120 97
86 121 98
85 121 98
85 120 97
86 121 97
86 120 97
86 120 97
85 121 98
85 120 97
85 121 98
85 120 98
86 121 98
85 120 97
85 120 97
85 120 98
85 120 97
85 121 98
85 120 97
85 120 97
85 120 97
85 120 97
85 120 97
85 120 97
85 120 97
85 120 97
85 120 97
85 120 98
85 120 97
85 119 96
85 120 97
85 120 97
85 120 97
85 120 97
85 120 97
85 120 97
84 119 97
85 120 97
84 119 97
85 120 97
85 120 97
85 119 97
85 119 97
84 119 97
84 119 97
85 119 97
84 120 97
85 120 97
85 120 97
85 120 97
85 120 97
84 119 96
84 119 97
84 119 96
85 120 97
84 120 97
84 119 97
84 119 97
84 119 97
84 119 96
84 119 97
84 119 96
84 119 97
84 119 97
84 119 97
84 119 96
84 119 97
84 119 96
84 119 97
84 119 97
84 119 96
84 119 97
84 119 96
84 119 96
84 119 96
84 119 97
84 119 96
84 119 96
84 119 96
84 119 96
84 119 97
84 119 97
84 119 96
84 118 96
84 119 96
84 118 96
84 118 96
84 119 96
83 118 96
84 118 96
83 118 96
83 118 96
84 118 96
83 118 96
84 119 96
84 118 96
83 118 96
83 118 96
84 118 96
83 118 96
90 126 101
90 126 102
90 126 101
90 127 102
90 126 101
90 127 102
91 127 102
90 126 101
91 127 102
90 126 101
90 126 101
90 126 102
90 126 101
90 125 101
90 126 101
91 126 101
90 126 101
90 125 100
90 126 101
90 126 101
90 125 100
90 126 101
90 125 101
90 125 101
90 126 101
89 125 101
90 125 101
90 125 100
90 125 101
90 125 101
89 123 99
89 124 100
89 125 100
89 124 100
89 124 100
89 125 100
90 123 99
89 124 100
89 122 98
89 123 98
89 123 99
90 124 99
89 124 99
89 123 99
89 123 98
89 123 98
89 122 97
88 122 98
88 121 97
88 121 96
88 120 96
88 120 95
87 118 94
88 119 95
86 117 93
86 116 92
86 117 92
86 117 92
86 117 93
84 114 90
85 114 90
85 115 91
84 113 89
83 112 88
78 106 84
68 90 71
62 84 67
54 72 58
43 57 47
39 53 44
39 53 44
38 53 44
35 47 38
35 49 40
30 40 32
37 51 42
33 45 37
33 45 37
31 42 34
35 49 41
36 51 42
43 59 49
40 56 46
42 58 49
44 61 51
43 59 49
46 65 55
50 69 58
51 71 60
51 73 61
53 76 65
54 76 65
53 76 64
56 79 67
55 79 67
54 77 66
54 77 66
55 80 68
59 86 73
59 84 71
63 91 76
66 95 79
70 100 83
71 100 83
74 104 85
76 108 88
78 110 90
80 113 92
81 114 93
82 116 94
84 118 95
84 119 96
86 120 97
86 120 97
87 121 97
87 121 98
87 121 98
87 122 98
87 122 98
87 122 98
86 121 97
87 121 98
87 122 98
87 123 99
86 121 98
87 121 98
86 121 97
87 122 99
87 121 98
87 122 98
87 122 99
86 121 97
86 121 97
87 122 98
86 121 97
86 121 98
87 122 99
87 122 99
87 122 99
86 120 97
87 122 98
86 121 98
86 121 97
86 121 98
86 121 98
86 122 98
86 121 97
86 121 98
86 121 98
86 122 98
85 120 97
86 121 97
86 121 98
86 121 98
86 121 97
86 121 97
86 121 98
85 120 97
85 119 97
86 120 97
85 120 97
86 121 97
86 121 98
86 121 98
85 120 97
86 121 98
86 121 97
86 121 98
86 121 98
86 121 98
86 121 98
86 121 97
86 121 98
85 120 97
85 120 97
86 121 98
86 120 97
86 121 97
86 121 98
85 120 97
86 121 98
86 120 97
85 121 98
86 121 97
86 121 98
85 120 97
86 121 98
85 121 98
85 120 97
85 120 97
86 121 98
86 121 97
86 121 98
86 121 98
85 121 98
85 120 97
85 120 97
85 121 98
85 121 98
86 121 98
85 120 98
86 121 98
85 121 98
86 121 97
85 120 97
86 121 98
85 121 98
85 120 97
85 121 98
86 121 97
85 120 97
85 121 98
85 120 97
85 120 97
85 120 97
86 120 98
85 120 97
85 120 98
85 120 97
86 121 98
86 121 97
85 120 97
85 120 98
85 120 97
85 121 97
85 120 97
85 120 97
85 120 97
85 120 97
85 120 97
85 120 97
85 120 97
85 120 97
84 119 97
85 120 97
85 120 97
85 120 97
85 120 97
84 119 96
85 120 97
85 119 96
85 120 97
85 120 97
85 120 97
85 120 97
84 119 97
85 120 97
84 119 96
84 119 97
84 119 97
85 120 97
85 120 97
84 119 97
85 119 97
85 119 97
85 120 97
84 119 97
84 119 96
84 119 97
84 119 96
84 119 96
84 119 97
84 119 96
84 119 96
84 119 96
84 119 96
84 119 97
84 119 97
84 119 96
84 119 97
84 119 96
84 119 97
84 119 96
84 119 96
84 119 97
84 118 96
84 119 96
84 119 96
84 118 96
84 119 96
84 119 96
84 119 97
84 119 97
84 119 96
84 119 96
84 119 97
84 118 96
83 118 96
84 118 96
84 118 96
84 119 96
84 118 96
83 118 96
83 118 96
84 118 96
84 119 96
84 118 96
83 118 96
84 118 96
84 118 96
90 127 102
90 127 102
90 127 102
90 126 101
90 126 102
90 126 101
90 127 102
90 126 102
90 126 101
91 126 101
90 126 101
90 125 101
90 126 101
90 126 101
90 126 101
90 125 101
90 126 101
90 126 101
90 125 100
90 126 101
90 126 101
90 125 101
90 126 101
90 126 101
90 126 101
90 125 101
90 125 100
90 125 100
90 125 100
89 124 100
89 125 100
89 125 101
89 125 101
90 125 100
89 124 100
89 124 100
89 123 99
89 124 99
89 124 99
89 123 98
89 123 99
89 123 99
88 122 97
89 123 98
88 122 97
89 122 98
88 122 97
88 123 98
87 120 95
88 120 96
87 121 97
87 120 95
87 120 95
87 119 95
87 119 94
87 120 96
87 118 94
85 116 91
85 114 90
86 116 91
86 116 92
84 114 90
84 113 89
82 110 86
79 105 82
72 96 75
66 88 69
60 81 65
54 73 59
47 63 52
43 59 49
40 55 45
42 57 47
37 51 42
38 51 42
37 50 42
39 53 43
40 55 46
38 51 42
40 54 44
36 49 40
43 61 51
46 65 54
46 63 53
48 69 58
50 70 59
49 68 57
51 71 59
52 74 62
52 74 62
53 76 64
53 75 64
54 78 67
54 78 66
57 82 70
56 80 68
58 83 71
57 82 69
60 87 74
61 87 73
66 93 77
68 96 79
71 100 82
73 103 85
75 106 87
77 107 87
78 109 89
80 112 91
82 115 93
85 119 96
84 117 95
85 119 96
86 121 98
86 120 97
87 122 98
87 121 98
86 120 97
87 122 98
87 122 99
87 122 98
87 122 98
86 121 97
87 122 98
86 121 97
87 122 98
87 122 99
86 121 98
87 122 98
86 120 97
87 122 99
86 122 98
87 122 98
87 122 98
87 122 99
87 122 98
87 122 98
85 120 97
87 122 98
86 121 98
86 121 98
87 122 99
86 120 97
86 121 98
86 121 97
87 121 98
86 121 98
86 121 98
85 120 97
86 120 97
86 121 98
86 121 97
86 121 98
86 121 98
86 121 98
86 121 98
86 121 98
86 120 97
86 121 98
86 121 97
86 121 98
86 121 97
86 121 98
86 121 98
86 121 98
86 121 98
86 121 98
86 120 97
86 121 98
86 122 98
86 122 98
86 120 97
86 121 98
85 120 97
86 121 98
85 121 98
86 121 98
86 121 97
85 121 98
86 121 98
86 120 97
86 121 97
86 121 98
86 121 98
85 120 97
85 121 98
86 121 98
85 120 97
86 121 98
85 120 97
85 120 97
86 121 98
86 121 97
86 121 98
86 120 97
86 121 98
86 121 98
86 121 98
86 121 98
86 121 98
86 121 98
86 121 98
86 120 97
85 120 97
86 121 97
85 120 97
85 120 97
85 120 97
86 121 98
86 121 98
85 120 97
85 120 97
85 120 97
85 121 98
85 120 98
85 120 97
85 119 97
86 121 98
85 121 98
85 120 97
85 120 98
85 120 97
85 120 97
85 120 98
85 119 97
85 120 97
85 120 97
85 120 97
85 120 97
85 120 97
85 120 97
85 120 97
85 120 97
85 120 97
84 120 97
85 120 97
85 120 97
85 120 97
85 120 97
85 120 97
85 120 97
85 120 97
85 119 97
85 120 97
85 120 97
85 120 97
85 120 97
85 120 97
84 119 97
84 119 97
85 120 97
85 120 97
84 120 97
85 119 97
85 120 97
85 120 97
85 119 97
84 119 97
84 120 97
84 119 97
84 119 97
84 119 97
84 119 96
84 119 96
84 119 97
84 119 96
84 119 97
84 119 97
84 119 97
84 119 97
84 119 97
84 119 97
84 119 97
84 119 97
84 119 97
84 119 97
84 118 96
84 119 96
84 119 96
84 119 96
84 119 97
84 119 96
84 119 96
84 119 96
84 118 96
84 118 96
83 118 96
84 118 96
84 119 96
84 118 96
84 118 96
84 119 96
83 118 96
84 118 96
84 119 96
84 118 96
83 118 96
83 118 96
83 118 96
84 118 96
83 118 96
90 126 102
90 127 102
90 127 102
90 127 102
90 126 102
90 126 101
90 126 101
90 126 101
90 126 101
90 126 101
90 126 101
90 126 101
90 126 101
90 126 101
90 126 101
90 125 101
90 126 101
90 126 101
90 125 101
90 126 101
90 126 101
90 126 101
90 125 101
89 125 101
90 125 100
90 125 100
90 125 100
90 125 100
90 124 100
90 125 100
89 124 99
89 125 100
89 125 101
90 125 100
90 124 100
89 124 99
89 125 100
89 125 100
89 123 99
89 124 99
89 123 98
89 123 98
89 123 99
90 124 99
89 123 98
88 121 96
89 121 97
89 122 98
88 121 97
89 121 97
88 121 97
87 119 95
87 121 97
87 119 94
87 118 93
87 119 95
86 118 93
85 116 92
85 116 92
85 115 91
85 117 93
85 116 91
83 112 88
82 110 86
82 112 88
79 108 85
73 98 77
67 92 73
59 79 64
58 79 65
52 71 58
46 64 53
46 64 53
46 65 54
44 61 51
45 61 51
44 60 50
45 60 50
46 64 54
45 62 52
49 68 57
48 66 56
48 68 57
49 69 58
49 69 58
52 74 63
52 71 59
53 75 63
53 76 64
53 75 63
53 77 66
56 80 68
56 80 68
57 81 69
55 80 68
57 83 71
58 83 71
60 86 72
64 93 78
64 91 76
68 97 80
70 99 82
74 104 85
75 106 87
78 109 89
79 110 90
81 114 92
80 113 92
83 117 95
84 118 95
85 120 97
85 120 97
86 119 96
86 120 97
87 121 97
87 120 97
87 122 99
87 122 98
86 121 97
87 121 97
88 122 98
87 121 98
87 122 98
86 121 98
86 121 98
86 121 97
87 122 99
87 122 98
87 122 99
87 121 98
87 122 98
87 122 99
86 121 98
87 121 98
87 123 99
87 122 98
86 121 97
86 121 98
87 123 99
87 122 98
86 121 98
86 122 98
87 122 98
86 121 98
87 122 98
86 121 97
86 121 98
86 122 98
87 122 99
87 122 99
86 121 98
86 122 98
86 121 98
86 121 98
87 122 98
86 122 99
86 122 99
86 121 98
86 120 97
86 121 98
86 121 98
86 120 97
86 121 98
86 122 98
86 121 98
85 120 97
86 120 97
86 121 98
86 121 98
86 120 97
86 121 98
86 121 98
86 121 98
86 121 98
86 121 98
86 121 98
86 121 98
85 121 98
86 121 98
86 121 98
85 120 97
86 121 98
85 120 97
85 120 97
86 121 97
86 121 98
86 121 97
86 121 98
86 121 98
86 121 98
86 121 97
85 120 97
86 121 98
85 121 98
85 121 98
85 120 98
85 120 97
85 120 97
86 121 97
86 121 98
86 121 98
86 121 98
86 121 98
86 121 98
86 121 98
86 121 98
85 121 98
86 120 97
86 121 98
86 121 98
86 121 98
85 120 97
85 120 97
85 121 98
85 120 98
85 121 98
85 120 98
85 120 97
85 120 98
85 120 97
85 120 97
85 120 98
85 120 97
85 120 97
85 120 98
85 120 97
85 120 97
85 120 97
85 120 98
85 120 97
85 120 98
85 120 97
85 120 97
85 120 97
85 120 97
85 120 97
85 120 97
84 119 97
85 120 98
85 120 97
85 120 97
84 119 97
85 120 97
85 120 97
85 120 97
85 120 97
84 119 97
84 119 97
84 120 97
85 120 97
85 120 97
85 120 97
84 119 97
84 119 97
85 120 97
84 119 97
84 119 97
84 119 96
84 119 97
84 119 97
84 119 97
84 119 97
84 119 96
84 119 96
84 119 97
84 119 97
84 119 97
84 119 97
84 119 97
84 119 97
84 119 97
84 119 97
84 119 96
84 119 97
84 119 97
84 119 97
84 119 97
84 119 97
84 119 97
84 119 96
84 119 96
84 119 97
84 119 96
84 118 96
83 118 96
84 119 96
84 119 96
83 118 96
84 118 96
84 118 96
84 118 96
84 119 96
83 118 96
84 118 96
84 118 96
83 118 96
83 118 96
83 118 96
83 118 96
83 118 96
90 126 102
90 126 101
90 126 101
90 126 102
90 127 102
90 126 102
90 126 102
90 126 101
90 126 101
90 126 101
90 126 101
90 126 101
90 126 101
90 126 102
90 125 101
90 126 101
90 126 101
90 125 100
90 126 101
90 125 101
90 126 101
90 125 101
90 125 101
90 126 101
89 125 100
90 125 100
90 125 100
90 125 101
89 124 100
90 125 101
89 125 100
89 125 100
89 123 99
89 125 100
89 124 100
90 124 100
90 124 100
89 123 99
90 124 99
89 123 98
89 122 98
89 123 99
89 124 99
89 123 98
89 122 98
88 122 97
89 123 98
88 121 97
88 122 97
88 123 98
88 122 97
87 120 96
88 121 97
87 120 96
88 121 96
87 119 95
88 120 96
86 118 94
86 118 93
85 116 92
85 116 92
86 116 92
85 116 92
84 115 91
83 111 87
82 112 88
78 106 84
76 102 81
71 96 77
65 89 71
58 79 64
56 78 64
51 71 58
52 74 62
49 68 57
46 65 54
48 66 55
49 69 58
50 70 59
48 67 56
51 72 61
50 68 57
51 71 60
53 76 64
54 77 65
53 75 63
55 79 67
53 75 64
57 81 69
55 78 66
57 83 70
55 80 68
54 78 66
58 84 71
60 86 73
60 86 73
62 89 74
64 91 76
67 96 79
69 99 82
70 100 82
76 107 88
77 109 89
77 108 88
79 112 91
81 114 92
82 114 93
83 117 95
84 117 95
85 119 96
85 119 96
87 122 98
86 121 97
87 122 98
87 121 98
87 123 99
87 122 99
86 121 98
87 121 97
87 122 98
87 122 99
87 122 98
87 122 98
87 122 98
87 121 98
87 122 98
86 121 97
87 122 98
86 121 98
87 121 98
87 122 98
87 122 98
87 123 99
86 121 97
87 122 98
87 122 99
87 122 98
87 122 99
87 122 98
86 121 97
86 121 97
86 122 98
87 122 98
87 122 99
86 122 98
86 121 98
86 121 98
86 121 98
87 122 99
86 121 98
86 121 98
86 121 98
86 122 98
86 122 98
86 121 98
86 121 98
86 121 98
87 122 98
86 121 97
86 121 98
86 122 98
86 122 98
86 121 98
86 121 98
86 121 98
86 121 98
86 121 98
86 121 98
86 121 98
86 120 97
85 120 97
86 121 98
86 121 98
86 121 98
86 121 98
86 121 98
86 121 97
86 121 97
86 121 98
85 120 97
85 120 97
86 121 98
85 121 98
86 121 98
86 122 98
86 121 98
86 121 98
86 121 98
85 121 98
86 121 98
85 121 98
86 121 98
86 121 98
85 121 98
85 121 98
86 121 98
86 121 98
86 121 98
85 121 98
86 120 97
85 120 97
86 121 98
85 120 97
85 120 97
86 121 98
85 121 98
86 121 98
85 120 98
86 121 97
85 120 97
85 120 97
85 121 98
86 121 98
86 121 98
85 120 97
85 121 98
85 120 98
85 120 97
85 120 97
85 120 97
85 120 97
85 120 97
85 120 97
85 120 98
85 120 97
85 120 98
85 120 97
85 120 97
85 120 97
85 120 97
85 120 97
85 120 97
85 120 97
85 120 97
85 120 97
85 120 97
85 120 97
85 120 97
85 120 97
85 120 97
84 119 96
85 120 97
85 120 97
85 120 97
85 120 97
85 119 97
84 119 97
85 120 97
84 120 97
84 119 96
84 119 97
85 120 97
85 120 97
85 120 97
85 120 97
84 119 97
84 119 97
84 119 97
84 119 97
84 119 97
84 119 96
85 120 97
84 119 97
84 119 97
84 119 97
84 119 97
84 119 97
84 119 97
84 119 97
84 119 97
84 119 96
84 119 97
84 119 97
84 119 97
84 119 96
84 119 96
84 119 96
84 119 96
84 119 96
84 119 97
84 119 96
84 119 96
84 119 97
84 118 96
84 118 96
84 118 96
84 119 96
84 118 96
84 119 97
84 118 96
84 119 96
84 118 96
84 119 96
84 118 96
83 118 96
84 118 96
84 119 96
83 118 96
83 118 96
84 118 96
90 127 102
90 126 102
90 126 102
90 127 102
90 127 102
90 127 102
90 126 102
90 126 102
90 126 101
90 126 101
90 126 101
90 125 101
90 126 101
90 126 101
90 125 101
90 126 101
90 125 101
90 126 101
90 126 101
90 125 101
90 125 100
90 125 101
90 126 101
90 125 101
90 125 100
90 125 100
90 126 101
90 125 100
89 125 101
90 125 101
89 125 100
90 125 100
89 125 100
89 125 100
89 125 100
90 124 99
90 125 100
90 125 100
89 125 101
89 124 100
89 123 98
89 123 99
89 123 98
88 122 98
89 124 99
88 122 97
89 123 98
88 123 98
88 121 97
88 122 98
88 121 97
88 121 97
88 120 96
87 119 94
87 120 96
87 120 95
88 120 95
87 119 95
86 119 95
87 119 94
86 117 93
84 115 91
86 117 93
85 116 91
85 115 91
85 116 92
83 113 90
82 112 89
79 106 84
74 100 79
71 98 78
69 95 77
63 87 71
60 82 66
58 79 64
55 77 63
55 77 64
54 76 63
52 73 62
52 72 61
53 74 62
54 76 64
53 75 64
55 78 66
54 79 67
54 76 64
56 80 67
56 80 68
57 82 69
57 81 68
59 85 72
59 85 72
61 87 73
62 90 76
65 92 77
66 94 78
68 96 80
69 99 82
72 101 83
75 105 87
77 108 88
78 110 90
78 110 89
80 112 91
82 115 93
82 115 93
83 117 95
85 118 96
84 117 94
86 119 96
86 120 97
87 122 98
86 120 97
87 121 98
87 122 98
87 122 98
87 122 98
87 121 97
87 122 98
87 122 98
87 122 98
87 123 99
86 121 98
87 122 98
87 123 99
87 122 98
87 122 98
87 121 98
86 121 98
86 122 98
87 122 98
87 121 98
87 122 98
87 121 98
87 122 98
87 122 98
87 122 98
86 121 98
87 122 98
87 121 98
87 123 99
86 121 98
87 122 98
87 122 99
86 121 98
86 121 98
87 122 98
87 122 98
86 121 98
86 122 98
86 122 98
86 121 98
86 121 98
86 121 98
86 121 98
86 121 98
87 122 99
86 120 97
85 120 97
86 121 98
86 121 97
86 122 99
86 121 98
86 121 98
86 121 98
86 122 98
86 121 98
86 121 98
86 121 98
86 122 98
86 121 98
86 121 98
86 121 98
86 121 98
86 121 98
85 120 97
86 121 98
86 121 98
86 121 98
86 121 98
86 121 98
86 122 98
86 121 98
86 121 98
86 121 98
86 120 97
86 121 98
85 121 98
86 121 98
86 120 97
86 121 98
85 120 97
85 120 98
86 121 98
86 121 98
86 121 98
86 121 98
86 121 97
86 121 98
86 121 98
85 120 97
86 121 98
85 120 97
86 121 97
85 121 98
85 121 98
86 121 98
85 120 97
85 120 97
85 120 97
85 120 98
86 121 98
86 121 98
85 120 97
85 120 97
85 120 98
85 121 98
85 121 98
85 120 97
85 120 97
85 121 98
85 120 98
85 120 97
85 120 97
85 120 98
85 120 97
85 120 98
85 120 97
85 120 97
85 120 97
85 120 97
85 120 97
85 119 97
85 119 97
85 120 97
85 120 97
85 120 97
85 120 97
85 120 97
85 120 97
85 120 97
84 120 97
85 120 97
85 120 97
84 119 97
85 120 97
85 120 97
85 119 97
84 119 97
84 119 97
85 120 97
84 120 97
84 120 97
84 119 97
84 120 97
85 120 97
84 119 97
85 119 97
85 119 97
84 119 97
85 120 97
84 119 97
84 119 97
84 119 97
84 119 97
84 119 97
84 119 97
84 119 97
84 119 97
84 119 97
84 119 96
84 119 97
84 119 96
84 119 96
84 118 96
84 119 97
84 119 97
84 119 96
84 119 97
84 119 96
83 118 96
83 118 96
84 119 97
84 119 97
84 119 97
84 118 96
84 119 96
84 118 96
84 119 97
84 119 96
84 119 96
84 118 96
83 118 96
83 118 96
84 118 96
83 118 96
83 118 96
83 118 96
83 118 96
83 118 96
90 126 102
90 127 102
90 127 102
90 126 102
90 126 101
90 126 101
90 126 101
90 126 102
90 126 101
90 126 101
90 126 101
90 126 101
90 126 101
90 125 101
90 126 101
90 126 101
90 126 102
90 125 101
90 126 101
90 126 102
90 126 101
90 125 101
90 125 100
89 125 100
90 125 101
89 125 101
90 125 100
89 125 100
89 125 100
89 125 101
89 124 99
89 125 100
89 125 100
90 124 100
89 125 100
89 123 99
89 124 99
89 123 99
90 124 99
89 124 99
89 124 99
89 123 98
89 123 99
89 123 98
89 124 99
88 123 99
89 124 99
88 122 97
88 121 97
89 123 98
88 122 98
89 122 97
88 121 97
88 121 97
88 122 97
87 120 95
87 119 95
87 121 97
86 119 95
87 119 95
86 117 92
85 117 93
86 118 94
86 118 94
86 118 94
85 116 92
84 113 89
84 115 91
84 114 91
79 106 84
79 108 86
77 104 83
75 103 83
72 99 80
71 97 78
66 93 76
63 88 72
63 87 71
61 85 70
59 83 69
60 85 71
59 82 68
59 84 70
59 83 70
60 87 73
61 86 72
61 86 72
64 90 75
62 86 72
63 90 76
64 90 75
65 92 76
68 97 80
69 99 82
70 98 81
73 103 84
75 106 87
75 106 87
76 108 88
78 109 88
80 113 92
80 112 91
80 113 92
82 116 94
84 116 94
84 116 94
84 117 94
85 119 96
86 121 97
86 121 98
87 122 98
86 121 97
87 122 98
87 121 98
87 122 98
87 122 98
87 122 98
86 121 98
86 121 98
87 122 99
87 123 99
87 122 99
87 122 99
86 121 98
87 122 99
87 122 98
87 121 98
86 122 98
86 121 97
87 122 98
87 122 99
87 122 98
86 121 98
87 122 98
87 122 98
87 121 98
86 121 98
86 121 98
86 122 99
86 121 98
86 121 98
87 122 98
86 121 97
87 122 99
87 122 98
87 122 99
86 122 98
87 122 99
86 121 98
87 122 99
87 122 98
86 121 98
86 122 98
86 121 98
86 122 98
87 122 98
86 121 98
86 122 98
86 121 98
86 122 98
86 122 98
86 120 97
86 121 98
86 121 98
86 121 98
86 121 98
86 121 98
86 121 98
86 121 98
85 121 98
86 121 98
86 121 98
87 122 98
86 122 99
86 121 98
86 121 98
86 122 99
86 121 98
86 121 98
86 121 98
85 120 97
86 121 98
85 120 97
86 121 98
86 121 97
86 121 98
86 120 97
86 121 98
85 120 97
86 121 98
86 121 98
86 121 98
85 120 97
86 121 98
86 121 98
86 121 98
86 121 98
85 120 97
86 121 98
86 121 98
86 121 98
86 121 98
85 121 98
85 120 97
86 121 98
86 121 98
85 120 97
86 121 98
86 121 98
85 120 98
85 120 97
86 121 98
86 121 98
85 120 97
85 120 98
86 121 98
85 120 98
85 121 97
85 120 97
85 120 97
85 120 97
85 120 97
85 120 98
85 120 97
85 120 97
85 120 97
85 120 97
85 120 97
85 120 97
85 120 98
85 120 97
85 120 97
85 120 97
85 120 97
85 120 97
85 120 97
85 120 97
85 120 97
85 120 97
85 120 97
85 119 97
85 120 97
85 120 97
85 120 97
85 120 97
85 120 97
85 120 97
85 120 97
85 120 97
85 120 97
84 119 97
84 119 96
84 120 97
84 119 97
85 119 97
84 119 97
85 120 97
85 120 97
85 119 97
84 119 97
85 119 97
84 119 97
84 119 97
84 119 97
85 120 97
84 119 97
84 119 97
84 119 97
84 119 97
84 119 97
84 119 97
84 119 97
84 119 97
84 119 96
84 119 97
84 118 96
84 119 97
83 118 96
84 119 97
84 119 97
84 119 97
84 119 96
84 119 96
84 119 96
84 119 96
84 118 96
84 119 96
83 118 96
84 119 97
84 119 96
83 118 96
84 119 96
83 118 96
84 119 96
83 118 96
83 118 96
83 118 96
84 119 96
83 118 96
84 118 96
90 126 101
90 126 101
90 126 101
90 126 101
91 126 101
90 126 101
90 126 101
90 126 101
90 126 101
90 126 101
90 126 101
90 126 101
90 126 101
90 126 102
90 126 101
90 126 101
90 126 101
90 126 101
90 125 101
90 125 101
90 126 101
90 126 101
90 125 100
90 126 101
90 125 101
89 124 100
90 125 101
90 125 100
89 126 101
90 124 99
90 125 100
89 125 100
90 124 100
89 125 101
89 124 99
89 124 100
89 125 101
89 125 100
89 124 99
89 123 99
89 125 100
89 124 100
89 123 98
89 123 99
89 123 98
89 123 99
89 124 100
89 123 99
88 123 98
89 123 98
88 122 98
88 122 98
89 122 98
88 123 98
87 120 96
87 119 95
87 120 95
88 123 98
87 120 96
88 121 97
86 119 95
86 118 94
86 119 95
86 119 94
86 117 93
86 118 93
86 119 95
85 116 92
86 117 93
85 116 92
84 116 93
82 112 90
81 112 90
78 108 86
77 106 85
76 105 85
75 104 84
73 100 81
73 102 83
73 102 83
71 99 81
71 99 81
69 96 79
70 97 80
70 97 80
69 97 80
70 98 81
69 97 80
71 100 82
71 100 83
73 101 83
75 106 87
73 103 84
76 107 87
77 108 88
78 109 89
80 112 91
79 111 90
81 114 92
82 114 92
83 116 94
83 116 94
84 118 96
85 118 95
85 119 96
85 119 96
86 121 97
86 120 97
87 121 98
87 121 97
87 121 98
86 120 97
87 122 98
87 122 99
87 122 99
87 122 98
87 122 98
87 123 99
87 122 98
87 121 98
86 120 97
86 121 98
87 122 98
87 121 98
87 122 98
87 122 98
87 122 98
87 122 98
87 122 98
87 122 98
87 122 99
87 122 98
87 121 98
86 121 98
86 122 98
87 122 99
87 122 99
87 122 99
87 122 98
87 122 99
87 122 98
86 122 98
86 121 98
87 122 99
87 122 99
86 122 98
87 122 99
86 122 98
87 122 98
86 121 98
86 122 99
87 122 98
87 122 99
87 122 98
86 121 97
86 121 98
86 122 99
86 121 98
86 121 98
86 121 98
86 122 99
86 121 98
86 121 98
86 121 98
86 121 98
86 121 98
86 122 98
86 121 98
87 122 98
86 121 98
86 121 98
86 121 98
86 121 98
86 121 98
86 122 98
86 121 98
86 121 98
86 121 98
86 122 99
86 121 98
86 121 98
86 121 97
86 121 98
86 121 98
85 120 97
86 121 98
86 121 98
86 122 98
86 122 99
86 121 98
85 121 98
86 121 98
86 121 98
85 120 98
85 120 98
86 121 97
86 121 98
86 121 98
86 121 98
85 120 97
86 121 97
85 121 98
86 121 98
85 121 98
85 121 98
85 120 98
86 121 98
85 121 98
85 121 98
85 120 97
85 120 97
85 120 98
86 120 97
85 121 98
85 120 97
85 121 98
85 121 98
85 120 97
85 120 97
85 120 97
85 120 97
85 120 98
85 120 97
85 120 97
85 120 98
85 120 97
85 120 97
85 120 97
85 120 97
84 119 97
85 120 97
85 120 97
85 120 97
85 120 97
85 120 97
85 120 97
85 120 97
85 120 97
85 120 97
85 120 97
85 120 97
85 120 97
84 119 96
85 120 97
84 119 97
85 120 97
85 120 97
85 120 97
84 119 97
85 120 97
84 119 97
84 120 97
85 120 97
84 119 97
85 120 97
85 119 97
84 119 97
85 120 97
84 119 97
84 119 97
84 119 97
85 120 97
84 119 96
84 119 97
85 119 97
84 119 96
84 119 97
84 119 97
84 119 96
84 119 97
84 118 96
84 119 97
84 119 96
84 119 97
84 119 97
84 119 97
84 119 97
84 119 97
84 118 96
84 118 96
84 119 97
84 119 97
83 118 96
84 119 96
84 119 96
83 118 96
84 119 96
84 119 96
84 119 96
84 119 96
84 118 96
84 119 96
84 119 96
84 118 96
83 118 96
84 118 96
84 119 96
84 119 96
84 118 96
84 118 96
90 126 101
90 126 101
90 126 102
90 126 101
90 126 101
90 126 102
90 126 101
90 126 101
90 126 101
90 126 101
90 126 101
90 126 101
90 126 101
90 126 101
90 126 101
90 126 101
90 126 101
90 126 101
90 126 101
90 126 101
90 125 101
90 125 101
90 126 101
89 126 101
90 125 101
90 126 101
89 125 100
90 125 100
89 125 100
89 125 100
90 126 101
89 124 100
89 125 100
89 125 100
89 125 100
89 124 100
89 124 100
89 124 100
90 124 99
89 124 100
89 124 99
89 123 99
89 123 99
89 123 99
89 123 99
89 123 99
88 122 98
89 123 99
89 123 98
88 123 99
88 122 98
88 122 98
88 122 97
89 122 98
88 122 98
87 121 97
87 121 97
88 122 97
87 120 96
87 119 95
87 119 95
86 119 95
86 119 95
87 120 96
87 120 96
87 119 95
87 120 96
86 118 93
86 119 95
86 118 93
86 117 93
85 118 94
85 117 93
84 115 92
85 117 93
83 114 91
81 111 89
81 112 90
80 112 90
78 108 87
79 109 88
79 109 88
79 109 88
76 106 86
76 105 86
77 107 87
76 105 85
78 109 88
78 108 88
79 111 90
80 111 90
78 109 88
80 112 91
80 112 91
80 113 91
82 114 93
82 114 92
82 115 93
84 116 93
85 118 95
85 119 96
85 119 96
87 121 97
86 120 97
86 120 97
87 121 97
87 122 98
86 120 97
87 121 98
87 121 98
87 122 99
87 123 99
87 122 99
87 122 99
87 122 99
87 121 97
87 123 99
87 122 99
87 122 98
87 122 98
87 122 99
87 122 99
87 121 98
87 123 99
87 123 99
87 123 99
87 122 98
87 123 99
86 121 98
87 122 98
87 122 99
87 122 99
87 122 99
86 121 98
87 121 98
87 123 99
86 121 98
87 122 99
87 122 98
87 123 99
87 122 98
87 122 98
87 122 99
87 122 99
86 121 98
86 122 98
86 121 98
87 122 99
87 122 99
87 122 98
86 121 98
86 121 98
87 122 99
86 121 98
87 122 98
86 122 98
86 122 98
86 121 98
86 121 97
86 121 98
86 121 98
87 122 99
86 121 98
86 121 98
86 122 99
86 122 98
86 122 98
86 121 98
86 122 98
86 122 98
86 121 98
86 121 98
86 122 99
86 121 98
86 121 98
86 120 97
86 121 98
85 121 98
86 121 98
86 121 98
86 121 98
86 121 98
86 121 98
86 121 98
86 122 98
86 121 98
86 121 98
85 120 98
86 121 98
86 121 98
86 121 98
86 121 98
85 121 98
85 121 98
86 121 98
86 121 98
85 120 98
86 121 98
86 121 98
86 121 98
85 120 97
86 121 98
85 121 98
86 121 98
85 120 97
86 121 98
85 120 97
86 121 98
86 121 98
85 120 98
85 120 97
86 121 98
85 120 97
85 120 98
85 121 98
85 120 97
85 120 97
86 121 98
85 121 98
85 120 97
85 120 98
85 120 98
85 120 97
85 120 97
85 120 97
85 120 97
85 120 97
85 120 98
85 120 98
85 120 97
85 120 97
85 120 97
85 120 97
85 120 97
85 120 97
85 120 97
85 120 97
85 120 97
85 120 97
85 120 97
85 120 97
85 120 97
85 120 97
85 120 97
85 120 97
85 120 97
85 120 97
84 120 97
85 120 97
85 120 97
84 120 97
85 120 97
84 119 96
85 119 97
84 119 97
84 119 97
84 120 97
85 119 97
84 119 97
85 119 97
84 119 97
84 119 97
84 119 97
84 119 97
84 119 97
84 119 97
84 119 97
84 119 96
84 119 97
84 119 97
84 119 97
84 119 96
84 119 97
84 119 97
84 119 97
84 118 96
84 119 97
84 119 97
84 119 97
84 119 96
84 119 97
84 119 96
84 119 97
84 119 96
83 118 96
84 119 96
84 119 97
84 119 96
84 118 96
84 118 96
84 119 96
83 118 96
84 119 96
84 119 96
83 118 96
84 119 96
83 118 96
84 118 96
83 118 96
83 118 96
90 126 102
90 126 102
90 126 101
90 126 101
90 126 101
90 126 102
90 126 101
90 125 101
90 126 101
90 126 102
90 126 101
89 125 101
90 126 101
90 126 101
90 126 101
90 125 101
90 126 101
89 125 101
89 125 101
90 126 101
89 125 101
89 126 101
89 125 101
90 125 101
89 125 100
90 125 100
89 125 101
89 124 100
90 125 100
89 125 100
89 125 100
89 125 100
90 125 100
89 125 100
90 126 101
89 124 100
89 124 99
89 123 99
89 124 100
89 124 99
89 124 99
89 123 98
89 123 98
88 123 99
89 124 99
89 123 99
89 124 100
89 125 100
89 123 99
88 122 98
88 122 98
88 122 98
88 122 98
88 123 99
87 122 97
88 121 97
88 122 98
88 121 97
87 121 97
88 122 98
88 121 97
87 120 96
86 118 94
87 121 96
88 121 97
87 120 96
88 121 97
86 119 95
86 119 95
87 119 95
86 119 95
87 119 95
86 119 95
86 118 94
87 120 96
86 119 96
84 115 92
85 118 95
85 119 96
85 118 95
83 115 93
82 115 93
84 116 93
82 113 91
83 114 91
84 117 94
83 114 92
82 115 93
83 116 93
83 116 93
83 115 92
83 116 94
85 118 95
84 117 94
84 117 94
85 119 96
86 121 97
85 119 95
86 119 96
86 120 97
86 120 97
87 121 97
87 122 98
87 121 98
87 121 98
87 122 98
87 122 98
87 122 98
87 122 98
87 121 97
87 122 98
87 122 98
87 121 97
87 122 99
87 122 99
87 122 99
87 122 99
87 122 99
87 122 99
87 122 98
87 122 98
87 122 98
87 122 99
87 122 99
87 122 98
87 122 99
87 122 98
87 122 98
87 122 98
87 122 98
87 122 98
87 122 99
87 121 98
87 122 98
87 122 99
87 122 98
86 122 98
87 123 99
87 122 98
87 122 98
87 122 98
87 122 98
87 122 99
87 122 99
87 122 98
86 120 97
87 122 99
86 121 98
87 122 98
86 122 99
86 122 98
86 121 98
86 121 98
87 122 99
86 122 98
86 121 98
86 122 99
86 121 98
86 121 98
86 121 98
86 121 98
86 121 98
86 121 98
86 121 97
86 122 98
86 122 99
86 121 98
86 122 98
86 122 99
86 121 98
86 121 98
86 121 98
86 121 98
86 121 98
86 122 98
86 122 99
86 121 98
86 121 98
86 121 98
86 121 98
86 121 98
86 121 98
86 121 98
86 121 98
86 121 98
86 120 98
86 122 98
86 121 98
86 121 98
86 121 98
86 121 98
86 121 98
86 121 98
85 121 98
86 121 98
86 121 98
85 120 97
85 121 98
85 121 98
85 121 98
86 121 98
85 120 97
86 121 98
86 121 98
86 121 98
86 121 98
86 121 98
85 120 98
85 120 97
85 121 98
85 121 98
86 121 98
85 120 97
85 121 98
86 120 97
86 121 98
85 120 97
86 121 98
85 120 97
85 121 98
85 120 98
85 120 98
85 120 98
85 120 97
85 119 97
85 120 97
85 120 97
85 121 98
85 120 97
85 120 98
85 120 97
85 120 97
85 120 97
85 120 97
85 120 97
85 120 97
85 120 97
85 120 97
85 120 97
84 120 97
85 120 97
85 120 97
85 120 97
84 119 97
85 120 97
84 119 97
84 120 97
85 120 97
85 120 97
84 119 97
84 120 97
85 120 97
84 119 97
84 119 97
84 119 97
85 120 97
84 119 97
84 119 97
84 120 97
84 119 97
85 119 97
84 119 97
85 119 97
84 119 97
84 119 97
84 119 97
84 119 97
84 119 97
84 119 97
84 119 97
84 119 97
84 119 96
84 119 97
84 119 97
84 119 97
84 119 97
84 119 96
84 119 96
84 119 96
84 119 97
84 118 97
84 118 96
84 119 96
84 119 96
83 118 96
84 119 96
84 119 97
83 118 96
84 119 96
84 119 96
84 118 96
84 119 96
84 118 96
83 118 96
84 118 96
84 118 96
83 118 96
83 118 96
83 118 96
84 119 96
90 126 102
90 126 101
90 126 101
90 126 102
90 126 102
90 126 101
90 126 102
90 126 101
90 126 101
90 126 102
90 126 101
90 125 100
90 126 101
90 126 101
90 126 101
90 126 101
90 125 100
90 125 101
90 125 100
90 125 101
90 126 101
89 125 101
90 126 101
89 125 100
89 125 100
90 125 101
89 125 100
89 125 101
89 126 101
89 125 101
89 125 101
89 125 101
89 125 100
89 124 100
90 125 100
89 125 100
89 124 100
89 125 100
89 124 100
89 124 100
89 125 100
89 124 100
88 123 98
89 124 100
89 123 99
89 124 99
89 124 99
88 122 98
88 122 98
89 123 99
88 122 97
89 124 99
88 122 98
88 123 98
88 122 98
88 122 98
88 122 97
88 122 98
88 122 97
87 122 98
88 122 98
87 120 96
87 120 96
87 121 97
87 120 96
87 121 97
87 121 97
87 120 96
87 120 96
87 120 96
87 122 98
87 119 95
87 121 97
86 120 96
87 119 95
86 118 95
87 119 95
87 120 96
86 119 95
85 118 94
85 117 93
86 118 95
86 120 97
86 119 95
86 119 96
86 119 95
85 118 95
85 119 96
86 120 97
86 119 96
85 119 95
86 120 97
86 120 96
86 120 97
87 122 98
86 120 96
87 121 98
87 122 98
87 121 98
87 122 98
87 121 97
87 122 98
87 122 99
87 122 99
87 122 98
87 122 98
87 123 99
87 121 97
87 122 98
87 122 98
87 122 98
88 123 99
88 123 99
87 122 98
88 123 99
87 122 98
87 123 99
87 122 99
87 122 98
87 122 99
87 122 99
87 121 98
87 123 99
87 122 98
87 122 99
87 122 99
87 123 99
87 122 98
87 123 99
87 122 99
87 122 98
87 122 99
87 123 99
87 122 99
87 122 99
87 122 99
86 121 98
87 122 99
87 122 99
87 122 99
87 122 98
87 122 99
87 122 98
86 122 98
87 122 99
87 122 99
87 122 98
87 122 99
87 122 99
87 122 99
87 122 98
86 121 98
86 121 98
86 122 99
87 122 99
86 122 99
86 122 98
86 121 98
86 122 99
86 121 98
87 122 99
86 121 98
86 121 98
86 121 98
86 122 99
86 122 99
86 121 98
86 122 98
86 121 98
86 122 99
86 122 98
86 121 98
86 121 98
86 121 98
86 121 98
86 121 98
86 121 98
86 121 98
86 121 98
86 121 98
86 122 98
86 121 97
86 121 98
86 121 98
86 121 98
86 121 98
86 121 98
85 120 97
86 121 98
85 121 98
86 121 98
86 121 98
85 121 98
86 121 98
86 121 98
85 121 98
86 121 97
86 121 98
86 121 98
85 120 98
85 121 98
85 121 97
85 121 98
86 121 98
85 121 98
85 120 98
86 121 98
86 120 97
85 120 97
86 121 98
85 121 98
86 120 97
85 120 97
85 120 97
85 120 98
85 120 98
85 120 98
85 121 98
85 120 97
85 120 97
85 120 97
85 120 98
85 120 98
85 120 98
85 120 98
85 120 97
85 119 97
85 120 97
85 120 97
85 120 97
85 120 97
85 120 97
85 120 97
85 120 97
85 120 97
85 120 97
85 120 97
85 120 97
85 120 97
85 120 97
85 120 97
84 119 97
85 120 97
85 119 97
85 120 97
85 120 97
85 120 97
85 119 97
84 119 97
85 120 97
85 120 97
84 119 97
85 120 97
84 119 97
84 119 97
84 119 97
84 119 97
84 119 97
84 119 97
84 119 97
85 120 97
84 119 97
84 119 97
84 119 97
84 119 96
84 119 97
84 119 97
84 119 97
84 119 97
84 119 97
84 119 97
84 119 97
84 119 97
84 119 96
84 119 97
84 119 97
84 119 97
84 118 96
84 119 96
84 119 97
84 118 96
84 119 96
84 119 96
83 118 96
84 119 96
84 119 97
84 119 97
84 118 96
84 119 97
84 118 96
84 119 96
84 119 96
83 118 96
84 118 96
84 119 96
84 118 96
83 118 96
84 119 96
83 118 96
84 118 96
90 126 101
90 127 102
90 126 101
90 126 101
90 126 101
90 127 102
90 126 101
90 126 101
91 127 102
90 126 101
90 126 101
90 126 101
90 125 101
90 125 100
90 126 101
90 126 101
90 126 101
90 125 101
90 125 101
90 125 101
89 125 101
89 125 101
90 125 101
90 126 101
90 125 101
89 125 101
90 126 101
89 125 101
89 125 101
90 125 100
89 125 101
89 124 99
89 125 100
89 125 100
90 125 101
89 125 100
89 124 99
89 124 100
89 125 100
89 124 100
89 124 100
89 124 100
89 124 99
89 122 98
88 123 99
89 123 99
89 124 100
89 124 99
89 123 99
88 122 98
89 124 100
88 121 97
88 123 99
87 122 98
88 122 98
88 122 98
88 122 98
88 123 98
88 121 97
88 122 97
88 122 98
87 122 98
88 122 98
87 121 97
87 121 97
87 121 97
87 121 97
88 121 97
87 120 96
87 121 97
87 122 98
86 119 95
87 120 96
87 119 95
87 121 97
86 119 95
86 120 96
87 121 97
88 121 96
87 120 96
87 120 96
88 122 98
87 120 95
88 122 98
87 122 98
87 121 98
87 121 97
87 120 96
86 121 97
87 121 97
87 121 97
87 122 98
87 122 98
88 122 99
87 121 97
87 122 98
87 120 96
87 122 98
87 123 99
87 122 98
87 121 98
87 122 99
87 121 97
87 122 98
87 122 98
88 123 99
87 122 99
87 122 98
87 123 99
87 123 99
87 123 99
87 122 98
87 122 98
87 123 99
87 122 99
87 122 98
87 122 98
87 122 99
87 122 99
87 123 99
87 122 99
87 123 99
87 123 99
87 123 99
86 121 98
86 122 98
87 122 99
87 123 99
87 121 98
87 123 99
87 122 99
87 122 99
87 122 99
87 123 99
87 123 99
87 123 99
87 122 98
87 122 99
87 122 98
86 122 98
87 122 99
87 122 99
87 122 99
87 122 99
87 122 99
87 121 98
87 123 99
86 122 99
86 122 98
87 122 98
86 121 98
87 122 99
87 122 98
86 122 98
86 122 98
86 122 99
86 122 98
87 122 99
86 122 98
86 122 98
86 122 99
86 121 98
86 122 99
86 122 99
86 122 98
86 122 99
86 122 98
86 122 99
86 121 98
86 121 98
86 121 98
86 121 98
86 121 98
86 121 98
87 122 98
86 122 98
86 121 98
86 121 98
86 121 98
86 121 98
86 121 98
86 121 98
86 121 98
86 122 98
86 121 98
86 122 99
86 121 98
86 121 98
86 121 98
86 121 98
85 121 98
86 121 98
86 121 98
85 121 98
86 121 98
86 121 98
86 120 97
86 121 98
86 121 98
86 121 98
86 121 98
86 121 98
86 121 98
85 121 98
85 121 98
85 121 98
85 121 98
86 121 98
86 121 98
85 121 98
85 120 98
86 121 98
85 120 98
85 121 98
85 121 98
85 120 97
85 120 97
85 120 97
85 120 98
85 120 97
85 120 98
85 120 98
85 121 98
85 120 97
85 120 97
85 120 97
85 120 98
85 120 97
85 120 97
85 120 98
85 120 97
85 120 97
85 120 97
85 120 98
85 120 97
85 120 97
85 120 97
85 120 97
85 120 97
85 120 97
85 120 97
85 120 97
85 120 97
85 120 97
85 119 97
85 120 97
84 119 97
85 120 97
85 120 97
85 119 97
85 120 97
84 120 97
85 120 97
84 119 97
84 120 97
84 119 97
85 120 97
85 119 97
85 120 97
85 120 97
85 120 97
85 119 97
84 119 97
85 120 97
84 119 96
84 119 96
84 119 96
84 119 97
84 119 96
84 119 97
84 119 97
84 119 97
84 119 97
84 119 96
84 119 97
84 119 97
84 119 96
84 119 97
84 119 96
84 119 96
84 119 96
84 119 96
84 118 96
84 119 96
83 118 96
84 119 96
84 118 96
84 118 96
84 119 96
83 118 96
84 119 96
84 119 96
84 119 96
84 118 96
83 118 96
84 118 96
83 118 96
83 118 96
83 118 96
83 118 96
90 127 102
90 126 102
90 126 101
90 125 101
90 126 102
90 126 102
90 126 102
90 126 101
90 126 101
90 126 101
90 126 101
90 125 101
90 126 101
90 126 101
90 126 101
90 126 101
90 126 101
90 126 101
90 126 101
89 125 100
90 125 101
90 125 101
90 126 101
90 125 101
89 125 100
90 125 100
89 125 101
89 126 101
89 124 100
89 125 100
89 125 101
89 125 101
90 125 100
89 125 101
89 124 100
89 124 100
89 124 100
89 124 100
89 125 100
89 124 100
89 124 100
89 123 99
89 124 100
88 123 99
89 124 99
89 124 99
88 122 98
89 124 99
89 124 100
89 123 99
89 124 99
89 123 99
89 124 99
88 122 98
88 124 99
88 122 98
88 122 97
88 123 99
88 122 98
88 122 98
88 123 99
88 123 99
88 123 99
87 121 97
87 122 98
88 121 97
88 122 98
87 121 97
87 121 97
87 121 97
88 122 98
87 121 97
87 121 96
87 122 98
88 122 98
87 121 97
87 121 97
88 122 97
87 121 97
87 121 97
87 120 96
88 122 98
87 121 97
88 123 99
88 122 98
88 122 98
87 121 98
87 121 97
87 121 97
87 122 98
87 121 97
87 122 99
87 121 97
87 122 98
87 123 99
87 121 97
87 122 98
87 122 99
87 122 98
87 121 97
87 122 98
87 122 99
87 122 98
87 122 98
87 122 98
87 122 98
87 122 98
87 122 98
87 122 99
87 122 98
87 122 98
87 121 98
87 123 99
87 123 99
87 122 98
87 122 99
87 122 98
87 122 99
87 123 99
87 122 98
87 122 98
87 123 99
87 122 98
87 122 99
87 122 99
87 122 99
87 122 98
87 122 99
87 122 98
87 123 99
86 122 98
86 122 98
87 122 99
87 122 99
87 122 99
87 122 99
87 122 99
87 122 98
87 122 99
87 123 99
86 121 98
87 122 99
86 122 98
87 122 99
87 122 99
87 122 98
87 122 99
86 122 98
87 122 99
86 122 98
87 122 98
87 122 98
87 122 99
87 122 99
86 121 98
87 122 99
86 122 99
86 121 98
87 122 99
86 121 98
87 122 99
86 122 98
86 121 98
86 122 98
86 121 98
86 121 98
86 122 98
86 122 99
86 121 98
85 121 98
86 121 98
86 122 98
86 122 98
86 121 98
86 121 98
86 121 98
86 121 98
86 121 98
86 121 98
86 121 98
86 122 98
86 121 98
86 122 98
86 121 98
85 121 98
86 121 98
86 121 97
86 121 98
86 121 98
85 121 98
86 120 97
86 121 98
86 121 98
86 121 98
85 120 97
86 121 98
86 121 98
86 121 98
86 121 98
85 120 97
85 121 98
86 121 98
86 121 98
86 121 98
86 121 98
86 121 98
85 120 97
85 121 98
85 121 98
85 121 98
85 120 98
85 121 98
85 120 97
85 120 97
85 120 97
85 120 97
85 120 97
85 120 98
85 120 97
85 120 97
85 121 98
85 120 97
85 120 97
85 120 97
85 120 97
85 120 97
85 120 97
85 120 97
85 120 97
85 120 98
85 120 97
85 120 97
84 119 97
85 120 97
84 120 97
85 120 97
85 120 97
85 119 97
85 120 97
85 120 97
84 120 97
85 120 97
85 120 97
85 120 97
85 120 97
85 120 97
85 120 97
85 120 97
84 119 97
85 120 97
84 120 97
84 120 97
84 120 97
84 119 97
84 119 97
84 119 97
84 119 97
84 119 97
84 119 97
84 119 97
85 120 97
84 119 97
84 119 97
84 119 97
84 119 97
84 119 96
84 119 97
84 119 96
84 119 96
84 119 97
84 119 96
84 119 97
84 119 96
84 119 96
84 119 97
84 119 96
84 119 97
84 119 97
84 119 96
84 119 97
84 119 96
84 119 97
84 119 97
84 119 96
84 119 96
84 119 97
84 118 96
84 118 96
84 119 97
84 119 96
84 119 96
84 119 96
84 119 96
84 119 96
84 118 96
84 118 96
83 118 96
83 118 96
84 118 96
84 119 96
90 126 101
90 126 102
90 126 102
90 126 101
90 126 101
90 126 101
90 126 101
90 126 101
90 126 101
90 126 101
90 126 101
90 126 101
90 126 101
90 125 101
90 126 102
90 125 101
90 125 101
90 126 101
90 125 101
89 125 101
89 125 101
89 125 101
90 125 101
89 125 101
89 125 100
89 125 101
89 125 101
89 125 101
89 125 101
89 125 101
89 125 101
89 125 100
89 125 100
90 125 100
89 124 100
90 125 101
89 125 101
89 124 100
89 124 100
89 124 99
89 124 99
89 124 100
89 124 99
89 125 100
89 124 100
89 123 99
89 124 100
88 123 99
89 124 99
89 124 99
88 123 99
88 123 99
88 123 99
88 123 99
88 122 97
89 123 99
88 123 98
88 122 98
88 123 98
88 123 98
89 123 99
88 122 98
88 122 98
88 123 99
88 123 99
88 122 98
87 121 97
87 121 97
88 122 98
88 122 98
88 122 98
88 123 99
87 121 97
88 122 98
88 122 98
87 121 97
87 122 98
87 122 98
87 122 98
87 122 98
87 121 98
87 121 97
87 121 97
87 121 97
87 122 98
88 123 98
87 121 97
88 121 97
87 121 97
87 121 98
87 122 98
88 122 98
88 122 98
87 122 98
88 123 99
87 122 98
87 122 98
87 122 99
87 122 98
87 122 98
88 123 99
87 122 99
88 123 99
88 123 99
87 123 99
88 122 98
87 123 99
87 123 99
88 123 99
87 122 98
87 122 99
87 122 98
87 122 99
87 123 99
87 122 98
87 123 99
87 122 99
87 123 99
87 123 99
87 123 99
87 123 99
87 122 99
87 122 99
87 123 99
87 122 99
87 122 99
87 122 99
87 122 99
87 122 99
87 122 99
87 122 99
87 122 98
87 122 98
87 122 99
87 122 99
87 123 99
87 123 99
86 121 98
87 122 99
87 122 99
87 122 99
87 122 99
87 122 99
87 122 99
87 122 99
87 122 99
87 122 99
87 122 98
86 122 98
87 122 99
87 122 99
86 121 98
86 122 98
87 122 99
86 122 99
86 121 98
87 122 99
87 122 99
86 122 98
87 122 99
86 122 99
86 121 98
86 122 99
86 121 98
86 121 98
86 122 99
86 122 99
86 122 99
86 122 99
86 122 99
86 121 98
86 122 98
85 120 97
86 121 98
86 121 98
86 121 98
86 121 98
86 122 98
86 121 98
86 121 98
86 121 98
86 121 98
86 121 98
86 121 98
86 121 98
86 121 98
86 121 98
86 121 98
86 121 98
85 121 98
86 121 98
86 122 98
86 121 98
86 121 98
86 121 98
86 121 98
86 121 98
85 121 98
86 121 98
85 120 98
86 120 97
85 120 98
85 120 98
85 120 97
85 120 98
86 121 98
85 120 97
85 121 98
85 121 98
85 120 97
85 121 98
85 121 98
85 121 98
85 120 97
85 120 97
85 120 98
85 120 97
85 120 97
85 120 97
85 120 98
85 120 97
85 120 97
85 120 98
85 120 97
85 119 97
85 120 97
85 120 98
85 120 97
85 120 97
85 120 97
85 120 98
85 120 97
85 120 97
85 120 97
85 120 97
85 120 97
85 120 97
85 120 97
85 120 97
85 120 97
85 120 97
85 120 97
85 120 97
85 120 97
85 120 97
85 120 97
85 120 97
85 120 97
85 120 97
84 119 97
84 119 97
85 120 97
84 119 97
85 120 97
84 119 97
85 120 97
84 119 97
84 119 96
84 119 97
84 119 97
85 120 97
84 119 97
84 119 97
84 119 97
84 118 96
84 119 97
84 119 97
84 119 97
84 119 97
84 119 97
84 119 97
84 119 96
84 119 96
84 119 96
84 119 97
84 119 97
84 118 96
84 119 97
84 119 97
84 119 97
84 119 97
84 118 96
84 119 96
84 119 97
84 119 96
84 119 96
84 118 96
84 118 96
84 118 96
84 118 96
83 119 96
84 119 96
84 119 96
83 118 96
83 118 96
84 119 96
84 118 96
84 119 96
84 118 96
83 118 96
90 126 101
90 126 102
90 126 101
90 126 102
90 126 101
90 126 101
90 125 101
90 126 101
90 126 101
90 126 101
90 126 101
90 126 101
89 126 101
89 126 101
90 126 101
90 126 101
90 126 101
90 125 101
89 125 101
90 125 101
89 125 101
90 125 100
89 126 101
90 126 101
89 125 101
90 125 101
90 126 101
89 124 100
89 125 100
89 125 101
89 125 100
89 125 100
89 124 100
89 125 100
89 124 100
89 125 101
89 125 101
89 124 99
89 124 100
89 125 101
89 124 99
88 123 99
89 125 100
88 123 99
89 124 100
88 124 100
89 124 99
89 124 99
89 124 100
89 124 100
88 123 98
89 124 100
89 124 100
89 124 99
88 122 98
88 122 98
88 124 99
88 123 99
88 122 98
88 123 99
88 122 98
88 121 97
88 121 97
88 122 98
88 122 98
88 123 98
87 122 98
88 122 98
88 122 97
88 122 98
88 122 98
88 122 98
88 122 98
88 122 98
88 123 99
87 122 98
87 121 97
88 122 98
87 121 98
88 122 98
87 122 98
88 122 98
87 122 98
87 121 97
88 123 99
88 121 97
88 122 98
88 122 98
87 122 99
88 122 98
88 122 98
87 122 98
87 122 98
87 122 99
88 122 98
88 122 98
87 122 98
88 122 99
87 122 98
88 122 98
87 123 99
88 122 99
87 123 99
87 122 99
87 122 98
87 123 99
87 123 99
87 122 99
87 122 98
87 122 98
87 121 97
87 123 99
87 123 99
87 122 99
87 123 99
87 122 99
87 123 100
87 121 98
87 122 99
87 123 99
87 122 99
87 123 99
87 123 99
87 122 99
87 122 98
87 123 99
87 122 98
87 122 99
87 122 99
87 122 99
87 122 99
87 122 99
87 122 99
87 122 99
87 122 99
87 122 99
87 122 99
86 122 98
87 122 99
87 122 99
87 123 99
87 122 99
87 122 98
87 122 99
87 122 99
87 122 99
87 122 99
87 122 99
87 122 99
87 122 99
87 122 99
86 121 98
86 122 99
86 122 98
87 122 99
86 121 98
86 122 98
87 121 98
86 122 99
86 122 98
86 121 98
87 122 98
86 122 99
86 122 98
86 121 98
86 122 98
86 121 98
86 121 98
86 122 99
86 121 98
86 122 98
86 121 98
86 122 98
85 121 98
86 121 98
86 121 98
86 121 98
86 121 98
86 121 98
86 122 99
86 122 99
86 121 98
86 121 98
86 121 98
86 121 98
86 121 98
86 121 98
86 121 98
86 121 98
86 120 97
86 121 98
86 121 98
86 121 98
86 121 98
86 121 98
86 121 98
86 121 98
85 121 98
86 121 98
86 121 98
86 121 98
85 120 98
86 121 98
86 121 98
86 121 98
86 121 98
85 120 97
85 121 98
85 120 98
85 121 98
86 121 98
85 120 98
85 120 97
85 120 97
85 121 98
86 120 97
85 120 98
85 120 97
85 120 98
85 120 98
85 121 98
85 120 98
85 120 98
85 120 97
85 120 97
85 120 98
85 120 98
85 120 97
85 120 98
85 120 97
84 119 97
85 120 98
85 120 97
85 120 97
85 120 97
85 120 97
85 120 97
85 120 97
85 120 97
85 120 97
85 120 97
85 120 97
85 120 97
85 120 97
85 120 97
84 119 97
85 120 97
85 120 97
84 119 97
85 120 97
85 120 97
84 119 97
84 119 97
84 119 97
84 119 97
84 119 97
84 120 97
85 120 97
84 119 97
84 119 97
85 120 97
84 119 97
84 119 97
84 119 97
84 119 97
84 119 97
84 119 97
84 119 97
84 119 96
84 119 96
84 119 97
84 119 96
84 119 97
84 119 97
84 119 96
84 119 97
84 119 97
84 119 97
84 119 96
84 119 96
84 119 96
84 119 96
84 119 97
84 119 96
84 119 96
84 118 96
84 118 96
84 118 96
84 119 96
84 119 96
84 119 96
84 119 96
84 118 96
84 118 96
84 119 96
83 118 96
83 118 96
84 118 96
84 118 96
84 118 96
90 126 101
90 126 101
90 126 101
90 126 101
90 126 101
90 126 101
90 126 101
90 125 101
90 126 101
90 126 101
90 126 101
90 126 101
90 126 101
89 125 101
89 125 101
90 126 101
90 125 101
90 126 101
90 126 101
90 126 101
89 125 101
89 126 101
90 126 101
90 126 101
89 125 101
89 125 101
90 126 101
89 125 101
89 125 101
89 124 100
89 125 100
89 124 100
89 124 100
89 125 100
89 125 100
89 124 100
89 125 100
88 124 100
89 124 100
89 124 100
89 124 100
89 124 100
89 124 99
89 124 99
89 124 100
89 124 99
89 124 99
88 124 100
89 124 99
89 124 100
88 123 99
88 123 99
88 124 100
89 123 99
89 124 99
88 123 99
88 123 99
88 123 99
88 123 99
88 123 98
88 123 99
88 123 99
88 122 98
88 123 98
88 123 99
88 123 99
88 122 97
87 122 98
88 122 98
88 122 98
88 123 99
88 123 99
88 124 100
87 122 98
87 122 98
87 122 98
88 123 99
88 122 98
88 122 98
87 122 98
88 123 99
88 123 98
87 122 98
87 122 98
87 122 98
88 123 99
88 122 98
88 123 99
88 123 99
88 123 99
88 123 99
88 123 98
88 123 99
87 122 98
87 122 98
88 122 98
88 123 99
88 123 99
87 122 98
87 122 99
88 122 98
88 123 99
87 122 99
87 123 99
88 123 99
87 122 98
88 123 99
87 122 98
87 123 99
87 121 98
88 123 99
88 123 99
87 122 99
88 123 99
87 123 99
87 122 98
87 123 99
87 123 99
87 122 99
87 123 99
87 123 99
87 122 99
87 123 99
87 123 99
87 122 99
87 122 99
86 122 98
87 122 99
87 122 99
87 122 99
87 122 99
87 122 99
87 122 98
86 122 99
87 122 99
87 122 99
87 122 99
86 122 98
87 122 98
87 122 99
86 122 99
87 122 98
87 122 99
87 122 99
87 122 99
86 122 99
87 122 98
86 121 98
87 122 99
86 122 99
86 122 98
86 121 98
86 122 99
86 122 99
87 122 98
86 122 98
87 122 99
86 122 98
86 122 98
87 122 99
86 121 98
86 122 99
86 122 98
87 122 98
86 122 98
86 121 98
86 121 97
86 122 99
86 122 99
86 121 98
86 122 98
86 122 98
86 122 99
86 122 98
86 121 98
86 121 98
86 121 98
86 122 98
86 121 98
86 122 98
86 121 98
86 121 98
86 121 98
86 121 97
86 121 98
86 121 98
86 121 98
86 121 98
86 121 98
85 120 98
86 121 98
86 121 98
86 121 98
85 121 98
86 121 98
86 121 98
85 121 98
85 120 98
86 121 98
86 121 98
86 121 98
86 120 97
86 121 98
86 121 98
86 121 98
85 120 98
85 120 97
85 120 97
86 121 98
86 121 98
85 121 98
85 120 97
85 121 98
85 121 98
85 121 98
85 120 97
85 120 97
85 120 97
85 120 97
85 120 97
85 120 98
85 120 97
85 120 98
85 120 98
85 120 98
85 120 97
85 120 97
85 120 97
85 120 97
85 120 97
85 120 97
85 120 97
85 120 97
85 120 97
85 120 97
84 120 97
85 120 97
85 120 97
85 120 97
85 120 97
85 120 97
84 119 97
85 120 97
84 119 97
85 120 97
85 120 97
84 119 97
84 119 97
84 119 97
85 119 97
84 119 96
85 120 97
84 119 97
84 120 97
85 119 96
84 119 97
84 119 97
84 119 97
85 120 97
85 120 97
84 119 97
85 119 97
84 119 96
85 120 97
84 119 97
85 119 97
84 119 97
85 120 97
84 119 96
84 119 97
84 119 97
84 119 97
84 119 97
84 119 96
84 119 96
84 119 97
84 119 96
84 119 97
84 119 96
84 119 97
84 119 97
84 119 96
84 119 96
84 119 96
84 119 96
84 119 96
84 119 97
84 119 96
83 118 96
84 119 96
84 119 96
84 118 96
83 118 96
84 119 96
83 118 96
83 118 96
83 118 96
83 118 96
83 118 96
83 118 96
90 126 101
90 126 101
90 126 101
90 126 101
90 126 101
89 126 101
90 126 101
90 126 101
90 126 102
89 125 101
90 126 101
90 126 101
90 126 101
90 126 101
90 126 101
89 126 101
90 126 101
89 126 101
89 125 101
90 125 101
89 125 101
90 125 100
90 125 101
89 125 100
89 125 101
90 125 100
90 125 101
89 126 101
89 125 101
89 125 101
89 125 101
89 125 100
89 125 101
89 124 100
89 125 100
89 124 100
89 125 100
89 125 100
89 124 100
89 124 100
89 125 100
89 125 100
89 125 100
89 124 100
89 124 100
89 124 99
89 124 100
89 124 100
89 124 100
88 123 99
88 123 99
89 124 100
89 124 99
89 124 100
89 123 98
88 124 100
88 123 99
88 122 98
88 123 99
88 123 99
88 123 99
88 123 98
88 123 99
88 123 99
88 123 99
88 123 99
88 123 99
88 123 99
88 123 99
88 122 98
88 122 99
88 122 99
88 122 98
88 123 99
87 122 98
88 122 98
87 123 99
88 123 99
88 123 98
88 122 98
88 123 99
88 123 99
87 122 98
87 122 98
88 123 99
88 123 99
88 122 98
88 123 99
88 123 98
87 122 98
88 122 98
87 122 98
87 122 98
87 122 98
87 122 98
88 123 99
88 123 99
87 122 98
87 122 98
88 123 99
88 123 99
87 123 99
87 122 98
87 122 98
88 123 99
88 123 99
88 123 99
88 123 99
87 122 98
87 123 99
87 122 99
87 122 99
88 123 99
88 123 99
87 123 99
87 122 99
87 122 99
86 121 98
87 122 98
87 122 98
87 123 99
87 123 99
87 123 99
87 123 99
87 122 99
87 123 99
87 123 99
87 122 98
87 123 99
87 122 99
86 121 98
87 122 99
87 122 99
87 123 99
87 123 99
87 122 99
87 122 99
87 123 99
87 122 99
87 122 99
87 122 99
87 122 99
87 122 98
87 122 98
87 122 99
87 122 98
87 122 99
87 122 98
87 122 99
86 121 98
87 122 99
87 122 98
87 123 99
87 122 98
87 122 98
86 122 99
86 122 98
86 122 98
86 121 98
87 122 99
86 122 98
87 122 99
86 122 98
86 122 98
87 122 98
86 122 98
86 122 99
86 122 99
86 122 98
86 121 98
86 121 98
86 121 98
86 122 98
86 122 99
86 121 98
86 121 98
86 121 98
86 121 98
86 121 98
86 121 98
86 121 98
86 121 98
86 121 98
86 121 98
85 121 98
86 121 98
86 121 98
86 121 98
86 121 98
86 121 98
86 121 98
86 121 98
86 121 98
86 121 98
86 121 98
85 120 97
86 121 98
85 121 98
85 120 97
85 121 98
85 120 97
86 121 98
86 121 98
85 120 98
85 120 98
85 121 98
85 120 97
85 120 97
85 121 98
86 120 97
85 121 98
85 120 98
85 121 98
85 120 97
85 120 98
85 120 97
85 121 98
85 120 97
85 120 97
85 120 97
85 120 97
85 120 97
86 120 97
85 120 97
85 120 97
85 120 98
85 120 98
85 120 97
85 120 97
85 120 97
85 120 97
85 120 97
85 120 97
85 120 98
85 120 97
85 120 97
85 120 97
85 120 97
85 120 97
85 120 97
85 120 97
84 120 97
85 120 97
85 120 97
85 120 97
84 119 97
84 120 97
85 120 97
84 119 97
85 120 97
85 120 97
84 120 97
84 119 97
84 119 97
85 119 97
84 119 97
84 119 97
85 120 97
84 119 97
84 119 97
84 119 97
84 119 97
84 119 97
84 119 97
84 119 97
84 119 97
84 119 97
84 119 97
84 119 97
84 118 96
84 119 97
84 119 97
84 119 97
84 119 97
84 119 97
84 119 97
84 119 97
84 119 97
84 119 97
84 119 97
84 119 97
84 119 96
84 119 96
84 119 96
84 119 97
84 119 96
84 119 97
83 118 96
84 118 96
84 119 96
84 119 96
83 118 96
84 118 96
84 118 96
83 118 96
83 118 96
84 119 96
84 119 96
83 118 96
83 118 96
90 126 101
90 126 101
90 126 101
90 126 102
90 125 101
90 126 101
90 125 100
90 126 101
90 126 101
90 126 101
90 126 101
90 126 101
90 126 101
90 125 101
90 126 101
89 125 101
89 125 101
90 126 101
90 125 101
90 126 101
89 125 101
90 125 101
90 126 101
89 125 100
89 126 101
89 124 100
89 125 101
89 125 101
89 125 100
90 125 101
89 125 101
89 125 101
89 125 101
89 125 100
89 125 101
89 124 100
89 125 100
89 125 100
89 124 100
90 125 101
89 125 100
89 125 100
89 125 100
89 124 100
89 124 100
89 124 100
89 124 99
89 124 99
89 124 100
89 124 100
89 124 100
89 123 99
88 124 99
88 123 99
88 123 99
88 123 99
88 124 99
88 123 99
89 124 100
88 123 99
88 124 100
88 123 99
88 123 99
88 123 99
88 124 100
88 123 99
88 123 99
88 122 98
88 124 100
87 121 98
88 123 99
88 123 99
88 123 99
88 124 100
88 122 98
88 123 99
88 123 99
88 123 99
88 122 98
88 123 99
88 123 99
88 122 98
88 123 99
87 122 98
88 122 99
88 123 99
87 123 99
88 123 99
88 123 99
88 123 99
87 123 99
88 122 98
87 122 98
88 123 99
88 123 99
88 123 99
87 122 99
88 123 99
88 123 99
87 123 99
87 123 99
87 123 99
87 122 99
88 123 99
87 122 99
87 123 99
88 123 99
88 123 99
87 122 99
87 122 99
87 123 99
87 122 98
87 122 99
87 122 98
87 123 99
87 123 99
87 122 99
87 122 99
87 122 99
87 122 99
87 123 99
87 123 99
87 122 99
88 123 99
87 123 99
87 122 98
87 123 99
88 123 99
87 123 99
87 122 98
86 122 98
87 122 98
87 122 98
87 122 99
87 122 99
87 122 98
87 123 99
87 122 99
87 122 99
87 123 99
87 122 99
87 122 99
87 122 99
87 122 98
87 122 99
87 122 99
87 122 99
87 122 99
86 121 98
86 121 98
86 122 98
87 122 99
87 122 99
87 122 98
87 122 99
86 122 99
86 122 98
86 122 99
86 122 98
86 122 98
86 121 98
86 122 99
86 121 98
87 122 99
86 122 98
86 122 98
86 122 98
86 122 99
86 122 99
86 121 98
86 122 98
86 121 98
86 121 98
86 122 98
86 122 98
86 121 98
86 122 98
86 121 98
86 121 98
86 121 98
86 121 98
86 121 98
86 121 98
86 121 98
86 121 98
86 121 98
86 121 98
86 121 98
86 121 98
86 121 98
86 121 98
86 121 98
86 121 98
85 121 98
85 121 98
85 120 98
86 121 98
86 121 98
86 121 98
86 121 98
86 121 98
86 121 98
85 121 98
86 121 98
85 120 97
85 120 98
85 120 97
85 120 97
85 121 98
85 121 98
85 121 98
85 120 97
85 121 98
85 121 98
85 121 98
85 120 97
86 121 98
85 120 97
85 120 97
85 121 98
85 120 97
85 120 98
85 120 97
85 120 98
85 120 98
85 120 97
85 120 97
85 120 97
85 120 98
85 120 97
85 120 97
85 120 97
85 120 97
85 120 97
84 119 97
85 120 97
85 120 97
85 120 97
85 120 97
85 120 97
85 120 97
85 120 97
84 119 97
85 120 97
85 120 97
85 119 97
85 120 97
84 119 97
85 120 97
84 119 97
85 120 97
85 119 97
85 120 97
84 119 97
84 119 96
84 119 97
84 119 97
84 119 97
84 119 97
84 119 97
84 119 97
84 119 97
85 120 97
84 119 97
84 119 97
84 119 97
84 119 97
84 119 97
84 119 97
84 119 97
84 119 97
84 119 97
84 119 97
84 119 97
84 119 97
84 118 96
84 119 97
84 119 96
84 119 97
84 119 97
84 119 97
84 118 96
84 119 96
84 119 96
84 119 96
84 119 96
83 118 96
83 118 96
84 119 96
84 119 96
83 118 96
84 119 96
84 118 96
84 118 96
83 118 96
84 119 96
83 118 96
83 118 96
84 118 96
83 118 96
90 126 101
90 126 101
90 126 101
90 126 101
90 126 102
90 126 101
90 126 101
90 126 101
90 126 101
89 125 101
90 126 101
89 126 101
90 126 101
89 125 101
90 126 101
89 125 100
90 126 101
90 126 101
89 126 101
90 126 101
90 126 101
89 125 101
89 125 101
89 125 101
89 125 100
89 125 101
89 125 101
89 125 101
89 125 101
89 125 100
89 125 100
89 124 100
89 125 100
89 124 100
89 125 100
89 124 100
89 125 101
88 124 100
89 125 100
89 124 100
89 124 99
89 124 100
89 124 100
88 123 99
89 124 100
88 123 99
89 124 99
89 124 100
89 125 101
89 124 100
88 123 99
89 124 99
88 123 99
88 123 99
88 123 99
88 122 98
89 124 100
88 124 100
88 124 100
89 124 99
88 123 99
89 124 99
88 123 99
89 124 100
88 123 99
88 122 98
88 124 100
88 123 99
88 123 99
88 124 100
88 122 98
88 124 100
88 123 100
88 122 98
88 123 99
88 124 100
88 123 99
88 123 99
88 123 99
88 122 98
88 122 99
88 123 99
88 123 99
88 123 99
87 122 98
87 123 99
88 123 99
88 123 100
88 122 98
88 123 100
88 123 99
88 123 100
88 123 99
88 123 99
87 123 99
87 122 99
87 122 98
88 123 99
88 123 99
88 123 99
87 123 99
88 123 99
88 123 99
87 122 99
87 122 99
87 122 98
87 122 99
87 123 99
87 123 99
87 122 99
87 123 99
87 123 99
87 122 99
87 123 99
87 122 99
87 123 99
88 123 99
88 123 99
88 123 99
87 123 99
87 122 99
86 122 98
87 123 99
87 123 99
87 122 99
87 123 99
87 123 99
87 122 99
86 121 98
87 122 99
87 122 99
87 122 99
87 123 99
87 122 99
86 122 99
87 122 99
87 122 98
87 122 98
87 122 99
87 122 99
87 122 99
87 122 99
87 122 99
87 123 99
87 122 99
87 122 99
86 122 98
87 122 99
87 122 99
87 122 98
87 122 99
87 122 99
87 122 98
86 122 99
87 122 98
86 122 98
86 122 99
86 122 99
86 122 98
86 122 98
86 122 98
86 121 98
86 122 98
86 122 98
87 122 99
86 121 98
86 122 98
86 122 98
86 121 98
86 122 98
86 121 98
86 122 98
86 122 99
86 121 98
86 121 98
86 122 98
86 122 98
86 121 98
86 121 98
86 122 98
86 121 98
86 121 98
86 121 98
86 122 98
86 121 98
86 121 98
86 121 98
86 121 98
86 121 98
85 120 98
86 121 98
86 121 98
86 121 98
86 121 98
86 120 97
85 120 97
86 121 98
85 120 98
85 121 98
86 121 98
85 120 98
86 121 98
86 121 98
86 121 98
85 121 98
85 120 98
86 121 98
85 120 98
86 121 98
85 121 98
85 120 97
85 120 98
85 120 97
85 121 98
85 120 97
85 120 98
85 121 98
85 120 98
85 120 97
85 120 97
85 120 97
85 120 97
85 120 97
85 121 98
85 120 97
85 121 98
85 120 98
85 120 97
85 120 97
85 120 98
85 120 97
85 119 97
85 121 97
85 120 97
85 120 97
85 120 97
85 120 97
85 120 97
85 120 97
85 120 97
85 120 97
85 120 97
85 120 97
85 120 97
85 120 97
85 120 97
85 120 97
85 119 97
85 120 97
85 120 97
84 119 97
85 120 97
84 119 97
85 120 97
85 120 97
84 119 97
84 119 97
85 119 97
84 119 97
85 120 97
84 119 97
84 119 97
84 119 97
84 119 97
84 120 97
84 119 97
84 119 97
84 119 97
84 119 97
84 119 97
84 119 97
84 119 97
84 119 97
84 119 97
84 119 96
84 119 97
84 119 97
84 119 96
84 119 97
84 119 97
84 119 97
84 119 96
84 119 96
84 119 97
84 119 96
84 118 96
84 119 97
84 118 96
84 119 97
84 118 96
84 119 96
84 119 96
83 118 96
83 118 96
84 119 96
84 119 96
83 118 96
84 118 96
84 118 96
84 118 96
90 125 101
90 126 102
90 126 101
89 125 101
90 126 101
90 126 101
90 126 102
89 126 101
90 126 102
89 126 101
90 126 101
90 126 101
90 126 101
90 125 101
90 125 101
89 125 101
90 126 101
89 125 101
90 125 100
89 125 101
89 125 101
90 125 101
89 125 100
89 125 101
89 125 101
89 125 101
89 125 101
90 125 101
90 125 101
90 125 100
89 125 101
89 125 100
89 125 101
89 125 100
89 124 100
89 124 100
89 125 101
89 125 100
89 124 100
89 125 101
89 125 100
89 125 101
89 125 101
89 124 100
89 124 100
89 124 100
89 125 101
89 123 99
89 124 100
89 125 100
89 124 99
89 124 100
88 123 99
88 123 99
88 124 100
88 124 100
89 124 99
88 123 99
88 124 100
88 124 100
88 124 99
89 124 100
88 124 100
88 123 99
88 124 100
88 123 99
88 123 99
88 123 99
88 124 100
88 124 100
88 123 99
88 123 99
88 123 99
88 122 98
88 124 100
88 123 99
88 123 99
88 123 100
88 123 99
88 122 98
88 124 100
88 122 98
88 123 99
87 122 98
88 123 100
88 123 99
88 124 100
88 123 99
88 123 99
88 123 99
88 122 98
88 124 99
87 122 99
88 123 99
88 122 98
87 123 99
87 123 99
88 123 99
88 123 99
88 123 99
88 123 99
87 123 99
88 124 100
87 122 99
87 122 99
88 123 99
88 123 99
87 122 98
87 122 98
87 123 99
88 123 99
87 123 99
87 123 99
87 123 100
87 122 99
87 123 99
87 123 99
87 122 98
87 122 99
87 123 99
88 122 99
87 122 99
87 123 99
87 122 98
87 122 99
87 123 99
87 122 99
87 123 99
87 123 99
87 122 99
87 122 99
87 122 99
87 122 99
87 122 99
87 122 98
87 122 99
87 123 99
87 122 99
87 123 99
87 122 99
86 122 98
87 122 99
87 122 99
87 122 99
87 122 99
87 122 99
87 122 98
87 122 99
87 122 99
86 121 98
86 122 98
87 122 99
87 122 99
87 122 99
86 122 99
87 122 99
86 122 99
87 122 99
86 122 98
87 122 99
87 122 98
86 122 99
86 121 98
86 122 98
87 122 98
86 122 98
86 121 98
86 121 98
86 121 98
86 122 99
87 122 99
86 122 98
86 122 98
86 121 98
86 121 98
86 121 98
86 121 98
86 122 98
86 122 99
85 120 97
86 122 98
86 121 98
86 121 98
86 121 98
86 121 98
86 121 98
86 121 98
86 121 98
86 121 98
86 121 98
86 121 98
86 121 98
86 121 98
85 120 97
86 121 98
85 120 97
85 121 98
85 121 98
86 121 98
86 121 98
86 121 98
85 121 98
85 121 98
86 121 98
85 121 98
85 120 98
86 121 98
85 120 98
85 120 98
85 121 98
86 121 98
85 121 98
85 121 98
85 120 98
85 121 98
86 121 98
85 120 97
85 120 98
86 121 98
85 120 98
85 120 97
85 120 98
85 119 97
85 120 98
85 120 98
85 120 98
85 120 97
85 120 97
85 120 97
85 120 97
85 120 97
85 121 98
85 120 97
85 120 97
85 120 97
85 120 97
85 120 97
85 120 97
85 120 97
85 120 97
85 120 97
84 119 97
85 120 97
85 120 97
85 120 97
84 119 97
85 120 97
85 120 97
84 120 97
84 120 97
84 119 97
84 119 97
84 120 97
84 119 97
84 120 97
85 120 97
84 119 97
84 119 96
84 119 97
84 119 97
84 119 97
84 119 97
84 119 97
84 119 97
84 119 97
84 119 97
84 119 97
84 119 96
84 119 97
84 119 97
84 119 97
84 119 96
84 119 97
84 119 96
84 119 97
84 119 96
84 119 97
84 119 96
84 119 96
84 118 96
84 119 96
84 119 97
84 119 97
84 119 96
84 119 96
84 119 97
84 119 96
84 119 96
84 118 96
84 119 96
84 119 96
84 119 96
84 119 96
84 118 96
84 118 96
83 118 96
83 118 96
84 119 96
83 118 96
84 119 96
90 126 101
90 126 101
90 125 101
90 126 101
90 126 101
89 126 101
90 125 101
90 126 101
90 126 101
89 126 101
90 125 101
89 126 101
89 125 101
90 125 101
89 125 101
90 126 101
90 125 100
90 126 101
90 126 101
89 126 101
89 125 101
90 126 101
89 126 101
90 125 100
89 125 100
89 125 100
89 124 100
89 125 101
90 125 100
89 125 100
89 125 100
89 125 101
89 125 101
89 125 101
89 125 101
89 125 100
89 124 100
89 124 100
89 124 100
89 125 101
89 125 100
88 124 100
89 125 101
89 124 100
89 124 99
89 125 101
89 124 100
89 123 99
88 124 100
88 124 100
89 124 100
88 123 99
88 123 99
88 123 99
89 124 100
89 124 100
88 124 100
89 124 100
89 124 100
89 124 100
88 123 99
88 123 99
88 124 100
88 124 100
88 123 99
88 123 99
88 123 99
88 124 100
88 123 99
88 124 100
88 123 99
88 123 99
88 123 99
88 123 99
88 123 99
88 123 99
88 123 99
88 123 99
88 123 99
88 124 100
88 123 99
88 123 99
88 122 98
88 123 99
88 124 100
88 123 99
88 123 100
88 123 99
88 123 99
88 124 100
88 123 100
88 123 99
88 123 99
88 123 99
88 123 99
88 123 99
88 123 99
88 123 99
87 122 99
88 123 100
88 123 100
88 123 99
87 123 99
87 123 100
88 123 99
87 123 99
87 122 99
87 122 99
87 123 99
88 123 99
88 123 100
87 122 98
87 122 99
87 122 98
88 123 99
87 123 99
87 122 99
87 122 99
87 123 99
87 123 99
87 123 99
87 122 98
87 122 99
87 122 99
87 122 99
87 122 99
87 122 99
87 122 99
86 121 98
87 123 99
87 122 99
87 122 99
87 122 99
87 123 99
87 122 99
87 122 99
87 123 99
87 122 99
86 122 98
86 122 98
87 122 99
87 122 99
87 122 99
86 122 98
87 122 99
87 123 99
86 122 99
86 122 98
87 122 99
86 122 98
87 122 98
86 122 99
87 122 98
86 122 99
86 121 98
86 122 99
86 122 98
86 121 98
86 122 98
86 121 98
87 122 98
86 122 99
86 122 99
86 122 99
86 121 98
86 122 98
86 122 99
86 122 99
86 121 98
86 121 98
86 121 98
86 122 98
86 122 99
86 121 98
86 122 98
86 121 98
86 122 99
86 121 98
86 121 98
86 122 99
86 122 98
86 121 98
86 121 98
86 121 98
86 121 98
86 121 98
86 121 98
86 121 98
86 121 98
86 121 98
86 121 98
86 121 98
86 121 98
86 121 98
86 122 98
86 121 98
85 121 98
86 121 98
85 121 98
85 120 98
85 120 98
86 121 98
85 121 98
86 121 98
86 121 98
85 121 98
85 121 98
86 121 98
85 121 98
86 121 98
85 120 98
86 121 98
85 120 97
85 120 98
86 121 98
85 120 98
85 120 98
85 120 97
85 120 98
85 120 98
85 120 97
85 120 98
85 120 97
85 120 97
85 120 97
85 120 98
85 120 97
85 120 97
85 120 98
85 120 97
85 120 97
85 120 97
85 120 97
85 120 98
85 120 97
85 120 97
85 120 97
85 120 97
84 120 97
84 119 97
85 120 97
85 120 97
85 120 97
85 120 97
84 120 97
85 120 97
85 120 97
85 119 97
85 120 97
85 120 97
85 120 97
85 120 97
84 119 97
85 120 97
84 119 97
84 119 97
84 119 97
84 119 97
84 119 97
84 119 97
84 119 97
84 119 96
85 120 97
85 120 97
84 119 97
84 119 97
84 119 97
84 119 97
85 120 97
84 119 97
84 119 97
84 119 97
84 119 97
84 119 96
84 119 96
84 119 97
84 119 97
84 119 97
84 119 97
84 119 97
84 119 97
84 119 97
84 119 96
83 118 96
84 119 97
84 119 96
84 119 97
84 119 96
83 118 96
83 118 96
84 119 96
83 118 96
84 119 96
83 118 96
84 119 96
84 118 96
83 118 96
84 118 96
84 118 96
83 118 96
90 126 101
90 126 101
90 126 101
90 126 101
90 126 101
90 126 101
90 126 101
90 125 101
89 125 101
90 126 101
90 125 100
90 126 101
89 126 101
89 126 101
90 125 101
89 125 101
90 126 101
90 126 101
89 126 101
89 125 101
89 126 101
89 125 100
89 125 101
89 125 101
89 125 101
89 125 100
89 125 101
89 125 101
89 125 101
89 125 100
89 125 101
89 125 100
89 125 100
89 125 100
89 125 101
89 124 100
89 124 100
89 125 101
89 125 101
89 124 100
89 125 101
89 125 100
89 125 100
89 124 100
89 125 100
89 124 100
89 124 100
89 124 100
89 124 100
89 124 100
89 124 100
88 124 100
89 124 100
88 123 99
89 124 100
88 124 99
89 124 99
88 122 98
88 122 98
89 124 100
89 124 100
88 124 100
88 124 100
88 123 99
88 124 100
88 124 100
88 124 100
88 123 99
88 124 100
88 124 100
88 124 100
88 124 100
88 123 99
88 124 100
88 124 100
88 124 100
88 123 99
88 123 99
88 123 99
87 122 99
88 123 99
88 123 99
88 124 100
88 123 99
88 123 99
88 124 100
88 124 100
88 122 99
88 123 100
88 123 99
88 123 99
88 123 99
88 122 98
88 124 100
88 123 99
88 123 99
88 123 99
87 122 99
88 123 99
88 123 99
87 123 99
87 123 99
87 123 99
88 123 99
87 123 99
87 122 99
87 123 99
88 123 100
88 124 100
88 123 99
87 123 99
87 123 99
87 122 99
87 123 99
87 123 99
87 123 99
87 122 99
87 122 99
87 123 99
87 123 99
87 123 99
87 123 99
87 122 99
87 122 99
87 122 98
87 122 99
87 122 99
87 122 98
87 122 99
87 123 99
87 123 99
87 123 99
87 122 99
87 122 99
87 122 99
87 122 99
87 122 99
87 123 99
87 122 99
86 122 99
87 122 99
87 122 99
87 122 99
87 123 99
87 122 99
87 122 99
87 122 99
86 122 99
86 121 98
86 122 99
86 121 98
86 122 99
87 122 99
86 122 98
87 122 99
87 122 99
87 122 98
86 122 98
86 122 99
86 122 99
86 121 98
86 122 99
86 122 98
87 122 99
86 121 98
86 122 99
86 122 98
86 122 99
86 122 98
86 122 98
86 121 98
86 122 98
86 121 98
86 121 98
86 121 98
86 121 98
86 121 98
86 121 98
86 121 98
86 121 97
86 122 98
86 122 98
86 121 98
86 121 98
86 121 98
86 121 98
86 121 98
86 121 98
86 121 98
86 121 98
86 121 98
85 120 98
85 121 98
86 121 98
86 121 98
86 121 98
86 121 98
86 121 98
86 121 98
86 121 98
86 121 98
86 121 98
86 121 97
86 121 98
86 121 98
85 121 98
86 121 98
86 121 98
85 120 98
85 121 98
85 121 98
85 120 98
85 120 98
85 121 98
85 120 98
85 120 98
85 120 98
85 120 98
85 121 98
86 121 98
85 121 98
85 120 98
85 120 97
85 120 97
85 120 97
85 120 97
85 120 97
85 120 97
85 120 97
85 120 97
85 120 98
85 120 97
85 119 97
85 120 97
85 119 97
85 120 97
85 120 97
85 120 97
85 120 97
84 119 97
85 120 97
85 120 97
85 120 97
85 120 97
85 120 97
84 119 97
84 119 97
85 120 97
85 120 97
84 119 97
85 120 97
84 119 97
84 120 97
84 119 97
85 120 97
84 119 97
84 119 97
84 119 97
84 119 97
84 119 97
84 119 97
84 119 97
84 119 97
84 119 96
84 119 97
84 119 97
84 119 97
84 119 97
84 119 97
84 119 97
84 119 96
84 119 97
84 119 96
84 119 96
84 119 96
84 119 97
84 119 97
84 119 96
84 119 97
84 119 96
84 119 96
84 119 97
84 119 97
84 119 96
84 119 96
84 119 96
84 119 96
84 119 97
84 119 96
84 119 96
84 119 96
83 118 96
83 118 96
83 118 96
84 119 96
84 118 96
84 119 96
83 118 96
84 118 96
83 118 96
90 126 101
89 126 101
90 126 101
90 126 101
90 126 101
89 125 101
90 126 101
89 125 101
90 126 101
90 126 101
90 126 101
90 126 101
89 126 101
89 125 101
89 126 101
90 126 101
90 126 101
89 125 100
90 125 101
90 125 101
89 126 101
90 126 101
89 125 101
89 125 101
89 125 101
89 125 101
89 125 101
89 125 101
89 125 101
89 125 100
89 125 101
89 125 100
89 125 100
89 125 101
89 125 101
89 125 101
89 125 100
89 125 100
89 125 100
89 125 101
88 124 100
89 124 100
89 124 100
88 124 100
89 124 100
88 124 100
89 125 101
89 124 100
89 124 100
89 124 99
88 124 100
89 124 100
88 124 100
88 124 100
89 124 100
88 124 100
88 123 99
89 124 99
88 123 99
89 124 100
88 124 100
88 124 100
88 124 99
88 123 99
89 124 100
88 123 99
88 123 99
88 123 99
88 124 100
88 124 100
88 123 99
88 124 100
88 123 99
88 123 99
88 123 99
88 123 99
88 123 99
88 123 99
88 123 99
88 123 99
88 124 100
88 123 99
87 122 98
88 123 99
88 123 99
88 124 100
88 123 99
88 124 100
88 123 99
88 124 99
88 123 99
88 123 99
88 124 100
87 123 99
88 123 99
87 122 99
87 123 99
88 123 99
88 123 99
88 123 100
87 122 99
87 122 98
88 123 99
87 122 99
88 123 99
88 123 99
88 123 99
88 123 99
87 123 99
88 123 99
87 123 99
88 123 99
87 123 99
87 122 99
87 122 98
87 123 100
87 122 99
87 122 99
87 123 100
87 123 99
87 123 99
87 123 99
87 122 99
87 122 98
87 123 99
87 123 99
87 123 99
87 123 99
87 122 99
87 122 99
86 121 98
87 122 99
87 123 99
87 123 99
87 122 99
87 122 99
87 122 99
87 122 99
87 122 99
87 122 99
87 123 99
87 122 99
87 122 98
87 122 98
87 122 98
86 122 99
87 122 98
87 122 99
87 122 99
86 122 98
87 122 99
87 122 99
87 122 98
87 122 98
87 122 99
87 122 99
86 121 98
87 122 99
86 122 99
87 122 99
86 122 98
86 122 99
86 122 98
86 122 98
86 122 99
86 122 98
86 121 98
86 121 98
86 121 98
86 121 98
86 122 99
86 122 98
86 121 98
86 121 98
86 122 98
86 122 98
86 121 98
86 121 98
86 121 97
86 121 98
86 121 98
86 121 98
85 121 98
86 121 98
86 121 98
85 121 98
86 121 98
86 121 98
86 121 98
86 121 98
86 121 98
86 121 98
85 121 98
86 121 98
86 121 98
86 121 98
86 121 98
85 121 98
85 121 98
85 121 98
85 121 98
85 121 98
86 121 98
85 120 97
85 121 98
85 120 97
85 120 98
86 121 98
85 120 98
85 120 97
85 120 98
85 121 98
85 121 98
85 120 97
85 120 97
85 120 98
85 120 98
85 120 97
85 120 98
85 121 98
85 120 98
85 120 97
85 120 97
85 120 98
85 120 98
85 120 97
85 120 97
85 120 97
85 120 98
85 120 97
85 120 97
85 120 97
85 120 98
85 120 97
84 119 97
85 120 97
85 120 97
85 120 97
85 120 97
85 120 97
85 120 97
85 120 97
85 120 97
84 120 97
84 119 97
84 119 97
85 120 97
84 120 97
84 119 97
85 119 97
85 119 97
85 120 97
84 119 97
85 119 97
84 119 96
84 119 97
84 119 97
84 119 97
84 119 97
84 119 97
84 119 97
84 119 97
84 119 96
84 119 97
84 119 97
84 119 96
84 119 97
84 119 97
84 119 97
84 119 96
84 119 97
84 119 96
84 119 97
84 119 97
84 119 97
84 119 97
84 119 96
84 119 97
84 119 97
84 119 97
84 119 96
84 119 96
84 119 96
84 119 96
84 119 96
84 119 97
84 119 97
84 118 96
84 119 97
84 119 96
84 118 96
84 119 96
84 118 96
84 119 96
84 118 96
84 119 96
84 118 96
83 118 96
83 118 96
83 118 96
90 125 101
90 126 101
89 126 101
90 126 101
90 125 101
90 126 101
90 126 101
90 126 101
90 126 101
89 125 101
89 125 101
89 125 101
89 125 100
89 125 101
89 126 101
89 125 101
89 125 101
89 125 101
89 125 101
89 125 100
90 125 101
90 125 101
89 125 101
90 125 100
89 125 100
90 125 100
89 125 101
89 125 100
89 124 100
89 125 100
89 125 100
89 124 100
89 125 101
89 125 100
89 125 101
89 125 100
88 124 100
89 125 100
89 124 100
89 125 101
89 124 100
89 124 100
89 125 100
89 125 101
89 124 100
89 124 100
89 124 100
89 124 100
89 125 100
89 124 100
88 123 99
88 124 99
89 124 100
88 124 100
89 124 100
89 124 100
88 124 100
89 124 100
88 123 99
88 124 100
88 123 99
88 124 100
88 124 100
88 124 100
88 123 99
88 124 100
88 123 99
88 123 99
88 123 100
88 123 99
88 124 99
88 123 99
88 123 99
88 124 100
88 123 99
88 123 100
88 124 100
88 123 100
88 123 99
88 124 100
87 122 98
88 124 100
88 124 100
88 123 99
88 123 99
88 123 99
88 123 99
88 123 99
87 123 100
87 122 99
88 123 99
88 124 100
88 123 99
87 123 99
88 123 99
88 123 99
87 122 98
88 124 100
88 123 99
87 123 99
87 122 99
87 123 99
87 123 99
88 123 99
88 123 99
88 123 99
87 123 99
87 122 98
87 123 99
87 123 99
87 122 99
87 123 99
87 123 99
87 123 99
88 123 100
87 123 99
87 123 99
87 123 99
87 123 99
87 122 99
87 123 99
87 123 99
87 123 99
87 122 99
87 123 99
87 123 99
87 123 99
87 123 99
87 123 99
87 122 99
87 122 99
86 122 99
87 122 98
87 122 99
87 122 99
87 122 98
87 122 99
87 122 99
87 122 99
87 122 99
87 122 99
87 122 99
86 122 98
87 122 99
87 122 99
87 122 99
87 122 99
87 122 99
87 122 99
87 122 99
86 122 99
86 122 99
87 122 99
87 122 99
86 122 98
86 122 99
87 122 99
87 122 99
86 121 98
86 122 99
86 122 98
86 122 98
86 121 98
86 121 98
86 122 99
86 122 98
87 122 99
86 121 98
86 121 98
86 122 98
86 121 98
86 121 98
86 122 98
86 121 98
86 122 98
86 122 99
86 121 98
86 122 99
86 121 98
86 121 98
86 121 98
86 121 98
86 121 98
86 121 98
86 121 98
86 121 98
86 121 98
85 121 98
86 121 98
86 121 98
86 121 98
86 121 98
85 121 98
86 121 98
86 121 98
86 121 98
86 121 98
85 121 98
86 121 98
86 121 98
85 121 98
85 121 98
85 121 98
85 120 97
85 120 97
85 120 98
85 121 98
85 120 97
86 120 97
85 120 98
85 121 98
85 121 98
85 121 98
85 120 97
85 120 98
85 120 98
85 120 98
85 120 97
85 120 97
85 120 98
85 120 97
85 120 97
85 120 97
85 120 97
85 120 98
85 120 98
85 120 97
85 120 97
85 120 97
85 120 97
85 120 97
85 120 98
85 120 97
85 120 97
85 120 97
85 120 97
84 119 97
85 120 97
85 120 97
85 120 97
84 119 97
85 120 97
85 120 97
84 119 97
85 120 97
85 120 97
85 120 97
84 119 97
84 119 97
84 119 97
84 119 97
85 119 97
85 120 97
85 120 97
85 120 97
84 120 97
84 119 97
84 119 97
85 119 97
84 119 97
84 119 97
84 119 97
84 119 97
84 119 97
84 119 97
84 119 97
84 119 97
84 119 97
84 119 97
84 119 97
84 119 97
84 119 97
84 119 97
84 119 96
84 119 96
84 119 97
84 119 96
84 119 96
84 119 97
84 118 96
83 119 97
84 119 97
84 119 96
84 119 96
84 119 96
84 119 96
84 119 96
84 119 97
84 119 96
83 118 96
84 119 96
84 119 96
84 118 96
84 118 96
84 118 96
84 118 96
84 118 96
84 118 96
84 118 96
83 118 96
90 126 101
90 126 101
90 126 101
90 126 101
89 125 101
90 126 101
89 125 101
90 126 101
90 126 101
89 126 101
89 124 100
90 126 101
90 126 101
89 125 101
90 126 101
89 126 101
89 125 101
89 125 101
89 125 100
90 125 100
89 125 101
89 125 101
89 125 101
89 125 101
89 125 101
89 125 101
89 125 101
89 125 101
89 124 100
89 125 101
89 125 101
89 124 100
89 125 101
89 125 101
89 125 101
89 125 101
89 125 101
89 124 100
89 125 101
89 124 100
89 125 100
89 125 101
89 125 100
89 124 100
88 124 100
89 125 100
88 124 100
89 124 100
88 124 100
89 124 100
89 125 100
89 124 100
89 124 100
88 124 100
89 125 101
89 124 100
89 124 100
88 124 100
89 124 99
88 124 100
88 124 100
88 124 100
88 124 100
88 124 100
88 123 99
88 123 99
89 124 100
88 124 100
88 124 100
88 123 99
88 123 99
88 124 99
88 123 99
88 123 99
88 124 100
88 124 100
88 124 100
88 123 99
88 123 100
88 123 99
88 124 100
88 123 100
88 123 99
88 124 100
88 123 99
88 123 99
88 123 99
88 123 99
88 123 100
88 123 99
88 123 99
88 123 99
88 123 99
88 123 99
88 123 99
87 122 99
88 123 99
88 123 99
87 123 99
87 123 99
88 123 99
87 123 99
87 123 100
87 123 99
88 123 100
87 122 99
87 123 99
88 124 100
87 123 99
87 123 99
87 122 99
87 123 99
87 123 99
88 123 100
87 123 99
87 123 99
87 123 99
87 123 99
88 123 99
87 123 99
87 123 99
87 122 99
87 123 99
88 123 99
87 122 99
87 122 99
87 123 99
87 123 99
87 123 99
87 122 99
87 122 99
87 122 99
87 123 99
87 122 99
87 122 99
87 122 98
87 122 99
87 122 99
87 122 99
87 122 99
86 122 99
87 122 99
86 122 99
87 122 99
87 122 99
87 122 99
86 122 98
86 122 99
86 122 98
87 122 99
86 122 99
86 122 99
87 122 99
87 122 99
86 122 99
86 122 98
86 121 98
86 122 98
86 121 98
86 122 98
86 122 98
86 121 98
86 122 98
86 122 98
86 122 99
86 122 98
86 122 98
86 122 98
86 122 99
86 121 98
86 122 98
86 121 98
86 122 98
86 122 98
86 121 98
86 122 98
86 121 98
86 121 98
86 121 98
86 121 98
86 121 98
86 121 98
86 121 98
86 121 98
86 121 98
86 121 98
86 121 98
86 121 98
86 121 98
86 121 98
86 121 98
86 121 98
85 120 97
86 121 98
86 121 98
86 121 98
86 121 98
85 121 98
85 120 97
86 121 98
86 121 98
86 121 98
86 121 98
86 121 98
85 121 98
85 120 97
85 120 98
85 120 98
85 121 98
86 121 98
85 121 98
85 120 97
85 120 98
85 121 98
86 121 98
85 120 98
85 121 98
85 120 98
85 121 98
85 121 98
85 120 98
85 120 97
85 120 97
85 120 97
85 120 98
85 120 98
85 120 97
85 120 97
85 120 97
85 120 97
85 120 98
85 120 97
85 120 98
85 120 97
85 120 97
85 120 97
85 120 97
85 120 97
84 120 97
85 120 97
85 120 97
85 120 97
85 120 97
84 119 97
85 120 97
85 120 97
85 120 97
84 120 97
84 120 97
84 119 97
85 120 97
84 119 97
84 119 97
84 119 97
85 120 97
84 119 97
85 120 97
84 119 97
84 119 97
84 119 97
84 119 97
84 119 97
84 120 97
84 119 97
84 119 97
84 119 97
84 119 96
84 119 97
84 119 97
84 118 96
84 119 97
84 119 97
84 119 97
84 119 97
84 119 97
84 119 97
84 119 96
84 119 97
84 119 97
84 119 97
84 119 96
84 119 97
84 119 97
84 119 97
84 119 96
84 119 97
83 118 96
84 119 97
83 118 96
84 119 96
83 118 96
84 119 96
84 118 96
83 118 96
84 119 96
83 118 96
84 119 96
84 119 96
83 118 96
83 118 96
90 126 101
90 126 101
89 125 101
89 126 101
90 126 101
90 125 101
90 126 101
90 126 101
90 126 101
89 125 101
89 125 101
89 126 101
90 125 101
89 125 101
90 125 101
89 125 101
89 125 101
89 125 101
90 125 101
89 125 100
89 125 101
89 125 100
89 125 101
89 125 100
89 125 101
89 125 101
89 125 101
89 125 100
89 125 101
89 125 101
89 125 100
89 125 100
89 125 101
89 125 101
89 124 100
89 125 100
89 124 100
89 124 100
89 125 100
89 125 101
89 125 100
89 125 100
88 124 99
88 125 100
89 124 100
89 125 100
89 124 100
88 124 100
89 125 101
88 123 99
88 124 100
89 124 100
88 124 100
88 124 100
89 125 101
89 124 100
89 124 100
89 124 100
89 124 100
88 123 99
88 123 99
89 124 100
88 123 99
88 124 100
88 124 100
88 124 100
88 124 100
88 123 99
88 124 100
88 124 100
88 124 100
88 124 100
88 124 100
88 124 100
88 124 100
88 124 99
88 123 100
88 123 99
88 123 99
88 123 99
88 124 100
88 124 100
88 123 99
88 123 99
88 124 100
87 123 99
88 123 99
88 123 100
88 123 99
88 123 99
87 123 99
88 123 100
87 123 99
88 123 99
88 123 100
88 123 99
87 123 99
87 123 99
88 123 100
88 124 100
88 123 99
88 123 99
87 123 99
88 123 100
88 123 99
88 123 100
87 122 99
87 123 99
87 122 99
88 123 99
87 123 99
87 122 99
87 122 98
87 123 99
87 123 99
87 123 99
87 122 99
87 122 99
87 123 99
87 122 99
87 123 99
87 123 99
87 122 99
87 123 99
87 123 99
87 123 99
87 122 99
88 123 99
86 122 98
87 122 99
87 122 99
87 122 99
87 122 99
87 123 99
87 122 99
87 123 99
87 122 98
87 122 98
87 123 99
87 122 98
86 122 99
87 122 99
87 123 99
87 122 99
87 122 99
87 122 99
86 121 98
86 122 99
86 122 99
87 122 98
87 122 99
87 122 99
86 122 99
87 122 99
86 122 98
86 122 98
86 121 98
86 122 99
86 122 98
87 122 99
86 122 99
87 122 98
86 122 99
86 122 98
86 122 98
86 121 98
86 122 98
86 122 98
86 122 99
86 122 98
86 122 98
86 121 98
86 121 98
86 121 98
86 121 98
86 122 98
86 121 98
85 121 98
86 121 98
86 121 98
86 122 98
86 121 98
86 121 98
86 121 98
86 121 98
86 121 98
86 121 98
86 121 98
86 121 98
85 121 98
86 121 98
85 121 98
86 121 98
86 121 98
85 121 98
85 120 98
86 121 98
86 121 98
86 121 98
86 121 98
85 120 97
85 121 98
85 121 98
85 120 98
86 121 98
86 121 98
85 121 98
85 121 98
85 121 98
85 121 98
85 120 98
85 120 98
85 120 97
85 121 98
85 120 97
85 120 98
85 120 97
85 120 97
85 120 97
85 120 97
86 121 98
85 120 98
85 120 98
85 120 97
85 120 97
85 120 97
85 120 97
85 120 97
85 120 97
85 120 97
85 120 97
85 120 97
85 120 97
85 120 97
85 120 97
85 119 97
85 120 97
84 120 97
85 120 97
85 120 97
84 120 97
85 120 97
85 120 97
85 120 97
84 119 97
85 120 97
85 120 97
84 120 97
85 120 97
85 120 97
84 119 96
85 120 97
84 119 97
85 119 97
84 119 97
84 119 96
84 119 97
84 119 96
85 119 97
84 119 97
84 119 96
84 119 97
84 119 97
84 119 97
84 119 97
84 119 97
84 119 97
84 119 97
84 119 96
84 119 97
84 119 96
84 119 97
84 119 97
84 119 97
84 119 96
84 119 97
84 119 97
84 119 97
84 119 97
84 119 96
84 119 97
84 119 96
84 119 96
84 118 96
84 119 97
84 119 97
84 119 96
84 119 97
84 119 96
84 119 96
83 119 96
84 118 96
84 118 96
84 119 96
83 118 96
84 118 96
84 119 96
83 118 96
83 118 96
83 118 96
90 126 101
89 126 101
90 126 101
90 126 101
89 125 101
89 125 101
89 125 101
89 125 101
89 125 101
90 126 101
89 125 101
90 126 101
89 126 101
89 126 101
89 125 101
89 125 101
89 125 101
89 125 101
89 125 100
89 125 101
89 125 101
89 125 101
89 125 100
89 124 100
89 125 101
89 125 101
89 124 100
89 125 100
89 125 101
89 125 101
89 125 100
90 125 101
89 125 100
89 125 101
89 124 100
89 125 101
89 125 100
89 125 100
89 124 100
89 124 100
89 125 100
89 125 101
89 124 100
88 124 100
89 125 100
89 125 101
88 124 100
89 124 100
88 124 100
89 125 100
88 124 100
89 125 100
89 124 100
89 124 100
89 125 101
88 124 100
88 124 100
88 124 100
88 124 100
88 123 99
88 124 100
88 124 100
88 124 100
88 124 100
89 124 100
88 124 100
88 124 100
88 123 99
88 124 100
88 124 100
88 124 100
88 124 100
88 124 100
88 124 100
88 124 100
88 123 99
88 123 99
88 123 100
88 124 100
88 123 100
88 123 100
88 123 100
87 123 99
88 123 99
88 123 99
88 124 100
88 123 99
88 123 99
88 123 99
87 123 99
88 123 99
88 123 99
87 123 99
88 123 99
88 124 100
88 123 100
87 123 99
88 124 100
88 123 99
87 123 99
88 123 99
87 123 99
88 123 99
88 123 99
87 123 99
88 123 100
88 123 99
87 123 99
87 123 99
88 123 99
87 122 99
87 123 99
87 122 99
87 123 99
87 122 99
88 123 100
87 123 99
87 123 99
87 123 99
87 123 99
87 123 99
87 122 99
87 122 99
87 123 99
87 123 99
87 122 99
87 123 99
87 123 99
87 123 99
87 122 99
87 123 99
87 122 99
87 122 99
87 122 99
87 123 99
87 122 99
87 122 99
87 123 99
87 122 99
87 123 99
87 122 99
87 122 99
87 123 99
87 122 98
86 122 99
87 122 99
87 122 99
86 122 99
87 122 99
87 122 99
86 122 99
86 122 99
86 122 99
87 122 98
86 122 98
87 122 99
86 121 98
87 122 99
86 122 99
86 122 99
86 122 98
86 121 98
86 122 98
86 122 99
86 121 98
86 122 98
86 122 99
86 122 99
86 122 99
86 121 98
86 121 98
86 121 98
86 122 98
86 122 98
86 121 98
86 121 98
86 121 98
86 121 98
86 121 98
86 121 98
86 121 98
86 121 98
86 121 98
86 121 98
86 121 98
86 121 98
86 121 97
86 121 98
86 121 98
86 121 98
86 121 98
85 121 98
86 121 98
86 121 98
85 121 98
85 121 98
86 121 98
85 120 98
85 121 98
86 121 98
86 121 98
85 121 98
86 121 98
85 121 98
85 120 98
85 121 98
85 120 97
85 120 97
85 120 98
85 121 98
85 120 97
86 121 98
85 120 97
85 121 98
85 120 98
85 121 98
85 120 97
85 120 97
85 120 97
85 121 98
85 120 98
85 120 98
85 120 98
85 120 97
85 120 98
85 120 97
85 120 97
85 120 97
85 120 97
85 120 97
85 120 98
85 120 97
85 120 97
85 120 97
85 120 97
85 120 97
85 120 97
85 120 97
85 120 97
85 120 97
85 120 97
85 120 97
85 120 97
85 120 97
85 120 97
85 119 97
84 119 96
85 120 97
85 120 97
84 119 96
84 120 97
84 120 97
85 120 97
84 119 97
84 119 97
84 119 97
84 119 97
84 119 97
84 119 97
84 119 97
84 119 97
85 120 97
84 119 97
84 119 96
85 120 97
84 119 97
84 119 97
84 119 97
84 119 97
84 119 97
84 119 97
84 119 96
84 119 97
84 119 96
84 119 97
84 119 97
84 119 97
84 119 97
84 119 97
84 119 97
84 119 96
84 119 97
84 119 96
84 119 96
84 118 96
84 119 97
84 119 97
84 119 96
84 118 96
84 119 96
84 118 96
84 118 96
84 119 96
84 118 96
84 118 96
83 118 96
84 118 96
83 118 96
83 118 96
83 118 96
90 126 101
89 126 101
90 126 101
89 126 101
90 126 101
90 126 101
89 125 101
90 125 101
89 125 101
90 126 101
89 126 101
90 125 101
89 125 101
89 126 101
89 125 101
89 126 101
89 126 101
89 125 101
89 125 101
89 125 100
89 125 101
89 125 101
89 125 101
89 125 101
89 125 101
89 125 101
89 125 101
89 125 101
89 125 101
89 125 101
89 125 101
89 125 101
89 125 101
89 125 101
89 125 100
89 125 100
89 125 101
89 124 100
89 125 101
89 125 100
89 125 100
89 125 100
89 124 100
89 124 100
89 124 100
88 124 100
89 124 100
89 125 100
89 124 100
89 124 100
89 124 100
88 124 100
89 125 101
89 124 100
89 124 100
88 124 99
88 123 100
88 123 99
89 124 100
88 123 99
89 124 100
89 124 100
88 123 100
89 124 100
88 124 100
88 124 100
89 124 100
88 124 100
88 123 99
88 123 99
88 124 100
88 123 100
88 123 99
88 123 99
88 124 100
88 123 100
88 124 100
88 124 100
88 124 100
87 122 99
88 123 100
88 124 100
88 124 100
88 124 100
88 123 99
88 123 99
88 124 100
88 123 99
88 123 99
88 123 100
88 123 99
87 123 100
88 123 99
88 123 99
88 123 99
88 123 99
88 123 99
88 123 99
87 123 99
87 123 99
88 123 99
87 123 99
88 123 99
88 123 99
87 123 99
87 123 99
87 123 99
87 123 99
87 123 99
87 123 99
87 122 99
88 123 99
88 123 99
87 122 98
87 122 99
87 123 99
87 123 99
87 123 99
87 122 99
87 123 99
87 122 98
87 122 99
87 122 99
87 123 99
87 123 99
87 122 98
87 122 99
87 122 99
87 123 99
87 123 99
87 123 99
87 122 99
87 122 99
87 123 99
87 122 99
87 122 99
87 122 99
87 122 99
87 122 98
86 122 98
86 122 99
86 121 98
87 122 99
86 122 99
87 122 99
87 122 99
87 122 99
86 122 98
86 122 98
87 122 99
86 122 98
86 122 99
86 122 98
86 122 99
86 122 99
86 122 98
86 122 98
86 122 99
86 122 99
86 122 98
86 122 98
86 121 98
86 122 99
86 122 98
86 122 99
86 121 98
86 122 98
86 122 98
86 121 98
86 121 98
86 121 98
86 121 98
86 121 98
86 121 98
86 121 98
86 121 98
86 121 98
86 121 98
86 121 98
86 121 98
86 122 98
86 121 98
86 121 98
86 121 98
86 121 98
86 121 98
86 121 98
86 121 98
86 121 98
86 121 98
86 121 98
86 121 98
86 121 98
86 121 98
86 121 98
85 121 98
85 121 98
86 121 98
86 121 98
85 121 98
85 121 98
85 120 97
85 121 98
86 121 98
85 120 97
85 121 98
85 120 97
86 121 98
85 121 98
86 121 98
85 121 98
85 120 97
85 121 98
85 120 97
85 121 98
85 120 97
85 120 97
85 120 98
85 120 97
85 120 98
85 120 98
85 121 98
85 120 98
85 120 97
85 120 97
85 120 97
85 120 97
85 120 97
85 120 98
85 120 97
85 120 98
85 120 97
85 120 97
85 120 97
85 120 97
85 120 97
85 120 97
85 120 97
85 120 97
84 119 97
85 120 97
85 120 97
84 119 97
85 120 97
85 120 97
85 120 97
85 120 97
85 120 97
84 119 97
84 119 97
85 120 97
84 120 97
84 119 97
84 120 97
85 120 97
84 119 97
84 119 97
84 119 97
84 119 97
84 119 97
84 119 97
84 119 97
84 119 96
85 120 97
84 119 97
84 119 97
84 119 97
84 119 97
84 119 97
84 119 96
84 119 96
84 119 96
84 119 97
84 119 97
84 119 96
84 119 97
84 119 97
84 119 97
84 119 97
84 119 97
84 119 97
84 119 96
84 119 97
84 119 96
84 119 96
84 119 96
84 119 97
84 119 96
84 118 96
84 119 96
84 118 96
83 118 96
83 118 96
83 118 96
84 119 96
84 118 96
84 118 96
83 118 96
83 118 96
84 118 96
