P3
120 80
255
18 40 37
18 40 38
18 41 39
18 40 38
18 40 38
18 41 38
18 41 38
18 40 38
18 41 39
18 40 38
18 41 38
18 42 39
18 40 37
18 41 38
18 42 39
18 42 39
18 41 39
18 41 39
18 41 38
18 41 38
18 40 38
18 41 39
18 42 39
19 42 39
18 41 39
18 41 38
18 41 38
18 41 38
18 41 39
18 41 38
18 40 37
18 41 38
19 42 39
19 42 39
18 41 38
18 41 38
18 41 38
18 41 38
19 42 39
19 42 39
18 41 39
18 41 39
18 41 39
18 41 38
18 41 38
18 41 39
18 41 39
18 41 39
19 42 39
18 41 39
18 41 38
18 41 38
18 42 39
19 42 39
18 42 39
19 42 39
18 41 38
18 41 38
18 42 39
18 41 38
18 41 38
19 42 40
18 41 38
19 42 39
18 41 38
18 41 39
19 42 39
18 42 39
18 42 39
18 41 39
18 41 39
19 42 39
19 42 39
18 41 38
18 41 39
19 43 40
19 42 39
18 42 39
18 41 38
18 41 39
19 42 39
18 41 39
19 42 39
19 42 39
18 41 38
18 41 38
19 42 39
19 43 40
19 42 39
19 42 39
18 41 38
18 41 39
18 41 38
18 41 38
18 42 39
19 42 39
19 42 39
19 42 39
18 41 38
19 42 39
19 42 39
18 41 38
19 42 39
19 43 40
18 41 38
19 43 40
18 42 39
19 42 39
19 43 40
19 42 39
18 42 39
18 42 39
19 43 40
18 41 38
19 42 39
18 41 39
18 41 38
19 42 40
18 41 38
18 41 39
18 40 37
18 40 37
18 41 38
18 41 38
18 41 39
18 42 39
18 41 38
18 42 39
18 41 38
18 40 37
18 42 39
18 41 38
18 41 39
18 41 39
19 42 39
18 41 38
18 41 38
18 41 38
18 40 38
18 41 38
18 41 38
18 41 39
19 42 39
18 40 38
19 42 39
18 41 39
19 42 39
18 41 39
19 42 39
19 42 39
18 42 39
18 42 39
19 42 39
18 41 38
18 41 38
18 41 39
19 42 39
19 42 39
18 41 38
18 42 39
19 43 40
18 41 38
19 42 39
19 42 39
18 41 38
18 41 38
18 41 38
19 43 40
18 41 38
19 42 39
19 42 39
18 42 39
18 41 39
19 42 39
19 42 39
19 43 40
18 41 38
19 42 39
19 42 39
19 43 40
19 42 39
19 42 39
18 41 38
19 43 40
19 42 39
19 43 40
19 42 39
19 43 39
18 41 38
18 41 38
19 42 39
19 43 40
19 42 39
19 43 39
19 42 39
19 43 40
19 42 39
18 41 38
19 42 39
19 42 39
19 43 40
19 43 40
19 42 39
19 43 40
19 42 39
18 41 38
18 41 38
18 41 39
19 42 39
19 43 40
19 42 39
19 43 39
19 43 39
19 43 40
18 42 39
19 42 39
20 44 41
19 43 40
19 42 39
19 42 39
18 41 38
19 42 39
19 42 39
19 42 39
19 42 39
18 41 38
18 41 39
19 42 39
19 43 40
18 41 38
19 43 40
19 43 39
19 42 39
19 43 40
18 41 38
19 43 40
19 43 39
19 43 40
18 41 38
19 42 39
18 42 39
19 42 39
18 41 38
18 42 39
18 41 38
18 40 38
18 41 38
18 41 38
18 41 39
19 42 39
19 43 40
18 41 39
18 41 38
18 41 38
19 43 40
18 42 39
18 41 38
18 41 38
19 42 39
18 42 39
19 42 39
19 42 39
19 42 39
18 41 38
19 42 39
18 42 39
19 42 40
18 41 38
19 43 40
18 41 38
18 41 38
19 42 39
19 42 39
19 43 40
19 42 39
18 42 39
18 42 39
18 42 39
19 42 39
19 42 39
19 42 39
18 41 38
19 43 40
19 42 39
19 43 40
19 43 40
18 41 39
19 42 39
19 43 40
19 42 39
19 42 39
19 42 39
19 43 40
19 42 39
19 43 40
19 43 40
19 42 39
19 43 40
19 43 40
19 42 39
19 42 39
19 43 40
19 42 39
19 42 39
19 43 40
19 42 39
19 43 40
19 42 39
19 43 40
19 43 39
19 43 40
19 42 39
19 43 39
19 43 40
19 42 39
19 43 40
19 42 39
19 43 40
19 43 40
19 43 40
19 43 40
19 43 40
19 43 39
19 42 39
19 43 40
19 42 39
19 43 40
19 43 40
19 43 39
19 42 39
19 43 40
19 42 39
19 42 39
19 43 39
19 42 39
19 43 40
19 43 40
19 43 40
19 43 40
19 42 39
19 43 40
19 43 40
19 43 40
19 44 40
19 42 39
19 42 39
19 43 40
18 42 38
19 42 39
19 43 40
19 43 40
19 42 39
19 42 39
19 42 39
19 42 39
19 42 39
19 42 39
19 43 40
19 42 39
19 42 39
19 42 39
19 42 39
18 41 38
18 41 39
18 41 38
18 41 38
18 41 38
19 42 39
19 42 39
18 41 38
18 42 39
18 41 39
19 42 39
19 42 39
18 41 39
18 41 38
18 42 39
19 42 39
19 43 40
19 42 39
19 42 39
19 43 40
19 42 39
19 42 39
18 41 38
18 41 38
19 42 39
19 42 39
19 42 39
19 43 40
19 43 39
19 42 39
19 42 39
19 42 39
19 43 40
18 42 39
19 42 39
19 42 39
19 42 39
19 42 39
19 42 39
19 42 39
19 42 39
19 42 39
19 43 40
19 43 39
19 43 39
19 43 40
19 43 40
19 42 39
19 42 39
19 42 39
19 43 40
19 43 40
19 42 39
19 42 39
19 43 40
19 42 39
19 42 39
19 43 39
19 43 40
19 42 39
19 44 40
19 42 39
19 43 40
19 43 40
19 43 40
19 43 40
20 44 41
19 42 39
19 42 39
19 44 40
19 42 39
19 44 40
19 43 40
19 43 40
19 43 40
19 42 39
19 43 40
19 43 40
19 44 40
19 42 39
19 43 39
19 43 40
20 44 41
19 43 40
19 43 40
19 42 39
20 44 40
19 43 40
19 43 40
19 43 40
20 44 41
20 44 41
19 43 39
20 44 41
19 42 39
19 42 39
19 42 39
19 42 39
19 43 39
19 43 40
20 44 40
20 44 40
20 44 40
19 43 39
19 42 39
19 43 40
20 44 41
19 44 40
19 43 39
20 45 42
19 44 40
19 43 40
20 44 40
19 43 40
20 44 41
19 43 40
19 43 39
19 43 40
18 42 39
19 42 39
18 41 38
19 42 39
18 40 38
19 42 39
19 43 40
19 42 39
19 43 40
18 41 38
19 42 39
18 42 39
19 43 40
19 42 39
19 42 39
19 42 39
19 42 39
19 42 39
19 42 38
19 42 39
18 41 39
19 42 39
18 41 38
19 43 40
19 42 39
19 43 40
19 42 39
19 43 40
19 43 40
19 43 40
19 42 39
19 42 39
19 43 40
19 42 39
19 43 40
19 42 39
19 42 39
19 44 40
19 42 39
19 43 40
19 43 40
19 43 40
19 43 40
19 42 39
19 43 40
19 43 40
20 44 41
19 42 39
19 43 40
19 42 39
19 43 40
19 42 39
20 44 41
19 43 40
19 43 40
19 43 40
19 43 40
19 43 40
20 44 41
19 43 40
20 44 41
19 43 40
19 43 39
19 43 40
19 43 40
19 43 40
19 43 40
19 43 40
19 43 40
20 44 40
20 44 40
19 43 40
19 43 40
19 43 40
19 44 40
20 44 41
19 43 40
20 44 41
19 43 40
19 43 40
20 44 40
20 44 40
19 43 40
20 44 41
19 43 40
20 45 41
19 43 40
19 42 39
19 43 40
20 44 40
19 43 40
19 43 40
20 44 40
19 43 40
20 45 42
19 43 40
19 44 40
20 44 40
20 44 41
19 43 40
19 42 39
20 44 41
19 43 40
20 44 41
19 43 39
20 44 41
20 44 41
19 43 40
19 43 40
19 43 40
20 44 40
19 43 40
19 43 40
19 43 39
19 43 40
19 43 39
19 43 40
19 44 40
19 43 40
19 43 40
19 42 39
18 41 39
18 41 38
18 41 38
19 43 40
19 42 39
19 42 39
19 43 40
19 42 39
19 42 39
19 43 39
19 43 40
19 42 39
19 42 39
19 42 39
18 41 38
19 43 40
19 43 40
19 42 39
19 43 40
19 43 40
19 42 39
18 41 38
19 43 40
19 42 39
19 43 40
19 43 40
19 43 39
19 43 39
19 43 40
19 43 39
20 44 41
19 43 40
19 43 40
19 43 40
19 43 40
19 42 39
19 43 40
20 44 41
19 42 39
19 43 40
20 45 41
19 43 39
19 42 39
19 43 40
19 43 40
20 44 40
19 43 40
19 43 40
19 43 40
19 43 40
19 43 40
19 43 39
20 44 40
20 44 41
20 44 40
20 44 40
19 42 39
20 44 41
19 43 40
19 43 40
19 43 40
20 44 41
19 43 40
19 43 40
20 44 40
20 45 41
20 44 41
19 42 39
20 44 40
19 43 39
20 44 41
20 44 40
19 43 40
19 43 39
20 44 41
19 43 40
20 44 41
20 44 40
20 44 41
20 45 41
19 42 39
20 44 41
20 44 41
20 44 40
20 45 41
20 44 40
20 44 41
20 45 41
19 43 40
20 44 41
20 45 42
19 43 40
20 44 41
20 44 41
20 44 40
20 43 40
19 43 40
20 44 41
20 44 41
20 45 41
20 44 40
19 43 40
20 44 40
20 44 40
20 45 41
19 43 40
20 44 40
20 44 41
20 44 40
20 44 41
20 45 41
20 44 40
20 45 41
20 45 41
20 44 41
20 45 42
19 43 40
20 44 41
19 43 40
20 44 41
19 43 40
19 42 39
19 43 40
19 43 40
20 44 41
19 42 39
19 42 39
19 43 40
19 42 39
19 43 39
19 42 39
19 43 40
19 42 39
19 42 39
19 43 40
18 41 38
20 44 41
19 42 39
19 44 40
19 43 40
19 42 39
19 43 40
19 43 40
19 42 39
19 43 40
20 44 40
20 44 40
19 43 40
19 42 39
20 44 41
20 44 40
20 44 41
19 43 40
19 43 40
19 43 40
20 44 40
19 44 40
19 43 40
20 44 40
20 44 41
20 44 41
20 44 41
19 43 40
19 43 40
20 44 41
20 44 40
20 44 41
20 44 40
19 43 40
20 45 41
20 44 40
20 45 41
20 44 41
20 44 40
20 45 41
19 43 40
20 44 41
20 44 40
20 44 40
20 44 41
19 43 40
20 45 41
20 44 41
20 44 41
20 44 40
20 44 41
20 45 41
20 44 41
20 44 41
20 44 40
20 45 41
20 45 42
20 44 40
20 45 41
20 44 40
20 44 40
20 44 40
20 44 41
20 45 41
20 45 41
20 45 41
21 46 42
20 44 40
20 43 40
20 45 41
20 44 41
20 45 41
20 44 40
20 45 42
20 44 40
20 45 41
20 44 41
20 45 42
20 44 41
20 45 41
20 45 41
20 45 42
20 44 40
20 44 41
21 46 42
20 45 41
20 45 42
20 45 41
20 44 41
20 44 41
20 44 40
20 44 40
20 44 40
20 45 41
20 44 40
20 44 40
20 44 41
20 45 41
20 44 41
20 44 41
20 44 41
20 45 41
20 44 41
20 44 41
18 41 38
19 42 39
19 43 40
19 42 39
19 43 40
19 43 40
19 43 39
19 43 40
19 43 40
19 43 39
19 42 39
19 42 39
19 43 40
19 44 40
19 43 40
19 43 40
19 43 40
20 44 41
19 43 40
19 43 40
19 42 39
19 43 40
19 43 40
20 44 41
20 44 41
19 43 40
19 43 40
19 43 40
19 43 40
19 42 39
19 44 40
20 44 40
20 44 40
19 43 39
20 44 41
19 43 40
20 44 41
19 44 40
20 44 41
20 44 41
20 44 41
19 43 40
20 44 41
19 43 40
20 44 40
20 44 40
19 42 39
19 43 40
19 43 40
19 43 40
20 45 42
20 44 40
20 44 40
20 44 41
19 43 40
20 45 41
20 44 41
20 44 40
20 44 40
20 45 41
20 44 41
20 44 40
20 45 41
20 44 41
20 45 41
20 44 41
20 45 41
20 45 42
20 45 41
20 45 41
20 44 40
20 44 41
20 45 41
20 45 41
20 45 41
20 45 41
20 44 41
20 44 40
20 45 41
20 44 40
20 44 41
20 45 41
20 45 42
20 45 41
20 45 41
20 44 40
20 45 41
20 45 41
20 45 41
20 45 41
20 45 42
20 45 42
20 44 41
20 45 41
20 45 41
21 46 42
20 45 41
20 45 41
20 45 41
20 45 41
21 46 42
20 45 42
20 45 42
20 45 41
20 44 40
20 45 41
21 46 42
21 46 42
21 46 42
20 45 42
20 45 41
20 44 41
20 45 41
20 45 41
20 44 41
20 45 41
20 45 41
20 45 41
20 45 42
20 45 41
19 43 39
19 43 39
19 42 39
19 42 39
20 44 41
19 43 40
19 42 39
19 43 39
19 43 40
19 43 39
19 43 40
20 44 40
19 44 40
19 43 40
20 44 40
20 44 40
19 43 40
19 43 40
20 44 41
20 44 41
20 44 41
19 43 40
20 44 41
20 45 41
19 43 40
19 43 40
20 45 42
19 43 40
20 44 40
20 44 40
20 44 40
20 44 40
20 44 41
20 45 41
20 45 41
20 45 41
20 44 41
19 43 40
19 43 40
20 44 41
20 44 40
20 44 41
20 45 41
19 43 40
20 44 40
20 45 41
20 44 41
20 44 41
21 46 42
21 46 42
20 44 40
20 44 41
20 44 40
20 44 41
20 45 42
20 45 41
20 44 41
20 44 40
20 44 41
20 45 41
21 46 42
20 45 41
20 45 41
20 44 40
20 44 41
20 45 41
21 46 42
20 44 40
20 45 41
20 45 42
20 45 41
20 45 41
20 45 41
20 45 41
21 46 42
21 46 42
21 46 42
20 44 41
21 46 42
21 46 42
20 44 40
21 46 42
20 45 42
21 46 42
20 44 41
21 45 42
20 45 41
20 45 41
20 45 42
21 46 42
20 45 41
21 46 42
21 47 43
21 46 42
20 45 41
21 46 42
19 43 40
21 46 42
21 46 42
20 45 41
20 45 41
20 45 41
20 45 41
20 45 42
21 46 42
21 46 42
21 46 42
20 45 41
21 47 43
21 46 42
21 46 42
21 46 42
21 45 42
21 45 42
20 45 41
20 44 40
21 46 42
21 46 42
20 45 41
21 45 42
20 44 40
19 43 40
19 43 40
20 44 41
19 43 40
19 43 40
19 43 40
19 43 40
19 42 39
19 43 40
19 43 40
20 44 41
19 43 40
20 44 40
19 43 40
19 43 40
20 44 41
19 43 40
20 44 40
20 45 41
20 44 40
19 43 40
20 44 41
19 44 40
20 44 40
19 44 40
20 44 40
20 44 41
20 43 40
20 44 41
20 45 41
19 43 40
20 44 41
20 44 41
20 44 41
20 44 41
20 45 41
20 44 41
20 44 41
20 44 41
20 45 41
20 45 41
20 45 41
20 44 40
20 44 41
20 44 41
20 45 41
20 44 41
20 44 40
20 45 41
20 45 42
20 44 41
21 46 42
20 44 41
20 44 41
21 46 42
20 45 41
20 45 42
20 45 41
21 46 42
20 44 40
20 45 41
21 46 42
20 44 41
21 46 42
21 47 43
20 45 41
20 45 41
20 45 41
20 45 42
21 46 42
21 46 42
20 45 41
20 45 41
20 45 41
20 45 41
21 46 42
20 44 41
21 46 42
20 45 41
21 46 42
21 46 42
21 46 42
20 45 41
20 45 41
21 46 42
21 46 42
21 46 42
21 47 43
21 46 42
20 45 41
21 46 42
21 46 42
21 46 42
20 45 41
21 46 42
21 46 42
21 47 43
20 45 41
21 46 42
21 46 42
21 46 42
20 45 41
21 47 43
21 46 42
21 46 42
20 45 41
21 46 42
21 47 43
21 46 42
20 45 41
21 46 42
21 46 42
21 46 42
21 47 43
21 46 42
21 46 42
20 45 41
20 45 41
21 45 42
19 43 40
20 44 41
20 44 40
20 44 40
19 43 40
19 42 39
20 44 40
19 43 40
20 44 41
20 44 40
20 44 41
19 43 39
20 44 41
19 43 40
20 44 40
19 43 39
19 43 40
20 44 40
19 43 40
20 44 41
20 44 41
20 44 40
20 44 41
20 44 40
20 44 41
20 44 41
20 45 41
20 45 41
20 44 40
19 43 40
20 44 40
20 44 41
20 45 42
20 44 41
21 46 42
20 44 41
20 44 41
20 45 41
21 45 42
20 44 40
20 45 41
20 45 42
20 45 41
21 46 42
20 45 42
20 45 41
20 45 41
20 45 42
20 45 41
20 45 41
20 44 41
20 44 41
20 45 42
20 45 42
20 45 41
20 45 41
20 45 41
20 45 41
20 45 41
20 45 41
21 45 42
20 45 41
21 46 42
21 46 43
21 46 42
20 45 41
21 46 42
21 46 42
21 46 42
21 46 42
21 47 43
21 45 42
21 47 43
21 46 42
20 45 41
20 45 41
21 47 43
21 46 42
21 46 42
21 47 42
21 46 42
21 46 42
21 47 43
21 46 42
21 47 43
21 47 43
21 46 42
21 46 42
21 47 43
21 46 42
21 46 42
21 47 43
21 47 43
21 46 42
21 46 42
21 46 42
21 46 42
21 46 42
21 46 42
21 47 43
21 47 43
21 45 41
21 46 42
21 47 42
21 47 43
21 47 43
21 47 43
21 46 42
22 47 43
21 47 43
22 48 43
21 47 43
21 46 42
21 47 43
21 46 42
22 48 44
21 46 42
21 46 42
22 48 43
21 46 42
19 43 40
19 43 40
20 44 40
20 44 40
19 43 40
20 44 41
19 43 40
19 42 39
19 43 40
19 42 39
20 45 41
19 43 39
20 44 41
20 44 40
20 44 40
20 44 41
20 44 40
20 44 41
20 45 41
20 45 41
20 44 41
20 44 41
20 45 41
19 43 40
20 44 40
20 45 41
19 43 40
19 43 40
20 46 42
20 44 41
20 44 40
20 45 41
20 45 41
20 44 40
21 46 42
20 45 41
20 45 41
20 45 41
20 44 41
20 45 41
20 45 41
20 44 40
20 45 42
21 46 42
20 45 42
21 46 42
20 45 42
20 45 41
20 45 41
21 46 42
21 46 42
20 45 41
21 46 42
21 47 43
21 46 42
20 45 41
20 45 41
21 46 42
21 46 42
20 45 41
21 46 42
21 46 42
21 47 43
21 46 42
21 46 42
21 46 42
21 45 42
21 46 42
21 46 42
20 45 41
21 46 42
21 47 42
20 45 41
21 46 42
21 46 42
21 46 42
21 45 41
21 46 42
21 47 43
21 47 43
21 47 43
20 45 41
21 47 43
21 47 43
22 48 43
21 46 42
21 47 43
21 47 43
21 47 43
21 47 43
21 47 42
21 47 43
21 47 43
21 46 42
21 47 43
21 47 43
21 46 42
21 46 42
21 47 43
21 47 43
21 47 43
21 47 43
21 47 43
21 47 43
22 48 43
21 47 43
22 48 44
22 48 44
22 48 44
21 47 43
21 47 43
21 47 43
21 47 42
22 48 44
22 48 43
21 47 43
22 47 43
22 47 43
21 46 42
21 47 43
20 44 40
20 44 41
20 44 40
20 44 41
20 44 40
20 44 41
20 44 40
20 45 42
19 43 40
20 44 41
20 44 40
19 43 39
20 44 40
20 44 41
20 44 40
19 43 40
20 44 40
20 44 41
20 45 41
20 45 41
20 44 40
20 45 42
20 45 41
20 44 40
20 45 41
20 45 41
20 45 41
20 44 41
20 45 41
20 44 41
20 44 40
20 45 42
20 44 41
20 45 42
20 44 41
20 43 40
20 44 41
20 45 41
21 46 42
20 45 41
20 45 42
20 45 41
20 45 41
20 45 41
21 46 42
20 45 41
21 47 43
21 46 42
21 45 42
21 45 42
20 45 41
21 46 42
21 46 42
21 46 42
21 46 42
21 46 42
21 47 43
21 47 43
21 46 42
20 45 41
21 46 42
21 46 42
21 46 42
21 46 42
21 47 43
21 47 42
21 46 42
21 47 43
21 47 43
21 46 42
21 46 42
22 48 44
21 47 42
21 47 43
21 47 43
21 46 42
21 46 42
22 48 43
21 47 43
21 47 43
21 46 42
21 47 43
22 48 44
21 47 43
22 48 44
22 48 43
21 47 43
21 47 42
22 48 44
21 47 43
22 48 43
21 47 43
22 49 44
21 47 42
22 48 43
21 47 43
22 47 43
21 47 43
22 48 43
22 48 43
21 47 43
22 48 43
21 47 43
22 48 44
22 47 43
22 48 44
22 47 43
21 47 43
22 47 43
21 47 43
22 49 44
22 48 44
21 47 42
21 47 43
22 48 44
22 47 43
22 48 43
22 48 44
22 48 43
22 48 43
19 43 40
19 43 40
19 43 40
20 44 40
20 44 41
20 44 40
19 43 40
20 44 41
20 43 40
20 44 41
20 45 41
20 44 40
20 44 40
20 45 41
20 44 40
20 45 41
20 44 41
20 45 41
19 43 40
20 45 41
20 45 41
20 44 41
21 46 42
20 45 42
20 45 42
20 45 42
20 44 40
21 46 42
20 44 41
20 45 41
20 45 42
20 45 41
20 45 41
21 46 42
20 44 40
21 46 42
20 45 41
20 45 41
20 45 41
20 45 41
20 45 41
20 44 40
20 45 41
20 45 41
20 45 41
21 46 42
20 45 41
21 47 43
20 45 41
21 46 42
21 47 43
21 46 42
21 46 42
21 46 42
21 46 42
21 46 42
21 46 42
21 46 42
21 46 42
21 47 43
21 46 42
21 46 42
21 46 42
21 46 42
21 46 42
20 45 41
21 47 43
21 46 42
22 49 44
22 48 44
21 47 43
22 48 44
21 47 43
22 48 44
21 46 42
21 46 42
21 47 43
21 46 42
22 47 43
21 46 42
21 47 43
21 47 43
22 48 43
22 48 44
21 47 43
22 48 44
22 48 43
22 48 44
22 48 44
21 47 43
22 48 44
22 48 44
22 49 45
22 49 44
22 49 45
21 46 42
22 48 43
22 47 43
22 47 43
22 48 43
21 47 42
22 47 43
21 47 43
21 47 43
21 47 43
22 47 43
21 47 43
22 48 43
22 48 44
22 47 43
22 48 44
22 49 44
22 49 44
22 48 43
22 48 43
22 49 45
22 49 44
22 48 43
22 48 44
21 47 43
20 44 41
20 44 41
19 43 39
20 44 40
20 44 41
20 44 40
20 45 41
20 45 42
20 44 41
20 44 40
20 45 41
20 44 41
20 44 40
20 46 42
20 46 42
20 44 41
20 45 41
21 46 42
20 45 41
20 45 41
21 46 42
20 45 41
20 45 41
20 45 41
20 45 41
20 45 42
21 45 42
21 46 42
21 46 42
20 44 41
20 45 41
20 45 42
20 45 41
21 45 42
21 46 42
20 45 41
21 46 42
21 46 42
20 45 41
21 47 43
21 46 42
21 46 42
21 46 42
21 46 42
21 47 43
20 45 41
21 47 43
21 46 42
20 45 41
21 47 43
21 47 43
21 46 42
21 46 42
21 46 42
21 47 43
21 46 42
21 47 43
21 46 42
21 47 43
21 46 42
21 47 43
21 46 42
22 48 43
21 46 42
22 48 43
21 47 43
21 47 43
22 48 43
21 46 42
22 48 44
21 47 43
22 48 44
22 47 43
22 48 43
22 48 44
22 48 43
21 46 42
22 48 43
22 48 43
22 47 43
22 47 43
22 47 43
22 48 44
22 48 43
21 46 42
22 48 44
22 48 43
22 47 43
22 48 44
22 49 44
21 47 42
22 49 44
22 48 43
22 48 43
22 48 44
22 48 43
22 48 43
21 47 43
22 48 44
22 49 44
22 48 44
22 48 44
22 49 44
21 47 43
22 49 44
22 49 44
22 48 44
22 49 44
22 48 43
22 48 43
22 48 43
22 49 44
22 49 45
23 50 45
22 48 44
22 49 45
22 48 43
22 49 44
22 48 43
22 49 44
20 44 40
21 46 42
20 44 41
20 44 40
20 45 41
20 45 41
20 44 41
20 45 41
20 44 40
20 45 41
20 45 41
20 45 41
20 44 41
20 44 40
20 45 41
20 45 41
20 45 41
20 44 41
21 46 42
20 45 41
21 46 42
20 44 41
20 45 41
20 45 41
21 46 42
20 45 41
20 44 41
21 46 42
20 44 40
20 45 41
20 44 40
21 46 42
21 46 42
21 46 42
21 47 43
20 45 41
21 46 42
21 46 42
21 46 42
21 47 43
21 47 43
21 47 43
21 47 43
21 47 43
21 47 43
21 46 42
21 45 42
21 47 43
21 47 43
21 46 42
22 48 44
21 47 43
21 46 42
21 46 42
21 47 43
21 47 43
21 47 43
22 48 43
22 48 43
21 47 43
21 46 42
21 47 42
22 47 43
22 48 44
21 47 43
21 47 42
21 47 43
21 47 42
22 48 43
21 47 42
21 47 43
22 48 44
21 46 42
21 47 43
21 47 43
22 47 43
21 47 43
21 47 43
22 48 43
22 48 43
22 49 44
22 49 44
22 49 44
22 49 44
22 48 43
22 49 44
22 48 44
22 48 44
22 49 44
22 49 44
22 48 44
22 48 44
22 49 44
21 47 43
22 48 44
22 48 44
22 49 44
22 48 43
22 48 43
22 49 45
22 49 44
22 48 44
22 49 44
22 48 44
22 48 44
22 48 43
22 49 44
22 48 43
23 50 45
22 49 44
22 48 44
21 47 43
22 49 44
23 49 45
22 48 44
22 49 44
22 48 44
22 48 44
22 49 44
22 49 44
20 44 40
21 46 42
20 44 40
20 44 41
20 45 42
20 44 41
20 44 40
20 45 41
20 45 41
20 44 41
20 45 41
20 45 41
20 44 40
20 45 42
20 45 42
20 45 41
20 44 41
20 45 42
21 46 42
20 45 42
20 45 41
20 45 41
21 46 42
20 44 41
21 46 42
20 46 42
20 45 41
20 45 41
21 46 42
21 46 42
21 46 42
21 46 42
21 47 43
21 45 42
20 45 41
21 46 42
21 46 42
21 46 42
21 47 43
21 46 42
21 46 42
21 46 42
21 47 43
21 46 42
21 46 42
21 46 42
21 47 43
21 46 42
21 46 42
21 47 43
21 45 41
21 47 43
21 46 42
21 47 43
21 47 43
21 47 43
21 47 43
21 47 43
21 47 43
22 48 44
21 47 43
21 47 42
21 47 43
21 46 42
22 48 43
21 47 43
21 47 42
22 48 44
22 47 43
22 48 44
22 48 43
22 48 43
22 47 43
21 47 43
22 47 43
22 48 44
21 47 43
22 48 44
22 48 43
22 49 44
22 48 44
22 48 44
22 49 45
22 48 43
21 47 43
22 48 44
22 47 43
22 48 43
22 48 43
22 48 44
23 49 45
22 48 44
22 48 44
22 48 43
22 48 44
22 49 44
22 48 43
22 48 43
22 49 44
22 48 44
23 49 45
23 50 46
22 49 45
22 48 44
23 50 45
22 49 44
22 48 44
23 50 45
22 49 44
22 49 44
22 49 44
22 49 45
22 49 44
22 49 45
22 49 44
23 49 45
22 49 45
22 48 44
22 47 43
23 50 45
20 44 41
20 44 41
20 45 41
20 45 41
21 46 42
20 44 40
20 45 41
20 45 41
20 44 40
20 44 41
21 46 42
20 44 40
20 45 41
20 46 42
20 45 42
20 45 41
20 45 41
20 44 41
21 46 42
20 45 41
21 46 42
21 46 43
21 47 43
21 45 42
20 45 41
20 45 41
21 46 42
21 46 42
21 47 43
21 46 43
20 45 41
20 45 41
21 46 42
21 46 42
20 45 41
21 46 42
21 46 42
21 45 41
21 47 43
21 47 43
21 46 42
21 46 42
21 47 43
21 46 42
21 46 42
21 46 42
21 46 42
21 46 42
21 47 43
21 47 43
21 46 42
21 46 42
21 46 42
21 46 42
21 47 42
22 47 43
22 48 44
21 47 43
21 47 43
22 48 44
22 48 43
22 48 43
22 48 44
22 49 44
22 48 44
21 47 43
22 48 44
22 48 44
22 48 44
21 47 43
22 47 43
22 48 43
22 48 44
22 48 44
22 48 44
21 47 43
22 48 44
22 48 43
22 48 43
22 48 43
22 49 44
22 49 44
22 49 45
22 49 44
22 48 43
22 49 44
22 48 43
22 49 44
22 48 44
22 49 45
22 48 44
22 48 44
22 49 44
23 50 45
23 49 45
23 49 45
22 47 43
23 50 45
22 49 44
23 50 46
22 48 43
23 50 46
23 50 45
23 50 45
22 49 44
22 49 44
22 49 44
23 50 45
23 51 46
22 49 44
22 49 45
22 49 45
23 49 44
22 49 45
23 51 46
22 49 44
22 49 44
23 50 46
23 50 45
24 52 47
20 45 41
20 45 41
20 45 41
20 45 41
20 45 41
20 45 42
20 45 41
20 45 41
20 45 41
20 45 42
20 45 41
20 45 41
21 46 42
20 44 40
20 45 42
21 46 42
21 46 42
21 46 42
21 46 42
21 46 42
20 45 41
21 46 42
21 46 42
21 46 42
20 45 42
20 45 41
21 46 42
21 46 42
21 46 42
21 46 42
21 47 43
20 45 41
21 47 43
20 45 41
21 46 42
21 46 42
20 45 41
21 47 43
20 45 41
21 47 43
21 46 42
21 47 42
21 47 43
21 47 43
21 47 43
21 47 43
21 46 42
21 46 42
21 46 42
21 46 42
21 47 43
22 48 43
22 48 44
21 47 43
22 48 44
22 48 44
21 47 43
21 47 43
21 47 43
22 48 44
22 48 43
22 48 43
48 61 56
97 91 82
108 79 70
48 49 44
22 48 43
22 47 43
21 47 43
22 48 44
22 48 43
22 49 44
22 48 44
22 47 43
22 47 43
22 48 44
22 48 44
22 49 44
22 48 44
22 49 44
22 48 43
22 48 44
22 49 44
22 49 44
22 49 44
23 50 45
22 49 44
22 48 44
22 48 44
23 50 46
23 50 45
22 49 44
22 49 45
23 50 45
22 48 44
22 49 44
23 50 45
23 49 45
22 49 45
22 49 44
23 50 45
22 49 44
22 49 44
22 48 43
23 50 45
23 50 45
23 50 45
23 50 45
23 50 45
22 49 44
23 50 45
23 50 45
22 49 44
23 49 45
23 50 45
23 49 45
22 49 44
22 49 44
23 50 45
23 50 45
20 45 41
20 44 41
20 45 41
20 44 41
20 45 41
20 46 42
21 46 42
20 45 42
21 46 43
21 46 42
20 45 41
20 45 41
20 45 41
21 46 42
20 44 41
21 46 42
21 46 42
21 46 42
20 45 41
21 46 42
21 46 42
21 45 42
21 46 42
21 46 42
21 46 42
21 47 43
21 47 43
21 46 42
21 46 42
20 45 41
21 47 43
21 46 42
21 47 43
21 47 42
21 47 43
21 47 43
21 46 42
21 46 42
21 47 43
21 47 43
21 47 43
21 47 43
21 47 43
21 47 43
21 46 42
21 46 42
21 46 42
21 47 43
21 47 43
21 47 43
22 48 43
21 46 42
21 47 43
21 47 42
21 47 42
21 47 43
21 46 42
22 48 44
21 47 43
21 47 43
21 47 43
117 109 102
199 126 113
219 86 68
234 83 61
225 80 59
103 55 46
22 48 44
22 49 44
22 48 44
22 49 44
22 48 43
21 47 43
22 49 45
22 49 45
23 50 46
22 48 43
22 48 44
22 48 44
22 48 44
22 49 44
22 49 45
22 49 44
22 49 44
23 49 45
22 49 44
22 49 44
22 48 44
22 49 44
23 49 45
22 49 44
22 49 44
22 49 44
22 49 45
23 50 45
23 50 45
22 49 44
22 49 44
23 50 45
23 49 45
22 49 44
23 50 45
23 50 45
22 49 44
23 50 45
22 49 44
22 49 44
23 49 45
23 50 45
23 50 45
23 50 45
23 50 45
22 49 44
22 49 44
23 50 45
23 50 45
23 50 45
23 50 45
24 51 46
23 51 46
20 44 41
20 45 41
20 44 41
20 45 42
20 45 41
20 45 41
21 45 42
20 45 42
20 45 41
20 44 41
20 45 41
20 45 41
20 44 40
21 46 42
21 46 42
21 46 42
21 46 42
20 45 41
21 46 42
21 47 43
21 46 42
21 46 42
21 47 43
21 46 42
21 47 43
21 46 42
21 47 43
21 46 42
21 46 42
21 46 42
21 47 43
21 46 42
21 46 42
21 47 43
22 47 43
21 47 43
21 47 43
21 47 43
21 46 42
21 46 42
21 46 42
22 48 44
21 46 42
21 46 42
21 47 43
22 48 43
21 47 42
21 47 42
21 47 43
22 48 43
21 47 43
21 47 43
21 47 43
22 48 43
23 49 45
21 47 43
21 47 43
22 48 44
22 48 44
21 47 43
84 79 74
168 86 75
191 65 47
206 69 50
223 81 60
255 128 102
224 75 54
61 50 44
22 49 44
22 48 43
22 48 43
22 48 44
23 50 45
22 49 44
22 49 45
23 50 45
22 49 45
22 49 44
22 48 44
22 49 44
23 50 45
22 49 44
22 48 44
21 46 42
22 48 44
22 49 44
22 49 45
23 50 45
22 49 44
22 49 44
23 50 45
23 49 44
23 50 45
22 49 44
23 51 46
22 48 44
22 49 45
23 50 45
23 51 46
23 50 46
23 49 45
22 49 44
23 50 45
23 50 45
23 50 45
23 50 45
23 50 45
23 49 45
23 50 45
23 50 45
23 50 45
22 49 44
23 49 45
23 49 44
23 49 45
23 50 45
23 50 45
23 50 45
23 49 44
23 50 45
21 46 42
20 45 42
20 45 41
20 45 42
20 45 41
21 46 42
20 44 40
20 45 41
20 45 41
20 45 41
21 46 42
20 45 41
21 46 42
21 46 42
21 47 43
21 47 43
21 47 43
20 45 42
21 46 42
21 47 43
20 45 41
20 45 42
20 45 42
20 45 41
21 46 42
21 47 43
21 46 42
21 46 42
21 46 42
21 46 42
21 47 43
21 47 43
21 46 42
21 46 42
20 45 41
20 45 41
21 46 42
21 47 43
21 47 43
22 48 43
21 46 42
22 48 44
21 46 42
21 46 42
21 47 43
21 47 43
21 46 42
22 48 44
22 48 44
22 48 44
21 47 42
21 47 43
22 48 43
22 48 44
22 48 43
22 48 44
22 48 43
22 48 43
22 47 43
21 47 43
103 82 76
144 75 65
159 54 40
180 61 44
195 83 67
208 128 112
212 133 115
115 68 57
22 49 44
22 48 44
22 48 44
22 49 45
22 48 44
22 49 45
39 56 51
138 129 119
185 168 154
182 165 151
120 114 103
22 49 44
23 49 45
22 48 44
22 48 44
22 49 44
23 50 46
22 49 45
22 48 44
22 49 44
22 49 44
23 49 45
23 50 45
22 48 44
22 48 44
22 49 44
23 50 45
23 50 45
23 50 45
23 50 45
56 55 47
93 64 49
69 58 48
22 49 44
23 50 45
23 50 45
22 49 44
22 49 44
22 49 44
22 49 44
22 49 44
23 50 45
23 50 46
23 50 45
23 50 45
23 50 45
23 51 46
23 51 46
23 51 46
23 50 46
22 49 44
23 50 45
20 45 41
20 45 41
21 46 42
20 44 40
20 45 41
21 46 42
21 46 42
20 45 41
20 45 42
21 46 43
20 45 41
20 45 42
20 45 41
21 46 42
21 46 42
20 45 42
21 46 42
21 47 43
21 46 42
21 47 43
21 46 42
21 46 42
21 46 42
21 46 42
20 45 41
21 46 42
21 47 43
21 46 42
21 47 43
21 46 42
21 47 43
21 45 41
21 46 42
21 46 42
21 47 43
21 46 42
21 46 42
21 46 42
22 47 43
21 46 42
21 47 42
21 47 43
21 47 43
21 47 42
21 46 42
22 48 43
22 47 43
22 48 44
22 49 44
22 48 44
22 48 44
22 48 43
22 47 43
22 47 43
22 48 43
21 47 43
22 48 44
22 48 44
21 47 43
22 48 44
89 83 76
112 94 87
137 54 43
144 103 94
153 135 124
165 147 132
174 152 135
121 110 98
22 48 43
22 48 43
22 49 44
22 48 43
23 50 45
60 67 62
175 161 151
201 183 171
209 190 177
230 208 191
253 227 205
176 159 143
26 52 47
22 49 44
22 49 44
22 48 43
23 50 45
22 48 43
22 49 44
23 50 45
22 49 44
22 49 44
23 50 45
23 51 46
23 50 45
22 49 44
23 50 45
23 50 45
34 55 50
144 123 110
226 114 73
243 119 72
255 138 92
217 109 69
84 70 60
23 50 45
23 50 45
23 50 45
23 50 45
23 50 45
23 51 46
23 51 46
23 50 45
23 51 46
23 49 44
23 50 45
22 49 44
22 49 44
23 50 45
23 51 46
23 49 45
23 51 46
20 45 41
20 45 41
20 44 41
20 45 42
20 45 41
21 46 42
20 45 42
20 45 42
21 46 42
21 46 42
21 46 42
21 46 42
20 45 41
21 47 43
21 46 42
21 46 42
21 46 42
20 45 41
21 46 42
21 46 42
20 45 41
21 46 42
21 46 42
21 45 42
21 47 43
21 46 42
21 45 42
21 47 43
21 46 42
21 47 43
21 46 42
21 46 42
21 46 42
21 47 43
21 47 43
22 48 44
22 47 43
21 45 42
20 45 41
21 46 42
21 47 42
22 48 44
21 47 43
22 49 45
21 47 43
22 48 44
21 47 43
21 47 43
22 48 44
21 47 43
22 48 44
22 47 43
22 48 44
22 48 44
21 46 42
21 47 43
21 47 43
22 47 43
21 46 42
21 46 42
80 71 65
95 75 68
102 77 69
108 100 91
101 94 86
109 98 87
129 113 99
71 73 64
22 48 44
22 49 44
23 49 45
22 48 44
22 48 43
92 86 89
139 125 126
150 136 136
151 133 135
153 133 136
172 148 147
139 113 124
57 54 68
22 49 44
22 48 44
22 49 44
22 49 44
22 48 44
22 49 45
22 49 44
22 48 44
22 48 44
22 49 44
22 49 44
22 49 44
23 50 45
22 47 43
23 49 45
131 122 114
201 142 121
215 105 63
224 110 66
250 140 98
243 155 123
201 178 161
43 59 54
23 51 46
22 49 44
23 50 45
23 51 46
23 49 45
23 50 45
23 51 46
23 50 45
23 50 45
24 52 47
23 50 45
23 51 46
23 49 45
23 51 46
23 51 46
23 50 45
20 44 40
21 46 42
21 46 42
20 45 41
21 46 42
20 45 41
21 46 42
20 45 41
20 45 41
20 45 41
21 46 42
20 45 42
20 45 41
21 46 42
21 46 42
20 45 42
21 46 42
21 46 42
21 46 42
21 45 41
21 47 43
20 45 41
21 46 42
21 46 42
21 47 43
21 46 42
21 47 43
21 46 42
21 46 42
21 47 43
21 46 42
21 46 42
21 46 42
21 46 42
21 47 43
21 47 43
21 46 42
21 47 43
21 47 43
21 47 43
21 46 42
21 47 43
21 46 42
22 48 43
21 46 42
21 47 43
21 46 42
21 47 43
21 47 43
21 47 43
21 47 43
22 48 44
21 47 43
22 47 43
22 48 43
21 47 43
21 47 43
22 47 43
21 47 43
21 46 42
23 42 38
56 32 27
46 48 41
50 52 45
52 52 44
50 50 39
59 59 51
23 49 44
21 47 42
22 48 43
22 48 44
22 49 44
23 48 44
58 41 66
63 44 73
66 46 77
69 47 79
73 50 82
78 52 85
82 54 86
68 53 74
22 49 44
22 49 44
22 49 44
22 49 44
23 50 45
23 50 45
23 49 45
22 49 44
22 49 44
23 50 45
22 49 44
23 50 45
23 50 45
23 49 45
44 60 55
155 141 132
179 95 65
186 97 65
201 99 61
207 101 62
199 163 146
205 183 166
127 118 106
23 50 45
22 49 44
23 49 45
23 50 45
23 50 45
23 50 45
23 50 45
23 50 45
23 51 46
23 50 45
23 50 45
23 51 46
23 50 45
23 50 45
23 50 45
23 51 46
20 45 41
20 46 42
21 46 42
21 46 42
21 46 42
20 45 41
20 45 42
21 46 42
20 45 41
21 47 43
20 45 41
21 46 42
21 47 43
20 45 41
20 45 42
20 45 41
21 46 42
21 46 42
21 46 42
21 46 42
21 47 43
20 45 41
21 45 41
21 46 42
21 46 42
21 46 42
21 46 42
21 46 42
21 46 42
21 47 43
22 48 43
21 46 42
21 47 43
21 47 43
22 47 43
21 47 43
21 47 43
21 46 42
21 47 42
21 47 43
21 46 42
22 48 43
21 47 43
21 46 42
21 46 42
21 47 42
22 47 43
21 47 43
21 46 42
21 47 42
21 47 42
21 47 43
21 47 43
21 47 43
21 46 42
21 47 42
21 46 42
19 41 38
17 37 34
16 37 34
16 35 33
12 26 24
11 21 17
14 22 17
22 28 21
33 37 29
26 45 40
21 46 41
21 46 41
21 46 42
21 46 42
22 48 44
24 48 44
49 35 56
52 36 59
57 39 65
57 39 65
56 38 63
61 41 68
67 44 71
57 45 62
22 48 43
23 50 45
22 49 44
22 49 44
23 50 45
23 50 45
22 49 44
22 49 44
22 49 44
23 50 45
23 50 45
22 48 44
23 50 45
23 49 45
65 71 66
131 112 103
128 91 78
128 118 110
141 100 85
165 93 68
158 143 132
167 150 137
136 125 113
23 49 45
22 49 44
23 49 45
23 50 45
23 50 45
23 50 45
23 50 45
23 51 46
29 52 47
61 70 64
54 66 59
23 49 45
23 50 45
24 52 47
22 49 44
24 51 46
21 46 42
20 45 41
21 46 42
20 44 40
20 44 41
21 46 42
21 46 42
21 46 42
21 46 42
21 46 42
21 47 43
20 45 42
21 46 42
21 47 43
21 46 42
21 46 42
21 47 43
21 47 43
21 46 42
20 45 42
20 45 41
20 45 41
21 46 42
21 47 43
21 46 42
21 47 43
20 45 41
21 47 43
21 47 43
21 47 42
21 47 43
21 47 43
21 47 43
21 47 43
21 46 42
21 47 43
21 46 42
21 47 43
21 46 42
21 47 43
21 46 42
21 47 43
22 47 43
21 47 43
22 47 43
21 47 42
21 47 43
21 47 43
21 47 43
22 48 44
21 46 42
21 46 42
22 47 43
21 47 43
22 48 44
21 47 43
20 45 41
20 44 40
17 39 36
16 37 35
16 37 34
15 32 30
14 31 29
15 32 29
16 35 32
19 40 35
21 45 40
21 45 40
21 47 42
22 47 42
22 48 44
22 47 43
22 48 43
36 32 43
42 29 47
40 28 45
44 30 49
40 28 46
43 29 48
43 30 47
37 43 48
22 49 44
22 48 44
22 48 43
23 50 46
22 48 43
22 48 43
22 49 44
23 50 45
23 50 45
23 50 45
22 49 44
23 50 45
22 49 44
22 49 44
61 67 61
115 85 72
104 92 84
88 81 74
95 87 80
120 85 71
120 110 101
120 110 101
85 85 77
23 51 46
23 50 45
23 49 44
23 50 45
22 48 44
23 51 46
24 49 45
121 113 105
199 180 166
229 207 190
240 216 196
177 161 146
57 67 60
23 51 46
23 51 46
23 49 45
21 46 42
21 46 42
21 46 42
20 45 42
20 45 41
21 46 42
21 47 43
21 46 42
20 45 41
21 46 42
20 45 41
20 45 42
21 46 42
20 45 41
21 45 42
21 47 43
21 46 42
21 46 42
21 46 42
20 45 41
21 46 42
21 46 42
21 47 43
21 46 42
21 47 43
21 46 42
21 47 43
21 46 42
21 46 42
21 47 43
21 47 43
21 46 42
21 46 42
21 47 43
21 46 42
21 45 41
22 48 43
22 48 44
22 48 44
22 47 43
22 48 43
21 46 42
21 47 43
21 46 42
21 47 43
21 47 43
21 47 43
21 47 42
21 46 42
21 47 43
21 46 42
22 48 44
21 47 43
22 47 43
22 47 43
22 48 44
22 47 43
22 47 43
21 46 42
21 47 43
21 47 42
21 47 42
22 48 43
21 47 42
21 46 42
21 46 42
21 46 42
21 47 42
21 46 42
22 48 44
22 47 42
22 48 43
21 47 42
22 39 37
38 38 35
23 25 26
28 30 30
25 30 28
36 38 32
50 51 44
24 47 42
22 48 44
22 47 43
22 47 43
22 47 43
22 48 43
22 49 44
22 48 43
22 49 45
23 50 45
22 49 44
22 49 44
22 48 43
23 50 45
22 49 44
32 54 49
66 53 45
79 59 49
74 67 59
85 67 57
76 58 47
86 81 72
86 81 73
41 57 51
24 51 46
22 49 44
23 50 45
22 48 44
22 49 44
23 48 44
86 82 78
194 177 166
198 181 170
204 187 174
221 201 185
219 197 181
196 176 160
54 65 59
23 51 46
23 51 46
21 46 42
20 45 42
21 46 42
21 46 42
20 44 40
20 45 41
21 46 42
20 45 41
20 45 41
20 45 41
21 46 42
21 46 42
20 45 42
20 45 41
21 46 42
20 45 41
21 45 42
21 46 42
21 45 41
21 46 42
21 46 42
20 45 41
21 46 42
21 46 42
21 47 43
21 47 43
21 46 42
21 46 42
21 46 42
21 46 42
21 46 42
21 46 42
21 46 42
21 46 42
21 46 42
21 47 43
22 47 43
22 48 44
21 47 43
21 47 43
21 46 42
22 48 44
22 48 44
21 47 43
21 46 42
22 48 43
21 47 43
22 48 44
22 48 43
21 47 43
21 47 43
21 46 42
21 46 42
21 47 43
22 48 43
22 47 43
22 48 43
21 46 42
21 47 43
22 48 44
22 47 43
22 48 43
22 48 43
21 47 43
22 48 43
22 48 44
21 47 43
22 47 43
21 47 42
21 46 42
19 42 39
18 39 36
17 38 35
16 35 32
12 25 23
9 18 15
11 21 16
19 25 19
23 32 25
21 44 39
21 46 41
21 46 41
22 47 42
22 47 43
22 48 43
22 48 43
22 49 44
22 49 44
22 48 43
22 49 44
22 48 43
22 49 44
22 48 43
22 48 43
22 47 42
21 46 41
30 40 36
28 20 12
25 18 9
36 22 12
26 30 22
36 40 32
49 57 50
22 48 43
22 48 43
22 48 43
23 50 45
23 50 45
22 49 44
25 39 39
126 117 111
169 156 148
175 162 153
182 168 158
187 172 162
192 175 163
198 178 164
141 130 117
23 50 45
23 51 46
20 45 42
20 45 41
20 45 41
21 46 42
20 45 41
20 45 42
20 45 41
21 46 42
20 45 42
21 46 42
21 46 43
21 46 42
21 46 42
21 46 42
20 45 41
21 46 42
21 46 42
20 45 41
21 47 43
21 46 42
21 45 41
21 46 42
21 46 42
21 46 42
21 46 42
20 45 41
22 48 43
21 46 42
21 46 42
21 47 43
21 46 42
21 46 42
21 46 42
21 46 42
22 48 44
21 47 43
21 47 43
21 47 43
21 47 43
21 46 41
22 47 43
21 47 43
21 47 43
21 47 42
21 47 43
22 47 43
21 47 43
22 48 44
22 47 43
22 48 44
21 47 43
21 47 42
22 48 43
22 48 43
21 47 43
21 47 43
22 48 43
21 47 43
21 47 43
22 48 43
22 47 43
21 46 42
21 47 43
21 47 42
22 47 43
21 46 42
21 47 42
22 48 43
21 46 42
20 44 40
17 39 37
16 36 34
14 33 31
14 32 30
12 28 27
10 24 22
11 25 23
13 28 26
16 36 32
20 43 38
21 44 39
21 46 42
22 47 43
22 47 43
22 48 44
22 49 44
22 48 43
22 48 43
22 49 44
22 48 44
22 48 43
22 48 43
21 47 42
20 43 39
17 37 34
13 30 29
12 27 26
9 18 17
8 11 9
9 11 8
9 16 14
13 27 24
19 41 36
21 46 41
21 46 41
23 49 44
22 48 43
22 48 43
22 48 43
22 27 29
112 105 99
152 141 133
155 143 135
149 139 131
161 149 141
159 147 138
162 148 137
137 125 114
23 50 45
23 49 44
21 46 42
20 45 41
21 46 42
21 46 42
20 45 41
20 44 40
20 45 41
21 46 42
21 46 42
21 45 41
21 46 42
20 45 41
20 45 42
21 46 42
21 46 42
21 47 43
21 46 42
21 46 42
21 46 42
21 46 42
21 47 43
21 47 43
21 46 42
21 46 42
21 46 42
21 46 42
21 46 42
21 46 42
21 46 42
21 46 42
21 47 43
21 47 43
21 47 43
21 46 42
21 47 43
21 47 43
21 46 42
22 48 43
22 48 44
21 47 43
21 47 43
21 47 43
22 47 43
21 46 42
22 48 43
21 47 43
22 48 43
21 47 43
21 46 42
21 47 43
22 47 43
22 47 43
21 47 42
21 47 42
22 48 44
22 48 44
21 47 42
21 46 42
22 48 43
21 47 43
21 47 43
21 46 42
22 48 44
21 47 43
22 48 43
21 47 43
22 47 43
22 48 43
22 47 43
21 47 43
21 46 41
21 46 42
21 47 42
21 46 41
21 45 41
21 45 41
22 47 43
22 47 43
21 46 42
21 46 42
21 47 43
22 48 44
22 47 43
22 48 43
22 48 44
22 48 43
22 49 44
22 48 44
23 50 45
22 48 43
22 48 44
21 47 42
22 49 44
21 46 41
20 43 39
19 41 38
17 39 36
16 36 33
15 34 32
15 34 32
17 37 34
18 40 36
21 45 40
21 47 42
22 48 43
22 48 43
22 48 43
23 49 44
23 50 45
19 24 25
60 57 54
127 117 109
125 116 108
138 128 119
136 126 117
135 124 116
128 119 110
97 92 85
22 49 44
22 48 44
21 46 42
20 44 41
21 46 42
21 46 43
21 47 43
21 46 42
20 45 41
21 46 42
20 45 41
21 46 42
21 46 42
21 46 42
20 45 41
21 46 42
21 46 42
21 46 42
21 47 43
21 46 43
21 46 42
21 47 43
21 46 42
21 47 43
20 45 41
21 45 41
21 45 42
21 46 42
21 47 43
21 46 42
21 46 42
21 46 42
21 47 43
21 47 43
22 48 44
21 46 42
21 47 43
21 47 43
21 46 42
21 46 42
21 46 42
21 46 42
22 48 43
21 47 43
22 47 43
21 47 43
22 49 44
21 47 43
21 47 43
21 47 42
22 48 43
21 47 43
21 46 42
22 48 44
22 48 44
21 47 43
22 48 44
21 47 43
22 48 44
21 46 42
21 47 43
22 48 44
21 47 42
22 48 44
21 47 43
22 48 43
21 47 43
22 48 44
22 47 43
22 47 43
21 47 42
21 47 43
22 48 43
22 48 43
22 48 44
22 48 43
21 46 42
21 47 43
22 48 43
22 48 44
21 47 42
22 48 43
22 48 43
22 47 43
22 49 44
22 48 43
22 48 43
22 48 44
22 49 45
22 48 44
22 48 43
22 48 44
21 47 42
22 49 44
22 49 45
22 48 44
22 48 43
22 48 43
22 48 43
22 48 43
22 48 44
22 49 44
22 47 43
22 49 44
22 47 43
22 48 43
22 48 44
22 48 43
22 49 44
22 48 43
22 48 43
16 26 25
16 18 19
84 79 73
98 92 84
110 102 94
109 102 93
108 101 93
97 91 83
57 60 55
23 50 45
22 49 44
21 46 42
20 45 41
20 45 41
21 47 43
21 45 42
21 46 42
21 45 42
21 46 42
21 46 42
21 46 42
20 45 41
20 45 41
21 47 43
20 45 42
20 45 41
21 46 42
21 46 42
21 46 42
21 47 43
20 45 41
21 47 43
21 46 42
21 46 42
21 46 42
21 47 43
21 47 43
22 47 43
21 47 43
21 47 43
21 46 42
21 45 42
21 46 42
21 46 42
21 47 43
21 46 42
21 46 42
21 45 41
21 46 42
21 47 43
22 48 43
21 46 42
21 47 43
21 46 42
22 48 43
21 46 42
21 47 43
21 47 43
21 47 43
21 47 43
22 47 43
21 47 43
21 47 43
21 47 43
21 47 42
21 47 43
21 47 43
22 49 44
22 48 44
21 46 42
22 48 43
21 47 43
22 48 43
21 47 43
22 48 44
22 47 43
22 48 43
21 47 42
22 49 45
22 48 43
22 49 44
22 48 44
22 48 43
22 48 44
22 48 43
22 49 45
22 48 44
22 48 44
21 47 43
22 47 43
21 47 43
22 48 43
22 48 44
22 48 44
22 47 43
21 47 43
22 49 44
22 48 44
21 47 43
22 48 44
22 48 43
22 48 44
22 49 44
22 48 44
22 49 44
22 48 44
22 49 44
22 49 44
21 47 42
22 48 43
22 47 43
22 47 43
22 48 44
22 48 43
22 48 43
22 48 43
22 48 44
22 49 44
23 50 45
22 48 43
20 42 38
9 14 14
19 19 18
42 41 37
59 57 51
70 67 60
62 60 54
50 48 44
22 46 42
22 49 44
22 48 43
20 45 41
20 44 41
21 46 42
21 46 42
21 46 42
21 46 42
21 46 42
20 45 41
20 45 42
21 48 44
21 47 43
21 47 43
20 45 41
20 45 41
21 46 43
21 46 42
20 45 41
21 46 42
21 45 42
20 45 42
21 46 42
21 46 42
21 46 42
21 46 42
21 47 43
21 46 42
21 46 42
21 46 42
21 46 42
21 47 43
21 46 42
21 46 42
21 47 43
21 47 43
21 46 42
20 45 41
20 45 41
22 48 43
21 46 42
22 48 43
22 48 44
21 47 43
21 46 41
21 47 43
21 47 43
22 47 43
22 48 43
21 46 42
21 47 43
21 47 42
21 47 43
22 48 43
22 48 43
21 46 42
21 46 42
22 48 44
22 48 44
22 49 45
21 47 43
22 49 44
22 48 44
21 47 43
22 48 44
22 48 43
22 48 43
22 47 43
21 47 43
21 47 43
21 47 43
21 47 42
21 46 42
22 48 43
22 49 44
22 47 43
22 48 44
22 48 43
22 48 43
22 48 43
22 48 43
21 47 42
22 48 43
22 48 43
22 48 44
22 48 44
22 49 44
22 49 44
21 47 43
22 47 43
22 47 43
22 47 43
22 48 43
22 48 43
22 48 44
22 48 43
22 49 45
22 49 44
22 49 45
22 49 44
22 47 43
22 49 44
22 49 45
22 48 43
22 49 44
22 47 43
22 48 43
21 46 41
22 47 42
22 47 42
21 45 40
19 41 37
13 29 26
2 4 4
1 4 4
2 4 4
2 5 4
7 15 14
19 41 36
21 46 41
22 47 42
23 49 44
20 45 41
21 46 42
20 45 42
21 46 42
20 45 42
20 45 42
20 45 41
20 45 41
21 46 42
20 45 41
21 46 42
20 45 41
20 45 41
21 46 42
21 46 42
20 45 41
21 45 42
20 45 41
21 47 43
21 46 42
21 46 42
21 47 43
21 46 42
22 48 44
21 47 43
20 45 41
20 45 42
21 47 43
21 46 42
21 46 42
21 47 43
22 48 44
21 47 43
21 46 42
21 46 42
21 46 42
21 46 42
21 47 43
21 46 42
21 46 42
21 46 42
21 46 42
21 46 42
20 44 41
21 47 43
21 46 42
21 46 42
21 46 42
21 47 43
21 47 43
21 47 43
21 46 42
21 46 42
21 47 42
21 46 42
21 47 43
22 49 44
21 47 43
22 48 44
21 47 42
21 47 42
21 47 42
21 46 42
22 49 45
22 47 43
22 49 44
22 48 43
22 47 43
21 47 43
22 48 44
22 48 44
22 48 44
21 47 43
21 47 43
22 48 44
21 47 43
22 48 44
22 49 44
22 48 43
22 47 43
22 48 44
22 49 44
22 49 44
21 47 43
22 48 44
22 48 44
22 49 44
22 49 44
21 47 42
22 47 43
22 48 44
22 48 44
23 51 46
22 48 43
22 48 43
22 48 44
22 49 45
22 49 44
22 48 44
22 48 43
22 47 43
22 48 44
22 48 43
22 49 44
22 48 44
21 47 42
21 45 41
19 42 38
14 32 30
12 29 27
10 24 23
8 18 17
7 17 16
5 12 11
7 17 17
10 23 22
17 37 33
20 44 39
21 46 41
22 47 42
21 46 42
20 45 41
21 46 42
20 45 41
20 45 41
20 45 41
20 45 42
21 45 42
21 46 43
20 45 41
20 45 41
21 46 42
21 46 42
21 46 42
21 46 42
20 45 41
20 45 41
20 45 41
21 46 42
21 47 43
21 45 42
21 46 42
21 47 43
20 45 41
21 47 43
21 46 42
21 47 43
21 46 42
21 47 43
21 46 42
21 46 42
22 48 44
21 46 42
21 46 42
20 45 41
21 46 42
21 46 42
21 46 42
21 47 43
21 47 43
21 46 42
21 47 43
21 47 43
21 46 42
21 47 43
21 47 43
21 46 42
21 47 42
21 47 43
21 47 43
21 47 43
22 48 44
21 47 43
22 48 44
21 47 42
22 48 43
21 47 42
21 47 43
21 47 43
22 48 44
21 46 42
21 47 43
22 49 44
21 47 42
21 46 42
21 47 43
22 48 43
22 48 44
22 48 43
21 46 42
21 47 43
22 48 44
21 47 43
22 48 43
22 49 44
22 48 43
22 48 43
21 47 43
22 47 43
22 47 43
21 47 43
22 48 43
22 49 44
22 47 43
22 49 44
22 48 43
22 49 44
22 48 43
22 48 43
22 48 44
22 49 44
22 47 43
22 49 44
22 48 44
22 48 44
22 48 44
22 48 43
22 49 44
22 48 44
22 48 44
22 49 45
22 48 43
22 48 44
21 47 43
22 49 44
22 48 43
22 48 43
21 45 41
19 42 39
17 38 35
16 35 33
15 34 32
14 33 31
14 32 30
15 34 32
17 37 34
19 41 37
21 46 41
21 46 41
21 47 42
21 46 42
20 45 41
21 46 42
20 45 41
20 45 41
20 45 41
20 44 41
20 45 41
20 45 41
21 46 42
20 45 41
20 45 41
21 47 43
21 45 41
21 46 43
21 46 42
21 46 42
21 47 43
21 46 42
21 46 43
20 45 41
21 46 42
20 44 40
20 45 41
21 46 42
21 46 42
21 46 42
21 46 42
21 46 42
21 46 42
21 47 42
21 46 42
21 46 42
21 46 42
21 46 42
21 46 42
21 46 42
21 47 43
21 47 42
21 47 43
21 47 43
22 48 44
21 47 43
21 47 43
21 47 43
21 47 43
22 48 43
21 47 43
21 47 43
21 46 42
22 48 44
21 47 43
21 47 43
21 47 43
21 46 42
21 47 43
21 47 43
21 46 42
22 48 43
21 47 43
22 48 43
21 46 42
21 47 43
21 47 43
21 47 43
21 47 43
21 46 42
22 47 43
21 47 43
21 47 43
22 48 43
21 47 43
22 48 44
22 48 44
22 48 43
22 48 43
21 47 43
22 48 44
22 47 43
22 48 44
22 49 44
22 48 43
21 47 43
22 48 44
22 48 44
21 47 43
21 47 43
22 48 44
22 47 43
22 49 44
22 49 45
22 49 44
22 48 43
22 48 43
22 48 43
22 47 43
22 49 44
22 47 43
22 47 43
22 48 44
22 49 44
22 49 44
22 48 43
22 48 43
22 48 43
22 48 44
22 49 44
22 48 44
22 48 44
22 48 43
22 47 43
22 48 44
21 47 42
22 48 44
22 48 43
22 48 43
22 48 43
22 49 44
22 48 43
22 49 44
20 44 40
21 46 42
20 45 41
20 45 42
20 45 42
21 46 42
20 44 41
20 45 41
20 45 41
21 46 42
20 45 41
21 47 43
21 47 43
20 45 41
21 46 42
20 45 41
21 46 42
21 46 42
20 45 41
20 45 41
21 45 42
21 46 42
21 46 42
20 45 41
21 46 42
21 46 42
20 45 41
21 45 41
21 46 42
21 46 42
21 47 42
20 45 41
22 48 44
22 48 43
21 46 42
21 46 42
21 47 42
21 46 42
21 47 43
21 47 43
21 47 43
21 47 43
21 47 43
21 47 43
21 47 43
21 46 42
22 47 43
21 46 42
21 47 43
21 46 42
21 47 43
21 47 43
21 47 42
21 47 43
21 46 42
22 47 43
21 46 42
21 47 42
22 47 43
22 47 43
21 47 43
21 47 43
22 48 44
21 46 42
22 48 43
22 47 43
21 47 43
21 46 42
21 47 43
21 47 43
22 49 44
22 47 43
22 48 43
21 47 42
21 46 42
22 47 43
22 48 44
21 47 43
21 47 42
22 48 44
21 47 43
22 48 44
22 48 43
22 48 43
22 49 44
22 48 43
22 47 43
21 47 43
22 48 44
22 47 43
22 49 45
22 48 44
21 47 43
22 48 44
22 48 44
22 49 44
22 48 44
22 48 43
21 47 43
22 47 43
22 48 44
22 48 43
22 49 44
22 48 43
22 47 43
22 48 44
23 50 45
22 48 43
22 48 44
22 48 44
22 48 43
22 47 43
22 48 43
22 49 45
22 49 44
22 49 45
22 47 43
22 48 43
23 49 45
22 47 43
20 45 41
20 45 41
21 46 42
21 45 42
21 46 42
20 45 41
20 45 41
20 45 41
21 47 43
20 45 42
21 46 42
20 45 41
20 45 42
21 46 43
21 46 42
20 45 41
20 45 41
20 45 41
21 46 42
21 46 42
21 46 42
21 46 42
21 46 42
20 45 41
21 46 42
21 46 42
21 46 42
21 47 43
21 46 42
21 46 42
21 47 43
21 46 43
21 47 43
21 47 43
21 46 42
21 46 42
21 46 42
21 46 42
21 47 43
21 46 42
21 47 43
21 47 43
21 47 43
21 46 42
21 47 42
22 48 43
21 47 43
21 46 42
21 46 42
21 47 43
21 46 42
21 46 42
21 47 43
22 48 43
21 46 42
21 46 42
21 47 43
21 47 43
22 47 43
21 47 43
22 47 43
22 49 44
21 46 42
22 47 43
22 47 43
21 47 42
21 46 42
22 48 44
22 48 43
21 47 42
22 48 43
21 47 43
22 47 43
21 47 43
21 46 42
22 48 44
21 46 42
21 47 43
22 49 44
21 47 43
22 48 43
22 48 43
22 48 44
21 47 43
21 47 43
22 48 44
23 50 46
22 48 44
22 48 44
21 47 43
22 47 43
21 47 43
22 48 44
22 49 45
22 48 44
22 48 43
22 49 45
21 47 42
22 49 45
22 48 43
22 48 43
22 48 43
22 48 43
22 48 44
22 48 44
22 48 43
22 49 44
22 49 44
22 49 44
22 49 44
22 48 44
22 48 44
22 48 43
22 49 44
22 49 44
21 47 43
21 47 42
22 48 44
22 48 44
22 48 43
20 45 41
19 43 40
20 45 41
21 46 42
20 45 41
21 45 42
21 45 42
20 45 41
21 46 42
21 46 42
21 46 42
20 45 41
21 46 42
20 45 41
20 45 41
20 45 42
21 47 43
21 46 42
21 46 42
21 46 43
21 46 42
21 47 43
20 45 41
21 46 42
21 45 41
20 45 41
21 47 43
21 46 42
21 46 42
21 46 42
21 46 42
21 46 42
21 47 43
21 46 42
21 47 43
20 45 41
21 46 42
21 46 42
21 46 42
21 46 42
21 46 42
21 47 43
21 46 42
22 48 44
21 46 42
21 46 42
21 46 42
22 48 44
21 47 43
21 47 43
21 47 42
21 46 42
21 47 43
21 47 43
21 47 42
22 48 44
21 47 43
21 47 43
21 47 43
21 47 43
21 47 42
21 47 43
21 46 42
21 47 43
21 46 42
21 46 42
21 47 43
21 47 43
22 48 44
22 48 43
21 46 42
22 47 43
22 48 44
21 47 42
21 47 43
22 47 43
21 47 43
22 48 44
22 48 43
21 47 43
22 48 44
22 49 45
22 49 44
22 49 45
22 48 43
21 47 42
22 48 43
21 47 42
21 46 42
22 49 44
21 46 42
22 48 44
22 49 45
22 49 44
22 48 44
21 47 43
22 48 44
21 47 43
21 46 42
22 47 43
22 48 44
22 48 44
22 49 44
22 48 43
22 48 43
22 49 44
22 48 43
22 48 44
22 48 44
22 48 44
22 49 45
22 48 44
21 47 43
22 48 44
21 46 42
22 49 44
22 48 44
21 47 42
23 49 45
22 48 43
20 45 41
21 46 42
21 46 42
21 46 42
20 45 41
21 46 42
20 45 41
21 46 42
20 45 41
20 45 42
20 45 42
20 45 41
20 45 42
20 45 41
21 46 42
21 46 42
20 45 41
21 46 42
20 45 41
20 45 41
20 45 41
21 47 43
21 47 43
20 45 41
20 45 41
21 47 43
20 45 42
20 45 41
21 46 42
21 46 42
21 46 42
21 46 42
21 47 43
21 46 42
21 47 42
21 46 42
21 47 42
21 46 42
21 47 43
21 46 42
20 45 41
21 46 42
20 45 41
21 45 41
21 46 42
21 46 42
20 45 41
21 46 42
21 46 42
21 46 42
21 47 43
21 47 43
21 46 42
21 46 42
21 47 43
21 47 43
21 47 43
21 46 42
21 46 42
21 47 43
22 48 44
22 47 43
21 47 43
21 46 42
21 47 43
22 48 44
21 46 42
22 48 43
22 48 44
22 48 44
22 48 44
21 47 43
21 47 43
22 48 44
22 49 45
21 47 43
21 47 43
22 48 43
22 48 44
22 47 43
22 48 43
21 46 42
21 47 43
21 47 43
21 47 43
21 47 43
22 48 44
22 48 43
22 48 43
21 47 43
22 48 44
22 48 43
22 49 44
21 47 42
21 47 43
21 47 42
22 48 43
22 48 43
22 49 44
21 47 43
22 47 43
22 48 43
21 47 42
22 48 44
22 48 44
22 48 44
22 48 44
21 47 43
22 48 44
22 49 44
22 48 44
22 48 43
22 48 44
21 47 42
22 48 44
22 48 44
22 47 43
22 49 44
22 48 43
22 48 44
21 46 42
21 45 42
20 45 42
20 44 41
21 46 42
20 44 41
20 45 41
20 45 41
20 45 42
20 45 41
21 46 42
20 45 41
21 46 42
20 45 41
21 46 42
21 45 42
21 46 42
21 46 42
21 46 43
21 47 43
21 46 42
21 47 43
21 47 43
20 45 41
21 45 42
20 45 41
20 45 41
20 45 41
20 45 41
21 46 42
21 46 42
21 46 42
21 47 42
21 47 42
20 45 41
20 44 40
20 45 41
21 47 43
21 47 43
20 45 41
20 45 41
21 46 42
21 46 43
21 46 42
21 47 43
20 45 41
21 46 42
21 47 42
21 47 43
21 46 42
21 47 43
21 46 42
22 48 44
21 47 43
21 47 43
21 46 42
21 46 42
21 47 43
21 47 43
21 46 42
21 46 42
21 47 43
21 47 43
21 46 42
21 46 42
21 47 42
21 47 43
21 47 42
21 46 42
22 48 44
21 47 43
22 48 44
21 47 43
21 47 43
21 47 42
22 48 44
21 46 42
22 48 43
22 47 43
22 48 43
21 47 43
21 47 43
22 48 43
22 48 43
22 48 44
21 47 43
21 47 43
22 48 44
21 47 42
21 46 41
22 47 43
22 49 44
22 48 43
21 47 42
22 48 44
22 47 43
22 48 44
22 48 43
22 47 43
22 48 44
22 48 44
21 47 43
21 47 42
22 49 45
21 47 43
22 49 44
22 48 44
22 48 43
23 50 45
22 48 43
22 48 43
22 47 43
22 48 44
22 48 43
22 48 44
22 48 43
22 48 44
22 49 44
22 49 44
22 47 43
21 46 42
20 45 41
21 47 43
20 45 41
21 46 42
21 46 42
20 45 41
21 46 42
20 45 41
21 46 42
20 45 41
20 45 41
20 45 42
21 46 42
20 45 41
21 46 42
21 46 42
21 47 43
21 46 42
21 46 43
20 44 40
20 45 41
20 45 41
21 46 42
20 45 41
20 45 41
21 46 42
21 47 43
21 46 42
21 46 42
21 46 42
21 47 43
21 46 42
21 46 42
21 46 42
21 46 42
21 46 42
21 47 43
21 47 43
21 46 42
21 46 42
20 45 41
22 48 43
21 47 43
21 46 42
22 48 43
20 45 41
21 46 42
21 46 42
21 46 42
21 47 43
21 47 43
21 46 42
21 47 43
20 45 41
21 46 42
21 47 43
21 46 42
21 46 42
21 45 41
21 47 43
21 47 43
21 47 43
21 47 43
22 48 44
21 47 43
22 48 43
21 47 43
21 46 42
21 47 43
21 47 43
21 46 42
21 47 43
21 47 42
21 46 42
21 47 43
21 47 43
22 48 43
21 47 43
21 47 43
21 47 43
22 48 43
22 48 43
22 48 44
21 47 43
21 47 43
22 48 44
21 47 42
21 46 42
22 48 43
21 47 43
22 47 43
22 48 44
22 49 44
21 47 43
21 47 43
22 48 43
22 48 43
22 48 44
22 48 44
22 48 44
21 47 43
21 46 42
22 48 44
22 49 44
22 48 44
21 47 43
21 47 43
22 48 44
22 48 44
23 50 45
22 49 44
22 48 44
22 48 43
22 47 43
22 49 44
22 48 43
21 47 43
22 47 43
21 47 43
20 44 40
20 44 41
20 44 40
20 45 41
21 46 42
21 46 42
20 45 41
21 46 42
20 44 41
21 46 42
21 46 43
21 46 42
21 46 42
20 45 41
21 47 43
21 46 42
21 46 42
21 46 42
21 45 42
20 45 41
21 46 42
21 46 42
20 45 42
21 46 43
21 46 42
21 45 41
20 45 42
21 47 43
21 47 42
21 47 43
21 46 42
21 46 43
21 45 42
21 45 42
20 45 41
20 44 41
21 46 42
22 48 44
20 45 41
21 47 43
21 46 42
21 46 42
21 47 43
21 46 42
21 47 43
20 45 41
21 46 42
21 46 42
20 45 41
21 46 42
21 47 43
20 45 41
21 47 43
21 46 42
21 47 43
21 46 42
21 46 42
21 45 41
21 47 43
21 46 42
21 46 42
21 46 42
21 46 42
22 48 44
21 47 43
21 47 43
22 47 43
21 47 43
21 47 43
22 47 43
21 47 43
21 47 42
21 47 43
21 46 42
21 47 42
21 46 42
22 48 43
21 47 42
22 48 44
21 47 43
21 47 43
21 46 42
22 48 44
21 47 43
21 47 43
21 46 42
22 48 44
21 46 42
21 47 42
22 48 43
21 47 43
22 47 43
21 46 42
22 47 43
21 47 43
21 47 43
21 47 43
22 47 43
22 48 44
22 47 43
21 47 43
22 48 43
21 47 43
22 48 43
22 47 43
22 48 43
21 46 42
21 47 43
21 47 43
22 48 44
22 49 44
22 48 44
21 47 43
22 48 43
22 49 44
22 48 43
21 47 43
21 47 43
22 48 43
21 47 43
21 46 43
20 45 41
21 46 42
21 46 42
21 46 43
21 46 42
20 44 41
21 46 42
21 46 42
21 46 42
20 45 41
20 44 40
20 45 42
20 45 41
20 45 42
20 45 41
21 46 42
21 46 42
20 45 41
21 46 43
21 46 42
21 46 42
20 45 42
21 45 41
21 47 43
21 46 42
21 46 42
21 46 42
20 45 41
21 46 42
21 46 42
21 46 42
20 45 41
20 45 41
20 45 41
21 46 42
21 46 42
21 46 42
21 46 42
21 46 42
21 47 43
20 45 41
21 46 42
21 46 42
21 46 42
21 47 43
21 46 42
20 45 41
21 47 43
21 46 42
21 46 42
21 46 42
21 47 43
21 47 43
21 46 42
21 46 42
21 46 42
21 45 41
21 47 42
22 48 44
21 46 42
22 48 43
21 47 43
21 47 43
21 47 43
20 45 41
21 47 43
21 47 43
22 48 44
21 47 43
21 47 42
22 48 44
21 46 42
21 47 43
21 46 42
21 47 43
21 47 43
21 46 42
22 48 43
22 48 44
21 46 42
22 48 43
21 46 42
21 47 43
21 47 43
21 46 42
22 47 43
22 48 44
22 48 43
21 46 42
21 47 43
21 46 42
21 47 43
21 46 42
21 47 43
21 47 43
22 47 43
21 47 43
21 47 43
22 48 43
21 47 43
22 48 43
22 48 44
22 47 43
22 49 44
21 46 42
22 48 44
22 48 43
21 46 42
21 47 43
22 48 43
21 47 42
22 49 44
21 47 43
23 50 45
21 47 43
21 47 43
22 49 44
22 48 44
22 48 44
21 46 42
20 45 41
20 45 41
20 45 42
20 45 41
21 46 42
20 45 41
20 45 41
20 45 42
20 44 41
21 46 43
20 45 42
20 45 41
20 45 41
20 45 42
21 46 42
21 46 42
20 45 41
20 44 41
20 45 41
21 46 42
21 47 43
20 45 41
21 46 42
21 46 42
20 45 42
21 46 42
21 46 42
20 45 42
21 46 42
21 46 42
20 45 41
21 46 42
20 45 42
20 45 41
20 45 41
20 45 41
21 48 44
21 47 43
20 45 41
21 46 42
20 45 41
22 48 43
21 46 42
21 46 42
20 45 41
21 47 43
21 46 42
21 46 42
21 46 42
21 46 42
21 47 43
21 47 43
21 46 42
21 47 43
21 46 42
21 46 42
21 47 43
20 45 41
21 47 43
21 46 42
21 46 42
21 46 42
21 47 43
21 46 42
21 47 43
21 47 43
22 48 44
21 47 43
21 47 43
21 46 42
22 48 44
21 46 42
21 47 43
21 46 42
21 46 42
22 48 44
21 47 43
21 46 42
21 47 43
22 48 43
21 46 42
21 46 42
21 47 42
21 47 43
21 46 42
22 48 44
21 47 43
22 48 44
22 49 45
22 48 43
21 47 43
22 47 43
21 46 42
21 46 42
21 47 43
22 48 43
22 49 44
21 46 42
22 47 43
21 47 42
21 47 43
22 48 44
21 47 43
21 47 43
22 48 44
22 48 44
21 47 43
22 48 43
21 46 42
21 47 42
22 47 43
21 47 43
22 49 44
21 47 43
21 47 43
22 49 44
22 48 43
22 48 44
22 48 44
20 45 41
20 44 41
20 45 41
20 44 40
20 45 41
20 45 41
20 45 41
21 46 42
21 46 42
21 46 42
20 45 41
20 44 40
21 46 42
20 44 40
21 46 42
21 46 42
21 46 42
21 46 43
21 46 42
20 45 41
21 46 42
20 45 41
20 44 41
20 45 41
21 46 42
21 46 42
21 47 43
21 46 43
21 47 43
21 47 43
21 45 42
21 46 42
21 46 42
21 46 42
21 46 42
21 46 42
20 45 41
21 46 42
21 46 42
21 46 42
21 45 42
21 46 42
20 45 41
21 46 42
21 46 42
21 46 43
20 45 41
21 45 42
21 46 42
21 46 42
21 46 42
21 46 42
20 45 41
21 46 42
21 47 43
21 46 42
21 46 42
21 46 42
21 46 42
21 47 43
21 47 43
21 47 43
21 46 42
21 46 42
21 46 42
21 46 42
21 46 42
21 47 43
21 47 43
21 47 43
21 47 43
21 47 43
21 46 42
21 47 43
22 48 44
21 47 43
21 47 43
20 45 41
21 47 43
21 47 43
22 48 43
21 47 43
22 48 43
21 47 43
21 46 42
21 47 43
21 46 42
21 47 43
22 48 43
21 47 43
21 47 43
21 46 42
21 46 42
22 47 43
21 46 42
22 48 44
22 48 44
21 47 43
22 48 43
21 47 43
21 47 43
21 47 42
22 48 43
21 46 42
22 48 43
21 46 42
21 47 43
21 47 43
21 47 42
21 46 42
21 46 42
21 47 43
21 47 43
21 47 43
22 47 43
22 48 44
21 47 43
21 46 42
22 48 43
22 48 44
20 45 41
20 45 41
20 44 40
20 46 42
20 44 40
20 44 40
20 45 42
20 44 41
20 45 41
20 44 40
20 45 41
20 44 41
20 45 41
20 45 41
21 46 42
21 46 42
20 45 41
20 44 41
21 45 42
20 45 41
21 46 42
21 45 42
20 45 41
21 46 42
20 45 41
20 45 41
21 47 43
20 45 41
20 45 41
21 46 42
20 43 40
21 46 42
21 46 42
20 45 41
21 46 42
20 45 41
21 46 42
20 45 42
21 45 41
20 45 41
21 46 42
21 46 42
21 46 42
21 48 44
21 46 42
20 45 41
21 46 42
21 47 43
21 46 42
21 46 42
21 46 42
21 45 42
20 45 41
21 46 42
21 46 42
21 47 42
22 48 44
20 44 40
20 45 41
21 47 43
22 48 44
21 47 43
21 47 42
21 46 42
21 47 43
21 46 42
21 47 43
21 47 43
21 46 42
21 47 43
21 47 43
21 46 42
21 46 42
21 46 42
21 47 43
22 48 44
22 48 43
21 46 42
22 48 43
21 46 42
21 46 42
21 46 42
22 47 43
21 46 42
21 47 43
21 46 42
22 49 45
22 48 44
21 47 43
21 47 43
22 48 43
21 46 42
21 46 42
21 46 42
22 48 44
21 47 43
21 47 43
21 46 42
21 46 42
21 47 43
22 48 44
22 49 44
21 47 43
22 48 43
21 47 43
21 46 42
21 47 43
21 47 42
21 47 43
21 47 43
21 47 43
21 47 43
22 48 44
22 47 43
21 47 43
22 48 44
22 47 43
22 48 44
22 48 44
22 48 43
21 46 42
20 43 40
20 44 40
20 45 42
20 45 42
20 44 41
20 45 41
20 45 41
21 46 42
21 46 42
20 44 40
20 44 41
21 46 42
20 45 41
21 46 42
21 46 42
21 46 42
20 45 42
21 46 42
20 45 42
21 46 42
21 46 42
21 46 42
21 46 42
20 45 41
21 47 43
20 45 41
20 44 40
20 44 41
21 46 42
20 45 42
21 46 43
21 46 42
20 45 41
21 46 42
21 46 42
21 46 42
20 45 41
21 46 42
21 47 43
21 47 43
21 46 42
20 45 41
20 45 41
21 46 42
21 46 42
21 46 42
21 46 42
21 47 43
21 45 41
21 47 43
21 47 42
21 46 42
21 47 43
21 46 42
20 45 41
21 46 42
20 45 41
21 46 42
21 47 43
21 46 42
20 45 41
21 46 42
21 46 42
21 47 42
21 46 42
21 46 42
21 46 42
20 45 41
21 47 43
21 45 41
21 46 42
21 46 42
21 47 43
21 47 43
21 46 42
21 47 43
21 46 42
22 48 44
21 47 43
21 46 42
21 46 42
21 47 43
21 47 42
22 47 43
21 47 43
22 48 43
21 47 43
21 47 43
21 47 43
22 47 43
21 47 43
21 47 43
21 46 42
21 47 43
21 47 43
21 47 43
21 47 43
21 46 42
21 47 43
21 47 43
22 48 43
22 48 43
22 47 43
21 46 42
22 47 43
21 47 43
21 47 43
21 47 43
21 47 43
21 47 42
22 48 43
21 47 43
21 47 43
21 46 42
22 47 43
21 47 43
22 48 44
22 48 44
22 48 44
20 44 40
21 46 42
21 46 42
20 45 42
21 46 42
21 46 42
20 45 41
20 45 41
20 44 41
21 46 42
20 45 41
20 45 41
21 47 43
20 45 41
20 45 42
20 45 42
21 46 42
21 46 42
20 45 42
20 45 41
21 46 42
21 46 42
21 47 43
20 44 41
21 46 42
20 45 41
20 45 41
21 46 42
21 46 42
20 45 42
20 45 41
21 47 43
21 46 42
20 45 41
21 46 42
20 45 41
21 46 42
20 45 41
21 46 42
20 45 41
21 46 42
21 46 42
21 46 42
20 45 41
21 46 42
21 46 42
21 46 42
21 46 42
20 45 41
20 45 41
20 45 41
21 45 41
20 45 41
21 47 43
21 46 42
21 45 41
21 47 43
21 46 42
21 47 43
21 47 43
22 48 43
21 47 43
21 46 42
21 47 43
21 46 42
21 46 42
21 47 43
21 46 42
21 46 42
21 46 42
20 45 41
21 46 42
21 46 42
21 46 42
21 47 42
21 46 42
22 48 43
21 47 43
21 46 42
21 46 42
21 47 42
21 46 42
21 46 42
21 47 42
21 46 42
21 46 42
21 46 42
21 46 42
21 46 42
22 49 44
21 46 42
21 47 43
21 46 42
21 45 41
21 47 43
22 49 44
21 46 42
21 47 42
21 47 42
22 48 43
21 46 42
22 48 43
21 47 43
22 48 43
21 46 42
21 47 43
22 47 43
21 47 43
21 47 42
21 47 43
21 45 41
21 46 42
21 46 42
21 47 43
21 47 42
22 48 44
22 48 43
21 46 42
22 48 44
21 47 42
20 44 41
20 45 41
20 45 41
20 44 40
20 45 41
20 44 41
20 44 41
20 45 42
20 44 41
20 45 41
20 45 41
20 45 41
20 45 41
20 45 41
20 44 40
20 45 41
21 46 42
21 46 42
20 45 41
20 45 41
21 46 42
20 45 41
20 44 40
20 45 41
21 46 42
21 47 43
20 45 41
21 46 42
21 47 43
21 47 43
21 46 42
20 45 42
21 47 43
21 46 42
21 47 43
21 46 42
21 46 42
21 47 43
21 46 42
21 46 42
21 47 43
21 46 42
21 46 42
21 46 42
21 46 42
21 48 44
21 46 42
21 46 42
21 46 42
21 46 42
20 45 41
21 46 42
20 45 42
21 46 42
21 46 42
21 45 41
21 46 42
21 46 42
21 45 42
20 45 41
22 48 44
21 46 42
21 46 42
21 46 42
21 45 41
21 45 41
21 46 42
21 46 42
21 46 42
21 46 42
21 47 43
21 46 42
21 46 42
21 47 43
21 46 42
21 46 42
21 45 41
21 46 42
21 46 42
21 47 43
20 45 41
21 46 42
21 46 42
21 47 43
21 47 43
21 46 42
21 46 42
21 45 41
22 47 43
21 46 42
21 46 42
21 47 42
21 45 41
20 45 41
22 48 44
22 47 43
22 48 43
21 47 43
22 47 43
21 46 42
21 47 43
21 47 43
21 46 42
21 46 42
21 46 42
22 48 43
21 47 43
21 47 43
22 48 44
21 46 42
21 46 42
21 47 43
22 48 44
22 47 43
22 48 44
21 46 42
22 48 44
22 47 43
22 47 43
22 48 44
20 44 41
21 46 42
20 45 41
20 45 42
20 45 42
20 45 42
21 46 42
20 44 40
20 45 41
20 45 41
20 45 41
20 45 42
21 46 42
21 45 42
20 45 42
20 45 41
20 45 41
20 44 41
20 45 41
21 46 42
21 46 42
20 45 42
21 47 43
20 44 40
20 45 41
21 45 42
20 45 41
21 45 42
20 45 41
20 45 41
21 46 42
21 46 42
20 44 41
20 45 41
21 46 42
21 46 42
20 45 42
21 46 42
21 46 42
21 46 42
21 46 43
20 45 41
21 46 42
21 46 42
21 46 42
20 45 41
21 46 42
21 47 42
21 46 43
21 47 43
21 46 42
20 45 41
21 46 42
21 46 42
21 46 42
21 46 42
21 46 42
21 46 42
21 46 42
21 46 42
21 47 43
21 47 43
21 47 43
21 47 43
21 46 42
21 46 42
21 46 42
21 46 42
21 47 43
21 45 42
21 45 41
21 46 42
21 45 41
21 46 42
21 46 42
21 46 42
21 46 42
21 47 43
21 46 42
21 46 42
21 46 42
20 45 41
21 47 43
21 47 43
21 46 42
21 47 43
21 46 42
21 46 42
21 47 43
21 46 42
21 47 43
21 47 43
22 48 44
22 47 43
21 47 43
21 47 42
21 47 43
22 48 44
21 46 42
21 47 43
21 45 42
22 47 43
22 48 44
22 47 43
21 47 43
22 47 43
22 47 43
22 47 43
22 47 43
21 46 42
21 46 42
21 46 42
21 47 42
22 48 43
22 47 43
22 47 43
22 48 44
21 47 43
22 47 43
22 47 43
20 45 41
20 45 41
20 45 42
20 45 41
20 45 41
20 45 41
20 44 41
20 45 41
20 45 41
20 44 41
20 44 40
21 46 42
21 46 42
21 46 42
20 45 42
20 45 41
20 44 41
20 45 41
20 44 41
20 45 41
20 44 41
20 45 41
21 46 42
20 45 41
20 45 41
21 45 42
20 45 41
21 46 42
21 47 43
21 46 42
21 46 42
21 45 42
20 45 41
20 45 42
20 44 40
20 44 41
20 45 41
21 47 43
20 44 40
20 44 40
21 46 42
21 46 42
21 46 42
20 44 41
21 46 42
20 45 41
21 46 42
20 45 41
21 45 42
21 47 43
21 47 43
21 46 42
20 45 41
21 47 43
21 46 42
21 46 42
21 47 43
21 46 42
21 47 43
20 45 41
21 46 42
21 46 42
21 47 43
21 46 42
21 47 43
21 46 42
21 47 43
21 46 42
21 46 42
21 46 42
21 47 43
21 46 42
22 48 44
21 46 42
21 46 42
21 47 43
21 46 42
21 46 42
21 47 43
21 47 43
21 46 42
21 46 42
21 47 43
21 47 43
22 47 43
21 47 43
21 47 43
21 46 42
21 46 42
21 46 42
21 46 42
21 47 43
21 47 42
21 46 42
21 46 42
21 46 42
21 46 42
22 47 43
21 46 42
22 47 43
21 46 42
22 48 44
21 47 43
22 47 43
21 46 42
21 47 43
22 47 43
22 48 44
22 47 42
22 47 43
21 46 42
22 47 43
22 48 44
22 47 43
22 47 43
22 47 43
22 47 43
22 47 43
22 47 43
22 48 43
20 44 41
20 44 40
20 45 41
20 45 42
20 45 41
20 44 41
20 45 42
20 45 41
20 45 41
20 44 41
20 44 41
20 45 41
21 46 42
20 45 41
21 46 42
20 45 41
20 44 41
20 44 41
21 46 42
20 44 41
20 44 40
20 45 41
20 44 40
20 45 41
21 46 42
21 46 42
20 44 40
20 45 42
20 45 41
20 45 41
20 45 41
21 45 42
20 45 41
20 45 42
21 46 42
21 46 42
21 47 43
20 45 41
21 46 42
20 45 41
20 45 42
20 45 41
20 45 41
20 45 41
21 46 42
20 44 41
21 47 43
20 44 41
20 45 41
21 45 42
20 44 41
21 46 42
20 45 41
21 47 43
21 46 42
21 47 43
21 46 42
21 46 42
21 46 42
21 46 43
21 47 43
20 45 41
21 46 42
21 46 42
20 45 42
21 47 43
21 46 42
21 46 42
20 44 41
21 46 42
21 47 43
21 46 42
21 46 42
21 46 42
21 47 43
20 45 41
21 46 42
21 46 42
21 46 42
21 46 42
21 46 42
20 45 41
21 47 43
21 45 42
21 47 43
21 47 43
21 47 43
22 48 43
21 46 42
21 47 43
21 47 43
21 47 43
21 46 42
21 46 42
21 45 41
21 47 42
22 47 43
21 46 42
22 48 44
22 48 44
21 47 43
22 47 43
21 47 42
22 47 43
21 46 42
21 46 42
21 46 42
22 47 43
22 47 43
22 46 42
21 46 42
22 46 42
22 47 42
22 48 44
23 49 45
22 46 42
22 47 43
22 47 43
22 47 43
22 47 43
20 44 40
20 45 41
21 46 42
20 45 41
21 46 42
20 45 41
20 45 41
20 45 41
20 45 41
20 45 41
20 45 42
20 45 41
20 45 42
20 45 41
20 44 40
21 46 42
20 45 42
20 45 41
20 45 42
20 45 41
20 45 41
21 45 42
20 44 40
21 46 42
21 46 42
21 46 42
20 45 41
21 46 42
20 45 41
20 45 41
20 44 41
20 45 42
21 46 42
21 46 42
20 45 42
21 46 42
21 47 43
20 44 40
20 45 41
21 47 43
20 45 41
20 45 41
21 46 43
20 45 41
20 45 41
21 46 42
21 46 42
21 46 42
20 45 42
21 45 42
20 45 42
20 45 41
20 45 41
21 46 42
21 47 43
21 46 42
21 47 43
20 45 41
21 46 42
21 46 42
21 46 42
20 45 41
20 45 41
21 46 42
21 46 42
21 46 42
21 47 43
21 46 42
20 45 41
21 46 42
20 45 41
21 46 42
21 46 42
21 47 43
21 45 41
20 44 40
21 46 42
21 46 42
21 46 42
20 45 41
21 46 42
21 46 42
21 47 43
20 45 41
21 46 42
21 46 42
21 46 42
21 47 43
21 47 43
21 47 42
21 46 42
22 48 44
21 46 42
21 46 42
21 45 41
21 46 42
21 45 41
22 48 44
22 47 43
21 46 42
22 48 44
21 46 42
21 46 42
22 47 43
22 47 42
22 46 42
21 46 42
22 47 43
22 47 43
21 46 42
22 48 43
22 47 43
23 49 45
22 47 43
22 46 42
22 45 41
23 47 43
22 46 42
23 47 43
23 48 43
20 45 41
20 44 41
20 44 41
20 45 41
20 45 41
20 45 41
21 46 42
20 45 42
20 44 41
20 45 41
20 45 42
20 45 41
20 44 41
20 44 40
20 44 41
20 45 41
21 46 42
21 46 42
20 45 42
21 46 42
21 46 42
20 44 41
21 46 42
20 45 42
21 46 42
20 45 41
20 45 42
21 46 42
20 45 41
20 44 40
20 45 42
21 46 42
20 45 41
21 46 42
20 45 42
20 45 42
21 46 42
21 46 42
21 46 42
20 45 41
20 45 41
21 46 42
20 45 41
20 45 41
21 46 42
21 46 42
20 45 42
21 46 42
20 45 41
20 45 42
20 45 41
20 45 41
21 47 43
21 46 42
20 45 41
21 46 42
21 46 42
21 46 42
20 45 41
20 45 41
20 45 41
21 46 42
21 46 42
21 46 42
21 46 42
20 45 42
21 47 43
21 47 43
21 45 41
21 46 42
20 45 41
20 45 41
21 45 41
21 47 43
21 46 42
21 47 43
21 46 42
21 46 42
21 47 43
21 46 42
21 46 42
21 46 42
21 46 42
21 46 42
21 47 43
21 46 42
21 46 42
21 45 41
21 47 43
21 46 42
21 46 42
21 46 42
22 47 43
22 47 43
21 46 42
22 47 43
22 47 43
21 46 42
22 47 43
22 46 42
22 47 43
22 46 42
22 46 42
22 47 43
22 48 43
22 47 43
22 47 43
23 49 44
22 46 42
23 47 43
23 47 43
23 48 44
22 47 42
23 47 43
23 48 43
23 47 43
23 48 43
23 47 43
23 47 43
23 46 42
20 45 41
19 43 40
20 45 41
20 44 41
20 44 40
21 46 42
20 45 41
19 43 40
20 45 41
20 44 40
20 45 41
21 46 42
20 45 41
20 44 40
20 45 42
20 45 41
20 45 41
21 46 42
21 46 42
20 45 42
20 45 41
20 44 40
21 46 42
21 45 42
20 45 42
20 45 41
20 45 42
20 45 41
20 45 42
20 44 40
20 45 41
21 46 42
20 45 41
21 46 42
21 46 42
20 44 40
21 46 42
21 46 42
20 44 40
21 46 42
21 45 42
21 47 43
21 47 43
21 46 42
21 46 42
21 46 42
20 45 42
20 45 42
20 45 41
21 46 42
21 46 42
21 45 42
21 46 42
21 46 42
20 45 42
21 46 42
21 46 42
20 44 41
21 46 42
21 45 42
20 45 41
21 46 42
21 46 42
21 46 42
20 45 41
20 45 41
20 45 41
20 45 41
21 45 42
20 45 41
20 44 41
21 46 42
21 46 42
20 45 41
21 46 42
20 45 41
21 46 42
21 47 43
21 46 42
21 46 42
21 45 41
20 45 41
21 47 42
21 46 42
22 47 43
21 45 42
21 46 42
22 47 43
21 47 43
22 48 44
21 45 41
21 46 42
21 46 42
21 46 42
22 47 42
22 46 42
22 46 42
21 45 41
21 45 41
22 47 43
22 46 42
23 48 43
23 47 43
23 48 44
23 48 44
22 46 42
22 46 42
23 47 43
23 47 43
23 47 43
23 46 42
23 46 42
23 46 42
23 47 43
23 46 42
24 48 44
23 47 43
24 47 43
24 48 44
23 46 42
20 45 41
20 44 41
20 44 41
20 44 41
20 44 41
20 45 41
19 43 40
20 45 41
20 44 41
20 45 41
20 44 40
20 45 42
20 45 42
21 46 42
20 44 41
21 46 43
21 46 42
21 46 42
20 44 41
20 45 41
21 46 42
20 43 40
20 44 41
20 45 41
21 46 42
20 45 41
21 46 42
21 46 42
21 46 42
20 45 41
20 45 41
21 46 42
20 45 41
20 45 41
20 44 41
20 45 41
20 45 41
20 44 40
20 45 41
21 46 42
20 45 41
21 46 42
20 45 41
21 46 42
20 45 41
21 47 43
21 46 42
20 45 41
20 45 41
20 45 41
21 46 42
21 45 41
20 45 41
20 45 41
20 44 40
21 46 42
20 45 41
20 45 41
21 45 41
20 45 42
20 45 41
21 47 43
21 46 42
20 45 42
21 47 43
21 47 43
20 45 41
20 45 41
21 47 43
21 46 42
21 46 42
21 46 42
21 46 42
21 47 43
21 45 42
21 46 42
21 45 41
21 46 42
21 45 41
20 45 41
21 46 42
21 46 42
21 47 43
20 45 41
21 46 42
22 47 43
21 46 42
22 48 43
22 48 43
22 47 43
21 46 42
22 47 43
22 46 42
22 47 43
22 46 42
22 46 42
22 46 42
22 47 43
22 47 43
23 48 43
22 47 42
22 46 42
23 48 43
23 47 42
23 46 42
23 47 43
23 46 42
23 47 43
24 48 43
24 47 43
24 47 43
24 48 44
24 48 44
24 48 43
24 47 43
24 48 44
24 48 44
25 48 44
24 47 43
24 47 43
20 44 40
20 44 40
20 44 41
20 44 40
20 45 42
20 45 41
20 44 40
20 44 40
20 44 41
20 44 40
20 45 42
20 44 41
20 45 41
20 44 40
20 45 41
20 43 40
20 45 41
20 45 41
20 45 41
20 45 42
21 46 42
21 46 42
20 44 40
20 45 42
20 45 41
20 45 41
20 44 41
20 45 42
20 45 41
21 46 42
20 45 41
20 44 41
20 45 41
20 44 40
21 47 43
20 45 41
21 46 42
21 46 42
20 44 41
21 46 42
21 46 42
20 45 41
20 45 41
20 45 42
20 45 42
21 46 42
21 47 43
20 45 42
20 45 41
20 45 41
21 46 43
20 44 41
20 45 41
20 45 41
21 45 42
21 46 42
20 45 41
21 46 42
21 46 42
21 45 42
21 46 42
21 46 42
21 46 42
20 45 41
21 46 42
21 46 42
21 46 42
21 46 42
21 46 42
20 45 41
21 46 42
21 46 42
21 46 42
21 47 43
21 47 43
21 45 41
21 46 42
21 46 42
21 47 43
21 46 43
21 47 43
21 46 42
21 46 42
22 47 43
21 45 41
21 45 41
21 46 42
22 47 43
21 46 42
22 46 42
22 46 42
21 46 42
22 46 42
22 47 43
22 47 43
22 47 42
23 48 44
22 45 41
23 46 42
23 47 43
23 47 43
23 46 42
24 48 44
23 47 42
23 46 42
24 47 43
24 47 43
24 48 43
25 49 44
25 48 43
25 48 44
25 47 43
25 49 44
25 48 43
25 48 43
25 47 43
26 49 44
26 49 44
26 49 44
26 49 45
20 45 41
20 44 41
19 43 40
20 45 41
20 45 41
20 44 41
20 44 40
20 44 40
20 45 41
20 45 41
20 44 40
20 45 42
20 45 42
20 44 41
20 44 41
21 46 42
20 45 41
20 44 41
20 44 40
21 47 43
20 45 41
20 45 41
20 44 41
19 43 40
20 45 41
20 45 41
20 44 40
20 44 41
21 46 42
20 45 41
21 46 42
20 44 41
21 46 42
20 45 42
20 45 41
20 45 41
21 46 42
20 45 41
20 45 42
21 46 42
20 45 41
20 45 41
20 45 42
20 45 41
20 45 41
20 45 41
21 46 42
21 46 42
20 44 41
20 45 41
20 45 41
20 44 41
21 47 43
20 45 42
21 46 42
21 46 42
21 46 42
20 45 41
21 46 42
21 46 42
20 45 41
20 45 41
21 47 43
20 45 42
21 47 43
21 47 43
20 44 40
20 44 40
21 46 42
21 46 42
21 45 41
20 45 41
21 46 42
21 45 41
20 44 41
21 46 42
21 47 43
21 46 42
21 45 41
21 45 41
21 45 41
21 45 41
21 45 41
21 44 41
21 46 42
21 46 42
21 46 42
21 46 42
22 46 42
22 46 42
23 47 43
22 45 41
22 47 43
22 46 42
23 47 43
24 48 44
23 47 43
23 47 43
23 45 41
24 47 43
24 48 44
24 47 43
24 46 42
25 48 44
25 49 44
25 49 45
25 48 43
26 49 44
26 49 44
25 47 43
26 48 44
26 48 44
26 48 43
26 48 43
27 49 44
26 48 43
27 48 43
27 49 44
27 49 45
27 50 45
20 44 40
20 45 41
20 45 41
20 44 41
20 44 40
20 44 41
20 44 40
20 45 41
20 44 41
20 44 41
21 46 42
20 45 41
20 44 40
20 44 41
20 44 41
20 45 41
21 47 43
20 45 41
21 46 42
21 46 42
20 45 41
20 45 41
20 45 41
20 45 41
20 45 41
20 45 41
20 44 40
20 45 41
20 45 41
20 44 41
20 45 42
20 45 41
20 45 41
20 44 40
20 44 41
20 45 41
20 45 41
21 46 43
20 45 41
20 45 41
20 45 41
20 44 41
21 46 42
20 45 41
20 45 41
21 46 42
20 45 41
20 44 40
21 46 42
21 46 42
20 45 41
20 44 40
21 46 42
20 45 41
20 45 41
20 45 41
20 45 41
21 46 42
20 45 41
21 46 42
20 45 41
21 46 42
20 45 41
20 45 41
21 46 42
21 45 42
21 46 42
21 46 42
21 46 42
20 45 41
21 46 42
21 45 41
21 46 42
21 45 41
21 46 42
21 45 42
21 46 42
21 46 42
21 46 42
22 47 43
21 46 42
21 46 42
21 46 42
22 47 43
21 46 42
22 48 44
22 46 43
22 47 43
22 47 43
22 47 43
22 46 42
23 48 43
23 46 42
23 47 43
23 47 43
24 47 43
24 48 43
24 47 43
24 48 44
25 49 45
25 48 43
25 49 44
25 48 44
26 48 44
26 49 44
26 48 44
26 47 43
27 49 44
27 50 45
27 49 45
27 48 44
27 48 43
27 48 43
28 49 45
28 50 45
28 50 45
29 50 45
29 50 45
29 50 45
29 50 45
21 46 42
20 44 40
20 45 41
20 44 41
20 44 41
20 45 42
20 44 41
20 44 40
20 44 41
20 44 41
20 44 41
21 46 42
20 45 41
20 44 41
20 45 41
21 46 42
20 45 41
20 44 41
21 46 42
20 44 41
20 45 42
20 44 41
21 47 43
20 44 41
20 45 41
21 46 42
20 44 40
20 45 41
20 45 41
21 46 42
20 45 41
21 47 43
20 44 40
20 45 42
20 45 41
20 44 41
20 45 41
21 46 42
20 44 41
20 45 41
20 45 41
20 45 41
20 45 41
21 46 42
20 45 41
20 45 41
20 45 41
20 45 41
20 45 41
20 45 41
20 45 41
20 45 42
20 44 41
20 45 41
21 46 42
20 44 41
21 46 42
21 46 42
21 46 42
20 45 41
21 46 42
20 45 41
21 46 42
20 45 41
21 45 42
21 46 42
20 45 41
21 45 42
21 46 42
21 46 42
21 47 43
21 45 42
21 47 43
21 47 43
20 44 41
21 45 41
21 45 41
21 45 41
22 47 43
21 46 42
21 46 42
22 47 43
21 46 42
23 48 44
22 48 44
22 46 42
22 45 41
22 46 42
22 46 42
23 48 44
23 47 43
23 47 43
24 48 44
24 47 43
24 48 44
24 47 43
25 48 43
24 46 42
25 48 44
26 48 44
26 48 43
26 49 44
27 49 45
27 49 44
27 48 44
28 50 45
28 49 44
28 49 44
28 49 44
29 51 46
29 49 45
29 49 44
29 50 45
30 51 46
30 49 44
30 50 45
30 50 45
30 50 45
31 52 47
30 50 45
20 44 41
20 43 40
20 44 40
20 45 41
20 45 42
20 44 40
20 44 41
19 43 39
20 45 42
20 45 41
20 45 41
20 44 40
20 44 40
21 46 42
20 44 41
20 44 41
20 44 41
20 45 41
20 44 41
20 44 40
20 44 40
20 45 41
20 45 42
21 47 43
20 45 41
20 44 41
20 45 42
20 44 41
21 46 43
20 45 41
20 45 41
20 45 42
20 44 40
20 45 41
21 46 42
20 44 41
20 45 41
20 45 41
20 45 41
20 45 41
21 47 43
20 45 42
20 45 41
21 46 42
21 47 43
20 45 41
20 45 42
21 46 42
20 45 42
21 46 42
20 45 41
20 44 41
21 46 42
21 46 42
21 46 42
20 45 41
21 46 42
21 46 42
20 45 42
20 45 41
20 45 41
20 45 41
20 45 41
20 45 41
20 45 41
21 46 42
20 45 41
21 46 42
20 45 41
20 45 41
21 46 42
21 45 41
21 46 42
21 45 41
21 46 42
21 46 42
21 46 42
21 46 42
21 46 42
21 46 42
22 46 42
21 46 42
22 45 41
22 46 42
22 46 42
23 47 43
23 47 43
23 47 43
23 46 42
23 47 42
24 48 43
25 49 45
24 48 44
25 48 43
25 48 44
25 48 44
26 48 44
25 46 42
26 48 44
27 48 44
27 49 44
28 49 45
28 50 45
28 49 45
29 49 44
29 50 46
30 51 46
30 50 45
31 52 47
30 50 45
31 51 46
31 51 46
31 51 46
32 51 46
32 51 46
32 52 47
33 52 47
33 52 47
33 52 47
33 52 47
20 44 40
20 45 41
20 44 40
20 45 41
20 44 41
20 45 41
20 44 40
21 46 42
20 44 40
20 44 40
20 45 41
20 44 40
21 46 42
20 45 41
20 45 42
20 44 41
20 45 41
20 45 41
20 45 41
20 45 41
21 46 42
20 45 41
20 44 41
20 45 41
20 44 41
20 44 40
20 44 41
20 45 41
21 46 42
20 45 41
21 46 42
20 45 42
20 45 41
20 45 41
20 44 40
20 45 41
20 45 41
20 44 41
20 45 42
20 44 40
20 45 41
20 45 41
20 45 41
20 45 42
21 46 42
20 44 40
20 44 40
21 46 43
21 46 42
21 46 42
21 46 42
20 45 41
20 45 41
20 45 41
20 45 41
21 46 43
20 44 40
21 47 43
20 45 41
20 44 40
20 45 41
20 45 41
20 44 40
21 46 42
21 46 42
20 45 41
20 45 41
21 46 42
21 45 41
21 47 43
21 45 41
21 46 42
21 46 42
21 46 42
21 46 42
21 46 42
21 46 42
22 47 43
22 46 42
22 46 42
22 46 42
22 47 43
22 45 41
23 47 43
24 49 44
23 47 43
23 47 43
23 47 43
23 46 42
24 47 43
25 48 43
25 47 43
25 48 44
25 47 42
26 48 44
26 48 43
27 49 44
28 50 45
28 49 44
28 50 45
29 50 45
29 49 44
29 50 45
30 51 46
30 50 45
31 52 47
32 52 47
31 50 45
32 51 46
33 52 47
33 52 46
33 52 47
33 51 46
34 52 46
34 53 47
35 54 48
35 53 47
35 52 47
36 54 48
35 52 47
20 45 41
21 46 42
20 45 41
20 45 41
20 45 41
20 45 41
20 45 41
20 45 41
20 45 42
20 44 41
20 45 42
20 44 41
20 45 41
20 46 42
20 45 41
20 44 41
20 44 41
20 44 41
21 46 43
20 45 41
20 45 41
20 44 40
20 45 41
20 45 41
20 45 41
20 45 41
20 45 41
21 46 42
20 44 41
20 45 41
21 46 42
21 46 42
20 45 41
20 44 41
20 45 41
20 45 41
20 44 41
20 44 41
20 45 41
20 45 41
21 47 43
20 45 41
21 46 42
21 46 42
20 45 41
21 46 42
20 45 41
20 45 41
20 45 41
21 47 43
20 45 42
21 46 42
20 45 41
20 45 41
20 45 41
21 46 42
20 45 41
20 45 41
20 44 41
21 46 42
20 45 41
20 44 41
20 45 41
21 46 42
20 44 41
21 46 42
21 46 42
21 46 42
20 45 41
21 45 41
22 47 43
21 46 42
21 45 41
21 45 41
21 45 41
21 45 41
22 47 43
22 47 43
22 46 42
22 46 42
22 46 42
22 47 43
22 46 42
23 46 42
23 47 43
23 46 42
24 47 43
24 46 42
24 47 43
25 47 43
25 47 43
26 48 44
26 47 42
26 48 43
27 49 44
28 49 44
28 48 44
29 49 45
29 49 44
30 50 46
30 49 44
31 51 46
32 52 47
32 51 46
32 51 46
33 52 47
33 52 47
34 52 47
34 52 47
35 52 47
35 53 48
35 52 46
37 55 49
37 54 48
37 54 49
37 54 48
38 55 49
38 54 48
38 55 49
38 55 49
20 44 41
20 45 41
20 45 42
20 45 41
20 44 40
20 44 40
19 43 40
20 45 41
20 45 41
20 45 41
20 44 41
20 44 41
20 44 41
20 45 41
19 43 40
20 44 41
20 45 41
20 45 41
20 45 42
20 44 41
20 43 40
20 45 42
21 46 42
21 46 43
20 45 41
20 44 41
20 44 41
21 46 42
21 46 42
21 46 42
20 45 41
20 45 41
20 44 41
20 43 40
20 44 41
20 44 40
20 44 40
20 43 40
20 45 41
20 45 41
20 45 41
21 45 42
20 45 42
21 46 42
20 45 41
21 46 43
20 45 41
20 44 41
20 44 41
21 46 43
20 45 41
20 44 40
21 47 43
20 45 42
20 44 41
21 47 43
21 46 42
21 46 42
20 44 41
20 45 41
21 46 42
20 44 41
20 45 41
21 47 43
20 44 41
21 45 42
21 46 42
21 45 41
21 46 42
21 45 41
21 46 42
21 46 42
21 45 42
21 46 42
21 45 41
21 45 41
22 46 42
23 47 43
22 46 42
22 47 43
23 47 43
23 46 42
23 47 42
23 46 42
24 47 43
24 47 43
25 48 44
25 47 43
25 47 43
26 47 43
26 48 43
27 49 45
27 49 44
28 49 45
28 49 44
29 49 45
29 49 44
30 50 45
31 51 46
31 50 45
32 51 46
33 52 47
33 51 46
33 51 46
35 53 47
35 53 48
36 53 47
36 54 48
37 54 48
37 53 48
38 54 48
38 55 49
39 55 49
39 56 50
39 55 49
40 55 49
40 56 50
40 56 50
41 57 51
41 56 50
20 44 41
20 45 41
20 44 40
19 43 39
20 45 41
19 43 40
19 43 40
20 44 40
20 46 42
20 45 42
20 45 41
20 45 41
20 45 41
20 44 40
21 46 42
20 44 40
20 45 41
20 45 41
20 45 41
20 45 42
20 46 42
20 45 42
20 44 40
20 44 40
20 44 41
20 45 41
20 46 42
20 45 42
20 44 41
20 46 42
21 46 43
20 44 41
20 44 41
20 44 41
20 44 40
20 44 40
20 45 42
21 46 42
20 45 41
20 44 41
20 45 41
20 45 42
20 44 41
21 46 42
20 45 42
20 45 42
21 46 42
20 45 41
20 44 41
21 47 43
20 44 41
20 44 40
20 46 42
21 46 43
21 46 42
20 45 41
21 47 43
21 46 42
20 44 41
20 44 41
20 45 41
21 47 43
20 44 41
21 46 42
20 45 41
21 45 41
21 45 41
21 45 41
21 45 41
21 45 42
21 45 41
21 46 42
22 46 42
21 44 40
22 46 42
22 46 42
22 46 42
22 46 42
22 45 41
23 47 43
23 46 42
23 46 42
24 47 43
24 47 42
25 47 43
25 49 44
26 48 44
26 48 44
26 48 43
27 49 44
28 49 44
28 49 44
29 49 45
29 48 44
30 50 45
30 50 45
31 51 46
32 51 46
33 51 46
33 52 46
34 52 47
35 53 47
35 53 48
37 55 49
37 54 48
38 56 50
38 55 49
39 54 49
40 57 51
40 55 49
41 57 51
41 56 50
42 58 51
42 57 51
42 57 51
43 58 51
43 57 50
43 57 51
44 57 51
44 59 52
20 44 40
20 45 41
20 44 41
19 43 40
20 45 41
20 44 41
20 45 41
21 47 43
20 44 40
20 44 41
20 45 41
20 45 41
20 44 41
20 46 42
20 45 41
20 45 42
20 44 40
21 46 42
20 44 40
20 45 41
20 44 41
20 45 42
20 45 42
21 46 42
20 45 41
20 46 42
20 45 41
20 45 41
20 44 41
20 45 42
20 44 41
20 44 40
20 44 40
20 45 42
20 43 40
21 46 42
20 45 41
20 44 40
20 44 40
20 44 41
20 44 40
20 45 41
20 44 41
20 45 41
20 45 42
20 44 41
20 45 41
21 47 43
20 44 41
20 45 42
20 44 40
20 44 41
20 44 41
20 45 41
20 44 41
21 46 42
20 44 41
20 45 41
20 45 41
20 45 41
20 45 41
20 45 41
21 46 42
20 45 41
21 45 41
21 46 42
21 45 41
21 46 43
21 46 42
21 46 42
21 45 41
21 44 41
21 45 41
22 45 42
22 46 42
22 47 43
23 47 43
22 46 42
23 47 43
24 47 43
23 46 42
24 47 43
25 47 43
25 48 43
25 46 42
26 47 43
27 49 44
27 49 44
27 48 44
28 48 43
29 49 44
29 49 45
30 50 45
31 50 45
32 51 46
32 51 46
33 52 46
34 52 47
34 52 46
35 53 47
36 53 48
37 53 48
37 53 47
38 54 49
39 54 48
40 55 49
41 56 50
41 56 50
42 57 51
43 58 51
43 58 51
44 57 51
45 59 52
45 58 51
46 59 53
46 60 53
46 59 52
47 60 53
47 60 53
47 60 53
20 44 40
19 42 39
20 43 40
20 45 41
20 44 41
20 44 40
19 43 40
20 44 40
20 44 41
20 44 41
20 45 41
20 44 41
20 45 41
19 43 40
20 45 41
19 43 39
20 44 41
20 45 41
20 45 41
20 44 40
20 44 41
21 46 43
20 44 41
21 46 42
20 44 41
20 44 41
20 44 40
20 44 41
20 45 42
20 45 42
20 45 41
20 44 41
20 44 41
20 44 40
20 45 41
20 44 40
21 46 42
21 46 42
20 45 41
21 46 42
20 45 41
20 45 42
20 44 40
21 46 42
20 44 41
20 45 41
20 44 41
20 45 41
20 44 40
21 46 42
20 44 40
20 45 41
20 44 41
21 46 42
19 43 40
20 44 41
20 45 41
20 44 40
20 44 40
21 46 42
21 46 42
20 45 41
20 45 41
21 46 42
21 45 41
21 46 43
21 46 42
21 46 42
21 45 42
21 44 41
22 47 43
22 46 42
22 45 41
22 46 42
22 46 42
23 47 43
22 45 41
23 46 42
23 46 42
24 47 42
24 45 41
24 47 43
25 47 43
26 48 44
26 48 44
27 48 43
28 49 44
29 50 46
29 49 44
30 50 45
30 48 43
30 49 44
32 52 47
33 52 46
34 53 47
34 51 46
35 52 47
36 53 48
36 52 47
38 54 48
38 54 48
39 54 49
40 56 50
41 57 50
42 56 50
43 56 50
44 58 52
44 59 52
45 59 53
46 59 52
46 59 52
47 61 54
48 60 53
48 61 54
49 61 54
49 61 54
50 61 54
51 63 56
51 62 55
51 63 56
19 43 40
20 44 40
20 45 41
20 45 41
20 44 40
20 45 42
20 44 40
20 45 41
20 45 41
20 45 41
19 43 40
20 45 41
20 45 42
20 45 41
20 45 42
21 47 43
20 45 41
20 45 42
20 44 41
20 45 41
20 45 41
20 45 41
20 44 40
20 45 41
20 45 41
20 45 42
20 44 40
20 44 41
20 45 42
21 46 42
20 45 41
20 44 41
20 45 41
20 44 41
20 44 40
21 46 42
21 46 42
20 45 42
20 44 41
20 45 41
20 45 41
20 44 41
20 45 41
20 44 41
20 45 41
21 46 42
20 43 40
20 45 41
21 46 42
20 44 41
21 45 42
20 44 40
20 45 41
20 45 41
20 45 41
21 46 42
20 45 41
21 46 42
21 46 42
20 45 41
20 45 41
21 46 42
21 45 41
21 45 41
21 47 43
21 46 42
21 46 42
22 46 43
21 44 40
22 46 42
21 44 40
21 45 41
22 46 43
22 46 42
22 45 42
23 46 42
23 46 42
23 46 42
24 47 43
25 47 43
25 47 43
25 47 43
26 49 44
26 47 43
27 48 44
28 48 43
29 49 45
30 50 45
30 50 45
30 49 44
31 50 45
32 51 46
34 52 47
34 51 46
35 52 47
36 54 48
37 54 49
38 55 49
39 54 49
40 56 50
41 56 50
42 57 50
43 57 50
44 58 52
45 58 52
46 60 53
47 60 54
47 60 53
48 61 54
49 60 53
50 61 54
51 63 55
51 63 55
52 64 56
52 64 56
53 64 56
53 64 56
54 65 57
54 65 57
55 66 58
20 44 41
19 43 40
20 44 40
20 44 41
20 44 41
20 44 40
20 45 41
20 46 42
19 43 40
20 44 41
20 45 41
19 43 40
20 44 40
20 45 41
20 45 42
20 45 42
20 45 41
21 46 43
21 46 42
19 43 40
19 43 40
21 46 42
21 47 43
20 45 42
19 43 40
20 45 41
20 45 42
20 46 42
20 45 41
20 44 41
20 44 41
20 45 41
20 44 40
20 44 41
20 45 42
20 45 42
20 44 40
20 45 41
20 45 42
20 45 41
20 45 41
20 44 41
20 45 41
20 44 41
20 45 41
20 45 41
20 45 41
21 45 42
21 46 42
20 45 42
20 44 41
21 46 43
21 46 42
21 46 42
21 46 42
20 45 41
21 46 42
20 45 41
21 45 41
20 44 40
21 46 42
20 44 41
20 44 40
20 44 41
21 46 42
21 45 42
22 47 43
21 46 42
22 46 42
22 45 41
22 47 43
22 45 41
23 47 43
23 46 42
23 46 42
23 46 42
24 46 42
24 47 43
25 47 43
25 47 43
25 46 42
26 48 43
27 48 44
28 49 45
28 48 43
29 50 45
30 49 45
31 50 46
32 51 46
33 51 46
34 53 47
34 52 47
35 52 47
37 54 48
38 54 49
39 55 49
39 55 49
41 56 50
41 55 49
43 57 50
44 58 51
45 59 52
46 59 52
47 59 52
48 61 54
49 61 54
50 62 55
51 62 54
52 64 56
53 64 56
53 64 56
54 65 57
55 65 57
56 66 58
56 67 59
57 67 59
57 68 59
58 68 60
58 68 60
58 67 59
20 45 41
20 45 41
19 43 39
20 44 40
20 45 42
20 45 41
20 44 41
20 45 42
20 45 41
20 44 41
20 44 41
20 46 42
20 44 40
19 43 39
20 44 40
20 44 41
20 44 40
20 44 40
19 43 40
20 45 42
20 44 41
20 44 40
20 44 40
20 45 41
20 45 41
20 44 40
21 46 43
20 45 41
20 45 41
20 45 41
19 43 40
20 44 41
19 43 40
20 44 41
20 44 40
20 44 41
20 45 42
20 44 41
20 45 41
21 46 42
20 45 41
20 44 41
20 45 41
20 45 41
20 44 40
20 44 40
21 46 43
20 44 41
20 43 40
20 45 41
20 45 41
21 45 42
20 45 41
20 45 41
20 44 40
20 45 41
20 44 41
20 45 41
21 45 42
21 46 42
20 44 40
21 45 41
21 46 42
21 45 42
21 44 41
21 45 41
21 45 41
21 45 41
22 46 42
21 45 41
23 48 44
23 48 44
24 48 44
24 48 43
24 46 42
24 46 42
25 47 43
25 47 42
25 47 43
26 48 44
27 49 44
27 48 44
28 49 45
29 49 44
30 50 45
31 50 45
31 50 45
32 50 45
33 51 46
34 52 47
35 52 47
36 53 48
38 55 49
39 55 49
39 54 48
41 56 50
42 56 50
43 57 51
44 57 50
45 59 52
46 59 52
48 60 53
49 61 54
50 62 55
51 62 55
52 63 56
53 65 57
54 65 57
55 65 57
56 66 58
57 67 58
58 67 58
58 67 59
59 68 60
60 69 60
61 70 61
61 70 61
62 70 61
62 70 61
62 70 61
19 43 40
19 43 40
20 45 41
20 45 41
20 45 41
20 45 41
20 45 41
20 44 40
21 46 42
20 44 40
20 44 41
20 44 40
20 44 40
20 44 41
19 43 39
20 44 40
20 44 41
19 43 40
20 44 41
20 45 41
20 45 41
20 45 41
20 44 41
20 44 41
20 45 42
20 44 41
20 45 41
20 44 40
20 45 41
20 44 41
21 46 42
21 46 42
20 44 40
20 44 41
20 44 41
20 45 41
20 45 41
20 45 42
20 45 41
20 45 41
20 44 41
20 45 41
21 46 42
20 45 41
20 45 41
20 44 40
20 45 41
20 44 40
20 45 41
20 44 41
21 45 42
20 45 41
20 44 40
20 45 41
21 45 42
20 45 41
20 44 41
21 45 42
20 45 41
20 44 41
21 46 42
21 46 42
21 46 42
21 45 41
21 45 41
21 46 42
22 46 42
22 46 42
21 45 41
22 45 41
22 45 41
23 46 42
23 46 42
24 47 43
24 47 43
24 46 42
25 48 44
26 48 44
27 51 46
27 48 44
28 49 44
29 49 45
29 49 45
30 50 46
31 50 45
32 51 46
33 51 46
34 52 46
35 52 46
36 53 48
37 53 47
39 55 49
39 55 49
40 55 49
42 56 50
43 58 51
44 58 51
46 59 52
47 60 53
48 61 54
49 61 54
51 63 56
52 63 56
53 65 57
54 65 57
55 66 58
57 67 59
57 67 59
59 68 59
60 69 60
61 69 60
62 70 61
62 70 61
63 71 62
64 72 62
64 72 63
65 74 64
66 74 64
66 73 64
67 75 65
20 45 41
20 45 41
20 45 41
20 44 41
19 43 39
20 45 41
20 45 42
20 44 41
20 45 41
19 43 40
20 44 41
20 44 41
20 44 41
20 44 40
20 45 41
20 44 40
20 44 41
19 43 39
20 44 40
20 44 40
20 44 40
20 45 41
20 44 40
20 44 41
19 42 39
19 43 40
20 44 40
20 44 41
21 46 42
20 44 40
20 45 41
20 45 41
20 44 40
20 45 42
19 43 40
20 45 41
20 44 41
20 45 41
20 45 42
20 44 40
20 44 40
20 45 41
20 44 41
20 45 41
20 45 41
20 45 41
20 45 41
21 47 43
20 44 41
20 45 41
20 45 41
21 45 42
20 45 41
21 45 42
20 44 40
21 46 42
20 44 41
21 45 41
20 45 41
21 45 41
21 45 42
20 44 40
21 45 42
21 45 41
21 45 41
22 46 42
22 45 41
22 46 43
23 46 42
22 45 42
23 46 42
23 45 41
24 47 43
24 46 42
25 48 44
25 47 43
26 48 43
26 46 41
27 48 44
28 49 44
29 50 45
30 51 46
30 49 44
31 50 45
33 51 46
33 50 45
35 52 47
36 53 47
37 53 48
38 54 49
39 54 49
40 55 49
42 56 50
43 57 50
44 58 51
46 59 52
47 60 53
48 61 53
50 62 55
51 64 56
52 64 56
54 64 56
55 66 58
57 67 58
58 67 59
59 68 60
60 69 61
61 69 60
62 71 62
64 73 63
65 73 64
65 74 64
66 74 64
67 76 66
68 75 65
69 76 66
69 76 66
70 76 66
70 77 66
71 78 67
20 44 40
20 45 42
20 44 41
20 44 41
20 44 41
20 45 42
20 46 42
19 43 40
20 45 41
20 44 40
20 45 42
20 44 40
21 46 42
21 46 42
20 45 41
20 45 41
20 44 41
20 44 40
20 45 41
20 45 41
20 44 41
20 44 41
20 45 41
20 45 41
20 44 40
20 44 40
20 46 42
20 45 42
20 45 41
21 46 43
20 45 42
20 43 40
20 44 41
20 45 42
20 45 42
20 44 40
19 43 40
20 44 41
20 45 42
20 45 42
20 45 42
19 43 40
20 45 41
21 46 42
20 44 41
20 44 40
21 46 42
20 44 40
21 46 42
20 44 41
21 46 42
20 44 41
20 44 40
20 43 39
20 44 40
20 45 41
21 46 42
21 45 42
21 46 42
20 44 41
21 46 42
21 45 41
21 45 41
22 46 42
22 46 42
22 46 42
22 45 41
22 46 42
23 46 42
23 45 41
23 46 42
24 47 43
25 47 43
25 46 42
26 48 44
26 47 43
27 48 44
28 49 44
28 49 44
29 50 45
30 48 44
31 50 45
32 51 46
33 51 46
34 51 46
36 54 49
36 53 47
38 55 49
39 54 48
40 55 49
41 56 50
43 57 51
44 57 51
46 59 52
47 59 53
48 61 53
50 63 55
51 63 55
53 64 56
54 66 58
56 66 58
57 67 59
58 67 58
60 69 60
61 70 61
62 71 62
63 72 62
65 72 63
66 74 64
67 74 65
68 75 65
69 77 67
71 78 67
71 78 68
72 79 68
73 79 69
74 79 69
74 79 69
75 80 69
75 81 70
20 44 40
20 44 41
19 43 40
20 44 40
20 45 42
19 42 39
20 45 41
20 45 41
20 45 41
20 44 41
20 45 41
19 43 40
20 45 41
21 46 42
20 45 41
20 45 41
20 45 41
20 44 40
20 44 40
20 44 40
20 44 41
20 44 40
20 44 40
20 44 40
20 45 41
20 44 41
20 44 40
20 45 42
21 46 42
20 44 40
20 43 40
20 44 41
19 43 39
20 44 41
19 43 40
21 46 42
20 44 41
20 44 40
21 46 42
20 44 41
20 44 41
21 46 42
20 43 40
19 43 40
20 44 40
20 45 41
20 45 41
20 44 40
20 45 41
21 45 42
20 45 41
20 44 41
20 45 41
20 44 40
20 45 41
20 45 41
21 45 42
21 45 41
21 45 42
21 44 41
21 45 41
21 44 40
21 44 40
22 46 42
22 46 42
22 45 41
22 45 41
23 46 42
23 47 43
24 47 43
24 45 41
25 49 45
25 47 43
26 48 43
26 48 44
27 48 44
28 48 43
28 48 44
30 50 45
30 49 44
31 50 45
32 50 46
33 50 45
34 51 46
36 52 47
37 54 48
38 54 49
40 55 49
41 56 50
42 56 50
43 57 51
45 58 52
46 59 52
48 60 53
49 60 53
51 62 55
53 64 57
54 64 57
56 66 58
57 67 58
59 68 59
60 69 60
62 70 61
63 71 62
65 73 63
66 74 65
67 74 65
69 76 66
70 77 67
71 78 67
72 78 68
73 79 69
74 80 69
75 80 69
76 81 70
77 82 71
78 83 72
78 83 72
79 85 73
79 83 71
20 45 41
19 43 40
19 43 40
20 44 40
20 44 40
19 43 40
20 45 41
19 43 40
20 45 41
20 44 40
20 45 41
20 44 40
20 44 40
21 46 42
20 44 41
20 45 42
20 45 41
21 46 42
20 44 41
20 45 41
20 45 41
20 44 41
20 45 41
21 46 42
20 44 40
20 45 41
19 43 40
20 44 40
21 46 42
20 44 41
20 44 41
20 45 41
20 44 40
20 43 40
20 44 41
20 44 41
21 46 42
20 44 41
20 45 41
20 44 40
20 44 41
20 45 41
20 45 42
20 44 41
20 44 41
20 45 41
20 45 41
20 44 41
20 45 41
20 45 41
20 43 40
20 44 41
20 45 41
20 45 42
20 44 40
21 45 41
21 45 42
21 46 43
21 45 41
22 47 43
22 46 43
21 45 42
22 46 42
21 45 41
22 44 41
23 46 42
23 46 42
24 47 43
23 46 42
24 46 42
25 47 43
25 46 43
26 47 43
27 48 44
27 49 44
28 49 45
29 49 45
30 49 45
31 50 45
32 51 46
33 51 46
34 52 47
35 52 46
36 53 48
37 54 48
38 54 48
40 55 49
42 57 50
43 57 51
45 58 52
46 58 52
47 59 52
49 60 53
51 63 55
52 64 56
54 65 57
56 66 58
57 67 59
59 68 60
60 69 60
62 70 61
63 71 62
65 72 63
66 74 64
68 74 64
70 76 66
71 78 67
73 79 68
74 79 69
75 81 70
76 82 70
77 82 71
78 83 72
80 84 73
81 85 74
81 86 74
82 86 74
83 86 74
83 87 75
84 87 75
19 43 40
20 44 41
20 45 41
20 45 42
20 45 41
20 45 41
20 45 41
20 44 40
20 45 41
19 43 39
20 44 40
21 46 42
19 43 40
20 45 41
20 45 41
20 45 41
19 42 39
20 44 41
20 45 41
20 45 41
20 45 42
20 44 41
20 45 41
19 43 39
19 43 40
20 44 40
19 43 39
19 43 40
20 44 41
20 44 40
20 44 40
20 45 42
20 46 42
20 44 40
20 45 41
20 45 41
20 44 41
20 44 41
20 44 41
20 45 42
20 45 41
20 44 40
21 46 42
20 45 42
20 45 42
20 44 41
20 44 41
20 45 42
20 44 41
20 45 41
21 46 42
21 46 42
21 45 41
20 44 41
21 46 42
20 44 41
21 46 42
21 45 42
20 44 40
21 45 41
21 45 41
22 46 42
22 46 42
22 45 41
22 45 41
22 45 41
23 46 43
23 46 42
24 46 42
24 46 42
25 47 43
26 47 43
26 46 42
27 49 44
28 48 44
29 48 44
30 51 46
31 49 45
31 49 44
33 51 46
34 52 47
35 51 46
36 53 47
38 53 48
39 55 49
41 56 50
42 57 51
43 57 50
45 58 52
47 59 52
48 61 53
50 62 55
51 62 55
53 64 57
55 65 57
57 67 58
58 68 60
60 69 60
62 70 61
64 73 63
65 72 63
67 74 64
68 75 65
70 77 66
72 78 67
73 79 68
75 80 69
76 81 70
78 83 72
79 83 72
80 85 73
82 86 74
83 86 74
84 87 75
85 88 76
86 89 77
87 90 77
87 91 78
88 91 78
88 92 79
20 44 40
20 44 41
20 44 40
20 44 40
19 43 39
20 44 40
19 43 40
20 44 41
20 44 41
20 45 41
20 45 42
20 44 41
21 46 43
20 44 41
20 44 41
19 43 40
19 43 40
20 44 41
20 44 40
20 44 41
20 45 41
20 45 41
20 45 41
20 45 42
20 44 40
20 45 41
20 45 41
20 44 40
20 44 41
20 45 41
20 45 41
20 45 41
20 45 41
20 44 41
20 45 41
20 44 41
19 43 40
21 46 42
20 44 41
20 44 40
21 46 42
20 44 41
20 45 41
20 44 40
20 44 40
20 45 41
20 44 40
20 44 40
20 44 41
20 45 41
20 44 40
20 45 41
21 45 41
20 44 41
20 44 41
21 45 41
21 44 41
21 45 41
21 44 40
22 46 42
22 46 42
22 45 41
22 45 41
23 46 43
23 46 42
23 45 41
24 46 42
24 46 42
24 46 42
25 47 43
26 48 43
26 47 43
27 48 43
28 48 44
29 50 46
30 49 44
31 49 44
32 50 46
33 52 46
34 51 46
36 53 48
37 53 47
38 54 49
40 56 50
41 55 49
42 56 50
44 58 51
46 59 52
47 59 52
49 61 54
50 62 54
52 63 55
54 64 56
56 65 57
58 67 59
60 69 60
61 69 60
63 72 63
65 72 63
67 74 65
69 76 66
70 77 66
72 79 68
74 79 68
76 81 70
77 81 70
79 83 72
80 85 73
82 86 74
83 88 76
85 88 76
86 89 77
87 90 77
88 91 78
89 92 79
90 92 79
91 93 80
92 94 81
92 95 82
93 95 82
20 44 40
19 43 39
20 44 40
20 45 41
20 45 41
20 45 41
20 45 41
20 44 41
20 44 41
20 45 41
20 45 41
20 45 42
20 44 40
20 45 41
20 45 42
20 44 40
19 43 39
20 44 41
20 44 40
20 45 42
19 43 39
20 45 42
20 44 41
20 45 42
19 43 40
20 46 42
20 44 41
20 45 41
20 44 40
20 44 41
20 44 41
19 43 39
20 45 41
20 44 40
20 44 41
20 45 41
20 44 40
20 44 41
20 44 40
20 44 40
20 45 42
20 44 40
20 45 42
20 44 40
20 44 40
20 44 40
20 44 40
21 46 42
20 43 40
20 44 40
20 45 41
21 46 42
20 43 40
21 45 41
21 45 41
21 45 42
21 45 41
21 45 41
21 45 41
22 45 41
21 44 40
22 46 42
22 45 41
23 46 42
23 46 42
23 45 41
24 47 43
25 48 44
26 48 44
26 48 44
26 47 43
28 49 45
28 48 43
29 48 43
30 50 45
31 51 46
32 50 45
33 51 46
34 52 46
36 52 47
37 53 47
38 54 48
40 56 50
41 55 49
43 58 51
44 58 51
46 59 52
48 61 54
49 61 54
51 63 55
53 64 56
55 65 57
57 67 58
59 68 60
61 70 61
62 70 61
65 73 63
66 73 64
68 75 65
70 77 67
72 78 68
74 80 69
76 81 70
78 83 71
79 84 72
81 85 73
82 86 74
84 88 76
86 88 76
87 90 77
88 91 78
90 93 80
91 94 81
92 94 81
93 95 82
95 97 83
95 97 83
96 97 83
97 99 84
98 99 85
