P3
120 80
255
221 235 255
221 235 255
221 235 255
221 235 255
221 235 255
221 235 255
221 235 255
221 235 255
221 235 255
221 235 255
221 235 255
221 235 255
221 235 255
221 235 255
221 235 255
221 235 255
221 235 255
221 235 255
221 235 255
221 235 255
221 235 255
221 235 255
221 235 255
221 235 255
221 235 255
221 235 255
221 235 255
221 235 255
221 235 255
221 235 255
221 235 255
221 235 255
221 235 255
221 235 255
221 235 255
221 235 255
221 235 255
221 235 255
221 235 255
221 235 255
221 235 255
221 235 255
221 235 255
221 235 255
221 235 255
221 235 255
221 235 255
221 235 255
221 235 255
221 235 255
221 235 255
221 235 255
221 235 255
221 235 255
221 235 255
221 235 255
221 235 255
221 235 255
221 235 255
221 235 255
221 235 255
221 235 255
221 235 255
221 235 255
221 235 255
221 235 255
221 235 255
221 235 255
221 235 255
221 235 255
221 235 255
221 235 255
221 235 255
221 235 255
221 235 255
221 235 255
221 235 255
221 235 255
221 235 255
221 235 255
221 235 255
221 235 255
221 235 255
221 235 255
221 235 255
221 235 255
221 235 255
221 235 255
221 235 255
221 235 255
221 235 255
221 235 255
221 235 255
221 235 255
221 235 255
221 235 255
221 235 255
221 235 255
221 235 255
221 235 255
221 235 255
221 235 255
221 235 255
221 235 255
221 235 255
221 235 255
221 235 255
221 235 255
221 235 255
221 235 255
221 235 255
221 235 255
221 235 255
221 235 255
221 235 255
221 235 255
221 235 255
221 235 255
221 235 255
221 235 255
221 235 255
221 235 255
221 235 255
221 235 255
221 235 255
221 235 255
221 235 255
221 235 255
221 235 255
221 235 255
221 235 255
221 235 255
221 235 255
221 235 255
221 235 255
221 235 255
221 235 255
221 235 255
221 235 255
221 235 255
221 235 255
221 235 255
221 235 255
221 235 255
221 235 255
221 235 255
221 235 255
221 235 255
221 235 255
221 235 255
221 235 255
221 235 255
221 235 255
221 235 255
221 235 255
221 235 255
221 235 255
221 235 255
221 235 255
221 235 255
221 235 255
221 235 255
221 235 255
221 235 255
221 235 255
221 235 255
221 235 255
221 235 255
221 235 255
221 235 255
221 235 255
221 235 255
221 235 255
221 235 255
221 235 255
221 235 255
221 235 255
221 235 255
221 235 255
221 235 255
221 235 255
221 235 255
221 235 255
221 235 255
221 235 255
221 235 255
221 235 255
221 235 255
221 235 255
221 235 255
221 235 255
221 235 255
221 235 255
221 235 255
221 235 255
221 235 255
221 235 255
221 235 255
221 235 255
221 235 255
221 235 255
221 235 255
221 235 255
221 235 255
221 235 255
221 235 255
221 235 255
221 235 255
221 235 255
221 235 255
221 235 255
221 235 255
221 235 255
221 235 255
221 235 255
221 235 255
221 235 255
221 235 255
221 235 255
221 235 255
221 235 255
221 235 255
221 235 255
221 235 255
221 235 255
221 235 255
221 235 255
221 235 255
221 235 255
221 235 255
221 235 255
221 235 255
221 235 255
221 235 255
221 235 255
221 235 255
221 235 255
221 235 255
221 235 255
221 235 255
221 235 255
221 235 255
221 235 255
221 235 255
221 235 255
221 235 255
221 235 255
221 235 255
221 235 255
221 235 255
221 235 255
221 235 255
221 235 255
221 235 255
221 235 255
221 235 255
221 235 255
221 235 255
221 235 255
221 235 255
221 235 255
221 235 255
221 235 255
221 235 255
221 235 255
221 235 255
221 235 255
221 235 255
221 235 255
221 235 255
221 235 255
221 235 255
221 235 255
221 235 255
221 235 255
221 235 255
221 235 255
221 235 255
221 235 255
221 235 255
221 235 255
221 235 255
221 235 255
221 235 255
221 235 255
221 235 255
221 235 255
221 235 255
221 235 255
221 235 255
221 235 255
221 235 255
221 235 255
221 235 255
221 235 255
221 235 255
221 235 255
221 235 255
221 235 255
221 235 255
221 235 255
221 235 255
221 235 255
221 235 255
221 235 255
221 235 255
221 235 255
221 235 255
221 235 255
221 235 255
221 235 255
221 235 255
221 235 255
221 235 255
221 235 255
221 235 255
221 235 255
221 235 255
221 235 255
221 235 255
221 235 255
221 235 255
221 235 255
221 235 255
221 235 255
221 235 255
221 235 255
221 235 255
221 235 255
221 235 255
221 235 255
221 235 255
221 235 255
221 235 255
221 235 255
221 235 255
221 235 255
221 235 255
221 235 255
221 235 255
221 235 255
221 235 255
221 235 255
221 235 255
221 235 255
221 235 255
221 235 255
221 235 255
221 235 255
221 235 255
221 235 255
221 235 255
221 235 255
221 235 255
221 235 255
221 235 255
221 235 255
221 235 255
221 235 255
221 235 255
221 235 255
221 235 255
221 235 255
221 235 255
221 235 255
221 235 255
221 235 255
221 235 255
221 235 255
221 235 255
221 235 255
221 235 255
221 235 255
221 235 255
221 235 255
221 235 255
221 235 255
221 235 255
221 235 255
221 235 255
221 235 255
221 235 255
221 235 255
221 235 255
221 235 255
221 235 255
221 235 255
221 235 255
221 235 255
221 235 255
221 235 255
221 235 255
221 235 255
221 235 255
221 235 255
221 235 255
221 235 255
221 235 255
221 235 255
221 235 255
221 235 255
221 235 255
221 235 255
221 235 255
221 235 255
221 235 255
221 235 255
221 235 255
221 235 255
221 235 255
221 235 255
221 235 255
221 235 255
221 235 255
221 235 255
221 235 255
221 235 255
221 235 255
221 235 255
221 235 255
221 235 255
221 235 255
221 235 255
221 235 255
221 235 255
221 235 255
221 235 255
221 235 255
221 235 255
221 235 255
221 235 255
221 235 255
221 235 255
221 235 255
221 235 255
221 235 255
221 235 255
221 235 255
221 235 255
221 235 255
221 235 255
221 235 255
221 235 255
221 235 255
221 235 255
221 235 255
221 235 255
221 235 255
221 235 255
221 235 255
221 235 255
221 235 255
221 235 255
221 235 255
221 235 255
221 235 255
221 235 255
221 235 255
221 235 255
221 235 255
221 235 255
221 235 255
221 235 255
221 235 255
221 235 255
221 235 255
221 235 255
221 235 255
221 235 255
221 235 255
221 235 255
221 235 255
221 235 255
221 235 255
221 235 255
221 235 255
221 235 255
221 235 255
221 235 255
221 235 255
187 200 217
174 187 202
180 192 208
190 203 220
185 198 215
190 203 220
186 199 215
176 188 204
182 195 211
178 191 207
182 194 211
176 188 204
176 188 204
178 190 206
175 187 203
180 192 209
182 195 212
182 195 212
184 197 213
186 199 215
182 195 212
179 192 208
187 200 217
178 191 207
179 192 208
175 187 203
180 192 208
182 195 211
182 195 212
176 188 204
181 194 210
179 192 208
177 189 205
174 186 201
182 195 212
177 190 205
186 199 216
174 187 202
180 193 209
183 196 212
180 192 208
188 201 218
172 185 200
179 192 208
182 195 212
182 195 211
179 192 208
185 198 215
180 192 209
187 200 217
171 184 199
179 192 208
183 196 212
192 205 222
178 191 207
179 192 208
186 199 215
179 192 208
178 191 207
173 185 201
184 197 213
181 194 210
176 188 204
179 192 208
182 194 211
183 196 212
174 186 201
180 193 209
178 190 206
180 193 209
176 189 205
188 201 217
180 193 209
176 188 204
182 195 211
183 196 212
181 194 210
184 197 214
178 190 206
165 177 192
180 193 209
178 190 206
184 197 214
180 193 209
173 185 201
178 191 207
188 201 218
174 186 202
186 199 215
176 188 204
176 188 204
192 205 222
176 189 205
179 192 208
179 192 208
180 193 209
188 201 218
177 190 205
192 205 223
176 188 204
190 203 220
176 188 204
176 189 205
177 190 205
180 192 208
182 195 211
191 204 221
186 199 215
174 187 202
176 189 205
185 197 214
176 188 204
182 195 212
177 190 205
181 194 210
183 196 212
176 189 205
178 191 207
188 201 218
182 194 211
15 35 34
15 35 34
15 35 34
15 36 34
15 36 34
15 36 34
15 35 34
15 35 34
15 36 35
15 36 35
15 35 34
15 35 34
22 39 39
15 36 34
15 35 34
15 35 34
15 36 34
15 36 34
15 35 34
15 35 34
15 36 34
16 37 35
15 36 35
15 36 34
15 36 34
15 35 34
15 35 34
15 35 34
15 36 34
15 36 35
15 36 34
15 36 34
15 35 34
15 36 34
15 36 34
15 36 35
15 36 34
15 35 34
15 36 34
15 36 35
15 36 35
15 36 35
15 35 34
15 36 35
15 35 34
15 36 35
15 36 35
15 35 34
15 35 33
16 37 35
15 36 34
15 35 34
15 35 34
15 35 34
15 35 34
15 35 34
15 36 35
15 35 34
15 35 34
15 36 34
15 35 33
15 35 34
16 36 35
15 36 35
15 35 33
15 36 34
15 36 34
15 36 34
15 35 34
15 36 35
15 36 34
15 35 34
15 36 34
15 36 34
15 35 34
15 36 34
15 35 34
15 35 34
15 36 35
22 39 39
21 39 38
15 35 34
15 36 35
15 36 35
15 36 34
15 36 35
22 39 39
15 36 35
15 36 35
15 35 34
16 37 35
15 35 34
15 35 34
15 35 33
15 36 34
15 36 35
15 36 34
15 36 34
15 35 34
16 37 35
15 36 34
27 43 43
15 35 34
15 36 34
22 40 39
15 35 34
15 36 34
15 36 35
15 36 35
16 36 35
15 35 34
15 36 35
16 36 35
21 39 38
15 35 34
15 36 34
15 35 34
15 35 34
16 36 35
16 37 35
15 36 34
15 35 34
15 36 34
16 36 35
15 36 35
15 36 35
15 36 34
15 35 34
15 34 33
15 36 35
16 37 35
15 36 34
16 37 35
15 36 35
16 36 35
15 36 34
15 36 35
15 36 34
15 36 34
15 36 35
15 36 34
15 36 35
16 36 35
15 36 35
15 36 35
15 35 34
15 36 34
16 36 35
16 36 35
16 36 35
15 36 34
15 36 35
15 36 34
15 35 34
15 36 34
16 36 35
15 35 34
16 36 35
15 35 33
15 35 34
15 36 34
15 36 35
15 36 35
16 37 35
15 36 35
15 35 34
15 36 34
15 36 35
15 36 35
16 37 35
15 36 35
15 36 34
15 35 34
15 36 34
15 35 34
15 36 35
15 35 34
15 36 35
15 36 35
15 36 34
16 37 35
16 37 35
16 36 35
15 36 34
15 36 34
16 37 35
15 36 34
15 36 35
15 35 34
16 36 35
15 36 34
15 36 34
15 36 34
15 36 34
15 35 34
15 35 34
15 36 35
16 36 35
15 35 34
15 36 34
15 36 35
15 36 35
15 36 35
16 36 35
16 36 35
15 36 34
15 35 34
15 36 34
15 36 34
15 35 34
15 36 34
15 36 35
15 35 34
15 36 35
16 37 35
16 36 35
15 36 34
16 37 35
16 36 35
16 37 36
15 36 34
15 36 35
16 37 35
15 36 34
15 36 35
15 35 34
15 36 34
15 35 34
15 36 35
15 36 35
15 36 35
16 37 35
15 36 35
16 36 35
15 36 35
15 36 34
15 35 34
15 35 34
15 36 35
15 36 34
15 36 34
16 36 35
15 36 35
15 36 34
16 37 36
15 35 34
15 36 34
15 36 34
15 36 34
15 36 35
15 36 35
15 36 35
15 36 35
15 36 35
15 36 35
16 37 35
15 36 34
15 36 34
16 36 35
15 36 34
15 36 35
15 36 34
16 37 35
16 37 35
15 36 34
16 36 35
16 37 36
16 37 35
15 35 34
16 36 35
15 36 35
16 37 35
16 37 36
15 36 35
16 37 35
15 36 35
15 36 34
16 37 35
15 36 35
15 36 35
16 37 35
16 36 35
15 36 35
15 36 34
15 36 34
15 36 34
15 36 34
16 37 36
15 36 35
15 36 34
15 36 34
15 35 34
15 35 33
16 36 35
15 36 35
16 36 35
16 37 35
15 35 34
15 36 34
16 36 35
16 36 35
16 37 35
15 36 34
16 36 35
16 36 35
16 36 35
16 37 36
16 37 36
16 37 35
16 36 35
15 35 34
16 36 35
15 36 34
16 37 35
16 36 35
16 37 36
15 36 35
16 36 35
15 36 35
15 36 34
15 36 35
15 36 35
15 36 34
16 36 35
15 36 34
15 36 35
16 37 35
16 37 35
16 36 35
16 36 35
16 37 35
16 36 35
16 36 35
15 36 34
16 37 35
15 35 34
16 36 35
16 37 35
16 36 35
16 37 36
16 36 35
16 36 35
15 36 34
16 37 35
15 36 35
15 36 35
15 36 35
15 36 34
15 36 35
15 36 35
16 37 36
16 37 35
15 36 35
16 36 35
15 36 35
15 36 35
15 36 34
15 35 34
15 35 34
16 37 35
16 37 35
15 35 34
16 36 35
15 36 34
16 36 35
16 37 36
15 36 34
16 36 35
16 37 35
16 37 35
16 37 35
16 36 35
16 37 35
16 36 35
15 35 34
16 37 35
15 36 34
16 37 35
16 37 36
16 36 35
16 37 35
16 37 35
16 37 35
16 37 35
15 36 35
16 36 34
16 36 35
15 36 35
15 36 34
16 37 35
16 37 35
16 37 35
16 37 36
16 37 36
16 36 35
16 36 35
15 36 34
15 36 34
16 38 36
15 36 35
15 35 34
16 37 35
16 37 35
16 36 35
16 37 35
15 36 34
16 37 36
16 37 35
16 37 36
15 36 35
16 36 35
15 36 35
16 37 36
16 37 35
16 36 35
16 37 35
16 36 35
15 35 34
15 36 34
15 36 35
16 36 35
16 36 35
16 36 35
15 36 34
16 36 35
16 37 35
16 37 36
16 37 35
16 36 35
16 37 35
15 36 35
15 36 34
16 36 35
16 36 35
15 36 34
15 36 34
16 37 35
16 37 35
15 36 34
15 35 34
16 37 35
16 37 35
16 37 35
15 36 34
16 36 35
16 36 35
15 36 35
16 37 35
16 36 35
15 36 34
15 36 35
16 37 35
16 36 35
16 36 35
16 37 35
15 35 34
16 36 35
16 37 35
16 37 36
15 36 34
15 35 34
16 36 35
16 37 35
16 37 36
15 36 34
15 35 34
16 37 35
16 36 35
16 37 35
15 36 34
15 36 35
16 37 35
15 36 35
16 37 35
16 37 36
16 37 35
16 36 35
16 37 35
16 37 35
16 36 35
16 36 35
16 37 35
16 37 35
16 36 35
16 37 35
16 37 35
16 37 35
15 36 35
16 37 35
16 37 36
16 37 36
16 36 35
16 37 35
15 36 34
16 37 35
16 37 35
15 36 34
16 37 35
16 36 35
16 37 35
16 37 35
16 36 35
15 36 34
16 37 35
16 37 35
16 37 35
16 37 35
15 36 34
15 36 34
16 37 35
15 36 34
16 37 35
16 37 35
15 36 35
16 37 35
16 36 35
16 37 35
16 37 36
16 36 35
16 37 36
16 36 35
15 36 34
16 36 35
16 37 35
15 36 34
16 37 35
16 36 35
16 36 35
16 37 35
16 37 36
16 36 35
16 37 35
15 36 34
15 36 34
16 36 35
16 36 35
16 37 35
16 36 35
16 37 35
16 37 36
15 36 35
16 37 36
15 36 35
16 37 35
16 36 35
15 35 34
16 37 35
16 37 36
16 37 36
16 36 35
16 36 35
16 37 35
16 37 36
16 37 36
16 37 35
16 36 35
16 36 35
16 37 36
16 37 35
16 37 36
15 36 34
16 36 35
16 37 35
16 37 35
16 37 35
16 37 35
16 37 35
16 36 35
16 37 35
16 37 35
16 37 35
16 36 35
16 37 35
16 37 36
16 37 35
16 37 35
15 36 34
16 37 35
16 37 35
16 37 35
16 36 35
16 37 35
16 36 35
15 36 34
16 36 35
16 37 35
15 36 35
16 37 35
15 36 34
16 37 35
16 37 35
15 36 35
15 36 35
16 37 35
16 36 35
16 37 35
16 37 35
16 37 36
15 36 34
16 36 35
16 37 35
16 37 36
16 37 35
16 37 36
16 36 35
16 38 36
16 37 35
16 37 36
16 37 35
16 37 35
16 36 35
16 37 35
16 37 35
16 37 36
16 37 36
16 37 36
16 37 35
16 36 35
16 37 35
16 38 36
16 37 36
16 37 35
16 38 36
16 37 35
16 36 34
16 37 35
16 37 35
16 37 36
16 36 35
16 37 35
16 37 36
16 37 36
16 37 35
16 36 35
16 37 35
16 36 35
16 37 35
16 36 35
15 36 34
16 37 36
16 37 35
16 37 35
16 37 35
16 37 36
16 37 35
16 37 35
16 37 35
16 37 35
16 37 35
16 36 35
16 37 35
16 36 35
16 37 36
16 37 35
16 37 35
16 37 35
16 38 36
16 37 35
16 37 36
16 37 35
16 37 35
16 36 35
16 36 34
16 37 36
16 37 35
16 37 35
16 37 35
15 36 34
16 37 35
16 37 35
16 37 35
16 37 35
16 38 36
16 37 36
16 37 36
16 37 35
16 37 35
16 38 36
16 37 35
16 37 35
16 37 35
16 37 35
16 37 36
16 37 36
16 37 35
16 37 36
16 37 36
16 37 35
16 37 35
16 37 35
16 37 36
16 37 36
16 38 36
16 37 35
16 37 36
16 37 35
16 37 35
16 37 36
16 37 35
16 38 36
16 36 35
16 37 36
16 37 35
16 38 36
16 36 35
16 37 36
16 37 36
16 37 36
16 37 35
16 37 35
16 38 36
16 37 35
15 36 34
16 36 35
16 37 35
16 37 35
16 36 34
16 37 35
16 37 35
16 37 35
16 37 36
16 38 36
16 38 37
16 38 36
16 37 35
16 37 35
16 37 35
16 37 35
16 38 36
16 37 36
16 37 36
16 38 36
16 37 36
16 37 35
16 37 35
16 37 35
16 38 36
16 38 36
16 36 35
16 37 35
16 36 34
16 37 35
16 37 36
16 37 35
16 38 36
16 37 36
16 37 35
16 37 36
16 37 36
16 38 36
16 37 35
16 38 36
15 36 34
16 37 35
16 37 36
16 37 35
16 37 35
16 37 35
16 38 36
16 38 36
17 38 36
16 37 36
16 38 36
16 37 35
16 38 36
16 37 36
16 38 36
16 38 36
16 37 35
16 38 36
16 38 36
16 37 36
16 37 35
16 37 35
16 37 36
16 37 35
17 38 36
16 38 36
16 37 35
17 38 37
16 37 35
16 37 35
16 37 35
16 37 36
16 37 35
16 37 36
16 37 35
16 38 36
16 38 36
16 37 36
16 38 36
16 37 36
16 37 35
16 37 36
17 38 36
16 36 34
16 37 36
16 38 36
16 38 36
16 37 35
16 37 35
16 38 36
16 36 35
16 36 35
16 38 36
16 37 35
16 38 36
16 37 35
16 37 36
16 38 36
16 38 36
16 37 35
16 37 35
16 37 35
16 37 35
16 38 36
17 38 37
16 37 35
16 37 35
16 37 35
16 37 35
16 38 36
16 38 36
16 37 36
16 37 36
16 38 36
16 38 36
16 37 35
15 36 34
16 38 36
16 38 36
16 37 36
16 37 36
16 37 35
15 36 34
16 37 35
16 37 35
16 37 36
16 37 36
16 36 35
16 37 35
16 38 36
16 36 35
16 38 36
16 38 36
16 38 36
16 38 36
17 38 36
16 38 36
16 37 35
16 38 36
16 37 35
16 38 36
16 37 35
16 38 36
16 38 36
16 37 35
16 37 35
16 37 35
16 38 36
16 37 35
16 37 35
16 37 36
16 38 36
16 38 36
16 37 35
16 38 36
16 37 35
16 38 36
16 37 36
16 38 36
16 37 35
16 37 35
16 37 36
17 38 37
17 38 36
17 39 37
16 38 36
16 38 36
16 38 36
16 38 36
16 38 36
17 38 36
16 37 35
16 38 36
16 36 35
16 37 35
16 37 35
16 37 35
16 38 36
16 38 36
16 38 36
16 37 36
16 37 35
16 37 35
16 38 36
16 38 36
16 37 36
17 38 37
16 37 36
16 38 36
16 37 36
17 38 36
16 37 36
16 38 36
16 37 35
16 38 36
16 38 36
16 38 36
16 37 36
16 37 36
16 37 35
16 38 36
16 38 36
16 36 35
16 38 36
16 37 36
16 38 36
16 37 35
16 37 35
16 37 35
16 38 36
16 38 36
16 37 35
16 37 36
16 37 35
16 38 36
16 37 35
17 38 37
16 38 36
16 38 36
16 38 36
16 38 36
16 38 36
16 37 36
16 37 35
17 38 36
16 37 36
17 38 36
16 38 36
16 37 35
16 37 36
16 38 36
17 39 37
17 38 36
16 38 36
16 38 36
16 37 36
17 39 37
16 37 36
16 37 35
16 38 36
16 38 36
16 38 36
16 37 36
16 38 36
16 37 36
16 38 36
16 37 35
16 38 36
16 38 36
17 39 37
17 39 37
17 38 37
16 38 36
17 38 36
16 38 36
16 38 36
17 38 36
16 38 36
17 39 37
16 38 36
17 38 36
17 38 36
17 38 36
17 38 36
16 37 35
16 38 36
16 38 36
16 38 36
16 37 36
16 37 35
16 38 36
16 37 36
16 38 36
17 39 37
16 38 36
16 37 35
17 38 36
16 37 35
16 38 36
16 38 36
17 39 37
16 38 36
16 38 36
16 38 36
17 38 36
16 37 35
17 38 36
16 37 35
16 37 35
16 38 36
16 37 36
16 38 36
17 38 36
16 38 36
16 38 36
17 38 36
16 37 35
16 38 36
17 38 36
16 38 36
17 39 37
17 39 37
16 38 36
16 38 36
16 38 36
16 38 36
16 37 35
17 38 36
17 38 36
17 38 36
17 39 37
17 39 37
16 37 36
16 37 35
16 38 36
16 37 35
17 38 36
16 38 36
16 37 35
17 39 37
16 38 36
17 39 37
16 37 36
16 37 35
17 38 36
17 38 36
16 37 35
16 38 36
16 38 36
16 38 36
16 38 36
16 38 36
16 37 36
17 38 37
17 39 37
16 38 36
17 38 36
16 37 36
17 38 36
16 37 35
16 37 35
17 39 37
17 38 36
16 37 35
17 39 36
17 38 36
17 38 36
16 38 36
17 38 36
17 39 37
16 37 35
16 38 36
16 38 36
16 38 36
16 38 36
16 37 36
17 38 36
16 37 35
17 38 36
17 39 37
17 38 37
17 38 36
16 38 36
17 38 36
17 38 36
17 38 36
16 37 35
16 38 36
16 38 36
16 38 36
17 38 36
17 38 36
17 38 36
17 38 36
17 39 37
17 38 36
17 38 36
16 37 35
17 38 36
17 38 36
17 38 36
16 37 35
17 38 36
16 37 35
17 39 37
16 38 36
17 39 37
17 39 37
17 38 36
17 38 36
17 38 36
16 38 36
16 38 36
17 38 36
17 39 37
17 38 37
17 38 36
17 38 37
17 38 36
17 39 37
17 38 36
16 38 36
17 38 36
17 38 36
16 38 36
17 38 36
17 38 36
17 38 36
17 38 36
16 38 36
16 38 36
16 38 36
16 38 36
17 38 36
17 38 36
17 38 36
16 38 36
17 38 36
17 39 37
16 38 36
17 38 36
16 38 36
17 38 36
17 38 36
17 39 37
17 39 37
17 38 36
17 38 36
17 38 36
17 38 36
16 38 36
17 39 37
17 39 37
17 39 37
16 38 36
17 39 37
17 39 37
17 38 36
17 38 36
17 39 37
17 39 37
17 38 36
17 39 37
17 38 36
17 38 36
17 38 36
17 39 37
17 38 36
17 38 36
17 38 36
17 39 37
17 39 37
17 38 36
17 40 38
17 39 37
17 39 37
17 39 37
17 39 37
17 38 36
17 38 36
16 38 36
17 38 36
16 38 36
17 38 36
17 38 36
17 38 36
17 38 36
17 39 37
16 38 36
16 38 36
17 38 36
16 37 35
17 39 37
16 38 36
17 39 37
17 39 37
17 38 36
17 40 37
16 38 36
17 39 37
17 38 36
17 38 36
17 39 37
17 38 36
17 38 36
16 37 35
16 38 36
16 38 36
17 38 36
17 38 36
16 37 35
16 38 36
17 38 36
17 38 36
17 38 36
16 38 36
17 39 37
17 38 36
17 38 36
17 39 37
17 39 37
17 38 36
17 38 36
17 38 36
17 38 36
16 38 36
17 38 36
17 38 36
17 39 37
17 38 36
17 38 36
17 38 36
17 39 37
17 38 36
17 39 37
17 39 37
17 39 37
17 39 37
17 39 36
18 40 38
17 38 36
17 38 36
17 38 36
17 38 36
17 39 36
17 39 37
17 38 36
17 39 37
17 38 36
17 39 37
17 39 37
17 39 36
17 39 37
17 39 37
17 38 36
16 38 36
17 39 37
17 39 36
17 39 37
17 39 36
17 38 36
17 38 36
17 39 37
17 39 36
17 39 37
17 39 37
17 39 36
17 39 37
17 39 37
17 38 36
17 39 37
17 39 37
17 39 37
17 39 37
17 38 36
17 39 37
17 39 37
17 39 36
17 40 38
17 39 37
17 39 37
17 40 37
17 39 37
17 38 36
17 39 36
17 39 37
16 38 36
17 40 37
17 39 37
16 38 36
17 39 37
17 40 37
17 38 36
17 39 37
17 39 37
16 38 36
17 39 37
17 38 36
17 39 37
17 38 36
17 38 36
17 38 36
17 38 36
17 38 36
17 40 37
17 39 37
17 39 37
17 39 36
17 39 37
17 39 37
16 38 36
17 39 37
17 38 36
17 39 37
17 40 38
17 38 36
17 39 37
17 39 37
17 38 36
17 38 36
17 38 36
17 39 37
17 39 37
17 39 37
17 39 37
17 38 36
17 39 37
17 39 37
17 39 37
18 40 38
17 39 37
17 39 37
17 40 37
17 38 36
17 39 37
17 40 37
17 38 36
17 38 36
17 39 37
17 38 36
17 39 36
17 39 37
17 39 37
17 39 36
17 38 36
17 38 36
17 38 36
17 39 36
17 39 37
17 39 37
17 38 36
17 39 37
18 40 38
17 39 37
17 39 37
17 39 37
17 39 37
17 39 37
17 40 38
17 39 37
17 40 38
17 39 37
17 38 36
17 38 36
17 39 37
17 40 37
17 40 37
18 40 38
17 40 37
17 40 37
17 39 37
17 39 37
17 38 36
17 39 37
17 39 37
17 39 36
17 40 38
17 39 37
16 37 35
17 39 37
17 39 36
17 40 37
17 40 38
18 40 38
17 39 37
17 40 37
17 39 37
17 38 36
17 39 37
17 40 38
17 39 37
17 40 37
17 38 36
17 40 37
17 38 36
17 39 37
17 39 37
17 39 37
17 39 37
17 39 37
17 39 37
17 39 37
17 39 37
17 39 36
17 38 36
17 38 36
17 39 37
17 40 37
18 40 38
17 39 37
17 39 37
17 38 36
17 39 37
17 39 37
17 40 37
17 39 37
17 40 37
18 40 38
17 39 37
17 39 37
17 39 37
17 39 37
17 39 36
17 40 38
17 38 36
17 39 37
17 39 37
17 38 36
17 39 37
17 38 36
17 39 37
17 39 37
17 40 37
17 38 36
17 38 36
17 40 38
17 39 37
17 38 36
17 39 37
17 40 37
17 40 37
17 39 37
17 39 37
17 39 37
17 38 36
17 40 37
17 40 38
17 39 37
17 40 37
18 41 38
17 39 36
17 39 37
17 39 37
17 39 37
17 39 37
17 39 37
17 39 37
17 39 37
17 40 37
17 39 37
17 40 37
17 39 37
17 39 37
18 40 37
18 40 38
17 40 37
17 39 37
17 39 37
17 40 37
17 39 37
17 40 37
17 39 37
17 39 37
17 39 37
17 40 37
17 40 37
17 39 37
17 39 37
17 39 37
17 39 36
17 39 36
17 40 37
17 39 37
18 40 38
18 40 38
17 40 37
17 39 37
17 39 36
18 40 38
18 40 38
17 40 37
17 39 37
18 40 38
17 40 37
17 38 36
18 40 38
17 40 37
17 40 38
18 40 38
18 40 38
17 39 37
17 40 37
17 40 37
18 40 38
17 39 37
17 39 37
18 40 37
18 40 38
17 40 37
18 40 38
17 39 37
17 40 37
18 40 37
17 39 37
17 39 37
17 39 37
17 40 37
18 41 38
17 39 37
18 40 38
17 39 37
17 40 38
18 40 38
18 40 38
17 39 37
18 41 38
17 39 37
17 39 37
18 40 38
17 40 38
17 39 37
18 42 39
17 40 37
17 40 37
18 40 38
17 40 37
18 40 37
17 40 37
17 39 37
17 40 37
17 40 37
17 39 37
17 39 37
17 39 37
17 39 37
17 39 37
17 39 37
17 40 37
17 40 38
17 40 38
18 41 38
18 40 38
17 40 37
18 41 38
17 39 37
18 40 38
17 39 37
17 40 37
17 39 37
17 40 37
17 39 37
18 41 38
17 39 37
17 40 37
17 39 36
17 40 37
17 39 37
17 40 37
18 41 38
17 40 37
17 40 37
17 40 37
17 39 37
17 40 37
17 40 37
17 39 37
18 40 38
17 39 36
17 40 37
17 40 37
18 40 38
17 39 37
17 39 36
17 40 37
17 40 37
17 40 37
17 40 37
18 40 38
17 39 37
18 41 39
18 40 38
17 39 37
17 39 37
18 40 37
17 39 37
17 40 37
17 39 37
18 40 37
18 41 38
18 40 38
17 40 37
18 40 38
18 40 38
18 40 37
17 39 37
18 40 38
17 39 37
18 41 38
17 39 37
18 41 38
18 40 38
17 39 37
18 40 38
17 40 37
17 39 36
18 40 37
17 39 37
18 41 38
18 40 38
18 40 37
18 41 38
18 41 38
18 40 37
17 40 37
18 40 37
18 40 38
17 39 37
18 41 38
18 40 38
18 40 37
18 41 38
18 40 37
18 40 38
18 40 37
18 40 38
17 39 37
17 39 37
18 40 38
17 40 37
17 39 36
17 40 37
17 40 37
18 40 37
18 40 38
18 40 37
18 40 37
18 41 38
18 41 39
18 40 38
18 40 38
17 39 37
18 41 39
18 41 38
18 40 38
17 39 37
18 40 38
18 40 38
18 40 38
18 41 38
18 40 38
18 40 37
18 41 38
17 40 37
18 41 39
18 41 39
17 39 37
18 40 38
18 40 38
18 40 37
18 40 38
18 40 38
18 41 38
18 41 38
18 40 37
18 40 38
18 40 37
18 40 38
18 40 37
18 40 38
18 40 38
18 40 38
18 40 38
17 39 36
17 39 37
17 39 37
18 41 39
17 40 37
17 39 37
18 40 38
18 41 39
18 40 38
17 40 37
18 40 38
17 40 37
17 40 37
18 40 38
18 40 38
17 39 37
18 41 39
18 41 38
18 40 38
17 40 37
18 40 38
18 41 38
18 41 38
18 40 38
18 41 39
18 40 37
18 41 38
18 40 37
18 40 37
18 41 38
18 40 38
18 40 38
18 41 38
18 41 38
18 41 39
18 41 38
18 41 38
18 40 38
18 41 38
18 41 38
18 41 38
18 40 38
18 40 38
18 42 39
18 41 38
17 40 37
18 41 38
18 41 38
18 40 38
18 41 38
18 41 38
18 40 37
18 40 37
18 40 38
18 41 38
18 41 38
18 42 39
18 41 38
18 40 38
18 41 38
18 40 38
18 41 38
18 40 38
18 41 38
18 41 38
18 41 38
18 40 38
18 41 39
18 41 38
18 41 38
18 40 38
18 40 38
18 40 37
18 40 38
18 42 39
18 41 38
18 41 38
18 40 38
18 40 37
18 41 38
18 40 38
18 41 38
18 41 38
18 41 39
18 41 38
18 41 38
18 41 38
18 41 38
18 41 39
18 42 39
18 41 38
19 42 39
18 42 39
18 42 39
18 41 38
17 39 36
18 40 38
18 41 39
18 41 38
18 40 37
18 41 38
18 41 39
18 41 38
18 41 38
18 41 39
18 41 38
18 41 38
18 41 38
18 40 38
18 40 38
18 40 38
18 40 38
18 41 38
18 41 38
18 41 38
18 41 39
18 41 38
18 41 38
18 41 38
18 41 38
18 40 38
18 40 38
18 41 38
18 41 38
18 40 38
18 40 38
17 39 37
18 41 39
18 41 38
18 41 38
18 41 38
18 40 38
18 41 38
18 40 38
18 42 39
18 40 37
18 41 38
18 40 38
18 41 39
18 40 38
18 41 38
18 40 38
18 41 39
18 40 38
18 40 38
18 42 39
18 41 38
18 40 38
18 41 38
18 41 38
18 41 38
18 41 38
18 41 38
18 41 39
18 42 39
18 41 38
19 42 39
18 40 38
19 42 39
18 41 39
18 40 38
18 41 38
18 41 38
18 41 38
18 41 38
18 41 39
19 42 39
18 41 38
18 41 38
18 41 38
18 41 38
18 40 38
19 43 40
18 41 39
19 43 40
18 41 38
18 42 39
19 42 39
18 41 38
18 41 38
19 42 39
18 42 39
18 42 39
18 42 39
19 43 40
18 42 39
18 41 38
18 40 37
18 41 39
18 41 39
19 42 39
18 41 39
18 41 39
18 41 39
18 41 39
18 41 38
18 42 39
18 41 38
18 41 38
18 41 39
18 41 38
18 42 39
18 41 38
18 41 38
18 40 37
18 40 38
18 41 38
18 41 39
19 42 39
18 42 39
19 42 39
18 41 39
18 41 38
18 40 38
18 41 38
18 42 39
19 42 39
18 41 38
18 41 39
18 41 38
18 41 38
18 42 39
18 41 39
18 41 38
18 42 39
18 42 39
18 41 38
18 42 39
19 42 39
18 41 39
18 41 38
18 41 39
18 41 39
19 42 39
18 41 38
19 42 39
18 41 38
18 41 38
18 41 39
18 41 38
18 41 38
18 41 39
18 41 38
18 40 38
18 41 38
18 41 38
17 39 37
18 42 39
18 41 38
18 41 39
18 42 39
18 41 38
18 42 39
18 41 38
18 40 37
18 41 39
18 40 38
18 41 38
18 41 38
18 41 38
18 42 39
18 41 38
18 42 39
19 42 39
18 42 39
19 42 39
18 42 39
18 42 39
18 41 38
18 41 38
19 42 40
19 42 39
19 42 39
19 42 39
19 42 39
18 41 38
19 42 39
18 41 38
18 41 38
18 41 39
19 42 39
19 42 39
19 42 39
18 41 39
19 43 40
18 41 38
18 41 38
19 43 40
18 42 39
18 41 39
19 43 40
19 42 39
19 43 39
19 42 40
19 42 39
19 43 40
19 42 39
19 42 39
18 41 39
19 42 39
19 42 39
19 42 39
18 41 38
19 43 40
19 42 39
18 41 38
19 42 39
19 42 39
19 42 39
19 42 39
18 41 38
18 41 38
19 42 39
19 42 39
19 42 39
19 42 39
19 43 40
19 42 39
19 42 39
19 42 39
19 43 40
19 43 40
18 42 39
19 43 39
19 42 39
18 42 39
19 43 40
19 43 40
19 42 39
18 42 39
19 43 40
19 42 39
19 43 40
18 41 38
18 41 38
18 42 39
19 43 40
19 43 40
19 42 39
19 43 40
19 43 39
19 42 39
19 44 41
19 42 39
18 41 38
18 41 38
19 42 39
19 43 40
19 43 40
19 42 39
19 43 40
19 42 39
19 42 39
18 41 38
18 42 39
19 43 40
18 41 39
18 41 38
19 42 39
19 42 39
19 42 39
18 41 39
19 42 39
18 41 38
18 41 38
19 42 39
18 41 38
19 42 39
18 41 38
18 41 38
18 42 39
19 42 39
18 41 38
18 42 39
19 42 39
19 43 40
19 42 39
18 41 38
19 42 39
18 41 38
19 43 40
18 42 39
18 41 38
19 42 39
19 43 39
19 42 39
18 41 38
19 43 40
19 43 40
19 42 39
19 42 39
19 43 40
19 42 39
19 42 39
19 42 39
19 42 39
19 42 39
19 42 39
19 42 39
19 43 40
18 42 39
19 42 39
19 42 39
19 42 39
19 42 39
19 42 39
18 41 38
19 42 39
19 42 39
19 43 40
19 43 40
19 42 39
19 43 40
19 42 39
19 43 39
19 43 40
19 42 39
19 42 39
19 43 39
19 42 39
19 42 39
19 43 40
19 43 39
19 44 40
19 43 40
19 42 39
19 42 39
19 43 40
19 43 40
19 43 40
20 44 41
19 43 40
19 43 40
19 43 40
19 43 40
19 43 40
19 43 40
19 43 40
19 44 40
19 43 40
19 43 40
20 44 41
19 43 40
19 43 40
19 42 39
19 43 40
20 44 41
20 44 41
19 43 40
19 43 40
19 43 40
20 44 41
19 43 40
19 42 39
19 42 39
19 43 40
19 43 40
19 43 40
19 43 39
19 43 40
19 43 40
20 44 41
19 42 39
19 43 39
19 43 40
19 42 39
20 44 41
19 43 40
19 43 39
19 43 40
19 44 41
19 43 40
20 44 40
19 43 40
19 43 40
19 42 39
19 42 39
19 43 40
19 42 39
19 43 40
19 42 39
19 43 40
19 43 40
19 43 40
19 42 39
19 43 40
19 42 39
18 41 38
18 41 38
19 42 39
19 42 39
18 41 38
19 43 40
19 42 39
19 42 39
19 43 40
19 42 39
19 42 39
19 42 39
19 43 40
19 43 40
19 43 39
19 42 39
19 42 39
19 43 40
19 42 39
19 42 38
19 43 40
19 43 40
19 43 40
19 43 40
19 43 40
19 43 40
19 43 40
19 43 39
19 43 40
19 42 39
19 42 39
19 43 40
20 44 41
20 44 40
19 43 39
19 43 40
19 43 40
19 44 40
19 43 40
19 43 40
19 43 40
20 44 41
20 44 41
19 42 39
19 42 39
19 42 39
19 43 39
20 44 40
19 44 40
19 43 40
20 44 40
19 43 40
19 42 39
19 43 40
20 44 41
19 43 40
19 42 39
19 43 40
20 44 41
19 43 39
20 44 41
20 44 41
20 45 41
20 44 41
20 44 41
20 44 41
20 44 41
20 45 42
20 44 40
19 43 40
20 44 40
20 44 40
20 44 40
19 44 40
19 43 40
19 43 40
19 43 40
19 43 40
20 44 40
19 42 39
20 44 41
20 45 41
19 43 39
20 44 40
20 44 40
19 43 40
19 43 40
20 44 41
20 44 41
20 44 40
20 44 40
20 44 40
19 43 40
19 44 40
20 45 41
20 44 41
19 43 40
20 44 41
19 43 40
19 44 40
19 43 40
19 43 39
20 44 40
19 42 39
19 44 40
20 44 41
19 43 40
19 43 40
19 43 40
19 43 40
19 43 40
20 44 40
19 42 39
20 44 41
19 43 40
19 43 40
19 43 39
19 43 40
19 44 40
19 43 40
19 42 39
19 43 40
19 42 39
19 43 40
19 42 39
19 42 39
19 42 39
19 43 40
19 42 39
19 42 39
19 43 40
19 43 40
19 43 40
20 44 40
20 44 41
19 43 40
19 42 39
19 43 40
19 43 40
19 43 40
19 43 40
20 44 40
20 44 41
19 44 40
19 43 40
19 43 40
20 44 41
19 43 40
20 44 40
20 44 40
19 43 40
19 43 40
20 44 41
19 43 40
20 44 40
20 44 40
19 43 40
19 43 40
20 44 41
20 44 41
19 43 40
19 44 40
20 44 40
20 44 41
20 44 40
19 43 40
19 43 40
20 44 40
20 45 41
20 45 41
20 44 40
20 44 41
20 45 41
20 45 41
20 45 41
20 44 41
20 44 41
20 44 40
19 44 40
20 43 40
20 45 41
20 44 41
20 44 41
20 44 40
20 45 41
20 44 40
20 45 42
20 44 41
20 45 41
20 45 41
20 45 42
20 45 42
19 43 40
20 45 41
20 43 40
20 45 41
20 44 40
20 44 41
20 44 40
20 44 41
20 44 41
20 44 41
19 43 40
20 44 40
20 45 41
20 44 41
20 44 41
20 45 41
19 43 40
20 44 40
20 45 41
20 45 41
19 43 40
20 45 41
20 44 40
20 44 40
19 43 40
20 44 41
20 44 41
20 45 41
20 44 40
20 44 40
20 45 41
19 43 40
20 44 40
20 44 40
20 44 40
20 45 41
20 44 41
20 44 41
20 44 40
20 44 41
20 44 40
20 44 41
20 45 42
20 44 41
20 44 40
20 44 41
20 44 40
19 43 40
19 43 40
19 44 40
20 45 41
19 44 40
19 42 39
20 44 41
19 43 40
19 42 39
19 43 40
19 43 40
19 43 40
20 44 41
19 43 40
19 43 40
19 43 40
20 44 41
19 44 40
20 45 41
20 44 40
19 43 40
20 44 41
19 43 40
19 43 40
20 44 41
20 44 40
20 44 40
19 42 39
20 43 40
20 44 40
20 45 41
20 45 41
20 45 41
20 45 41
20 44 41
20 44 41
20 44 40
20 43 40
19 43 40
20 45 41
20 45 41
20 45 41
20 45 41
20 44 41
20 44 41
20 44 41
20 43 40
19 43 40
20 45 41
20 44 41
20 45 41
20 45 41
20 45 42
20 45 42
21 46 42
20 45 42
20 45 42
20 44 41
20 45 41
20 45 41
21 46 42
20 45 41
21 46 42
21 46 42
20 45 41
21 46 42
21 46 42
21 47 43
21 46 42
20 45 41
20 45 41
21 46 42
20 45 41
21 46 42
20 45 42
21 46 42
20 45 41
21 46 42
21 46 42
21 46 43
20 45 41
20 45 41
20 44 41
20 45 41
20 45 41
21 46 42
20 44 40
21 46 42
20 45 41
21 46 42
21 46 42
20 45 41
20 45 41
20 45 41
20 45 41
20 44 41
20 45 41
20 45 41
21 46 42
20 45 41
21 46 42
21 47 43
20 45 41
20 45 41
20 45 41
20 45 41
20 45 41
21 46 42
20 45 42
21 46 42
20 45 41
20 45 42
20 45 41
20 45 41
20 44 41
20 45 42
20 45 41
20 45 41
20 44 40
20 45 41
19 43 40
19 43 40
19 44 40
19 43 40
19 42 39
19 43 40
20 44 41
19 44 40
20 44 40
19 43 40
19 43 40
20 44 40
20 45 41
20 44 40
19 43 40
20 45 41
20 44 41
20 44 41
19 43 39
20 45 41
20 45 42
20 44 40
20 44 41
20 44 40
20 45 41
20 45 42
20 44 40
20 44 41
20 44 40
20 44 41
20 45 41
20 44 40
21 46 42
20 45 41
20 45 42
20 45 41
21 46 42
20 44 40
20 45 42
20 45 41
20 45 42
21 46 42
20 45 41
20 45 42
20 45 41
20 45 42
21 46 42
20 45 41
21 46 43
20 45 42
20 45 41
21 46 42
21 46 42
21 45 41
21 45 42
20 45 41
20 45 41
21 47 43
20 45 41
21 46 42
21 47 43
21 46 42
21 46 42
21 46 42
21 47 43
20 45 41
21 46 42
21 47 43
21 46 42
21 47 43
21 47 43
21 46 42
21 46 42
21 46 42
21 47 43
21 46 42
21 46 42
20 45 41
21 47 43
20 45 41
21 46 42
21 47 42
21 46 42
21 47 42
21 47 43
20 45 41
21 46 42
21 46 42
20 45 41
21 46 42
21 45 42
21 47 43
21 46 42
21 47 43
21 47 43
20 45 41
20 45 41
21 47 43
21 45 42
21 46 42
21 46 42
21 47 43
21 46 42
21 47 42
20 45 42
21 46 42
21 46 42
20 45 41
20 45 41
21 46 42
21 46 42
21 46 43
21 46 42
21 46 42
20 45 41
21 46 42
21 46 42
20 45 41
20 45 41
21 46 42
20 44 41
20 44 40
20 44 40
20 44 41
20 45 41
20 44 41
20 45 42
20 44 41
20 44 41
20 44 41
20 44 40
20 44 41
20 45 41
20 44 40
20 44 41
20 44 41
20 44 41
20 45 41
20 45 41
20 44 41
20 44 41
20 43 40
21 46 42
20 44 41
21 46 42
20 44 40
20 44 41
20 45 41
20 45 42
20 45 41
20 45 41
20 45 41
21 46 42
20 45 42
21 46 42
21 46 42
20 44 41
21 46 43
21 46 42
20 45 41
21 47 43
21 46 42
20 45 42
21 46 42
21 46 42
21 46 42
21 46 42
21 46 42
21 46 42
21 47 43
21 46 42
21 46 42
21 47 43
21 46 42
21 47 43
21 47 43
21 46 42
20 45 41
22 48 43
21 47 43
21 47 43
21 46 42
21 47 43
21 47 43
21 47 43
21 47 43
21 46 42
22 48 43
20 45 41
21 46 42
21 47 43
22 48 43
21 47 43
21 47 42
21 47 43
21 47 42
22 48 44
21 46 42
21 47 43
21 46 42
21 47 43
21 47 43
21 46 42
21 47 43
21 47 43
21 47 43
21 46 42
21 47 43
22 48 44
21 47 43
22 49 44
21 47 43
22 47 43
21 46 42
21 47 43
21 47 42
22 47 43
21 47 43
21 46 42
21 47 43
22 48 44
21 47 43
21 47 43
21 47 43
22 48 43
22 48 43
21 47 43
21 45 41
21 47 43
21 46 42
21 46 42
21 47 43
21 47 43
21 47 43
21 46 42
21 46 42
21 47 43
21 46 42
21 46 42
21 47 43
20 44 41
20 44 41
20 45 41
20 44 41
20 45 41
20 45 41
20 45 42
20 44 41
20 44 40
20 44 40
20 45 41
20 44 41
20 44 41
20 45 41
21 46 42
20 44 40
20 45 41
21 46 42
21 46 42
20 45 41
20 45 41
21 46 42
20 45 42
21 46 43
20 45 41
21 47 43
21 46 42
20 45 41
21 46 42
21 46 42
20 45 41
21 46 42
20 45 41
21 47 43
21 46 42
21 46 42
21 46 42
21 47 43
21 46 42
21 47 43
21 47 43
21 47 43
21 47 43
21 47 43
21 47 43
21 46 42
21 47 43
21 46 42
21 47 42
21 47 43
21 47 43
21 46 42
22 48 43
22 48 44
21 46 42
22 48 43
21 47 43
22 48 44
22 48 44
22 48 43
22 47 43
21 46 42
21 47 43
22 47 43
22 47 43
22 48 43
22 48 44
22 48 44
22 49 44
21 47 43
22 48 43
22 47 43
22 49 44
22 48 44
21 47 43
22 48 44
22 47 43
22 48 43
22 48 44
22 49 44
21 47 43
22 49 44
22 47 43
22 48 43
22 48 43
22 48 44
22 48 44
22 48 44
22 48 44
22 48 44
22 48 44
22 48 43
22 48 44
22 47 43
22 48 44
22 49 44
22 48 44
21 47 42
22 47 43
22 48 43
22 48 43
22 49 44
22 48 44
22 49 44
22 48 44
22 48 44
22 48 43
22 48 44
21 47 43
21 47 43
21 47 43
21 47 43
21 47 43
22 49 45
21 47 43
21 47 43
22 48 43
22 48 43
21 47 43
21 47 43
20 45 41
20 45 41
20 44 40
20 45 41
20 45 41
21 46 42
20 44 41
20 45 41
21 46 43
20 45 42
20 45 42
21 45 42
20 45 41
21 46 42
20 45 41
20 45 41
21 46 42
21 46 42
21 46 43
21 47 43
20 45 41
21 46 42
21 47 43
21 46 42
21 46 42
21 47 43
20 45 41
21 47 43
21 45 42
21 47 43
21 47 43
21 46 42
21 46 42
21 46 42
21 45 42
21 47 43
21 47 43
21 46 42
21 47 43
22 48 44
21 47 42
21 47 43
22 48 43
22 48 44
21 47 43
21 47 43
22 48 44
21 47 43
22 48 44
22 48 43
22 48 44
21 47 43
22 48 44
22 47 43
22 48 44
22 49 44
22 48 43
21 47 42
22 48 44
22 49 44
22 48 44
22 48 44
22 49 44
23 50 45
22 48 43
22 48 43
22 49 44
22 48 44
22 49 44
22 49 45
22 47 43
22 48 43
22 48 43
22 48 44
22 49 44
22 48 44
22 48 43
22 48 44
22 49 45
22 48 44
23 49 45
22 48 43
22 49 44
23 49 45
22 49 45
21 47 43
22 49 44
22 48 44
22 49 44
22 49 44
23 50 45
22 49 44
21 47 43
22 49 44
22 49 45
22 49 44
22 48 43
22 48 44
23 49 45
22 49 44
22 48 44
22 49 44
22 48 43
22 48 44
23 49 45
22 49 44
22 48 44
22 48 44
21 47 43
21 47 43
22 49 44
21 47 43
22 48 44
22 48 43
22 48 44
22 48 43
21 47 42
22 49 44
22 47 43
22 48 43
20 44 41
20 45 41
21 46 42
21 46 42
21 46 42
20 44 41
20 45 41
21 46 42
20 45 41
20 45 41
21 46 42
20 45 41
20 44 41
21 47 43
21 46 42
21 46 42
21 46 42
20 45 41
21 46 42
21 46 42
21 47 43
21 47 43
20 45 41
21 46 42
21 47 43
21 46 42
21 46 42
21 47 42
21 46 42
21 47 43
21 47 43
21 46 42
21 46 42
21 47 43
22 48 44
22 48 43
21 47 43
21 47 43
21 47 43
22 48 44
21 47 43
22 48 44
32 48 44
52 49 44
22 48 43
21 47 43
22 49 45
22 48 44
22 48 43
22 48 43
22 48 44
22 49 44
22 47 43
22 49 45
22 49 44
22 48 44
22 48 44
22 47 43
22 48 43
22 49 45
23 50 45
22 49 44
23 49 45
23 50 45
22 49 44
22 49 45
23 50 45
22 49 44
23 50 45
23 50 45
22 49 44
23 50 45
22 49 44
23 50 45
22 48 44
22 49 44
22 49 44
23 50 45
23 49 45
22 49 44
23 50 45
22 49 44
22 49 44
22 49 44
22 49 45
23 50 45
22 49 44
23 50 45
23 50 45
22 49 44
23 51 46
23 50 45
22 48 44
23 50 45
22 49 44
22 49 44
23 50 46
23 49 45
22 49 44
22 49 44
22 49 44
22 48 44
22 48 44
22 49 44
23 49 45
23 49 45
22 49 45
22 49 44
22 48 44
22 49 44
22 48 44
22 49 44
22 48 44
22 48 43
22 49 44
22 48 44
22 49 45
22 49 44
22 48 43
22 48 44
20 44 41
21 46 42
20 45 41
21 46 42
21 46 42
20 45 41
20 45 41
20 45 41
21 45 42
21 46 42
21 46 42
21 46 42
21 46 42
21 45 41
21 46 42
21 46 42
21 46 42
21 47 43
21 47 43
21 47 42
21 46 42
21 47 43
21 47 43
21 47 43
21 46 42
21 45 41
21 47 43
21 46 42
21 47 43
21 47 43
21 47 43
22 47 43
21 47 43
21 46 42
22 49 44
21 47 43
21 47 43
22 49 44
21 47 42
21 47 43
22 49 44
102 66 59
192 67 50
218 78 58
207 160 141
79 82 74
22 48 44
22 48 43
22 49 44
23 50 45
22 48 43
22 48 43
22 49 44
23 50 45
22 48 43
22 48 44
23 50 45
23 50 46
22 49 44
23 50 46
22 49 44
22 49 44
23 50 45
23 51 46
23 50 46
23 51 46
23 50 45
23 49 45
23 50 45
23 51 46
23 50 45
22 49 44
23 50 45
23 50 45
22 49 44
23 50 45
23 49 45
22 49 44
23 50 45
23 50 45
23 49 45
23 50 45
22 48 44
23 50 45
23 50 45
23 51 46
23 50 45
23 51 46
23 50 45
23 50 45
23 49 45
23 49 45
23 50 45
23 50 45
23 49 45
23 49 45
23 50 45
23 50 46
23 50 45
22 49 44
22 49 44
23 50 45
23 50 45
23 49 44
23 49 45
22 48 43
22 49 44
22 49 44
23 50 46
22 49 44
22 49 44
23 49 45
22 49 44
22 49 44
22 49 44
22 48 44
23 49 45
22 48 44
23 49 45
23 49 45
21 46 42
20 45 41
20 45 42
21 46 42
21 46 42
21 45 42
21 46 42
21 46 42
20 45 42
21 47 43
21 46 42
21 48 44
21 46 42
21 46 42
21 45 42
21 47 43
21 47 43
21 45 41
21 46 42
22 48 44
21 46 42
21 47 43
22 47 43
22 48 44
21 47 43
21 47 42
21 47 42
21 46 42
22 48 44
22 48 43
22 49 44
21 47 43
22 48 43
22 48 43
21 47 43
22 48 43
22 48 44
22 48 43
22 49 44
22 48 43
51 62 57
164 120 111
184 63 46
202 69 51
230 179 159
175 157 141
22 49 44
22 48 44
22 49 44
22 49 44
23 50 45
22 49 44
22 48 44
22 49 44
22 49 45
23 50 45
22 49 45
23 50 45
23 49 45
23 49 45
23 50 45
24 52 47
22 49 44
23 50 45
22 49 44
23 50 45
64 57 47
169 89 58
213 117 80
146 132 119
40 57 52
23 51 46
23 49 45
23 50 45
23 51 46
23 50 45
22 49 44
23 50 45
23 50 45
23 51 46
22 49 44
23 50 45
23 51 46
22 49 44
23 50 45
23 51 46
23 51 46
23 50 46
23 50 45
23 50 45
23 51 46
23 50 46
23 51 46
23 49 44
23 50 45
23 51 46
23 50 45
23 50 45
23 51 46
23 50 45
23 51 46
23 50 46
23 50 45
22 49 44
23 50 45
23 50 45
23 50 45
23 49 45
23 51 46
22 49 44
22 49 44
24 51 46
23 49 45
23 49 44
22 49 44
23 50 45
23 50 45
22 48 44
23 50 45
22 49 44
21 45 42
20 45 41
21 47 43
21 46 42
21 46 42
21 47 42
21 46 42
21 46 42
21 47 43
21 46 42
21 46 42
21 47 43
21 46 42
21 47 43
21 46 42
21 47 43
22 47 43
21 47 43
21 46 42
21 46 42
21 47 43
21 46 42
21 46 42
22 47 43
21 47 43
22 47 43
21 47 43
22 48 44
21 47 43
22 47 43
22 48 43
22 48 44
21 47 43
21 47 43
22 49 44
22 49 44
22 48 44
22 48 44
22 48 44
22 47 43
96 95 88
135 112 104
146 50 36
153 52 38
173 123 110
174 155 139
35 54 49
22 49 44
23 49 45
22 49 44
23 49 45
23 49 45
23 50 45
23 49 45
22 48 44
23 49 45
22 49 45
23 50 45
23 50 45
22 49 44
23 49 45
23 50 45
23 51 46
23 51 46
22 49 44
60 70 64
183 114 91
212 104 63
222 117 77
221 188 170
173 156 142
31 53 48
23 51 46
23 50 45
23 51 46
23 50 45
22 49 44
23 51 46
23 51 46
23 51 45
29 52 47
23 51 46
23 50 45
24 52 46
23 51 46
23 50 45
23 51 46
23 50 45
23 51 46
23 51 46
23 51 46
23 50 45
23 50 45
24 52 47
24 52 47
24 52 46
23 50 45
23 50 45
23 50 45
23 50 45
23 50 45
22 49 44
23 50 45
23 50 45
23 51 46
23 50 45
23 49 45
22 49 44
23 51 46
23 49 45
23 50 45
23 50 45
23 50 45
22 49 44
23 50 45
22 49 44
22 49 44
23 51 46
23 49 45
22 49 44
20 45 41
21 47 43
21 46 42
21 47 43
20 45 42
21 46 42
21 46 42
21 46 42
20 45 41
21 46 42
21 46 42
20 45 41
21 47 42
21 47 43
21 46 42
21 46 42
22 48 43
21 47 43
21 47 43
21 47 42
21 47 43
21 47 43
21 47 43
21 47 43
22 48 44
21 47 43
21 47 43
21 46 42
22 48 44
22 48 44
22 48 44
21 47 43
22 48 44
22 49 44
22 48 43
22 48 44
22 48 44
22 49 44
22 48 44
22 47 43
44 57 52
99 90 82
100 35 25
105 36 26
99 62 54
108 100 89
22 48 43
22 49 44
23 50 45
23 49 45
22 49 44
23 49 45
23 49 45
23 50 45
23 50 45
23 51 46
22 49 44
23 50 45
23 50 45
23 50 45
23 49 45
23 51 46
23 50 45
22 49 44
23 51 46
86 87 80
157 112 96
168 83 51
173 85 52
170 133 119
173 156 142
48 62 55
23 50 45
23 50 45
23 50 46
23 51 46
23 50 45
23 50 45
126 119 110
204 186 171
213 194 176
145 134 123
28 51 46
23 50 45
23 51 46
23 50 45
23 50 45
23 49 45
23 49 45
23 51 46
23 50 45
23 50 45
23 51 46
23 51 46
23 50 45
23 50 45
23 49 45
24 52 47
22 49 44
23 50 45
23 50 45
23 50 45
23 51 46
23 49 45
22 49 44
23 49 45
23 50 45
23 49 44
23 51 46
22 49 44
23 50 45
23 50 45
23 51 46
23 49 45
23 51 46
23 49 45
23 51 46
23 50 45
23 50 45
22 48 44
21 46 42
20 45 41
21 46 42
21 47 43
21 46 42
21 47 43
21 47 43
21 46 42
21 46 42
21 47 43
21 47 43
21 47 43
21 46 42
22 47 43
21 46 42
21 47 43
21 47 43
21 47 43
21 46 42
21 47 43
21 46 42
22 48 44
22 47 43
22 47 43
22 48 44
21 46 42
21 47 43
22 48 44
22 48 44
22 48 43
22 47 43
21 47 42
21 46 42
22 48 43
21 47 43
21 47 43
22 49 44
22 47 43
23 50 45
22 47 43
25 48 43
44 49 44
32 15 11
54 33 52
79 51 77
140 123 122
113 108 98
22 48 43
22 48 43
23 49 44
22 48 44
22 49 44
22 49 44
23 50 45
22 49 44
22 49 44
23 49 45
22 49 44
22 48 44
23 49 44
23 50 45
23 49 45
23 49 45
23 49 44
23 50 45
80 81 74
126 97 85
135 66 39
123 61 36
127 87 73
109 101 93
55 66 60
23 50 45
23 51 46
23 49 44
22 49 44
23 50 45
37 46 45
172 159 150
182 168 160
188 173 162
194 176 164
125 118 108
23 50 45
23 50 45
23 51 46
23 50 45
23 50 45
23 50 45
23 51 46
23 50 45
23 50 45
23 51 46
23 51 46
23 50 45
22 48 43
22 49 44
23 51 46
23 50 45
22 48 44
23 50 45
23 50 45
23 50 46
23 51 46
23 51 46
23 51 46
23 50 45
23 50 45
24 52 47
23 49 44
23 50 45
23 51 46
23 50 45
23 50 45
23 50 45
23 50 45
22 49 44
22 49 44
23 49 45
23 50 45
21 46 42
21 46 42
21 46 43
21 46 42
20 45 41
21 46 42
21 46 42
21 46 42
22 47 43
21 47 43
21 46 42
21 47 43
21 47 43
20 45 41
21 47 43
21 46 42
21 47 42
21 46 42
21 46 42
21 46 42
21 47 43
21 45 41
22 49 44
21 47 43
22 48 43
21 47 43
21 47 43
21 47 43
21 46 42
22 48 43
21 46 42
22 47 43
21 47 42
22 48 44
22 48 44
22 47 43
22 48 43
21 46 42
20 44 40
18 39 36
16 35 33
15 33 31
75 65 76
75 52 88
78 53 90
141 121 129
227 205 186
110 104 94
22 48 44
22 47 43
22 49 44
22 48 43
23 49 45
22 47 43
22 49 44
22 49 44
22 49 44
22 49 44
22 49 44
22 49 44
23 50 45
23 50 45
23 49 45
23 50 45
23 50 45
38 55 50
79 72 64
68 37 23
79 40 23
73 41 28
69 69 61
25 50 45
23 50 46
23 50 45
22 48 44
23 50 45
23 48 44
27 30 33
140 129 122
155 144 137
149 139 131
160 147 138
137 127 118
27 51 46
23 50 46
23 50 45
23 50 45
23 50 45
23 50 45
23 51 46
22 49 44
23 51 46
23 50 45
23 50 45
23 50 45
23 50 45
23 50 45
23 50 45
23 50 45
23 50 45
23 51 46
22 49 44
23 50 46
23 50 45
23 50 45
23 50 45
23 50 45
23 50 45
23 50 45
23 50 45
23 50 45
22 49 44
23 50 45
23 50 45
23 50 45
23 51 46
23 49 44
23 50 45
23 50 45
23 50 45
21 45 41
21 46 42
21 47 43
21 46 42
21 46 42
21 46 42
21 46 42
20 45 41
21 46 42
21 46 42
21 46 42
22 48 44
21 47 43
21 47 43
22 48 44
21 47 43
21 47 43
20 45 41
21 47 43
21 47 43
21 47 42
22 47 43
22 48 44
22 48 43
22 48 43
21 47 42
22 48 43
22 48 44
22 48 44
22 48 43
21 47 43
21 47 43
22 49 44
22 48 43
22 47 43
22 48 43
21 47 43
21 47 42
22 47 43
22 47 43
21 47 43
45 58 54
133 121 119
67 47 79
70 48 82
78 58 86
174 158 147
179 160 145
22 47 43
22 49 45
22 49 44
22 49 44
23 50 45
22 49 44
22 49 45
22 49 44
22 49 44
22 49 44
22 48 44
22 48 44
23 50 45
22 47 43
22 48 44
22 47 42
21 47 42
21 45 41
17 36 32
11 16 12
11 11 7
16 21 16
21 43 39
23 49 44
23 49 44
22 48 43
23 50 45
23 50 45
22 47 42
18 21 23
61 58 54
122 113 104
124 115 106
130 120 111
101 96 89
22 49 44
23 49 45
23 51 46
23 50 45
23 50 46
23 49 44
23 49 45
23 50 45
23 49 45
23 49 45
23 50 45
23 49 45
23 49 45
23 51 46
23 51 46
23 50 45
23 50 46
22 49 44
23 50 45
22 48 44
23 51 46
23 50 45
23 50 45
23 50 46
23 50 45
23 49 45
23 50 45
22 48 44
23 50 45
23 49 45
23 50 45
22 49 45
23 49 45
22 49 44
22 48 44
23 50 45
22 49 44
21 46 42
21 47 43
20 45 41
21 47 43
21 47 43
21 46 42
21 46 42
21 46 42
21 46 42
21 46 42
21 47 43
21 47 43
21 47 43
21 47 42
21 47 43
21 47 43
21 47 43
21 46 42
21 46 42
21 47 43
21 47 42
22 47 43
21 47 43
21 47 43
21 47 43
22 47 43
21 46 42
21 47 43
22 48 44
22 47 43
21 47 42
22 48 43
21 47 43
22 48 44
21 47 43
21 47 43
21 47 43
22 48 44
22 48 43
22 48 43
22 48 43
77 79 73
126 116 109
61 45 67
56 39 64
58 40 66
115 104 102
139 126 115
37 54 49
22 48 43
22 48 43
22 48 43
23 49 45
22 48 43
22 48 44
22 48 43
22 47 43
22 48 44
22 48 44
22 49 44
22 48 44
22 48 44
22 48 43
22 48 43
20 44 40
19 42 38
18 41 37
18 39 36
18 39 35
19 42 37
21 45 41
22 47 42
23 49 44
22 48 43
23 49 44
22 49 44
23 49 44
15 27 25
11 12 13
43 40 37
60 57 52
55 53 47
29 43 39
22 49 44
22 48 43
23 50 45
23 50 45
23 49 45
23 51 46
23 50 46
23 50 45
23 50 46
22 49 44
22 49 44
22 49 44
22 49 44
23 50 45
23 50 45
23 49 45
22 49 44
23 50 45
23 49 45
23 50 45
22 49 44
22 49 44
23 50 46
23 51 46
23 50 45
23 51 46
23 50 45
22 49 45
22 49 44
23 50 45
23 50 45
23 49 45
22 49 44
22 48 44
22 49 44
22 49 45
22 49 44
21 46 42
21 46 42
21 47 43
21 46 42
21 46 42
21 46 42
21 46 42
21 46 42
21 46 42
21 47 43
21 46 42
21 47 43
21 47 43
21 47 43
21 47 42
22 48 43
21 46 42
21 47 43
21 47 42
21 46 42
21 47 43
21 46 42
21 47 43
21 47 43
22 48 43
21 46 42
21 47 43
22 48 44
22 48 44
21 47 43
22 48 44
22 49 44
21 47 43
22 48 44
21 47 43
22 48 43
22 48 43
22 48 44
21 47 43
22 48 43
22 48 44
50 61 56
87 82 74
57 51 54
38 26 42
41 28 46
57 50 54
90 86 78
22 48 43
21 47 43
21 47 43
22 48 43
22 49 44
22 48 44
22 47 43
21 47 43
23 50 45
22 49 44
22 47 43
22 48 43
22 48 44
23 50 45
22 49 45
22 48 44
22 48 44
22 49 44
22 48 44
22 48 43
22 48 44
22 49 44
23 50 45
22 49 44
22 49 44
22 48 44
22 49 44
22 47 42
22 47 42
23 42 38
9 18 16
1 4 4
2 5 5
12 26 23
21 45 41
22 47 42
22 47 43
22 48 43
22 48 43
22 49 44
23 50 45
23 50 45
23 49 45
23 50 46
22 48 44
22 49 44
22 49 44
22 49 44
23 50 45
23 50 45
22 49 44
22 48 44
22 49 45
23 50 45
22 49 44
22 49 44
23 49 45
23 50 45
22 49 44
23 49 45
23 50 45
22 49 44
23 49 45
23 49 45
23 50 45
22 48 44
22 49 44
22 49 44
23 49 45
22 49 44
22 49 44
22 48 44
21 46 42
20 45 41
21 46 42
20 45 41
21 46 42
21 46 43
21 46 42
21 46 42
21 46 42
21 46 42
21 47 43
21 47 43
21 46 42
20 45 41
20 45 41
21 46 42
21 47 43
21 46 42
21 46 42
21 46 42
21 47 43
21 46 42
21 46 42
21 47 43
21 47 43
21 47 43
21 46 42
21 47 43
21 47 43
22 47 43
21 46 42
22 47 43
21 47 43
21 47 43
21 47 43
21 47 43
22 48 44
21 47 43
22 47 43
21 47 42
21 47 42
21 47 42
42 49 44
30 32 29
15 12 18
10 10 14
26 23 28
37 51 46
22 47 43
21 46 42
22 48 43
22 48 43
21 47 42
21 47 42
21 47 43
22 48 44
21 47 43
21 47 43
22 47 43
21 47 43
22 49 45
23 49 45
22 47 43
22 48 44
22 48 43
23 50 45
22 48 43
22 49 44
22 48 44
23 50 45
22 48 44
22 49 45
22 48 43
22 48 44
22 47 43
22 47 42
19 42 39
17 38 35
14 32 30
12 28 27
13 29 27
15 33 31
19 42 38
22 47 43
21 46 42
22 48 44
22 48 44
22 48 44
23 50 45
22 48 43
23 50 45
22 48 43
22 48 44
22 49 44
22 49 45
22 48 43
22 48 43
22 48 44
23 49 45
22 49 44
23 49 45
23 49 45
22 48 44
22 49 44
22 48 43
22 49 45
22 49 44
22 49 45
22 49 44
22 49 44
23 50 45
23 50 45
22 48 44
22 49 44
22 48 43
22 49 44
22 49 44
22 49 44
22 47 43
22 47 43
20 45 41
21 45 42
21 46 42
21 46 42
21 46 42
21 46 43
20 45 41
21 46 42
21 46 42
21 46 42
20 45 41
21 47 43
21 45 42
21 46 42
21 46 42
21 46 42
21 47 43
21 47 43
21 47 43
21 47 43
21 47 43
21 46 42
21 47 43
21 45 41
22 48 44
21 46 42
21 47 43
22 49 44
21 46 42
21 46 42
21 47 42
21 47 43
21 47 42
22 48 44
22 48 44
22 47 43
21 47 43
21 47 43
21 46 42
20 45 41
18 40 37
16 37 34
14 32 30
11 24 22
7 16 16
6 14 14
15 32 29
20 44 40
21 45 41
21 46 42
22 48 43
21 47 43
22 47 43
21 47 43
22 49 44
21 47 42
22 48 44
22 48 44
22 48 43
22 48 44
22 48 44
22 48 44
22 48 44
22 48 44
22 48 44
22 48 43
22 48 44
21 47 43
22 48 44
21 47 43
22 49 44
22 48 44
21 46 42
22 47 43
22 48 44
22 48 44
21 47 42
22 48 43
22 49 44
22 48 44
22 49 44
22 49 44
21 46 42
22 49 45
23 50 45
22 48 44
22 48 43
22 49 44
22 48 43
22 48 44
23 49 45
22 48 44
22 49 45
22 48 44
22 48 44
22 49 44
22 48 44
22 49 44
22 48 43
22 48 43
23 50 45
22 49 44
21 47 43
22 48 44
22 48 43
22 48 43
22 49 44
21 47 43
23 50 45
22 49 45
22 48 44
22 48 44
22 49 44
22 48 44
22 49 44
22 48 44
22 48 43
22 48 44
22 49 44
22 49 45
21 46 42
21 46 42
21 46 42
21 46 42
21 46 42
21 46 42
20 45 41
21 46 42
20 45 41
20 45 41
21 46 42
21 46 42
21 47 43
21 46 42
21 46 42
21 47 43
21 46 42
21 45 41
21 46 42
21 47 43
21 46 42
21 46 42
21 46 42
21 46 42
21 46 42
21 46 42
21 46 42
21 46 42
21 47 43
21 47 42
22 48 43
21 47 43
21 47 43
21 47 43
21 46 42
22 48 43
22 47 43
21 46 42
21 46 42
19 43 40
19 42 39
18 39 36
18 41 38
19 42 38
20 44 41
20 44 40
21 46 41
21 46 42
21 47 42
21 45 41
21 47 43
21 46 42
21 47 42
21 46 42
22 47 43
21 47 43
22 48 44
23 49 45
22 47 43
22 48 44
22 47 43
22 48 43
22 49 45
22 48 43
22 48 44
21 47 43
22 48 44
22 49 44
22 49 44
22 48 44
22 48 43
22 47 43
22 48 43
22 48 43
22 49 44
22 48 44
21 47 43
22 48 43
22 48 44
22 49 44
22 49 44
21 47 43
22 49 45
22 48 44
22 48 44
22 48 43
22 48 44
22 48 43
21 46 42
22 48 44
22 48 44
22 48 43
22 48 44
22 48 44
22 48 44
22 48 44
21 47 43
22 49 44
22 49 44
22 48 44
22 49 45
21 47 43
22 48 44
22 49 44
22 49 45
22 49 44
22 49 44
22 49 44
22 48 43
22 48 43
22 49 44
22 49 44
22 48 44
22 48 44
22 48 44
22 49 44
22 47 43
22 47 43
22 48 44
22 49 44
20 45 41
21 46 42
21 47 43
21 46 42
20 45 41
21 46 42
21 47 43
20 45 41
21 46 42
21 46 42
20 45 42
21 45 42
21 47 43
21 46 42
21 46 42
21 47 43
21 46 42
21 46 42
21 46 42
20 45 41
21 47 43
21 46 42
21 47 43
21 46 42
21 47 43
21 46 42
21 46 42
21 46 42
21 46 42
21 46 42
21 46 42
21 46 42
21 45 41
21 47 43
21 46 42
21 47 43
21 46 42
21 47 43
21 47 43
21 46 42
22 48 44
21 46 42
22 48 44
21 46 42
21 46 42
21 47 43
21 47 43
21 47 43
21 46 42
21 47 43
22 48 43
22 48 44
22 48 44
21 46 42
22 48 43
21 47 43
21 47 43
22 49 44
21 47 43
21 47 43
21 47 43
22 49 44
21 47 43
21 47 43
21 47 43
22 48 43
21 47 43
22 48 43
22 48 44
22 48 44
21 47 43
21 47 43
22 49 44
22 48 44
22 48 44
21 46 42
22 47 43
22 47 43
21 47 43
22 48 43
22 48 43
22 48 43
22 49 44
22 47 43
22 48 44
22 48 43
22 49 44
22 47 43
21 47 43
22 49 44
22 48 43
22 48 43
22 48 44
22 49 44
22 48 43
22 48 43
22 48 44
22 49 44
22 48 43
21 47 43
22 48 43
22 48 43
22 47 43
22 47 43
22 47 43
22 48 44
22 48 44
22 49 44
22 49 44
22 48 44
21 47 42
22 49 44
22 47 43
22 48 44
22 48 44
22 49 44
22 47 43
22 48 43
22 48 43
22 47 43
21 46 42
20 45 42
21 46 42
21 47 43
21 46 42
21 46 42
20 45 41
20 45 41
20 45 41
20 45 41
20 45 41
21 46 42
21 46 42
21 47 43
21 46 42
21 46 42
21 46 42
21 46 42
20 45 41
21 46 42
21 46 42
20 45 41
20 45 41
21 45 42
21 46 42
21 46 42
21 46 42
21 46 42
21 46 42
21 46 42
21 47 43
21 46 42
21 47 43
21 47 43
21 47 43
21 47 42
21 47 43
21 47 42
21 47 43
21 47 43
22 48 44
21 47 43
21 47 43
21 46 42
21 46 42
21 46 42
21 46 42
21 47 43
21 46 42
21 46 42
22 47 43
21 47 43
21 47 43
21 47 42
21 46 42
21 47 43
21 47 43
21 47 43
22 48 44
22 47 43
21 46 42
21 47 43
21 47 42
22 48 43
22 48 44
22 48 44
21 46 42
21 47 43
21 47 43
21 47 43
22 48 43
21 46 42
22 48 43
21 46 42
21 46 42
21 47 42
22 48 43
22 47 43
22 48 43
22 49 44
22 47 43
22 48 44
22 48 44
21 46 42
22 47 43
21 47 42
22 48 44
22 49 45
22 48 43
22 47 43
22 49 44
22 47 43
21 46 42
22 47 43
22 48 44
22 49 44
21 47 43
22 48 43
22 48 44
22 48 43
21 47 43
21 47 43
22 48 43
22 48 44
22 48 43
22 48 44
21 47 43
22 48 43
21 47 43
22 48 44
22 48 43
22 49 44
21 47 43
21 46 42
21 46 42
22 48 44
21 47 43
22 48 44
22 48 44
22 48 44
21 46 42
20 45 41
21 45 42
20 44 41
20 44 41
21 46 42
20 45 41
21 46 42
21 46 42
20 45 42
20 45 41
21 47 43
20 45 41
20 45 41
21 46 42
20 45 41
20 45 41
21 46 42
21 45 42
20 45 42
20 45 42
21 47 43
21 47 43
21 46 42
21 46 42
21 46 42
21 46 42
21 46 42
21 47 43
21 47 43
21 45 42
21 46 42
20 45 41
20 45 41
21 46 42
21 46 42
21 47 43
21 47 42
21 46 42
21 47 43
21 46 42
21 47 43
21 46 42
21 46 42
21 47 42
21 46 42
21 46 42
21 46 42
21 45 41
21 47 43
21 47 43
21 47 43
21 46 42
21 47 43
21 46 42
22 48 44
21 46 42
21 47 43
21 47 42
22 48 44
22 48 43
22 48 43
22 48 43
22 48 43
22 48 44
22 48 44
21 47 43
21 47 43
22 47 43
21 47 43
22 48 43
22 47 43
21 46 42
21 46 42
22 47 43
21 47 43
21 47 43
22 47 43
21 47 43
22 49 44
21 47 43
22 48 43
21 46 42
22 48 44
21 47 42
22 49 44
22 48 44
22 47 43
22 48 44
21 47 43
22 48 44
21 47 43
21 47 43
22 48 44
22 48 43
22 48 43
22 47 43
22 48 44
22 48 44
22 48 44
22 48 43
22 49 44
22 48 44
21 47 43
21 47 43
22 48 44
21 47 43
21 47 43
22 48 44
21 47 43
22 48 43
21 47 43
21 47 43
21 47 43
21 47 42
21 47 43
21 47 43
22 48 44
21 47 43
22 47 43
21 46 42
20 45 41
21 46 42
20 45 41
20 45 41
21 46 42
20 44 40
20 45 41
21 46 42
20 44 41
21 46 42
21 46 42
21 46 42
21 46 42
21 46 42
21 46 42
20 45 41
21 46 42
20 45 41
20 44 41
20 45 41
20 45 41
21 47 43
21 45 41
20 45 41
21 46 42
21 47 43
21 47 43
21 46 42
21 46 42
21 46 42
21 46 42
21 46 42
21 46 42
21 46 42
21 46 42
21 46 42
21 46 42
21 46 42
21 46 42
21 45 41
21 47 43
21 47 42
21 47 43
21 47 42
21 46 42
21 46 42
21 46 42
21 47 43
21 46 42
21 46 42
21 45 41
22 48 44
21 46 42
21 47 43
21 47 43
21 47 43
21 46 42
21 47 43
21 46 42
21 47 43
21 47 43
21 46 42
21 46 42
21 46 42
21 46 42
21 46 42
21 46 42
21 46 42
21 47 42
21 47 43
21 46 42
21 47 43
21 47 43
21 47 43
21 47 43
22 48 44
21 47 43
22 48 44
21 46 42
22 48 43
21 46 42
22 48 44
21 46 42
21 47 43
22 49 44
21 47 43
21 47 42
22 48 44
21 47 43
21 47 43
21 46 42
21 47 43
22 48 44
21 46 42
21 46 42
21 47 43
22 48 44
21 47 43
21 47 43
21 47 43
21 47 43
22 48 43
22 48 44
22 48 44
22 48 43
22 48 43
21 47 43
22 48 43
21 47 43
22 47 43
22 47 43
21 46 42
22 48 44
21 47 43
21 47 43
21 46 42
21 47 43
21 47 43
22 48 43
20 44 41
21 46 42
20 45 41
20 45 42
20 45 41
20 44 40
21 46 42
20 45 42
20 45 42
20 45 42
21 47 43
21 46 42
20 45 42
20 44 40
20 45 41
21 46 42
20 45 41
21 46 42
21 46 42
21 46 42
21 46 42
20 44 41
20 45 41
20 45 41
21 45 42
21 46 42
20 45 42
21 46 42
21 46 42
21 46 42
20 45 41
21 46 42
20 45 41
21 46 42
21 46 42
21 46 42
20 45 41
21 47 43
20 45 41
21 46 42
20 45 42
21 46 42
21 47 43
21 46 42
21 45 42
21 46 42
21 46 42
21 46 42
21 46 42
21 46 42
21 47 43
21 47 43
21 46 42
21 46 42
21 46 42
22 48 44
20 45 41
21 46 42
21 46 42
21 47 43
21 47 43
21 47 43
20 45 41
21 47 43
21 47 43
21 45 41
21 46 42
21 47 43
21 47 42
21 46 42
21 47 43
21 46 42
21 47 43
21 46 42
21 47 43
21 47 43
21 46 42
21 47 43
21 46 42
21 47 42
21 47 43
21 47 43
22 47 43
21 47 43
21 47 43
21 46 42
21 47 43
21 47 43
21 47 42
21 47 43
20 45 41
21 47 43
22 48 44
21 47 43
22 48 44
22 48 44
22 48 44
21 46 42
21 47 43
22 47 43
21 46 42
21 47 43
21 47 42
21 47 43
21 46 42
20 45 41
21 47 43
21 46 42
21 47 43
21 47 43
21 47 43
21 46 42
21 46 42
21 47 42
21 47 43
22 48 44
22 48 43
21 46 42
22 48 43
22 48 43
21 46 42
20 44 40
20 45 41
21 46 42
21 46 42
20 46 42
21 46 42
21 46 42
21 46 43
20 45 41
20 45 41
21 46 42
21 46 42
20 45 41
20 45 41
20 45 42
20 45 41
20 45 42
20 45 42
20 44 41
21 46 42
20 45 41
20 45 41
20 45 41
21 46 42
20 45 42
20 45 41
21 45 42
20 45 41
21 46 42
21 46 42
20 45 42
21 46 42
21 46 42
21 46 42
21 46 42
20 44 41
21 46 42
20 45 41
22 48 43
20 45 41
21 47 43
21 46 42
21 46 42
20 45 41
21 46 42
21 46 42
21 47 43
21 47 43
21 45 42
21 46 42
21 47 43
21 46 42
21 46 42
21 47 43
21 46 42
21 47 43
20 45 41
21 46 42
21 46 42
21 46 42
21 47 43
21 47 42
21 46 42
21 47 43
21 46 42
21 47 43
21 46 42
22 48 44
21 46 42
21 46 42
21 47 43
21 46 42
21 45 42
21 46 42
21 47 43
21 46 42
21 47 43
21 46 42
21 46 42
21 46 42
21 47 43
21 46 42
21 47 43
21 47 43
21 46 42
21 46 42
21 47 42
21 46 42
21 47 42
21 46 42
21 47 43
21 47 43
21 45 41
21 47 42
21 46 42
21 46 42
22 48 44
21 47 43
22 48 43
22 48 43
21 47 43
21 47 43
21 47 43
21 46 42
21 47 42
21 47 43
21 46 42
21 47 43
21 46 42
21 47 43
21 46 42
20 45 41
21 46 42
21 46 42
21 46 42
21 46 42
21 46 42
21 46 42
21 47 43
20 45 41
20 45 41
20 44 41
20 45 41
20 45 41
20 43 40
20 45 42
20 45 41
21 46 42
21 46 42
20 44 40
20 45 42
20 45 41
20 45 41
20 45 41
20 45 41
20 45 42
20 45 41
21 46 42
20 45 41
20 45 41
20 44 41
20 45 41
20 45 41
20 45 41
20 45 41
20 45 41
21 46 42
21 46 42
21 46 42
21 46 42
20 45 42
21 46 42
21 47 43
21 46 42
21 46 42
21 46 42
20 44 40
21 46 42
21 46 42
20 45 41
21 46 42
21 46 42
21 46 42
20 45 41
21 47 43
21 46 42
21 45 42
21 46 42
21 47 43
21 46 42
21 46 42
21 46 42
21 46 42
21 46 42
21 46 42
21 47 43
21 46 42
21 46 42
21 47 42
20 45 41
21 46 42
21 47 42
20 45 41
21 46 42
21 46 42
21 46 42
21 45 41
21 46 42
21 46 42
20 45 41
21 47 43
21 46 42
21 46 42
22 47 43
21 46 42
21 46 42
21 47 43
21 46 42
21 47 43
22 47 43
21 46 42
21 47 43
21 46 42
21 46 42
22 47 43
21 45 41
21 47 43
21 46 42
21 47 43
22 47 43
21 46 42
21 46 42
21 46 42
21 46 42
21 47 43
21 46 42
21 45 41
21 46 42
21 45 41
21 47 43
21 46 42
21 46 42
21 47 43
21 47 43
21 46 42
21 46 42
21 47 43
21 47 43
21 46 42
21 46 42
21 47 43
21 47 43
21 47 43
21 46 42
21 47 43
21 46 42
21 47 43
20 45 41
21 47 43
20 44 40
20 45 41
20 45 42
20 45 41
20 45 41
20 45 42
21 46 42
20 45 42
20 45 42
20 45 41
20 45 41
20 45 42
20 45 41
20 45 42
20 45 41
20 45 41
20 44 41
20 44 40
21 46 42
20 45 42
20 45 41
21 46 42
21 46 43
21 46 42
20 44 41
21 46 42
20 45 41
20 45 42
20 45 41
21 46 42
21 46 42
21 46 42
21 46 42
21 46 43
21 46 42
21 46 42
20 45 42
20 44 41
21 46 42
20 45 41
21 46 42
20 45 41
21 46 42
20 45 41
20 45 41
21 46 42
21 46 42
21 46 42
20 45 41
21 46 42
21 46 42
20 45 42
21 46 42
21 46 42
21 46 42
21 45 42
21 46 42
20 45 41
20 45 41
21 47 43
20 45 41
21 46 42
20 44 41
21 46 42
21 46 42
21 46 43
21 46 42
21 46 42
21 46 42
21 46 42
21 45 41
21 46 42
21 46 42
22 47 43
21 46 42
21 46 42
21 46 42
21 47 43
21 46 42
21 46 42
21 46 42
21 46 42
21 46 42
21 46 42
21 47 43
21 46 42
22 47 43
22 47 43
21 46 42
22 47 43
21 47 43
22 47 43
22 47 43
21 46 42
21 47 43
21 46 42
21 45 41
21 46 42
21 46 42
21 47 43
21 46 42
21 46 42
21 46 42
21 46 42
21 46 42
21 46 42
21 47 43
21 45 41
21 47 43
21 46 42
21 46 42
21 46 42
22 48 43
20 44 40
21 47 43
21 47 43
22 47 43
21 46 42
22 48 44
21 46 42
20 44 41
20 44 41
21 46 42
20 45 41
20 44 41
20 44 41
20 44 41
20 45 42
20 45 41
20 44 41
20 45 41
20 44 41
20 45 42
21 46 42
21 46 42
20 45 42
20 45 42
20 45 42
20 45 42
20 45 42
20 45 42
20 45 41
21 46 42
20 44 41
21 46 42
20 45 41
21 46 42
20 45 42
20 44 40
21 46 42
20 45 42
20 45 41
20 45 41
20 45 42
20 45 41
21 46 43
20 45 41
20 45 41
20 45 42
20 44 41
20 45 42
20 45 41
20 45 41
20 45 41
20 45 41
20 45 41
20 45 41
21 46 42
20 45 41
21 46 42
20 45 41
21 46 42
21 46 42
20 45 41
21 46 42
21 46 42
21 46 43
21 45 41
20 44 40
21 46 42
20 45 41
21 46 42
21 46 42
21 46 42
21 47 43
21 47 43
21 46 42
21 46 42
21 46 42
21 47 43
21 46 42
22 47 43
21 45 41
21 46 42
21 46 42
21 45 41
22 46 42
22 47 43
22 46 42
21 46 42
22 47 43
22 47 43
22 47 43
21 46 42
21 46 42
22 46 42
22 46 42
21 46 42
22 47 42
21 46 42
22 47 43
22 47 43
22 46 42
21 45 41
21 46 42
22 47 43
21 46 42
21 46 42
21 46 42
21 46 42
21 45 41
22 47 43
21 45 41
21 46 42
21 46 42
21 46 42
21 46 42
21 46 42
21 46 42
21 47 43
20 45 41
21 47 43
21 46 42
21 45 41
21 47 43
21 46 42
21 46 42
20 45 41
21 46 42
21 45 42
20 44 41
20 44 40
20 45 41
20 45 42
20 45 41
20 45 41
20 45 42
21 46 42
20 45 42
21 47 43
20 44 41
20 45 41
21 46 42
20 45 41
20 45 41
20 45 41
21 46 42
20 45 42
20 44 41
20 44 41
21 46 42
21 46 42
20 45 41
20 45 41
21 46 42
20 45 41
21 46 42
21 46 42
21 46 42
20 45 41
20 45 41
20 45 41
20 45 41
20 45 41
20 45 41
20 44 41
20 45 42
20 44 40
21 46 42
20 45 42
20 44 41
21 46 42
20 44 41
21 46 42
20 45 42
20 44 40
20 45 41
21 45 42
20 44 41
20 45 41
20 45 41
21 46 42
20 45 41
20 45 41
21 46 42
21 46 42
21 46 42
21 45 42
21 46 42
21 46 42
20 45 41
21 45 41
21 46 42
21 47 43
21 46 42
21 46 42
21 45 42
21 45 41
21 46 42
22 46 43
22 46 42
22 47 43
22 46 42
21 45 42
22 46 42
22 46 42
22 46 42
22 46 42
22 47 43
22 46 42
22 46 42
22 46 42
22 47 43
23 47 43
22 46 42
22 47 43
22 46 42
23 47 43
22 47 43
22 45 42
22 47 43
22 46 42
22 47 43
22 46 42
22 45 42
22 47 43
22 47 43
22 46 42
21 45 41
21 45 42
22 46 42
21 45 41
21 46 42
22 47 43
21 45 41
21 46 42
21 45 41
21 46 42
21 47 43
21 46 42
21 47 43
22 47 43
21 46 42
21 47 43
21 47 43
21 45 41
21 47 43
21 46 42
21 46 42
21 46 42
20 45 41
20 44 41
20 45 41
20 45 42
20 44 40
20 44 41
20 44 41
20 44 40
20 45 42
20 44 41
20 44 41
20 45 41
20 44 41
20 45 41
20 45 41
20 45 41
20 44 41
20 45 41
20 44 40
20 45 41
20 45 41
20 45 41
20 44 40
21 46 42
21 46 42
20 45 41
20 43 40
20 45 41
20 44 41
21 46 42
20 45 42
21 46 42
20 44 40
20 45 42
20 45 41
20 45 41
20 45 41
20 44 41
21 46 42
20 45 41
20 45 41
20 45 41
20 45 41
20 44 41
21 46 42
20 45 41
20 45 41
21 46 42
21 46 42
20 45 42
20 45 41
21 46 42
21 46 42
21 45 41
21 46 42
21 45 42
21 45 41
21 46 42
20 45 41
21 46 42
21 45 41
22 47 43
21 46 42
21 45 41
22 46 42
21 46 42
22 46 42
21 45 41
21 45 41
22 46 42
22 46 42
22 47 43
22 46 42
22 46 42
23 48 43
22 45 41
23 46 42
23 48 43
23 47 43
23 47 43
23 45 42
23 46 42
23 46 42
24 47 43
23 47 43
23 45 41
23 47 43
23 47 43
23 47 43
23 47 43
23 47 43
23 47 43
23 45 41
23 46 42
23 46 42
23 46 42
23 46 42
22 45 42
23 47 42
22 46 42
22 47 43
23 48 43
22 46 42
22 46 42
22 47 43
22 46 43
22 46 42
22 47 43
21 46 42
21 45 42
21 46 43
21 46 42
21 45 41
22 47 43
22 47 43
21 46 43
21 45 42
22 47 43
21 47 43
20 45 41
20 44 40
20 44 40
20 44 41
20 45 41
19 43 39
20 44 41
20 44 41
20 44 40
20 45 41
20 46 42
20 44 41
20 44 41
20 44 41
20 45 41
20 44 40
20 44 41
21 46 42
20 45 42
20 45 42
21 46 42
20 45 41
20 44 41
20 45 41
20 45 41
21 46 42
21 46 42
20 45 41
20 45 41
20 45 42
20 44 41
21 46 42
21 46 42
20 45 42
20 45 41
21 46 42
20 45 41
20 44 41
21 47 43
20 45 41
21 46 42
20 44 41
20 45 41
21 46 42
21 45 42
21 46 42
20 45 41
21 46 42
21 46 42
20 45 41
21 45 42
20 44 41
21 46 42
20 45 41
21 45 41
21 45 41
21 45 41
21 45 41
21 46 42
21 45 42
21 45 41
21 45 41
22 46 42
23 48 44
22 45 41
22 45 41
22 46 42
22 46 42
23 47 43
23 47 43
23 47 43
23 47 43
23 46 42
23 46 42
24 47 43
25 49 45
24 48 43
24 47 43
24 46 42
24 46 42
25 48 44
24 47 43
25 47 43
24 47 42
25 47 43
24 47 42
25 48 44
24 47 43
25 48 43
24 46 42
25 47 43
24 46 42
24 47 43
25 49 45
24 47 43
25 48 44
24 46 42
24 47 43
24 47 43
24 47 43
24 47 43
23 47 43
23 47 43
23 46 42
23 47 42
22 46 42
22 46 42
22 46 42
22 46 42
22 46 42
22 46 42
22 46 42
21 45 42
22 47 43
21 46 42
21 45 41
21 46 42
21 46 42
20 44 41
21 46 42
21 45 41
20 45 41
20 44 41
20 44 40
20 44 40
20 44 40
20 45 41
20 44 40
20 45 41
20 44 40
20 44 41
20 45 41
21 46 42
19 43 40
19 43 40
20 44 41
20 44 41
20 45 41
20 45 41
20 44 41
20 44 41
21 46 42
20 44 40
20 45 41
20 45 41
20 44 41
20 45 42
20 45 41
20 45 41
20 44 41
20 45 41
20 44 40
20 44 40
20 44 40
20 44 41
20 44 40
20 45 42
20 45 41
21 46 42
20 45 41
20 45 41
21 46 42
20 45 41
21 45 42
21 45 41
20 45 41
20 45 41
21 46 42
21 45 41
21 46 42
21 45 42
21 46 42
21 45 42
21 45 42
21 46 42
21 44 41
22 46 42
21 45 42
21 45 41
21 45 41
22 45 42
22 47 43
22 46 42
23 46 42
23 46 42
23 46 42
23 47 43
23 46 42
23 45 41
24 46 42
24 47 43
25 47 43
25 48 43
24 46 42
25 47 42
26 48 44
25 47 43
26 48 43
26 48 44
26 48 44
26 48 44
26 48 43
27 49 44
27 48 44
27 49 44
27 48 43
27 49 45
26 47 43
27 48 43
27 48 43
27 48 44
26 48 43
27 49 44
26 48 44
26 48 43
26 47 43
25 47 43
26 48 44
25 47 43
25 48 43
24 46 42
24 46 42
24 47 43
25 48 44
23 46 42
23 46 42
24 47 43
23 47 43
22 45 41
22 46 42
22 46 42
22 46 42
22 45 41
21 44 41
22 46 42
22 46 42
22 46 42
21 45 41
21 45 42
21 46 42
21 46 42
20 44 41
20 45 41
20 45 41
20 44 41
20 44 40
20 44 40
20 45 41
20 44 40
19 43 40
20 44 41
20 44 41
20 43 40
20 45 42
20 43 40
20 45 42
20 44 40
20 45 41
20 45 41
20 45 42
20 44 40
20 44 40
20 44 40
20 45 41
20 44 41
20 45 41
20 44 41
20 45 41
20 45 41
20 44 40
20 45 41
20 45 41
20 45 41
20 44 40
20 44 41
20 44 40
20 45 41
20 45 41
21 46 43
20 45 41
20 45 41
20 44 41
20 45 41
20 45 41
20 45 41
20 45 41
21 45 41
21 45 41
21 45 41
21 45 41
21 45 42
21 46 42
21 45 42
21 45 41
21 45 41
21 44 41
21 44 40
22 45 42
22 45 41
23 47 43
22 44 40
24 47 43
24 48 44
24 47 43
24 46 42
24 46 42
24 46 42
25 47 43
25 47 43
26 48 44
26 47 43
26 48 43
27 48 44
27 48 44
27 49 44
28 49 44
28 49 44
27 47 43
28 48 44
28 49 44
29 50 45
29 49 44
29 49 44
29 49 45
29 49 44
29 49 44
30 50 46
29 49 44
29 50 45
29 50 45
29 49 45
29 49 45
29 49 44
28 49 44
28 49 44
28 49 44
28 49 45
27 47 43
27 48 43
27 49 45
27 48 43
26 47 43
26 47 43
26 48 44
25 48 43
25 48 44
24 46 42
24 46 42
24 46 42
24 47 43
24 47 43
23 46 42
23 46 42
23 47 43
22 46 42
22 45 41
22 45 41
22 46 42
22 46 42
21 46 42
22 46 43
20 44 40
20 45 41
19 43 40
20 45 41
20 44 41
20 45 41
20 44 40
19 43 40
20 44 41
20 45 41
20 45 42
20 44 41
20 44 40
20 45 42
20 45 41
20 45 41
20 44 40
20 44 40
20 45 41
20 45 41
20 44 40
20 45 42
20 45 41
20 44 41
20 44 40
20 45 41
20 44 41
20 45 41
21 46 42
20 45 42
20 45 41
20 45 41
20 45 41
20 45 42
20 44 40
20 44 41
20 45 41
20 45 41
20 44 41
20 44 40
20 44 40
21 45 42
20 45 41
20 44 41
21 46 42
21 45 42
21 45 41
20 44 40
21 44 41
21 44 41
21 45 41
21 44 41
22 46 42
22 45 41
23 46 42
22 45 41
23 45 42
23 46 42
23 46 42
24 47 43
24 47 43
25 47 43
25 47 43
25 46 42
26 48 43
26 47 43
26 48 43
27 48 44
27 48 44
28 49 45
28 49 44
29 49 44
29 47 43
29 49 44
30 49 44
30 50 45
30 49 44
31 51 46
32 52 47
32 50 46
31 50 45
32 51 46
32 51 46
32 50 45
32 51 46
32 51 46
32 51 46
32 50 45
32 50 45
32 52 47
32 51 46
32 51 46
31 50 45
31 49 45
31 51 46
30 49 45
30 48 44
30 50 45
29 49 44
29 48 44
29 49 44
28 47 43
28 49 45
27 48 44
27 48 43
26 47 43
26 48 43
25 47 43
25 47 43
25 47 43
25 47 43
24 47 43
23 45 42
24 47 43
23 47 43
22 45 41
22 46 42
22 45 42
22 46 42
22 45 41
19 43 40
19 43 40
20 44 41
20 44 41
20 44 40
20 44 40
19 43 40
19 43 40
20 45 42
20 45 41
19 43 40
20 44 40
20 45 41
19 44 40
20 44 40
20 45 41
20 43 40
20 44 41
20 44 40
20 44 41
20 44 41
20 45 41
20 45 41
20 44 40
19 43 40
20 44 41
20 44 41
20 45 41
20 45 41
20 45 42
20 44 41
20 44 41
20 45 41
20 45 41
20 45 41
21 46 42
20 45 41
20 45 41
20 44 41
21 45 41
20 44 40
21 45 42
21 46 42
20 44 40
21 45 41
21 45 42
21 45 41
21 45 41
22 45 42
22 46 42
22 47 43
22 46 42
22 44 41
22 45 41
23 46 42
24 46 42
24 46 42
25 47 43
24 46 42
25 46 42
25 47 43
26 48 43
27 48 44
27 48 44
28 48 44
28 49 45
28 48 44
29 50 45
29 48 44
30 50 45
31 50 45
31 50 46
32 50 45
32 51 46
33 51 46
33 51 46
33 51 46
34 52 47
34 52 47
35 52 47
35 51 46
35 52 47
35 52 47
35 52 46
35 52 47
35 52 47
36 53 48
36 52 47
36 53 47
36 53 47
35 52 47
35 51 46
35 52 47
34 52 47
34 51 46
33 51 46
33 51 46
33 51 46
32 50 45
32 51 46
31 51 46
30 49 44
30 50 45
30 49 45
29 49 44
29 49 44
28 48 44
27 48 43
27 48 43
26 47 43
25 46 42
26 47 43
25 47 43
25 47 43
24 45 41
24 46 42
23 46 42
23 46 43
22 45 41
22 45 42
19 43 40
20 44 40
19 43 40
20 44 41
20 44 40
20 45 41
20 44 41
20 44 41
20 45 41
20 44 41
20 44 40
20 44 41
20 44 40
19 43 40
19 43 40
19 43 40
20 45 42
20 46 42
20 44 41
20 44 40
20 44 40
20 44 40
20 44 41
19 43 40
20 44 41
20 44 41
20 44 40
20 45 41
20 44 41
20 45 41
20 45 41
20 44 41
20 44 41
20 45 41
20 43 40
20 45 41
20 44 41
21 45 42
20 45 41
20 45 41
20 44 41
21 45 42
21 44 41
21 44 41
21 45 41
21 44 41
21 44 40
22 45 41
22 46 42
22 44 41
23 46 42
23 46 42
23 46 42
23 45 41
24 46 42
25 46 42
25 46 42
26 47 43
26 47 43
27 47 43
27 47 42
28 48 44
29 48 44
29 49 45
29 47 43
31 50 46
31 51 46
32 49 44
32 49 44
33 51 46
34 51 46
34 52 47
35 52 47
36 52 47
36 52 46
37 53 47
37 53 47
38 54 48
38 53 47
38 54 48
38 54 48
39 54 48
39 54 49
39 54 48
39 55 49
39 54 49
39 54 48
40 55 49
39 54 49
39 55 49
39 53 48
39 55 49
38 54 48
38 53 48
37 53 47
37 53 48
37 53 48
36 52 47
35 52 47
34 51 46
34 52 47
33 51 46
33 51 46
33 51 46
32 50 46
31 50 45
30 48 43
30 49 45
29 49 44
28 48 44
28 48 44
27 48 43
27 48 43
26 47 43
26 47 43
25 47 42
25 47 43
24 46 42
23 46 42
23 46 42
19 43 40
20 44 41
20 44 41
19 43 40
19 43 40
20 44 41
20 44 41
20 45 41
20 44 41
20 44 41
20 44 40
20 44 41
20 44 40
19 43 40
20 45 41
20 45 41
20 44 41
20 44 40
20 44 40
20 44 40
20 44 40
20 45 41
20 44 40
20 45 41
20 45 42
20 44 41
20 44 41
20 44 41
20 44 41
20 43 40
20 44 40
20 45 41
20 43 40
21 45 42
20 44 41
20 44 40
20 45 41
20 44 41
20 43 40
20 44 41
21 45 41
21 45 42
21 45 42
21 45 41
22 45 42
22 46 42
22 45 41
22 46 42
23 46 42
23 46 42
23 46 42
24 46 42
24 45 41
25 47 43
25 47 43
26 46 42
27 47 43
27 48 44
28 48 44
29 48 44
29 49 44
30 49 44
31 49 45
32 51 46
32 50 45
34 52 47
34 52 46
35 51 46
35 52 47
37 53 47
37 54 49
38 53 47
38 53 48
39 55 49
40 54 48
40 55 50
41 56 50
42 56 50
42 57 51
42 57 51
43 57 50
43 57 50
43 56 50
43 57 51
44 57 51
44 57 51
44 58 52
43 57 51
44 58 51
43 57 51
43 56 50
43 56 50
42 57 50
42 56 50
42 57 51
41 55 49
40 55 49
40 55 49
39 54 48
39 54 49
38 53 48
37 53 47
36 52 47
36 53 47
35 52 46
34 51 46
33 51 46
32 50 45
32 50 45
31 50 45
30 48 44
29 49 44
29 48 44
28 48 44
27 48 44
27 48 43
26 47 43
26 48 44
25 46 42
25 47 43
20 44 41
20 44 40
20 45 41
20 44 40
19 43 40
20 44 41
19 43 40
20 44 40
19 43 40
19 43 40
19 44 40
20 45 41
20 45 41
20 44 40
20 45 41
20 45 41
20 44 41
20 44 41
20 44 41
20 45 41
19 43 40
19 43 40
21 46 42
20 44 41
20 44 41
20 44 41
20 44 41
20 43 40
20 45 41
20 44 40
20 44 41
20 44 40
20 44 41
20 45 41
20 45 41
21 45 41
20 44 41
20 44 41
21 44 41
21 44 41
21 44 41
21 44 41
21 43 40
22 45 41
22 46 42
22 45 41
23 46 42
23 44 41
23 45 41
24 46 42
24 44 41
25 47 43
26 47 43
27 48 43
27 47 43
28 48 43
29 49 44
29 48 44
30 49 44
31 49 45
32 50 45
33 51 46
34 52 47
35 52 47
36 53 48
36 52 46
37 52 47
38 52 47
39 54 48
40 55 49
41 55 49
42 56 50
42 56 50
42 55 49
44 57 50
45 58 52
45 58 51
46 59 52
46 59 52
46 58 52
47 58 52
47 60 53
48 60 53
48 61 54
48 61 54
48 59 52
48 60 53
48 60 53
48 61 54
48 60 53
48 60 53
47 59 53
47 59 52
46 59 52
46 58 52
45 59 52
44 58 51
44 57 51
43 57 51
42 56 50
41 55 49
41 55 49
40 54 48
39 54 48
38 54 48
37 53 47
36 53 48
36 52 47
35 52 47
33 50 45
33 50 45
32 50 45
31 49 44
30 49 44
30 50 45
29 48 44
28 48 44
28 49 44
26 47 43
26 47 43
20 44 41
20 45 41
20 44 41
20 44 40
20 45 41
20 44 41
19 43 40
20 44 40
20 44 40
20 44 40
19 43 40
20 44 41
20 44 40
20 44 40
20 44 41
19 43 39
20 44 41
20 44 40
20 45 41
19 43 40
20 44 40
20 44 41
20 44 41
20 44 41
19 43 40
20 45 42
20 44 40
20 44 41
20 44 41
20 45 42
20 45 41
20 45 41
21 45 41
20 43 40
21 45 41
20 44 40
21 45 41
21 45 41
21 44 41
21 45 41
22 45 41
22 45 41
22 46 42
23 46 43
23 45 41
23 44 40
23 45 41
24 46 42
25 46 42
26 47 43
26 46 42
26 47 43
28 49 44
28 48 43
29 48 43
30 48 43
31 49 45
32 51 46
33 51 46
33 51 46
34 51 46
35 52 47
37 53 48
38 54 48
38 52 47
39 54 48
41 55 49
42 57 50
43 56 50
43 57 50
44 57 51
45 58 52
46 59 52
47 59 53
48 60 53
49 61 54
49 61 53
50 61 54
51 62 55
51 62 54
52 63 55
52 63 56
52 63 56
53 63 56
53 63 56
53 64 56
53 63 56
53 63 55
53 63 55
53 64 56
52 63 55
52 63 55
51 62 55
51 62 55
50 62 54
50 61 54
49 61 54
48 60 53
48 60 54
47 59 52
46 59 52
45 58 51
44 57 51
43 57 51
42 57 51
41 56 50
40 55 49
39 55 49
37 53 47
37 52 47
36 53 47
34 50 45
34 51 46
33 51 46
32 50 45
31 50 45
30 49 44
30 50 45
29 49 45
27 47 42
20 45 42
20 44 41
19 42 39
20 45 41
19 44 40
20 44 41
20 44 41
20 45 41
20 44 41
20 44 40
20 44 41
19 43 39
19 43 39
20 44 40
20 44 41
20 44 40
19 43 40
19 43 40
20 44 41
20 45 41
20 44 41
20 45 41
20 44 41
20 43 40
20 44 41
20 43 40
20 44 41
20 44 41
20 43 40
20 44 41
19 43 40
20 45 41
20 44 40
21 45 41
21 44 41
21 45 41
21 45 41
21 44 41
21 45 41
22 46 42
22 45 41
22 45 41
23 46 42
23 45 42
23 45 41
24 47 43
25 47 43
25 45 41
26 46 42
27 47 43
28 48 44
28 48 43
29 49 44
30 49 45
31 50 45
32 50 45
33 50 45
34 51 46
35 51 46
36 53 48
37 53 47
39 54 49
40 54 49
41 55 49
42 56 50
43 57 50
44 58 51
46 59 52
46 58 51
47 59 52
49 60 53
50 61 54
51 61 54
52 63 55
52 63 55
53 63 56
54 65 57
55 65 57
56 66 58
56 66 58
57 66 58
57 66 58
57 66 58
58 67 59
58 66 58
58 67 58
58 67 59
58 66 58
58 67 58
57 67 59
57 66 58
57 67 58
56 65 57
56 65 57
55 65 57
55 65 57
54 64 56
53 63 56
52 62 55
51 62 55
50 62 54
49 61 54
48 60 53
47 60 53
46 59 52
44 57 50
44 58 51
42 55 49
41 56 50
40 56 50
39 54 49
38 54 48
37 53 47
36 53 47
34 51 46
33 50 45
33 51 46
31 50 45
30 48 44
30 49 45
19 43 40
20 44 41
19 43 40
20 44 40
19 43 40
19 43 39
19 42 39
19 43 40
19 43 40
20 44 40
20 44 41
20 44 40
20 44 41
20 44 40
19 43 39
20 44 41
20 44 41
20 43 40
20 45 41
20 44 41
20 44 40
20 44 41
19 43 40
20 44 40
20 43 40
20 44 41
20 44 40
20 43 40
20 45 42
20 44 40
20 44 41
21 45 41
21 45 41
20 44 40
21 44 41
21 44 41
21 44 40
22 45 42
22 45 41
23 46 42
22 44 40
23 45 41
23 45 41
24 44 41
24 46 42
25 46 42
26 46 42
27 48 43
27 47 43
28 48 44
29 48 43
31 50 45
31 49 44
32 50 45
33 50 45
34 51 46
35 51 46
37 53 48
38 53 48
39 54 48
40 54 49
42 56 50
43 56 50
44 57 51
46 59 52
47 59 52
48 60 53
50 62 55
51 62 55
52 62 54
53 63 55
54 64 56
55 65 58
56 65 57
57 66 58
58 67 59
59 68 59
60 68 59
61 69 60
61 70 61
62 70 61
62 70 61
63 71 62
63 71 62
63 71 62
63 70 61
63 71 62
63 71 62
63 71 62
63 70 61
62 70 61
62 70 61
61 70 61
61 69 60
60 68 59
60 68 60
59 68 59
58 66 58
57 65 57
55 65 57
55 65 57
54 64 56
53 63 55
51 62 54
50 62 54
49 60 53
48 60 53
46 58 52
45 59 52
44 57 51
42 56 50
41 56 50
40 55 49
38 53 48
38 53 48
36 53 47
35 51 46
34 50 45
33 51 46
32 49 45
19 42 39
20 44 41
19 43 40
19 42 39
19 43 39
19 43 40
20 44 41
19 43 40
20 44 40
20 44 40
20 45 42
20 45 41
20 44 41
20 45 42
19 43 40
20 44 41
20 44 40
19 43 40
20 44 41
19 43 40
20 44 40
20 45 41
20 44 40
20 44 40
20 43 40
20 44 41
20 44 40
20 44 41
21 45 42
21 45 41
21 45 41
21 44 41
21 45 41
21 44 40
21 44 41
21 44 40
22 46 42
22 45 41
22 45 41
23 45 41
24 46 42
24 45 41
25 47 43
25 46 42
26 46 42
27 47 43
27 46 42
28 47 43
29 48 44
30 48 43
31 50 46
32 50 45
33 51 46
35 52 47
36 51 46
37 53 48
38 53 47
40 54 48
41 55 49
42 55 49
44 58 51
45 58 51
47 59 53
48 60 53
50 62 54
51 62 55
52 63 56
54 64 56
55 65 57
56 65 57
58 67 59
59 68 59
60 68 60
61 69 60
62 70 62
63 71 62
64 71 62
65 72 63
66 73 63
66 74 64
67 74 64
67 74 65
68 75 65
68 75 65
68 75 65
68 75 65
68 74 64
68 75 65
68 74 64
68 74 65
67 74 64
67 74 65
67 74 64
66 73 63
65 72 63
65 72 63
64 72 62
62 70 61
62 70 61
60 69 60
59 68 60
58 67 59
57 66 58
55 64 56
54 64 56
53 62 55
51 62 55
50 61 54
49 61 54
47 60 53
46 59 52
44 57 50
43 57 50
42 56 50
40 55 49
39 54 48
38 54 48
36 52 47
35 51 46
34 50 45
19 43 40
20 45 42
20 45 42
19 43 39
20 44 40
19 43 40
19 42 39
19 43 40
20 44 40
19 43 40
20 44 40
19 43 39
19 43 40
20 45 41
20 44 40
20 43 40
20 45 42
19 43 39
20 45 42
20 44 40
20 44 41
20 45 41
20 44 41
20 43 40
21 45 42
20 44 41
20 44 40
20 44 41
20 44 41
21 44 41
21 44 41
20 43 40
21 45 41
21 44 41
21 44 40
22 46 42
22 45 41
23 46 42
23 45 41
23 45 41
24 45 42
25 46 42
26 47 43
27 47 43
27 47 43
28 48 44
29 49 44
30 48 44
31 50 45
32 48 43
33 50 46
34 51 46
36 52 46
37 52 47
38 53 48
40 54 49
41 55 50
43 56 50
44 58 51
46 58 52
47 59 52
49 61 54
51 62 55
52 62 55
53 63 55
55 65 57
56 65 57
58 67 59
60 68 60
61 69 60
62 70 61
63 71 62
65 72 63
66 72 63
67 73 63
68 74 65
69 76 66
70 76 66
71 77 67
72 77 67
72 78 67
73 78 68
73 79 68
74 79 69
74 80 69
74 79 69
74 79 68
74 80 69
73 78 67
73 79 68
73 79 68
73 78 68
72 78 68
71 77 67
71 77 67
69 75 65
69 75 65
68 75 65
67 73 64
65 73 63
64 72 63
63 71 62
61 69 60
60 68 59
59 68 59
57 67 59
56 65 57
54 65 57
53 63 56
51 62 54
50 61 54
48 59 52
47 59 52
45 58 52
44 57 51
42 56 50
41 55 49
39 54 48
38 53 47
37 53 48
19 44 40
19 44 40
19 43 40
20 44 41
20 44 41
20 44 41
19 42 39
19 43 40
20 44 41
20 44 40
20 44 41
20 44 40
19 44 40
20 45 42
19 43 40
20 44 40
19 43 40
20 44 41
20 44 40
20 45 42
20 43 40
20 43 40
20 43 40
20 44 40
20 44 41
20 44 41
20 43 40
20 43 39
20 43 40
21 45 42
21 44 41
21 43 40
22 45 41
21 44 40
22 45 41
22 45 41
23 45 42
23 44 40
24 47 43
24 45 41
25 46 42
26 47 43
27 48 44
28 48 43
29 48 44
30 48 44
31 49 45
32 50 45
33 50 45
34 51 46
36 52 47
37 52 47
38 53 48
40 53 48
41 55 49
43 57 51
44 57 50
46 58 52
48 59 52
49 60 53
51 62 54
53 63 56
54 64 56
56 65 57
58 66 58
59 68 60
61 69 60
62 69 61
64 71 62
66 73 64
67 74 65
68 75 65
70 76 66
71 76 66
72 78 67
73 78 68
74 79 68
76 81 70
76 81 70
77 82 71
78 82 71
78 83 71
79 83 72
79 83 71
79 83 72
80 84 72
80 83 72
79 83 72
79 84 72
79 83 71
79 83 72
78 83 71
77 82 71
77 82 70
76 81 70
75 80 69
74 79 68
73 78 67
72 77 67
70 76 66
69 76 66
68 74 64
66 73 64
65 72 62
63 71 62
62 70 61
60 68 60
59 68 59
57 67 59
56 66 58
54 64 56
52 63 55
50 61 54
49 61 54
47 59 52
46 58 52
44 58 51
42 56 50
41 55 49
40 55 49
19 43 40
20 44 41
19 43 40
19 43 39
19 43 40
19 42 39
19 42 39
20 44 41
19 43 40
19 43 40
19 43 40
20 45 42
19 43 40
19 43 40
19 43 40
20 43 40
20 43 40
20 44 41
20 43 40
20 44 40
20 43 40
20 45 41
20 43 40
20 43 40
20 43 40
20 43 40
21 45 41
21 44 41
21 45 41
22 46 42
22 45 41
21 43 40
22 46 42
22 44 40
23 45 41
23 45 41
24 46 42
24 45 41
25 46 42
26 46 42
27 48 44
27 47 43
28 47 43
29 48 44
30 48 43
31 50 45
33 50 45
34 50 45
35 52 47
36 52 47
38 53 47
39 54 48
41 54 48
42 56 50
44 57 50
46 57 51
48 59 52
49 61 54
51 62 55
53 63 56
55 64 57
56 65 57
58 67 59
60 69 61
62 70 61
64 71 62
65 72 63
67 74 64
69 75 65
70 76 66
71 77 66
73 79 68
75 79 69
76 80 69
77 82 71
79 83 72
80 84 72
81 84 73
82 85 73
83 86 74
83 87 75
84 87 75
84 87 75
85 88 76
85 88 76
85 88 76
85 89 76
85 88 76
85 88 76
84 88 75
84 87 75
84 87 75
83 86 74
82 86 74
81 86 74
80 85 73
79 83 72
78 83 72
77 81 70
76 81 70
74 79 69
73 78 68
71 77 67
70 76 66
68 74 64
66 72 63
65 72 63
63 71 62
61 70 61
60 69 60
58 67 59
56 67 59
54 64 56
53 63 55
51 62 55
49 60 53
47 60 53
46 58 52
44 57 51
42 57 50
19 43 40
20 45 41
19 43 40
19 43 40
19 44 40
20 44 40
19 43 39
19 43 39
20 44 41
19 43 40
19 43 40
20 44 41
19 43 40
20 45 41
20 45 42
19 43 40
19 43 40
19 43 40
20 44 40
20 43 40
19 43 39
20 44 40
20 43 40
20 43 40
20 44 41
20 43 39
21 46 42
21 45 42
21 45 41
22 45 42
22 45 41
22 45 41
22 43 40
22 44 40
23 45 41
24 45 42
25 47 43
25 46 42
25 45 41
27 47 43
28 47 43
29 47 43
30 48 44
31 49 44
32 49 45
33 50 45
35 51 46
36 52 46
37 53 48
39 53 48
41 55 49
42 56 50
44 56 50
46 59 52
47 59 52
49 60 53
51 61 54
53 63 55
55 65 57
57 66 58
58 67 59
60 68 59
62 70 61
64 72 63
66 73 63
68 74 64
70 76 66
71 77 67
73 78 68
75 80 69
77 81 70
78 82 71
80 84 72
81 84 72
83 87 75
83 87 75
85 88 76
86 88 76
87 89 77
88 90 77
89 91 78
89 91 78
90 92 79
90 92 79
90 92 79
91 92 79
91 92 79
90 93 80
90 92 79
90 93 80
90 92 79
89 91 78
88 91 78
87 90 77
87 90 77
86 88 76
85 88 75
83 87 75
82 85 74
81 85 73
80 84 72
78 81 70
76 81 70
75 80 69
73 78 67
71 77 67
70 76 66
68 74 64
66 73 64
64 71 62
62 70 61
60 69 60
58 67 58
56 66 58
54 64 56
53 63 55
51 62 55
49 60 54
47 59 52
45 57 51
19 42 39
19 42 39
19 42 39
19 43 40
19 43 40
20 45 41
19 43 40
19 43 40
19 43 40
19 43 40
19 43 40
19 43 40
19 43 40
20 44 41
19 43 40
20 43 40
20 44 41
20 43 40
20 43 40
20 44 41
20 43 40
20 44 41
20 43 40
20 43 40
21 44 41
20 43 39
21 45 41
21 45 41
22 45 41
22 45 41
22 45 41
22 44 41
23 46 42
23 44 41
24 46 42
25 46 42
25 46 42
26 47 43
27 47 43
28 48 44
29 48 44
30 49 44
31 49 44
33 50 46
34 50 45
35 51 46
37 53 48
38 53 48
40 55 49
41 55 49
43 56 50
45 58 52
47 58 52
48 59 52
50 61 54
52 63 55
54 63 56
56 65 57
58 67 59
60 68 59
62 70 61
64 71 62
66 73 64
68 75 65
70 76 66
72 77 67
74 80 69
76 81 70
78 82 70
80 84 72
82 86 74
83 86 74
85 88 76
86 89 76
88 90 78
89 92 79
90 93 80
92 94 80
92 94 81
93 95 82
94 96 82
95 96 82
95 97 83
96 97 83
96 97 83
96 98 84
96 97 83
96 97 83
96 97 83
96 97 83
95 96 82
95 97 83
94 96 82
93 95 82
92 93 80
91 93 80
90 92 79
89 91 78
87 90 77
86 89 77
85 88 76
83 86 75
81 85 73
80 84 72
78 82 71
76 80 70
74 79 68
72 77 67
70 75 65
68 74 64
66 73 63
64 72 63
62 71 62
60 68 60
58 67 59
56 66 58
54 65 57
52 62 55
50 62 54
49 61 54
19 43 40
20 44 40
19 43 40
20 44 41
19 43 40
19 43 40
20 44 41
19 43 40
20 44 40
20 44 41
20 44 41
20 44 41
19 43 40
19 43 40
19 43 40
20 44 41
20 44 41
20 45 41
20 43 40
20 43 40
20 44 40
20 44 41
20 44 40
20 44 40
20 43 40
21 44 41
22 45 42
22 45 42
22 44 41
22 44 40
23 45 41
23 45 41
24 46 42
25 46 42
25 45 41
26 46 42
27 46 42
27 47 43
29 48 44
29 47 43
31 49 45
32 49 44
33 50 45
34 50 45
36 52 47
37 53 48
39 54 48
40 54 49
42 56 50
44 56 50
46 57 51
47 58 52
50 61 54
52 62 55
54 63 56
56 65 57
58 66 58
60 68 59
62 69 61
64 71 62
66 72 63
68 74 64
70 76 66
73 78 68
75 80 69
77 81 70
79 82 71
81 84 73
83 86 74
85 88 76
86 89 76
88 91 78
90 92 79
91 93 80
93 95 81
94 95 82
95 96 83
97 97 83
98 99 85
99 100 86
100 101 86
100 101 86
101 102 87
101 101 87
102 102 87
102 102 87
102 102 87
102 102 87
102 102 87
101 101 87
101 101 87
100 100 86
99 100 86
98 100 85
97 98 84
97 98 84
95 96 83
94 95 82
93 94 80
91 93 80
89 91 79
88 90 77
86 89 77
84 87 75
83 86 74
80 84 72
78 82 71
76 81 70
75 80 69
72 78 68
70 76 66
68 74 64
66 73 64
64 71 62
62 70 61
60 68 59
58 67 59
56 64 56
54 63 55
52 63 55
19 43 40
20 44 40
19 43 40
20 44 40
19 42 39
20 44 40
19 42 39
20 44 41
19 43 40
20 44 41
20 44 40
19 43 40
20 44 40
19 42 39
20 43 40
19 43 40
20 44 41
20 44 40
20 44 41
20 44 41
20 43 39
20 44 41
21 44 41
21 44 41
21 45 41
21 43 40
22 44 41
22 45 41
23 45 42
23 45 41
23 44 41
24 45 42
25 46 42
25 45 42
26 46 42
27 47 43
28 47 43
29 48 43
30 48 43
31 48 44
32 50 45
33 50 45
35 51 46
36 52 47
38 53 48
39 54 48
41 55 49
43 56 50
45 57 51
47 59 53
48 59 52
51 62 55
52 63 55
55 65 57
57 66 58
59 67 58
61 70 61
63 71 62
65 72 62
68 74 65
70 76 66
72 78 68
74 79 69
77 81 70
79 83 72
81 85 73
83 86 74
85 88 76
87 90 77
89 91 78
91 93 80
93 95 81
95 96 82
96 97 83
98 99 84
99 100 85
101 101 86
102 102 87
103 103 88
104 103 88
105 105 90
105 105 90
106 105 90
107 106 91
107 107 91
107 106 91
107 106 91
107 106 90
107 107 91
106 106 91
106 106 90
105 105 90
105 104 89
104 104 89
103 103 88
102 102 87
100 101 86
99 100 85
98 98 84
96 97 83
95 96 82
93 95 81
91 94 80
89 92 79
87 90 77
85 88 76
83 86 75
81 85 73
79 83 72
77 81 70
74 79 68
72 77 67
70 76 66
68 75 65
66 73 64
63 70 61
61 70 61
59 67 59
57 66 58
55 65 57
19 43 40
19 43 40
20 44 41
19 43 40
20 44 40
20 44 40
19 43 40
19 41 38
19 43 40
20 44 40
19 42 39
19 43 40
20 43 40
20 43 40
20 43 40
20 43 40
20 45 41
20 43 40
20 44 40
20 44 41
21 44 41
21 44 41
21 43 40
21 43 40
21 44 41
21 44 40
22 44 40
22 44 41
23 45 41
23 45 41
24 45 41
25 45 42
25 46 42
26 47 43
27 47 43
28 46 42
29 47 43
30 49 44
32 50 46
33 50 46
34 51 46
35 51 46
37 52 47
38 52 47
40 55 49
42 55 49
43 55 49
45 57 51
47 59 52
49 60 53
51 61 54
53 63 55
56 64 57
58 66 58
60 69 60
62 70 61
64 71 62
67 73 64
69 75 65
72 77 67
74 79 69
76 81 70
78 82 71
81 85 73
83 86 74
85 88 76
87 90 77
90 92 79
92 93 80
94 95 82
96 97 84
98 99 85
100 101 86
101 101 86
103 103 88
105 105 89
106 105 90
107 107 91
108 107 91
109 108 92
110 109 93
111 110 93
111 110 94
112 110 94
112 111 95
113 111 95
112 111 95
112 111 95
112 111 94
112 111 95
112 111 94
111 110 94
110 109 93
109 108 92
108 107 92
107 106 91
106 105 90
104 105 89
103 103 88
101 102 87
99 100 86
98 99 84
96 97 83
94 95 82
92 94 81
90 92 79
88 90 77
86 88 76
83 87 75
81 85 73
79 83 71
77 81 70
74 79 69
72 77 67
70 75 65
67 73 64
65 73 64
63 70 61
61 69 60
58 67 59
19 43 40
20 44 41
20 44 41
19 43 40
19 43 40
20 44 40
19 42 39
20 44 40
19 43 40
19 43 40
20 44 40
20 44 40
20 45 41
20 43 40
20 43 40
20 43 40
20 43 40
20 43 39
20 44 41
21 45 42
21 44 41
21 44 41
21 43 40
21 43 40
21 43 40
22 45 41
22 45 41
23 45 41
23 45 41
24 45 42
25 45 42
26 46 42
26 47 43
27 47 43
28 47 43
29 47 43
30 49 44
31 48 43
33 50 45
34 51 46
35 51 46
37 54 48
39 54 48
40 54 49
42 55 49
44 57 51
46 58 51
48 59 52
50 61 54
52 62 55
54 63 56
56 66 57
59 68 59
61 69 60
63 71 62
66 73 64
68 75 65
70 75 65
73 78 68
75 80 69
78 82 71
81 85 73
83 86 74
85 87 75
87 89 77
90 91 79
92 93 80
94 95 82
97 98 84
99 99 85
101 101 86
103 102 88
105 104 89
106 106 90
108 107 91
109 108 92
111 110 93
112 111 95
113 112 95
114 113 96
115 113 97
116 114 97
117 115 98
117 115 98
118 116 99
118 116 99
118 116 99
118 115 98
118 115 98
117 115 98
117 115 98
116 114 97
115 114 97
114 112 96
113 112 95
112 111 95
111 109 93
109 109 93
108 108 92
106 106 90
105 104 89
103 102 88
101 101 87
99 99 85
97 98 84
95 96 82
92 94 80
90 93 80
88 90 78
86 89 76
83 86 74
81 85 73
79 83 72
76 81 70
74 78 68
71 77 67
69 76 66
66 73 64
64 71 62
62 70 61
19 42 39
19 43 39
19 42 39
20 44 41
19 42 39
20 44 41
19 43 40
19 43 40
20 44 40
19 43 40
20 44 41
20 43 40
20 44 41
20 44 41
20 44 41
20 44 40
20 43 40
20 42 39
20 44 40
21 44 40
21 44 41
21 44 41
21 43 40
21 44 40
22 45 42
22 44 40
23 45 42
23 44 41
24 46 42
25 46 42
25 45 41
26 47 43
27 46 42
28 48 44
29 47 43
30 48 44
31 48 44
33 50 45
34 50 45
36 51 46
37 53 48
39 54 48
40 54 48
42 55 49
44 56 50
46 57 51
48 59 53
50 62 54
52 63 55
54 63 55
57 66 58
59 67 59
61 69 60
64 71 62
67 73 63
69 75 66
71 77 67
74 80 69
77 81 70
79 83 72
82 85 74
84 87 75
87 90 77
89 91 78
92 93 80
94 95 82
97 97 84
99 99 85
101 101 87
103 103 88
105 105 89
107 107 91
109 108 92
111 109 93
113 111 95
114 113 96
116 114 97
117 115 98
118 116 99
119 117 100
120 118 100
121 118 101
122 119 102
122 120 102
123 120 102
123 120 102
123 120 102
123 120 102
123 120 102
122 119 102
122 119 102
121 119 101
120 118 100
120 117 100
118 116 99
117 115 98
116 114 97
114 113 96
113 111 95
111 110 94
109 109 93
107 106 91
105 105 89
104 103 88
101 101 87
99 100 85
97 98 84
94 96 82
92 94 80
90 92 79
87 90 77
85 88 76
82 85 73
80 84 73
77 81 70
75 79 68
72 77 67
70 76 66
67 74 64
65 72 63
19 44 40
20 44 41
20 44 40
20 44 41
19 43 40
19 42 39
19 43 40
19 43 40
19 43 40
19 43 40
20 43 40
20 44 41
20 44 40
20 43 40
19 42 39
21 45 41
20 43 40
20 44 40
20 43 40
21 43 40
21 43 40
21 43 39
22 44 40
22 45 41
23 46 42
23 44 40
23 45 41
24 44 41
24 45 41
25 45 42
26 45 42
28 49 44
29 48 44
29 47 43
30 49 44
32 50 45
33 49 45
34 51 46
36 51 46
37 52 47
39 54 49
41 54 49
42 55 49
44 57 51
46 58 51
49 60 53
51 61 54
53 62 55
55 65 57
57 66 58
60 68 59
62 70 61
65 72 63
67 73 64
70 75 65
72 77 67
75 79 69
78 82 71
80 84 73
83 86 74
86 89 76
88 90 77
91 92 79
93 95 81
96 96 82
98 99 85
101 101 86
103 103 88
105 105 90
108 107 92
110 109 93
112 110 94
114 112 95
116 113 97
117 115 98
119 117 100
121 118 101
122 119 102
123 121 103
124 121 103
125 122 104
126 123 104
127 123 105
128 124 106
128 124 105
128 124 106
128 124 106
128 125 106
128 124 106
127 124 105
127 124 105
126 123 105
126 122 104
125 122 104
123 120 102
122 119 102
121 118 101
119 117 100
118 115 98
116 114 97
114 112 96
112 111 95
110 109 93
108 108 92
106 106 90
104 104 89
101 102 87
99 99 84
96 97 83
94 95 82
92 93 80
89 91 78
86 89 76
84 87 75
81 85 73
78 82 71
76 80 69
73 78 68
71 77 66
68 74 65
19 43 39
20 44 41
19 42 39
19 43 40
20 44 41
19 42 39
19 43 40
19 43 40
20 44 41
20 44 41
19 42 39
19 42 39
19 43 39
20 43 40
19 41 38
20 42 39
20 43 40
20 44 40
20 43 40
21 43 40
21 44 41
21 43 40
22 44 41
22 44 41
23 44 40
23 44 41
24 45 41
25 46 42
25 46 42
26 46 42
27 46 42
28 47 43
29 48 44
31 49 45
31 48 44
33 50 45
34 51 46
36 51 46
37 52 47
39 53 48
41 55 49
42 55 49
44 57 50
47 59 52
49 60 53
51 61 54
53 62 55
55 65 57
58 66 58
60 68 60
63 70 62
65 72 62
68 74 64
70 76 66
73 78 68
76 80 69
78 82 71
81 84 73
84 87 75
86 89 77
89 92 79
92 94 80
95 97 83
97 98 84
100 100 85
102 103 88
105 104 89
107 107 91
110 108 92
112 110 94
114 112 96
116 114 97
118 116 99
120 118 100
122 119 102
124 121 103
125 122 104
127 123 105
128 125 106
129 125 106
130 126 107
131 127 108
132 128 108
132 128 109
133 129 109
133 129 110
133 129 110
133 129 110
133 129 110
132 128 109
132 128 109
131 128 109
130 126 107
129 126 107
128 125 106
127 124 105
126 122 104
124 121 103
122 120 102
121 118 101
119 117 99
117 115 98
115 113 96
113 111 95
110 109 93
108 107 92
106 106 90
103 103 88
101 101 86
98 99 85
95 96 83
93 94 81
90 92 79
88 90 77
85 88 75
82 85 73
80 84 73
77 82 71
74 79 68
72 77 67
19 43 39
19 42 39
19 43 40
19 43 40
19 42 39
19 43 40
19 42 39
19 42 39
19 42 39
20 44 41
20 44 41
20 43 40
20 43 40
20 44 40
21 44 41
20 43 39
20 43 40
20 43 40
21 44 41
21 43 40
22 44 41
22 44 41
22 43 40
23 44 40
24 46 42
24 45 41
25 47 43
26 47 43
26 46 42
27 46 42
28 46 42
29 48 44
31 49 45
32 50 45
33 50 46
34 50 45
36 52 46
37 53 47
39 52 47
41 54 48
42 56 50
45 57 51
47 59 52
49 61 54
51 61 54
53 63 55
55 64 56
58 66 58
60 69 60
63 70 61
66 73 64
68 74 64
71 77 66
73 78 67
76 80 70
79 83 71
82 85 74
85 87 75
87 90 78
90 92 79
93 95 81
96 96 83
98 99 84
101 101 87
104 104 88
106 106 91
109 108 92
112 110 94
114 113 96
116 114 97
119 116 99
121 118 101
123 120 103
125 122 104
127 123 105
128 125 107
130 126 107
131 127 108
133 129 109
134 129 110
135 131 111
136 132 112
137 132 112
137 133 113
137 133 113
138 133 113
138 133 113
138 133 113
138 133 113
137 133 113
137 132 112
136 132 112
135 130 111
134 130 111
133 129 109
132 128 109
130 127 108
129 125 106
127 124 105
125 122 104
123 120 102
121 119 101
119 117 99
117 115 98
115 113 97
112 110 94
110 109 93
108 106 91
105 105 89
102 102 88
100 100 86
97 98 84
94 95 82
91 93 80
89 91 78
86 89 76
83 86 74
81 84 73
78 82 71
75 80 69
20 44 41
19 43 39
19 43 40
19 43 40
19 43 40
20 44 40
20 44 40
20 44 40
19 42 39
20 43 40
20 44 41
20 44 41
20 43 40
20 43 40
20 43 40
21 45 41
20 43 40
21 43 40
21 43 40
21 43 40
22 45 41
22 43 40
23 45 41
23 43 40
24 46 42
25 45 42
26 47 43
26 46 42
27 46 42
28 46 42
29 48 43
30 47 43
31 49 44
33 49 44
34 50 45
36 51 46
37 52 47
39 53 48
41 54 48
42 55 49
44 57 51
47 59 53
48 59 52
51 61 54
53 63 56
55 65 57
58 66 58
60 68 60
63 70 61
65 72 63
68 74 65
71 77 67
74 78 68
77 81 70
79 83 72
82 86 74
85 88 76
88 90 78
91 92 79
94 95 81
97 97 83
99 99 85
102 102 87
105 104 89
108 107 91
110 109 93
113 111 95
116 114 97
118 116 99
120 118 100
123 120 102
125 122 104
127 123 105
129 126 107
131 127 108
133 129 109
135 130 111
136 131 112
137 133 113
138 134 113
140 135 114
140 135 115
141 136 115
142 137 116
142 137 116
143 137 116
143 137 117
143 137 117
142 137 116
142 136 116
141 136 116
140 135 115
140 135 114
139 134 114
138 133 113
136 132 112
135 131 111
133 129 110
132 128 109
130 126 107
128 124 106
126 123 104
124 121 103
122 119 102
119 117 100
116 115 98
114 113 96
112 110 94
109 108 92
106 105 90
103 103 88
101 101 87
98 99 84
95 97 83
92 94 81
90 91 79
87 89 76
84 87 75
81 85 73
78 82 71
