P3
120 80
255
18 41 39
18 42 39
18 41 38
18 41 39
18 41 38
18 41 38
18 41 38
18 41 39
18 40 38
18 41 39
18 42 39
18 41 38
18 41 38
18 41 38
19 42 39
18 41 38
18 41 38
18 41 38
18 41 38
18 41 38
18 41 38
19 42 39
18 41 38
18 41 38
18 41 38
18 41 39
18 41 39
18 42 39
18 41 38
18 41 38
18 42 39
18 41 38
19 42 39
18 41 38
19 42 39
19 42 39
18 40 38
18 42 39
19 42 39
18 42 39
18 41 38
18 41 38
19 42 39
19 43 40
19 42 39
18 42 39
18 41 38
18 41 38
18 41 38
19 42 39
18 41 38
19 42 39
18 41 38
19 43 40
18 41 38
19 42 39
19 42 39
18 41 38
19 42 39
19 42 39
19 43 40
19 42 39
18 42 39
19 43 40
18 42 39
19 42 39
18 41 38
19 42 39
19 42 39
18 42 39
19 42 39
19 42 39
18 41 38
19 42 39
18 41 39
18 41 38
18 41 38
18 41 38
19 43 40
18 40 37
19 42 39
18 41 38
19 42 39
18 42 39
18 41 38
18 41 38
18 42 39
18 42 39
18 41 38
19 42 39
19 42 39
19 42 39
19 42 39
18 42 39
18 41 38
18 42 39
18 41 39
18 40 38
19 42 39
18 41 38
18 42 39
18 41 39
18 42 39
19 42 39
18 41 38
18 41 38
19 42 39
18 42 39
18 40 38
19 42 39
18 41 38
18 41 38
18 41 38
18 40 38
18 41 38
18 41 39
19 42 39
18 42 39
18 40 38
18 41 39
19 42 39
18 41 38
18 41 38
18 41 38
19 42 39
19 42 39
18 41 38
19 42 40
18 40 38
19 42 39
18 42 39
19 42 39
18 41 38
18 41 38
18 41 38
19 42 39
18 41 39
19 43 40
19 43 40
19 42 39
19 42 39
19 42 39
18 41 38
19 43 40
18 41 38
19 42 39
19 42 39
19 42 39
18 41 38
18 41 38
18 41 38
18 41 38
19 42 39
19 42 39
19 42 39
19 43 40
19 42 39
19 42 39
19 43 40
19 42 39
19 42 39
19 43 40
19 42 39
18 41 38
19 42 39
19 42 39
19 42 39
19 43 40
19 42 39
19 42 39
18 41 38
18 42 39
18 41 38
19 42 39
18 41 39
19 43 40
19 42 39
19 42 39
19 42 39
19 42 39
19 43 40
19 42 39
19 42 39
19 43 40
19 42 39
19 42 39
19 42 39
19 43 39
19 42 39
19 42 39
19 42 39
19 42 39
19 43 39
19 42 39
19 43 40
19 42 39
18 42 39
19 42 39
19 42 39
18 42 39
19 42 39
19 42 39
18 41 38
19 42 39
19 43 40
19 42 39
18 41 38
19 43 40
19 42 39
18 42 39
19 42 39
19 43 40
19 43 40
19 43 40
19 42 39
18 41 38
19 42 39
19 43 40
19 43 40
19 42 39
19 42 39
19 43 40
19 43 40
19 43 40
19 43 40
19 42 40
18 41 38
18 41 38
18 41 38
18 41 38
19 42 39
19 43 40
19 43 40
19 42 39
19 43 40
18 41 38
18 42 39
19 42 39
19 42 39
19 43 40
19 42 39
19 42 39
18 42 39
19 42 39
19 42 39
19 42 39
19 42 39
19 42 39
18 41 38
19 42 39
18 41 38
19 42 39
19 42 39
19 42 39
19 44 40
19 42 39
18 42 39
19 42 39
19 42 39
19 43 40
19 42 39
19 42 39
19 43 40
18 41 38
20 44 41
19 42 39
19 42 39
19 43 40
19 43 40
19 42 39
19 43 40
18 41 38
19 43 40
19 42 39
19 43 39
19 43 40
19 42 39
20 44 41
19 43 40
20 44 41
19 43 40
19 43 40
19 42 39
19 42 39
19 42 39
19 43 40
19 43 39
19 42 39
19 43 40
19 43 39
19 43 39
19 43 39
19 43 39
19 42 39
19 43 40
19 43 40
19 43 40
18 42 38
19 43 40
19 43 40
19 43 40
19 43 40
20 44 40
19 42 39
19 43 39
19 42 39
19 43 40
19 43 40
19 43 40
19 43 39
19 42 39
19 43 40
19 43 40
19 42 39
19 43 40
19 43 40
19 42 39
19 43 40
19 42 39
19 42 39
19 43 40
20 44 41
19 42 39
19 43 40
19 43 40
19 43 39
20 44 41
19 42 39
19 43 40
19 42 39
19 43 40
19 43 39
20 44 41
19 43 40
19 43 40
19 42 39
18 41 38
19 43 40
19 43 40
19 43 39
19 43 40
19 43 39
19 43 40
20 44 41
19 43 40
19 42 39
19 42 39
19 42 39
19 42 39
19 42 39
19 42 39
19 42 39
19 42 39
19 43 40
19 43 40
19 43 40
19 42 39
20 44 41
19 43 40
19 42 39
19 42 39
19 42 39
19 42 39
19 43 40
19 42 39
19 42 39
19 43 40
18 42 39
19 42 39
19 43 40
19 42 39
19 43 40
19 43 39
19 43 40
19 43 40
18 42 38
19 43 40
19 43 40
19 43 40
19 42 39
19 43 40
19 43 40
19 43 40
20 44 41
19 44 40
19 43 40
19 43 40
19 43 40
19 43 40
19 43 40
19 43 40
20 44 41
19 43 40
20 44 41
19 44 40
19 43 40
19 43 40
19 43 40
19 42 39
19 43 40
19 43 40
19 43 40
20 44 40
19 43 40
19 44 40
20 44 40
19 43 40
20 44 40
20 44 40
19 43 40
19 43 40
19 43 40
19 44 40
19 43 40
19 43 40
19 43 40
19 43 40
19 44 40
20 44 41
19 43 40
20 44 41
19 43 39
19 43 40
20 44 41
19 43 40
19 43 40
19 43 40
20 44 41
20 44 40
19 43 40
20 44 40
20 44 40
19 43 39
19 43 40
19 43 40
19 42 39
19 42 39
19 43 40
19 43 40
19 43 40
20 45 41
19 43 40
19 43 40
20 44 40
19 42 39
19 43 40
19 43 39
19 43 40
20 44 41
20 44 41
20 45 41
20 44 41
19 42 39
19 43 40
19 42 39
20 44 41
19 43 39
19 43 40
19 43 40
19 43 40
20 44 40
20 44 41
19 43 40
19 43 39
20 44 40
19 43 40
19 43 40
20 44 40
19 43 40
19 42 39
19 43 40
19 42 39
19 43 40
19 43 40
19 43 40
19 43 40
19 42 39
20 44 41
19 43 40
19 43 40
19 42 39
19 42 39
19 42 39
19 43 40
19 43 40
19 43 40
20 44 41
19 43 40
19 43 40
19 42 39
19 42 39
20 44 41
19 42 39
19 43 40
19 43 40
19 43 40
19 43 40
20 44 41
19 43 40
20 44 41
20 44 40
20 44 41
20 44 41
19 43 40
20 44 40
20 44 41
19 44 40
19 43 40
20 44 41
19 43 40
19 43 40
20 44 40
19 43 40
19 43 40
20 44 40
20 44 41
20 44 41
19 43 40
20 44 41
19 43 40
19 43 40
20 44 41
20 44 41
19 44 40
20 44 40
19 43 40
19 43 40
20 44 40
19 43 40
19 43 40
20 44 40
20 44 41
20 44 40
20 44 40
20 44 40
20 44 41
20 44 41
19 43 40
19 44 40
20 44 41
20 44 41
20 45 41
20 44 41
19 43 40
20 44 41
20 44 41
20 44 41
20 44 40
20 44 41
20 44 41
20 44 40
20 44 40
19 43 40
19 43 40
19 43 39
19 43 40
20 44 41
19 44 40
20 44 41
19 43 40
20 45 41
20 44 40
20 44 40
20 44 41
20 44 41
20 44 40
20 44 41
20 44 40
19 43 40
20 45 41
20 45 41
19 42 39
19 43 40
20 44 40
20 44 41
20 44 41
20 45 41
19 43 40
20 44 40
19 44 40
20 44 40
20 44 40
20 44 41
20 44 41
20 44 40
19 43 40
19 43 39
19 43 40
19 43 40
20 44 41
20 44 41
20 44 41
20 44 41
20 44 40
19 43 40
20 44 40
20 44 41
20 44 41
19 43 40
20 44 41
19 43 40
20 44 40
19 43 40
20 44 41
19 43 40
19 43 40
19 43 40
19 43 39
19 43 40
20 44 40
19 43 40
19 43 40
20 45 41
20 44 40
20 45 41
20 45 41
20 44 41
20 45 41
19 43 40
20 45 41
20 44 41
20 44 41
19 43 40
20 44 41
19 43 40
20 44 40
19 43 40
20 44 40
20 45 41
20 45 41
19 43 39
19 43 39
20 44 41
20 44 41
20 44 41
20 45 41
19 43 40
19 43 40
20 44 41
20 44 41
20 44 41
20 45 41
20 45 41
20 44 41
20 44 40
20 45 41
20 44 41
20 44 41
20 44 41
20 45 41
20 44 41
20 44 40
20 44 40
20 44 41
20 45 42
20 45 41
20 45 42
20 44 41
20 44 41
20 44 41
20 45 41
20 45 42
20 44 40
20 45 41
20 44 41
20 44 41
20 45 41
20 44 40
20 45 41
20 44 41
20 44 41
20 44 41
20 45 41
20 45 41
20 45 41
20 44 41
21 46 42
20 44 41
20 45 41
20 45 41
19 43 40
20 44 41
20 45 41
20 44 41
20 45 41
20 45 42
20 44 40
20 45 41
20 44 40
20 44 41
20 45 41
20 45 42
20 45 41
20 44 41
20 44 41
20 45 42
20 44 41
19 43 40
20 44 41
20 44 40
20 44 40
20 45 41
20 44 40
20 44 41
20 45 42
20 45 42
20 44 41
20 45 42
20 44 40
20 44 41
19 43 40
20 44 40
20 44 40
20 44 41
20 44 40
19 43 40
20 44 41
20 44 40
20 44 40
20 44 41
20 44 41
20 44 40
20 44 41
20 44 40
20 45 41
19 43 40
19 43 39
20 44 40
20 44 41
20 44 41
20 45 42
20 45 41
20 44 41
20 44 40
19 43 40
19 43 40
20 44 41
20 45 41
20 44 41
20 44 40
20 43 40
19 43 40
20 44 40
20 45 42
20 44 40
20 44 41
20 44 41
20 44 41
20 44 40
20 45 41
20 45 41
20 45 41
20 45 41
20 45 41
19 43 40
20 44 41
20 45 41
20 44 40
20 45 41
21 46 42
21 46 42
20 45 41
20 45 41
20 45 41
21 46 42
20 45 41
20 44 41
20 45 41
21 46 42
21 46 42
20 45 41
20 45 41
20 44 40
21 46 42
21 46 42
20 45 41
20 45 42
20 44 41
20 45 41
21 46 42
20 44 41
20 45 41
19 43 40
21 46 42
20 45 41
20 45 41
20 45 41
20 45 41
20 45 41
21 46 42
21 47 43
21 46 42
21 46 42
20 44 41
20 45 41
20 45 41
20 45 42
21 46 42
20 44 40
20 44 41
20 45 41
20 45 41
20 45 41
21 46 43
20 45 42
20 45 41
20 44 41
20 45 41
21 46 42
20 45 41
20 45 41
20 45 41
20 45 41
20 46 42
20 45 41
20 45 42
20 44 41
20 45 41
21 46 42
20 45 41
20 45 42
20 44 41
20 45 41
20 45 41
20 44 40
20 44 41
20 45 42
20 45 42
20 45 41
20 45 41
20 46 42
20 44 41
20 45 42
20 45 41
20 44 41
20 45 41
20 45 42
20 45 41
20 45 42
19 43 40
20 45 41
19 43 40
20 44 41
20 45 42
20 44 40
20 44 40
20 45 42
20 44 41
20 45 41
20 45 41
19 43 40
21 46 42
20 45 41
20 45 41
20 45 41
20 45 41
20 45 42
20 46 42
20 45 41
20 45 41
20 45 41
20 44 40
21 46 42
20 45 41
20 45 41
20 45 42
20 44 40
20 45 41
20 44 41
20 45 41
20 45 41
21 46 42
20 45 41
20 45 41
20 46 42
20 45 42
20 45 41
20 45 41
21 46 42
21 46 42
20 45 42
20 45 41
21 46 42
21 47 43
21 46 42
21 45 42
21 46 42
21 47 43
21 45 42
20 45 41
21 46 42
21 46 42
21 46 42
21 46 42
20 44 41
21 46 42
21 46 42
21 47 43
21 46 42
21 46 42
21 46 42
20 45 41
20 45 41
21 46 42
21 46 42
21 46 42
21 46 42
21 46 42
20 45 41
21 46 42
21 45 42
21 46 42
21 45 42
21 46 42
20 45 42
20 45 41
21 46 42
21 46 42
21 46 42
21 46 42
21 46 42
21 46 42
21 46 42
21 47 43
20 44 40
20 45 41
21 46 42
20 45 41
21 45 42
21 46 42
20 45 41
21 46 42
20 45 41
21 47 43
21 46 42
21 46 42
21 46 43
21 46 42
21 46 42
20 45 41
20 45 42
21 46 42
21 46 42
21 46 42
20 45 41
21 46 43
21 46 42
20 45 42
21 45 42
20 45 41
20 45 42
21 46 42
20 45 41
20 44 41
20 45 42
20 45 41
20 44 41
20 45 41
20 45 41
20 45 41
20 45 41
20 44 41
20 44 41
20 45 41
20 44 41
20 45 41
20 45 41
20 44 40
21 46 42
21 46 42
20 44 41
20 45 41
20 45 41
20 44 41
20 44 40
20 45 41
20 45 41
20 45 41
20 45 41
20 45 42
21 46 42
20 45 41
21 45 42
20 45 42
21 46 42
21 46 42
20 46 42
20 45 41
21 46 42
21 45 42
21 46 42
20 44 41
21 45 42
20 45 41
20 45 41
21 46 42
21 46 42
21 45 42
21 46 42
21 45 42
21 46 42
21 46 42
20 45 41
21 46 42
21 47 43
21 47 43
21 45 42
21 47 43
21 46 42
21 46 42
21 46 42
21 46 42
21 46 42
21 46 42
21 46 42
21 46 42
21 47 43
21 46 42
21 46 42
20 45 41
21 46 42
21 46 42
21 46 42
21 46 42
21 47 43
21 46 42
21 46 42
21 46 42
21 46 42
21 46 42
21 46 42
21 46 42
21 46 42
21 47 43
21 47 43
22 48 43
21 46 42
22 48 43
22 48 44
21 46 42
21 47 43
21 47 43
20 45 41
21 45 41
21 46 42
21 47 43
21 47 43
21 47 43
21 47 43
21 47 43
21 47 43
21 46 42
21 47 43
21 47 43
21 46 42
21 46 42
22 48 43
21 46 42
21 45 42
21 46 42
22 48 43
21 46 42
22 48 44
21 46 42
21 45 41
21 46 42
21 47 43
21 46 42
21 47 43
21 45 42
20 45 41
21 46 42
21 47 43
21 46 42
21 46 42
21 46 42
21 46 42
21 46 42
21 46 42
21 45 42
21 46 42
20 45 41
20 44 41
20 44 40
20 45 41
21 46 42
20 44 41
21 46 42
21 46 42
20 45 41
21 46 42
21 46 42
21 46 42
21 47 43
21 47 43
21 46 42
21 46 42
20 45 41
20 45 41
20 45 42
20 45 41
20 45 41
21 47 43
20 45 42
20 45 41
21 46 42
21 46 42
21 46 42
21 46 42
21 47 43
21 46 42
21 47 43
21 47 43
21 47 43
21 46 42
21 47 43
21 45 42
20 45 41
21 46 42
21 46 42
21 46 42
21 46 42
21 47 43
21 46 42
21 47 43
21 46 42
21 46 42
22 48 44
21 47 43
21 46 42
21 47 43
21 46 42
21 46 42
22 48 43
21 46 42
21 47 43
21 47 43
21 47 43
21 46 42
21 47 43
21 47 42
21 47 43
21 46 42
21 46 42
21 47 42
22 48 44
21 47 43
21 47 42
21 46 42
21 47 43
21 47 43
22 49 44
21 46 42
22 48 44
21 47 43
21 47 43
22 48 44
21 47 43
21 47 43
21 47 43
21 47 43
21 47 43
21 47 43
21 47 43
21 47 43
21 47 42
22 48 43
21 47 43
22 48 44
21 47 42
21 46 42
22 48 44
21 46 42
21 46 42
21 46 42
21 46 42
21 47 43
21 46 42
21 47 43
21 46 42
21 47 43
21 47 43
21 46 42
21 46 42
21 47 43
21 47 43
21 47 43
21 47 42
21 46 42
21 47 43
21 46 42
21 46 42
21 47 43
21 46 42
21 46 42
21 46 42
21 47 43
21 46 42
21 47 43
21 46 42
20 44 41
21 46 42
21 46 42
20 45 41
21 45 42
21 46 42
21 46 42
20 45 42
21 46 42
20 45 41
20 45 41
21 47 43
20 45 41
21 46 42
21 46 42
20 45 41
21 46 42
21 46 42
21 47 43
21 46 42
21 47 43
21 47 43
21 46 42
21 46 42
22 48 43
21 47 43
22 47 43
21 47 43
21 47 43
21 46 42
21 47 43
21 46 42
21 47 43
21 46 42
21 47 43
21 46 42
21 46 42
21 45 41
21 47 43
21 46 42
21 47 43
21 47 43
21 46 42
22 48 44
21 47 43
22 48 44
21 47 42
21 46 42
21 46 42
21 47 43
21 47 43
21 47 42
21 47 43
22 49 45
21 47 43
21 47 43
22 48 44
22 48 43
22 49 44
22 49 44
21 46 42
22 47 43
21 47 42
22 49 45
21 47 43
22 47 43
22 47 43
22 48 44
21 47 43
22 48 43
21 47 43
22 48 44
21 47 43
21 47 43
22 47 43
22 48 44
22 47 43
21 47 43
22 48 44
21 46 42
22 48 43
22 48 44
21 47 43
22 48 43
22 48 43
22 48 44
22 47 43
22 48 43
22 48 44
22 49 45
21 47 43
22 49 44
22 49 44
22 48 44
22 48 43
22 48 44
21 47 43
22 48 43
21 47 42
22 48 44
22 48 44
21 46 42
22 48 43
21 46 42
21 47 43
21 47 43
21 46 42
21 47 43
21 47 43
21 46 42
22 48 43
21 47 43
21 47 43
21 46 42
21 47 43
21 46 42
21 47 43
21 46 42
22 47 43
21 47 43
20 45 41
20 45 41
20 45 41
21 47 43
20 45 41
21 46 42
21 46 42
20 45 41
21 46 42
21 46 42
21 46 42
21 46 42
21 46 42
21 47 43
21 47 43
21 46 42
21 47 43
21 47 43
21 47 43
21 46 42
21 46 42
21 46 42
21 45 41
21 46 42
21 47 43
22 48 43
22 47 43
22 48 43
21 47 43
21 47 43
22 47 43
21 47 43
22 48 43
21 46 42
21 47 42
22 49 45
21 47 43
21 47 43
21 47 43
21 46 42
21 47 42
21 47 42
21 47 43
22 48 43
21 47 43
22 48 43
22 48 44
22 48 43
22 48 44
22 48 43
22 48 44
22 49 44
22 48 44
22 49 44
22 47 43
22 48 43
22 47 43
22 48 44
22 48 44
22 48 43
22 48 44
22 47 43
22 49 44
22 49 44
22 49 44
21 47 43
23 50 45
22 47 43
22 47 43
22 49 44
22 48 43
22 49 44
22 47 43
22 48 44
22 48 43
22 48 44
22 49 44
22 48 44
22 49 45
22 48 43
22 48 43
22 48 43
21 47 42
22 49 44
22 48 43
22 48 44
22 48 44
22 48 44
22 47 43
22 48 44
22 49 44
22 48 43
22 49 44
22 48 44
21 46 42
22 48 43
22 49 44
22 49 44
21 47 43
22 48 43
22 48 44
22 48 44
22 47 43
21 47 42
22 48 44
22 48 44
21 46 42
22 48 44
22 48 44
22 48 43
22 48 44
22 47 43
22 48 43
21 47 43
21 46 42
22 48 43
21 47 43
21 47 43
22 48 44
21 47 43
21 46 42
21 46 42
21 47 43
21 46 42
21 46 42
20 45 41
20 45 41
21 46 42
21 46 42
21 47 43
21 46 42
21 46 42
21 46 42
22 48 44
21 47 43
21 47 43
21 47 42
21 46 42
22 48 43
21 47 43
21 47 43
21 46 42
22 48 44
22 48 44
21 47 43
21 47 43
21 47 43
22 48 43
21 46 42
21 47 43
21 47 43
22 48 44
21 47 43
21 47 43
22 48 43
21 47 43
21 47 43
22 48 43
22 48 44
22 48 43
22 48 44
22 49 44
22 48 43
22 48 43
22 49 44
22 48 44
21 47 43
22 49 44
23 50 45
22 48 44
22 48 44
22 48 44
22 48 43
22 48 44
22 48 44
22 49 45
23 50 45
22 48 44
22 49 44
22 48 44
22 49 44
22 49 45
22 48 44
22 48 44
22 49 44
22 47 43
22 49 44
23 50 45
22 49 44
22 49 45
22 48 43
23 49 45
22 49 44
22 48 44
22 49 44
22 49 44
23 50 45
22 48 44
23 50 46
23 49 45
21 47 43
22 49 45
22 48 43
22 48 44
22 49 44
22 48 44
22 49 44
22 48 43
22 48 44
23 49 45
22 48 44
22 48 44
22 48 43
23 50 45
22 48 44
22 49 44
23 50 45
22 48 43
22 48 43
22 48 44
22 49 44
22 48 44
22 49 44
22 48 44
22 48 43
22 49 44
22 48 43
23 50 45
22 48 44
22 49 44
22 48 43
21 47 43
21 47 42
22 48 44
22 49 44
22 48 44
22 48 44
22 49 45
21 47 42
21 47 43
21 47 42
21 46 42
21 46 42
21 47 43
21 47 43
21 47 43
21 46 42
21 47 42
21 46 42
21 47 43
21 47 43
22 48 44
21 47 42
21 47 43
21 46 42
22 48 43
21 47 42
21 47 43
21 47 43
22 48 44
22 48 44
21 47 43
22 48 44
22 48 44
22 47 43
22 48 44
22 48 43
22 49 44
22 48 43
22 48 44
21 46 42
21 47 43
22 49 44
22 48 44
22 48 44
22 48 44
22 48 44
22 48 44
23 50 45
22 48 43
23 50 45
22 48 43
22 49 44
22 49 44
22 49 45
22 49 44
22 49 44
22 48 44
22 49 44
22 49 44
23 50 45
22 49 45
22 47 43
23 49 45
22 48 44
22 49 45
22 49 45
22 49 44
22 49 44
22 48 44
23 50 45
22 48 44
22 49 44
22 49 44
22 49 44
22 49 44
22 49 44
22 49 44
23 50 45
22 48 44
23 50 45
22 49 44
23 50 46
22 49 44
23 50 45
22 49 44
23 50 45
22 48 44
23 50 45
22 49 45
22 49 44
22 49 45
23 50 45
22 48 43
23 49 45
22 48 44
22 49 44
22 49 44
23 49 45
22 49 44
22 49 44
22 49 44
22 49 44
22 48 44
22 49 44
23 49 45
23 50 45
22 48 43
22 48 44
22 48 44
22 49 44
22 49 44
23 50 45
23 50 46
23 50 45
22 49 45
22 48 44
22 49 44
22 49 44
22 49 44
22 49 44
22 49 44
22 48 44
22 48 43
22 48 43
22 48 43
22 47 43
22 48 43
22 48 43
22 48 44
21 46 42
22 48 44
21 47 43
21 47 42
21 46 42
22 48 43
21 46 42
22 48 43
21 46 42
21 47 43
21 47 42
22 47 43
21 47 43
22 47 43
22 48 43
22 47 43
22 49 44
22 48 43
21 47 43
21 47 43
21 47 43
22 48 44
22 48 44
22 48 44
22 48 43
22 49 44
22 47 43
22 48 44
22 49 44
22 49 45
22 48 44
22 48 43
22 48 44
22 48 44
22 48 44
22 47 43
22 49 44
22 49 44
23 50 45
22 49 44
22 49 45
22 48 44
22 49 45
22 49 44
23 49 45
22 49 44
23 50 45
22 49 44
23 50 45
23 50 45
22 48 44
23 51 46
22 49 44
23 50 45
22 49 44
23 51 46
22 48 44
23 49 45
22 49 44
23 50 45
23 49 45
22 49 44
22 48 44
23 50 45
22 49 44
22 48 44
22 49 44
23 49 45
23 50 45
23 50 45
23 50 45
23 50 45
23 50 45
23 49 45
22 49 44
22 49 44
23 50 46
22 48 44
23 50 45
24 52 47
22 49 44
22 49 44
23 51 46
23 50 45
22 49 44
22 49 44
23 51 46
23 50 46
23 50 45
23 50 45
23 50 45
22 49 44
23 50 45
23 50 45
23 50 46
23 50 45
23 50 45
22 48 43
23 50 45
23 49 45
23 50 45
22 49 44
22 49 44
23 50 45
23 49 45
23 50 45
22 49 45
22 48 43
22 49 44
22 49 45
23 49 45
22 49 45
22 49 44
22 49 44
22 48 43
22 49 44
22 47 43
22 48 44
22 49 44
22 49 44
22 48 43
21 47 43
22 48 44
21 47 43
22 48 44
21 47 43
21 47 43
21 47 43
21 47 43
22 48 43
22 48 43
22 48 43
21 47 42
21 47 43
22 48 44
22 47 43
22 48 43
21 47 43
22 48 43
22 49 44
22 48 44
22 48 43
22 49 44
22 48 43
22 48 44
22 48 43
22 47 43
21 47 43
22 49 44
22 49 44
23 49 45
22 49 45
22 49 44
22 49 44
22 49 44
22 49 44
22 48 44
22 48 44
22 48 44
22 49 44
22 49 44
22 48 43
23 50 45
23 50 45
23 49 45
22 49 45
23 50 45
22 49 44
23 49 45
23 50 45
23 50 45
23 49 45
23 50 45
22 49 44
23 50 45
23 51 46
23 50 45
23 50 45
23 50 45
22 49 45
23 50 45
23 49 45
23 51 46
23 50 45
23 50 45
23 50 45
23 51 46
23 50 45
23 50 45
23 49 45
22 49 44
23 50 45
23 49 45
23 51 46
22 49 44
23 50 45
22 49 44
23 49 45
22 49 44
23 50 45
23 51 46
23 50 45
23 49 45
23 51 46
23 50 45
23 51 46
23 50 45
22 48 44
23 50 45
23 50 45
22 49 44
23 51 46
22 48 44
23 50 45
23 50 45
23 50 46
23 50 45
23 49 45
23 50 46
22 49 44
23 49 45
23 50 45
23 50 45
23 50 45
22 49 44
22 49 44
22 49 45
23 50 45
23 50 45
22 48 44
23 50 45
23 50 45
23 50 46
23 50 45
22 48 44
22 49 44
22 48 44
22 49 44
22 48 44
22 48 44
22 48 44
21 47 43
22 47 43
21 47 43
22 48 44
21 46 42
21 47 43
22 48 43
21 47 43
21 47 43
22 49 44
22 49 44
21 47 43
22 48 43
21 47 43
22 48 44
22 47 43
22 48 43
22 49 44
22 49 44
22 47 43
22 48 43
22 48 44
22 49 44
22 49 45
22 49 44
22 48 43
22 48 44
23 50 45
22 49 44
22 48 44
22 49 44
22 48 44
22 49 44
22 49 44
23 49 45
23 50 45
23 50 46
24 52 47
22 49 44
22 47 43
23 50 45
23 50 45
23 50 45
23 50 45
22 49 44
22 49 44
22 49 44
23 49 45
23 50 45
22 48 43
23 50 45
23 50 45
22 49 44
23 50 45
23 50 45
23 49 45
22 49 44
23 51 46
23 50 45
23 50 45
23 51 46
23 50 45
23 50 45
23 50 45
23 50 45
23 50 45
23 49 45
23 51 46
23 49 45
23 50 45
23 50 46
22 49 44
23 51 46
23 50 45
23 50 45
23 50 46
23 50 45
23 50 45
23 50 45
22 49 44
23 50 45
23 50 45
23 50 45
23 50 45
23 49 45
23 51 46
24 52 47
22 49 44
23 50 46
23 49 44
23 50 45
23 49 45
23 50 45
23 49 45
23 50 45
23 49 45
22 49 44
22 49 44
22 49 44
23 50 45
23 49 45
22 49 44
22 49 44
23 50 45
23 51 46
23 50 45
22 49 44
22 49 44
23 50 45
23 50 45
23 50 45
22 49 44
22 49 44
22 49 44
22 48 44
22 49 44
23 49 45
22 49 44
23 50 45
22 48 44
22 48 44
21 47 43
21 47 43
21 46 42
22 47 43
21 47 43
22 47 43
21 47 43
22 48 44
22 47 43
22 48 43
22 47 43
22 49 44
22 48 43
21 47 43
22 48 44
22 49 44
22 49 44
22 48 44
22 48 44
22 49 44
22 48 44
22 49 44
22 48 43
22 48 43
22 49 44
23 49 45
23 49 45
22 49 44
22 48 43
22 49 44
22 49 45
23 51 46
22 48 44
23 50 45
22 49 44
22 48 43
23 50 45
23 50 45
23 50 45
22 49 44
23 50 45
22 49 45
22 49 44
22 49 44
22 49 44
22 49 44
22 49 45
22 48 44
23 50 46
23 50 45
23 50 45
23 51 46
23 51 46
23 50 45
23 50 45
23 49 44
22 49 44
23 50 45
23 50 45
23 49 44
23 49 45
23 50 45
23 51 46
23 50 45
23 51 46
23 51 46
23 50 45
23 51 46
23 51 46
23 50 45
23 50 45
23 50 45
23 50 45
23 50 46
23 51 46
24 53 48
23 50 45
23 49 44
24 52 47
23 50 45
23 50 45
23 50 45
23 51 46
23 51 46
23 51 46
23 50 45
23 50 45
24 52 47
22 48 43
23 49 44
23 51 46
22 49 44
23 50 45
23 50 45
23 50 45
23 50 45
23 51 46
23 51 46
23 50 45
24 51 46
23 50 46
23 50 45
23 51 46
23 50 45
23 50 45
23 49 45
23 51 46
23 51 46
23 50 45
22 49 44
23 49 45
22 49 44
22 48 44
23 50 46
23 50 45
23 50 45
22 48 44
22 49 44
22 48 44
21 47 42
22 48 44
22 48 44
22 48 44
21 46 42
22 49 44
22 48 44
21 47 43
22 48 44
21 47 43
22 48 43
22 48 44
22 49 44
22 48 44
22 48 43
22 49 44
21 47 43
22 49 45
22 48 43
22 49 44
22 49 44
22 47 43
22 48 44
23 49 45
22 49 44
22 48 44
22 48 43
22 49 44
22 49 44
22 49 45
22 49 45
22 49 44
22 49 44
22 49 44
22 49 44
23 50 45
23 50 45
22 49 44
23 49 45
23 49 45
22 48 43
22 49 44
23 50 46
23 49 45
22 48 44
23 50 46
23 51 46
22 49 44
23 50 45
22 49 44
23 49 44
23 50 45
23 51 46
23 51 46
23 49 44
23 50 45
23 49 45
23 50 45
23 50 45
23 49 45
23 51 46
23 50 45
23 50 45
23 51 46
23 50 45
23 49 45
22 49 44
23 50 45
23 51 46
23 50 45
23 51 46
23 50 45
24 51 46
23 51 46
23 50 45
23 50 45
23 51 46
24 51 46
23 50 45
22 49 44
23 51 46
23 50 45
23 50 45
24 52 46
23 50 45
23 50 45
23 51 46
23 50 45
23 50 45
23 50 45
24 51 46
23 50 46
23 50 45
23 50 45
23 51 46
23 50 45
23 50 46
23 50 45
22 49 44
23 51 46
23 50 45
23 49 45
23 51 46
23 49 45
22 48 44
22 49 44
22 49 44
23 50 46
23 49 45
23 49 45
22 49 44
23 50 46
23 50 45
23 50 45
23 50 45
22 49 44
23 50 45
23 49 45
23 50 46
21 47 43
22 48 44
22 48 43
22 48 43
22 48 44
21 46 42
22 48 43
22 47 43
22 49 44
22 48 44
22 48 44
22 48 44
22 49 45
22 49 45
22 48 44
23 50 46
22 48 44
22 48 44
22 48 44
23 50 45
22 48 43
22 49 44
22 48 44
22 48 44
23 50 45
22 48 44
23 50 46
23 50 45
23 49 45
22 48 44
22 48 44
22 49 45
22 49 44
23 50 45
23 49 45
22 48 44
23 49 45
22 49 44
22 49 44
22 49 44
23 50 45
22 49 44
22 48 44
22 49 44
23 50 45
23 50 45
22 49 44
22 49 44
23 51 46
23 49 45
23 50 45
23 50 45
23 50 45
23 51 46
22 49 44
22 48 44
23 50 45
22 49 44
23 49 45
22 49 44
23 50 45
23 50 46
23 51 46
23 50 45
23 50 45
23 50 45
23 50 45
24 52 47
23 51 46
23 49 45
23 51 45
23 51 46
23 51 46
23 51 46
23 49 44
23 50 45
23 50 45
23 51 46
23 51 46
23 51 46
23 49 45
24 52 47
23 51 46
23 51 45
23 50 45
23 51 46
24 51 46
23 49 44
23 50 45
23 50 45
24 51 46
23 50 45
24 52 46
22 49 44
23 50 45
23 50 45
23 49 45
23 50 45
23 50 45
24 52 47
23 51 46
23 51 46
23 51 46
23 50 45
23 50 45
23 50 45
23 50 45
22 49 44
23 49 45
23 50 45
23 50 45
23 50 46
23 50 45
23 49 45
23 50 45
22 49 44
23 50 45
23 50 45
22 48 44
22 48 44
21 47 43
22 48 44
22 47 43
22 48 43
22 47 43
22 48 43
21 47 43
21 47 43
22 48 43
21 47 43
22 47 43
23 50 45
22 48 43
22 49 44
22 48 44
22 48 44
22 49 44
22 48 44
34 54 49
108 104 95
129 122 111
95 94 86
37 55 50
22 48 44
23 50 45
22 49 44
23 49 45
23 49 45
22 48 43
23 51 46
23 49 45
22 49 45
22 48 44
23 50 45
22 49 44
23 50 45
23 50 45
23 50 45
22 48 44
37 55 52
46 59 56
31 53 49
23 50 45
22 49 44
23 50 45
23 50 45
23 50 45
22 49 44
23 51 46
23 49 45
22 48 44
23 51 46
22 49 44
23 50 45
23 50 45
23 51 46
23 51 46
23 49 44
24 52 46
23 49 45
23 50 45
23 50 45
23 51 46
23 51 46
23 51 46
23 50 45
23 50 45
23 50 45
23 51 46
23 50 45
23 51 46
23 51 46
23 51 46
23 51 46
23 49 44
23 50 45
23 49 44
23 51 46
23 51 46
23 50 45
23 51 46
23 51 46
23 51 46
24 52 47
23 50 45
23 50 45
23 51 46
23 51 46
23 51 46
23 50 45
23 51 46
23 51 46
23 51 46
23 51 46
22 49 44
23 50 45
23 51 46
23 51 46
23 50 45
23 50 45
23 50 45
23 50 45
23 50 45
23 50 45
23 50 46
23 51 46
23 50 45
23 50 45
23 50 45
23 50 45
23 51 46
23 51 46
23 50 45
23 50 45
23 50 45
23 51 46
23 50 45
23 50 45
23 49 44
23 50 45
22 48 44
21 47 43
21 47 43
22 49 44
21 46 42
22 48 43
21 47 43
22 49 44
22 48 44
22 48 43
22 47 43
22 47 43
22 49 45
22 48 43
22 48 43
22 48 43
22 49 44
94 93 86
181 166 155
206 188 175
217 197 182
245 220 200
210 188 170
71 70 63
23 49 45
22 49 44
23 50 45
22 48 44
22 49 44
22 48 44
22 49 44
22 48 44
23 50 45
22 49 44
23 50 45
22 49 44
22 49 44
34 50 51
79 60 88
93 64 101
107 79 111
130 105 123
70 59 79
23 49 45
22 49 44
22 49 44
22 49 44
23 49 45
22 49 44
23 50 45
23 51 46
23 50 45
22 49 44
23 51 46
23 50 45
23 51 46
23 51 46
33 50 44
148 81 55
201 128 103
228 204 186
206 186 169
127 120 109
22 49 44
23 50 45
23 49 45
23 50 45
23 51 46
23 50 45
23 50 45
23 51 46
23 50 45
24 51 46
23 51 46
23 50 46
23 50 45
23 50 45
24 51 46
25 50 46
32 47 46
63 66 61
60 64 60
88 88 81
27 51 46
23 50 45
23 50 45
23 51 46
23 50 45
23 51 46
23 50 45
22 49 44
23 51 46
23 50 45
23 50 45
23 50 45
23 50 45
23 50 45
23 51 46
23 51 46
23 49 45
23 51 46
23 50 45
22 49 44
22 48 44
23 50 45
23 49 44
23 50 45
23 51 46
23 49 44
23 50 45
23 50 45
23 50 45
23 50 45
23 50 46
23 50 45
23 50 45
22 49 44
23 50 45
22 48 43
23 49 45
21 46 42
22 48 44
21 46 42
22 47 43
22 48 43
22 49 44
22 48 44
22 48 43
22 47 43
22 48 43
22 49 44
22 49 44
22 48 44
22 48 44
22 49 44
21 47 43
49 61 56
156 147 140
178 165 157
185 171 162
197 180 168
219 198 182
233 209 189
197 143 127
30 49 44
22 49 45
22 48 44
22 49 44
22 48 44
22 49 44
22 49 45
23 49 45
23 49 45
22 49 44
23 49 45
23 50 45
29 50 48
71 51 81
80 54 91
81 55 93
88 62 97
116 92 114
100 70 105
71 56 79
23 50 45
23 49 45
23 50 45
22 49 44
23 50 45
23 51 46
23 50 45
23 51 46
23 50 45
23 49 45
23 49 45
22 48 44
23 50 45
168 86 56
217 106 64
205 155 137
207 189 176
218 198 183
216 194 179
144 133 121
23 50 45
23 50 45
23 51 46
23 51 45
22 49 44
23 50 45
23 50 45
23 51 46
23 50 46
24 52 47
23 51 46
22 49 44
22 49 44
50 62 57
34 39 42
46 47 48
101 95 85
181 166 154
210 190 177
163 149 137
31 54 49
24 51 46
23 51 46
23 51 46
23 51 46
23 50 45
23 49 45
23 50 45
23 49 44
23 50 45
23 50 45
23 50 45
23 51 46
23 49 45
23 49 45
22 49 44
23 49 45
23 50 45
23 50 45
22 49 44
23 50 45
23 50 45
23 50 45
23 50 45
23 50 45
23 49 45
23 49 45
23 50 45
23 50 45
23 51 46
23 50 45
22 49 44
22 49 44
23 49 45
23 50 45
23 49 45
21 47 43
21 47 43
22 48 44
21 47 43
22 49 45
22 47 43
22 48 43
22 49 44
22 48 44
21 47 42
22 48 43
22 48 43
22 47 43
22 48 44
22 48 44
22 48 44
103 94 88
153 142 134
160 148 141
163 152 144
167 154 145
182 167 156
191 171 157
195 143 128
106 97 87
22 49 45
23 50 45
22 49 44
22 49 44
22 49 44
23 50 45
23 50 45
23 49 45
23 50 45
22 48 44
22 49 44
47 46 59
67 46 78
81 63 89
127 114 119
150 137 135
151 134 133
129 109 117
83 56 88
45 56 54
22 49 44
23 51 46
23 50 45
22 49 44
22 49 44
22 48 44
22 49 44
23 50 45
23 49 44
23 49 45
23 51 46
82 58 45
180 89 54
187 93 57
183 133 116
177 164 156
182 168 158
188 171 160
192 172 158
71 76 69
23 50 45
23 49 44
23 49 44
23 50 45
23 50 45
23 49 45
23 50 45
23 50 46
23 51 46
23 50 45
23 51 46
39 56 50
103 95 88
30 33 37
30 34 38
63 61 61
182 168 159
187 172 161
187 170 158
104 101 92
23 50 45
23 50 45
23 50 45
23 50 45
23 50 45
23 50 45
23 51 46
23 51 46
23 51 46
22 48 44
23 50 45
23 50 45
22 49 44
23 49 45
23 51 46
23 50 45
23 49 45
22 49 44
23 50 45
23 49 45
23 50 46
22 49 44
23 51 46
23 50 45
22 49 44
22 49 44
23 49 45
23 51 46
22 49 44
22 49 44
23 49 45
23 49 45
23 50 45
23 49 45
22 49 44
21 47 43
22 47 43
21 47 43
21 47 43
21 47 43
22 47 43
22 48 43
22 48 43
22 48 44
22 48 43
22 48 44
23 49 45
22 49 45
22 47 43
22 48 44
23 49 45
103 67 61
140 128 120
138 128 120
143 132 124
147 136 127
149 137 128
155 131 120
159 89 77
115 105 94
21 47 43
22 49 45
23 50 45
22 48 43
22 48 44
22 48 43
23 49 44
23 49 45
23 49 45
23 50 45
23 50 45
48 41 58
82 67 80
143 132 125
151 140 132
151 140 132
148 137 128
159 144 134
121 104 105
70 69 65
22 48 44
23 50 45
23 50 45
23 50 45
22 49 44
23 50 45
23 50 45
23 50 45
23 51 46
22 49 44
22 48 44
116 71 53
156 77 47
168 83 51
164 93 68
155 140 132
153 142 134
155 143 135
151 137 127
108 104 95
22 49 44
23 50 45
23 50 46
23 50 45
23 49 45
23 50 45
22 49 44
23 51 46
23 50 45
23 49 44
23 49 45
73 77 70
79 73 70
95 88 83
72 69 66
91 85 81
157 146 138
159 148 140
152 141 132
132 123 114
22 49 44
23 51 46
23 50 46
23 51 46
23 50 45
23 50 45
23 51 46
23 49 45
23 50 45
23 50 45
22 49 44
22 49 44
23 50 45
23 50 45
22 49 44
23 50 46
23 49 45
23 51 46
23 50 45
23 50 45
22 49 44
22 49 44
23 50 45
23 50 46
23 51 46
23 49 45
23 50 45
22 49 44
23 50 45
22 49 44
23 49 45
23 50 45
22 49 44
22 49 44
22 49 44
21 46 42
21 47 43
22 49 44
21 47 42
22 47 43
22 48 43
22 49 45
22 48 43
22 47 43
22 48 44
21 47 43
22 48 44
21 47 42
22 49 44
21 47 43
22 48 44
82 42 35
109 61 54
114 94 86
121 107 100
116 102 94
119 89 81
110 51 42
106 52 42
79 78 70
22 48 44
22 49 44
22 48 44
23 49 45
23 50 45
22 49 44
22 49 44
22 49 44
22 49 45
22 48 44
22 48 43
46 40 54
110 100 95
122 113 104
119 110 102
124 115 106
129 119 111
124 114 105
114 102 94
54 59 56
22 49 44
22 49 44
22 48 43
22 49 44
22 49 44
23 49 45
22 48 43
23 50 45
23 50 45
23 50 45
23 49 45
93 68 56
133 66 40
138 69 41
148 73 44
145 103 87
132 122 114
130 120 112
127 117 108
81 81 75
23 50 46
23 50 45
22 49 44
22 49 44
22 48 44
23 50 45
23 49 45
23 50 45
22 49 44
23 50 45
23 51 46
74 78 72
97 89 83
127 117 108
110 102 95
95 89 84
136 126 118
139 129 121
127 118 110
113 106 99
22 49 44
22 48 44
22 49 44
22 49 44
22 49 44
23 50 45
23 49 45
22 48 43
23 50 45
23 50 45
23 50 45
22 49 44
23 50 45
22 49 44
22 49 44
23 51 46
23 50 45
23 49 45
23 50 45
23 49 45
22 49 44
22 49 44
22 49 44
23 50 45
23 50 45
23 50 46
22 49 44
22 49 44
22 49 44
22 48 44
22 48 44
23 49 45
22 49 44
22 48 44
23 49 45
21 47 43
22 48 43
22 49 44
21 47 43
21 47 43
22 48 44
22 47 43
21 47 43
22 48 43
22 49 45
22 49 44
22 49 44
22 48 44
21 47 42
22 48 43
21 47 42
41 44 39
93 33 23
80 28 20
68 26 20
81 28 20
68 24 17
69 24 17
70 26 19
33 48 43
22 47 43
22 49 44
22 49 44
23 49 44
22 48 43
22 49 44
22 48 43
22 47 43
22 49 44
22 48 44
22 49 45
28 42 42
79 73 66
90 85 77
91 86 77
93 87 79
97 91 82
82 77 70
86 76 67
30 49 45
22 49 44
23 50 45
22 49 44
22 48 43
23 49 45
22 48 44
22 48 43
22 49 44
22 49 44
23 50 45
23 49 44
48 57 52
96 56 41
116 57 34
109 54 32
106 53 31
99 78 67
98 92 84
98 92 83
47 59 54
22 49 44
22 48 43
22 48 43
23 49 44
22 48 43
23 49 45
23 51 46
23 49 45
23 51 46
22 49 44
23 51 46
48 61 55
72 67 61
83 78 71
92 86 79
61 58 54
111 103 94
119 110 101
100 94 85
89 87 80
23 50 45
23 50 45
23 50 46
22 49 45
22 49 44
22 49 44
22 49 44
22 49 44
23 51 46
23 50 45
22 48 44
23 51 46
23 50 45
23 51 46
23 50 45
22 48 44
22 49 44
22 49 44
22 49 44
22 49 45
23 49 45
23 50 45
22 49 44
23 50 45
22 49 44
22 49 44
23 51 46
22 48 43
22 49 45
22 49 44
23 49 45
23 50 45
23 50 46
23 50 45
23 50 45
22 47 43
21 47 43
21 47 43
21 46 42
22 48 44
22 48 43
21 47 42
22 48 44
22 48 44
22 49 44
22 47 43
21 46 42
22 47 43
22 47 43
21 46 42
21 46 42
21 47 42
29 35 31
29 13 8
23 11 7
27 12 8
30 13 8
43 18 12
40 37 32
22 47 42
22 47 42
21 46 42
22 48 43
22 47 43
22 47 42
22 48 44
22 48 43
22 49 44
22 48 43
22 48 43
22 48 43
23 46 42
37 43 38
35 38 33
35 39 33
39 42 36
39 43 36
35 39 31
48 54 47
22 47 42
22 49 44
22 47 43
22 48 44
22 47 42
23 49 45
22 48 44
22 49 44
22 48 43
23 49 44
22 49 44
22 48 43
25 49 44
54 45 38
68 35 20
60 32 18
59 31 18
63 33 19
59 43 33
55 48 39
22 49 44
23 49 44
22 49 44
22 48 43
22 49 44
22 49 44
23 50 45
22 49 44
22 48 43
23 49 44
22 48 43
22 49 44
23 49 45
44 46 41
42 40 36
44 42 38
20 21 20
69 66 59
59 58 51
65 64 57
42 55 49
22 48 43
22 48 43
23 50 45
23 50 45
22 48 44
23 50 45
22 48 44
22 49 44
23 50 45
23 50 45
22 49 44
22 48 44
23 50 45
23 49 45
23 50 45
23 50 46
23 49 45
22 49 44
22 49 44
22 48 44
22 49 44
22 49 44
22 49 44
22 48 43
22 49 44
22 48 43
23 50 45
22 49 44
22 49 44
22 49 44
23 50 45
23 50 45
22 48 44
22 49 44
23 50 45
21 47 43
21 47 42
22 49 44
22 48 43
21 46 42
21 47 42
22 47 43
21 47 43
21 46 42
21 46 42
21 46 41
22 48 44
21 47 42
21 45 41
19 42 39
18 40 37
15 34 31
14 31 29
10 20 19
7 10 8
9 12 10
11 13 11
15 27 24
19 40 35
20 43 38
21 46 41
21 46 41
23 49 44
22 48 43
22 47 43
22 47 43
22 48 43
21 47 42
22 47 43
21 46 42
21 46 41
19 41 37
16 35 32
11 22 19
9 17 13
9 17 14
11 21 16
17 32 27
19 41 37
21 45 40
22 47 42
22 47 43
22 48 43
22 49 44
22 48 43
22 48 43
22 48 44
22 48 43
22 47 43
22 47 42
22 47 42
21 46 41
19 41 37
12 20 16
12 12 7
12 12 6
12 12 6
25 24 18
21 43 38
21 46 41
21 46 41
22 47 42
22 49 44
22 47 42
22 49 44
23 49 44
23 50 45
22 48 43
22 48 43
22 48 43
22 48 43
22 47 42
21 45 39
9 19 17
3 5 5
2 4 4
7 13 10
22 29 24
26 43 37
22 47 42
22 48 43
22 47 42
22 48 43
22 48 43
23 50 45
22 49 44
22 49 44
22 49 44
22 49 44
22 49 44
23 49 45
22 48 43
22 49 44
23 49 45
22 49 45
22 49 44
23 49 45
22 48 44
22 49 44
22 47 43
22 49 44
22 48 44
23 50 45
23 50 45
22 49 44
22 48 43
23 49 45
22 49 45
22 49 44
22 49 44
22 49 44
22 48 44
22 48 43
23 49 45
22 48 44
21 47 43
22 49 44
22 48 44
22 48 43
22 47 43
22 48 44
21 47 43
22 47 43
21 47 43
22 48 43
21 47 43
22 47 43
20 45 41
18 40 38
16 36 34
15 34 32
15 34 32
14 33 31
15 32 30
15 33 30
16 34 32
18 40 36
19 42 38
21 44 40
21 45 41
22 48 43
21 47 42
22 47 43
22 47 43
21 47 42
21 46 42
21 46 42
22 47 42
20 44 40
18 39 36
14 33 31
13 30 29
12 27 26
11 26 25
11 25 24
10 23 22
13 29 27
17 37 33
20 44 40
21 46 41
21 46 41
21 45 41
22 48 43
22 47 43
22 47 43
22 47 43
22 49 44
22 47 42
21 46 42
21 46 42
18 41 37
14 31 29
12 26 25
11 24 23
9 20 19
9 21 19
10 22 21
12 26 25
16 34 31
20 44 39
22 47 43
22 47 43
21 46 41
22 48 43
22 47 42
22 47 43
22 48 43
22 49 44
22 48 43
22 47 42
22 47 42
18 39 35
13 30 28
11 24 23
6 14 14
5 12 12
6 15 14
9 21 19
13 30 27
18 39 35
21 47 42
21 47 42
23 49 44
22 48 43
22 48 43
22 48 44
22 49 44
22 49 44
22 49 44
22 48 44
22 49 44
23 50 45
22 49 44
22 49 45
22 49 44
22 47 43
22 49 44
23 50 45
23 50 45
22 49 45
22 48 44
22 49 44
22 49 44
23 50 45
22 48 43
22 48 44
22 49 44
23 49 45
23 50 45
22 48 44
22 48 43
22 49 44
22 49 44
22 48 44
22 49 44
21 46 42
21 47 43
21 47 43
22 47 43
21 47 43
20 45 41
21 47 43
21 47 42
21 47 43
22 48 44
21 47 42
21 47 42
22 48 43
22 48 43
21 47 43
21 46 42
21 46 42
21 46 42
21 46 42
22 47 43
21 47 43
22 48 43
22 48 43
22 48 43
21 47 42
22 47 43
21 47 42
21 46 42
21 47 43
22 48 43
22 48 43
22 47 43
22 47 43
22 47 43
21 47 43
21 46 42
20 44 40
19 43 39
20 44 40
21 45 41
21 46 41
21 47 43
21 47 42
21 47 42
21 47 42
21 47 42
22 48 43
21 46 42
22 48 43
22 48 43
22 47 43
22 48 43
22 47 42
22 47 42
21 47 43
21 46 42
19 43 39
19 42 39
19 41 38
18 40 37
18 41 38
19 42 39
20 45 41
21 46 41
22 48 43
22 48 43
22 48 43
22 47 43
22 48 43
21 46 42
22 48 43
22 49 44
22 48 43
22 47 43
21 46 42
22 47 42
21 47 43
19 42 39
17 39 36
16 36 34
15 34 32
14 32 30
16 37 34
17 39 36
19 42 38
21 46 41
21 46 41
22 47 43
23 50 45
22 49 44
21 47 42
22 49 44
22 48 43
22 47 43
23 50 45
23 50 45
22 49 45
22 49 44
22 49 44
22 49 44
22 48 44
22 48 44
22 49 44
22 48 43
23 50 45
22 49 44
22 49 44
22 49 44
23 49 45
22 48 44
23 50 45
22 49 44
22 49 44
22 48 44
22 48 44
22 48 43
22 49 44
22 48 43
22 49 44
22 49 44
21 47 43
21 46 42
21 46 42
21 46 42
21 47 43
21 47 43
21 47 42
21 46 42
21 47 43
22 48 44
22 48 43
22 47 43
22 48 44
21 47 43
21 46 42
21 47 42
22 48 44
22 49 44
21 47 42
22 47 43
22 48 43
21 47 42
22 47 43
22 48 44
22 48 44
22 48 44
22 48 43
22 47 43
22 48 43
22 48 43
21 47 42
22 48 43
22 49 44
22 48 43
22 47 43
21 47 43
22 48 44
21 47 43
22 49 44
22 47 43
22 48 43
22 48 44
22 47 43
22 48 43
21 47 43
22 49 44
22 48 43
22 47 43
21 47 42
22 48 43
22 48 44
22 48 43
22 48 43
22 48 44
22 47 43
22 48 44
22 47 43
22 48 43
22 47 43
22 48 44
22 48 43
22 48 43
23 49 45
21 47 42
22 48 43
22 48 43
22 49 44
21 47 43
22 47 43
22 49 44
22 47 43
22 48 44
22 48 43
22 48 44
23 49 45
22 48 43
22 48 44
22 48 43
21 47 43
22 47 43
22 47 43
22 48 43
22 47 43
21 47 43
21 47 42
22 48 43
22 47 43
22 48 43
22 48 43
22 48 43
22 47 43
22 49 44
22 49 44
22 48 43
22 48 44
22 49 44
22 49 44
22 48 44
22 49 45
23 50 45
22 48 43
22 48 44
21 47 42
21 47 42
22 49 44
22 48 44
22 49 44
22 48 44
22 49 45
22 48 44
22 48 44
22 49 44
22 48 44
22 48 44
23 50 46
22 49 44
22 47 43
22 47 43
22 48 43
23 49 45
21 47 43
22 47 43
21 47 42
22 48 43
21 47 43
21 47 42
21 47 42
21 46 42
22 47 43
22 48 43
22 48 44
22 47 43
21 47 42
21 47 43
21 47 43
21 47 43
21 46 42
22 48 43
21 46 42
23 50 45
22 48 43
22 47 43
22 48 43
22 48 44
22 47 43
22 48 44
21 47 43
22 47 43
21 47 43
21 46 42
21 47 43
22 49 44
22 48 43
21 47 43
22 48 44
22 48 44
21 46 42
21 47 42
21 47 43
22 49 45
22 48 43
22 48 44
22 48 44
22 48 43
22 49 44
22 48 44
22 48 44
22 48 43
22 48 44
22 49 44
22 47 43
21 47 42
22 48 44
22 49 44
22 48 44
22 48 44
22 47 43
22 48 44
23 49 45
22 49 44
22 49 44
22 49 44
21 46 42
22 47 43
22 47 43
22 48 44
22 49 44
22 48 43
22 48 44
22 48 44
22 48 43
21 47 42
22 48 43
22 47 43
22 49 44
22 48 44
22 48 43
22 49 44
22 48 44
22 49 44
22 47 43
23 49 45
22 49 45
22 48 44
22 47 43
22 48 43
22 48 44
22 48 44
22 48 44
22 49 45
22 49 44
22 47 43
22 48 44
22 48 43
22 48 44
22 48 44
22 48 43
22 48 44
21 47 43
22 49 44
22 48 44
22 48 43
22 48 44
22 49 45
22 48 44
23 49 45
22 48 43
22 49 44
22 49 44
22 49 45
22 49 44
22 48 43
22 48 43
22 48 43
22 49 44
22 48 43
22 48 44
22 49 44
22 49 44
22 49 44
21 46 42
21 46 42
21 46 42
21 47 43
21 47 43
21 46 42
21 46 42
21 46 42
21 46 42
21 47 43
21 47 43
21 47 43
21 47 43
21 47 43
22 49 45
21 46 42
21 47 43
21 47 43
22 48 44
22 48 43
21 47 43
22 48 44
21 47 42
21 47 43
21 47 43
21 47 43
22 47 43
22 48 43
22 47 43
22 48 44
22 48 44
21 47 43
21 47 42
21 47 42
22 48 44
22 47 43
21 47 43
21 46 42
22 48 43
22 48 44
21 47 43
22 48 44
22 48 44
21 47 43
22 47 43
22 48 43
22 48 43
22 48 43
22 47 43
22 49 44
21 47 42
22 48 44
22 49 44
22 48 43
22 48 44
22 47 43
22 48 44
22 48 43
22 48 44
22 47 43
22 48 43
22 48 44
22 49 44
22 49 44
23 50 45
22 48 43
22 48 44
22 48 44
22 49 44
22 48 43
22 48 43
22 48 44
22 49 44
22 48 44
22 48 43
22 49 45
21 47 42
22 49 44
22 48 44
22 48 44
22 47 43
22 49 44
22 49 44
22 49 44
22 49 44
22 48 44
22 48 44
22 48 43
22 48 43
23 49 45
22 48 44
22 48 43
21 47 42
22 48 44
22 48 44
22 48 44
22 47 43
23 50 45
22 48 43
22 48 44
22 48 44
22 48 43
22 49 44
22 49 45
22 48 44
22 48 43
22 48 43
22 48 43
22 48 44
22 49 44
22 49 44
22 48 43
22 48 44
22 48 43
22 48 44
22 48 44
22 48 43
22 48 44
22 48 43
22 49 44
22 48 44
22 48 43
21 47 43
21 47 43
21 47 43
21 47 42
21 47 43
21 47 43
21 46 42
21 47 42
21 46 42
21 45 41
21 46 42
21 47 42
22 48 44
21 47 43
21 47 43
22 48 44
21 47 43
22 49 45
21 46 42
21 47 43
21 47 43
22 49 45
22 48 44
21 47 42
22 47 43
21 47 43
22 48 44
22 48 44
22 48 43
21 47 43
21 47 43
22 47 43
22 48 43
22 48 43
22 48 44
22 48 43
21 47 43
21 46 42
22 48 43
22 48 44
22 48 44
22 47 43
22 49 44
22 48 43
22 49 44
21 47 43
22 47 43
21 46 42
21 47 43
21 47 43
21 47 43
22 48 44
22 48 44
22 47 43
22 48 43
22 49 44
22 47 43
21 47 42
22 48 43
22 47 43
22 48 44
22 48 44
23 49 45
22 48 44
22 48 43
22 48 43
21 47 43
22 48 43
22 48 44
22 49 44
22 49 45
22 49 44
22 48 44
22 48 44
21 47 43
22 48 44
22 47 43
22 48 43
22 49 44
22 48 43
22 48 44
21 47 43
22 47 43
22 48 44
22 49 44
22 48 44
22 48 43
21 47 42
22 49 44
21 47 43
23 50 45
22 48 43
22 48 43
22 47 43
22 48 43
23 50 45
22 48 44
22 49 44
22 48 43
22 48 44
21 47 43
22 49 45
22 49 44
22 47 43
23 50 45
22 48 44
22 48 44
22 48 44
22 47 43
22 49 45
22 49 44
21 47 43
22 48 44
21 47 43
22 47 43
22 48 44
22 48 43
22 49 44
21 47 43
21 47 43
21 46 42
21 46 42
21 47 43
21 47 43
21 47 43
21 46 42
22 48 43
21 47 43
21 47 43
21 47 43
21 47 43
21 47 42
21 47 43
22 48 43
21 46 42
21 47 43
21 46 42
22 48 44
21 47 43
21 47 43
21 46 42
21 47 43
22 47 43
21 46 42
21 46 42
21 47 43
22 48 43
22 48 44
21 46 42
22 47 43
22 48 43
22 47 43
21 46 42
22 49 45
21 46 42
21 47 43
22 48 43
22 48 43
22 48 43
21 47 43
22 48 43
21 47 43
21 47 43
22 48 43
22 47 43
22 48 43
21 47 43
22 48 44
21 47 43
22 48 43
22 48 44
22 48 44
21 46 42
22 48 43
21 47 43
21 46 42
21 47 42
22 48 43
22 48 44
22 48 43
22 48 44
22 47 43
22 49 44
22 47 43
22 48 44
22 48 43
21 47 43
22 48 44
22 49 44
22 48 44
22 48 44
22 48 44
22 48 43
22 49 44
22 48 44
22 48 44
21 47 43
22 48 44
22 49 44
22 47 43
22 48 44
22 48 43
22 47 43
21 47 42
22 48 44
22 49 44
21 47 42
22 47 43
22 49 44
22 48 43
22 49 44
22 48 43
22 48 43
22 49 45
22 49 44
22 48 43
22 49 44
22 49 44
22 48 43
22 48 44
22 48 44
22 48 43
22 47 43
21 47 43
22 48 44
22 48 43
22 48 44
22 48 43
21 47 42
22 49 45
22 49 44
22 48 44
22 48 44
22 48 43
22 49 45
22 48 43
22 48 43
21 47 43
22 48 44
21 46 42
21 47 43
21 47 43
22 48 44
21 47 43
22 47 43
21 47 43
21 47 43
22 48 44
21 47 43
21 47 43
21 47 43
21 46 42
21 47 43
21 46 42
21 46 42
21 46 42
21 47 43
21 46 42
21 47 43
21 47 43
21 47 43
21 47 43
21 47 43
21 46 42
22 48 44
21 47 42
21 47 43
21 47 42
21 47 43
21 47 43
21 47 43
21 47 43
21 46 42
22 48 43
21 47 43
21 47 43
22 48 44
21 46 42
21 46 42
22 48 43
21 47 43
21 47 43
22 47 43
21 47 43
21 46 42
21 47 42
22 48 44
21 47 43
21 47 43
22 47 43
22 48 43
21 47 42
21 47 43
22 48 43
22 47 43
22 48 43
21 47 43
22 49 45
21 47 43
22 48 43
22 48 43
21 47 43
22 48 44
21 47 43
22 48 43
21 47 43
22 48 43
22 47 43
22 48 44
22 48 44
22 47 43
22 48 43
21 47 42
21 47 43
22 48 44
21 47 43
22 49 44
22 49 44
22 49 45
22 48 43
21 47 43
22 49 45
22 48 44
22 48 44
22 47 43
21 46 42
22 47 43
22 47 43
22 49 44
22 48 44
22 48 44
22 48 44
22 49 44
22 48 43
21 47 43
21 46 42
22 48 44
22 48 43
21 47 42
21 46 42
22 48 44
21 47 43
21 47 43
22 49 44
22 48 44
22 48 44
22 47 43
22 48 44
22 48 43
22 48 44
22 48 44
22 48 44
21 47 43
22 47 43
21 47 43
22 48 44
22 48 44
21 46 42
21 46 42
21 46 42
21 47 43
21 46 42
21 47 43
21 47 43
22 48 44
21 47 43
21 47 43
21 47 43
21 46 42
21 47 43
21 47 42
21 46 42
21 47 43
21 47 43
22 48 44
21 47 43
21 47 43
21 47 42
21 47 43
21 47 43
21 46 42
21 47 43
21 47 43
21 47 43
21 47 43
22 48 43
21 46 42
21 47 42
22 48 44
22 48 43
21 47 42
21 47 43
21 47 43
21 46 42
21 46 42
21 47 43
21 47 43
21 47 43
22 48 44
22 48 44
22 47 43
22 47 43
21 47 43
21 47 43
22 48 44
22 48 44
21 47 42
22 47 43
21 47 43
22 48 43
21 47 42
21 47 43
23 50 45
21 47 42
21 47 43
22 47 43
22 48 44
21 47 42
22 48 44
22 48 44
21 46 42
21 47 43
22 48 44
22 49 44
21 47 43
22 48 43
21 47 43
21 47 43
22 48 43
22 48 43
22 48 44
22 47 43
22 48 44
22 49 44
21 47 43
22 48 44
21 46 42
21 47 43
22 48 44
23 50 45
21 47 43
22 48 44
22 48 43
22 47 43
22 48 43
22 49 44
22 48 44
22 48 43
22 48 44
22 48 44
22 48 44
22 49 44
21 47 42
22 48 44
22 48 44
22 47 43
22 47 43
22 49 44
22 49 44
22 49 44
22 48 43
22 49 44
21 47 43
22 49 44
22 48 43
22 48 44
22 47 43
22 48 44
21 47 42
22 48 44
22 47 43
22 48 44
21 47 43
21 47 43
21 47 43
21 47 43
21 45 41
21 47 43
21 46 42
21 46 42
21 46 42
21 47 43
22 48 43
22 48 43
21 47 43
20 45 41
21 46 42
21 47 43
21 47 42
21 47 43
21 46 42
22 48 44
21 47 43
21 47 42
21 47 42
21 47 42
21 46 42
21 47 43
21 47 43
21 47 43
21 47 43
21 46 42
21 46 42
21 46 42
21 47 43
21 46 42
21 47 43
21 46 42
21 47 43
21 46 42
21 47 43
21 46 42
21 47 43
22 48 44
22 48 44
20 45 41
21 47 43
21 47 43
21 47 43
21 47 43
21 47 43
21 47 42
21 47 43
22 47 43
22 48 43
22 48 43
22 47 43
22 48 44
21 47 42
22 48 43
22 48 44
22 48 43
21 47 43
21 47 43
21 47 43
21 47 43
21 46 41
21 47 43
22 48 43
21 47 43
21 47 43
22 47 43
21 47 43
22 48 44
22 48 44
21 47 43
22 48 43
22 48 43
22 48 44
21 46 42
22 48 44
22 47 43
22 48 43
21 47 43
22 48 43
22 48 43
22 47 43
21 47 42
22 47 43
22 48 43
21 46 42
21 47 43
22 47 43
21 47 43
22 47 43
22 48 44
21 47 43
21 46 42
22 48 44
21 46 42
21 47 43
21 47 43
22 48 43
22 49 44
22 48 44
22 48 44
21 47 43
22 47 43
21 46 42
22 48 43
22 48 43
22 48 44
22 47 43
22 48 43
22 48 43
21 47 43
21 47 43
22 48 44
22 48 43
22 48 43
21 47 43
22 48 43
22 48 43
22 47 43
21 47 43
21 47 43
22 48 43
21 47 43
21 47 43
22 48 44
21 47 43
21 47 43
20 45 41
21 47 43
21 46 42
21 47 43
21 46 42
21 46 42
20 45 41
21 46 42
21 47 43
21 46 42
21 47 43
21 46 42
21 46 42
21 46 42
21 47 43
21 47 43
21 46 42
22 48 44
21 46 42
21 47 43
21 47 43
21 47 43
21 46 42
21 47 43
21 47 43
21 47 43
21 46 42
21 47 43
21 47 43
21 46 42
21 47 43
22 48 43
21 46 42
22 48 44
21 46 42
21 47 43
21 47 43
21 47 43
21 46 42
21 47 43
21 47 43
22 48 44
21 47 43
21 47 43
21 47 42
21 47 43
22 48 44
21 47 43
22 48 43
21 47 43
21 47 43
21 47 43
21 47 43
21 47 43
22 47 43
22 47 43
22 47 43
21 45 41
21 46 42
21 47 42
21 47 42
21 47 43
22 47 43
21 47 42
22 48 44
22 48 43
21 46 42
22 48 43
21 47 43
21 47 43
21 47 43
22 48 44
21 47 43
21 46 42
21 47 43
21 46 42
21 47 43
21 47 42
22 47 43
21 47 43
21 46 42
22 47 43
21 47 43
21 47 43
22 49 44
21 47 42
21 47 43
21 47 43
21 47 43
22 48 44
21 46 42
21 47 42
22 48 44
22 47 43
21 47 42
21 47 43
22 48 44
21 45 41
21 47 43
21 46 42
22 47 43
21 46 42
22 48 44
22 48 44
22 48 44
21 47 43
21 47 43
21 47 43
21 47 43
21 47 42
22 47 43
21 47 43
21 47 42
21 47 42
21 47 43
21 47 43
21 46 42
21 46 42
21 47 43
21 47 42
21 47 43
21 47 42
21 47 43
21 47 42
21 47 43
20 45 41
21 46 42
21 47 43
21 47 43
21 47 43
21 47 43
21 47 42
22 48 44
21 46 42
21 46 42
20 45 41
21 47 43
21 46 42
22 48 44
21 46 42
20 45 41
21 46 42
21 46 42
21 46 42
21 46 42
21 47 43
21 47 43
21 46 42
21 46 42
21 47 43
21 47 43
21 47 43
21 47 43
22 48 44
21 46 42
21 47 43
21 47 42
20 45 41
21 47 43
22 48 43
21 46 42
21 47 42
21 46 42
21 46 42
21 47 42
22 48 44
21 47 43
22 48 44
21 46 42
21 47 43
21 46 42
21 47 43
21 47 42
21 47 42
22 48 44
21 47 42
22 48 43
22 48 44
22 48 44
22 49 45
21 47 43
22 48 44
21 47 42
22 48 43
22 49 45
21 47 42
21 46 42
21 47 43
21 46 42
21 47 43
22 48 44
21 47 43
21 46 42
22 49 44
22 48 43
21 47 43
21 46 42
21 46 42
22 47 43
22 48 43
22 47 43
22 48 43
22 47 43
22 48 44
21 46 42
22 47 43
22 48 43
22 48 44
21 47 43
21 47 43
22 48 43
22 48 44
21 47 43
22 48 44
22 48 44
21 47 43
22 48 43
21 46 42
22 48 44
21 47 43
21 47 42
22 48 43
21 47 42
21 46 42
22 49 44
21 47 43
21 46 42
22 48 44
21 46 42
21 47 42
21 47 43
22 49 44
21 47 43
21 46 42
22 48 43
21 47 43
21 46 42
21 46 42
21 45 42
21 47 43
20 45 41
21 46 42
21 47 43
20 45 41
21 47 43
21 46 42
21 46 42
21 46 42
21 46 42
21 46 42
21 47 43
21 46 42
21 47 43
21 47 42
21 46 42
21 47 43
21 46 42
21 46 42
21 47 43
21 48 43
21 47 43
21 46 42
21 46 42
20 45 41
21 46 42
21 46 42
21 47 43
21 46 42
21 47 43
21 47 43
21 46 42
22 47 43
21 46 42
21 47 43
21 47 43
21 47 43
21 46 42
21 47 43
21 47 42
21 46 42
21 46 42
21 47 43
21 46 42
21 46 42
21 46 42
22 48 44
22 47 43
22 48 44
21 47 43
22 48 43
21 47 43
21 46 42
21 47 43
21 46 42
21 47 43
21 47 42
21 46 42
22 48 44
21 47 43
22 48 44
22 48 43
22 48 43
21 47 43
21 46 42
21 47 43
21 46 42
22 48 44
22 49 44
21 47 43
21 46 42
21 47 42
21 47 43
21 47 42
21 47 43
21 46 42
22 48 43
21 46 42
22 48 43
21 47 43
22 48 44
21 47 43
21 46 42
22 47 43
22 48 43
21 47 43
21 46 42
21 47 43
22 47 43
21 47 43
21 47 43
22 49 45
21 47 43
21 47 43
21 47 42
21 46 42
21 46 42
21 47 43
21 46 42
22 48 44
21 46 42
21 47 43
21 47 43
22 48 44
21 47 43
21 46 42
21 47 43
21 47 43
22 48 44
21 46 42
21 47 43
21 47 43
21 46 42
22 47 43
21 47 43
21 47 43
21 46 42
20 45 41
21 46 42
21 47 43
21 46 42
21 46 42
20 45 41
20 45 41
21 46 42
21 46 42
21 47 43
21 46 42
21 47 43
21 47 43
21 47 43
21 46 42
21 46 42
21 46 42
21 47 43
21 46 42
21 47 42
21 46 42
21 47 43
21 46 42
21 47 43
21 47 43
21 47 43
21 46 42
21 47 42
21 47 43
21 46 42
21 46 42
21 46 42
21 45 41
21 46 42
21 47 43
21 46 42
21 46 42
21 47 43
21 46 42
21 46 42
21 47 43
22 48 44
21 47 43
21 47 43
21 47 43
22 48 44
21 46 42
21 47 43
22 47 43
21 47 43
21 46 42
21 47 43
22 48 43
21 47 43
21 46 42
21 45 41
21 47 43
22 47 43
21 47 43
21 46 42
22 47 43
21 47 43
21 46 42
21 47 43
22 47 43
22 48 43
22 47 43
21 46 42
21 47 43
22 48 44
21 47 42
21 47 43
22 47 43
22 47 43
22 47 43
21 47 43
21 46 42
21 46 42
22 48 44
21 47 43
22 48 43
22 48 44
22 48 44
21 47 43
21 47 42
22 48 43
21 46 42
22 48 43
22 48 43
21 47 43
22 48 43
21 46 42
22 48 44
21 46 42
21 47 43
21 47 43
21 46 42
21 47 43
22 47 43
21 47 43
21 46 42
21 47 43
21 46 42
21 47 43
21 47 43
21 46 42
21 46 42
21 46 42
21 46 42
21 47 43
22 48 44
22 48 44
21 47 43
21 47 42
21 46 42
22 48 43
21 47 42
22 48 43
21 47 43
21 46 42
21 46 42
21 47 43
20 45 41
21 47 43
21 47 43
21 47 43
20 45 41
21 45 42
21 46 42
21 47 43
21 47 43
21 46 42
21 46 42
21 47 43
21 46 42
21 47 43
21 47 43
21 47 42
21 47 43
21 46 42
21 46 42
21 45 42
22 48 44
21 46 42
21 47 43
21 47 43
21 46 42
22 47 43
21 46 42
21 47 43
21 47 43
21 47 42
21 47 43
21 47 43
20 44 40
21 47 43
21 46 42
21 46 42
21 47 43
21 46 42
21 46 42
21 47 43
21 47 43
21 47 43
21 46 42
21 47 43
21 46 42
21 45 41
22 48 44
22 48 44
21 47 42
21 47 42
21 47 43
22 47 43
22 47 43
21 47 43
21 47 43
21 46 42
21 46 42
21 47 43
21 46 42
22 48 44
21 46 42
21 46 42
21 46 42
21 47 43
22 48 43
21 47 43
22 47 43
22 47 43
22 48 44
21 46 42
22 47 43
22 48 44
21 46 42
22 47 43
22 47 43
21 46 42
21 47 42
21 46 42
22 48 44
22 48 44
21 46 42
21 47 43
22 48 44
22 47 43
22 47 43
21 47 43
22 48 43
22 47 43
21 47 43
22 48 44
21 46 42
21 46 42
21 47 43
21 45 41
21 47 43
21 47 43
21 46 42
21 47 43
21 46 42
21 47 43
21 46 42
21 46 42
21 47 43
21 47 43
22 48 44
21 47 43
22 48 44
21 46 42
21 46 42
21 47 43
21 47 43
21 47 43
21 47 43
21 46 42
21 47 43
21 47 43
22 48 43
22 48 44
21 46 42
21 46 42
20 45 41
21 47 43
21 47 43
20 45 41
20 45 41
21 47 43
21 46 43
22 48 44
21 46 42
21 46 42
21 47 43
21 47 43
21 46 42
21 46 42
20 45 41
21 45 41
20 45 41
20 45 41
21 46 42
21 45 42
21 46 42
21 47 43
21 47 43
21 46 42
21 46 42
21 46 42
21 45 41
21 46 42
21 47 43
21 46 42
21 46 42
21 46 42
21 46 42
20 45 41
21 46 42
21 45 41
21 47 43
21 47 43
21 47 43
21 46 42
21 46 42
21 47 43
21 47 43
21 46 42
21 46 42
21 46 42
21 47 42
21 46 42
21 45 41
21 47 43
22 47 43
21 47 43
21 47 43
21 47 43
22 48 43
21 46 42
22 47 43
21 46 42
21 47 43
21 46 42
22 47 43
22 48 44
22 48 44
22 47 43
22 47 43
22 48 43
22 47 43
22 47 43
22 47 43
22 47 43
22 48 43
22 47 43
21 46 42
22 47 43
21 46 42
22 47 42
22 48 44
22 47 43
22 47 42
21 46 42
22 47 43
22 47 43
22 47 43
21 46 42
22 47 43
22 47 43
21 46 42
21 46 42
22 47 43
21 46 42
21 47 43
21 46 42
22 47 43
21 47 43
21 45 41
21 47 43
21 46 42
21 47 43
21 46 42
21 46 42
21 47 43
21 47 43
21 47 43
21 46 42
21 46 42
21 47 43
21 46 42
21 46 42
21 47 43
21 47 43
21 46 42
21 46 42
21 47 43
21 46 42
21 47 43
21 46 42
22 47 43
21 46 42
20 45 41
21 46 42
21 46 42
21 46 42
21 47 43
21 47 43
21 46 42
21 46 42
21 47 43
21 46 42
21 46 42
21 46 42
21 46 42
21 46 42
21 46 42
20 45 41
21 46 42
20 45 41
21 46 42
21 46 42
22 48 44
21 46 43
21 46 42
21 46 42
21 47 43
21 47 43
20 45 41
21 47 43
21 46 42
21 47 43
20 45 41
21 46 42
22 47 43
21 47 43
21 47 43
21 47 43
21 47 43
21 46 42
21 46 42
21 47 43
21 46 42
21 46 42
21 47 43
21 45 41
21 46 42
21 45 42
21 46 42
21 45 41
20 45 41
21 47 43
21 47 42
21 47 43
21 46 42
21 47 43
21 46 42
22 48 43
22 47 43
22 47 43
22 48 43
22 47 43
21 47 42
21 46 42
22 47 43
21 46 42
22 48 44
22 47 43
22 46 42
23 49 44
22 47 43
22 47 43
22 48 43
22 46 42
22 47 43
22 47 43
23 48 44
23 48 44
22 47 43
22 47 43
22 48 43
22 47 42
22 47 42
22 47 43
22 47 43
22 47 43
22 47 43
22 46 42
22 48 43
22 46 42
22 47 43
22 47 42
22 47 43
22 47 43
22 47 43
21 46 42
21 47 43
21 46 42
22 47 43
21 47 42
21 45 41
22 47 43
21 46 42
21 46 42
21 47 43
21 47 42
21 46 42
21 47 43
21 46 42
21 47 42
22 48 44
21 46 42
21 46 42
21 47 43
21 47 43
21 47 43
22 48 43
21 46 42
21 47 43
21 47 42
22 48 43
21 46 42
21 46 42
21 46 42
21 46 42
21 46 42
21 46 42
21 46 42
21 46 42
20 45 41
20 45 41
20 44 40
20 45 41
21 46 42
21 47 43
21 47 43
21 47 43
21 46 42
21 47 43
21 46 42
21 46 42
21 46 42
21 46 42
21 46 42
21 46 42
21 46 42
21 46 42
21 46 42
21 46 42
20 45 41
20 45 41
21 46 42
21 47 43
21 46 42
21 47 43
21 47 43
21 46 42
21 46 42
21 46 42
21 46 42
21 46 42
21 46 42
20 45 41
21 46 42
21 46 42
21 45 41
21 47 43
21 45 42
21 47 43
21 46 42
22 48 43
22 47 43
21 46 42
21 47 43
21 45 42
22 47 43
21 46 42
21 45 41
21 46 42
22 47 43
22 48 44
22 47 43
22 46 42
22 46 42
22 46 42
22 46 42
22 47 43
22 47 43
22 46 42
22 47 43
22 46 42
22 46 42
23 48 44
23 47 43
22 46 42
22 46 42
23 48 44
23 47 43
23 47 43
23 47 43
22 47 43
22 46 42
22 46 42
22 46 42
22 46 42
22 48 43
22 47 43
22 46 42
23 49 45
22 47 43
22 46 42
22 47 42
22 47 43
22 48 43
21 45 41
22 48 43
22 47 43
22 47 43
21 46 42
21 46 42
22 47 43
21 47 43
22 47 43
22 47 43
21 47 43
21 46 41
21 46 42
21 46 42
22 48 44
21 47 43
21 46 42
21 47 43
21 46 42
21 47 43
21 46 42
21 47 43
21 47 43
21 47 42
21 46 42
21 46 42
21 47 43
20 45 41
21 46 42
20 45 41
21 45 42
21 47 43
21 47 43
21 46 42
21 47 43
21 47 43
21 46 42
21 47 43
21 46 42
21 46 42
21 46 42
22 48 44
21 46 42
20 45 41
21 47 43
20 44 41
21 46 42
21 47 43
21 47 43
21 46 42
21 45 41
20 45 42
21 47 43
21 46 42
21 46 42
21 46 42
21 46 42
21 47 43
21 46 42
21 46 42
21 46 42
21 46 42
21 46 42
21 46 42
21 47 43
21 46 42
21 46 42
21 46 42
21 45 42
22 47 43
21 46 42
21 46 42
21 45 41
21 46 42
22 47 43
22 48 44
21 46 42
21 46 42
21 46 42
22 47 43
22 47 42
22 46 42
22 46 42
22 47 43
22 47 43
22 47 42
22 47 43
22 46 42
22 46 42
22 47 43
22 47 43
22 47 43
23 47 43
22 46 42
22 46 42
23 47 43
23 48 43
23 47 43
23 48 44
22 46 42
23 46 42
23 47 43
23 46 42
23 47 42
23 47 43
23 47 43
23 47 43
23 46 42
23 48 43
23 47 43
23 46 42
23 47 43
22 46 42
22 46 42
22 47 43
23 47 43
23 48 43
23 48 44
22 46 42
22 47 43
22 45 41
22 47 43
22 46 42
22 47 43
22 46 42
22 46 42
22 46 42
22 47 43
22 47 42
22 47 43
22 47 43
21 46 42
21 47 43
22 48 43
21 46 42
21 46 42
21 46 42
21 46 42
22 47 43
21 47 42
21 46 42
21 46 42
22 48 44
21 47 43
22 48 44
21 46 42
21 47 43
21 46 42
20 45 41
20 44 41
20 45 41
20 45 41
20 45 41
21 46 42
21 46 42
20 45 41
21 46 42
20 45 42
21 46 42
21 47 43
20 45 41
21 46 42
21 46 42
20 45 41
21 46 42
21 46 42
21 46 42
21 45 42
21 46 42
21 46 42
21 46 42
20 45 41
21 46 42
21 45 41
20 45 41
21 47 43
22 48 44
21 46 42
21 47 43
21 46 42
21 45 41
21 47 43
21 46 42
21 47 43
21 46 43
21 47 43
21 46 42
21 47 43
21 47 43
21 46 42
21 46 42
21 46 42
21 46 42
21 47 42
22 47 43
22 47 43
21 46 42
22 48 44
21 45 41
22 47 43
22 46 42
22 46 42
23 48 44
22 47 43
22 46 42
22 47 43
22 46 42
23 47 43
23 47 43
23 47 43
22 46 42
24 48 44
23 48 43
23 47 42
23 47 43
23 47 43
23 47 43
23 47 43
24 48 43
24 47 43
24 47 43
24 47 43
24 48 44
24 48 43
24 48 43
23 47 43
24 48 44
24 48 44
24 48 43
24 47 43
24 48 44
24 48 44
23 47 43
23 47 43
23 47 42
23 47 43
24 49 44
24 49 44
23 47 43
22 46 42
23 48 43
23 47 43
22 47 43
22 46 42
22 47 43
22 47 43
22 46 42
22 47 43
22 46 42
22 47 43
21 46 42
22 46 42
21 45 41
21 46 42
21 46 42
21 47 43
22 48 44
22 47 43
21 47 43
21 46 42
21 46 42
21 46 42
21 46 42
21 46 42
21 46 42
21 46 42
21 46 42
22 47 43
20 45 41
21 47 43
21 45 42
21 46 42
20 45 41
21 46 42
21 46 42
21 46 42
21 45 42
21 46 42
20 45 41
21 46 42
21 47 43
20 45 41
21 46 42
21 46 42
20 45 41
21 46 42
20 45 41
21 47 43
21 46 42
21 46 42
20 45 41
21 46 42
21 46 42
20 45 41
20 45 41
21 47 43
21 46 42
21 46 42
20 45 41
21 46 42
21 45 42
21 45 41
21 45 42
21 46 43
21 46 42
21 47 43
21 47 43
21 46 42
21 47 43
21 46 42
21 46 42
21 45 41
21 45 41
21 46 42
22 48 44
21 46 42
22 46 42
22 46 42
21 45 41
22 46 42
22 46 42
22 45 41
23 48 44
23 48 43
22 45 41
23 48 44
23 47 43
23 47 43
24 48 44
24 47 43
23 47 42
24 48 44
24 48 44
23 46 42
24 47 43
24 48 44
25 48 44
24 47 43
25 48 43
24 47 42
24 47 43
25 47 43
25 47 43
25 47 43
25 48 44
24 46 42
25 48 44
25 48 43
25 47 43
24 47 43
24 46 42
25 48 44
25 48 44
24 47 43
24 48 44
24 47 43
24 47 43
24 47 43
24 48 43
23 47 43
24 49 44
23 48 43
23 47 43
23 47 43
23 47 43
23 47 43
23 48 43
22 47 43
22 46 42
23 48 43
22 47 43
22 47 43
22 47 43
22 47 43
21 46 42
22 47 42
22 47 43
21 46 42
21 46 42
22 48 44
21 47 43
21 45 41
21 46 42
21 45 41
21 47 43
21 46 42
21 46 42
21 46 42
21 46 42
21 46 42
20 45 42
21 45 42
21 46 42
21 46 42
21 46 42
20 45 41
21 46 42
20 45 41
20 45 41
20 45 41
20 45 41
21 46 42
21 47 43
22 48 44
20 45 41
21 47 43
21 46 42
20 45 41
20 45 41
21 46 42
21 45 42
21 46 42
21 46 42
21 47 43
21 46 42
21 46 42
21 46 42
21 46 42
21 46 42
21 46 42
21 46 42
21 46 43
21 46 42
21 45 42
21 47 43
21 46 42
22 47 43
21 46 42
22 47 43
21 45 41
22 47 43
22 46 42
21 46 42
22 48 44
22 46 42
22 47 43
23 47 43
22 46 42
22 47 42
23 47 43
23 47 43
22 45 42
23 45 41
23 47 43
23 47 43
23 47 43
23 46 42
24 46 42
24 47 42
24 47 43
25 48 43
25 47 43
25 47 43
25 48 43
25 46 42
26 48 44
25 48 43
25 46 42
27 50 46
26 48 44
26 49 44
27 50 45
26 48 43
26 47 43
26 48 44
26 48 43
26 48 44
27 50 45
26 49 44
26 49 44
26 48 44
26 48 44
25 48 43
25 48 44
25 48 43
25 48 43
25 48 44
24 47 43
25 47 43
24 47 43
24 47 43
24 48 43
24 47 43
24 47 43
24 48 43
24 48 44
24 48 44
23 47 43
23 47 43
23 47 43
23 47 43
22 47 42
22 46 42
22 46 42
22 48 43
22 47 42
22 47 43
22 46 42
21 45 41
21 46 42
21 46 42
22 47 43
21 46 42
21 47 43
21 46 42
21 46 42
21 46 42
21 47 42
20 45 41
20 44 41
21 46 42
21 46 42
20 44 41
20 45 41
21 46 42
20 45 41
21 47 43
20 44 41
21 46 42
21 47 43
21 46 42
21 47 43
21 46 42
20 45 41
21 46 42
20 45 41
21 46 42
21 46 42
21 47 43
21 45 42
22 48 44
21 47 43
20 45 41
21 46 42
21 46 42
21 45 41
21 46 42
22 48 43
20 45 41
21 46 42
21 46 42
21 46 43
21 47 43
21 46 42
21 46 42
21 46 42
22 47 43
22 47 43
21 46 42
22 47 43
22 46 43
22 46 42
22 47 43
22 46 42
22 45 41
22 46 42
22 46 42
23 47 43
23 47 43
23 46 42
23 46 42
24 47 43
24 47 43
24 47 43
24 47 43
25 48 44
25 48 43
25 48 43
25 48 44
26 48 43
26 49 45
26 49 44
26 49 44
27 49 44
27 48 44
27 49 45
27 49 45
27 48 43
27 48 44
27 48 44
28 49 45
27 49 44
28 50 45
27 48 44
28 48 44
27 48 43
27 49 44
28 49 44
28 49 45
28 49 45
28 50 46
27 47 43
27 48 44
27 49 44
26 48 43
26 48 44
26 49 44
26 47 43
26 48 44
25 47 43
26 48 44
25 48 44
25 48 44
25 48 44
24 47 43
25 48 44
24 47 43
24 47 43
23 47 43
24 48 44
23 46 42
23 47 43
22 46 42
23 48 44
22 47 43
22 47 42
23 48 43
22 46 42
22 46 42
22 47 43
22 47 43
22 47 43
21 46 42
21 46 42
22 47 43
22 47 43
21 46 42
21 46 42
21 46 42
20 45 41
20 45 41
20 45 41
21 46 42
21 46 42
20 45 42
21 46 42
20 45 41
21 46 42
20 45 41
20 45 41
21 46 42
20 45 41
20 45 41
21 46 42
20 45 41
20 45 41
21 46 42
21 46 42
21 47 43
21 47 43
21 46 42
20 45 41
21 46 42
20 45 41
20 44 41
21 46 42
20 44 41
21 46 42
21 46 42
21 46 42
22 47 43
21 46 42
21 45 41
22 47 43
21 46 42
21 46 42
22 47 43
21 45 42
22 46 42
22 45 41
22 46 42
22 46 42
22 46 43
23 47 43
23 47 43
23 47 43
23 47 43
24 47 43
24 47 43
24 47 43
24 47 43
25 48 44
25 47 43
25 48 44
25 48 43
26 49 45
26 49 44
26 48 43
26 48 43
27 49 44
27 49 45
28 49 44
28 48 43
28 49 45
29 50 45
28 49 44
28 47 43
29 49 44
29 50 45
29 50 45
29 50 45
29 50 45
29 50 45
30 50 45
30 51 46
30 51 46
30 51 46
30 50 45
30 50 46
29 49 45
29 48 44
29 50 45
29 49 45
29 50 45
28 50 45
28 49 44
28 50 45
27 47 43
28 49 45
27 48 44
27 49 44
26 48 43
27 49 44
26 47 43
25 48 43
25 48 44
25 49 44
25 48 43
25 48 44
24 48 43
24 47 43
23 47 43
23 46 42
22 45 41
23 46 42
23 47 43
22 46 42
22 46 42
22 46 42
22 46 42
21 45 42
22 46 42
22 46 42
22 47 43
21 45 41
21 46 42
21 46 42
21 46 42
21 46 42
20 45 41
20 45 41
21 46 42
20 45 41
21 46 42
20 45 41
21 46 42
20 45 42
20 45 41
20 45 41
20 45 41
21 46 42
21 46 42
21 46 42
21 47 43
21 46 42
21 45 42
21 46 42
20 45 41
20 45 41
21 46 42
21 46 42
21 46 43
21 46 42
21 46 42
20 44 41
20 45 41
21 45 42
21 46 42
21 45 41
21 45 41
21 46 42
21 45 41
21 45 42
22 47 43
22 46 42
22 47 43
23 48 44
22 46 42
23 47 43
22 46 42
22 46 42
22 45 41
23 47 43
24 48 43
24 47 43
24 47 42
24 46 42
24 47 43
25 49 44
25 48 43
25 47 43
26 49 44
27 49 45
26 47 43
27 48 44
27 48 44
28 49 44
28 50 45
28 49 45
29 49 44
29 49 44
29 50 45
29 49 44
30 51 46
30 50 45
31 51 46
31 50 45
31 50 45
31 51 46
31 50 45
31 50 45
32 51 46
32 51 46
32 52 47
32 50 45
32 51 46
31 51 46
32 51 46
32 52 47
31 51 46
31 51 46
31 51 46
31 51 46
30 50 45
30 50 45
30 50 45
30 51 46
30 50 46
29 48 43
29 49 44
29 51 46
28 48 44
28 49 44
27 48 43
27 48 44
27 48 44
26 47 43
26 47 43
25 47 43
25 48 43
25 47 43
25 48 44
25 48 44
24 47 43
24 47 43
23 47 43
23 46 42
23 47 43
23 47 42
22 46 42
22 47 43
23 48 44
22 47 43
22 46 42
22 47 43
22 47 43
22 47 43
22 47 43
21 46 42
21 46 42
20 44 41
21 46 42
20 45 42
20 45 41
20 45 41
21 46 42
20 45 42
20 45 41
20 45 41
20 45 42
21 45 42
20 45 42
21 46 42
20 45 41
20 45 41
20 45 41
21 46 42
21 46 42
21 46 42
21 46 42
21 46 42
21 46 42
20 45 41
21 46 42
21 46 42
20 44 41
21 46 42
21 45 41
21 45 41
21 45 41
21 46 42
21 46 42
22 46 42
22 47 43
22 46 42
22 46 42
22 46 42
23 47 43
23 47 43
23 47 43
23 47 42
23 45 41
24 47 43
24 47 43
24 46 42
25 48 44
25 48 43
26 48 44
26 49 44
27 49 44
27 49 44
27 49 44
27 48 44
28 48 44
28 49 45
29 50 46
29 49 45
30 50 45
30 50 45
31 50 46
31 50 45
32 51 46
32 50 45
33 52 47
33 52 46
33 51 46
33 51 46
33 52 47
34 52 47
34 53 48
34 52 46
34 53 48
34 51 46
34 52 47
34 53 47
34 52 47
34 53 47
35 54 49
34 52 46
34 53 47
33 51 46
33 52 46
33 52 47
33 52 47
32 51 46
32 50 45
32 51 46
32 51 46
31 50 46
31 50 45
30 50 45
30 49 44
29 49 44
29 50 45
29 50 45
28 48 44
28 49 44
27 48 44
27 48 44
26 48 43
26 48 43
26 48 44
25 48 44
25 49 45
24 47 43
24 47 43
24 47 43
23 47 42
23 47 43
23 46 42
23 47 43
23 47 42
22 46 42
22 47 43
22 47 43
22 46 42
22 46 42
22 46 42
20 44 40
21 47 43
20 44 41
20 45 41
20 45 41
21 46 42
20 45 41
20 45 41
20 44 41
20 45 41
21 46 42
21 46 42
21 46 42
20 45 41
21 46 42
20 45 41
21 46 42
20 45 41
21 46 42
21 45 42
21 46 42
20 45 41
21 46 42
21 46 42
21 46 42
21 45 42
20 44 40
21 46 42
22 47 43
21 46 42
22 46 43
22 46 42
22 46 42
23 48 44
22 45 41
23 47 43
22 46 42
22 45 41
23 46 42
23 47 43
24 47 43
23 46 42
23 46 42
24 47 43
25 47 43
25 46 42
26 48 43
26 49 44
26 49 44
27 50 46
28 50 45
28 48 44
28 48 44
29 50 45
30 51 46
30 50 45
31 51 46
31 50 45
32 52 47
31 49 44
33 52 47
33 52 47
33 51 46
34 52 46
34 52 46
34 51 46
35 53 48
36 54 48
35 52 47
36 53 47
36 53 47
37 54 48
37 54 48
37 54 48
37 55 49
37 54 49
37 53 48
37 54 48
37 53 48
37 54 48
37 53 47
36 53 47
36 52 47
36 54 49
36 54 48
35 53 47
35 52 47
35 52 47
34 51 46
34 52 47
34 52 47
33 51 46
32 51 46
32 51 46
31 51 46
31 50 45
31 51 46
30 50 45
30 50 45
29 49 45
28 50 45
28 49 45
28 49 45
27 48 43
26 48 43
27 49 45
26 49 44
25 47 43
25 48 43
24 47 43
24 46 42
24 47 43
24 48 44
23 47 43
23 46 42
22 46 42
23 47 43
22 46 42
22 46 42
22 46 42
21 46 42
20 45 42
20 45 41
20 45 41
21 46 42
21 46 42
21 45 42
20 45 42
20 44 40
21 46 42
20 44 40
20 45 41
21 46 42
20 45 41
20 45 42
20 45 41
21 46 42
21 46 43
21 46 42
20 45 41
20 44 41
21 46 42
21 45 41
21 46 42
21 46 42
21 47 43
21 46 43
21 45 41
21 46 42
21 45 41
21 46 42
21 45 41
22 45 41
22 46 42
22 46 42
22 46 42
23 47 43
23 47 43
23 47 43
24 47 43
24 47 43
25 48 44
25 47 43
25 47 43
25 47 43
27 50 45
27 49 44
27 49 45
28 48 44
28 50 45
29 50 45
29 49 45
31 52 47
30 49 45
31 51 46
31 50 45
33 52 46
33 51 46
34 52 47
34 51 46
35 52 47
35 53 47
36 53 47
36 53 48
37 54 48
37 53 48
37 53 47
38 54 49
39 55 49
39 54 48
39 55 49
39 55 49
39 54 48
40 55 49
40 56 50
40 55 49
40 55 49
40 55 49
40 56 50
40 56 50
40 56 50
40 55 49
39 55 49
39 55 49
39 55 49
38 55 49
38 53 48
37 53 47
37 54 48
36 52 47
36 54 48
36 53 47
35 54 48
34 52 47
34 52 46
34 53 47
32 51 46
32 51 46
32 51 46
30 49 44
30 50 45
29 49 44
29 49 44
29 50 45
28 50 45
27 48 44
27 49 45
26 48 44
26 48 43
26 48 44
25 48 44
25 49 44
24 47 43
23 46 42
23 46 42
23 47 43
23 46 42
22 45 41
22 46 42
22 45 41
21 45 42
20 45 41
21 46 42
20 45 41
20 45 41
20 45 41
20 45 41
21 46 42
20 43 40
21 46 42
21 46 42
20 44 40
20 45 41
21 45 42
20 45 41
20 45 41
21 47 43
21 46 42
21 45 42
21 45 41
21 46 42
21 45 41
21 45 42
21 45 41
21 45 41
21 46 42
20 44 40
22 46 43
21 45 41
21 45 41
22 47 43
22 45 41
22 45 41
22 45 41
23 47 43
23 47 43
23 45 41
24 47 43
24 46 42
25 47 43
25 48 44
25 48 44
26 48 43
26 48 44
27 48 44
28 50 45
28 48 44
29 50 45
29 50 45
30 49 44
30 50 45
31 50 45
32 51 46
33 51 46
33 51 46
34 52 47
35 52 46
35 52 47
36 52 47
36 53 47
37 53 48
38 54 48
39 55 50
39 55 49
40 56 50
40 54 48
41 57 51
41 56 49
42 57 51
42 56 50
42 56 50
43 57 51
43 58 51
43 58 51
43 57 51
44 58 52
44 58 52
44 59 52
44 58 52
43 57 51
43 57 50
43 57 50
43 58 51
42 57 51
42 57 51
41 56 50
41 56 50
41 56 50
40 55 49
40 55 49
38 54 48
38 54 48
38 54 48
37 54 48
36 53 47
36 53 47
35 52 46
34 52 47
34 52 47
33 52 46
32 50 45
31 49 45
31 51 46
30 50 45
29 50 45
29 49 45
28 49 45
28 50 45
27 48 44
26 48 43
27 49 45
25 48 43
25 47 43
24 46 42
24 48 43
24 47 43
23 46 42
23 47 43
23 46 42
22 46 42
21 46 42
21 46 43
21 46 42
20 45 41
20 44 40
20 45 41
21 46 43
20 44 41
20 44 41
20 44 41
20 45 41
20 45 41
20 45 42
20 44 40
21 46 42
21 46 42
20 44 41
21 46 42
21 46 42
20 44 41
21 46 42
22 47 43
21 46 43
21 46 42
21 45 41
21 46 42
21 46 42
21 44 41
22 47 43
22 46 42
22 46 42
23 47 43
22 46 42
22 45 41
23 46 42
23 46 42
24 47 43
24 46 42
25 48 44
26 48 44
26 47 43
27 49 44
27 49 44
27 47 43
28 49 44
29 49 45
30 51 46
30 50 45
31 50 45
32 50 45
32 51 46
34 53 48
34 51 46
35 53 48
36 53 48
36 53 48
37 53 47
38 54 48
38 54 48
39 55 49
40 55 49
41 55 49
42 56 50
43 58 51
43 58 51
44 58 52
44 59 52
45 58 52
45 58 51
46 59 52
46 58 52
46 59 52
46 58 51
46 59 52
47 59 52
47 60 53
47 59 52
47 59 53
47 60 53
46 59 52
46 59 53
46 60 53
46 60 53
46 60 53
45 59 53
45 58 52
45 60 53
43 56 50
43 57 51
43 57 50
42 58 52
41 56 50
41 56 50
40 56 50
39 54 48
39 56 50
37 54 48
37 53 48
36 53 47
35 53 48
34 52 46
34 52 47
33 52 47
32 51 46
32 51 46
31 50 45
30 50 45
29 49 44
28 47 43
28 48 44
27 48 44
27 48 43
26 47 42
26 48 44
25 47 43
25 48 43
24 48 43
23 46 42
23 46 42
24 47 43
20 45 41
20 45 41
21 46 42
20 44 41
20 44 41
20 45 41
19 42 39
20 44 41
21 46 42
20 44 41
21 46 42
20 43 40
20 44 41
20 45 41
21 46 42
21 46 42
21 46 42
21 45 41
21 46 42
21 46 42
21 46 42
21 46 42
21 45 42
21 44 41
22 46 42
21 45 41
22 46 42
22 47 43
22 45 42
23 47 43
22 45 42
23 46 42
23 47 43
24 47 43
24 47 43
24 46 42
25 48 43
25 47 42
26 48 44
26 47 43
27 48 43
27 47 43
28 48 44
29 48 44
30 49 44
30 50 45
31 48 44
32 51 46
33 51 46
34 52 47
35 53 47
36 53 48
37 54 48
37 53 47
38 55 49
39 55 49
40 55 49
41 55 49
42 56 50
43 57 51
43 57 51
44 58 51
45 58 52
46 59 52
46 59 52
47 60 53
48 60 53
48 60 53
49 62 55
49 60 53
49 61 54
50 62 55
50 63 56
50 62 55
51 62 55
51 62 55
51 63 55
51 63 56
51 63 55
50 62 55
50 63 55
50 62 55
49 61 54
49 61 54
49 61 54
48 61 54
48 59 52
47 60 53
46 59 52
46 60 53
45 59 53
45 60 53
44 59 52
43 57 51
42 56 50
41 56 50
40 56 50
39 55 49
39 56 50
38 55 49
37 53 48
36 54 48
35 51 46
34 52 47
33 52 46
32 51 46
31 49 44
31 50 45
30 49 44
29 49 44
29 49 45
28 48 43
27 48 44
26 47 42
26 47 43
25 47 42
25 47 43
25 48 43
24 47 43
24 47 43
20 44 41
20 45 41
20 45 41
21 46 43
20 43 40
20 44 41
20 44 41
21 45 42
20 44 40
20 45 41
21 46 42
21 45 41
21 46 42
21 45 42
20 43 40
21 46 42
21 45 42
20 45 41
21 45 41
21 45 41
20 44 41
21 45 41
21 46 42
21 45 41
22 46 42
21 45 41
22 45 42
22 46 42
23 46 42
22 45 42
23 47 43
23 46 42
24 48 43
24 45 41
25 48 43
25 46 42
26 49 44
26 48 43
27 48 44
28 48 44
28 49 45
29 49 44
29 49 44
31 50 46
31 50 45
32 50 46
33 51 46
34 52 47
35 53 47
36 53 47
37 54 48
38 54 48
39 54 48
40 55 49
41 56 49
42 56 50
43 57 51
44 59 52
45 59 52
46 59 53
46 59 52
48 61 54
49 61 54
49 61 54
50 63 55
51 63 55
51 62 54
52 63 55
52 64 56
53 64 56
54 65 57
53 63 56
54 65 57
54 65 57
54 65 57
55 65 57
55 65 57
54 64 57
54 65 57
54 64 56
54 65 57
54 64 56
54 65 57
53 65 57
53 64 56
52 63 56
51 63 56
51 62 55
50 62 55
49 62 54
49 61 54
48 62 54
47 59 52
46 59 52
45 58 52
45 59 52
43 57 51
42 56 50
41 56 50
40 56 50
39 55 49
38 55 49
37 53 47
37 54 49
36 53 47
34 51 46
34 53 47
33 52 47
32 51 46
31 50 46
30 51 46
29 49 44
29 49 45
28 48 43
28 50 45
27 48 44
26 47 43
26 48 43
25 48 44
25 47 43
21 46 42
20 45 41
20 45 41
20 45 41
20 45 41
21 46 42
20 45 41
20 45 41
20 44 41
20 45 41
20 44 40
20 45 41
20 45 41
21 45 42
20 45 41
21 45 42
21 46 42
20 44 41
20 44 41
22 47 43
22 47 43
21 46 42
21 46 42
22 46 42
22 47 43
22 45 41
22 46 42
22 45 42
23 45 42
23 47 43
23 46 42
23 45 41
24 47 43
25 47 43
26 48 44
26 48 44
27 48 43
28 49 44
28 48 44
29 49 44
30 50 45
31 51 46
31 51 46
32 50 46
33 52 47
34 52 47
35 52 47
36 52 47
37 54 48
38 54 49
39 55 49
41 56 50
41 55 49
43 57 51
43 57 50
45 58 52
46 59 52
47 60 53
48 60 53
49 62 55
50 62 55
51 63 55
52 64 56
53 64 56
53 64 57
54 65 57
55 66 58
56 66 58
56 67 59
57 67 58
57 67 59
58 67 58
58 67 59
58 68 60
59 68 60
59 68 60
59 69 60
59 68 59
59 68 60
58 68 59
58 68 59
58 68 60
57 67 58
57 67 58
56 66 58
56 65 57
56 66 58
55 65 57
54 64 56
53 64 56
52 63 55
52 63 56
50 61 54
50 62 55
48 60 53
48 60 53
47 60 53
46 60 53
44 58 52
43 57 50
42 57 50
41 56 50
40 54 49
39 55 50
38 54 48
37 53 48
36 53 48
35 53 48
34 52 47
33 51 46
32 51 46
31 50 45
31 51 46
30 50 46
29 50 45
28 49 44
27 48 43
26 47 43
26 47 43
26 48 44
20 45 41
21 46 42
20 44 41
21 46 42
20 45 41
21 47 43
21 47 43
20 45 42
20 45 41
20 44 40
21 46 42
20 45 41
21 45 42
21 45 41
21 47 43
21 45 42
20 44 40
21 45 41
21 45 41
21 45 41
22 46 42
22 47 43
22 46 42
22 47 43
22 45 42
23 46 42
23 47 43
23 47 43
23 46 42
24 46 42
24 47 42
24 46 42
25 47 43
26 49 44
26 47 43
27 47 43
28 48 44
28 48 44
29 48 44
30 49 45
32 51 46
32 50 45
33 51 46
34 52 47
35 53 48
36 53 48
38 54 49
39 55 49
40 56 50
41 55 49
42 56 49
43 57 51
44 57 51
45 58 52
47 60 53
48 60 53
49 62 54
50 61 54
51 63 56
52 64 56
54 64 56
55 65 57
56 66 58
57 66 58
57 67 59
58 68 59
59 69 60
60 69 60
60 69 60
61 70 61
62 70 61
62 71 62
62 70 61
63 71 62
63 71 62
63 71 61
63 71 62
63 71 62
63 70 61
63 71 62
62 71 62
62 70 61
61 70 61
61 70 61
61 69 61
60 69 60
59 68 59
59 68 59
58 68 59
57 66 58
56 67 59
55 66 58
54 65 57
53 64 56
52 64 56
51 62 55
50 62 55
49 61 54
47 60 53
46 59 52
45 59 52
44 59 53
43 56 50
42 57 50
40 55 49
40 56 50
38 54 48
37 53 48
36 52 47
35 52 47
34 51 46
33 51 46
32 51 46
31 50 45
30 50 45
30 50 45
28 48 44
28 49 45
27 49 44
27 48 44
20 44 41
20 43 40
20 45 41
21 46 42
20 45 41
20 45 41
20 45 41
20 45 41
20 45 41
20 45 41
20 43 40
21 46 42
20 44 41
20 45 41
21 46 42
21 46 42
21 45 42
21 45 41
22 46 42
22 46 42
22 46 42
22 46 42
22 45 41
22 46 42
23 46 42
23 47 43
23 47 43
24 47 43
24 46 42
24 46 42
25 46 42
26 47 43
26 46 42
27 48 43
29 51 46
28 49 44
29 48 43
30 49 44
31 49 44
32 51 46
33 51 45
34 51 46
35 53 47
36 53 48
37 53 47
39 54 49
40 55 49
41 56 50
42 57 50
44 57 51
45 58 51
46 59 53
47 60 53
49 62 55
50 61 54
51 62 55
53 64 57
54 64 56
55 65 57
56 67 58
57 67 58
58 68 59
59 69 60
60 69 61
61 69 60
62 71 62
63 72 63
64 72 62
64 72 63
65 73 63
66 74 64
66 74 64
66 73 63
67 74 64
67 75 65
67 74 64
67 74 65
67 74 64
67 74 65
67 75 65
67 74 64
66 74 64
66 74 65
65 73 63
65 73 63
64 72 63
64 72 63
63 71 62
62 70 62
61 69 60
60 69 60
59 68 60
58 66 58
57 66 58
56 66 58
54 64 57
54 65 57
52 64 56
51 63 56
50 62 55
48 61 54
47 59 52
46 59 53
44 57 51
43 57 51
42 57 50
41 55 49
40 55 49
38 53 47
37 55 49
36 53 47
35 52 47
34 52 47
33 51 46
32 50 45
31 51 46
30 50 45
30 50 45
28 48 44
28 48 44
20 45 41
20 45 42
21 46 42
20 45 42
20 45 41
21 46 42
20 44 41
20 45 41
20 44 40
20 45 41
21 45 41
20 45 41
21 45 42
20 44 40
21 46 43
21 45 41
21 45 41
21 45 42
21 45 41
22 46 42
22 45 42
22 46 42
22 46 42
22 46 42
23 46 42
23 46 43
23 45 41
24 46 42
24 46 42
25 47 43
26 48 43
27 48 44
27 48 44
28 49 44
29 49 45
30 51 46
30 49 44
31 50 45
33 51 46
34 53 47
35 53 47
36 53 47
37 53 48
38 54 48
40 55 49
41 55 49
42 56 50
44 58 52
45 59 52
46 59 52
48 61 54
49 61 54
50 61 54
52 62 55
53 63 55
55 66 58
56 66 58
57 67 59
59 69 60
60 68 60
61 71 62
62 70 61
63 71 62
65 72 63
66 73 63
66 74 64
67 75 65
68 75 65
69 76 66
69 76 66
70 76 66
70 76 66
71 77 67
71 77 66
72 78 68
72 78 67
72 78 68
72 78 67
72 78 67
71 77 67
71 77 67
71 77 67
71 78 67
70 77 67
69 76 66
68 75 65
68 74 65
67 75 65
66 73 63
65 73 63
64 72 63
63 70 61
62 70 61
61 70 61
60 69 60
58 67 59
57 67 59
56 66 58
54 64 57
53 64 56
52 63 56
50 62 55
48 60 53
47 61 54
46 59 53
45 58 52
43 58 51
42 56 50
41 55 49
39 55 49
38 55 49
37 54 48
36 52 47
35 53 47
33 51 46
33 51 46
31 50 45
30 48 44
30 50 45
29 49 44
20 45 41
20 44 41
20 45 42
20 45 41
20 45 41
20 44 41
20 44 41
20 44 41
20 45 41
21 46 42
20 44 40
21 45 41
21 46 42
21 45 41
21 45 41
21 45 41
21 45 41
21 45 42
22 46 42
21 45 41
22 45 42
22 44 40
22 45 41
23 45 41
23 46 42
23 45 42
24 47 43
25 47 43
26 49 45
26 47 43
27 48 44
27 47 42
29 49 45
29 49 45
30 50 45
31 49 45
33 52 47
33 51 46
35 53 47
36 53 48
37 54 48
38 54 48
39 54 48
41 56 49
42 57 50
44 59 52
45 58 51
46 58 52
48 60 53
49 60 53
51 63 56
52 63 56
54 64 56
55 65 57
57 67 59
58 66 58
60 69 60
61 69 60
62 70 61
64 71 62
65 72 63
66 74 64
67 75 65
69 76 66
70 76 66
71 77 67
72 78 67
72 78 67
73 79 69
74 79 68
75 80 69
75 81 70
76 81 70
76 81 70
76 82 71
76 82 71
76 81 70
77 81 70
76 81 70
76 81 70
76 81 70
75 80 69
75 80 69
74 80 69
74 80 69
73 79 69
72 79 68
71 77 67
70 77 66
69 75 65
68 75 65
67 74 64
66 73 64
65 72 63
63 71 62
62 71 62
61 69 60
59 69 61
58 67 58
56 66 58
55 65 57
53 65 57
52 63 56
50 62 54
49 61 54
47 60 53
46 59 53
44 58 51
43 57 51
42 56 50
41 56 50
39 54 49
38 55 49
36 53 47
35 52 46
34 52 46
33 51 46
32 50 45
31 50 45
30 48 44
20 45 41
20 45 41
21 46 42
20 43 40
21 45 41
20 45 41
20 44 40
21 45 42
20 45 41
21 45 42
20 44 41
21 45 42
21 45 41
21 44 41
21 46 42
22 46 42
22 46 42
22 45 42
22 45 41
22 46 42
22 45 42
22 45 41
23 45 41
23 46 42
24 47 43
25 47 43
25 46 42
26 47 43
26 47 43
27 47 43
28 49 44
29 49 44
30 49 45
31 50 45
32 50 46
33 51 46
34 51 46
35 52 47
36 53 47
38 54 48
39 56 50
40 56 50
41 56 50
43 56 50
44 58 51
46 59 52
47 59 52
49 61 54
50 62 54
52 64 56
54 65 57
55 65 57
57 66 58
59 69 60
60 70 61
62 69 61
63 71 62
65 73 63
66 73 63
68 75 65
69 75 65
70 76 66
72 78 67
73 79 68
74 80 69
75 81 70
76 80 69
77 82 71
78 83 72
79 83 72
79 83 71
80 84 73
80 84 72
81 85 73
81 85 73
81 85 73
81 85 73
81 86 74
81 85 73
81 85 74
80 85 73
80 85 73
79 83 72
79 83 72
78 84 72
77 82 71
77 82 71
76 81 70
75 81 70
74 79 69
72 78 68
71 78 67
70 77 67
69 75 65
67 75 65
66 73 64
64 71 62
63 71 62
61 69 60
60 69 60
58 67 58
57 67 59
55 65 57
54 65 57
52 62 55
51 63 55
49 61 54
47 60 53
45 57 51
44 57 51
43 56 50
42 57 51
40 56 50
38 53 47
38 54 48
36 52 47
35 52 46
34 52 47
33 51 46
31 50 45
20 44 41
20 44 41
20 45 41
20 45 42
20 44 40
21 47 43
20 44 40
21 45 42
21 45 42
21 45 42
20 44 40
21 45 41
21 45 41
21 45 41
22 46 42
21 44 41
22 46 42
22 45 42
22 45 41
22 45 41
23 46 42
23 46 42
24 46 42
24 47 43
24 46 42
25 47 43
26 47 42
27 48 44
27 48 44
28 48 44
29 50 45
31 51 46
30 48 44
32 51 46
34 53 48
35 53 47
35 52 47
37 53 47
38 54 48
39 54 48
41 57 51
43 57 51
44 57 50
46 59 52
47 59 52
49 61 54
51 63 55
52 63 56
54 65 57
55 65 57
57 67 59
59 68 59
61 69 61
62 70 61
64 71 62
65 73 63
67 74 65
69 75 65
70 77 67
72 77 67
73 79 68
74 79 68
76 81 70
77 82 71
78 83 72
80 84 73
81 85 74
81 85 73
83 87 75
83 87 75
84 87 75
84 88 76
85 89 76
85 90 77
85 88 76
86 90 77
86 89 77
86 89 77
85 88 76
85 89 76
85 89 77
85 88 76
84 88 76
83 87 75
83 87 75
82 86 74
81 85 73
80 84 73
79 84 73
78 83 71
77 82 71
75 81 70
74 80 69
73 79 68
71 77 67
70 77 67
68 75 65
67 74 64
65 73 63
64 72 63
62 70 61
60 69 60
58 67 59
57 66 57
55 65 57
53 64 56
52 63 56
50 62 55
48 60 53
47 59 52
46 59 52
44 58 52
42 56 50
41 56 50
40 55 49
38 53 47
37 53 47
35 52 46
34 51 46
34 52 47
20 45 41
20 44 41
21 45 42
20 44 40
20 44 40
21 46 42
21 45 41
21 46 42
20 44 41
20 44 40
20 44 41
21 45 41
21 45 42
21 46 42
22 46 42
22 45 41
22 45 41
22 45 42
23 46 42
23 47 43
23 46 42
24 47 43
24 46 42
25 46 42
25 47 43
26 47 43
27 48 44
27 48 43
28 48 44
29 49 44
30 49 45
31 48 44
32 49 45
34 53 48
34 51 46
36 52 47
37 53 47
38 53 48
40 54 48
41 55 49
43 57 51
45 57 51
47 60 53
48 61 54
50 61 54
52 64 56
53 64 56
55 66 58
57 66 57
59 68 59
60 70 61
62 70 61
64 71 62
66 73 63
67 75 65
69 76 66
71 78 68
73 78 68
74 79 69
76 81 70
77 82 71
79 84 72
80 85 73
81 85 73
83 87 75
84 87 75
85 88 76
86 89 77
87 89 77
88 91 79
88 91 78
89 92 79
90 92 79
90 93 80
90 92 79
91 93 80
91 93 80
91 93 80
90 93 80
90 93 80
90 92 79
89 92 79
89 92 79
88 91 78
87 90 78
86 89 77
85 89 76
85 88 76
83 87 75
82 86 74
81 85 73
80 84 72
78 83 72
77 82 71
75 80 69
74 79 68
72 79 68
70 77 66
69 76 66
67 74 64
66 73 64
64 71 62
62 70 61
60 69 60
58 67 59
57 66 58
55 65 57
53 64 56
51 63 56
49 61 53
48 60 53
47 60 53
45 58 51
43 56 50
42 56 50
40 55 49
39 54 48
37 53 48
36 53 47
35 53 47
20 45 41
20 44 40
20 44 41
20 44 40
20 45 41
21 45 42
20 44 41
21 46 42
21 46 42
21 45 41
21 45 41
21 45 41
21 46 42
22 46 42
21 45 41
22 45 42
22 45 42
22 45 41
23 47 43
23 46 42
24 46 42
24 45 41
25 47 43
26 48 44
26 48 44
28 49 45
27 47 43
28 48 44
29 49 44
31 50 45
31 50 45
33 51 46
34 51 46
35 52 46
36 53 48
38 54 48
39 55 50
41 56 50
42 57 51
44 57 51
46 60 53
47 59 52
49 61 54
51 62 54
53 64 56
54 64 56
56 66 57
58 67 59
60 68 59
62 70 61
64 71 62
66 73 63
68 74 64
69 76 66
71 78 67
73 79 68
75 80 69
77 81 70
78 84 72
80 84 73
81 86 74
83 87 75
84 88 75
86 89 77
87 90 78
89 91 78
90 93 79
90 93 79
92 94 80
93 95 82
93 94 81
94 96 82
94 95 82
95 96 82
95 97 83
95 97 83
95 97 83
95 97 83
95 97 83
95 97 83
95 97 83
94 96 82
94 95 82
93 95 81
92 94 81
91 94 81
90 93 80
89 92 79
88 91 79
87 91 78
86 89 77
84 87 75
83 86 75
81 85 73
79 83 71
78 83 71
76 81 70
74 79 69
73 79 69
71 78 68
69 75 65
67 74 64
66 74 64
63 71 62
62 70 61
60 69 60
58 67 59
56 66 58
54 64 57
52 63 56
50 61 54
49 61 54
47 59 53
45 59 52
44 57 51
42 57 51
41 56 50
39 53 48
38 53 47
37 54 48
20 45 41
20 44 40
20 45 41
20 45 41
21 46 42
20 44 40
20 44 41
21 46 42
21 45 42
21 45 42
22 46 42
21 45 42
21 45 41
21 45 41
21 44 41
22 45 42
22 45 41
23 46 42
24 47 43
24 47 43
24 47 43
25 46 42
25 46 42
26 47 43
27 49 44
28 48 44
29 49 44
30 49 45
31 49 45
32 50 45
33 51 45
34 51 46
36 53 48
36 52 47
38 53 47
39 54 48
41 56 50
43 56 50
44 57 51
46 59 52
48 59 52
50 61 54
52 63 56
53 64 56
55 65 57
57 66 58
59 68 59
61 69 60
63 70 61
65 73 63
67 75 65
69 76 66
71 78 68
73 78 68
75 80 69
77 82 71
79 83 72
80 84 72
82 87 75
84 87 75
86 89 76
87 90 77
89 91 78
90 92 79
91 93 80
93 95 81
94 96 82
95 97 83
96 98 84
97 98 84
98 98 84
99 101 86
99 100 86
100 101 87
100 101 86
100 101 87
100 101 87
100 101 87
100 101 86
100 100 86
100 101 87
99 99 85
98 99 85
98 99 85
97 98 84
96 98 84
95 98 84
94 96 82
92 95 81
91 93 80
90 93 80
89 91 78
87 90 78
85 88 76
84 87 75
82 85 73
80 84 73
78 83 72
76 81 70
74 80 69
73 78 68
71 77 67
69 76 66
67 74 64
65 72 63
63 72 62
61 70 61
59 68 59
57 67 59
55 65 57
53 64 56
51 63 55
50 62 54
48 60 53
46 59 52
44 58 51
43 57 51
41 55 49
40 55 49
39 55 49
20 45 41
20 44 41
20 44 40
20 44 40
20 43 40
21 46 42
20 44 41
21 46 42
20 44 40
21 45 41
22 47 43
21 45 41
22 46 42
22 45 41
22 45 41
23 46 42
23 46 42
23 45 41
24 46 42
24 46 42
25 47 43
25 47 43
26 46 42
27 48 44
28 48 43
28 48 43
30 49 44
30 48 44
32 50 45
33 51 46
34 52 47
35 52 47
37 53 47
38 53 48
40 55 49
42 57 50
43 55 49
45 58 52
46 58 51
48 60 53
50 62 55
52 63 56
54 64 57
56 65 57
58 67 58
60 69 60
62 69 60
65 73 64
66 73 63
68 75 65
70 77 66
73 79 68
74 80 69
77 83 72
79 83 72
80 84 73
82 86 74
84 87 75
87 90 78
88 91 78
90 92 79
92 94 81
93 95 81
95 97 83
96 98 84
97 98 84
99 100 85
100 101 86
101 102 87
102 102 88
102 103 88
103 103 88
104 104 89
104 105 90
104 105 90
105 105 90
105 105 90
105 105 90
105 105 90
105 104 89
104 105 90
103 103 88
103 103 88
102 102 88
101 102 87
101 102 87
100 101 86
98 100 85
97 99 84
96 97 83
94 96 82
93 95 81
91 93 80
89 92 79
88 91 79
86 89 77
84 89 76
82 86 74
80 85 73
78 83 72
77 82 71
74 80 69
72 78 67
70 76 66
68 75 65
66 73 64
64 71 62
62 71 62
60 69 61
58 68 60
56 66 58
55 66 58
52 63 56
50 61 54
48 60 53
47 60 53
45 58 51
44 58 51
42 57 51
41 56 50
20 44 41
21 45 42
20 44 41
20 44 41
20 44 40
21 46 42
21 45 42
21 44 41
21 45 41
21 45 41
21 44 41
21 44 40
22 46 42
22 45 41
22 45 41
23 45 42
23 46 42
24 47 43
24 47 43
25 47 43
25 46 42
26 47 43
27 47 43
28 47 43
29 48 44
30 49 45
31 49 45
31 49 44
33 51 46
35 52 47
36 52 46
37 53 48
39 54 48
40 56 50
42 56 50
44 58 51
45 59 52
47 60 53
49 60 53
51 62 55
53 63 55
55 65 57
57 66 58
59 68 60
61 70 61
63 71 62
65 73 63
67 74 64
69 76 66
72 78 68
74 79 68
76 81 70
78 83 71
80 85 73
83 87 75
84 88 76
87 90 77
88 91 78
90 93 80
92 94 81
94 96 82
95 97 83
97 99 85
99 100 85
100 101 86
102 102 87
103 103 88
104 104 89
105 105 90
106 107 91
107 107 91
108 107 91
109 108 92
109 109 93
109 109 93
110 109 93
109 109 93
110 109 93
110 109 93
109 109 93
109 108 92
108 108 92
108 107 92
107 107 92
106 106 90
105 105 90
104 104 89
103 104 89
102 102 87
100 101 87
98 99 85
97 99 85
95 96 83
94 96 82
92 94 81
90 93 80
88 91 78
87 90 78
84 88 76
82 86 74
80 84 72
78 82 71
76 80 70
74 79 68
72 78 67
70 77 67
68 75 65
65 73 63
63 71 62
61 70 61
59 68 59
57 67 59
55 66 58
53 63 56
51 63 56
49 60 53
47 59 53
46 58 52
44 58 52
42 56 49
20 44 41
20 45 41
21 45 41
20 44 40
21 46 42
21 45 42
21 44 41
21 44 40
21 44 40
21 44 41
22 45 42
21 44 41
22 46 42
23 46 43
23 46 42
23 46 42
24 46 42
24 45 41
25 46 42
25 46 42
26 47 43
27 48 44
28 47 43
29 49 45
30 50 45
31 49 44
32 50 45
33 50 45
34 51 46
36 52 46
37 53 47
39 54 49
40 55 49
42 55 49
44 57 51
45 58 51
47 59 52
49 61 54
51 62 55
53 64 56
55 65 57
57 67 59
59 67 59
62 70 61
64 72 62
66 73 63
68 75 65
70 76 66
73 78 68
75 80 69
77 82 71
80 84 73
82 86 74
84 87 75
86 89 76
88 91 78
90 93 80
93 95 82
94 96 82
96 98 84
98 99 85
100 100 86
102 103 88
103 104 89
105 105 89
106 106 91
107 107 91
109 108 93
110 109 93
111 110 94
112 111 94
113 112 95
113 112 96
114 113 96
114 113 97
114 113 97
115 113 97
114 113 97
114 113 97
114 112 96
114 113 96
113 112 96
113 111 95
112 111 94
111 109 93
110 109 93
109 109 93
108 107 92
106 106 90
105 104 89
103 103 88
102 102 88
100 100 86
98 99 85
96 98 84
94 96 83
92 95 81
90 93 80
88 91 78
86 89 77
84 88 75
82 86 74
80 84 72
78 84 72
75 81 70
73 78 67
71 77 66
68 75 65
66 73 64
64 72 62
62 70 61
60 68 60
58 67 59
56 66 58
53 64 56
52 62 55
50 61 54
48 60 53
46 58 52
44 57 51
20 44 41
20 45 41
20 44 40
20 44 40
20 43 39
21 44 41
21 45 42
21 45 41
21 44 41
22 45 42
22 47 43
22 46 42
23 46 42
23 46 42
23 46 42
23 45 41
24 46 42
25 46 42
26 48 44
26 48 43
27 47 43
28 49 45
29 48 43
30 49 44
31 49 45
32 49 45
33 51 46
34 52 46
36 52 47
37 52 47
39 55 49
40 54 48
42 56 50
44 57 51
46 59 53
47 59 52
49 61 54
51 62 55
53 63 56
56 65 57
58 68 59
60 69 60
62 71 62
64 71 62
67 74 65
69 75 65
71 78 68
74 78 68
76 81 70
79 83 72
80 84 72
83 87 75
85 88 75
88 90 77
90 92 79
92 93 80
94 97 83
96 98 84
99 100 86
100 101 87
102 102 87
104 105 90
106 106 91
108 107 91
109 109 93
111 110 94
112 111 95
113 112 96
114 113 96
116 114 97
116 115 98
117 115 98
118 116 98
118 116 99
119 116 99
119 116 99
119 117 100
119 117 100
119 117 99
119 117 100
118 117 99
118 116 99
117 116 99
116 115 98
115 114 98
114 112 96
113 113 96
112 111 94
111 110 94
109 108 92
108 107 91
106 105 90
104 104 89
102 103 88
100 102 87
98 99 85
96 98 84
94 96 82
92 94 81
90 92 79
88 91 78
85 88 76
83 87 75
81 86 74
79 83 72
76 81 70
74 79 69
71 77 67
69 75 66
67 74 64
65 72 63
62 69 60
60 68 60
58 67 58
56 66 58
54 64 56
52 62 55
50 62 55
48 61 54
46 59 53
21 46 42
20 45 41
21 45 41
21 46 42
21 44 41
21 45 42
21 45 41
21 44 41
21 44 41
22 45 42
22 45 41
22 45 41
23 46 42
23 46 42
24 48 44
24 45 41
25 47 43
25 46 42
27 48 44
27 48 44
28 48 44
29 49 44
30 49 45
31 50 45
32 50 45
33 50 45
35 52 47
36 53 48
37 53 48
39 54 48
41 56 50
42 57 50
44 57 51
45 58 51
48 60 53
50 61 54
51 62 54
54 64 57
55 65 57
58 67 59
60 68 60
62 70 61
65 73 63
67 74 64
69 76 66
72 77 67
74 79 69
77 82 71
79 83 72
81 85 74
84 88 76
86 90 77
89 91 78
91 93 80
94 96 82
96 98 84
98 100 85
100 101 86
102 103 88
105 105 89
106 106 90
108 108 92
110 109 93
112 111 94
113 113 96
115 113 96
116 115 98
118 116 99
119 117 100
120 118 100
121 118 101
122 119 102
122 120 102
123 121 103
123 121 103
124 121 103
124 121 103
124 121 103
124 121 103
123 121 103
123 121 103
122 120 103
122 119 101
121 119 101
120 117 100
119 117 100
118 116 99
116 115 98
115 113 97
114 112 96
112 111 94
110 109 93
108 108 92
106 106 91
105 105 90
102 103 88
100 101 87
98 99 84
96 97 84
94 95 81
91 94 80
89 92 79
87 90 78
84 87 75
82 86 74
79 83 72
77 82 71
75 80 69
72 79 69
70 77 67
68 74 65
65 72 63
63 71 62
61 69 60
58 67 59
56 67 58
54 64 56
52 62 54
50 62 55
48 60 53
20 44 41
20 44 40
21 45 41
20 44 40
20 44 40
21 45 42
21 44 41
21 44 41
22 45 41
23 47 43
23 46 42
23 45 41
23 45 41
24 46 42
24 47 43
25 46 42
25 46 42
26 47 43
26 46 42
28 48 44
29 48 44
29 48 44
31 49 45
32 50 46
33 49 45
34 51 46
36 54 48
37 53 48
39 54 48
40 55 49
42 56 50
44 58 51
46 59 52
48 60 53
49 60 53
51 61 54
53 63 56
56 67 59
58 67 58
60 69 60
63 71 62
65 72 63
68 75 65
70 76 66
72 79 68
75 80 69
77 82 71
80 85 73
83 87 75
85 88 76
87 90 78
90 93 80
92 94 81
95 96 83
97 98 84
100 100 86
102 103 88
104 104 89
106 106 90
108 108 92
111 110 94
112 111 95
114 112 96
116 115 98
118 116 99
120 118 100
121 119 101
122 120 102
123 121 103
124 122 103
125 123 104
126 124 105
127 124 105
128 124 106
128 125 106
128 125 107
128 126 107
129 125 106
128 125 107
128 124 105
127 125 106
127 124 105
126 124 105
126 123 105
124 121 103
123 121 103
122 119 101
121 119 101
119 117 99
118 116 99
116 115 98
114 113 97
112 111 95
110 110 94
108 108 92
106 106 91
104 104 89
102 102 87
100 101 86
97 98 84
95 96 82
93 95 81
90 92 79
88 91 78
85 88 75
83 87 75
80 84 73
78 82 71
75 81 70
73 78 68
70 77 67
68 75 66
66 73 63
63 72 63
61 69 60
59 67 59
57 66 58
55 65 57
53 63 56
50 62 55
22 47 43
21 46 42
21 44 41
21 45 41
21 46 42
21 45 41
21 45 41
22 46 42
22 45 41
23 46 42
23 45 41
23 45 41
24 46 42
24 46 43
24 45 42
25 47 42
26 47 43
27 47 43
28 48 44
28 48 44
30 49 45
31 49 45
32 50 46
33 50 45
34 51 46
36 52 47
37 54 48
38 53 47
40 54 48
42 56 50
44 58 51
45 58 51
47 60 53
49 61 54
51 62 55
54 64 57
56 65 57
58 66 58
60 69 60
63 70 61
65 72 63
68 75 65
70 77 67
73 78 68
75 80 69
78 82 70
80 84 73
83 86 74
85 89 76
88 91 78
91 93 80
93 95 81
96 98 84
98 99 85
101 102 87
103 104 89
106 106 91
108 108 92
110 110 93
113 112 95
115 114 97
117 115 98
118 116 99
120 118 100
122 120 102
124 122 103
125 122 104
127 124 105
128 125 106
129 126 107
130 126 107
131 127 108
131 128 109
132 128 109
133 129 109
133 129 109
133 129 110
133 129 110
133 129 109
132 129 109
132 128 109
131 127 108
131 127 108
130 127 108
129 126 107
128 125 106
126 123 104
125 122 104
123 121 103
122 119 101
121 118 101
119 117 100
117 115 98
115 114 97
113 112 95
110 110 94
108 108 92
106 106 91
103 103 88
101 102 87
99 100 85
96 97 83
94 95 82
91 93 80
89 92 79
86 89 76
84 87 75
81 84 73
78 83 71
76 81 70
74 79 69
71 77 67
68 76 66
66 74 64
64 72 62
61 69 60
59 67 59
57 67 58
55 65 57
52 63 55
21 45 41
20 44 40
20 44 40
21 44 40
21 45 41
21 45 41
22 46 42
21 44 40
22 45 41
23 46 42
23 45 41
23 46 42
24 46 42
25 47 43
25 45 41
25 46 42
27 48 44
27 48 44
28 48 44
29 49 44
30 49 44
32 50 46
32 49 44
34 51 46
35 52 47
37 53 47
38 54 48
40 54 48
41 55 49
43 56 50
45 58 52
47 59 52
49 61 54
52 63 55
53 64 56
55 64 56
58 67 59
60 68 60
63 71 62
65 73 63
68 74 64
70 76 66
73 78 67
75 81 70
78 82 71
81 85 73
83 87 75
86 89 77
89 92 79
91 93 80
94 95 82
97 98 84
99 101 87
102 102 88
104 105 89
107 107 91
109 109 93
112 110 94
114 113 96
116 115 98
118 116 99
121 119 101
123 120 102
125 122 104
126 123 105
128 125 106
129 126 107
131 128 109
132 128 109
133 130 110
134 130 111
135 131 111
136 132 112
137 132 112
137 133 113
137 133 113
137 133 113
137 133 113
137 133 113
137 133 113
136 132 112
136 131 111
135 131 111
134 130 110
133 129 109
132 128 109
131 127 108
130 126 107
128 125 107
126 123 105
124 121 103
123 120 102
121 119 101
119 117 99
117 115 98
114 113 96
112 111 94
110 109 93
107 107 91
105 105 90
102 103 88
100 101 87
97 98 84
95 96 83
92 94 81
89 92 79
87 90 77
84 88 75
81 85 73
79 83 72
76 82 71
74 80 69
71 77 67
69 75 65
66 74 65
64 72 63
61 70 61
59 68 59
57 66 58
55 65 57
20 43 40
20 43 40
21 46 42
21 45 41
21 45 41
21 44 40
22 46 42
23 47 43
23 46 42
23 45 41
23 45 41
24 47 43
24 46 42
25 47 43
26 47 43
27 48 44
27 47 42
28 48 44
29 48 44
30 49 44
31 50 45
32 50 45
34 50 45
35 52 47
37 53 48
38 54 49
39 53 48
41 54 48
43 56 50
45 58 51
47 58 52
49 61 54
51 62 55
53 64 56
56 66 58
58 67 58
60 68 59
62 70 61
65 72 63
68 74 65
70 75 65
73 78 68
75 80 69
78 82 71
81 85 73
84 88 76
86 90 77
89 92 79
92 94 80
94 96 82
97 99 84
100 101 87
103 103 88
105 105 90
108 107 91
111 110 94
113 113 96
116 114 97
118 116 99
120 118 101
123 120 102
124 121 103
126 123 105
128 126 107
130 127 108
132 129 110
133 130 110
135 130 111
136 132 112
137 133 113
138 134 114
139 134 114
140 135 115
141 136 115
141 136 115
141 136 116
142 137 116
142 137 116
141 136 116
141 136 115
141 136 115
140 135 115
139 135 114
138 134 114
137 133 113
136 132 112
135 131 111
133 130 110
132 128 109
130 127 108
129 126 107
127 124 105
125 122 104
123 120 102
120 119 101
118 116 99
116 114 97
113 112 96
111 110 93
108 108 92
106 106 91
103 104 89
101 102 87
98 99 85
95 97 83
92 94 80
90 92 79
87 90 78
84 87 75
82 86 74
79 83 72
76 81 70
74 79 69
71 76 66
69 75 66
66 74 64
64 71 62
61 70 61
59 68 59
57 66 58
