P3
120 80
255
17 39 37
17 39 36
17 38 36
18 40 38
17 40 37
17 39 36
17 40 38
17 40 37
17 40 37
17 39 37
17 40 37
17 39 37
17 39 37
17 39 37
17 39 37
17 39 37
17 39 37
17 39 37
17 39 37
17 39 37
17 40 38
18 40 38
17 39 36
17 39 37
17 39 37
17 40 37
17 39 37
17 39 37
17 39 37
17 39 37
17 40 37
17 39 37
17 39 37
17 40 37
17 39 37
18 40 38
17 39 37
17 40 37
17 39 37
17 39 37
17 39 37
17 39 37
17 38 36
17 39 37
18 40 38
17 39 37
17 40 37
17 39 36
17 39 37
17 39 37
17 39 37
17 39 37
17 39 37
17 40 37
18 40 38
17 39 37
17 39 37
17 40 37
17 39 37
18 40 38
17 39 37
17 39 37
17 39 37
17 40 37
17 40 37
17 40 37
17 40 37
18 40 38
18 40 37
17 38 36
17 39 37
18 40 38
17 40 37
17 39 36
18 41 38
18 40 38
17 39 37
17 39 37
18 40 38
17 39 36
18 40 38
18 40 38
17 39 37
18 40 38
17 39 37
18 40 38
17 39 37
18 40 38
17 39 37
17 39 36
17 39 37
18 40 38
18 41 38
18 41 38
18 40 37
17 40 37
18 40 38
18 40 38
18 40 38
18 40 37
17 40 37
17 40 37
17 39 37
17 39 37
17 40 37
17 39 37
17 39 37
18 40 38
17 38 36
17 39 37
17 40 37
17 39 37
18 41 38
17 40 37
17 40 37
17 39 36
17 39 37
17 40 37
17 39 37
17 39 37
17 40 37
17 40 37
18 41 38
17 39 37
18 40 37
17 40 37
17 40 37
18 40 37
17 40 38
18 40 38
17 39 37
17 38 36
17 39 37
17 39 37
17 39 37
17 39 37
17 40 37
17 39 37
18 41 38
17 40 37
18 40 38
17 40 37
17 40 37
17 40 37
17 39 37
17 39 37
17 40 37
17 39 36
17 39 37
18 40 38
17 39 37
18 40 38
17 39 37
18 40 38
17 39 37
18 40 38
17 40 37
17 39 37
17 39 37
17 40 37
17 40 37
18 40 38
18 41 38
17 40 37
17 40 37
18 41 38
17 40 37
17 40 37
18 40 38
17 39 37
17 40 37
17 39 37
18 40 37
17 39 37
18 40 37
18 40 37
18 40 38
17 39 37
18 41 38
17 39 37
18 41 38
17 40 37
18 40 37
18 40 38
18 40 38
17 39 37
18 41 39
17 40 37
18 40 38
17 39 37
18 41 38
17 40 38
18 40 38
17 39 37
17 40 37
17 40 37
17 40 37
17 39 36
17 39 37
18 40 38
18 40 38
17 39 36
17 40 37
18 40 38
17 39 37
17 40 37
18 40 38
17 39 37
18 40 38
17 40 37
17 39 37
17 40 37
18 40 37
17 39 37
17 39 37
17 39 37
17 40 37
18 40 38
17 39 37
18 40 37
17 39 37
18 40 38
17 39 37
17 40 37
17 40 37
17 39 37
17 40 37
17 40 37
18 40 38
18 41 38
17 39 37
18 40 38
17 40 37
17 40 37
18 40 37
18 40 38
17 39 36
17 40 37
18 41 38
18 40 38
17 40 37
17 40 37
18 40 38
17 40 37
17 40 37
17 40 37
17 40 37
17 39 37
18 40 38
18 40 38
17 39 36
17 40 37
18 40 38
18 41 38
18 40 37
17 39 37
17 39 37
18 40 37
18 41 38
17 40 37
17 40 37
17 39 37
17 39 37
17 40 37
18 40 37
18 40 38
17 39 37
17 40 37
18 40 38
18 40 38
17 39 37
17 39 37
17 40 37
17 39 37
17 40 37
18 40 38
18 41 38
17 39 37
18 41 38
17 40 37
17 40 37
17 39 37
18 41 38
18 40 37
18 41 38
18 40 38
18 40 37
17 40 37
18 40 38
17 39 37
18 40 37
17 40 37
18 40 37
17 39 37
18 41 38
18 41 38
18 41 38
17 40 37
17 40 37
18 40 38
17 40 37
18 40 38
18 40 37
17 40 37
18 40 38
18 41 38
18 40 38
17 39 37
18 40 38
18 40 38
18 40 38
18 41 38
18 40 38
18 40 38
18 40 38
18 40 37
17 39 37
18 40 38
18 40 38
18 40 37
18 41 38
17 39 37
18 41 38
18 41 38
17 40 37
17 39 36
18 41 38
18 40 37
18 40 37
18 40 37
18 41 38
17 40 37
17 39 37
18 40 38
18 40 37
17 40 37
17 40 37
18 40 38
17 40 37
17 39 37
18 40 38
17 39 37
17 39 37
18 40 38
18 41 38
18 40 38
18 41 38
18 40 38
17 39 37
17 40 37
17 40 37
18 40 38
18 41 38
17 40 37
18 41 38
18 40 37
17 39 37
18 40 38
18 40 37
18 40 37
17 39 36
18 41 38
18 40 37
18 40 38
17 39 37
18 40 38
18 40 38
18 40 38
18 40 38
17 40 37
18 40 38
18 40 37
18 41 39
18 40 38
18 41 38
18 40 38
17 39 37
17 40 37
18 40 38
18 41 38
18 40 37
18 41 39
17 40 37
18 41 38
18 41 39
18 41 38
18 40 38
18 41 38
18 40 37
18 40 38
18 40 37
17 40 37
18 40 38
18 40 37
18 41 38
18 41 38
17 40 37
18 41 38
18 41 39
18 40 38
18 40 38
17 39 37
18 40 38
17 40 37
18 41 39
17 40 37
18 40 38
17 39 37
17 40 37
17 40 37
18 40 37
18 40 38
18 40 38
18 40 38
17 39 37
17 40 37
18 41 38
17 39 37
18 40 38
18 40 37
17 40 37
18 41 38
18 40 38
17 39 37
17 39 37
18 40 38
17 39 37
18 41 38
18 41 38
18 40 38
18 41 38
18 40 38
18 40 37
18 41 39
18 41 38
18 40 37
18 41 39
18 40 38
18 40 38
18 41 38
18 41 38
18 41 38
18 40 38
18 40 38
18 41 38
17 40 37
18 41 38
18 41 38
18 40 37
18 40 38
18 40 38
18 41 39
17 40 37
18 40 38
18 40 37
18 40 38
18 40 38
18 40 38
18 40 38
17 40 37
18 40 38
18 40 38
18 40 38
17 39 37
17 39 37
18 41 38
18 41 38
18 40 38
18 40 38
18 40 38
17 40 37
18 41 38
17 39 37
18 40 38
18 40 38
18 41 38
17 40 37
18 41 39
18 40 38
18 40 38
18 40 38
18 40 37
18 40 37
18 40 38
17 39 37
17 40 37
18 40 38
18 41 38
18 40 38
17 40 37
18 40 38
18 40 38
18 41 39
18 40 38
18 40 38
18 40 38
18 41 38
18 40 38
17 40 37
18 40 38
18 42 39
17 40 37
18 40 38
18 40 38
18 40 38
18 41 38
17 40 37
17 39 37
18 41 38
18 41 38
18 41 38
18 41 38
18 41 39
18 40 38
18 40 38
18 41 38
18 41 38
18 41 38
18 40 38
17 40 37
18 40 37
18 40 38
18 40 38
18 41 38
17 40 37
18 40 38
18 41 39
18 41 38
18 42 39
18 40 37
18 41 38
18 40 38
18 40 38
18 40 37
18 41 38
17 40 37
18 41 39
18 40 37
19 42 39
18 40 38
18 41 38
18 40 38
17 39 37
18 40 37
18 41 39
18 40 38
18 40 38
18 40 38
18 40 38
18 41 38
18 40 38
18 40 38
18 40 38
18 40 38
18 41 39
17 40 37
18 41 38
18 41 38
18 40 37
18 40 38
17 39 37
18 40 37
18 40 37
18 40 38
18 40 38
18 41 38
18 40 38
17 39 37
18 40 38
18 40 38
18 41 38
18 40 37
18 41 39
18 40 37
18 41 38
18 41 39
17 39 37
18 40 38
18 40 38
18 41 38
18 40 38
18 41 39
18 40 38
18 41 38
18 40 38
18 40 38
18 40 38
18 41 38
18 41 38
18 40 38
18 41 38
18 41 38
17 40 37
18 41 39
18 41 38
18 40 37
18 40 37
18 41 38
18 40 38
18 40 37
18 40 38
17 40 37
18 41 38
18 40 38
18 41 39
18 40 37
18 40 38
18 41 39
18 41 38
18 40 37
18 41 38
18 40 37
18 41 38
18 41 38
18 41 38
18 40 38
18 40 38
17 40 37
17 40 37
18 41 38
17 40 37
18 41 38
18 41 38
18 41 38
18 40 38
18 41 38
18 40 38
18 41 38
17 39 37
18 42 39
18 40 37
18 40 38
18 40 37
18 40 37
18 41 38
18 41 38
18 42 39
18 42 39
18 41 38
17 39 37
18 41 38
17 40 37
18 40 37
18 40 37
18 41 39
18 41 38
18 40 38
18 41 38
18 40 38
18 40 38
18 40 38
18 41 38
18 41 39
18 41 38
18 41 38
18 40 38
18 41 38
18 41 38
18 41 38
18 40 37
18 41 38
18 40 37
18 40 37
18 41 39
18 41 39
17 39 37
18 41 38
18 40 38
18 40 37
18 40 38
18 41 38
18 41 38
18 41 38
18 40 37
18 41 38
18 41 38
18 40 38
18 41 38
18 40 37
18 41 39
18 42 39
18 40 38
19 42 39
18 41 38
18 41 39
18 41 38
18 41 38
18 41 38
18 41 38
18 40 38
18 41 38
18 41 38
18 41 38
18 40 38
18 40 37
18 41 39
18 40 37
18 40 38
18 40 37
18 41 38
18 40 38
18 40 38
18 41 38
18 40 38
18 41 39
17 39 37
18 41 38
18 41 38
18 41 38
18 40 38
18 41 38
18 41 39
18 41 38
18 40 38
17 40 37
18 41 38
17 39 37
18 41 38
18 42 39
18 40 38
18 40 37
18 40 37
18 40 38
18 41 38
18 40 38
17 39 37
18 41 38
18 40 38
18 40 38
17 39 37
18 40 38
18 40 38
18 41 39
18 40 38
18 41 38
18 41 38
18 41 38
18 41 38
18 40 38
18 41 38
18 41 38
18 41 38
17 39 37
18 41 38
18 41 38
18 41 38
18 40 38
18 40 38
18 41 38
18 41 39
18 40 37
18 40 38
18 41 38
18 40 37
18 41 38
18 41 38
18 40 37
18 41 38
18 40 37
18 40 38
18 41 39
18 41 39
18 40 38
17 39 37
18 41 38
18 40 38
18 40 38
18 40 38
18 40 38
18 40 38
18 41 38
18 41 38
17 40 37
18 40 38
18 41 38
18 41 38
18 40 37
18 41 38
18 40 38
18 41 39
18 40 38
18 40 38
18 41 38
18 42 39
18 41 38
18 41 38
18 42 39
18 41 38
18 40 37
18 40 38
18 41 38
18 42 39
18 41 38
18 41 39
18 41 38
18 41 38
18 41 38
18 40 37
18 41 38
18 41 39
18 41 38
19 42 39
18 40 38
18 41 38
18 41 39
18 41 38
18 41 38
18 41 39
18 40 37
17 39 37
19 42 39
18 41 38
18 40 38
18 41 38
18 41 38
18 40 38
18 40 38
18 41 38
18 40 38
18 41 38
18 40 38
18 40 38
18 40 38
18 40 37
18 40 37
18 40 37
18 40 38
18 40 38
18 41 38
18 41 39
18 41 38
17 40 37
18 41 38
18 40 37
18 41 38
18 41 38
18 41 38
18 41 39
18 41 38
18 42 39
18 41 39
18 41 39
17 39 37
18 41 38
18 41 39
18 41 38
18 41 38
18 41 38
18 40 37
17 40 37
18 42 39
18 40 38
18 40 37
18 40 37
18 41 38
18 40 38
18 40 38
18 41 38
18 41 38
18 40 38
18 41 38
18 41 38
18 41 39
18 41 38
18 41 38
18 41 39
18 41 38
18 41 38
18 41 38
18 40 38
18 40 38
18 41 38
18 41 38
18 41 38
18 40 38
18 41 38
18 40 37
18 41 39
18 40 37
18 41 39
18 41 38
18 41 38
18 41 38
18 41 38
18 41 38
18 41 38
18 41 38
18 41 38
18 40 37
18 40 37
18 41 38
18 41 38
18 41 38
18 41 38
18 41 38
18 41 38
18 41 38
18 41 38
18 41 38
18 41 38
18 41 38
18 41 38
18 40 37
18 41 39
18 41 38
18 40 37
18 42 39
18 41 38
18 41 38
18 40 38
18 41 38
18 41 38
18 42 39
18 41 38
18 41 39
18 41 38
18 40 38
19 42 39
18 41 39
18 41 38
18 41 38
18 41 38
18 41 38
18 41 38
18 41 38
18 41 38
18 41 38
18 41 38
18 41 38
18 40 37
18 41 38
18 40 37
18 41 39
18 41 38
19 42 39
18 41 39
18 40 38
18 41 39
18 40 38
18 40 38
18 40 38
18 41 38
18 40 38
18 41 38
18 41 38
19 42 39
18 42 39
18 41 38
18 40 38
18 41 38
18 41 38
18 40 38
18 41 38
18 41 38
18 41 38
18 41 38
18 41 38
18 41 39
19 42 39
18 42 39
18 40 38
18 40 38
18 41 39
18 41 39
17 39 37
18 40 37
18 41 39
18 40 38
18 41 38
18 41 38
18 41 39
18 40 38
18 41 39
18 40 37
18 42 39
18 40 38
18 41 38
19 42 39
18 41 39
18 40 37
18 41 38
18 41 38
18 41 39
18 41 38
18 41 39
18 41 39
18 42 39
18 41 38
18 41 38
18 40 37
19 42 39
18 41 38
18 41 38
18 40 37
18 41 39
18 40 38
18 42 39
18 40 38
18 42 39
19 42 39
18 42 39
18 41 38
18 42 39
18 41 38
18 40 38
18 42 39
18 41 39
18 40 38
18 40 38
18 41 38
18 41 39
18 41 38
18 41 39
18 41 38
18 41 39
18 42 39
18 42 39
18 41 38
18 40 38
18 41 38
18 41 38
18 41 38
18 42 39
18 41 38
18 42 39
18 41 38
18 41 38
18 41 38
18 42 39
18 42 39
18 41 38
18 41 38
18 41 38
18 42 39
18 41 39
18 41 38
18 41 38
18 41 39
18 42 39
18 41 38
18 41 38
18 41 38
18 41 38
18 41 38
19 42 40
18 41 39
18 41 38
18 41 38
18 41 38
18 41 38
18 41 38
18 41 38
18 41 38
18 41 38
18 42 39
18 41 38
18 41 39
18 41 38
19 42 39
18 41 38
18 40 38
18 41 38
18 42 39
18 41 38
18 41 39
19 42 39
18 41 38
18 41 38
18 42 39
18 41 38
18 42 39
18 42 39
18 41 38
18 40 38
18 41 38
18 41 38
18 41 38
18 41 38
18 41 38
18 41 38
18 41 38
18 40 38
18 41 38
17 40 37
18 41 38
18 41 38
18 40 38
19 42 39
18 41 38
18 41 38
18 42 39
18 40 37
18 40 38
18 40 38
18 41 38
18 41 38
18 41 38
18 40 37
18 41 38
18 41 38
18 40 37
18 41 38
18 42 39
18 41 38
18 41 38
18 41 38
18 42 39
18 42 39
18 41 38
18 40 38
18 42 39
18 40 38
19 42 39
18 40 38
18 42 39
18 40 38
18 41 38
18 41 38
18 40 38
18 41 38
18 41 38
18 41 38
18 41 38
18 42 39
18 41 38
18 41 38
18 41 38
18 41 39
18 41 38
18 42 39
18 41 38
18 40 37
18 41 38
18 41 39
18 42 39
19 42 39
18 40 38
18 42 39
19 42 39
18 41 38
18 41 39
18 41 39
18 42 39
18 41 38
18 41 38
18 41 39
18 41 38
18 40 37
18 41 38
18 41 38
18 41 38
19 42 39
18 42 39
18 40 38
18 40 38
18 41 39
18 41 38
19 42 39
19 42 40
18 41 39
19 43 40
18 41 38
18 41 38
18 42 39
19 42 39
19 42 39
18 42 39
18 41 38
18 41 38
18 41 38
18 41 38
19 42 39
18 42 39
19 42 39
18 40 38
18 41 38
18 41 38
19 42 39
18 41 38
18 41 38
19 42 39
18 41 39
18 42 39
18 41 38
19 42 39
18 41 38
18 40 38
18 41 38
19 42 39
18 41 38
18 41 38
18 41 39
18 41 38
18 41 38
19 42 39
18 41 38
18 41 38
18 41 39
18 41 38
18 41 38
19 42 39
18 41 38
18 40 38
18 40 37
18 41 38
18 41 38
18 40 38
18 42 39
18 41 38
19 42 40
18 42 39
18 41 38
18 40 37
19 42 39
18 40 38
18 41 38
18 41 38
18 41 38
18 41 38
18 41 38
19 42 39
18 41 39
18 41 38
18 41 38
18 41 39
18 41 38
18 41 39
18 42 39
18 41 38
18 42 39
18 41 38
18 41 38
18 41 38
18 41 38
19 42 39
18 41 38
19 42 39
18 41 38
19 43 40
18 42 39
18 41 38
18 41 38
19 42 39
18 42 39
19 42 39
18 40 38
19 42 39
18 42 39
18 41 38
18 42 39
18 41 38
19 42 39
18 41 39
19 42 39
18 41 38
18 41 38
18 42 39
18 42 39
19 42 39
18 41 38
18 42 39
18 42 39
18 41 38
18 40 38
19 42 39
18 41 38
18 41 39
18 41 39
18 41 38
18 41 38
18 40 38
18 41 38
19 42 39
18 42 39
18 41 38
18 41 39
19 42 40
18 42 39
18 41 38
19 42 39
19 42 39
18 41 38
18 41 38
19 42 39
19 42 39
19 43 40
18 41 38
19 42 39
18 41 38
19 42 39
18 40 38
18 41 38
18 42 39
18 42 39
19 42 39
19 43 40
18 41 38
19 42 39
18 41 38
18 41 39
18 41 38
18 41 38
18 41 38
19 42 39
18 40 38
18 41 38
18 41 38
18 41 38
18 41 38
19 42 39
18 41 38
18 40 38
18 41 38
19 42 39
18 42 39
18 42 39
18 42 39
19 42 39
18 40 38
18 41 39
18 42 39
18 41 38
18 40 38
19 42 40
18 41 38
18 41 38
18 41 38
18 41 38
18 41 38
18 41 38
18 41 38
18 41 39
18 42 39
18 41 38
18 42 39
18 41 38
18 41 39
19 42 39
18 41 38
19 42 39
18 41 38
18 42 39
18 41 38
19 42 39
18 41 38
18 41 38
19 42 39
18 41 38
18 41 38
18 40 38
18 41 38
18 42 39
18 42 39
18 41 38
18 42 39
18 41 38
18 41 38
18 41 38
18 40 38
18 42 39
18 41 38
18 41 38
18 41 38
18 41 39
19 42 39
18 41 38
19 42 39
18 41 39
19 42 39
18 41 38
18 41 38
19 43 40
18 42 39
19 42 39
19 42 40
19 43 40
19 42 39
19 42 39
19 42 39
18 41 38
18 41 38
19 42 39
18 41 38
19 42 39
18 41 38
18 42 39
18 42 39
18 42 39
19 42 39
19 43 40
19 42 39
18 41 38
19 42 39
18 42 39
19 42 39
19 42 39
18 41 39
18 41 39
19 43 40
18 42 39
19 42 39
19 42 39
18 41 38
19 42 39
18 41 38
18 41 39
19 42 39
18 41 38
18 41 39
18 41 38
18 41 38
19 42 39
19 42 39
18 41 39
19 43 40
18 41 38
18 42 39
19 42 39
18 41 38
19 42 39
19 42 39
18 41 38
18 40 37
18 41 38
18 41 38
18 41 39
18 41 38
19 42 39
18 41 38
19 42 39
18 41 38
18 41 38
18 41 38
18 41 38
18 41 38
18 41 38
18 42 39
19 43 40
19 42 40
18 42 39
18 41 38
18 42 39
18 41 38
18 41 39
18 40 38
18 41 38
18 41 38
18 42 39
18 41 38
18 41 38
18 40 37
18 41 38
18 41 38
19 42 39
18 41 38
19 42 39
18 41 38
18 42 39
18 42 39
18 40 38
18 41 38
18 41 39
18 41 38
18 41 38
18 41 38
19 42 39
18 40 38
18 42 39
18 41 38
19 42 39
18 41 38
19 42 39
18 42 39
18 41 38
18 41 38
18 41 38
18 41 38
18 42 39
18 41 39
19 42 39
18 42 39
18 42 39
19 42 39
18 41 39
18 41 38
19 42 39
18 42 39
18 42 39
18 42 39
18 41 38
18 41 38
18 41 39
18 41 38
19 43 40
19 42 39
18 41 38
19 43 40
19 42 39
18 41 38
19 42 39
18 41 38
18 41 39
18 40 38
18 40 37
18 42 39
18 40 37
18 42 39
19 42 39
18 42 39
18 42 39
18 41 38
19 42 39
19 42 39
18 40 38
19 42 39
19 42 39
18 41 39
18 42 39
18 41 39
18 41 39
18 41 39
19 43 40
18 41 38
18 42 39
19 42 39
18 41 38
18 41 39
18 41 38
18 42 39
18 41 39
18 41 39
18 41 38
18 41 39
19 42 39
18 41 38
18 41 38
18 41 38
19 42 39
19 42 40
19 43 40
18 41 39
19 42 39
18 42 39
18 42 39
19 42 39
18 41 38
19 42 39
19 42 39
19 42 39
18 41 38
18 41 39
19 42 39
18 42 39
18 41 38
19 43 40
18 41 39
19 42 39
19 43 40
18 41 38
19 42 39
19 42 39
18 41 39
18 42 39
19 42 39
18 42 39
19 42 39
18 42 39
18 41 38
19 42 39
19 42 39
18 41 38
19 42 39
18 42 39
19 43 40
18 41 38
18 42 39
18 41 38
19 42 39
18 41 38
19 43 40
18 41 39
19 42 39
18 41 38
18 42 39
19 42 39
18 42 39
18 41 38
19 42 39
19 42 39
18 41 38
18 41 38
19 42 39
19 43 40
19 42 39
18 42 39
19 42 39
19 42 39
18 41 38
19 42 39
19 42 39
19 42 39
18 41 38
19 42 39
19 42 39
19 42 39
18 41 38
18 41 38
18 42 39
19 42 39
19 42 39
18 41 38
18 41 38
19 42 39
18 41 38
19 42 39
19 42 39
19 43 40
19 42 39
18 41 38
18 41 38
19 42 39
19 42 39
18 42 39
18 42 39
19 43 40
18 41 39
18 42 39
19 42 40
19 42 39
19 43 40
19 42 39
18 41 38
18 42 39
19 42 39
18 42 39
18 42 39
19 42 39
19 43 40
18 41 39
19 42 39
19 42 39
19 42 39
18 41 38
19 42 39
19 43 40
18 41 39
18 41 38
19 43 40
18 41 38
19 42 39
18 41 38
19 42 39
18 41 38
19 42 39
19 43 39
19 42 39
18 41 38
19 42 40
18 42 39
18 42 39
19 42 39
19 42 39
19 42 39
19 42 39
19 42 39
19 42 39
19 42 39
18 41 38
19 42 39
18 42 39
18 41 39
19 43 40
19 42 39
19 42 39
18 41 38
19 42 39
18 41 38
19 42 39
19 42 39
19 42 39
18 41 38
18 41 39
19 42 39
18 42 39
18 41 38
19 42 39
18 41 38
19 42 39
18 42 39
19 42 39
19 42 39
18 41 39
19 42 39
19 42 39
19 42 39
19 43 40
19 42 39
19 42 39
18 41 38
19 42 39
18 41 39
18 41 38
19 43 40
18 41 39
18 41 39
19 42 39
18 41 38
19 42 39
19 43 40
18 41 38
18 42 39
19 42 39
19 43 40
18 42 39
19 42 39
19 42 39
19 43 40
19 42 39
18 41 38
19 42 39
19 43 40
18 41 38
19 42 39
19 42 39
18 42 39
18 42 39
19 43 39
18 41 38
18 41 38
18 41 38
19 43 40
19 42 39
18 41 38
19 42 39
19 42 39
18 41 39
19 42 39
18 41 38
19 42 39
18 41 38
19 42 39
19 42 39
19 43 40
19 42 39
19 43 40
19 43 40
19 42 39
19 42 39
19 42 39
19 42 39
18 42 39
18 42 39
19 43 40
18 41 38
19 42 39
19 42 39
19 42 39
18 41 38
19 42 39
19 43 40
19 42 39
19 43 39
19 43 40
19 42 39
19 43 40
18 42 39
19 43 40
18 42 39
19 43 40
18 41 39
19 43 40
18 41 38
19 43 40
19 42 39
19 42 39
19 42 39
19 42 39
19 42 39
19 42 39
18 41 38
18 41 39
19 42 39
19 42 39
19 42 39
18 42 39
19 43 40
18 41 38
19 43 40
19 42 39
18 41 38
18 42 39
19 42 39
19 42 39
19 42 39
19 43 40
18 42 39
19 42 39
19 43 40
19 43 40
19 43 40
18 41 38
19 42 39
18 41 39
19 42 39
19 42 39
19 42 39
19 42 39
19 42 39
18 42 39
18 42 39
18 42 39
19 42 39
18 42 39
19 43 40
19 42 39
19 42 39
19 44 41
19 42 39
19 42 39
19 43 40
18 42 39
19 42 39
19 43 40
19 42 39
18 41 38
19 43 40
18 41 38
18 41 38
19 42 39
18 42 39
19 42 39
18 41 38
19 42 39
18 42 39
18 41 39
19 42 39
19 43 40
19 42 39
19 42 39
19 42 39
19 42 40
19 42 39
18 41 38
19 43 40
19 42 39
18 41 38
19 43 40
19 42 39
19 43 40
19 43 40
19 42 39
19 43 40
19 42 39
19 42 39
18 41 38
19 43 40
19 42 39
19 42 39
19 42 39
19 42 39
19 42 39
19 43 40
19 43 40
19 42 39
19 43 40
19 43 40
19 42 39
19 43 40
19 42 39
18 41 38
19 43 40
18 42 39
19 44 40
19 42 39
19 42 39
19 43 40
18 41 38
19 43 40
19 43 40
19 43 40
18 42 39
19 43 40
19 42 39
19 42 39
18 41 38
18 42 39
19 43 39
19 42 39
19 42 39
19 42 39
19 42 39
19 42 39
18 42 39
19 42 39
19 43 40
19 43 40
19 42 39
19 43 40
19 42 39
19 43 40
19 42 39
19 42 39
19 42 39
19 42 39
19 42 39
19 42 39
19 43 40
19 44 40
19 42 39
19 43 40
19 43 40
18 41 38
19 42 39
19 42 39
18 41 38
18 42 39
18 41 38
19 43 40
19 42 39
19 42 39
19 42 39
19 42 39
18 42 39
19 42 39
18 42 39
19 42 39
18 41 38
18 41 38
19 43 40
18 41 38
19 43 40
19 42 39
19 42 39
18 41 38
18 42 39
19 42 39
19 42 39
19 43 40
18 41 38
19 42 39
19 42 39
18 41 38
19 43 40
18 41 38
19 43 40
19 42 39
19 42 39
19 42 39
18 41 38
19 42 39
19 43 40
19 42 39
19 42 39
18 42 39
19 42 39
19 43 40
18 41 38
19 42 39
19 42 39
19 43 40
19 43 40
19 44 41
19 43 40
19 42 39
19 42 39
18 41 38
19 43 40
19 43 40
19 43 39
19 43 40
18 41 38
18 42 39
19 42 39
19 43 40
19 42 39
19 43 40
19 43 40
19 43 40
19 43 40
18 42 39
19 42 39
19 42 39
20 44 41
19 43 40
19 43 40
19 42 39
19 43 40
19 42 39
19 42 39
19 43 40
19 43 40
19 42 39
19 42 39
19 42 39
19 43 40
19 43 40
19 42 39
19 43 40
20 44 41
19 43 39
20 44 41
19 42 39
19 42 39
19 43 40
18 41 38
19 43 40
19 44 40
19 43 40
19 42 39
19 43 40
18 42 39
19 43 40
19 43 40
19 43 40
19 43 40
19 43 40
19 43 40
19 42 39
19 43 40
19 44 40
19 43 40
19 43 40
19 42 39
19 43 39
19 42 39
19 42 39
19 43 40
18 41 38
19 43 40
19 43 40
18 41 38
18 41 38
19 42 39
19 42 39
19 42 39
19 42 39
19 43 40
19 42 39
18 41 38
19 43 40
19 43 40
18 42 39
19 43 40
18 42 39
19 42 39
19 42 39
18 42 39
19 42 39
18 41 38
19 42 39
19 43 40
19 42 39
19 42 39
19 42 39
19 43 40
19 42 39
19 42 39
19 42 39
19 43 40
19 43 39
19 42 39
19 43 39
19 43 40
19 42 39
19 42 39
18 41 38
19 43 40
19 42 39
19 42 39
19 42 39
18 42 39
19 43 40
19 43 39
19 43 39
18 41 38
19 43 40
18 42 39
19 42 39
19 42 39
19 43 40
19 43 40
19 42 39
19 43 40
19 43 40
19 43 40
19 43 39
19 43 40
19 42 39
19 42 39
19 42 39
19 43 40
19 42 39
19 43 40
19 43 40
19 42 39
19 42 39
19 43 40
19 43 40
19 43 40
18 41 38
19 43 40
19 43 40
19 42 39
19 42 39
19 42 39
19 43 40
19 42 39
19 43 40
19 42 39
19 44 40
19 43 40
19 42 39
19 43 40
19 42 39
19 42 39
19 43 40
19 42 39
19 42 39
19 42 39
19 43 40
19 42 39
19 44 40
19 42 39
19 42 39
19 44 40
19 43 40
19 43 40
19 42 39
19 43 40
19 43 40
19 43 39
19 44 40
19 43 40
19 42 39
19 43 39
19 42 39
19 43 39
19 42 39
19 43 40
19 44 40
19 43 40
19 43 40
19 42 39
19 42 39
18 41 38
19 43 40
19 43 39
19 43 40
19 43 40
19 42 39
19 42 39
19 43 40
19 42 39
19 42 39
19 42 39
19 43 39
19 43 40
19 43 40
19 42 39
19 43 40
18 42 39
19 42 39
20 44 41
19 43 40
19 42 39
19 42 39
19 43 40
19 42 39
19 42 39
19 42 39
18 41 38
19 42 39
20 44 41
19 42 39
18 41 39
19 43 40
19 42 39
20 44 41
19 42 39
19 42 39
19 43 40
19 43 40
19 43 40
19 42 39
19 42 39
19 42 39
19 43 40
19 42 39
19 42 39
19 42 39
19 42 39
19 42 39
19 43 39
19 42 38
19 42 39
19 42 39
19 43 40
19 43 40
19 43 40
19 43 40
19 43 40
19 43 40
19 42 39
19 43 40
19 43 40
19 42 39
19 43 40
20 44 41
19 42 39
19 43 40
19 42 39
19 43 40
19 42 39
19 43 40
19 43 40
19 43 40
19 43 40
19 42 39
19 43 40
19 42 39
19 42 39
19 42 39
19 43 40
19 42 39
19 43 40
19 43 40
19 43 40
19 43 40
19 42 39
19 43 40
19 43 40
19 42 39
19 43 40
19 43 39
19 44 40
19 43 40
19 42 39
19 44 40
19 43 40
19 43 40
19 43 40
19 44 40
19 43 40
20 44 41
19 43 40
19 43 40
20 44 41
19 42 39
19 43 40
19 42 39
19 43 40
19 43 40
19 43 40
19 43 40
19 42 39
19 42 39
19 43 40
20 44 41
20 44 41
19 42 39
19 42 39
19 43 40
19 44 40
19 43 40
19 43 40
19 43 40
19 43 40
19 42 39
19 42 39
19 42 39
19 43 40
19 43 40
19 44 40
19 42 39
19 43 40
20 44 40
19 42 39
19 43 40
19 42 39
19 43 40
19 43 40
19 42 39
18 42 39
19 42 39
19 42 39
19 42 39
19 42 39
19 43 40
19 43 40
19 42 39
19 42 39
19 42 39
19 42 39
19 42 39
19 43 39
19 42 39
19 43 40
19 42 39
19 42 39
19 43 40
19 44 40
18 41 38
19 43 40
19 43 40
19 42 39
18 41 38
19 42 39
19 43 40
19 43 40
19 42 39
19 43 40
19 44 40
18 42 39
19 42 39
19 42 39
19 43 40
19 43 40
19 42 39
19 44 41
19 42 39
19 42 39
19 44 40
19 42 39
19 43 40
19 43 40
19 43 40
19 42 39
19 42 39
20 44 41
19 43 40
19 43 40
19 42 39
19 43 40
19 43 40
19 43 40
20 44 40
19 44 40
19 42 39
19 42 39
19 43 39
19 42 39
19 43 40
19 43 39
19 42 39
19 42 39
19 42 39
19 43 40
20 44 41
19 42 39
19 43 40
19 44 40
18 41 38
20 44 41
19 43 39
19 43 40
19 43 40
19 42 39
19 43 40
19 43 39
19 43 40
20 44 41
19 43 39
19 43 39
19 43 40
19 43 40
19 42 39
19 43 40
19 43 40
19 44 40
20 44 41
19 43 39
19 44 40
19 43 39
20 44 41
19 43 40
19 42 39
19 43 40
19 43 39
19 43 40
19 43 40
19 43 40
19 43 40
20 44 41
19 43 39
19 43 40
19 43 40
19 43 40
19 43 40
19 43 40
18 41 38
19 42 39
19 43 39
19 43 40
19 43 40
19 42 39
19 43 40
19 42 39
19 43 40
19 43 40
19 43 40
19 42 39
19 42 39
18 41 38
19 42 39
19 42 39
18 41 38
19 43 40
19 42 39
19 42 39
19 42 39
19 43 39
19 43 40
19 44 40
19 42 39
19 43 40
19 43 40
19 42 39
19 43 40
19 43 39
19 42 39
19 43 40
19 42 39
19 43 40
19 43 39
19 43 40
19 43 40
19 43 40
19 43 40
19 42 39
20 44 41
19 43 39
19 42 39
19 43 39
19 43 40
19 42 39
19 43 40
19 43 40
19 43 40
19 43 40
19 43 40
19 43 40
19 44 40
19 43 40
20 44 41
19 43 40
19 43 40
19 43 40
19 43 40
20 44 41
19 43 40
19 43 40
19 43 40
19 42 39
19 43 40
20 44 40
19 43 39
19 43 40
19 43 40
20 44 41
19 43 40
19 43 40
19 43 40
19 42 39
19 42 39
19 43 40
19 43 40
19 43 40
19 42 39
19 43 40
19 42 39
19 43 40
19 42 39
19 43 40
20 44 40
19 42 39
19 43 40
20 44 41
19 43 39
20 44 40
20 44 40
19 43 40
19 43 40
19 42 39
19 43 39
19 42 39
19 43 40
19 42 39
19 43 40
19 44 40
19 43 40
19 43 40
19 43 40
19 43 39
19 42 39
19 43 39
19 43 39
19 44 40
19 43 40
20 44 40
20 44 40
19 42 39
19 43 40
20 44 41
19 42 39
20 44 41
19 43 40
19 44 40
20 44 41
19 42 39
19 43 40
19 43 40
20 44 41
20 45 41
19 43 40
20 44 40
19 43 40
19 43 40
19 42 39
19 43 39
19 43 40
19 42 39
19 43 40
19 42 39
19 43 40
20 44 41
19 42 39
19 43 39
20 44 41
19 43 39
19 43 40
20 44 41
19 43 40
19 43 40
19 43 39
19 42 39
19 43 40
20 44 41
19 42 39
20 44 41
19 43 40
19 42 39
19 42 39
19 43 39
19 43 40
19 44 40
19 42 39
19 43 40
19 41 38
19 43 40
19 43 40
20 44 41
19 43 40
19 42 39
19 42 39
19 43 40
19 44 40
20 44 41
19 43 40
19 43 40
19 43 39
19 43 40
19 43 40
19 43 40
19 43 40
19 43 40
19 43 40
19 43 40
19 43 40
19 43 40
19 43 40
19 43 40
19 43 40
20 44 41
20 44 41
19 44 40
19 43 40
19 43 40
19 43 40
20 44 41
19 43 40
20 44 41
19 43 40
19 42 39
20 44 40
19 43 40
20 44 41
19 43 40
20 44 41
19 43 40
19 44 40
20 44 41
19 44 40
19 43 40
19 43 39
19 43 40
19 42 39
19 44 40
19 43 40
19 43 39
20 44 40
19 43 40
19 43 39
19 43 40
19 43 40
20 44 41
19 43 40
20 44 40
19 42 39
20 44 41
19 43 40
19 43 40
19 43 40
19 43 40
20 44 40
19 44 40
19 43 40
20 44 40
19 42 39
20 44 41
19 42 39
19 43 40
20 44 41
19 43 40
19 43 40
20 44 41
20 44 41
19 43 40
20 44 40
20 44 41
19 43 39
19 43 40
19 43 40
19 43 40
20 44 40
19 43 40
19 42 39
19 43 40
20 44 41
19 42 39
19 42 39
19 42 39
19 43 40
19 43 40
19 42 39
19 43 40
19 43 40
19 44 40
19 42 39
19 44 40
19 43 39
19 43 40
19 43 40
19 43 40
19 43 39
19 43 40
20 44 40
19 43 39
19 43 40
19 43 40
19 43 40
19 42 39
20 44 41
19 43 40
19 42 39
20 44 41
19 43 40
19 43 40
19 43 40
19 43 39
19 43 40
19 43 40
19 43 39
19 43 40
20 44 41
19 43 40
19 42 39
19 44 40
19 43 39
19 43 40
19 43 40
19 43 40
19 43 40
19 43 40
19 43 39
19 43 39
20 44 41
19 43 40
20 44 41
19 42 39
19 43 39
19 43 40
19 42 39
19 43 40
19 43 39
19 42 39
19 43 40
20 44 41
19 42 39
19 43 40
19 43 40
19 43 40
19 43 40
20 44 40
19 43 39
19 43 40
19 43 40
19 43 39
19 43 40
19 43 40
19 43 39
19 42 39
19 43 40
20 44 41
20 44 41
19 44 40
20 45 41
19 43 40
20 44 40
19 42 39
19 43 40
19 43 40
20 44 41
19 43 40
19 42 39
20 44 41
19 42 39
19 43 39
19 43 40
19 43 39
19 43 40
19 43 40
19 44 40
20 44 40
19 43 40
20 44 41
20 44 41
19 43 40
19 43 39
20 44 41
19 42 39
19 43 39
19 42 39
20 44 41
19 43 40
20 44 40
20 44 41
19 43 40
20 44 40
19 43 40
19 43 40
19 43 40
19 43 40
19 43 39
19 42 39
19 43 40
20 44 41
19 43 39
19 43 40
19 43 40
20 44 41
19 43 40
20 44 40
19 44 40
19 43 39
19 43 40
20 44 40
19 43 40
19 42 39
19 43 39
19 43 40
19 43 40
19 42 39
19 43 40
19 43 40
19 43 40
19 43 39
19 43 40
19 43 40
19 43 39
19 43 40
19 43 40
19 43 40
19 43 40
19 43 39
19 43 39
19 42 39
19 42 39
19 42 39
20 45 41
19 43 40
19 44 40
19 43 40
19 43 40
20 44 40
19 43 39
19 43 40
19 43 40
19 44 40
20 44 41
19 43 40
20 44 40
19 43 40
19 43 40
19 44 40
20 44 41
20 44 40
20 44 40
19 43 39
19 42 39
20 44 41
19 43 40
19 42 39
19 43 40
20 45 41
19 43 40
20 44 41
20 44 40
20 44 41
19 43 40
19 43 40
20 44 40
19 43 40
19 43 40
19 43 40
19 42 39
20 44 41
19 43 39
19 43 40
19 43 40
20 44 40
20 44 40
20 44 40
20 45 42
19 43 40
19 43 40
19 43 40
19 42 39
19 43 40
20 44 41
20 45 41
20 45 41
19 43 40
20 44 40
19 43 40
20 44 40
20 44 41
20 44 41
19 43 40
20 44 40
19 43 40
20 45 41
20 44 41
20 44 40
19 43 40
20 44 40
20 45 42
20 44 41
19 43 40
19 43 40
20 44 40
19 43 40
19 43 40
19 43 40
20 44 40
19 43 40
20 44 40
19 43 40
19 42 39
19 43 40
20 44 40
19 43 40
19 43 40
19 43 40
19 43 40
19 43 40
19 44 40
20 45 42
20 43 40
19 43 40
19 43 40
19 42 39
19 42 39
19 43 40
19 43 40
19 43 40
19 43 40
19 42 39
19 42 39
20 44 41
19 43 40
19 42 39
19 43 40
20 44 41
19 43 40
19 42 39
19 43 40
19 43 40
20 44 40
19 43 40
19 43 40
19 43 40
19 43 40
20 44 41
19 42 39
19 43 39
20 45 41
19 43 39
19 42 39
19 44 40
20 44 41
19 43 39
19 43 40
19 42 39
19 43 40
19 43 40
19 43 39
19 43 40
19 43 39
19 43 39
20 44 40
20 44 40
19 43 40
20 44 41
19 42 39
19 43 39
19 43 40
20 44 41
20 44 40
20 44 40
20 45 41
20 44 41
20 44 40
19 43 40
19 43 40
19 43 40
19 43 39
20 44 41
19 43 40
19 43 40
19 44 40
20 44 41
20 44 41
20 44 41
20 45 41
20 44 40
19 43 40
19 43 40
20 44 40
20 44 40
20 44 41
20 44 41
19 43 40
19 43 39
19 43 40
20 45 41
20 44 40
20 44 40
19 43 40
19 42 39
20 44 41
19 43 40
19 43 40
20 44 40
19 43 40
20 44 41
20 44 40
19 43 39
19 43 39
19 43 40
19 43 40
20 44 40
20 44 41
19 43 40
20 44 41
19 43 40
20 44 41
20 45 41
19 43 40
19 44 40
20 44 40
20 44 41
20 44 40
20 44 40
20 44 40
20 44 41
20 44 41
19 43 39
19 43 40
20 44 40
19 43 40
20 44 41
19 43 40
20 44 40
19 43 40
19 43 39
20 44 41
19 44 40
19 43 40
19 43 39
20 44 41
20 44 40
19 43 40
19 43 40
19 43 40
20 44 41
19 43 40
19 43 40
19 43 40
19 43 40
19 42 39
19 43 40
19 43 40
19 44 40
19 42 39
20 44 40
19 43 40
19 43 40
19 43 39
19 43 40
19 44 40
19 43 40
19 43 40
20 44 40
20 44 41
20 44 40
19 43 40
19 43 40
19 43 40
19 43 40
20 44 40
19 43 39
20 44 40
20 44 40
19 43 40
19 43 40
20 44 41
19 43 40
19 43 39
19 42 39
19 43 40
20 44 40
19 43 40
19 43 40
19 43 40
20 45 41
20 44 40
19 43 40
20 44 41
20 44 41
19 43 40
20 44 40
20 44 40
19 43 40
20 44 40
20 44 40
19 43 40
20 44 40
19 43 40
20 44 41
20 44 41
19 43 40
19 43 40
20 44 40
19 43 40
20 44 41
19 43 40
20 44 40
20 46 42
20 44 41
20 44 41
20 44 41
19 43 40
20 44 40
20 44 41
20 44 40
20 44 41
20 44 41
20 44 41
20 44 40
20 44 41
20 44 40
19 43 40
20 44 40
20 45 41
19 42 39
19 43 40
20 45 41
19 42 39
19 43 40
20 44 41
20 45 41
20 44 41
20 45 41
20 44 40
20 45 42
20 45 41
20 44 41
19 43 40
20 44 41
19 43 40
20 44 41
19 43 40
20 44 41
19 43 40
20 44 41
19 43 40
20 44 41
20 44 41
20 44 40
20 44 41
20 45 41
20 44 41
20 44 40
20 44 40
20 44 40
19 43 40
20 45 42
20 45 41
19 43 40
20 44 40
19 43 39
20 44 40
19 42 39
19 43 40
19 43 40
19 42 39
19 43 40
19 43 39
19 43 40
20 44 41
20 44 41
20 44 41
19 44 40
19 44 40
20 44 40
19 43 39
19 42 39
19 43 40
19 43 40
19 43 40
20 44 40
19 43 40
20 44 40
19 43 40
20 44 41
19 43 40
20 44 40
20 44 40
20 44 41
20 44 41
20 44 41
20 44 41
20 44 41
20 45 41
20 44 40
20 44 40
19 43 39
19 43 40
20 44 41
19 43 40
20 44 41
19 43 40
20 44 41
19 42 39
20 45 41
20 44 41
19 43 40
19 43 40
19 43 40
19 43 40
20 44 41
20 44 41
20 44 41
19 43 40
19 43 40
20 44 40
20 44 41
20 44 41
19 43 40
20 44 40
20 44 41
20 44 41
20 44 41
19 43 40
20 44 40
20 45 41
20 45 41
20 45 41
20 45 41
20 44 40
20 45 41
20 44 41
20 44 40
20 44 41
20 45 41
20 44 41
20 45 42
20 44 40
20 44 40
19 43 40
19 43 40
20 45 41
19 43 39
20 44 40
20 44 40
20 45 42
20 44 41
20 44 41
20 44 41
20 45 42
20 45 41
20 45 41
20 44 40
19 43 40
20 45 42
20 44 41
20 45 41
19 43 40
20 44 41
20 43 40
19 43 40
20 44 41
20 44 41
20 44 41
20 44 41
20 44 41
20 45 42
20 44 41
20 44 41
20 45 41
20 45 41
20 44 40
19 43 40
19 43 40
20 44 40
19 43 40
20 44 40
20 44 41
20 44 41
19 43 40
20 44 41
19 43 40
20 44 41
19 43 40
20 44 40
19 43 40
19 44 40
19 43 40
19 43 40
20 44 41
20 44 41
20 45 41
20 45 41
19 43 40
19 43 40
20 44 40
19 42 39
19 43 40
20 44 40
20 44 41
20 44 40
20 44 40
20 44 40
20 44 41
20 44 41
20 44 41
19 44 40
19 43 40
20 44 41
20 45 41
20 45 41
20 44 40
20 45 42
19 43 40
19 43 40
20 44 40
20 44 40
20 44 40
20 44 41
20 44 41
20 44 41
19 43 40
20 44 40
20 44 41
20 44 41
19 43 40
20 44 40
20 45 41
19 43 40
20 45 41
20 44 41
20 44 40
20 44 40
19 43 40
20 45 41
20 44 40
20 44 40
20 44 41
21 46 42
20 44 41
19 43 40
20 44 41
19 43 40
20 45 41
19 43 40
20 45 41
20 45 41
20 45 41
19 43 40
20 44 40
20 44 40
20 44 40
20 45 41
20 45 41
20 44 41
20 43 40
19 43 40
20 44 41
20 44 41
20 45 41
20 45 41
20 44 40
20 45 42
20 45 41
19 43 40
20 44 40
20 44 40
20 44 40
19 43 40
20 45 41
20 44 40
20 45 42
19 43 40
20 44 40
20 44 41
20 44 41
19 43 40
20 44 41
20 44 41
20 45 41
20 45 41
20 45 41
20 44 40
20 46 42
20 44 41
20 45 41
20 44 41
20 45 41
20 44 41
20 44 41
20 45 41
20 45 41
20 44 40
19 43 40
19 43 40
20 45 41
20 46 42
19 43 40
20 44 40
20 45 41
19 43 40
19 43 40
20 45 42
20 44 41
20 44 41
20 44 41
19 43 40
19 43 39
19 42 39
20 44 40
19 43 40
20 44 41
20 44 41
20 44 40
20 44 40
20 44 40
19 43 40
19 43 40
19 43 40
20 45 41
20 44 40
19 43 40
19 43 39
20 44 40
20 44 40
20 45 41
19 43 40
19 43 40
20 45 41
20 44 41
20 44 40
20 44 41
19 43 40
20 44 40
19 43 40
20 44 41
20 44 41
20 44 40
20 44 40
20 44 40
20 44 41
20 44 41
20 45 41
20 44 40
20 44 40
20 44 41
20 45 41
20 44 40
20 44 40
20 44 41
20 45 41
20 45 41
20 44 41
20 45 41
20 44 40
20 45 41
20 45 41
20 45 41
20 45 41
20 45 41
20 44 40
20 45 41
20 45 41
20 44 40
20 44 40
20 45 41
20 44 40
20 45 41
20 44 41
20 45 42
20 44 40
20 45 41
20 44 40
20 44 40
20 45 41
20 44 41
20 44 41
20 44 41
20 45 41
20 45 41
20 45 41
20 44 41
20 44 41
20 45 41
20 45 41
21 46 42
20 45 42
20 45 41
20 45 42
20 44 41
20 45 41
20 45 41
20 44 40
20 44 40
20 45 41
20 44 40
20 45 42
20 45 41
20 44 41
20 45 41
20 45 42
20 44 41
20 45 42
20 44 40
20 44 41
20 44 41
20 44 41
20 44 41
20 45 41
20 44 40
20 44 40
20 44 40
20 45 41
20 45 42
20 44 41
20 46 42
20 44 40
20 44 40
20 44 41
20 44 40
19 43 39
20 44 41
20 44 40
19 43 40
20 44 40
19 43 40
20 44 41
20 44 41
19 44 40
20 44 40
19 43 40
20 44 41
19 43 40
20 45 41
20 44 41
19 43 40
19 43 40
20 44 41
20 45 41
19 43 39
20 45 41
20 44 41
20 45 41
20 44 40
20 44 41
20 44 40
20 44 40
20 44 40
20 44 40
20 44 41
20 44 40
19 43 40
20 45 42
20 44 41
20 44 41
20 44 41
20 44 40
20 46 42
20 43 40
20 45 42
20 44 40
20 44 41
20 44 40
20 44 41
20 45 41
20 44 41
20 44 40
20 45 41
20 44 41
20 44 41
20 44 40
20 45 41
20 44 41
20 44 41
20 44 40
20 44 40
20 44 41
20 45 41
20 44 40
20 45 41
20 44 40
20 45 41
20 44 40
20 44 40
20 45 41
20 44 41
20 44 41
20 45 41
20 44 40
20 44 41
20 44 40
20 44 40
20 45 41
20 44 40
20 44 40
19 43 40
20 46 42
20 45 41
20 45 41
20 45 42
20 45 41
20 44 41
20 45 41
20 45 42
19 43 40
20 44 40
20 44 41
20 45 41
20 44 41
20 45 41
20 45 41
20 44 41
20 44 40
20 45 42
20 45 42
20 45 42
20 44 41
20 45 41
20 44 40
19 43 39
20 45 41
20 44 40
20 45 41
20 45 41
20 44 41
20 44 40
20 45 42
20 45 41
20 45 41
20 44 41
20 44 41
20 44 40
20 45 42
20 45 41
20 44 41
20 44 41
20 45 41
20 45 42
20 45 42
20 45 41
20 44 41
20 44 41
20 44 40
19 43 40
20 44 40
20 44 40
20 45 41
20 44 40
20 44 40
20 45 41
19 43 40
19 43 40
20 44 41
20 44 40
20 44 40
20 44 40
20 45 41
20 45 41
20 45 41
20 44 40
20 44 40
19 43 40
20 44 41
20 44 40
20 44 41
20 45 41
20 44 41
20 44 41
20 44 40
20 44 40
20 45 41
19 43 40
20 44 41
20 45 41
20 44 41
20 45 41
20 45 41
20 45 42
20 45 41
20 45 42
20 45 41
20 44 41
20 44 41
20 44 41
20 44 40
20 45 41
20 44 41
20 44 40
20 44 41
19 43 40
21 46 42
20 46 42
20 44 41
20 45 41
20 44 41
20 44 41
20 44 40
20 45 41
20 44 41
20 46 42
20 43 40
20 44 41
20 45 42
20 45 42
20 44 41
20 44 41
20 44 40
20 45 41
20 45 41
20 44 41
20 44 41
20 45 41
20 45 41
20 44 41
20 45 42
20 45 41
20 45 41
20 44 41
20 44 40
20 44 40
20 45 41
20 44 40
19 43 39
20 45 41
20 45 42
20 44 40
20 45 41
20 44 40
21 46 42
20 45 42
20 45 41
20 44 40
21 46 42
20 45 42
20 45 42
20 45 42
20 45 42
20 45 41
20 45 42
20 45 42
20 45 41
20 45 41
20 45 41
20 45 41
20 44 41
20 45 41
20 44 41
20 44 41
20 45 42
20 44 40
20 45 41
21 46 42
20 44 41
19 43 40
20 45 41
20 44 40
20 46 42
20 45 41
20 45 42
20 45 42
20 44 41
19 43 40
20 45 41
20 45 41
20 45 41
19 43 40
20 44 41
20 44 41
20 44 40
20 44 40
19 43 40
20 44 41
20 43 40
20 45 41
20 45 41
20 45 41
20 45 42
20 45 42
20 45 41
20 44 40
20 44 40
20 44 40
20 44 41
20 44 41
20 44 41
20 45 41
20 44 41
20 45 41
20 45 41
20 44 41
20 45 42
20 44 41
20 45 41
19 43 39
20 45 41
20 45 42
20 44 41
20 45 42
20 45 41
20 45 42
20 44 41
20 45 41
21 46 42
20 45 41
21 46 43
20 45 41
20 44 40
20 44 41
20 45 42
20 45 41
21 46 42
20 44 41
20 45 41
21 46 42
20 45 41
20 45 42
20 45 41
20 44 41
21 47 43
20 44 41
20 44 41
21 46 42
21 46 42
20 45 41
20 44 41
20 44 40
20 45 42
20 45 41
21 46 43
20 45 41
20 45 41
20 45 41
21 46 42
20 45 41
20 45 41
19 43 40
20 45 41
20 45 41
20 44 40
20 44 41
20 45 41
20 45 41
20 44 41
20 45 41
20 45 41
20 44 41
20 44 41
20 45 41
20 45 41
21 46 42
21 46 42
20 45 42
20 45 41
20 45 41
20 44 41
20 45 42
20 45 41
20 45 42
20 44 41
20 45 42
20 45 41
20 45 41
20 45 42
20 45 41
20 45 41
20 45 42
20 45 42
20 45 41
21 46 42
20 44 40
20 45 41
21 46 42
20 45 41
20 45 41
20 44 41
20 44 40
20 45 41
20 45 41
21 46 42
20 44 41
19 43 40
19 43 40
20 44 40
20 44 40
20 44 41
20 45 41
20 44 40
20 44 41
20 44 40
20 45 42
20 45 42
20 44 41
20 46 42
20 44 41
19 43 40
20 44 40
20 45 42
20 44 41
20 45 41
20 44 41
20 45 41
20 45 42
20 44 41
20 44 40
20 44 40
20 45 41
20 45 42
20 45 42
20 44 40
20 45 42
20 44 40
20 45 42
20 46 42
20 45 41
20 45 41
20 44 41
20 44 41
21 46 42
20 45 41
20 45 41
20 45 42
20 44 41
20 44 41
20 44 41
20 45 41
20 44 40
20 44 41
20 44 41
20 44 40
20 44 40
20 44 40
20 44 41
20 45 41
20 44 41
20 45 41
21 46 43
20 45 42
20 45 41
20 44 40
20 45 41
20 45 41
20 45 41
20 45 42
20 44 41
21 46 42
20 44 40
20 45 41
20 45 41
20 45 41
20 45 41
20 44 41
20 45 41
20 44 40
20 45 41
20 45 42
20 45 41
20 44 41
21 46 42
20 45 41
20 45 41
20 45 41
20 45 41
20 45 41
20 45 41
20 45 41
21 46 42
21 46 42
20 45 41
20 44 40
20 45 41
21 46 42
20 45 41
20 44 40
20 44 41
20 45 41
21 46 42
20 45 41
21 46 43
21 46 42
20 45 41
20 44 40
20 45 41
21 46 42
20 45 41
20 45 41
21 46 42
21 46 42
20 45 42
20 44 41
21 46 42
21 46 42
21 46 42
20 45 42
20 44 40
20 45 41
21 46 42
21 46 42
20 45 41
20 44 41
20 45 41
20 44 41
20 44 41
20 44 41
20 45 41
20 44 41
20 44 41
20 44 40
19 43 40
20 45 41
20 44 40
20 44 41
20 44 40
20 45 42
20 44 40
20 44 41
20 45 41
20 44 41
21 46 42
20 45 41
20 45 41
20 45 41
20 43 40
20 44 41
21 46 42
20 45 42
20 44 40
20 45 41
20 43 40
20 45 41
20 44 40
20 44 41
20 44 41
20 45 41
20 45 41
21 46 42
20 44 40
20 45 42
20 45 41
20 45 42
20 45 41
20 45 41
21 46 42
20 44 41
20 45 41
20 45 41
21 46 42
20 45 42
21 46 42
20 44 40
20 45 41
20 45 41
20 45 41
20 45 41
20 45 42
20 44 41
20 45 41
20 45 42
20 45 41
20 45 41
21 45 42
20 45 41
19 43 39
21 46 42
20 45 41
20 45 41
21 46 42
20 45 41
21 46 42
20 45 42
20 45 42
20 44 40
20 45 41
20 45 41
20 45 42
20 45 41
20 45 41
21 46 42
20 44 41
21 46 42
20 45 42
20 45 41
20 45 41
20 44 41
20 45 41
20 45 41
20 45 42
20 44 41
20 45 41
20 44 41
20 45 42
20 45 42
20 45 42
20 45 41
20 45 41
20 45 41
20 45 41
20 44 40
20 45 41
20 45 41
20 45 42
20 44 40
20 45 42
20 45 41
20 45 42
21 46 42
20 44 40
20 46 42
21 46 42
21 46 42
20 45 41
20 45 41
21 47 43
20 45 41
20 45 41
20 45 41
21 46 42
20 45 42
20 44 41
20 45 41
20 45 41
19 43 40
20 45 41
20 44 40
20 44 41
20 44 40
20 45 41
20 44 40
20 44 40
20 44 40
20 44 40
20 45 41
20 45 41
20 44 41
20 45 41
20 45 41
20 45 41
20 45 41
20 45 41
20 45 41
20 45 41
20 44 41
20 45 41
20 44 40
20 45 41
20 45 41
20 44 41
20 44 41
20 44 40
20 44 41
20 45 41
20 45 41
20 45 42
20 45 41
20 45 41
20 46 42
20 45 42
20 45 41
20 45 41
20 44 40
21 46 42
20 45 41
21 46 42
20 44 41
20 45 41
20 45 42
20 44 41
20 44 40
20 45 41
20 45 41
21 46 42
21 46 42
20 45 41
21 46 42
20 45 41
20 44 41
20 45 41
21 46 42
20 45 42
20 45 41
21 46 42
21 46 42
20 44 41
21 46 42
20 45 41
20 45 42
20 45 41
21 47 43
20 45 41
21 46 42
20 45 41
21 46 42
20 44 41
21 46 42
21 46 42
20 45 42
21 46 42
20 45 41
21 46 42
21 46 42
20 44 41
20 45 42
20 45 42
21 46 42
20 45 41
20 44 40
21 46 42
20 45 41
21 46 42
20 45 42
20 45 41
20 45 41
20 45 41
20 44 40
21 46 42
20 45 41
20 45 42
20 45 41
20 45 42
20 45 41
20 45 42
20 45 41
20 46 42
20 45 41
21 46 42
21 46 42
21 46 42
21 46 42
20 45 42
20 44 41
21 46 42
20 45 41
20 45 41
20 45 41
20 45 41
20 45 41
20 45 41
20 45 41
21 46 42
20 44 41
21 46 42
20 44 41
20 45 41
20 44 41
20 44 40
20 43 40
20 44 41
20 45 41
20 44 41
20 45 42
20 45 41
20 44 40
20 44 41
20 44 40
20 44 41
20 44 41
20 44 40
20 44 41
20 45 41
20 45 41
20 44 41
20 44 40
20 44 41
20 44 40
21 47 43
20 45 42
20 45 41
20 44 41
20 44 40
20 44 40
21 46 42
20 45 41
20 45 42
20 45 41
21 46 42
20 44 41
20 44 41
20 45 41
21 46 42
21 46 42
20 45 41
20 45 41
20 45 41
20 45 41
21 46 42
21 46 42
20 44 41
21 46 42
21 46 42
21 46 43
20 45 41
20 45 41
20 45 41
20 45 41
21 46 42
20 45 41
20 45 41
20 45 41
21 46 42
21 46 42
20 45 41
21 46 42
20 45 42
20 45 41
20 45 41
20 45 41
21 46 42
20 45 42
20 45 41
20 45 41
20 45 41
20 45 41
20 45 41
20 45 42
21 46 42
20 45 41
21 46 42
20 45 41
21 46 42
20 45 41
20 45 41
20 45 41
21 46 42
21 46 42
20 43 40
21 46 42
20 45 41
21 47 43
20 45 41
20 45 42
21 46 42
20 45 41
21 46 42
20 45 42
20 44 41
21 47 43
21 46 42
20 45 42
21 47 43
21 46 42
20 45 41
20 45 42
21 46 42
21 46 43
20 45 41
20 44 41
20 45 41
20 45 41
21 45 42
20 45 42
21 46 42
20 45 41
21 46 42
21 46 43
21 46 42
21 46 42
20 45 42
21 46 42
21 47 43
20 45 41
20 45 41
20 44 41
20 45 41
20 44 40
20 45 41
20 44 40
20 45 41
20 44 40
20 46 42
20 45 41
20 45 41
20 45 41
20 45 41
20 44 40
20 44 41
20 45 41
20 44 40
20 45 41
20 45 41
20 44 40
20 44 40
20 45 41
20 45 42
20 44 41
20 45 42
20 45 41
20 45 41
20 44 41
20 45 41
20 45 42
21 46 42
20 45 42
20 45 41
20 44 40
20 45 42
21 46 42
20 45 41
20 45 42
20 45 41
20 45 42
21 46 42
20 45 42
20 44 41
20 45 41
21 46 43
20 44 40
21 46 42
20 45 41
20 45 42
21 46 42
21 46 42
20 45 41
20 44 41
20 45 42
21 46 42
21 46 42
21 46 42
21 47 43
20 45 41
20 44 41
20 45 41
20 45 41
21 45 42
20 44 41
20 45 41
21 45 42
20 45 41
21 47 43
21 46 42
20 45 41
20 44 40
20 45 41
21 45 42
20 45 41
21 46 42
20 44 41
21 46 42
20 45 41
21 45 42
20 45 41
21 47 43
21 46 42
21 46 42
21 46 42
21 46 42
21 46 42
21 46 42
21 46 42
20 45 41
21 46 42
20 45 41
21 46 42
21 46 42
21 46 42
20 45 41
20 45 41
20 45 41
20 45 41
20 44 41
20 45 41
20 45 41
21 46 42
20 45 41
21 46 42
20 45 41
20 44 41
20 45 41
20 45 41
20 45 42
21 47 43
20 44 41
20 45 41
21 47 43
21 46 42
21 46 42
20 45 41
21 46 42
21 46 42
20 45 41
20 45 41
21 46 43
20 45 41
20 44 40
20 45 41
20 45 42
20 45 42
20 45 41
20 44 40
20 44 40
20 45 42
20 45 41
20 45 41
20 45 42
20 45 41
21 46 42
20 44 41
20 45 41
21 46 42
20 45 41
20 45 41
20 45 41
21 46 42
20 45 41
20 45 41
20 45 41
20 45 41
20 45 41
21 46 42
20 45 42
20 45 41
20 45 41
21 46 42
20 45 42
21 46 42
20 45 41
20 45 41
20 44 40
20 45 41
20 45 41
20 44 40
20 45 41
20 45 41
20 44 41
21 46 42
21 46 42
20 45 42
21 46 42
21 46 42
20 45 41
20 45 41
21 45 42
21 46 42
20 45 42
20 45 41
20 45 42
20 45 41
21 46 42
21 46 42
20 44 41
21 47 43
21 45 42
20 44 41
21 46 42
20 44 41
20 45 41
20 45 41
20 45 41
21 46 42
21 46 42
21 47 43
21 45 42
20 45 41
21 46 42
20 45 41
21 46 42
21 47 43
21 46 42
21 45 41
21 45 42
21 46 42
20 45 41
20 45 41
21 46 42
21 46 42
21 46 42
20 45 41
20 45 41
21 46 42
21 46 42
20 45 41
21 46 42
20 45 41
20 45 41
21 46 42
21 46 42
20 45 41
21 46 42
21 47 43
21 46 42
21 46 42
21 47 43
21 45 41
21 45 42
21 46 42
21 46 42
21 46 42
21 46 42
21 46 42
20 45 41
20 45 42
20 45 41
20 45 41
21 46 42
21 46 42
21 46 42
20 45 42
21 46 42
21 47 43
20 45 41
20 45 41
20 45 41
20 44 41
20 45 41
20 45 41
20 44 41
20 45 41
20 44 41
21 47 43
20 45 42
21 46 42
20 45 41
20 44 41
21 46 42
20 45 41
21 46 42
20 45 41
21 46 42
20 45 41
20 45 41
20 44 41
20 44 40
20 45 42
20 45 41
21 46 42
20 45 42
20 45 42
21 46 42
21 46 42
20 45 42
20 44 41
21 46 42
20 44 40
20 45 41
21 46 42
20 45 42
20 45 41
20 45 41
21 46 42
20 45 41
20 45 41
21 46 42
21 46 42
21 46 42
20 45 41
21 46 42
20 45 41
21 46 42
21 46 42
21 46 42
20 45 41
21 46 42
21 46 42
20 45 41
21 46 42
21 46 42
20 45 41
21 46 42
21 45 42
20 45 41
21 46 42
21 46 42
21 46 42
21 47 43
21 46 42
20 45 41
20 44 40
20 45 41
21 47 43
21 46 42
21 46 42
20 45 42
20 45 41
21 46 42
21 47 43
21 46 42
21 45 41
21 45 41
21 47 43
20 45 41
21 46 42
21 46 42
21 46 42
21 46 42
20 45 41
20 45 41
21 47 43
21 46 42
20 45 41
21 47 43
21 46 42
20 44 41
20 45 41
21 46 42
21 46 42
21 46 42
21 46 42
21 46 42
21 47 43
21 47 43
20 45 41
21 47 43
21 46 42
21 46 42
21 46 42
21 47 43
21 45 42
20 45 41
20 45 41
21 47 43
21 46 42
21 46 42
21 47 43
21 47 43
21 46 42
20 45 41
21 46 42
21 46 42
20 45 41
21 46 42
21 46 42
20 44 41
20 44 40
20 45 41
20 44 40
20 44 41
20 45 41
20 44 41
20 45 41
20 45 41
21 46 42
20 45 41
20 44 41
21 46 43
20 45 41
21 46 42
20 45 42
20 44 40
20 44 41
20 45 42
21 46 42
20 45 42
20 45 41
20 44 41
20 45 42
20 45 41
21 46 42
20 45 41
20 45 42
21 46 42
21 46 42
20 45 41
21 46 42
21 46 42
21 46 43
21 46 42
20 45 41
20 44 41
20 45 42
21 46 42
21 46 42
21 47 43
21 46 42
20 45 41
20 45 41
21 45 42
20 45 41
21 46 42
20 45 41
20 44 41
21 46 42
20 45 41
20 45 41
21 45 42
21 46 42
21 45 42
21 46 42
21 46 42
21 46 42
21 45 42
21 47 43
21 46 42
22 48 44
21 47 43
21 46 42
21 47 43
20 45 41
21 46 42
21 46 42
21 46 42
21 46 42
20 45 41
21 46 42
21 45 42
21 46 42
21 46 42
21 46 42
21 46 42
20 45 41
20 45 41
21 45 42
20 45 41
20 45 42
21 46 42
21 46 42
21 46 42
20 45 41
21 46 42
21 45 41
21 47 43
21 46 42
21 47 43
21 46 42
21 46 42
21 45 42
21 47 43
20 45 41
21 46 42
21 46 42
21 47 43
21 46 42
21 46 42
20 45 41
21 46 42
20 45 42
21 46 42
21 46 42
21 46 42
21 46 42
20 44 41
21 47 43
20 45 41
21 47 43
21 47 43
21 47 43
21 47 43
21 46 42
21 45 42
21 46 42
21 46 42
20 45 42
21 46 42
20 45 41
21 46 42
20 44 40
20 45 41
20 44 41
21 46 42
21 47 43
20 45 42
21 46 42
20 45 41
21 46 42
20 44 40
20 45 41
21 46 42
20 45 42
21 46 42
20 45 42
21 46 42
20 44 41
21 46 42
20 45 41
20 45 41
20 45 41
20 45 41
20 45 41
21 46 42
21 46 42
20 45 41
21 46 42
20 45 42
21 46 42
21 46 42
20 45 41
20 45 42
20 45 42
21 46 42
20 45 41
21 46 42
21 46 42
21 45 42
21 46 42
20 45 41
20 45 41
20 45 42
20 44 40
20 45 41
21 46 42
21 46 42
20 45 41
21 46 42
21 46 42
20 45 41
21 46 42
21 46 42
21 46 42
21 46 42
21 46 42
20 45 41
21 46 42
20 45 41
21 47 43
21 46 42
21 46 42
21 46 42
21 46 42
20 45 41
21 45 42
21 47 43
21 46 42
21 46 42
21 46 42
21 46 42
21 46 42
21 46 42
20 44 41
21 46 42
21 46 42
21 47 43
21 47 43
20 45 41
21 46 42
20 45 41
20 45 41
21 47 43
21 46 42
21 47 43
21 46 42
21 46 43
20 45 41
21 46 42
21 46 42
21 46 42
21 46 42
20 45 41
21 46 42
21 46 42
21 46 42
20 45 41
21 46 42
21 46 42
21 46 42
21 46 42
21 46 42
21 46 42
21 46 42
21 47 43
21 46 42
21 47 43
21 46 42
21 46 42
21 46 42
21 47 43
21 46 42
21 46 42
21 46 42
21 46 42
21 46 42
21 47 43
21 46 42
21 46 42
21 46 43
20 46 42
20 44 40
20 44 40
21 46 42
20 45 42
21 46 43
20 44 41
20 45 41
19 43 39
20 45 41
21 46 42
20 45 42
20 45 42
21 46 42
20 44 41
21 46 42
21 46 42
20 45 41
20 45 42
21 46 42
20 45 41
21 46 42
20 45 41
21 46 42
21 46 42
21 46 42
20 45 41
20 45 41
21 46 42
21 46 42
21 46 42
21 47 43
20 45 41
20 45 41
21 46 42
20 45 41
21 47 43
21 46 42
21 47 43
20 45 41
21 46 42
21 46 42
20 45 42
20 45 42
21 47 43
21 46 42
21 46 42
20 45 41
20 45 41
21 46 42
20 45 41
21 47 43
21 46 42
21 46 42
21 46 42
21 46 42
21 46 42
21 47 43
20 45 41
20 45 41
20 45 41
21 47 43
21 47 43
21 46 42
21 46 42
20 45 41
21 47 43
21 46 42
21 47 43
20 45 41
21 46 42
21 47 43
21 46 42
21 46 42
21 45 42
21 46 42
21 45 42
21 47 43
21 47 42
21 47 43
21 47 43
21 46 42
21 46 42
21 46 42
22 48 44
21 46 42
21 46 42
21 46 42
21 47 43
21 47 43
21 46 42
21 46 42
21 46 42
21 46 42
21 46 42
21 47 43
20 45 41
20 45 41
21 46 42
21 47 43
21 47 43
21 45 41
21 46 42
21 46 42
20 45 41
21 46 42
21 46 42
21 46 42
21 46 42
21 46 42
21 46 42
21 46 42
21 47 43
21 46 42
21 46 42
21 46 42
21 46 42
21 46 42
21 46 42
20 44 41
21 45 42
21 47 43
21 46 42
21 46 42
20 45 41
20 45 41
21 46 42
20 45 42
21 47 43
21 46 43
20 45 42
21 46 42
20 44 41
21 46 42
21 46 42
20 45 41
20 45 41
21 46 42
21 46 42
21 46 42
21 47 43
21 47 43
20 45 41
20 45 41
20 45 41
20 45 42
21 46 42
21 46 42
21 46 42
21 47 43
21 46 42
21 46 42
20 45 41
20 45 41
21 46 42
21 46 43
21 47 43
21 47 43
21 46 42
20 45 41
20 45 41
21 46 42
21 46 42
21 46 42
21 47 43
20 45 41
20 45 41
21 46 42
21 46 42
21 47 43
20 45 41
21 46 42
20 45 41
21 46 42
21 46 42
21 46 42
21 46 42
21 47 43
21 47 43
20 45 41
21 46 42
21 46 42
21 46 42
21 47 43
21 46 42
21 46 42
21 46 42
20 45 41
21 46 42
21 47 43
21 47 43
21 46 42
21 46 42
21 46 42
21 46 42
21 46 42
21 46 42
21 46 42
21 46 42
21 46 42
21 46 42
21 46 42
21 47 43
21 46 42
21 46 42
22 48 44
21 46 42
21 46 42
20 45 41
21 46 42
21 47 43
21 46 42
21 47 42
22 48 44
21 47 43
21 47 43
20 45 41
21 47 43
21 47 43
21 47 42
21 46 42
20 45 41
22 48 43
21 46 42
21 47 43
21 46 42
21 47 43
21 47 42
21 46 42
21 47 43
21 47 43
21 46 42
21 47 43
21 46 42
21 46 42
21 47 43
21 46 42
20 45 41
21 46 42
21 45 42
20 45 41
21 46 42
20 45 41
20 45 41
20 45 41
21 46 42
20 45 41
21 46 42
21 46 42
20 44 41
20 45 41
20 45 41
20 45 41
21 47 43
21 46 42
21 46 42
21 46 42
21 46 42
20 45 41
20 45 41
20 45 41
21 46 42
21 47 43
21 47 43
21 45 42
21 46 42
20 45 42
21 46 42
21 46 42
21 46 42
21 46 42
21 46 42
21 47 43
20 45 41
20 45 42
21 46 42
21 46 42
21 46 42
21 47 43
21 46 42
21 46 42
21 46 42
21 46 42
21 45 41
21 47 43
21 46 42
21 46 42
21 46 42
21 46 42
21 46 42
21 46 42
21 46 42
21 47 43
21 46 42
21 46 42
21 46 42
21 46 42
21 46 42
21 47 43
21 46 42
21 46 42
21 47 43
21 46 42
21 46 42
21 46 42
21 46 42
21 47 43
21 46 42
21 46 42
21 47 43
21 47 43
21 46 42
21 46 42
21 46 42
21 46 42
21 46 41
21 46 42
21 46 42
21 47 43
21 46 42
21 47 43
21 47 43
21 46 42
21 47 43
20 45 41
21 47 43
22 48 44
22 48 43
21 47 43
21 46 42
21 46 42
21 46 42
21 47 43
21 47 43
22 47 43
22 48 44
21 47 43
21 46 42
21 47 43
21 46 42
22 47 43
21 46 42
21 46 42
21 47 43
21 46 42
21 47 43
21 47 42
21 47 43
21 47 43
21 46 42
21 46 42
21 45 42
21 47 43
21 47 43
22 48 44
21 46 42
21 46 42
21 46 42
21 45 41
21 46 42
20 45 41
21 46 42
20 45 41
21 46 42
21 46 42
21 46 42
21 46 42
20 45 41
20 45 41
20 45 41
20 45 41
21 46 42
21 46 42
20 44 40
20 45 42
20 45 41
21 46 42
21 47 43
21 45 42
21 45 41
20 45 41
21 46 43
21 47 43
21 47 43
20 45 41
20 45 41
22 48 44
21 47 43
21 47 43
21 46 42
21 46 42
21 46 42
21 46 42
21 47 42
21 47 43
21 47 43
21 46 42
21 46 42
20 45 41
21 46 42
21 46 42
21 47 43
21 46 42
21 46 42
21 46 42
20 45 41
21 46 42
21 46 42
21 46 42
21 47 43
21 47 43
21 47 43
21 46 42
21 46 42
21 46 42
21 47 43
21 45 41
21 47 43
21 47 43
21 47 43
21 46 42
21 46 42
21 47 43
21 46 42
21 46 42
21 47 43
21 46 42
21 47 43
21 47 43
21 46 42
21 47 43
22 47 43
21 47 43
22 48 43
21 46 42
21 46 42
21 47 42
21 45 41
21 47 42
22 48 44
21 47 43
21 46 42
21 47 43
21 47 43
21 46 42
21 46 42
21 46 42
21 46 42
21 46 42
22 48 44
21 47 43
21 46 42
21 46 42
22 47 43
22 48 44
21 46 42
21 46 42
21 46 42
21 46 42
21 46 42
21 46 42
20 45 41
21 47 43
21 46 42
21 47 42
21 46 42
21 46 42
21 47 43
21 46 42
21 45 42
21 46 42
21 46 42
22 48 43
21 46 42
21 46 42
21 47 43
21 47 43
21 47 43
21 46 42
20 45 42
20 45 41
21 46 42
21 46 42
21 46 42
21 46 42
20 45 42
20 45 41
21 47 43
21 46 42
21 45 42
20 45 41
21 46 42
21 46 42
21 47 43
21 47 43
20 45 41
21 46 42
21 46 42
21 46 42
21 46 42
20 45 41
21 46 42
21 46 42
20 45 41
21 46 42
21 46 42
21 46 42
21 46 42
21 46 42
20 45 41
20 45 41
21 46 42
21 46 42
21 46 42
21 47 43
21 47 43
21 46 42
21 46 42
21 47 43
21 46 42
21 46 42
21 46 42
20 45 41
21 47 43
21 47 43
21 47 43
21 46 42
21 47 43
21 46 42
21 46 42
21 46 42
21 46 42
21 46 42
21 46 42
22 48 44
21 45 41
21 47 42
21 46 42
21 47 43
21 47 43
21 46 42
21 46 42
21 47 42
22 47 43
21 47 42
21 47 42
21 46 42
21 46 42
21 46 42
21 46 42
20 45 41
21 47 43
21 47 43
21 46 42
22 48 43
21 46 42
21 46 42
21 47 42
22 48 44
21 47 43
21 46 42
21 47 43
21 47 43
21 46 42
21 46 42
21 45 42
21 47 43
21 47 42
21 46 42
22 47 43
21 46 42
21 46 42
21 47 43
22 47 43
21 47 43
20 45 41
21 46 42
21 47 43
21 47 43
21 46 42
21 47 43
21 47 43
21 47 43
22 48 44
21 46 42
21 47 43
21 47 43
22 48 44
21 47 43
21 47 43
22 47 43
22 48 43
21 46 42
21 47 43
22 48 43
21 46 42
21 47 42
21 47 43
22 48 43
21 46 42
20 45 41
21 46 42
20 45 42
20 45 42
20 45 41
21 46 42
20 45 41
21 46 42
21 46 42
20 45 41
21 47 43
21 46 42
21 46 42
20 45 41
20 45 41
21 45 42
21 46 42
21 46 42
21 46 42
21 46 42
21 47 43
21 46 42
21 46 42
21 46 42
21 45 42
21 46 42
21 47 43
21 47 43
21 46 42
21 45 42
20 45 41
21 47 43
21 45 42
21 46 42
21 46 42
22 48 44
21 47 43
21 47 43
20 45 41
21 46 42
21 47 43
21 46 42
21 47 43
21 47 43
21 46 42
21 47 43
21 46 42
21 46 42
21 46 42
21 46 42
21 46 42
21 47 42
21 46 42
21 46 42
21 47 43
21 46 42
21 47 43
21 46 42
21 47 43
21 46 42
21 46 42
21 46 42
21 47 42
21 47 43
21 47 42
21 47 43
21 47 43
21 47 43
21 47 43
22 48 44
21 46 42
21 47 43
21 47 43
21 47 43
21 46 42
21 47 43
21 46 42
21 47 43
21 47 43
21 47 42
21 47 43
22 48 44
21 46 42
21 46 42
21 47 43
21 46 42
22 48 43
21 47 43
21 46 42
21 46 42
21 47 42
21 46 42
21 47 42
22 48 43
21 46 42
21 46 42
21 47 43
21 46 42
21 47 43
21 47 43
21 47 43
22 48 44
21 47 43
21 47 43
21 47 43
22 48 44
22 48 44
21 46 42
21 47 42
21 47 42
21 47 43
21 47 43
21 47 43
21 46 42
22 48 44
21 46 42
21 46 42
21 46 42
21 45 42
20 45 41
20 45 41
20 44 40
21 46 42
20 45 41
20 45 41
21 46 42
20 45 41
21 45 42
20 45 41
21 46 42
21 46 42
21 46 42
21 46 42
21 46 42
21 45 42
20 45 41
20 45 41
20 45 41
21 46 42
21 45 42
21 46 42
21 47 43
21 46 42
21 46 42
21 46 42
21 47 43
21 47 43
21 46 42
21 46 42
21 46 42
21 46 42
21 47 43
21 47 43
21 46 42
21 46 42
21 45 41
21 46 42
21 46 42
21 47 42
21 47 43
20 45 41
21 47 43
21 47 43
21 46 42
21 47 43
21 46 42
21 47 43
21 47 43
21 46 42
20 45 41
21 47 43
21 46 42
21 46 42
21 46 42
21 46 42
21 47 43
21 47 43
22 47 43
22 48 43
21 47 42
22 48 44
22 48 44
21 46 42
21 47 43
21 45 41
22 48 43
21 46 42
21 47 43
21 47 43
21 46 42
21 47 43
21 47 43
21 46 42
21 47 43
21 47 43
21 47 43
21 47 42
22 48 44
21 47 43
21 47 43
21 47 43
21 47 43
22 48 44
21 46 42
21 46 42
21 47 43
21 47 43
21 47 43
21 46 42
22 48 43
21 47 42
21 47 43
21 46 42
21 47 43
21 47 43
21 47 43
21 46 42
21 47 42
21 46 42
21 46 42
21 47 43
22 48 43
21 47 43
21 47 43
22 47 43
22 47 43
21 46 42
21 47 43
20 45 41
21 46 42
22 48 44
21 47 43
21 47 42
21 46 42
21 47 43
21 47 43
21 47 43
21 46 42
22 48 44
20 45 41
21 45 42
20 45 41
21 46 42
21 46 42
21 47 43
21 47 43
21 45 41
21 46 42
21 46 42
21 46 42
21 46 42
21 46 42
21 45 41
21 46 42
20 44 41
21 46 42
21 46 42
21 45 41
21 46 42
21 46 42
21 47 43
21 46 42
21 46 42
21 46 42
21 45 41
21 46 42
21 47 43
21 46 42
21 47 43
21 46 42
21 46 42
21 46 42
21 46 42
21 46 42
21 46 42
21 47 43
21 46 42
20 45 41
21 47 43
21 47 43
21 47 43
21 46 42
21 45 42
21 46 42
21 47 43
21 46 42
21 46 42
21 46 42
21 47 43
21 46 42
21 46 42
21 46 42
22 48 43
21 47 42
21 47 42
21 46 42
21 46 42
21 47 43
21 45 41
21 47 42
21 46 42
21 47 43
21 46 42
22 48 44
22 48 44
21 46 42
21 47 43
22 48 44
21 47 43
22 48 44
22 48 43
21 47 43
21 47 43
22 47 43
21 46 42
21 46 42
21 46 42
21 47 42
21 47 42
21 47 43
21 46 42
21 46 42
21 47 43
21 46 42
21 47 43
21 47 43
21 46 42
22 48 44
21 47 43
21 47 42
21 46 42
21 47 43
22 48 43
21 47 43
22 49 44
22 48 43
21 47 43
21 47 43
21 47 43
22 48 43
22 47 43
21 46 42
21 47 42
22 48 43
21 46 42
22 48 43
22 47 43
21 46 42
21 47 43
22 48 43
21 47 43
21 47 43
22 48 43
21 46 42
21 46 42
21 46 42
21 46 42
21 47 43
21 46 42
21 46 42
21 46 42
21 46 42
21 46 42
20 45 41
20 45 41
21 46 42
21 46 42
21 47 43
21 45 42
21 47 43
21 47 43
20 45 41
21 46 42
21 46 42
21 46 42
21 46 42
21 46 42
21 46 42
21 46 42
21 47 43
21 47 43
21 46 42
21 47 43
21 46 42
22 48 44
21 46 42
21 47 43
21 47 43
21 47 43
22 48 44
21 46 42
21 46 42
21 47 43
21 46 42
21 46 42
21 47 43
21 46 42
22 48 43
21 46 42
22 47 43
22 48 43
21 47 43
21 46 42
21 46 42
21 47 43
21 47 43
21 47 43
21 46 42
22 48 44
21 47 43
21 46 42
21 45 41
21 47 43
22 48 44
21 47 43
21 47 43
21 47 42
21 47 43
21 47 42
20 45 41
22 47 43
21 47 43
21 46 42
21 47 43
22 49 44
21 47 43
21 47 42
21 47 43
21 47 42
21 47 43
22 47 43
21 47 43
21 47 43
21 47 43
21 47 43
21 47 43
21 46 42
21 47 43
21 46 42
22 48 44
21 47 43
21 46 42
22 48 43
22 47 43
22 48 43
21 47 43
21 47 43
21 47 43
22 48 43
22 48 44
21 47 43
22 48 44
21 46 42
21 47 43
22 48 44
21 47 43
21 47 43
21 47 43
21 47 43
22 48 44
22 47 43
22 48 44
21 46 42
21 47 43
21 46 42
21 46 41
21 47 43
21 47 43
22 48 44
22 48 44
21 47 42
22 48 44
22 48 44
22 48 44
21 46 42
21 47 43
22 48 44
21 47 43
22 48 43
20 45 41
20 44 41
21 46 42
21 46 42
21 46 42
21 46 42
21 46 42
21 46 42
21 46 42
21 46 42
21 46 42
21 46 42
21 46 42
21 46 42
21 46 42
21 47 43
21 47 43
21 47 43
21 46 42
21 45 41
21 46 42
21 46 42
21 47 43
21 47 43
21 46 42
21 46 42
21 46 42
21 47 43
21 47 43
21 47 43
21 45 41
21 46 42
21 47 43
21 46 42
21 47 43
21 45 41
21 47 43
21 47 43
21 46 42
21 46 42
21 46 42
21 47 42
22 48 43
21 47 43
21 47 43
22 48 43
22 48 43
21 47 42
21 46 42
21 47 43
21 46 42
21 47 43
21 46 42
22 48 44
21 47 43
21 46 42
22 48 44
22 48 43
21 47 43
22 47 43
21 47 43
22 48 43
21 47 43
21 47 43
21 47 43
21 46 42
21 47 43
21 46 42
22 48 44
21 46 42
22 48 44
21 47 43
22 48 44
21 46 42
21 47 43
21 47 42
21 47 43
22 48 43
22 48 43
21 46 42
21 46 42
22 48 43
22 48 43
22 48 43
22 48 43
21 47 43
22 48 44
21 47 42
22 48 44
21 47 43
22 49 44
21 47 43
22 49 44
22 48 44
22 48 43
21 47 43
22 48 44
21 46 42
22 47 43
22 48 43
22 48 44
21 47 43
21 47 43
21 47 43
21 47 43
22 48 44
21 47 43
22 48 44
21 47 43
22 48 44
22 48 44
21 47 43
21 47 42
21 47 43
22 48 43
22 48 43
21 46 42
22 48 44
22 48 44
22 48 44
21 47 43
21 46 42
20 45 41
21 46 42
21 46 42
21 46 42
21 46 42
20 45 41
21 46 42
20 45 41
21 47 43
21 46 42
20 45 41
21 47 43
21 47 43
21 47 42
21 46 42
21 47 43
21 47 43
21 46 42
21 46 42
21 47 43
22 48 44
21 47 43
21 47 43
21 46 42
21 47 43
21 47 43
21 47 43
21 47 43
21 46 42
21 46 42
21 46 42
21 47 43
21 46 42
22 47 43
21 47 43
21 47 43
21 47 42
21 46 42
21 46 42
21 47 43
22 49 44
21 47 43
21 47 43
21 47 42
22 48 43
21 47 43
21 47 43
21 47 43
21 46 42
22 48 43
21 46 42
21 47 43
21 47 43
21 47 43
21 46 42
22 49 45
22 48 43
21 46 42
21 47 43
21 47 43
21 47 43
21 46 42
21 47 43
22 47 43
21 46 42
21 47 43
22 48 43
22 48 44
22 47 43
22 47 43
22 48 44
21 47 43
22 48 43
21 46 42
21 47 43
21 46 42
21 47 43
22 48 43
21 47 43
22 48 43
21 47 43
21 47 43
22 47 43
22 48 43
22 48 43
21 46 42
21 47 43
21 47 43
21 47 43
22 48 44
21 47 43
21 47 43
22 49 44
21 47 43
22 48 43
21 47 43
21 47 43
21 47 43
22 48 43
21 47 43
22 48 44
22 48 43
21 47 43
21 47 42
21 46 42
22 48 43
22 48 44
21 47 43
22 48 44
21 46 42
22 47 43
21 47 43
21 47 42
22 47 43
22 48 44
22 49 45
21 46 42
79 82 75
21 47 43
21 46 42
22 48 44
21 46 42
20 45 41
21 47 43
20 45 41
21 47 43
21 46 42
21 47 43
21 46 42
21 47 43
21 45 41
22 48 44
21 46 42
21 46 42
21 47 42
21 46 42
21 47 43
21 46 42
21 45 41
21 45 41
21 46 42
21 47 43
22 48 44
22 47 43
21 46 42
21 46 42
21 46 42
21 47 43
21 47 43
22 48 44
21 47 43
22 48 44
21 46 42
21 46 42
21 47 43
21 46 42
21 47 43
21 47 43
22 48 44
22 48 44
21 47 43
21 47 43
22 47 43
22 49 44
21 46 42
22 47 43
21 47 43
21 47 42
22 48 44
21 47 43
21 47 42
21 47 43
21 47 43
21 47 43
21 47 42
21 47 43
21 47 43
22 47 43
21 47 43
21 47 43
21 47 42
21 47 43
22 48 43
21 47 43
21 47 43
21 47 43
22 48 44
22 48 43
21 46 42
22 47 43
22 48 44
22 48 44
22 48 44
21 47 43
21 47 43
21 47 43
22 49 44
21 47 43
21 47 43
22 48 43
21 46 42
21 46 42
22 49 45
22 47 43
22 48 43
22 48 44
22 47 43
21 47 43
21 47 42
22 48 43
21 47 42
22 47 43
21 47 43
22 48 44
22 47 43
21 46 42
22 48 44
22 48 43
22 49 44
22 47 43
22 48 44
22 48 43
22 47 43
21 47 43
21 47 43
21 47 43
21 46 42
22 47 43
22 48 43
21 47 43
21 47 43
22 48 43
22 49 44
22 48 43
22 48 43
21 47 43
133 123 112
224 200 182
21 46 42
21 46 42
21 46 42
22 48 43
21 47 43
21 46 42
21 47 43
21 47 43
21 47 43
21 46 42
22 48 44
21 47 43
22 48 44
21 45 41
21 47 42
21 47 43
22 48 44
21 47 42
21 46 42
22 48 43
21 47 43
21 47 43
21 46 42
22 48 44
21 47 43
21 47 43
21 47 43
22 49 45
21 46 42
21 47 42
21 47 43
21 46 42
21 46 42
21 47 43
21 47 42
21 46 42
22 47 43
21 47 43
22 48 44
21 47 43
22 48 44
21 47 43
22 47 43
21 47 43
21 47 43
21 47 43
21 47 43
21 46 42
22 47 43
22 48 43
22 47 43
22 48 43
21 47 43
21 46 42
21 46 42
21 47 42
22 47 43
21 46 42
22 48 44
21 47 43
21 47 43
21 47 43
22 49 44
21 47 43
22 48 44
22 48 43
21 47 43
22 48 43
22 48 44
21 47 42
22 48 43
21 47 43
21 47 43
22 48 43
21 47 43
21 47 43
21 47 43
22 48 43
21 47 43
22 48 44
22 47 43
21 47 42
21 47 43
21 46 42
21 47 43
22 47 43
21 47 43
22 47 43
22 48 43
22 48 44
21 47 43
22 47 43
22 48 44
22 48 43
22 48 43
22 49 44
21 46 42
21 46 42
22 48 44
21 47 43
22 47 43
22 48 43
21 47 43
22 48 43
22 48 43
21 47 43
22 48 44
22 48 43
22 49 44
22 48 44
22 48 44
21 47 43
21 47 43
21 47 43
22 47 43
21 47 43
21 47 42
45 49 58
172 149 145
236 209 190
21 47 43
21 47 43
21 46 42
21 46 42
21 46 42
21 47 43
21 47 43
21 46 42
21 46 42
21 46 42
20 45 41
21 46 42
21 47 43
21 47 42
21 47 43
21 45 41
22 48 44
21 47 43
21 47 43
21 47 43
21 47 43
21 46 42
22 48 43
21 47 43
21 46 42
21 46 42
22 48 43
21 47 43
21 46 42
22 47 43
22 49 44
22 48 44
21 47 43
22 47 43
21 46 42
22 48 44
21 47 43
21 47 43
21 46 42
21 46 42
21 46 42
22 48 44
21 46 42
22 48 44
21 47 43
22 47 43
21 47 43
22 48 43
21 47 43
21 46 42
21 47 42
22 48 44
22 49 44
22 49 45
22 48 44
22 49 44
22 48 43
21 47 43
21 47 43
22 48 43
22 48 44
22 48 44
21 47 43
22 48 44
22 48 44
21 47 43
21 47 43
22 47 43
22 48 44
22 48 44
21 47 43
22 48 43
22 48 43
22 48 44
22 48 44
22 48 43
21 47 43
22 47 43
21 47 43
21 46 42
22 48 43
21 47 42
21 47 43
22 48 44
22 49 45
21 47 43
21 47 43
22 48 44
22 48 44
21 47 43
22 48 43
21 47 43
21 47 43
22 47 43
22 48 43
22 48 44
22 48 43
22 48 43
21 47 43
21 46 42
22 47 43
21 47 42
21 47 43
22 48 43
22 48 44
22 47 43
21 47 43
22 47 43
22 48 44
22 47 43
22 49 44
22 48 44
21 47 43
21 47 43
22 48 43
22 47 43
22 47 43
74 52 80
93 62 98
158 132 138
21 47 43
20 45 41
21 46 42
21 47 43
21 47 43
22 48 44
22 47 43
22 48 44
22 47 43
22 48 44
21 47 43
21 47 43
21 46 42
21 47 43
21 46 42
21 47 43
21 47 43
22 48 44
21 46 42
21 47 43
21 47 43
21 47 42
22 47 43
21 46 42
22 47 43
21 47 43
21 47 43
21 47 43
21 46 42
21 47 42
21 47 43
22 49 44
21 47 43
21 46 42
21 46 42
22 48 44
21 47 43
22 49 44
22 48 43
21 47 43
21 47 42
22 48 44
21 46 42
21 46 42
21 47 42
21 47 43
21 46 42
22 47 43
21 47 43
21 47 43
21 47 42
22 48 44
21 47 43
22 48 44
22 48 44
21 47 43
22 48 44
21 47 43
22 49 44
21 47 43
21 47 43
21 47 43
21 47 43
22 48 44
21 47 43
22 47 43
22 48 43
22 48 43
22 48 44
22 48 43
22 48 44
21 47 42
21 47 43
22 47 43
22 48 43
22 47 43
22 48 44
21 46 42
22 48 44
22 48 44
22 48 43
21 47 43
22 49 45
22 47 43
22 49 44
22 48 44
22 48 43
22 48 43
22 47 43
22 49 44
22 48 44
22 48 43
22 48 44
22 47 43
22 48 44
22 49 45
22 48 43
22 48 43
22 48 43
22 48 43
23 49 45
22 48 44
21 47 43
21 46 42
22 48 44
22 49 44
22 48 44
21 46 42
22 49 44
22 48 43
22 48 44
22 48 44
22 48 43
21 47 43
22 47 43
22 48 43
31 46 47
73 49 78
87 57 92
94 61 98
21 46 42
21 46 42
21 47 43
21 46 42
21 46 42
21 47 43
21 46 42
21 46 42
21 46 42
21 46 42
21 47 43
21 47 43
21 47 43
21 46 42
21 47 42
21 46 42
21 47 43
21 47 43
22 48 44
21 47 43
22 49 45
22 48 44
21 47 43
22 48 43
21 47 43
21 46 42
21 47 43
21 47 42
21 47 43
21 47 43
21 47 43
21 46 42
21 46 42
21 46 42
21 47 43
21 47 42
22 47 43
22 48 43
22 48 44
22 48 44
22 48 44
22 48 43
22 48 43
22 48 44
22 48 43
21 47 43
22 48 43
22 48 44
22 48 44
22 47 43
21 47 43
22 49 44
22 48 44
22 47 43
22 48 43
22 47 43
22 48 44
22 49 44
21 47 42
21 47 43
22 49 44
21 47 42
22 48 43
22 48 43
22 48 44
22 48 43
22 48 43
22 49 44
21 47 43
21 47 43
21 47 43
22 49 44
21 47 43
22 47 43
21 47 43
22 48 44
22 48 43
21 47 43
22 48 43
22 49 44
22 49 44
22 47 43
21 47 43
21 47 42
22 47 43
21 47 43
22 48 43
22 47 43
22 48 43
22 48 44
22 48 43
22 48 44
22 48 43
22 47 43
21 47 42
22 47 43
22 49 44
22 48 44
22 47 43
22 48 44
21 47 43
21 46 42
21 46 42
21 47 43
22 47 43
22 47 43
22 48 44
22 47 43
22 48 43
21 46 42
22 48 44
22 48 44
22 48 44
21 47 43
22 47 43
22 48 44
31 44 46
66 44 70
79 52 82
86 56 88
21 47 43
21 47 43
21 46 42
21 47 43
21 47 43
22 48 44
21 46 42
21 46 42
21 47 43
21 47 43
21 46 42
21 46 42
21 47 43
21 46 42
22 48 44
22 48 44
21 47 43
21 47 43
21 47 42
21 46 42
21 46 42
21 47 43
22 48 44
22 48 43
21 47 42
21 47 43
21 46 42
22 48 44
21 46 42
21 46 42
21 47 43
21 47 43
22 49 44
22 48 44
21 46 42
22 48 43
22 48 43
22 48 43
21 47 43
21 46 42
21 47 43
21 47 43
21 47 43
22 48 43
21 47 43
21 47 43
22 48 43
22 47 43
21 47 43
22 49 44
22 47 43
22 48 44
22 48 43
22 49 44
22 48 43
21 47 42
21 47 43
21 47 43
22 47 43
22 48 44
22 49 44
21 47 43
22 48 43
22 48 44
22 48 43
22 48 43
22 49 44
21 47 43
21 46 42
21 47 43
21 46 42
21 47 43
22 48 43
21 47 43
22 47 43
22 48 44
22 48 44
22 47 43
22 48 43
22 48 43
23 50 45
22 49 44
22 48 43
22 48 43
21 47 43
22 48 44
22 48 44
22 48 44
21 47 42
22 48 44
22 47 43
21 47 42
21 47 43
21 46 42
23 49 45
21 46 42
22 48 43
22 48 43
22 47 43
22 48 43
22 49 44
22 48 43
22 47 43
22 48 44
22 47 43
22 48 44
22 47 43
22 47 43
21 47 42
22 48 44
22 48 43
22 47 43
22 48 43
22 47 43
22 47 43
21 45 41
27 44 44
52 35 56
68 44 70
75 49 76
21 47 43
21 47 43
21 46 42
21 47 43
21 46 42
21 47 43
21 47 43
21 47 42
21 46 42
21 47 43
21 47 43
22 48 44
21 47 43
21 46 42
21 47 43
21 47 42
21 47 43
21 47 43
21 47 43
21 47 43
21 47 43
21 47 43
22 48 43
22 48 43
21 46 42
21 47 42
21 46 42
21 47 43
21 47 43
21 47 42
21 47 43
22 48 44
22 48 44
21 47 43
21 47 43
21 46 42
22 48 43
22 48 43
21 47 43
22 48 44
22 49 44
21 47 43
22 48 44
21 47 43
22 48 44
22 49 44
21 46 42
22 48 44
22 49 44
21 47 43
21 46 42
21 46 42
22 48 44
22 49 44
22 48 44
22 48 43
22 47 43
22 49 44
22 49 44
22 48 44
21 47 43
22 47 43
22 48 44
21 47 43
22 48 43
22 47 43
22 49 44
22 47 43
22 48 43
22 48 44
22 49 44
22 47 43
22 49 45
22 48 43
22 48 43
22 47 43
22 47 43
22 48 44
22 48 43
22 48 44
22 48 44
22 48 44
23 50 45
22 48 43
22 49 45
22 48 44
22 48 43
21 47 43
22 48 43
22 48 43
21 47 42
22 47 43
22 48 43
21 47 43
22 48 43
22 48 43
22 47 43
21 47 43
22 48 43
22 49 44
22 48 43
22 48 43
22 48 43
21 47 42
22 48 44
22 47 43
22 48 43
22 47 43
22 48 43
22 47 43
21 47 42
22 47 42
22 47 43
21 46 42
22 47 43
21 45 41
19 41 38
41 33 44
52 35 54
59 38 59
21 47 43
21 47 43
22 50 45
22 48 44
21 47 43
22 48 44
22 48 43
22 47 43
21 46 42
21 47 43
20 45 41
21 46 42
21 46 42
22 48 44
21 46 42
22 48 44
22 48 44
21 46 42
22 48 43
22 47 43
22 48 43
22 47 43
21 47 43
21 47 42
21 47 43
22 48 44
22 48 44
21 47 42
21 46 42
22 48 44
22 48 44
21 47 43
22 48 43
21 46 42
22 48 43
21 47 42
22 48 43
22 48 44
21 47 43
21 47 43
21 47 43
22 48 43
22 48 44
22 48 43
21 47 43
22 48 43
21 47 42
21 46 42
22 48 44
22 48 44
22 48 43
22 48 43
22 48 43
22 49 45
22 49 44
21 47 42
22 48 44
22 47 43
22 48 44
21 47 43
22 48 44
22 48 43
22 48 44
22 49 44
22 48 43
22 48 44
22 48 44
23 50 45
22 49 44
22 47 43
22 47 43
22 48 44
22 47 43
22 48 44
21 47 42
22 48 44
22 48 44
22 48 44
22 48 44
22 48 44
22 48 44
22 48 43
22 49 45
22 49 44
22 48 44
22 48 44
22 48 44
22 48 43
22 47 43
21 47 43
21 47 43
22 49 44
21 47 42
21 47 43
22 48 44
21 47 42
22 49 44
22 48 44
21 47 43
22 48 44
21 46 42
22 49 44
22 49 44
22 49 44
22 48 44
21 47 42
21 47 43
22 47 43
22 49 44
22 47 43
22 48 43
21 47 43
21 47 42
21 46 42
20 45 40
18 41 37
15 34 32
38 43 39
49 45 44
42 31 41
22 48 44
21 47 43
22 48 44
21 47 43
21 47 43
21 46 42
21 46 42
21 46 42
21 46 42
21 46 42
21 46 42
21 47 43
22 49 44
21 46 42
21 46 42
21 47 43
21 47 43
21 46 42
22 47 43
22 48 43
21 46 42
21 47 43
21 47 43
22 48 44
22 47 43
21 46 42
22 48 44
22 48 43
21 47 43
21 47 43
21 46 42
21 47 43
22 48 43
22 48 44
21 47 43
22 48 44
21 47 42
22 48 43
22 47 43
21 46 42
22 48 43
22 48 43
22 48 43
22 48 44
22 49 44
21 46 42
21 47 43
22 49 44
22 49 44
22 48 43
23 49 45
21 47 43
22 48 43
21 47 43
22 48 44
22 49 44
22 49 44
22 48 43
22 49 44
22 48 43
22 49 44
22 48 43
21 47 43
22 47 43
22 48 44
22 49 45
21 46 42
22 49 44
21 47 43
22 48 44
22 48 44
22 48 44
22 48 43
22 49 45
22 49 44
22 48 43
22 48 44
22 48 44
22 48 44
22 48 44
21 46 42
22 48 44
21 47 43
22 48 44
22 49 44
22 47 43
21 47 43
22 49 44
22 48 43
22 47 43
22 48 44
22 48 44
22 47 43
22 49 44
22 49 44
22 49 44
22 47 43
21 47 42
22 48 44
22 49 44
22 48 44
22 48 43
22 48 43
22 47 43
22 49 44
22 49 44
22 47 43
22 49 44
22 49 44
21 47 42
21 47 42
21 46 42
21 46 42
21 46 42
21 46 42
19 42 38
15 35 32
12 27 26
36 38 31
40 41 30
21 46 42
21 46 42
21 46 42
21 47 42
21 47 43
21 47 43
21 47 43
21 46 42
21 46 42
22 48 43
21 46 42
21 47 43
21 47 43
22 48 44
22 48 43
21 47 43
21 46 42
22 48 44
21 47 43
22 48 43
22 48 43
21 46 42
21 47 43
21 46 42
22 48 43
22 47 43
21 47 42
21 47 43
22 47 43
21 47 43
22 48 43
22 47 43
23 50 45
22 49 44
22 49 44
22 48 44
22 49 44
22 48 43
22 48 43
22 48 44
22 48 44
21 46 42
21 46 42
22 48 44
22 49 44
22 49 44
22 48 43
21 47 43
22 47 43
22 48 44
22 48 43
22 48 43
22 49 44
22 48 44
22 48 44
22 48 44
22 48 43
22 48 44
21 47 43
21 47 43
21 47 43
22 48 43
22 49 45
22 49 44
22 48 44
22 49 44
21 47 43
22 47 43
22 48 44
22 47 43
22 49 44
22 48 44
22 49 44
22 48 44
104 101 92
172 156 142
212 190 173
180 162 148
35 44 45
30 47 45
22 48 44
22 48 44
21 47 43
22 48 43
22 47 43
21 46 42
22 49 44
22 49 44
22 49 44
22 47 43
22 48 44
21 47 42
22 48 43
22 48 43
22 47 43
22 49 44
21 47 43
22 48 44
22 48 43
22 49 44
22 49 44
22 49 44
22 48 43
22 48 44
23 50 45
21 47 42
21 47 42
28 50 45
105 65 49
188 94 59
233 113 68
225 110 66
214 106 65
170 92 64
35 49 43
21 45 40
19 41 37
16 35 31
11 25 24
19 23 19
22 48 44
21 47 43
22 48 44
21 46 42
21 47 43
21 47 43
22 48 43
21 47 43
21 46 42
22 49 44
21 47 43
21 47 43
21 47 43
22 47 43
22 48 43
22 49 45
21 47 43
22 48 43
21 47 43
22 48 43
21 47 43
22 48 43
22 48 44
21 47 43
22 48 44
21 47 43
21 46 42
22 48 43
21 46 42
21 47 43
22 47 43
22 47 43
21 47 43
21 47 43
22 48 44
21 47 43
22 48 44
22 48 44
22 49 44
22 48 44
22 48 43
22 49 44
22 47 43
22 48 43
22 48 44
22 48 43
22 48 43
21 47 43
22 48 44
22 49 44
22 48 44
22 48 44
22 48 43
22 47 43
22 49 44
22 48 44
22 48 43
23 50 45
21 47 43
22 49 44
22 49 44
22 48 43
21 47 43
22 48 43
21 47 43
21 47 42
22 48 44
22 49 44
22 48 43
22 48 44
22 49 44
22 48 43
22 48 43
166 151 138
228 203 186
236 210 192
232 207 189
90 84 80
41 43 47
41 43 47
37 44 45
24 47 43
22 48 43
21 46 42
21 47 43
22 47 43
22 49 44
22 49 45
22 49 44
22 49 44
22 48 44
22 47 43
22 47 43
21 47 42
22 48 43
22 49 44
22 47 43
22 48 43
22 49 45
22 48 43
22 48 44
22 48 43
22 48 44
22 47 43
22 47 43
22 47 43
54 53 45
199 98 61
253 120 71
255 124 73
255 126 74
255 127 75
255 127 75
255 126 74
241 134 96
106 88 76
21 46 41
20 44 39
20 43 38
16 35 31
21 46 42
21 47 42
21 47 43
21 47 43
22 48 44
21 47 43
21 46 42
21 47 42
22 48 44
22 48 44
22 48 44
22 48 44
22 47 43
22 47 43
22 48 44
22 47 43
22 47 43
21 47 42
21 46 42
22 48 44
22 48 43
21 46 42
22 48 44
21 47 43
22 48 44
21 47 43
22 49 44
22 49 44
22 48 43
22 48 44
21 47 43
22 48 43
22 48 43
22 48 43
22 48 43
21 47 43
22 49 44
22 48 43
22 48 44
21 47 43
21 47 43
21 47 43
22 48 43
22 48 43
22 48 44
22 48 44
22 48 44
22 47 43
22 48 44
22 47 43
23 50 45
22 48 43
22 48 44
22 48 44
22 47 43
22 48 43
22 48 44
21 47 43
21 47 43
22 49 45
23 50 45
22 48 44
22 48 43
22 48 44
22 48 44
22 48 44
22 49 44
23 49 45
21 47 43
21 47 43
22 48 44
21 47 43
161 147 136
220 197 180
230 206 188
237 211 193
135 122 113
41 44 47
41 44 48
41 44 47
41 43 47
37 43 45
23 47 43
22 48 44
22 48 43
23 49 45
22 48 44
22 48 44
22 47 43
22 49 44
22 48 44
22 48 44
22 49 44
22 49 44
22 48 43
22 49 44
23 49 45
22 49 44
21 47 42
22 49 44
22 47 43
22 47 43
22 49 44
22 48 44
22 49 45
26 48 43
178 114 91
232 162 136
249 159 128
255 134 90
255 126 74
255 128 75
255 128 75
255 128 75
255 126 74
239 137 101
85 83 75
21 46 42
21 45 41
21 45 40
21 47 42
21 46 42
22 49 44
21 47 42
22 48 44
21 47 42
22 47 43
22 48 44
21 46 42
21 46 42
22 48 44
22 47 43
22 48 44
22 49 44
22 48 44
22 48 43
22 48 44
21 45 41
22 47 43
22 48 44
22 47 43
22 48 44
22 47 43
22 49 45
22 48 44
21 47 43
22 47 43
22 47 43
22 48 43
22 48 44
22 47 43
22 49 45
22 48 43
22 48 43
22 49 44
22 48 44
22 47 43
22 48 44
22 47 43
22 49 44
21 47 43
22 48 43
22 48 43
22 49 44
22 48 44
22 49 44
22 48 44
22 48 43
22 48 44
22 49 45
22 48 44
22 48 44
22 48 44
22 48 43
22 48 44
22 48 43
22 48 44
22 49 44
22 48 43
21 47 43
23 49 45
22 49 44
22 48 43
22 49 44
22 49 45
22 48 43
22 48 44
22 48 43
22 49 44
22 48 43
22 48 44
84 85 78
196 176 162
218 194 177
230 205 187
173 155 143
42 44 47
101 96 86
104 98 88
43 45 48
41 43 47
40 42 45
32 43 42
22 49 44
22 47 43
22 49 44
23 50 45
23 50 46
22 48 43
21 47 43
22 48 44
22 48 43
22 48 44
22 49 44
22 48 43
22 49 44
22 48 44
22 48 43
22 49 44
22 48 44
22 49 44
22 48 44
22 49 44
22 49 44
22 48 44
95 88 79
204 181 165
222 197 179
233 207 189
240 211 191
255 178 149
255 166 117
255 150 100
255 127 75
255 126 74
255 122 71
199 129 105
21 46 41
21 46 41
21 46 42
21 45 41
21 47 43
22 49 44
21 47 43
22 48 43
22 47 43
21 47 43
22 48 44
22 47 43
21 47 43
21 47 43
22 48 44
21 46 42
22 48 43
21 47 43
21 47 43
22 48 43
22 49 44
21 47 43
22 48 44
21 47 43
22 49 44
21 47 43
21 47 43
22 49 44
21 47 42
22 49 45
22 48 43
22 48 44
21 47 43
22 49 45
22 48 44
22 48 44
22 47 43
22 48 43
22 48 43
21 46 42
22 49 45
22 48 43
22 48 44
22 48 43
21 47 43
22 49 44
22 49 45
22 48 43
22 48 44
22 49 44
22 49 44
22 48 44
22 49 44
22 48 44
21 47 43
22 48 44
22 47 43
23 50 45
21 47 43
22 48 43
23 50 45
22 49 45
22 48 43
21 47 43
22 47 43
22 48 43
22 49 45
21 47 43
22 48 44
22 48 44
22 49 44
23 50 45
21 46 42
22 48 43
119 112 102
189 170 155
212 189 172
197 175 159
62 59 59
42 44 47
102 97 86
131 122 107
46 47 49
40 42 45
39 40 43
144 127 114
40 56 50
22 48 43
22 48 44
22 48 44
22 48 43
22 49 45
22 48 43
22 49 44
21 47 43
23 50 46
23 50 45
22 48 43
22 48 44
22 49 44
22 49 45
23 50 45
22 48 43
22 48 43
22 49 44
23 49 45
22 49 44
22 48 44
144 132 120
191 170 153
217 193 175
229 203 184
236 209 189
242 214 194
255 207 173
255 156 107
255 126 74
255 124 72
253 120 70
233 119 78
95 85 76
22 47 43
22 48 43
22 48 44
21 47 43
21 47 43
21 47 42
21 46 42
21 47 43
22 48 43
22 48 44
22 48 43
22 49 44
21 46 42
21 47 43
22 48 43
22 48 43
22 49 44
22 48 44
21 46 42
21 47 43
22 48 44
22 48 44
21 47 43
22 49 44
22 47 43
21 47 43
22 49 45
22 47 43
22 48 43
22 48 43
22 48 43
21 47 43
21 47 43
21 47 43
22 48 44
22 48 44
21 47 43
22 48 43
23 50 45
21 47 43
22 48 43
22 48 44
21 47 43
22 48 44
22 48 43
22 48 44
22 49 45
22 48 44
22 49 45
22 48 44
22 49 45
22 48 43
22 49 44
22 48 44
22 48 43
22 49 44
21 47 42
22 48 44
21 47 43
22 48 43
22 48 43
22 49 44
23 50 45
22 48 44
22 48 43
22 49 44
22 48 43
22 48 44
22 48 44
21 47 43
22 48 44
22 49 44
22 47 43
133 123 114
181 162 147
187 166 151
80 74 70
37 39 42
38 40 43
41 43 45
43 44 47
39 41 44
38 40 43
81 73 68
204 179 159
96 92 82
23 49 45
22 48 44
22 49 44
22 47 43
21 47 43
22 48 44
22 49 44
22 48 43
22 48 44
22 48 43
22 49 44
22 48 44
22 48 44
22 47 43
22 49 44
22 49 44
22 48 43
22 49 44
22 48 44
23 49 44
22 49 44
138 125 114
183 162 146
197 173 155
215 191 172
224 197 177
230 203 182
235 206 185
249 152 118
255 121 70
249 118 68
244 115 67
226 107 62
135 86 67
23 50 45
22 48 43
21 46 42
21 47 43
22 47 43
21 46 42
22 47 43
22 48 44
21 47 43
21 46 42
21 47 43
22 48 43
22 48 44
22 48 44
21 46 42
21 47 42
22 48 44
22 49 45
21 47 43
21 47 43
22 48 44
22 49 44
22 48 43
22 48 43
22 48 43
21 47 42
22 49 44
22 48 44
22 48 44
21 47 43
22 49 44
21 47 42
21 47 43
22 48 44
22 48 43
22 47 43
22 49 45
21 47 42
22 49 44
21 46 42
21 46 42
21 47 43
22 48 43
22 48 44
22 47 43
22 49 44
21 47 42
22 49 44
22 48 44
22 48 43
22 48 44
22 48 43
22 49 45
22 49 44
22 49 45
22 49 45
22 49 44
22 48 44
22 48 44
22 47 43
22 48 43
22 49 44
22 48 44
22 48 43
22 49 44
22 47 43
22 48 43
22 48 43
22 47 43
22 48 43
22 48 43
22 48 43
22 48 43
122 114 105
155 140 127
113 102 94
115 102 93
147 130 117
123 109 98
58 55 53
37 39 41
36 38 41
53 51 50
185 161 143
190 165 145
95 91 81
22 48 43
22 47 43
22 48 43
22 49 44
23 49 45
23 49 45
22 49 44
22 47 43
23 50 45
22 47 43
23 50 45
22 48 43
22 47 43
22 49 44
22 48 43
22 47 43
23 49 45
21 47 43
22 47 43
22 47 42
22 48 44
116 106 96
159 142 127
182 161 144
197 174 156
206 182 163
212 187 168
215 189 169
223 181 158
241 115 68
229 108 62
223 105 60
211 100 58
132 76 55
21 47 42
22 48 43
21 46 42
22 48 43
21 46 42
22 48 44
22 48 43
22 48 43
21 47 43
21 47 43
22 49 44
21 47 43
21 47 43
21 47 43
22 47 43
22 48 44
21 47 43
22 48 44
22 47 43
21 47 42
21 46 42
22 48 44
22 48 44
22 48 44
22 47 43
22 49 44
22 49 45
21 47 43
22 48 43
21 47 43
21 47 43
22 48 44
22 48 44
22 48 43
22 49 45
21 47 43
22 48 43
22 47 43
21 47 42
22 48 43
21 47 43
21 47 43
22 49 45
22 48 43
22 49 44
22 47 43
22 49 44
22 48 44
22 49 44
22 48 44
22 48 44
22 48 43
22 48 44
23 50 46
21 47 43
22 48 44
21 47 42
22 48 44
22 48 44
22 49 44
22 48 44
22 48 43
22 49 44
22 49 45
22 48 43
22 48 44
22 48 43
22 49 44
22 48 44
22 48 43
23 50 45
21 47 42
22 48 43
101 96 89
82 77 71
76 69 63
158 140 126
175 155 138
184 163 145
128 113 102
32 34 36
33 34 37
150 131 116
180 157 138
163 143 126
59 67 59
21 47 42
22 49 44
23 50 45
22 48 44
22 49 44
22 49 44
22 47 43
22 49 44
22 48 43
22 48 43
22 48 43
22 47 43
22 48 43
22 48 43
22 47 43
22 49 44
22 48 43
22 48 43
22 48 44
22 47 43
21 46 42
91 87 78
134 120 108
153 136 121
168 149 132
180 159 141
184 161 143
194 170 151
197 173 154
210 123 92
211 99 57
198 93 53
180 85 49
104 61 44
21 47 42
22 48 44
22 48 44
21 47 42
22 48 44
22 48 44
22 48 43
22 48 44
21 47 43
22 48 44
21 47 43
22 47 43
21 47 43
22 48 43
22 48 43
22 48 43
22 49 44
22 48 44
21 47 42
22 48 43
22 48 43
21 47 43
22 48 44
21 47 43
22 48 43
22 48 43
22 48 44
22 48 44
21 47 43
22 48 43
22 49 44
22 48 44
22 49 44
22 48 44
21 46 42
21 47 43
21 47 42
21 47 42
22 48 44
22 49 44
22 48 44
22 49 45
22 48 43
22 49 44
22 48 43
22 48 43
23 49 45
22 49 44
22 48 43
21 47 42
22 48 44
22 48 44
22 49 44
22 49 44
22 48 43
22 48 44
21 47 42
22 49 45
22 49 45
22 49 44
22 48 43
22 49 44
22 48 44
22 49 44
22 48 43
22 48 43
22 48 43
22 49 44
22 48 43
21 47 42
21 46 42
21 46 42
19 41 38
50 53 49
16 18 19
74 68 61
135 121 109
99 88 79
152 133 118
145 128 113
45 43 41
97 87 77
164 143 125
157 137 120
118 104 90
26 49 44
22 48 43
22 48 43
22 47 43
22 47 43
22 47 43
22 48 44
22 49 44
22 48 44
22 48 43
22 48 43
22 48 44
22 48 43
21 46 42
22 48 44
22 48 43
22 48 43
22 48 43
21 47 42
22 48 43
20 45 41
19 43 39
62 63 57
99 91 81
124 111 99
138 123 109
154 136 120
161 142 125
169 149 131
171 150 132
173 119 97
180 85 48
166 79 45
144 69 40
49 50 42
22 49 44
22 48 43
22 48 44
22 48 44
22 49 44
21 47 43
21 46 42
21 47 43
21 47 43
22 48 44
22 47 43
22 49 44
22 47 43
22 48 43
22 48 44
22 48 43
21 46 41
22 47 43
22 49 45
21 47 43
22 48 43
21 47 43
22 48 44
22 48 43
22 48 43
22 48 43
22 48 44
22 47 43
22 48 43
23 50 45
22 47 43
22 49 44
22 49 44
22 48 44
22 48 43
21 47 43
22 48 44
22 48 43
22 48 44
22 48 44
22 49 44
22 48 44
22 49 45
23 50 45
22 48 43
22 49 45
22 49 44
22 48 43
22 48 43
22 48 43
22 48 44
23 49 45
21 47 43
22 48 43
22 49 44
22 49 44
22 49 44
22 48 43
22 49 44
22 49 44
22 49 44
23 49 45
22 48 44
22 47 43
22 48 44
22 48 44
22 48 43
22 48 44
22 48 43
21 47 42
21 45 41
18 40 37
15 34 32
13 30 29
13 17 18
37 36 33
85 78 69
107 97 85
109 97 85
113 100 88
60 54 48
137 120 104
131 115 99
120 106 92
60 62 54
21 47 42
21 46 41
22 47 43
22 47 43
22 48 43
23 49 44
22 48 44
22 49 44
22 48 44
22 48 43
22 48 43
22 49 44
22 47 43
22 48 44
22 49 44
22 48 44
22 47 43
22 47 42
22 47 42
22 47 42
19 41 37
16 37 34
23 35 33
69 66 58
78 74 65
100 92 81
115 103 91
132 117 102
131 116 101
136 121 105
141 103 85
142 67 38
130 62 35
87 49 33
22 48 43
21 46 41
23 49 44
21 46 42
21 47 42
21 47 43
22 47 43
21 47 43
22 48 43
21 47 43
23 50 45
21 46 42
22 48 43
22 48 44
22 48 43
23 50 45
22 48 43
22 49 44
21 47 43
22 48 43
23 50 46
22 48 43
22 48 44
21 47 43
22 48 44
21 46 42
22 48 44
21 46 42
22 48 43
22 48 44
22 48 43
22 48 44
22 49 44
22 48 44
22 48 43
23 49 45
22 48 44
22 48 43
22 48 44
22 49 44
22 47 43
22 49 44
22 48 44
22 48 44
22 48 43
21 47 43
22 48 44
23 50 45
22 49 44
23 50 45
22 48 44
22 49 45
22 48 43
22 49 44
22 49 44
22 48 44
22 49 44
21 47 43
22 49 44
23 50 45
22 49 44
23 49 45
22 48 43
22 48 43
22 47 43
22 48 44
22 48 43
23 49 45
22 48 43
22 48 43
22 47 42
20 45 41
17 38 35
14 32 31
13 30 29
12 27 26
7 9 9
26 25 22
48 47 40
54 49 41
39 36 31
78 71 59
90 81 68
71 66 55
54 54 46
20 43 39
21 45 40
21 47 42
22 47 42
22 47 43
22 47 43
22 48 43
22 47 42
21 47 42
22 48 43
22 49 44
22 48 43
22 47 42
22 49 44
22 47 42
22 47 43
22 48 43
22 47 43
22 47 42
22 47 42
21 46 41
19 41 37
15 33 31
13 29 28
21 30 27
34 40 31
54 54 44
59 57 46
71 67 56
79 72 60
92 83 70
82 52 38
95 46 25
74 39 24
27 42 37
21 45 40
22 48 43
22 48 43
22 48 44
22 48 44
21 46 42
22 48 43
21 47 43
21 47 43
22 48 44
21 47 43
21 47 43
22 48 43
22 48 43
22 49 45
22 48 44
21 46 42
22 48 43
22 48 44
22 48 44
22 48 44
21 47 43
22 48 43
21 47 42
22 47 43
21 47 43
22 47 43
22 48 44
21 47 43
22 48 44
21 47 43
22 47 43
22 48 44
22 49 44
22 48 44
21 47 43
22 49 44
22 48 43
22 48 43
21 47 43
22 48 43
23 50 46
22 49 44
22 48 44
22 48 43
21 47 43
22 48 43
22 49 44
23 49 45
22 49 44
22 48 44
22 49 44
22 49 44
22 48 43
22 48 44
22 48 43
22 48 44
21 47 43
23 49 45
23 49 45
23 50 45
22 49 44
23 49 45
22 48 43
22 48 43
22 48 43
22 48 43
22 47 43
22 48 44
22 48 43
21 46 42
20 45 40
19 41 37
14 33 31
13 29 28
11 25 24
9 20 19
5 10 9
6 8 7
6 9 8
43 42 30
35 39 29
40 42 31
28 33 26
14 30 27
19 42 37
21 45 40
22 47 42
22 48 43
22 48 43
22 48 43
23 49 45
22 48 43
22 47 43
22 49 44
23 49 44
23 49 44
22 49 44
23 49 44
22 48 43
22 48 43
22 47 43
22 48 43
22 47 42
22 48 43
22 47 42
21 45 41
18 40 36
13 30 28
11 25 23
11 21 19
32 34 25
44 43 31
39 42 31
45 45 32
48 44 32
42 24 12
34 24 18
14 29 27
17 37 33
21 45 40
21 46 41
21 47 42
21 47 42
22 48 44
21 47 42
22 49 44
22 48 44
22 49 44
22 48 43
22 47 43
21 46 42
22 48 44
21 47 43
22 49 45
22 48 44
22 48 43
22 48 43
22 47 43
22 48 44
21 47 43
22 48 44
22 48 43
22 47 43
22 49 44
22 49 44
22 48 43
22 48 44
22 47 43
22 49 44
22 48 44
23 50 45
22 48 43
22 48 44
22 48 44
21 47 43
22 49 44
22 49 44
22 49 44
22 48 43
22 48 44
22 49 44
23 49 45
22 49 44
23 49 45
22 48 44
23 49 45
22 48 43
22 49 44
22 49 44
22 49 45
23 50 45
22 49 44
22 48 44
22 48 44
22 48 44
22 48 44
22 48 43
22 48 44
22 48 43
23 50 45
23 50 45
22 48 43
21 46 42
23 50 45
22 48 43
23 49 45
23 49 44
21 47 42
22 47 42
22 47 42
22 48 43
21 45 40
20 43 38
16 35 32
13 29 27
9 22 21
8 19 18
8 18 17
15 19 16
25 27 20
23 25 20
13 20 18
13 28 25
18 39 35
21 45 39
22 46 41
21 46 41
22 48 43
22 47 42
22 47 43
22 47 43
22 49 44
22 48 44
22 48 43
22 48 43
22 48 44
22 49 44
23 50 45
22 48 43
23 49 44
22 49 44
22 48 43
22 47 42
22 48 43
21 46 41
21 46 41
21 46 41
19 40 35
15 33 30
12 28 26
8 19 18
9 17 15
18 21 16
15 19 15
23 18 14
11 19 18
11 25 23
15 32 29
19 42 37
21 46 41
22 48 42
22 47 42
22 47 43
22 48 43
21 47 43
21 47 42
22 47 43
21 47 42
21 47 43
22 48 43
22 47 43
21 46 42
21 47 43
22 49 45
22 48 44
22 47 43
22 49 44
22 47 43
22 48 43
22 48 44
22 48 43
22 48 44
23 50 45
22 47 43
22 48 43
22 48 44
22 48 44
22 48 43
21 47 43
22 49 44
22 48 44
22 49 44
22 49 44
23 49 45
22 48 43
22 48 44
22 49 44
22 48 44
22 47 43
22 48 44
22 48 43
22 49 44
22 48 43
22 48 43
22 47 43
22 48 44
22 48 44
23 50 45
23 50 45
23 50 45
22 48 43
22 49 44
23 50 45
22 49 44
22 48 44
22 49 44
23 49 45
22 48 43
22 49 44
22 49 44
22 48 43
22 48 44
22 49 44
22 49 44
22 48 44
22 47 43
22 48 43
22 48 43
22 47 42
22 47 43
21 46 42
22 48 43
21 45 41
21 46 41
19 42 38
18 40 36
18 39 35
15 33 30
15 32 29
15 33 29
17 36 32
19 41 36
21 45 39
21 44 39
21 46 41
22 47 42
22 48 43
22 47 42
22 47 42
21 47 42
22 48 43
22 49 44
22 47 43
22 48 43
23 49 44
22 48 44
22 47 42
22 48 44
22 47 42
22 49 44
22 48 43
22 48 44
21 47 42
23 50 45
23 49 44
21 46 42
21 46 41
21 46 41
21 45 40
20 44 39
19 42 37
17 37 33
16 35 31
15 32 29
16 33 29
16 34 30
19 40 35
21 44 39
22 46 41
22 46 41
22 47 42
22 47 42
22 48 44
22 48 44
22 48 44
21 47 42
22 47 43
22 47 43
21 47 43
22 48 44
22 48 44
21 47 43
22 48 43
21 47 43
22 49 44
22 48 44
22 48 43
22 48 44
23 50 45
22 48 44
22 48 43
21 47 43
22 48 44
22 49 44
21 47 43
21 47 42
22 49 44
22 48 43
23 50 45
21 47 43
23 50 45
23 49 45
22 49 44
22 48 44
22 48 44
22 49 44
23 50 45
22 49 44
23 50 45
22 49 44
23 49 45
23 50 45
22 48 43
22 49 44
22 47 43
22 49 45
22 48 43
22 48 44
22 48 43
21 47 43
23 49 45
22 49 44
23 50 45
22 49 44
22 49 44
22 48 44
22 48 43
23 49 44
22 49 44
22 48 43
22 49 44
22 49 44
23 50 45
23 50 45
22 49 44
22 49 44
22 48 43
22 48 43
22 47 43
22 48 44
22 48 44
21 47 42
21 47 42
21 45 41
22 47 42
21 46 41
21 46 41
20 44 39
21 45 40
22 46 41
21 45 39
21 46 40
20 44 39
22 47 42
22 47 42
22 47 42
21 46 41
22 47 43
21 46 42
22 48 43
22 48 44
22 48 43
23 49 44
22 49 44
23 49 45
22 48 43
22 48 44
22 49 44
23 49 44
22 49 44
22 49 44
22 48 44
23 50 45
22 48 43
22 48 43
22 47 42
22 48 43
21 46 42
22 47 42
21 46 41
21 46 41
21 46 41
22 47 42
20 44 38
21 44 39
21 45 40
21 45 40
22 46 41
22 46 41
22 47 42
23 48 43
22 48 43
22 48 44
22 48 43
22 47 43
22 48 44
22 47 43
22 47 43
21 47 43
21 46 42
21 47 42
22 48 43
21 47 42
23 49 45
22 49 44
21 47 42
21 47 43
21 47 43
22 49 44
21 47 43
22 49 44
22 47 43
22 49 44
22 48 44
22 48 44
22 49 44
22 48 43
22 49 44
22 49 45
23 49 45
22 48 44
22 48 44
22 47 43
22 47 43
22 48 44
22 49 44
22 48 44
22 48 44
22 48 44
23 50 46
22 49 44
22 49 44
21 47 42
22 48 44
22 49 45
23 49 45
22 48 43
23 49 45
22 47 43
22 47 43
23 49 45
22 48 44
22 49 44
21 46 42
23 50 45
23 50 45
22 48 44
22 49 44
22 48 43
22 48 44
22 49 44
22 48 43
22 49 44
22 48 44
22 47 43
22 49 44
22 47 43
22 48 43
22 49 44
21 47 42
21 46 42
23 50 45
22 47 42
22 47 43
21 46 42
22 47 42
21 46 42
22 47 42
21 46 41
21 46 41
21 46 41
21 46 42
22 47 42
22 49 44
22 47 42
22 47 42
21 47 42
23 49 44
21 46 41
22 49 44
22 48 43
23 50 45
22 49 44
22 49 44
22 49 44
23 50 45
23 50 45
23 49 44
22 49 44
23 50 45
22 49 44
22 48 44
22 49 44
22 47 43
22 49 44
22 48 43
22 48 43
22 48 43
23 50 45
22 47 42
22 48 43
23 49 44
21 46 41
22 47 42
21 46 41
22 47 42
22 46 41
22 48 43
21 46 41
22 47 42
23 51 45
22 47 43
21 47 42
22 48 43
21 47 43
22 49 44
22 49 44
22 49 44
22 48 44
22 48 43
22 48 44
22 49 44
22 48 43
22 49 44
22 48 44
22 49 44
22 49 44
22 48 44
22 48 44
21 47 43
22 48 44
22 48 44
22 49 44
22 48 44
23 50 45
22 48 44
22 49 45
22 48 43
22 49 44
22 49 45
22 47 43
22 49 44
22 48 43
22 48 44
22 49 45
23 50 45
22 48 44
22 48 43
22 49 44
22 47 43
23 50 45
22 48 44
22 48 43
22 49 44
22 48 44
22 48 44
23 50 45
22 49 45
21 47 42
22 49 44
22 49 44
23 50 45
23 50 45
22 48 44
22 49 44
23 50 45
22 49 44
22 48 44
22 48 44
22 48 44
22 48 44
22 49 44
23 49 45
22 49 44
21 47 42
23 50 45
23 50 45
22 49 44
22 49 44
22 49 44
22 48 43
22 47 43
23 50 45
22 48 43
22 48 43
23 49 44
22 47 42
22 47 43
22 48 44
22 48 43
21 46 42
23 49 44
21 46 41
22 47 42
22 48 43
22 47 43
23 50 44
23 49 44
22 48 43
22 49 44
22 47 42
22 47 43
22 48 44
22 49 44
22 49 44
23 50 45
22 49 44
22 48 44
22 49 44
22 48 44
23 51 46
23 49 44
23 50 45
22 49 44
22 47 42
22 48 44
22 49 44
22 47 42
22 48 43
22 48 43
22 48 44
23 49 44
22 48 44
22 48 43
22 47 42
22 48 43
22 47 42
23 49 44
22 48 43
22 48 43
23 49 44
23 50 45
21 47 43
21 46 42
22 49 44
22 49 44
22 49 44
21 46 42
22 48 44
22 48 44
21 47 43
22 48 43
22 48 44
22 48 44
22 48 43
23 49 45
22 48 43
22 48 43
22 48 44
22 48 44
22 48 43
21 47 43
22 48 44
22 49 44
22 49 45
22 49 45
22 48 44
21 47 43
22 48 43
22 48 44
22 48 44
22 48 44
22 48 44
22 49 44
22 48 44
22 48 43
22 49 44
23 50 45
22 49 45
22 48 44
22 48 44
21 47 42
22 48 44
22 48 44
23 50 45
23 50 45
22 49 44
23 49 45
22 49 44
22 48 43
22 48 44
22 48 44
22 48 44
22 48 43
22 49 44
22 49 44
22 48 44
22 49 44
22 49 44
22 48 44
22 48 43
23 50 45
22 48 43
22 49 44
23 49 45
22 49 44
22 48 43
23 49 45
22 49 44
22 48 43
22 49 44
22 49 44
21 46 41
22 48 43
22 49 44
22 48 43
23 49 45
22 47 43
21 46 41
22 49 44
23 49 45
22 49 44
22 47 43
23 49 44
22 49 44
22 49 44
22 48 43
22 48 43
22 49 44
22 49 44
22 48 43
22 49 44
23 50 45
22 49 44
22 48 44
22 49 44
22 49 44
23 49 45
22 48 44
23 50 45
23 51 46
22 48 43
23 49 44
22 48 43
23 50 45
22 48 44
22 49 44
22 48 43
23 50 45
23 50 45
23 50 44
23 50 45
22 49 44
22 49 44
22 48 44
23 50 45
22 48 43
22 49 44
22 49 44
22 48 44
22 48 43
23 49 44
22 49 44
21 47 43
22 47 43
22 48 44
22 49 45
22 48 43
22 48 43
22 48 43
22 47 43
22 48 43
22 48 43
22 49 44
22 48 44
22 48 43
22 49 44
22 48 44
22 49 44
22 48 44
22 47 43
21 47 43
22 47 43
22 48 43
22 48 44
22 48 44
22 48 43
22 48 43
22 48 43
22 48 44
22 49 44
23 50 45
22 49 44
22 48 44
22 48 43
23 49 45
22 48 43
22 48 43
22 48 44
22 48 44
23 50 45
22 48 44
23 50 45
22 49 44
22 48 43
23 50 45
23 50 45
23 50 45
22 48 43
22 49 45
22 47 43
22 48 43
22 48 44
23 50 45
22 47 43
22 49 44
23 50 45
22 49 44
22 48 43
23 50 45
23 50 45
22 49 44
22 48 43
23 49 44
23 50 45
22 49 44
23 50 45
22 48 44
22 49 44
22 48 43
22 49 44
22 48 43
22 48 44
22 49 44
22 48 44
21 47 42
22 48 44
23 50 46
22 49 44
22 49 44
23 50 45
22 48 43
22 48 44
23 49 44
22 49 44
22 48 44
22 49 44
22 48 44
23 50 45
22 49 44
22 48 43
22 47 42
22 48 44
22 49 44
22 48 44
23 50 45
23 51 46
22 48 43
23 50 45
22 48 44
22 48 44
22 49 44
23 51 46
22 49 44
22 49 44
23 49 45
23 49 45
23 49 44
23 49 44
23 50 45
22 48 43
22 47 42
22 49 44
22 48 43
22 47 42
22 48 44
22 49 44
22 49 44
23 49 44
22 48 44
22 48 44
22 49 44
