P3
120 80
255
18 41 38
18 42 39
18 40 38
18 41 38
18 42 39
18 41 38
18 41 38
18 42 39
18 42 39
19 42 39
18 42 39
18 40 37
18 40 38
18 42 39
18 41 38
19 42 39
19 42 40
18 40 38
18 41 38
18 42 39
18 41 38
18 41 38
18 42 39
18 41 38
18 40 38
18 41 38
19 42 39
18 41 38
19 42 39
19 42 39
18 41 39
19 42 39
18 42 39
18 42 39
18 41 38
18 41 38
18 41 38
19 42 39
18 41 39
19 42 39
18 41 38
19 43 40
18 41 38
18 41 39
18 41 38
18 41 38
18 41 38
18 40 37
19 42 40
19 42 39
18 42 39
18 41 38
18 41 39
19 42 39
18 41 38
19 42 39
18 41 38
19 43 40
19 42 39
19 42 39
19 42 39
18 42 39
18 40 37
19 43 40
18 41 38
19 43 40
18 41 38
18 41 38
19 43 40
19 42 39
19 42 39
19 42 39
18 41 39
19 42 39
18 41 38
19 42 39
19 42 39
18 41 39
19 42 39
19 42 39
18 41 38
19 43 40
19 42 39
19 42 39
18 42 39
18 42 39
18 41 38
18 42 39
19 42 39
18 41 38
18 41 38
19 42 39
19 42 39
18 41 38
18 41 38
18 41 38
19 43 40
19 42 39
18 41 38
19 42 39
18 41 38
18 41 39
18 41 38
18 41 38
19 42 39
19 42 39
18 41 38
18 42 39
18 41 38
19 42 39
19 42 39
18 42 39
18 41 38
18 41 39
18 41 38
18 41 38
19 43 40
18 41 38
18 42 39
18 41 39
19 42 39
18 41 38
19 42 39
18 41 38
19 42 39
18 42 39
18 42 39
19 42 39
19 42 39
18 41 39
19 42 39
18 41 38
19 43 40
18 42 39
18 41 38
18 42 39
19 42 39
19 42 39
19 42 39
19 42 39
19 42 39
19 42 39
19 42 39
19 42 39
19 43 40
19 42 39
18 41 39
19 43 40
18 42 39
19 42 39
18 41 39
18 41 38
18 41 39
19 42 39
18 41 38
19 42 39
19 43 39
19 42 39
19 42 39
19 43 40
19 44 40
19 43 39
18 42 39
19 42 39
19 43 40
19 43 40
19 42 39
19 42 39
19 42 39
19 43 40
19 42 39
19 43 40
19 42 39
19 42 39
19 43 40
19 43 40
19 42 39
19 42 39
19 43 40
19 42 39
19 42 39
19 43 40
19 43 39
19 43 40
19 43 39
19 43 39
18 42 39
19 42 39
19 42 39
19 42 39
19 43 40
19 44 41
19 42 39
19 42 39
19 42 39
19 42 39
19 43 40
18 41 38
19 43 40
19 42 39
19 42 39
19 44 40
19 42 39
19 42 39
18 41 38
19 42 39
19 43 40
19 42 39
18 41 38
19 42 39
18 42 39
19 43 40
19 42 39
19 42 39
19 43 40
19 43 40
18 42 39
19 44 41
19 42 39
18 42 39
19 42 39
19 42 39
19 43 40
18 42 39
18 41 38
19 42 40
19 43 40
19 42 39
18 41 38
19 42 39
19 42 39
19 42 39
19 42 39
18 41 38
19 42 39
19 43 40
19 42 39
18 41 38
18 42 39
18 42 39
19 42 39
19 42 39
19 42 39
19 42 39
19 42 39
19 42 39
19 43 40
19 42 39
19 42 39
19 42 39
19 42 39
19 42 39
19 43 40
19 42 39
19 43 40
19 42 39
19 43 40
19 43 40
19 43 40
19 43 40
19 42 39
19 43 40
19 43 40
19 42 39
19 42 39
19 42 39
19 43 40
19 43 40
19 43 40
19 43 40
19 42 39
19 43 40
19 43 39
19 42 39
19 42 39
19 43 40
19 42 39
19 42 39
19 43 40
19 43 40
19 44 40
19 43 39
20 44 41
20 44 41
19 42 39
20 44 40
19 43 40
19 43 40
19 42 39
20 44 41
19 43 40
19 43 40
19 43 40
19 43 40
19 43 39
19 42 39
19 43 40
19 43 39
19 43 40
19 43 40
20 44 41
19 43 40
19 43 40
19 42 39
19 42 39
19 44 40
19 42 39
19 43 40
19 42 39
19 43 40
20 44 41
19 43 40
19 43 40
20 44 40
20 44 40
19 43 40
19 42 39
19 42 39
19 43 40
19 43 40
19 43 40
19 43 39
19 43 40
19 42 39
19 43 40
19 44 40
19 43 39
19 42 39
20 44 41
19 43 40
19 42 39
19 43 40
19 43 40
19 43 40
19 43 39
19 43 39
19 43 39
19 42 39
19 43 40
19 43 40
20 44 41
19 43 40
19 43 40
19 43 39
19 43 40
19 43 40
19 43 40
19 42 39
19 43 40
19 42 39
19 43 40
19 43 40
19 42 39
20 44 41
18 41 38
18 42 39
19 42 39
19 42 39
19 43 39
19 43 40
19 43 39
19 43 40
19 42 39
18 41 38
20 44 41
19 42 39
19 42 39
19 43 40
19 43 40
19 44 40
19 42 39
19 43 39
19 43 39
19 42 39
19 42 39
19 43 40
19 42 39
19 43 40
19 42 39
20 44 41
19 42 39
19 43 40
19 43 40
19 43 39
19 42 39
20 44 41
19 43 40
19 42 39
19 43 40
19 44 40
19 43 40
19 43 40
19 43 40
19 42 39
20 44 41
19 44 40
20 44 40
19 43 39
19 42 39
19 43 40
19 44 40
19 43 40
19 44 40
19 43 40
19 43 40
19 43 40
19 43 40
19 43 40
19 43 40
19 43 40
19 43 40
19 43 40
20 44 41
19 43 40
20 45 41
19 43 40
19 44 40
20 44 40
20 44 40
19 43 39
19 43 40
20 44 41
20 44 40
20 44 40
19 43 40
19 44 40
19 43 39
20 44 40
20 44 41
20 44 41
20 44 41
19 43 40
20 44 40
19 44 40
20 44 41
19 43 40
19 43 40
19 44 40
20 44 41
19 43 40
19 43 40
20 44 40
19 43 40
19 43 40
20 44 41
19 43 40
19 43 40
19 43 40
19 42 39
20 44 41
20 44 41
19 42 39
20 44 41
19 43 40
19 43 39
19 43 40
20 44 41
19 43 39
20 44 40
20 44 41
19 43 40
19 43 40
20 44 41
19 43 40
19 43 40
19 42 39
19 43 39
19 43 40
19 42 39
20 44 40
19 43 40
19 43 40
19 43 39
19 43 40
19 42 39
19 43 39
19 43 40
19 43 40
19 42 39
19 43 40
19 43 40
20 45 41
19 43 39
19 43 40
19 43 40
19 43 40
19 42 39
19 43 40
20 44 40
20 44 41
20 44 41
19 43 40
19 43 40
20 44 40
20 44 41
20 44 41
19 43 39
19 43 40
19 43 40
20 45 41
19 43 40
20 44 41
19 43 40
19 43 40
20 44 41
20 44 40
19 43 40
20 45 41
20 45 41
20 44 41
19 43 39
19 43 39
19 43 40
20 44 41
19 43 40
20 44 41
19 43 40
19 43 40
20 45 41
19 43 40
20 44 40
20 44 40
19 43 39
20 44 40
19 43 40
20 44 40
20 44 40
20 45 41
20 44 40
20 44 41
20 44 40
19 43 40
20 44 41
20 45 41
20 44 40
20 44 41
19 43 40
19 43 40
19 43 40
20 45 41
19 43 40
20 44 40
20 45 41
20 44 40
19 43 40
20 45 41
19 43 40
19 43 39
20 45 41
20 44 41
19 43 40
20 44 40
20 44 41
20 44 40
20 45 42
20 44 41
20 45 41
20 44 40
20 45 41
20 44 40
19 43 40
20 44 41
19 43 40
20 44 40
20 44 41
20 44 41
20 44 40
20 45 42
19 43 40
20 44 41
19 44 40
20 44 41
20 44 40
20 44 41
20 44 40
19 43 40
20 44 41
20 44 40
20 44 40
19 43 40
20 44 40
19 43 40
19 43 40
20 44 40
19 43 40
20 44 40
20 44 40
20 45 41
20 44 41
20 45 41
20 44 40
19 43 40
19 42 39
19 43 40
20 45 41
20 44 40
19 43 40
19 43 40
19 43 40
19 43 40
19 43 40
19 43 40
19 44 40
19 43 40
20 44 40
20 44 41
19 43 40
20 44 41
20 44 40
20 44 40
19 43 40
19 44 40
20 44 41
19 43 40
19 43 40
20 44 40
20 44 40
19 43 40
20 44 40
20 44 41
20 45 41
20 44 40
19 43 40
20 44 40
20 44 40
19 43 40
19 43 40
19 43 40
20 45 42
20 45 41
20 44 41
20 45 41
20 45 42
19 44 40
20 45 41
20 44 40
20 45 41
20 44 40
20 45 41
20 45 41
20 45 41
20 45 41
20 45 42
20 44 41
20 44 41
20 44 40
20 45 41
20 45 41
21 46 42
20 44 41
20 44 41
20 44 41
20 44 41
20 44 41
20 45 41
20 44 41
20 45 41
21 46 42
20 45 41
20 44 41
20 43 40
20 45 42
20 45 41
20 44 40
21 46 42
21 46 42
20 45 41
20 45 41
20 45 41
20 45 41
20 45 41
20 45 42
20 45 41
20 45 41
20 44 41
20 45 41
20 45 41
20 45 41
20 45 41
20 45 41
20 44 40
20 45 41
20 45 42
20 45 41
20 45 41
20 45 41
20 45 41
20 45 41
20 45 41
21 47 43
20 44 40
20 45 41
20 45 41
20 44 41
20 45 41
20 45 41
20 44 40
20 44 41
20 44 41
20 45 42
19 43 39
20 45 41
20 44 40
20 45 41
20 44 41
20 45 41
20 44 40
20 45 41
20 44 40
20 44 41
20 44 41
20 45 41
20 44 41
20 44 41
20 44 40
19 43 40
20 44 41
19 43 40
20 44 40
20 44 40
19 43 40
20 44 41
20 44 40
20 44 41
20 44 41
20 44 41
20 45 42
20 44 41
20 45 41
19 43 40
20 44 40
20 45 42
20 44 40
19 43 40
19 43 40
20 44 41
20 44 41
20 44 40
20 44 41
20 44 41
20 44 40
20 45 41
20 45 41
20 44 40
20 44 41
20 45 41
20 45 42
20 45 41
20 45 41
20 45 41
20 45 41
20 45 41
21 46 42
20 45 42
20 44 40
20 45 42
20 45 41
21 46 42
20 45 41
20 44 41
21 46 42
20 45 42
21 46 42
20 45 41
21 46 42
21 46 42
21 46 42
20 44 40
20 44 41
21 47 43
20 45 41
21 46 42
20 44 40
20 45 42
20 44 41
21 46 42
21 46 42
21 46 43
20 44 40
21 47 43
21 46 42
20 45 41
21 46 42
21 47 43
21 46 42
20 44 41
20 44 41
20 45 42
21 46 42
21 46 42
21 46 42
21 46 43
20 45 41
21 46 42
20 45 41
21 46 42
20 45 42
20 45 41
20 45 41
21 47 43
21 46 42
21 46 42
20 45 41
21 45 42
20 45 41
21 46 42
20 45 41
20 45 42
20 44 40
20 44 41
20 45 41
20 45 41
21 46 42
20 45 41
20 44 40
20 44 40
20 45 41
21 46 42
20 45 41
20 45 42
21 46 42
21 46 42
20 45 42
20 45 42
21 46 42
20 45 41
20 45 42
20 45 41
20 45 42
20 44 40
20 44 41
20 45 41
20 45 42
20 45 41
20 45 41
20 45 41
20 44 40
20 44 41
20 45 41
20 44 40
20 44 40
20 44 40
20 44 41
20 45 42
20 45 41
20 45 41
20 44 41
20 45 42
20 44 41
20 45 42
20 45 41
21 46 42
20 44 41
20 44 40
20 45 41
20 44 40
20 45 41
20 45 41
20 45 41
20 45 41
20 45 41
20 45 41
21 46 42
20 45 41
21 46 43
20 45 41
21 46 42
20 45 41
21 46 42
20 45 41
20 45 42
20 45 41
21 46 42
21 46 42
20 45 42
21 46 42
20 45 41
20 45 41
20 45 41
21 46 42
20 45 41
21 46 42
21 46 42
20 44 41
21 45 42
20 45 41
21 46 42
21 46 42
21 46 43
21 46 43
21 46 42
21 46 42
21 47 43
21 45 41
20 45 41
20 45 42
21 46 42
20 45 41
20 45 41
21 46 42
21 46 42
21 46 42
20 45 41
20 45 41
21 46 42
21 46 42
20 45 42
21 46 42
21 47 42
21 46 42
21 46 42
21 46 42
21 46 42
20 45 41
20 45 41
20 45 41
20 45 41
21 46 42
21 46 42
21 47 43
21 46 42
21 46 42
20 45 41
21 46 42
21 47 43
21 45 41
21 46 42
20 45 41
21 46 42
20 45 41
21 46 42
21 46 42
21 47 43
21 46 42
21 45 42
20 45 41
21 46 42
21 47 43
20 44 41
20 45 41
21 46 42
21 47 43
20 45 41
21 46 42
20 45 41
21 45 42
20 45 41
21 46 42
21 46 42
20 45 41
20 45 41
21 47 43
20 45 41
20 45 41
20 45 41
21 46 42
20 44 41
20 45 42
20 45 41
20 45 41
21 46 42
20 45 42
20 44 40
20 45 41
20 45 41
20 45 42
21 46 42
20 45 42
20 45 41
20 45 41
21 46 42
20 45 41
20 45 41
21 46 42
21 46 42
21 45 42
21 47 43
20 45 41
20 45 41
20 45 41
20 45 41
21 47 43
21 46 42
21 46 42
21 46 42
20 45 41
21 47 43
21 46 43
20 45 41
21 46 42
21 47 43
21 47 43
21 47 43
20 45 41
21 46 42
21 47 43
21 46 42
21 46 42
21 46 42
21 47 43
21 46 42
21 45 42
21 46 42
21 47 43
21 46 42
21 46 42
21 46 42
21 46 42
21 46 42
21 47 42
21 47 43
21 46 42
21 46 42
22 48 44
21 47 43
22 48 43
21 46 42
21 47 43
22 47 43
21 47 43
21 47 43
22 48 43
21 47 43
21 47 43
21 46 42
21 46 42
22 48 44
21 47 43
21 47 43
21 46 42
21 47 43
21 46 42
21 46 42
22 48 44
21 46 42
21 47 43
21 47 43
21 47 43
21 47 43
21 46 42
21 46 42
21 47 43
22 48 43
21 46 42
21 47 43
21 47 43
21 47 43
21 47 43
21 45 41
21 47 43
21 47 43
22 48 43
21 46 42
21 46 42
21 46 42
22 48 44
20 45 41
21 45 42
21 47 43
21 47 43
21 47 43
21 45 42
21 46 42
21 46 42
20 44 41
21 46 42
21 46 42
20 45 41
21 47 43
21 46 43
21 46 42
21 46 42
21 46 42
21 46 42
20 45 41
21 46 42
20 45 41
20 45 41
21 46 42
21 46 42
21 46 42
21 47 43
20 45 41
19 43 40
20 45 41
20 45 41
20 45 41
20 45 42
21 46 42
21 46 42
20 45 41
21 46 42
21 46 42
20 45 41
21 46 42
21 47 43
21 47 43
21 46 42
20 44 41
21 46 42
21 47 43
20 45 41
21 47 43
21 47 42
21 47 43
20 45 42
21 47 42
21 47 42
21 46 42
21 46 42
21 46 42
21 47 42
21 47 43
21 46 42
21 46 42
21 46 42
21 46 42
21 47 43
21 47 43
21 47 43
21 47 43
21 47 43
21 47 43
22 48 44
21 47 43
22 48 43
21 46 42
21 47 43
21 47 42
21 47 43
22 48 43
21 46 42
22 48 43
22 47 43
21 46 42
21 46 42
21 46 42
21 47 43
22 49 44
21 47 42
21 47 43
22 48 44
22 48 44
21 47 42
21 47 43
22 47 43
22 48 44
21 47 43
22 48 44
22 48 44
22 48 44
21 47 42
22 49 44
21 47 43
22 48 44
21 47 43
22 47 43
21 46 42
21 46 42
22 47 43
22 48 43
22 48 44
21 47 43
22 48 44
22 48 43
21 47 43
21 47 42
22 48 44
21 46 42
21 47 43
21 46 42
22 48 44
21 47 43
21 47 42
21 47 43
21 47 43
21 46 42
21 46 42
21 46 42
21 47 43
21 47 43
21 47 43
21 47 43
21 47 43
21 47 43
21 47 43
21 47 43
22 47 43
21 47 43
21 46 42
21 46 42
21 47 43
21 47 43
21 46 42
21 47 43
21 47 43
21 46 42
21 46 42
21 46 42
21 47 43
21 46 42
21 46 42
21 47 43
20 45 41
21 46 42
20 45 41
21 46 42
21 46 42
20 45 41
21 46 42
21 46 42
21 46 42
21 46 42
21 47 43
21 47 43
21 46 42
21 47 43
21 46 42
21 47 42
21 47 43
21 46 42
20 45 41
21 47 43
21 47 43
21 47 43
21 47 43
21 46 42
20 45 41
22 48 44
22 47 43
21 47 43
22 47 43
21 47 43
22 48 43
20 45 41
22 48 43
21 46 42
21 47 43
21 47 43
22 47 43
21 46 42
21 47 42
21 46 42
21 46 42
22 48 43
22 48 43
21 47 43
22 48 44
22 48 43
22 47 43
22 48 44
21 47 42
22 48 44
22 48 44
21 47 43
22 48 44
22 47 43
21 47 43
22 49 45
22 48 44
22 48 43
21 47 43
21 47 43
22 48 43
22 48 43
22 48 44
22 49 45
22 48 43
22 48 44
22 48 43
22 48 43
22 49 45
22 47 43
22 49 44
21 47 42
22 48 44
22 48 43
22 48 44
22 48 43
21 47 43
21 47 43
21 46 42
22 48 44
22 48 43
22 48 44
21 47 43
22 48 44
22 48 44
22 49 45
22 48 44
22 48 43
22 47 43
22 47 43
21 47 43
21 47 43
21 47 43
22 48 43
22 48 43
22 48 43
21 47 42
21 47 42
22 48 43
21 47 43
21 47 43
22 48 44
22 48 43
21 46 42
21 47 43
21 47 43
22 48 43
21 46 42
21 46 42
21 47 43
22 48 44
21 47 43
21 46 42
21 47 43
21 46 42
21 46 42
21 47 43
21 45 42
20 45 41
21 46 42
21 46 42
20 45 41
22 48 44
21 46 42
21 46 42
21 47 43
21 47 43
21 46 42
21 47 43
20 45 41
21 46 42
21 47 43
21 47 43
21 47 42
21 47 43
21 47 43
22 48 44
21 46 42
22 48 43
21 47 43
21 47 43
22 47 43
22 48 43
22 48 44
21 47 43
21 47 42
21 47 43
21 47 43
21 46 42
22 48 44
21 47 43
22 48 44
21 46 42
21 46 42
22 49 44
22 48 44
21 47 42
22 48 44
21 47 42
21 47 43
22 48 44
22 48 44
22 48 44
22 47 43
22 49 44
22 49 44
22 49 44
22 49 44
22 48 44
22 48 44
21 47 43
22 48 44
22 48 44
22 48 44
22 48 44
22 48 44
23 50 45
22 48 44
22 49 44
22 48 43
22 48 43
22 48 44
22 48 44
22 48 44
22 47 43
21 47 43
22 47 43
22 48 44
22 48 44
22 48 43
22 49 44
22 49 44
22 49 44
22 49 44
22 48 44
21 47 43
22 48 43
22 48 43
22 48 44
22 49 44
22 49 44
22 48 43
22 48 44
22 49 44
22 48 44
22 48 44
22 48 44
22 49 44
22 47 43
22 48 44
22 48 44
22 47 43
21 47 43
22 49 44
22 49 44
22 48 44
22 48 44
22 48 44
21 47 43
22 48 44
21 47 42
22 49 44
22 48 43
22 48 43
21 47 43
21 47 43
22 47 43
22 48 44
21 47 43
22 47 43
21 47 43
21 47 43
22 48 44
21 47 43
21 46 42
21 46 42
21 47 43
21 46 42
21 47 43
21 47 43
21 46 42
21 47 43
21 46 42
21 46 42
21 47 43
21 47 43
21 46 42
22 48 43
21 47 43
22 48 44
21 47 43
21 47 43
22 48 44
21 47 43
21 46 42
21 47 43
21 47 43
21 46 42
21 47 43
21 46 42
22 48 44
21 47 43
22 48 44
22 47 43
22 49 44
22 48 44
22 48 44
21 46 42
22 48 44
22 48 44
22 48 44
22 48 43
22 48 43
22 49 45
21 46 42
22 48 44
22 49 44
22 48 44
22 49 44
22 48 44
22 49 44
22 49 45
22 49 44
22 48 43
22 49 45
22 49 44
22 48 44
23 50 45
22 49 45
22 48 43
22 48 44
22 48 43
23 50 45
22 49 44
22 49 44
22 48 44
22 48 43
22 48 44
22 49 44
22 49 44
23 49 45
23 50 45
22 49 44
23 50 45
22 49 45
22 49 44
23 50 45
23 49 45
23 50 45
22 49 44
22 48 43
23 50 45
22 48 44
22 49 44
22 49 44
23 50 45
22 49 44
22 49 44
22 48 44
23 49 45
22 48 44
22 49 44
22 49 44
22 48 44
22 49 44
22 48 44
22 48 43
23 50 46
22 49 44
22 48 44
22 49 44
22 49 44
22 48 44
22 48 44
22 48 44
22 49 44
22 49 44
22 49 44
22 48 44
23 50 45
22 48 43
22 49 44
22 49 44
21 47 43
22 48 44
22 48 44
22 48 43
21 47 43
22 48 44
22 49 44
22 48 44
22 48 44
22 48 44
21 47 43
22 48 43
22 48 43
22 48 43
21 46 42
22 48 44
21 46 42
21 46 42
21 46 42
22 47 43
21 47 43
22 47 43
21 46 42
21 47 43
21 46 42
21 47 43
22 48 44
21 47 42
22 48 44
22 48 44
22 48 44
22 48 43
21 47 43
21 46 42
22 48 43
22 48 44
21 47 43
23 49 45
21 47 43
22 48 44
22 47 43
22 48 43
21 47 43
22 48 44
22 47 43
21 47 43
22 48 43
22 48 44
22 48 43
21 47 43
22 48 43
22 48 43
22 48 44
22 48 43
22 49 44
22 49 44
23 51 46
22 49 44
23 49 45
22 49 45
22 47 43
22 48 44
22 48 44
23 50 45
22 49 44
22 49 45
22 48 44
22 49 44
22 48 44
22 49 44
22 49 44
23 49 45
22 49 44
23 49 45
23 50 45
22 48 44
22 48 44
22 49 44
22 49 44
22 48 44
22 49 44
23 50 45
23 49 45
23 49 45
23 49 45
22 48 44
22 49 44
22 49 44
22 49 44
23 50 45
22 49 45
22 48 44
22 49 44
23 49 45
22 49 44
23 50 45
22 49 44
23 49 45
22 49 44
22 49 44
22 47 43
22 48 44
22 49 44
23 50 45
23 50 45
22 49 44
22 49 44
22 48 44
22 49 44
22 49 44
23 50 45
22 48 44
22 48 44
22 49 44
23 50 45
22 48 43
22 49 44
22 49 45
22 49 44
21 47 43
22 48 44
22 48 43
22 49 44
22 48 44
22 49 44
22 48 44
22 49 44
21 47 43
22 48 44
22 48 43
22 48 44
22 47 43
21 47 42
21 47 43
21 47 43
21 47 42
21 47 43
21 47 42
21 47 43
22 48 43
22 48 43
21 47 43
22 48 44
22 48 44
22 48 43
21 46 42
21 47 43
22 48 43
22 48 44
22 48 44
22 48 43
22 48 44
22 48 44
22 48 44
22 49 44
22 48 43
21 47 43
22 47 43
22 49 44
22 48 44
22 49 44
23 49 45
22 48 43
22 48 44
22 48 44
22 48 44
22 49 44
22 49 45
22 49 44
22 49 44
22 49 44
23 49 45
23 50 45
22 49 45
22 48 44
22 49 45
22 49 44
22 48 43
22 49 44
22 48 44
22 48 44
22 48 43
22 49 44
23 50 45
22 49 44
23 50 45
23 50 45
22 49 44
23 50 45
23 50 45
23 50 45
22 49 44
23 49 45
23 50 45
23 50 46
22 48 43
23 49 45
23 50 46
23 50 45
22 49 44
23 49 45
22 49 44
22 49 44
23 50 45
23 50 45
23 50 45
23 50 45
23 50 45
23 50 45
22 49 44
23 51 46
22 49 44
22 48 43
23 50 45
23 50 45
23 49 45
23 51 46
22 49 44
22 49 44
23 51 46
23 50 45
22 49 44
23 49 45
23 50 45
22 49 44
22 49 45
23 50 45
23 51 46
22 49 44
22 49 44
23 50 45
22 48 44
22 49 44
23 50 45
22 49 44
23 51 46
23 49 45
23 50 45
22 48 44
23 50 45
22 48 44
23 49 45
22 49 44
23 49 45
22 48 43
22 49 44
22 48 44
22 49 44
22 48 43
22 47 43
22 48 43
22 49 44
22 48 44
22 48 43
21 46 42
22 48 43
22 48 43
22 48 44
22 48 43
22 48 43
21 47 43
22 47 43
22 47 43
22 47 43
22 49 44
22 47 43
21 47 43
22 48 44
21 47 43
22 48 44
22 47 43
22 48 44
22 48 43
22 47 43
22 48 43
22 48 44
22 48 44
22 48 44
22 49 44
22 47 43
22 48 44
23 50 45
22 49 44
22 49 44
22 49 44
22 48 44
22 49 44
22 49 44
22 49 44
22 49 44
22 49 44
23 50 45
22 49 44
23 50 45
23 49 45
22 49 44
23 50 45
22 49 44
22 49 45
22 49 44
22 49 44
23 50 45
22 49 44
23 49 45
22 49 44
23 50 45
23 50 45
23 51 46
23 49 45
22 49 44
23 50 46
23 50 45
23 51 46
22 49 44
23 50 45
22 49 44
23 50 45
22 49 44
23 50 45
23 49 45
23 49 45
23 50 45
23 50 45
24 52 47
23 50 45
23 50 45
23 50 45
23 50 45
23 50 45
23 51 46
23 50 45
23 50 45
23 50 46
22 49 44
23 50 45
22 49 44
23 50 45
23 51 46
23 51 46
22 49 44
23 50 45
23 50 45
23 50 45
22 49 44
23 50 45
23 50 45
22 49 45
22 49 44
23 50 45
22 49 44
23 49 44
23 50 45
22 48 43
22 48 44
23 50 45
23 50 45
22 49 44
22 48 44
23 50 45
23 50 45
23 50 45
22 48 44
22 49 44
22 49 44
22 48 44
22 48 44
22 48 44
22 49 44
22 49 44
22 48 43
22 49 44
23 50 45
22 49 45
23 49 45
22 47 43
21 47 43
22 48 44
21 47 43
22 48 43
22 48 44
21 47 42
22 48 44
21 46 42
21 47 42
22 47 43
22 48 43
22 48 44
22 48 44
22 49 44
22 49 45
22 49 44
22 49 44
22 48 44
22 48 44
22 48 44
22 49 44
22 49 44
23 50 45
22 48 43
22 48 43
22 49 44
22 49 45
22 49 44
22 49 44
23 50 45
23 50 45
22 48 43
23 50 45
22 49 44
22 48 44
22 49 44
22 49 44
22 49 44
23 50 45
23 50 45
22 49 44
23 50 45
23 50 45
23 50 45
23 50 45
23 50 45
23 49 45
23 50 45
23 50 45
23 51 46
23 50 45
24 51 46
23 50 45
23 50 45
23 50 45
23 50 46
23 51 46
22 49 44
23 51 46
23 50 46
22 49 44
23 50 45
23 51 46
23 50 45
24 52 46
24 51 46
23 49 45
23 50 45
23 50 45
23 50 45
23 50 45
23 49 45
23 51 45
23 51 46
23 50 45
23 49 45
23 50 46
23 50 45
23 50 45
23 51 46
23 49 45
23 49 44
23 51 46
23 50 45
22 49 44
22 49 44
22 48 43
23 51 46
23 50 45
22 49 44
23 50 45
22 49 44
22 49 44
23 50 45
22 49 44
23 50 45
22 49 44
23 50 45
23 50 45
23 51 46
23 50 45
23 49 45
23 49 45
23 49 45
22 48 44
22 48 43
22 49 44
23 49 45
22 49 44
22 49 44
23 50 45
22 48 44
22 49 44
23 50 45
23 50 45
22 49 44
22 49 45
22 49 44
22 49 44
21 47 43
21 47 43
22 49 44
21 47 43
22 48 44
22 48 44
22 48 43
21 46 42
22 47 43
22 48 44
22 49 44
22 48 44
22 48 44
22 48 44
23 49 45
23 50 45
22 49 45
22 49 44
22 48 44
22 48 44
22 48 43
22 49 44
22 49 44
22 48 44
22 48 44
22 49 44
23 50 45
23 50 45
22 49 44
22 49 44
22 49 44
22 49 44
23 50 45
22 49 44
22 49 44
23 50 45
23 49 45
23 50 45
23 50 45
23 50 45
22 49 44
22 48 43
22 48 43
22 49 44
22 49 44
23 50 45
23 49 45
23 50 45
23 50 45
22 49 44
23 49 44
23 50 45
24 52 47
23 49 45
23 49 45
23 50 45
23 50 45
23 50 45
23 50 45
23 50 45
23 50 45
23 50 45
23 51 46
23 51 46
23 50 45
23 50 45
23 50 45
23 50 45
23 50 45
23 50 45
23 51 46
23 50 45
23 51 46
23 51 46
24 52 47
23 51 46
23 50 45
23 50 45
23 50 45
23 50 45
23 50 45
23 50 45
24 51 46
23 50 45
23 50 45
23 50 45
23 51 46
23 50 45
22 49 44
24 51 46
23 50 45
23 51 46
22 49 44
23 49 45
23 50 46
23 49 45
22 49 44
23 50 45
23 50 45
23 51 46
23 50 46
23 51 46
22 49 44
23 50 45
23 50 46
23 50 45
23 51 46
23 50 45
23 49 45
23 50 45
22 48 44
22 48 43
23 50 45
22 49 45
22 49 44
22 49 44
22 49 44
22 49 44
22 49 44
22 48 44
22 48 44
22 47 43
22 48 44
21 47 43
22 49 44
22 48 43
22 48 44
22 48 43
22 48 43
22 48 43
22 48 44
22 49 44
22 48 43
21 47 43
22 47 43
22 49 44
22 48 43
22 49 44
22 49 45
22 48 44
22 49 44
22 48 44
22 48 43
22 48 43
22 49 44
22 48 44
22 48 43
23 49 45
23 50 46
22 48 43
22 48 43
23 50 46
22 49 44
22 49 44
23 50 45
23 50 45
24 52 47
23 50 45
22 49 44
23 50 45
23 50 45
23 50 45
22 49 44
22 49 44
23 50 45
23 50 45
23 49 44
23 50 45
23 50 45
23 51 46
23 51 46
23 50 45
23 49 45
23 50 45
22 48 43
23 49 44
24 51 46
23 49 44
22 49 44
23 50 45
23 50 45
22 49 44
23 51 46
23 50 45
23 50 45
23 50 45
23 50 45
23 51 46
23 51 46
23 50 45
23 49 45
23 51 46
24 51 46
23 51 46
23 50 45
23 51 46
24 52 47
22 49 44
23 51 46
23 51 46
23 51 46
23 50 45
23 50 45
23 50 45
23 51 46
24 51 46
23 50 45
23 50 45
22 49 44
22 48 44
24 51 46
23 50 45
23 51 46
23 49 45
22 49 44
23 51 46
23 50 46
23 49 45
23 51 46
23 50 45
23 50 45
23 50 45
23 50 45
23 50 45
24 52 47
23 50 45
23 51 46
23 50 45
22 49 44
23 50 45
21 47 42
23 50 46
23 50 45
23 50 45
23 50 45
22 49 44
23 49 45
22 49 44
22 48 44
23 50 45
21 47 43
22 48 43
22 48 44
21 47 43
22 49 45
22 47 43
22 49 44
22 48 44
22 48 44
22 49 45
22 48 44
22 48 44
22 49 44
22 49 44
22 49 44
22 49 45
22 48 44
22 48 44
23 50 45
22 49 44
22 47 43
22 49 44
23 50 45
22 49 45
22 48 44
23 49 45
22 49 44
22 49 44
22 48 44
23 49 45
22 49 44
22 49 44
23 50 45
23 49 45
23 50 45
23 50 45
23 50 45
22 49 45
23 50 45
22 49 44
22 49 44
23 51 46
22 48 44
23 50 45
22 49 44
23 51 46
23 50 45
24 52 47
23 50 45
24 52 47
23 50 45
23 50 45
24 52 47
23 50 45
23 49 44
23 49 45
23 50 46
23 49 45
23 50 45
23 51 46
23 50 45
23 49 45
23 50 45
24 51 46
23 51 46
23 50 45
23 49 44
23 49 44
23 51 46
23 50 45
23 50 45
23 51 46
23 50 45
23 50 45
23 50 45
23 50 45
23 50 45
23 51 46
23 50 45
23 51 46
23 50 45
23 51 46
23 50 45
23 50 45
23 50 45
23 50 46
23 50 45
23 51 46
23 50 45
23 50 45
24 51 46
23 51 46
23 49 44
22 49 44
23 50 45
23 51 46
23 51 46
23 50 45
23 50 45
23 50 45
23 51 46
23 50 45
22 49 44
23 51 46
22 49 45
23 50 45
23 50 45
22 49 44
23 50 45
23 50 46
22 49 44
23 49 44
22 49 44
23 50 45
22 49 44
22 48 44
22 48 44
23 49 45
22 48 44
22 49 45
22 47 43
21 47 42
21 47 43
21 46 42
22 48 43
22 48 43
22 48 44
22 49 44
22 47 43
22 48 44
22 48 44
22 48 44
22 48 44
22 48 44
22 49 44
50 62 56
94 93 85
109 105 96
28 51 46
22 49 44
23 49 45
22 49 45
22 48 43
22 49 44
22 48 44
22 48 43
22 49 45
23 50 45
22 49 44
22 49 44
23 51 46
22 49 45
23 50 45
22 49 44
22 49 44
24 50 46
52 63 60
51 58 61
30 51 49
22 49 44
23 50 45
23 50 46
22 49 44
23 49 44
23 49 45
23 50 45
23 49 44
23 49 45
22 49 44
23 50 45
23 49 44
22 49 44
23 49 44
23 50 45
23 51 46
23 50 45
35 51 45
84 80 71
50 63 57
22 49 44
23 50 45
23 50 45
23 50 45
22 49 44
23 50 45
23 50 45
23 50 45
23 51 46
23 50 45
23 51 46
23 50 45
23 50 45
23 50 45
23 50 45
23 51 46
23 50 45
22 49 44
24 50 45
24 50 45
23 49 45
23 49 44
23 50 45
24 52 46
23 50 45
23 50 45
23 51 46
23 50 45
23 51 46
23 51 46
23 51 46
23 50 45
23 50 45
23 51 46
23 50 45
22 49 44
23 51 46
24 51 46
23 50 45
23 51 46
23 50 45
23 50 45
23 51 46
23 50 45
23 50 45
23 51 46
22 49 44
22 49 44
23 50 45
22 49 44
23 50 45
22 49 44
23 51 46
22 48 43
22 48 44
23 51 46
23 49 45
22 48 43
22 49 44
22 49 44
22 49 44
22 48 43
22 48 44
21 47 43
22 47 43
22 47 43
22 48 43
22 47 43
21 47 43
22 49 44
22 48 43
22 49 45
22 49 44
22 49 44
26 50 45
135 127 118
197 180 168
213 193 180
227 205 188
232 208 188
125 117 106
23 50 45
23 50 45
22 48 44
22 49 44
22 49 44
22 49 45
22 49 44
23 50 46
22 49 44
23 49 45
22 49 44
23 50 45
23 50 46
23 50 45
41 53 56
81 62 90
90 61 100
114 87 115
141 116 130
70 58 79
23 50 45
22 48 43
23 49 45
23 50 45
22 49 44
22 49 44
23 50 45
23 50 45
23 50 46
23 50 46
23 51 46
23 51 46
23 51 46
23 49 45
42 53 46
159 84 56
220 122 88
232 205 187
239 216 196
189 170 155
70 75 67
23 50 45
23 51 46
23 49 44
23 49 45
23 49 44
23 50 45
22 49 44
23 50 45
23 50 45
24 52 47
23 51 46
23 50 45
24 51 46
23 50 45
26 49 45
34 45 45
85 82 74
108 102 91
156 143 132
115 110 100
23 50 45
23 50 45
23 51 46
23 49 44
23 50 45
22 48 44
23 50 45
23 51 46
23 50 45
23 50 45
23 51 46
23 50 45
23 50 45
23 50 45
23 51 46
23 50 45
23 51 46
23 50 45
22 49 44
22 49 44
22 48 44
23 50 45
23 50 45
23 50 45
22 49 44
23 51 46
23 49 45
22 49 44
23 50 45
22 49 44
23 50 45
23 50 45
22 49 44
23 51 46
22 49 44
23 50 45
22 48 43
22 49 44
23 50 46
22 48 43
21 47 43
22 48 44
22 48 44
21 47 42
22 47 43
22 48 44
21 46 42
22 48 44
22 49 44
22 48 44
22 49 44
22 49 44
115 112 105
178 165 156
184 170 161
191 176 166
205 186 173
237 215 195
221 195 177
118 78 68
21 47 43
23 50 45
23 50 45
22 48 44
23 50 45
22 49 44
22 49 44
22 49 44
23 50 45
22 49 44
22 49 44
22 49 44
36 49 52
75 53 86
79 54 91
81 55 92
87 60 96
111 87 111
97 68 102
72 56 79
23 50 45
23 50 45
23 49 45
23 50 45
23 50 45
23 50 45
22 49 44
23 50 45
23 50 46
23 49 45
22 49 44
23 50 45
23 49 45
154 81 53
211 103 62
205 128 103
195 179 168
207 189 175
209 189 175
194 174 159
40 57 51
23 51 46
23 50 45
23 49 44
23 50 45
23 50 45
22 48 44
23 50 45
23 49 44
23 50 45
23 50 45
22 49 44
23 49 45
51 64 58
61 60 58
34 37 41
45 46 47
120 112 105
199 182 170
204 185 171
120 114 104
23 51 46
22 49 44
23 50 45
23 50 45
23 50 45
24 51 46
23 50 45
23 50 45
24 52 47
22 49 44
23 51 46
22 49 44
23 50 45
22 49 44
23 49 45
23 50 45
22 49 44
23 49 44
22 49 44
23 50 45
23 49 45
23 51 46
23 50 45
23 50 45
23 50 45
23 49 45
23 50 45
23 49 45
22 49 44
22 49 44
23 50 45
23 51 46
22 49 44
23 49 45
23 51 46
23 49 45
22 49 44
23 50 45
22 48 43
22 49 44
22 48 44
22 48 44
22 48 43
22 48 44
22 49 44
22 48 43
22 48 43
22 49 44
22 49 44
22 48 44
44 49 44
145 133 125
158 147 140
165 153 146
171 158 150
179 164 154
190 172 160
196 175 160
180 117 102
23 49 45
22 47 43
23 49 45
22 48 44
23 50 45
22 48 44
22 48 44
22 49 44
23 50 45
22 49 44
23 50 45
22 49 44
49 45 60
68 47 79
82 63 89
127 114 119
147 132 132
157 141 138
124 104 114
89 61 91
40 56 53
23 50 45
23 49 45
23 49 45
23 50 45
23 50 45
23 50 45
23 50 45
23 50 45
23 50 45
23 50 45
22 49 44
69 57 48
177 87 53
181 90 55
186 101 71
174 158 149
175 162 152
179 164 153
186 168 155
124 115 104
23 50 45
23 51 46
23 50 45
23 50 45
23 51 46
23 50 45
23 50 45
23 49 45
23 50 45
23 50 45
23 51 46
23 50 46
107 100 91
29 32 36
29 32 36
29 32 36
144 134 127
174 161 153
174 160 150
170 155 144
37 56 51
23 50 45
23 50 45
23 50 46
24 52 47
23 50 45
23 50 45
23 51 46
22 49 44
23 50 45
23 50 45
23 51 46
23 50 45
23 51 46
23 49 44
23 50 45
23 49 45
23 49 44
23 49 45
23 50 45
22 48 43
23 49 45
23 50 45
24 52 47
22 48 44
23 50 45
23 50 45
23 49 45
22 49 44
22 49 44
23 49 45
23 49 45
23 49 45
22 49 44
23 50 45
22 49 44
22 48 44
23 49 45
22 48 44
21 47 43
22 48 43
22 48 44
22 49 44
22 48 43
22 47 43
22 47 43
22 48 44
22 48 43
22 49 44
22 49 44
69 49 43
139 115 108
140 130 122
145 134 126
150 139 130
151 139 131
146 134 124
161 127 116
157 102 89
45 58 52
22 48 44
22 48 43
22 49 44
22 49 44
22 49 44
22 49 44
22 49 44
23 51 46
22 48 44
22 48 43
22 49 44
54 42 64
82 68 82
140 129 123
150 140 132
146 135 127
152 141 132
148 135 125
123 106 106
63 63 66
23 50 45
22 49 44
23 50 45
23 51 46
23 50 45
22 49 44
23 50 45
22 49 44
23 50 45
22 48 44
23 50 45
84 66 56
151 75 45
155 77 47
166 83 50
154 121 109
155 144 135
149 138 129
141 130 121
130 121 111
22 49 44
23 50 45
22 49 44
23 49 44
23 50 45
23 51 46
23 50 45
23 51 46
23 50 45
22 49 44
23 50 45
25 50 45
86 81 75
99 92 86
113 105 99
59 56 55
134 125 118
150 139 132
146 136 128
137 128 120
77 81 75
23 51 46
23 51 46
23 50 45
23 50 45
22 48 44
22 48 43
23 49 44
22 49 44
23 50 45
23 51 46
23 50 45
23 50 45
22 49 44
24 52 46
23 51 46
23 50 45
23 51 46
23 50 46
23 51 46
23 50 45
23 49 45
23 50 45
23 50 45
22 49 44
23 50 45
23 49 45
23 50 45
23 50 45
23 50 45
23 50 45
23 49 45
22 48 44
23 50 45
23 49 45
23 50 46
23 50 45
23 50 45
22 48 43
21 47 43
22 49 45
22 48 43
22 48 43
22 48 44
22 49 44
22 48 44
22 49 45
22 48 43
22 48 43
22 49 45
61 46 40
117 51 42
120 100 93
130 117 108
128 118 110
121 107 99
121 89 81
117 45 35
119 85 75
40 55 50
22 48 44
23 50 45
22 48 44
22 48 44
23 49 45
23 50 45
22 49 44
23 49 45
23 49 45
22 49 44
21 47 43
41 36 49
107 98 93
122 112 104
125 116 107
127 118 109
124 115 107
120 110 102
116 103 95
48 56 55
22 49 44
22 48 44
23 50 45
22 49 45
23 50 45
22 49 45
22 49 44
23 49 45
23 49 45
22 49 44
23 49 44
76 73 65
118 60 37
133 66 39
142 70 42
143 74 48
126 110 101
128 119 110
118 110 102
88 86 78
22 48 44
23 51 46
23 49 44
23 50 45
23 49 44
23 49 45
23 50 45
23 49 45
23 50 45
23 49 45
23 49 45
26 51 46
85 79 73
101 93 86
101 94 87
96 89 83
120 111 104
136 126 117
117 109 101
114 106 98
65 71 65
23 50 45
22 49 44
23 50 45
22 48 44
23 50 45
23 50 45
23 51 46
22 49 44
23 50 45
23 49 45
23 50 45
23 51 46
23 50 45
23 51 46
23 49 44
22 49 44
23 51 46
23 50 45
22 49 44
22 49 44
23 49 44
23 50 46
22 49 44
22 48 44
22 48 43
22 48 44
23 50 45
22 48 44
22 49 44
22 49 44
23 50 45
22 48 44
22 49 44
23 50 45
23 50 45
23 49 44
23 50 45
22 48 44
21 47 43
22 48 44
21 47 43
22 47 43
22 48 43
22 47 43
21 47 43
22 48 44
22 48 43
22 48 44
22 48 44
22 47 43
86 35 28
87 30 21
91 36 28
96 41 33
93 32 23
83 29 20
83 28 20
70 43 36
22 48 43
22 47 43
22 49 44
22 48 43
22 48 44
22 48 44
22 48 43
22 48 44
22 48 44
22 48 44
22 49 44
23 49 44
34 42 45
75 71 64
89 84 76
89 84 76
93 87 79
95 89 80
82 77 69
94 84 75
30 50 46
23 49 44
22 48 44
23 49 45
22 47 43
22 49 44
22 48 44
22 49 44
22 48 43
23 50 45
23 50 45
23 50 45
42 57 51
84 57 46
97 49 28
104 52 30
106 53 31
106 64 48
95 83 74
96 88 79
67 66 58
22 48 43
22 49 44
22 49 44
22 49 44
22 49 44
22 49 44
22 49 44
23 49 44
22 49 44
22 49 44
23 50 45
22 48 44
67 67 60
84 78 71
95 89 82
57 54 49
84 78 71
102 95 87
96 90 82
96 91 83
35 54 49
23 50 45
22 48 44
23 50 45
23 50 45
23 50 45
22 49 44
23 50 46
22 49 44
23 50 46
22 48 43
23 50 46
23 50 45
23 49 45
22 49 44
22 49 44
23 51 46
22 49 44
22 48 43
23 50 45
22 49 44
22 48 44
23 50 45
23 49 45
23 49 44
22 49 44
22 49 44
22 49 44
23 50 45
22 49 44
23 50 45
22 48 44
22 49 44
23 50 45
22 48 44
22 49 45
22 49 45
22 49 44
21 47 42
22 47 43
22 49 44
22 48 44
22 48 43
22 47 43
21 47 42
22 47 43
22 47 43
22 48 43
22 47 43
22 47 43
21 47 43
45 43 38
44 19 14
35 14 9
27 12 8
38 15 10
36 15 9
41 20 15
29 43 38
22 47 42
22 48 43
22 48 43
21 46 41
22 47 43
22 47 43
22 47 43
21 47 42
22 49 44
22 48 43
22 47 43
21 46 42
22 47 42
47 47 42
43 45 39
44 45 39
44 46 40
41 45 38
44 45 37
48 53 45
21 46 41
22 48 43
22 48 43
22 49 44
22 48 43
22 48 43
23 50 45
22 48 43
22 49 44
22 48 44
22 48 43
22 48 43
22 48 43
42 50 44
35 24 15
41 24 13
47 26 15
50 27 15
59 33 20
39 33 26
25 48 43
22 48 44
22 48 43
22 49 44
22 48 43
22 49 44
22 48 43
23 50 45
22 48 43
23 50 45
22 49 44
22 48 43
23 49 44
27 47 41
25 27 24
15 17 15
7 9 9
33 32 29
52 53 46
55 55 48
56 61 55
22 48 44
22 47 43
22 48 44
23 50 45
22 48 44
22 49 44
23 50 45
23 50 45
22 49 44
23 50 45
23 49 45
23 50 45
23 50 45
22 48 44
22 49 44
23 50 45
22 49 44
23 50 45
22 49 45
22 49 44
23 50 45
23 49 45
22 49 45
22 49 44
23 50 45
23 50 45
22 49 44
22 49 45
22 49 44
23 49 45
22 49 44
23 49 45
23 50 45
22 48 44
22 48 43
23 50 45
22 49 44
22 49 44
22 48 44
22 49 45
22 48 44
22 48 43
21 47 42
22 48 44
21 47 43
22 48 43
22 48 43
22 48 44
21 47 42
19 42 38
19 40 37
16 36 33
19 28 26
9 11 10
9 7 5
10 8 5
14 14 11
22 35 30
20 43 38
20 43 39
21 46 41
21 46 41
22 48 44
21 46 42
21 47 42
21 46 42
22 47 43
22 47 43
21 45 40
21 47 42
21 45 41
18 39 35
16 34 31
10 21 18
9 16 13
10 19 15
10 19 15
18 32 27
20 42 38
21 45 40
21 46 41
22 47 42
21 45 41
22 48 43
22 47 43
22 48 44
22 48 43
21 46 41
22 49 44
22 48 43
21 45 40
21 46 41
19 41 37
18 29 26
11 12 7
11 11 5
11 10 5
13 19 15
19 39 34
21 45 40
22 47 42
21 46 41
22 47 42
22 48 43
22 47 43
22 49 44
22 48 43
22 47 42
22 48 43
22 48 43
22 48 43
22 47 42
20 44 39
15 33 29
4 10 10
1 3 3
1 3 3
8 16 13
24 36 32
20 44 39
21 45 41
22 47 42
22 48 43
22 48 43
23 51 46
23 50 45
22 49 44
22 49 44
22 48 44
22 48 44
23 49 45
23 50 46
23 49 45
22 49 44
22 49 45
22 49 44
22 49 45
23 50 46
22 49 44
22 48 44
23 50 45
22 49 44
22 49 44
23 50 45
22 49 44
23 50 45
22 49 44
22 49 44
22 48 43
22 49 44
22 49 45
23 50 45
22 49 45
22 48 43
22 49 45
22 49 44
22 48 44
22 48 43
22 48 44
22 48 44
22 47 43
22 48 44
21 47 43
22 48 43
22 47 43
21 46 42
21 46 41
19 42 39
16 36 34
14 33 32
14 31 30
12 29 28
13 29 28
12 27 26
12 27 25
13 29 27
15 33 30
19 41 37
20 43 39
21 46 41
22 47 42
21 46 42
21 47 42
21 47 42
22 48 44
21 47 42
22 48 43
22 48 43
21 46 41
17 39 36
14 34 32
13 30 29
13 30 28
11 25 24
11 26 24
11 25 24
12 27 25
15 33 30
19 41 37
20 44 40
21 46 41
22 48 43
21 46 42
22 47 43
22 47 42
22 47 42
22 47 43
21 47 42
22 47 42
22 48 43
19 42 38
15 33 31
12 29 28
12 27 25
10 23 21
10 21 20
10 22 21
11 25 24
14 31 29
20 42 38
21 46 41
21 46 42
21 46 41
22 48 43
22 48 43
22 48 43
22 47 43
22 48 43
21 46 42
22 49 44
22 47 42
20 43 38
15 34 31
12 28 27
10 24 22
9 20 19
8 18 17
9 20 19
12 27 25
14 31 29
19 41 37
21 46 42
21 46 42
22 47 43
22 48 44
23 49 44
22 47 43
22 49 44
22 49 44
22 48 44
22 49 44
22 49 44
23 50 45
22 48 44
22 48 44
21 47 42
22 48 44
22 49 44
23 50 45
22 49 44
22 48 44
22 48 43
22 48 44
22 48 43
22 48 43
22 49 44
22 48 44
22 49 45
23 49 45
22 49 44
22 49 44
22 48 44
22 49 45
22 49 44
22 48 43
22 48 44
22 49 44
22 49 44
21 47 43
22 47 43
22 48 43
22 48 44
21 46 42
21 47 43
22 48 44
21 47 43
21 46 42
21 46 42
20 45 41
20 43 40
20 43 40
20 45 41
20 44 40
20 43 39
21 46 41
21 46 42
21 47 43
22 47 43
22 47 43
21 46 42
21 47 42
22 47 43
21 46 42
21 47 43
22 47 43
22 48 44
21 46 42
21 47 43
21 46 42
22 47 43
20 44 40
20 44 40
19 43 39
20 43 39
20 44 40
20 44 40
21 45 41
21 46 41
22 48 43
22 49 44
21 47 42
22 48 44
22 48 44
22 48 43
21 47 42
22 47 43
22 48 43
21 47 42
22 47 43
22 48 43
21 46 42
21 45 41
20 43 39
19 41 38
19 42 39
19 41 37
20 43 40
20 43 39
21 46 41
21 46 41
22 49 44
22 48 44
22 49 44
22 49 44
22 48 43
22 48 44
22 48 44
22 48 43
22 48 43
22 49 44
22 47 43
21 47 42
21 47 43
20 45 41
18 41 37
18 41 38
17 39 36
19 41 38
19 42 39
20 43 40
21 47 42
21 47 42
22 48 43
22 48 43
21 46 42
22 48 43
22 48 43
22 48 43
22 48 44
22 48 43
22 48 43
23 49 45
23 49 45
22 48 44
22 49 45
22 49 44
22 47 43
22 49 44
22 49 45
22 49 45
22 49 44
22 49 44
22 49 45
22 49 44
22 48 43
22 48 43
22 48 44
22 49 44
22 49 44
22 49 44
22 48 43
22 48 43
21 47 42
22 49 44
22 49 45
22 48 43
22 48 44
22 49 44
21 46 42
21 47 43
22 48 44
22 48 43
21 47 43
22 48 44
22 48 44
21 46 42
22 48 43
21 47 42
22 48 44
21 47 43
22 48 43
22 47 43
22 48 43
22 48 44
21 45 41
21 47 43
21 46 42
21 47 43
22 48 44
22 48 43
22 47 43
22 48 43
21 47 42
22 47 43
22 48 44
22 47 43
22 48 43
22 48 44
22 47 43
21 46 42
22 47 43
21 47 42
22 47 43
22 47 43
22 49 44
22 47 43
21 47 43
22 48 44
21 46 42
22 48 44
22 48 44
22 48 44
22 47 43
21 47 42
22 48 43
23 50 45
22 48 44
22 48 43
22 48 43
22 48 43
22 48 44
22 48 43
22 48 44
22 47 43
22 47 42
22 47 43
22 48 44
22 47 43
22 48 43
23 49 44
22 48 43
22 48 44
22 48 44
22 48 44
22 49 44
22 48 43
22 48 43
22 48 43
22 48 44
22 48 43
22 47 43
22 49 44
21 47 43
22 48 44
22 47 43
22 48 43
21 47 42
22 48 43
22 48 44
22 48 44
22 48 43
22 47 43
23 49 45
22 47 43
22 47 43
22 48 43
22 49 44
22 47 43
22 48 44
22 48 44
22 48 43
22 49 44
23 50 45
22 48 44
22 48 44
23 50 45
21 47 43
22 49 44
22 48 44
22 49 44
22 49 44
22 48 43
22 49 44
22 48 44
21 47 43
22 48 44
23 50 45
22 49 44
22 48 44
22 49 44
22 48 43
22 48 44
22 48 44
22 49 44
22 48 43
22 48 43
22 48 44
22 48 43
21 46 42
21 47 42
21 47 42
21 47 43
21 47 43
22 48 43
21 47 43
21 47 43
21 47 43
22 48 43
21 47 43
21 47 43
22 48 43
22 48 43
21 47 43
21 46 42
21 46 42
22 48 43
22 48 44
22 47 43
22 48 44
21 47 43
22 47 43
22 48 43
22 48 44
22 48 44
22 48 43
21 46 42
21 47 42
21 47 43
21 47 43
22 48 44
21 47 43
22 48 44
22 47 43
21 47 43
21 46 42
22 47 43
22 47 43
22 48 44
21 47 42
21 47 43
22 49 45
22 48 44
22 48 44
21 47 43
22 48 44
21 47 43
22 49 44
22 49 44
22 48 43
22 48 44
22 47 43
22 48 44
22 49 44
21 47 42
22 48 44
22 49 44
22 48 43
22 48 44
22 48 43
22 49 44
22 48 44
22 48 43
22 49 44
22 47 43
22 48 43
22 48 43
23 50 45
22 48 43
21 47 43
22 48 44
22 48 43
22 48 44
22 48 44
22 48 44
22 47 43
21 47 42
21 47 42
22 48 44
22 48 44
22 48 43
22 48 44
22 48 43
22 49 44
21 47 43
22 47 43
22 49 44
22 48 44
22 48 43
22 48 44
22 49 45
22 47 43
23 50 45
22 48 44
22 49 44
21 47 43
22 48 43
22 48 44
22 48 44
22 48 43
22 48 43
23 50 45
22 48 43
22 48 44
22 48 43
22 49 44
23 50 45
22 49 44
22 48 44
21 47 43
22 48 43
22 47 43
22 48 44
22 49 44
22 48 44
22 49 44
22 48 44
22 49 44
22 48 43
22 48 43
21 46 42
21 47 43
21 47 43
21 47 43
21 47 42
22 47 43
22 48 44
21 47 43
21 47 43
21 47 43
21 46 42
21 46 42
22 49 44
22 49 44
22 48 43
22 49 44
21 47 43
21 47 43
22 48 44
22 48 44
21 47 43
21 46 42
22 47 43
22 48 43
22 48 44
21 47 43
22 48 43
22 48 44
21 46 42
22 48 43
21 46 42
21 47 43
22 48 44
22 48 43
22 48 43
22 48 44
21 47 43
22 48 44
22 47 43
22 47 43
22 49 44
22 48 44
21 47 43
22 48 43
22 48 44
22 48 43
22 47 43
22 47 43
22 49 44
22 48 44
21 47 43
21 46 42
22 47 43
22 47 43
22 47 43
22 48 43
23 49 45
22 48 44
22 49 44
22 48 44
22 48 43
22 49 44
22 48 44
22 48 44
22 47 43
22 48 44
22 48 43
22 48 44
21 47 42
22 48 44
22 48 44
22 48 44
22 48 44
22 48 44
22 48 44
22 48 44
22 48 44
22 47 43
22 48 43
22 48 43
22 48 43
22 48 43
22 49 44
22 47 43
21 47 43
22 48 43
22 48 43
22 48 44
22 48 44
22 49 45
22 48 44
22 48 44
22 48 44
22 48 44
22 49 45
22 48 44
22 48 44
21 47 43
22 48 44
22 48 44
22 48 44
22 48 44
22 48 44
22 49 44
22 48 44
22 48 43
22 47 43
22 48 44
22 49 44
22 47 43
22 48 44
22 48 44
22 49 44
22 48 43
21 47 43
22 49 44
22 48 44
22 48 44
22 48 44
21 47 43
21 47 43
21 47 43
21 46 42
21 47 42
21 47 43
21 47 43
22 47 43
21 47 43
21 47 42
22 47 43
22 48 44
22 48 43
21 47 43
22 48 43
22 48 43
22 49 44
21 47 43
21 46 42
22 48 43
21 47 43
21 47 43
21 47 43
21 47 43
22 48 44
21 47 43
22 48 44
22 47 43
22 48 43
21 47 43
22 47 43
21 47 42
21 47 42
21 47 43
22 48 43
21 47 43
22 47 43
22 48 44
22 47 43
22 47 43
22 49 44
22 48 43
21 47 43
22 48 44
22 48 44
22 48 44
22 47 43
22 47 43
21 46 42
22 48 43
22 47 43
22 48 44
22 49 44
22 48 44
22 49 45
22 48 44
22 48 44
22 48 44
22 48 44
22 49 44
21 46 42
21 47 43
21 47 43
22 48 44
22 48 44
22 47 43
22 49 44
22 48 43
22 48 43
21 47 42
22 48 44
22 48 43
22 49 45
23 50 45
22 47 43
22 49 44
22 48 44
22 48 43
22 48 43
22 48 43
22 49 44
22 48 43
21 47 42
22 48 43
21 46 42
21 47 43
22 49 44
22 49 44
22 49 44
22 48 43
21 47 43
22 49 44
21 47 43
22 48 44
22 48 44
22 49 44
22 48 44
22 48 43
22 48 44
21 47 43
21 47 43
22 48 44
22 49 44
22 48 43
22 48 43
22 48 43
22 48 44
22 48 44
22 48 43
21 47 43
21 46 42
22 48 43
22 48 44
21 47 43
22 48 44
22 47 43
22 49 44
21 46 42
22 48 44
21 47 43
21 47 43
22 48 44
21 46 42
22 48 43
22 48 44
21 47 42
21 46 42
21 47 43
21 47 43
21 47 43
22 48 44
21 46 42
21 47 43
21 46 42
22 48 43
21 46 42
22 48 44
21 46 42
22 47 43
21 46 42
22 47 43
22 48 43
21 46 42
21 47 43
22 47 43
22 48 44
21 47 43
22 48 44
22 48 43
21 47 43
22 48 43
22 48 43
22 48 43
22 48 43
21 47 43
22 47 43
21 47 42
21 47 43
21 47 43
22 47 43
21 47 42
21 47 43
22 48 44
22 48 43
21 47 43
22 47 43
22 47 43
22 47 43
21 47 43
22 48 44
22 49 45
21 46 42
22 48 44
22 48 44
22 47 43
21 47 42
21 47 43
22 48 44
22 48 43
22 49 44
22 49 44
22 49 44
22 48 43
22 48 43
21 47 43
22 48 44
22 48 43
22 48 43
21 47 43
22 48 43
22 47 43
22 48 43
22 48 43
22 48 44
22 48 43
22 48 43
22 48 44
22 48 44
21 46 42
21 47 43
22 48 43
22 48 44
22 47 43
22 49 45
23 50 45
22 47 43
22 48 44
21 47 43
22 47 43
22 48 43
22 48 44
22 48 43
22 49 44
22 48 43
21 47 42
22 48 43
22 49 44
22 48 44
22 48 44
22 47 43
23 50 46
22 47 43
22 48 43
22 48 44
22 48 43
21 46 42
21 47 43
22 48 44
22 47 43
22 48 43
22 49 44
22 48 43
22 49 45
23 50 45
22 47 43
22 47 43
22 47 43
22 48 43
21 47 43
22 48 44
21 47 43
21 47 43
21 47 43
21 46 42
21 47 43
22 47 43
21 47 43
21 47 42
22 48 43
21 47 43
21 47 43
22 48 43
21 46 42
21 46 42
21 46 42
21 47 43
21 47 43
21 47 43
21 47 43
21 47 43
22 48 43
22 48 44
21 47 42
21 47 43
22 48 44
22 48 44
22 49 44
21 47 43
21 47 43
21 47 42
21 46 42
21 46 42
21 47 43
21 47 42
21 47 43
21 47 43
22 47 43
22 47 43
21 46 42
22 47 43
21 47 43
22 48 44
21 47 43
21 47 43
22 47 43
21 47 43
21 47 43
22 49 45
22 47 43
22 48 44
21 47 43
22 49 44
22 49 44
22 48 43
21 47 43
22 48 44
22 47 43
22 48 44
22 48 44
22 48 43
22 48 44
22 49 45
21 47 43
22 48 44
21 47 43
22 48 43
22 48 44
22 49 44
22 48 44
21 47 43
22 49 44
22 48 44
22 49 45
21 47 43
22 48 44
22 48 44
22 48 43
22 48 43
22 48 43
22 47 43
22 48 43
22 49 44
22 48 43
21 47 42
22 49 45
22 47 43
22 48 44
22 48 43
22 48 44
21 47 43
22 48 44
22 48 44
21 47 43
22 48 43
22 48 44
22 47 43
22 49 44
22 48 43
22 49 45
22 47 43
21 46 42
22 48 44
22 48 43
22 48 43
22 48 43
22 48 44
22 48 44
21 47 43
21 47 43
22 48 43
22 49 44
22 49 44
21 47 43
22 48 44
21 47 43
21 47 43
22 48 43
21 46 42
22 49 44
21 46 42
21 46 42
21 46 42
21 46 42
21 47 42
21 47 43
21 47 43
21 47 43
21 47 43
21 47 43
21 46 42
21 47 43
21 46 42
21 47 42
21 47 42
22 48 44
21 47 43
22 48 43
21 47 43
21 46 42
21 47 43
21 47 43
21 46 42
21 47 42
22 47 43
22 48 44
22 48 43
22 48 43
21 46 42
21 46 42
21 47 43
22 48 43
22 48 43
22 48 44
22 47 43
21 47 43
21 46 42
22 47 43
22 47 43
21 47 42
22 48 43
21 45 41
22 48 43
22 47 43
21 47 43
21 47 43
22 48 43
22 48 43
21 47 43
21 46 42
22 47 43
21 47 43
21 47 43
22 47 43
21 47 43
21 47 43
22 48 43
21 46 42
21 46 42
21 47 43
22 48 44
21 47 43
21 47 42
22 48 43
21 46 42
21 47 43
22 47 43
22 48 43
21 47 43
21 46 42
23 50 45
22 49 44
21 47 42
22 48 44
22 48 43
21 47 43
21 47 43
21 47 43
21 46 41
22 48 43
22 48 44
22 48 44
21 47 43
21 47 43
22 48 44
21 46 42
22 48 44
22 48 44
22 48 43
22 47 43
22 48 43
22 48 44
22 47 43
21 47 43
21 47 43
21 46 42
22 48 43
22 48 43
22 49 44
21 47 42
22 48 43
22 49 45
21 47 43
21 47 43
21 47 43
22 48 43
21 46 42
22 48 44
22 48 44
22 48 44
21 47 42
21 45 41
22 48 43
22 48 43
22 48 43
21 47 43
22 47 43
22 48 43
21 47 43
21 47 43
21 47 42
21 47 43
21 46 42
21 47 43
22 48 43
21 46 42
22 48 43
21 46 42
21 47 42
21 46 42
22 48 43
22 47 43
21 47 43
21 47 43
21 46 42
21 46 42
21 46 42
21 47 43
21 46 42
21 47 42
21 46 42
21 46 42
22 48 43
21 47 43
22 48 43
21 47 43
21 47 43
22 48 43
22 47 43
21 47 43
21 47 43
21 47 43
21 46 42
21 47 43
21 47 43
21 47 43
21 47 42
21 47 43
22 48 44
21 46 42
22 47 43
21 46 42
22 48 43
21 47 43
21 47 43
21 46 42
21 47 43
21 47 43
22 48 44
21 46 42
22 48 43
21 47 43
21 47 43
22 48 44
22 48 44
22 47 43
21 47 43
21 47 43
22 48 44
21 46 42
22 49 44
22 48 44
22 48 43
21 47 43
22 48 43
22 47 43
22 47 43
22 47 43
22 48 44
21 47 43
22 48 44
22 47 43
21 47 43
21 47 42
22 48 44
21 47 42
22 48 43
22 48 44
22 48 44
21 47 43
22 47 43
22 48 43
21 47 43
22 48 44
22 48 43
21 46 42
22 48 43
22 48 43
21 47 43
22 47 43
21 47 43
22 48 44
21 46 42
21 46 42
22 47 43
22 48 43
21 47 43
21 47 43
21 47 43
21 46 42
21 47 43
22 48 44
21 46 42
22 48 44
22 48 44
22 49 44
21 47 43
21 47 43
22 48 43
22 48 43
22 48 43
22 48 43
21 46 42
21 46 42
21 47 43
22 47 43
21 47 43
22 48 43
21 47 43
22 48 44
22 49 44
20 45 41
21 46 42
21 46 42
21 47 43
21 46 42
22 48 43
21 46 42
21 46 42
21 47 43
21 47 43
21 47 43
21 47 43
21 47 43
22 48 43
21 47 43
22 48 44
21 47 43
21 47 43
21 47 42
21 47 43
20 45 41
21 46 42
21 47 43
21 46 42
21 47 43
21 47 43
21 47 43
22 48 43
21 47 43
21 47 43
21 47 43
21 46 42
21 47 43
22 48 43
22 48 43
22 48 44
22 48 43
21 46 42
22 48 44
21 47 43
22 48 44
22 47 43
21 46 42
22 47 43
21 47 43
21 47 43
21 47 43
21 47 43
22 47 43
21 46 42
21 47 43
21 46 42
21 46 42
21 47 43
22 48 44
21 47 43
21 46 42
22 47 43
21 47 43
22 48 44
21 47 43
22 48 43
22 48 44
21 47 43
21 47 43
21 47 42
21 47 43
21 47 43
22 48 44
22 48 44
21 46 42
21 46 42
21 47 43
21 47 43
21 47 43
22 48 44
21 47 43
21 46 42
22 47 43
21 47 43
21 47 43
21 47 43
21 47 43
22 48 44
22 48 44
21 47 43
22 49 44
21 47 43
21 47 43
21 47 43
22 47 43
21 47 43
22 48 44
21 46 42
21 47 43
22 48 44
21 47 43
21 47 43
22 48 43
21 47 43
22 48 43
21 47 43
21 46 42
22 49 44
22 48 44
21 46 42
22 48 43
22 48 43
22 48 44
21 47 43
21 46 42
22 48 43
21 47 43
22 48 43
21 47 43
21 47 43
21 47 43
22 48 44
22 48 43
22 49 44
20 45 41
21 46 42
21 46 42
21 47 43
22 48 44
21 46 42
21 47 43
21 47 43
21 46 42
21 47 43
22 48 43
21 46 42
21 46 42
21 47 43
21 47 43
21 46 42
21 47 43
21 47 43
21 47 43
21 47 43
21 46 42
21 47 43
21 46 42
21 47 43
21 47 43
21 47 43
21 46 42
21 46 42
22 48 44
22 49 45
21 46 42
21 46 42
21 46 42
21 47 42
21 47 43
22 48 44
21 47 43
21 47 43
21 46 42
21 47 43
21 45 41
21 46 42
22 48 44
22 48 44
21 47 43
21 47 43
22 48 44
21 46 42
21 47 43
21 47 43
21 47 43
21 47 43
22 47 43
21 47 42
21 46 42
21 46 42
21 47 43
21 47 43
21 47 43
22 48 43
21 47 43
22 48 44
22 48 44
21 46 42
21 47 43
21 47 43
21 46 42
21 47 43
22 48 43
22 48 44
22 49 44
21 47 43
22 47 43
22 48 44
22 48 44
22 48 44
22 48 43
21 47 43
22 48 43
22 48 44
22 48 43
22 49 44
21 47 42
22 48 44
22 47 43
21 47 42
21 47 43
21 47 43
21 46 42
21 47 43
21 47 43
21 47 43
21 47 43
22 48 44
21 46 42
21 47 43
22 48 44
22 48 44
21 46 42
21 46 42
22 48 44
21 47 43
21 47 43
21 46 42
22 47 43
21 47 43
21 47 42
21 47 43
21 47 43
21 47 42
22 48 43
21 47 42
21 47 42
21 46 42
22 48 43
21 46 42
21 47 43
21 47 43
21 46 42
21 47 43
22 49 45
21 46 42
21 46 42
21 45 41
21 47 43
21 47 43
21 46 42
21 46 42
21 46 42
21 46 42
21 46 42
21 46 42
21 47 42
21 47 43
21 46 42
21 47 43
21 47 43
21 45 41
21 47 43
22 48 43
21 47 43
21 47 43
21 46 42
21 47 42
21 47 43
21 46 42
21 46 42
20 45 41
21 46 42
21 47 43
21 46 42
21 47 43
22 48 43
21 47 43
21 46 42
22 48 44
21 46 42
22 48 43
21 46 42
21 47 43
21 47 43
21 46 42
21 46 42
21 46 42
22 48 44
21 46 42
21 46 42
21 47 42
21 46 42
21 46 42
21 46 42
21 47 43
21 47 43
21 46 42
21 47 43
21 46 42
21 47 42
22 47 43
21 47 42
21 46 42
22 48 44
22 47 43
21 47 43
22 48 43
22 47 43
21 47 43
21 46 41
22 47 43
21 47 42
21 46 42
21 46 42
22 48 43
21 47 43
21 47 43
21 46 42
21 47 43
21 47 43
22 48 43
22 48 44
22 48 43
21 46 42
22 48 43
22 48 43
21 47 43
21 46 42
21 47 43
21 47 43
21 47 43
21 47 43
21 45 41
22 48 44
22 48 43
22 48 43
21 46 42
21 47 43
21 47 43
21 47 42
22 48 44
21 46 41
21 47 43
22 48 44
22 48 44
21 46 42
22 48 44
21 47 43
21 46 42
21 47 43
22 48 44
21 46 42
22 48 44
21 47 43
21 46 42
21 47 43
21 47 43
21 46 42
22 48 44
21 47 43
21 46 42
21 47 43
21 47 43
20 45 41
21 47 43
21 46 42
21 46 42
20 45 41
21 46 42
21 46 42
20 45 41
21 46 42
21 46 42
21 47 42
21 47 43
20 45 41
21 46 42
21 46 42
21 47 43
21 47 43
21 46 42
21 47 42
21 46 42
21 46 42
22 48 43
21 47 43
21 47 42
21 46 42
21 46 42
21 47 43
21 47 43
21 46 42
21 46 42
20 45 41
21 47 43
21 47 43
21 46 42
21 46 42
21 47 43
21 45 41
21 46 42
21 47 43
21 47 42
22 47 43
21 47 43
21 47 43
21 47 43
22 48 44
21 47 43
21 46 42
21 46 42
22 48 44
21 46 42
21 47 43
21 47 43
21 47 43
21 46 42
21 46 42
21 47 43
21 47 42
21 46 42
21 47 42
21 46 42
21 47 43
21 46 42
21 47 43
21 47 43
22 47 43
21 47 43
21 46 42
22 48 43
21 46 42
22 48 44
21 46 42
21 47 43
21 47 43
22 47 43
22 48 43
22 47 43
22 47 43
21 47 43
21 46 42
21 46 42
22 48 43
22 48 44
22 48 44
21 47 43
21 47 43
21 47 43
22 48 43
21 47 43
21 46 42
22 47 43
21 47 43
21 47 43
22 48 43
21 45 41
21 47 43
22 48 44
22 48 43
22 48 43
22 47 43
22 48 44
22 47 43
21 47 43
21 47 43
22 48 43
21 45 41
21 47 43
21 46 42
21 47 42
21 47 43
21 45 41
21 46 41
21 47 43
21 46 42
21 46 42
21 46 42
21 46 42
22 48 44
21 46 42
22 48 44
22 47 43
20 45 41
21 45 42
21 46 42
21 45 41
21 46 42
21 46 42
20 45 41
21 46 42
20 45 41
21 47 43
20 45 41
21 46 42
21 47 43
21 46 42
21 47 43
21 47 43
20 45 41
20 45 41
22 48 44
21 46 42
21 46 42
21 46 42
21 47 43
21 47 43
21 46 42
21 46 42
21 47 43
21 46 42
21 46 42
20 45 41
21 47 43
21 47 43
20 45 41
21 46 42
21 47 43
21 46 42
21 47 43
21 47 43
21 47 43
21 47 43
21 46 42
21 46 42
21 47 43
21 47 43
21 46 42
21 47 43
21 46 42
21 46 42
21 47 42
21 47 43
21 46 42
21 47 43
21 46 42
22 47 43
21 47 43
22 48 44
22 48 44
21 46 42
21 46 42
21 47 43
21 46 42
22 47 43
21 46 42
22 47 43
21 46 42
21 46 42
22 47 43
21 46 42
22 47 43
22 48 43
21 47 43
22 48 43
22 47 43
22 48 43
22 47 43
22 47 43
22 47 43
22 47 43
21 46 42
21 47 43
22 47 43
21 47 43
21 46 42
21 47 43
21 46 42
22 47 43
21 47 42
21 47 43
22 47 43
22 48 43
22 48 43
22 48 44
21 47 42
21 47 43
21 46 42
21 46 42
21 46 42
21 46 42
21 46 42
22 47 43
21 46 42
21 46 42
21 47 43
21 46 42
22 47 43
21 46 42
22 47 43
21 46 42
21 46 42
22 48 44
22 48 43
21 47 42
21 46 42
21 47 43
21 46 42
21 47 43
22 48 44
22 48 44
22 48 44
21 46 42
21 47 43
21 46 42
21 47 43
20 45 41
21 47 43
21 47 43
21 46 42
21 46 42
21 46 42
21 46 42
21 47 43
21 46 42
21 46 42
20 45 42
20 45 41
21 46 42
21 46 42
21 46 42
21 46 42
21 46 42
21 46 42
21 46 42
21 47 43
20 44 40
21 46 42
22 48 43
21 47 43
21 47 43
21 46 42
21 47 43
21 46 42
21 46 42
21 47 43
21 46 42
21 46 42
21 46 42
21 47 43
21 45 42
21 45 42
21 46 42
22 48 43
21 47 43
21 45 41
21 47 43
21 47 43
21 46 42
21 46 42
21 47 43
21 46 42
21 45 41
21 46 42
21 47 43
21 47 43
22 48 44
22 47 43
21 47 43
22 48 44
21 46 42
22 47 43
22 47 43
22 47 43
21 46 42
22 47 43
22 48 44
22 47 43
22 47 43
22 47 43
22 47 43
22 47 43
22 47 43
21 46 42
22 48 43
22 47 43
22 47 43
22 47 43
22 47 42
22 47 43
22 47 42
22 47 43
21 46 42
22 47 43
21 46 42
22 47 42
22 47 43
21 46 42
21 46 42
21 47 42
22 47 43
21 47 43
21 46 42
21 47 42
21 46 42
22 47 43
22 48 44
22 47 43
21 47 43
21 46 42
21 46 42
21 47 43
21 46 42
21 47 42
22 47 43
21 47 43
22 48 43
21 47 43
21 46 42
21 47 43
21 46 42
21 47 43
21 47 43
22 48 43
21 46 42
21 46 42
21 46 42
21 47 43
21 47 43
21 46 42
21 47 43
21 47 43
21 47 43
21 46 42
21 47 43
20 45 41
21 46 42
20 45 41
21 46 43
21 47 43
22 48 44
21 46 42
21 47 43
22 48 44
21 46 42
21 46 42
21 46 42
21 46 42
21 46 42
21 46 42
21 46 42
21 46 42
21 47 43
21 47 43
21 46 42
21 46 42
21 46 42
21 47 43
21 46 42
21 46 42
21 46 42
21 47 43
21 46 42
21 47 43
21 46 42
21 46 42
21 46 42
21 46 42
21 46 42
21 46 42
21 46 42
21 47 43
22 48 44
21 47 43
21 46 42
21 47 43
21 46 42
21 46 42
21 47 43
21 47 43
21 46 42
21 46 42
21 46 42
21 45 41
21 47 43
22 47 43
22 47 43
21 46 42
21 46 42
22 47 43
21 45 41
22 47 43
22 48 44
22 47 42
22 47 43
22 47 43
22 47 43
22 47 43
22 46 42
22 46 42
22 47 43
22 48 43
23 48 44
22 47 43
22 46 42
22 47 43
22 47 43
22 47 42
22 48 43
22 48 44
22 46 42
22 46 42
22 47 43
22 46 42
22 47 43
23 48 44
22 46 42
21 46 42
21 46 42
22 47 43
22 46 42
23 49 44
22 47 43
21 46 42
21 46 42
22 47 43
22 48 43
22 47 43
22 47 43
22 48 44
21 45 41
21 46 42
22 48 44
21 46 42
22 48 44
21 47 43
21 47 43
21 46 42
21 47 43
21 47 42
22 47 43
22 48 43
21 47 43
21 46 42
21 46 42
21 46 42
21 46 42
21 47 43
21 47 43
21 46 42
21 45 41
21 47 43
21 47 43
20 45 41
20 45 42
21 46 42
21 46 42
21 46 42
20 45 41
20 45 41
21 45 41
20 45 41
21 45 42
21 46 42
21 46 42
21 47 43
21 45 41
21 47 43
21 47 42
20 45 41
21 46 42
21 47 43
21 46 42
21 47 43
21 47 43
21 46 42
20 45 41
21 46 42
21 47 43
21 46 42
21 46 42
21 47 43
21 46 42
21 46 42
21 45 42
21 46 42
21 46 42
21 46 42
21 46 42
21 46 42
21 46 42
21 46 42
21 46 42
21 47 43
21 46 42
22 48 44
21 46 42
22 47 43
22 47 43
22 47 43
21 47 43
21 45 41
22 47 43
22 48 44
22 47 43
21 46 42
22 47 43
21 46 42
22 47 43
22 47 43
22 46 42
22 47 43
22 47 43
22 46 42
22 47 43
22 47 43
22 46 42
23 48 43
22 47 43
22 46 42
23 48 44
22 47 43
23 47 43
23 48 43
22 47 43
22 46 42
23 48 43
22 46 42
22 47 43
23 47 43
23 48 44
22 46 42
23 47 43
22 46 42
22 47 43
22 47 43
23 49 44
22 45 42
22 47 43
22 46 42
21 46 42
22 47 43
22 46 42
22 47 43
22 47 43
22 47 43
22 47 43
21 46 42
22 47 43
22 48 43
21 46 42
22 48 44
21 46 42
21 46 42
21 46 42
21 46 42
21 46 42
21 47 42
21 47 43
22 48 44
21 46 42
21 47 43
21 47 43
21 46 42
21 47 43
21 47 43
21 47 43
21 47 43
21 47 43
21 47 43
21 47 43
21 47 43
21 46 42
20 45 41
20 45 41
21 46 42
21 47 43
21 47 43
20 45 41
20 44 40
21 47 43
21 46 42
20 45 41
21 45 41
21 46 42
22 48 44
21 46 42
21 47 43
21 46 42
21 47 43
20 45 41
20 45 41
22 48 44
21 46 42
21 45 42
21 47 42
21 46 42
21 47 43
21 46 42
21 46 42
20 45 41
21 47 43
21 46 42
21 47 43
21 47 43
21 46 42
21 47 43
21 46 42
21 47 43
21 47 43
21 47 43
21 47 43
22 47 43
21 46 42
21 46 42
21 45 41
22 47 43
22 47 43
21 46 42
22 47 43
22 48 44
21 46 42
21 46 42
21 45 41
22 48 44
22 46 42
22 46 42
22 46 42
22 47 43
23 47 43
22 46 42
22 46 42
22 47 42
23 47 43
22 47 42
23 48 44
23 47 43
23 47 43
23 47 43
22 46 42
23 48 44
23 47 43
23 48 44
23 48 44
23 48 43
23 48 43
23 46 42
23 48 44
23 47 43
23 48 44
24 49 44
23 47 43
23 47 43
23 46 42
23 47 43
23 48 43
23 47 43
23 48 43
23 47 43
22 46 42
23 47 43
22 47 43
23 48 44
22 46 42
22 47 43
22 47 43
22 46 42
22 47 43
22 46 42
22 46 42
22 47 43
22 48 43
22 47 42
22 47 43
21 46 42
21 46 42
22 47 43
21 46 42
21 47 43
21 46 42
21 46 42
21 46 42
21 46 42
21 46 42
22 48 44
22 48 43
21 46 42
21 46 42
21 46 42
21 46 42
21 47 43
21 46 42
21 46 42
20 45 41
21 46 42
21 46 42
20 45 41
21 47 43
21 46 42
20 45 41
21 46 42
21 46 42
21 46 42
21 47 43
21 46 42
21 46 42
21 46 42
20 45 41
20 45 41
21 45 41
21 45 42
21 46 42
21 47 43
21 46 42
20 45 41
21 45 42
21 46 42
21 46 42
21 46 42
20 45 41
21 46 42
21 47 43
21 47 43
21 46 42
21 46 42
20 45 41
21 47 43
21 46 42
21 47 43
21 46 42
21 46 42
21 46 42
21 46 42
22 47 43
21 46 42
22 48 44
22 47 43
21 46 42
21 46 42
21 46 42
22 46 42
21 45 41
22 46 42
22 46 42
22 47 43
22 47 43
22 47 43
22 46 42
23 47 43
23 48 44
23 47 43
23 47 43
23 47 42
23 47 43
23 46 42
23 47 43
23 47 43
24 48 43
24 48 43
24 47 43
24 47 43
24 48 44
24 47 43
24 48 44
24 47 43
23 46 42
24 47 43
24 48 43
24 47 43
24 48 44
24 47 43
23 46 42
24 47 43
23 47 42
23 47 42
23 47 43
23 47 42
23 47 42
23 46 42
23 46 42
22 46 42
23 48 43
23 47 43
23 47 43
22 47 43
22 47 43
23 48 43
22 46 42
22 47 43
22 47 43
22 47 43
22 47 43
22 47 43
22 47 43
21 46 42
21 46 42
22 47 43
21 46 42
22 47 43
21 47 43
21 47 43
21 46 42
21 47 43
21 47 43
21 47 43
21 46 43
21 46 42
21 45 41
21 47 43
21 47 43
21 46 42
21 45 42
21 46 42
20 45 41
21 45 42
21 46 42
21 46 42
20 45 41
21 46 42
21 46 42
21 47 43
21 46 42
20 45 41
21 46 42
20 44 41
20 45 41
21 46 42
20 45 41
21 47 43
21 46 42
21 46 42
21 46 42
21 46 42
21 46 43
21 46 42
21 47 43
20 45 41
21 46 42
20 44 41
21 45 41
21 46 42
21 46 42
21 47 43
21 46 42
21 47 43
21 45 41
21 46 42
21 46 42
21 46 42
21 46 42
21 46 42
21 46 42
21 46 42
21 46 42
21 46 42
22 46 42
22 47 43
22 47 43
22 47 43
22 48 43
22 46 42
22 46 42
23 47 43
23 47 43
22 46 42
23 47 43
23 47 43
23 47 42
24 50 45
23 47 43
24 47 43
24 48 44
24 47 43
24 47 43
24 48 43
25 48 44
25 48 43
25 49 45
25 48 43
25 48 44
25 48 43
25 49 45
24 47 42
25 49 44
25 48 44
25 47 43
25 48 43
25 48 44
25 47 43
25 48 44
25 47 43
25 49 44
25 49 44
25 49 44
25 48 44
25 48 44
24 47 42
24 47 43
24 48 44
25 49 45
24 47 43
23 47 43
24 48 44
23 47 42
23 47 43
23 47 43
23 47 43
24 49 45
23 47 43
23 47 43
22 46 42
22 47 43
22 46 42
22 47 43
22 47 43
22 46 42
22 46 42
21 46 42
22 47 43
21 46 42
22 47 43
21 46 42
21 46 42
22 47 43
21 46 42
22 47 43
21 46 42
21 45 41
21 46 42
20 44 40
21 46 42
21 46 42
21 47 43
20 45 42
21 46 42
20 45 41
21 47 43
21 46 43
20 45 41
21 47 43
20 45 41
20 45 41
21 46 42
20 45 41
20 45 41
21 46 42
21 46 42
21 46 43
21 45 42
20 45 41
21 47 43
21 45 42
21 45 42
20 43 40
20 45 41
21 46 42
21 47 43
20 45 41
21 46 42
21 46 42
21 47 43
21 46 42
21 46 42
21 47 42
21 46 42
21 46 42
21 46 42
22 47 43
21 46 42
21 46 42
22 46 42
22 46 42
21 45 41
22 47 43
22 47 43
22 46 42
21 45 41
23 48 43
23 47 43
23 47 43
23 47 43
23 47 43
24 48 44
23 46 42
23 47 43
24 47 43
24 48 44
24 47 43
24 47 43
24 48 43
25 48 43
25 47 43
24 46 42
25 48 43
25 48 43
25 47 43
25 48 43
26 48 43
27 50 45
26 49 44
26 48 43
26 49 44
26 48 44
27 49 45
27 49 44
26 48 44
27 49 45
27 49 44
26 48 44
26 49 44
26 48 44
26 47 43
26 48 44
26 48 44
25 48 43
26 48 44
26 49 44
25 47 42
25 49 44
25 48 44
25 47 43
24 47 43
24 47 43
24 47 43
24 47 43
24 47 43
23 47 42
24 48 44
24 48 44
23 47 43
23 48 43
23 48 43
23 48 43
22 47 43
22 47 43
22 47 43
22 47 43
21 45 41
23 48 44
22 47 43
22 48 44
22 46 42
22 47 43
22 47 43
21 46 42
21 46 42
21 46 42
21 46 42
21 46 42
21 46 42
21 47 43
21 45 41
21 46 42
20 45 41
20 45 41
20 45 41
20 44 41
20 45 41
21 47 43
21 46 42
21 46 43
21 46 42
20 45 41
20 45 41
20 45 41
21 46 42
20 45 41
21 46 42
21 46 42
21 45 42
21 46 42
20 45 41
21 46 42
20 45 41
21 46 42
21 46 42
20 45 41
21 46 42
21 46 42
21 46 42
21 45 41
21 46 42
21 46 42
22 47 43
21 47 43
21 45 42
21 46 42
21 45 41
22 48 44
21 45 41
22 47 43
22 46 42
22 47 42
22 46 42
22 47 43
22 46 42
22 46 42
22 45 41
23 47 42
24 48 44
23 47 43
24 49 44
24 48 43
24 47 43
24 47 43
25 48 43
25 47 43
24 46 42
26 48 44
26 48 44
26 48 43
26 48 44
26 48 44
27 49 44
26 48 43
27 48 44
27 49 44
27 49 44
27 49 44
27 48 44
28 49 44
28 49 45
28 50 46
28 49 45
28 50 45
28 48 44
28 49 44
28 49 44
28 49 45
28 49 44
27 48 43
27 48 44
27 49 44
27 49 44
27 49 44
28 51 46
27 49 44
27 49 44
27 49 44
27 50 46
26 47 43
26 49 45
25 47 43
26 49 44
25 47 43
25 48 44
24 46 42
24 48 43
24 47 43
24 48 44
24 48 44
23 46 42
23 47 43
23 46 42
22 46 42
23 48 43
22 47 42
22 46 42
22 47 43
22 46 42
21 45 42
22 46 42
21 46 42
22 47 43
21 45 41
21 45 41
21 46 42
21 46 42
21 46 42
22 47 43
21 46 42
21 47 43
21 47 43
20 44 40
20 45 41
21 46 42
21 46 42
20 45 41
20 45 41
20 45 41
21 46 42
21 46 42
20 45 41
21 46 42
21 46 42
21 46 42
20 45 41
21 46 42
21 46 42
21 46 42
21 46 42
21 46 42
21 46 42
21 47 43
20 44 41
21 46 42
21 46 42
21 45 42
21 45 42
20 45 41
21 46 43
21 47 43
21 46 42
21 46 42
21 46 42
22 46 43
21 45 41
22 46 42
22 48 44
22 46 42
22 46 42
23 47 43
22 46 42
23 47 43
23 47 43
23 47 43
23 46 42
23 47 43
23 46 42
24 48 44
25 48 44
25 48 44
25 48 44
25 49 44
26 49 44
25 47 42
26 47 43
27 49 44
27 49 44
27 48 44
27 49 45
28 49 45
28 48 44
28 48 43
28 50 45
28 49 44
29 49 44
29 50 46
29 49 44
29 50 45
29 49 45
30 50 45
30 49 44
30 50 45
30 49 45
30 50 46
30 51 46
30 50 45
30 49 45
30 51 46
29 49 44
30 51 46
29 50 45
29 50 46
29 49 44
29 50 45
29 50 45
28 49 45
28 50 45
28 49 44
28 49 44
27 49 44
27 49 44
26 48 43
26 47 43
26 48 44
26 49 44
25 47 42
25 48 44
24 47 43
24 47 43
24 47 43
24 48 44
24 47 43
24 48 43
23 47 43
23 47 43
23 46 42
22 46 42
22 45 41
22 46 42
22 46 42
22 47 42
22 46 42
22 47 43
21 45 42
21 46 42
21 46 42
22 47 43
21 46 42
21 46 42
21 46 42
21 46 42
21 47 43
20 44 41
21 46 42
20 45 41
21 46 42
21 46 42
21 46 42
20 45 41
20 45 41
20 45 42
21 45 42
21 45 42
21 46 42
21 46 42
20 45 41
21 46 42
21 46 42
21 45 42
21 45 42
20 45 41
20 45 41
20 45 41
21 45 41
20 44 41
21 46 42
21 46 42
21 46 42
20 45 41
21 46 42
21 46 42
21 46 42
21 45 41
21 46 42
22 46 42
22 46 42
23 48 44
22 46 42
23 47 43
22 46 42
23 47 43
23 47 43
23 46 42
24 48 43
24 46 42
24 47 43
25 48 44
25 48 43
25 48 44
26 48 44
25 46 42
26 48 44
27 50 45
27 48 44
27 49 44
28 49 44
28 49 45
29 49 45
28 48 44
30 50 45
30 50 45
30 51 46
30 49 45
30 50 45
31 51 46
31 51 46
31 51 46
31 51 45
32 51 46
32 51 46
32 52 47
32 50 45
32 51 46
32 51 46
32 51 46
32 51 46
32 52 47
32 51 46
32 51 46
32 51 46
31 51 46
31 50 46
31 51 46
31 50 45
31 51 46
30 51 46
30 51 46
30 50 45
29 48 44
29 49 44
28 49 45
28 49 45
28 49 45
27 48 44
28 51 46
26 48 43
26 48 44
26 49 44
25 47 43
25 48 43
25 48 44
25 48 44
24 48 43
24 47 42
24 47 43
23 46 42
23 47 43
22 45 41
23 47 43
22 46 42
22 45 42
22 46 43
22 47 43
22 46 42
21 46 42
21 45 41
21 46 42
22 47 43
21 46 42
22 47 43
21 47 43
20 45 41
21 46 42
20 45 41
21 47 43
20 45 41
20 45 42
20 45 41
21 46 42
21 46 42
20 45 41
20 44 41
20 45 41
20 45 41
21 46 42
21 46 42
21 45 42
21 46 42
21 46 42
20 45 41
22 48 44
20 45 41
20 45 41
21 45 42
21 46 42
21 46 42
21 46 42
21 45 41
22 47 43
21 45 42
22 47 43
21 46 42
22 46 42
22 47 43
22 45 42
22 47 43
22 46 42
23 47 43
23 47 43
23 46 42
24 47 43
23 46 42
24 48 43
25 48 43
25 48 44
25 48 44
26 48 43
26 48 44
27 49 45
27 49 45
27 48 44
28 49 44
28 49 45
29 50 45
29 49 44
29 49 44
30 50 45
30 50 45
31 50 45
32 52 47
31 50 45
32 51 46
32 51 46
33 52 46
33 52 47
33 52 47
34 52 47
34 51 46
35 53 48
34 52 47
34 52 46
34 52 47
35 53 47
35 53 47
34 52 47
35 53 48
34 52 47
35 52 47
35 53 48
34 51 46
34 52 46
33 51 45
34 52 47
33 53 47
33 51 46
32 50 45
32 51 46
32 52 47
32 52 47
31 51 46
30 50 45
30 49 44
30 51 46
29 49 44
28 49 44
28 49 44
28 49 45
27 49 44
27 49 44
26 48 44
26 49 44
25 48 43
25 47 43
25 48 44
25 48 43
24 47 43
24 47 43
24 48 44
23 46 42
23 46 42
23 46 42
23 47 43
22 46 42
22 46 42
22 47 43
22 47 43
22 47 43
22 46 42
21 46 42
21 46 42
21 46 42
20 45 41
20 45 41
20 44 41
20 45 41
21 46 42
21 45 42
21 46 42
20 45 42
21 47 43
20 45 41
20 45 41
21 46 42
20 45 41
21 47 43
20 45 41
20 44 41
20 44 41
21 45 42
20 45 41
21 45 41
21 45 42
21 46 42
21 46 42
21 47 43
21 46 42
21 46 42
21 45 41
21 46 42
21 46 42
22 46 42
21 45 41
22 45 42
22 46 42
23 47 43
23 47 43
23 46 42
23 46 42
23 47 43
24 47 43
24 47 43
26 50 45
25 47 43
25 47 43
26 47 43
26 48 43
27 49 44
27 47 43
28 49 45
28 48 43
29 49 44
30 50 45
30 50 45
30 49 44
31 51 46
31 50 45
32 51 46
32 51 46
33 52 47
34 53 47
34 52 47
34 52 46
35 52 46
35 53 47
36 54 49
36 53 48
36 54 48
36 52 46
37 53 48
37 53 48
37 54 48
37 53 48
37 54 49
37 54 48
38 55 49
37 54 48
38 55 49
37 54 49
37 53 48
37 53 48
37 54 48
37 54 48
36 54 49
36 53 47
35 53 47
35 52 47
34 52 47
34 53 47
34 52 46
33 51 46
33 51 46
32 51 46
32 51 46
31 51 46
30 49 45
30 50 45
29 50 45
29 49 45
28 48 43
28 49 44
27 49 44
27 49 45
27 49 44
26 48 43
26 48 44
25 48 44
24 46 42
24 47 43
24 47 43
24 47 43
23 46 42
23 46 42
23 47 43
23 47 43
23 47 43
22 46 42
22 46 42
22 46 42
22 47 43
22 46 42
22 46 42
21 46 42
21 46 42
20 45 41
20 45 41
20 45 41
20 45 42
20 45 41
21 46 42
20 45 41
20 45 41
21 46 42
21 45 42
21 47 43
20 45 41
21 45 42
20 45 41
21 46 42
21 45 41
21 45 42
20 45 41
20 45 41
21 46 42
21 46 42
21 46 42
21 45 41
21 45 41
21 46 42
21 45 41
22 45 41
22 46 42
23 47 43
22 46 42
23 46 42
23 47 43
23 46 42
24 47 42
24 46 42
25 48 44
25 47 43
25 47 43
25 47 43
27 49 45
26 48 44
27 48 43
28 49 44
28 49 45
29 48 44
29 49 44
30 49 44
31 50 45
31 49 44
32 51 46
33 52 47
33 52 46
34 51 46
35 53 47
35 52 47
35 53 47
36 53 48
36 53 48
37 54 48
38 54 49
38 55 49
39 54 49
39 54 48
39 55 49
39 55 49
40 55 49
40 56 50
40 56 50
40 56 50
40 55 49
40 56 50
40 56 50
41 56 50
40 56 50
40 56 50
40 56 49
40 55 49
40 56 50
39 54 48
39 55 49
38 54 48
38 54 48
38 54 48
37 55 49
37 55 49
36 54 48
36 53 48
35 51 46
34 52 47
33 51 46
33 52 47
32 51 46
32 51 46
31 50 45
31 51 46
30 49 44
29 49 44
29 48 44
28 48 43
28 49 44
27 48 44
27 48 44
26 49 44
25 47 43
25 48 44
25 48 43
24 47 43
25 48 44
24 46 42
23 46 42
23 47 43
23 47 43
22 45 41
22 46 42
22 46 42
21 45 41
22 47 43
21 46 42
20 44 41
20 44 40
20 44 41
21 46 42
20 44 41
21 46 43
21 46 42
20 45 42
20 45 41
21 46 42
21 46 42
20 45 41
21 45 42
20 44 41
20 45 41
20 45 41
20 45 41
21 46 42
21 45 42
21 46 42
21 46 42
21 45 42
21 45 41
21 45 41
22 46 42
21 45 42
22 47 43
22 45 42
22 46 42
22 46 42
22 46 42
24 48 44
23 45 41
24 47 42
24 47 43
24 46 42
24 46 42
25 47 43
26 49 44
27 49 44
27 48 44
28 49 45
29 50 46
29 50 45
29 50 45
30 49 45
30 49 45
32 52 47
32 51 46
33 51 46
33 51 46
34 51 46
35 52 46
36 53 48
36 53 47
37 54 48
37 53 47
38 55 49
39 55 49
40 55 49
41 57 51
41 56 50
41 56 50
42 57 51
42 57 51
42 56 50
43 57 50
43 56 50
43 58 51
43 56 50
44 57 51
44 58 52
44 57 51
44 59 52
44 58 52
44 58 51
44 58 52
43 58 51
43 57 50
43 58 52
42 57 51
42 57 51
41 55 49
41 56 49
41 57 51
40 55 49
39 55 49
39 54 49
38 54 49
38 54 49
37 53 48
36 53 47
36 53 48
35 53 47
34 51 46
33 52 47
33 52 46
32 51 46
31 51 46
30 49 44
30 49 44
30 50 46
29 49 44
28 49 44
27 48 44
27 49 45
26 47 42
26 47 43
25 47 43
25 48 44
25 49 45
24 47 42
24 47 43
24 47 43
23 47 43
23 47 43
22 45 41
22 46 42
22 46 42
22 46 42
20 45 41
20 45 41
21 46 42
21 46 42
20 44 41
21 46 42
20 45 41
20 45 41
21 46 42
21 46 42
20 44 40
20 45 42
20 45 41
21 46 42
21 46 42
21 46 42
21 45 41
20 45 41
21 46 43
21 45 41
21 44 41
21 44 41
21 44 40
21 45 41
21 45 41
22 47 43
23 47 43
23 47 43
23 47 43
23 46 42
23 47 43
23 46 42
24 47 43
25 48 43
25 47 43
25 47 43
26 47 43
26 48 44
27 48 44
27 47 43
28 48 44
29 49 44
30 49 45
31 51 46
31 51 46
32 51 46
33 51 46
33 52 46
34 52 47
35 53 48
35 52 47
36 53 47
37 53 48
38 55 49
39 54 49
40 55 49
40 56 50
41 57 51
42 57 50
43 57 51
43 56 50
44 58 52
45 59 53
45 59 53
45 59 52
46 59 52
46 60 53
47 60 53
47 59 52
47 59 52
47 60 53
47 60 53
47 59 52
47 59 52
47 59 52
47 59 52
47 60 53
47 60 53
47 60 53
46 59 52
46 59 53
46 60 53
45 58 51
44 58 51
44 58 52
43 58 51
43 57 50
42 56 50
41 57 50
41 56 50
40 55 49
39 54 49
38 54 49
37 54 48
37 54 48
36 53 47
35 53 47
34 52 47
33 50 45
33 51 46
32 52 47
31 51 46
31 50 46
29 49 44
29 49 44
28 48 44
28 48 44
27 49 45
26 47 43
26 47 43
25 47 43
25 47 43
25 47 43
24 46 42
24 46 42
24 47 43
23 47 43
23 46 42
23 46 43
23 47 43
20 44 41
20 45 42
21 46 42
21 46 42
20 44 41
20 45 42
20 45 41
21 45 42
20 44 40
20 45 41
20 45 41
21 46 42
20 44 41
21 46 42
21 45 41
21 45 42
21 45 42
21 45 42
22 47 43
21 46 42
21 45 41
22 46 43
21 44 41
22 46 42
22 46 42
23 47 43
23 46 42
23 46 42
23 45 41
24 47 42
24 46 42
24 47 43
25 48 44
25 47 43
26 47 43
26 48 44
27 49 45
28 48 44
28 48 44
29 49 44
30 51 46
31 50 46
31 48 44
32 50 45
33 51 46
34 52 47
34 52 46
35 52 47
36 54 48
37 54 49
38 54 48
39 55 49
40 55 49
41 56 50
42 56 50
42 57 50
43 57 51
44 58 51
45 58 52
46 59 53
47 60 53
47 59 53
48 60 53
48 61 54
49 62 54
49 62 55
49 61 54
50 62 54
50 62 55
50 62 54
51 63 56
51 62 55
51 62 55
51 62 54
51 62 55
51 63 55
51 63 55
50 62 55
50 63 55
50 62 55
49 62 54
49 62 55
49 61 54
48 61 54
47 61 54
46 60 53
46 59 52
45 60 53
44 58 52
43 58 51
43 58 51
42 56 50
41 56 50
40 55 49
39 55 49
39 56 50
37 54 48
36 53 47
36 53 47
35 52 47
34 52 47
33 52 46
32 51 46
31 50 45
31 51 46
30 49 45
29 49 45
28 49 44
28 49 45
27 49 44
26 48 43
26 47 43
25 46 42
25 47 43
24 47 43
24 47 42
24 47 43
24 47 43
23 47 43
23 47 43
20 45 42
20 45 41
20 45 41
20 45 41
20 44 41
20 44 40
20 45 41
21 46 42
21 45 42
20 45 41
21 45 41
21 46 42
21 46 42
21 45 41
20 45 41
21 45 41
21 46 42
21 46 42
21 44 41
21 44 40
21 46 42
22 45 42
22 46 42
22 46 42
22 45 41
23 46 42
23 46 42
24 47 43
24 47 43
24 46 42
24 46 42
25 47 43
26 48 43
26 48 44
27 49 45
28 48 44
28 49 45
29 49 44
29 48 44
30 49 45
32 51 46
32 50 45
33 51 46
34 51 46
35 52 47
36 52 47
37 54 48
38 54 49
39 55 49
40 56 50
41 55 49
42 57 51
43 57 51
44 59 52
45 59 53
46 59 52
46 59 52
48 60 54
49 61 54
49 61 54
50 62 55
51 63 55
52 63 56
52 63 56
52 63 55
53 63 56
53 63 56
54 65 57
55 66 58
55 66 58
55 65 58
55 66 58
55 65 57
55 66 58
55 64 56
55 65 57
55 65 57
55 65 57
54 65 57
54 64 56
53 64 56
52 63 55
52 63 56
52 63 56
51 63 55
50 62 55
49 61 53
48 60 53
48 60 53
47 60 53
46 60 53
45 59 53
44 58 52
43 58 51
42 58 52
41 56 50
40 54 48
39 54 48
38 55 49
37 54 48
36 53 48
35 53 48
34 52 47
33 51 46
33 51 46
31 50 45
31 51 46
30 51 46
29 50 45
28 49 44
27 48 43
27 49 45
26 48 44
26 48 43
25 47 43
25 47 42
24 47 43
24 47 43
24 47 43
23 46 42
20 44 41
20 44 41
21 46 43
20 45 42
20 45 41
21 46 42
20 45 41
20 44 41
21 46 42
20 45 41
21 46 42
21 46 42
21 45 42
20 44 40
22 47 43
21 44 41
22 47 43
22 47 43
21 46 42
21 44 41
22 47 43
22 46 42
23 47 43
23 46 42
23 47 42
23 46 42
23 45 42
24 46 42
24 47 42
25 47 43
26 49 44
27 49 45
27 48 44
27 49 44
28 48 44
29 48 44
30 49 44
30 50 45
31 50 45
32 50 45
33 51 46
34 52 46
36 53 48
36 53 48
37 54 48
38 54 49
39 55 49
40 55 49
41 56 50
43 57 50
44 58 52
45 59 52
46 59 53
47 61 54
48 60 53
49 61 54
50 63 56
51 63 55
52 63 55
53 63 55
54 65 57
55 65 57
55 66 58
56 66 58
57 67 59
57 67 59
58 68 59
58 67 59
58 67 59
59 68 60
59 68 60
59 68 59
59 69 60
59 69 60
59 68 59
59 69 60
59 69 60
58 68 60
58 68 59
58 68 60
57 67 58
57 67 58
56 67 59
55 65 57
55 64 56
54 64 56
53 64 56
52 64 56
51 62 55
50 62 55
49 62 55
48 60 53
47 60 53
46 59 53
45 59 52
44 58 52
43 57 51
42 56 50
41 55 49
40 56 50
39 54 49
37 53 47
37 53 48
35 52 47
35 52 47
33 51 46
32 50 45
32 50 46
31 50 46
30 50 45
29 50 45
28 48 44
28 50 45
27 48 44
26 46 42
26 48 44
26 48 44
25 47 43
24 47 43
23 45 41
20 45 41
20 45 41
20 45 41
20 43 40
21 46 42
20 44 41
20 45 41
20 44 40
20 45 41
21 45 41
21 45 42
21 45 41
20 43 40
21 45 41
21 46 42
21 46 42
21 46 42
21 45 42
22 46 42
22 46 42
22 46 42
23 47 43
23 46 42
23 46 42
23 46 42
24 48 44
24 47 43
25 47 43
25 47 43
26 47 43
26 47 43
27 48 43
28 48 43
29 49 44
29 49 44
30 50 45
32 52 47
32 51 46
33 51 46
34 52 47
35 52 46
36 53 47
38 54 49
39 55 49
40 55 49
41 56 50
42 56 50
43 58 52
44 58 51
45 58 51
47 59 53
48 60 53
49 62 54
50 62 55
52 64 56
52 63 55
54 65 57
54 64 56
56 65 57
57 66 58
58 67 59
59 68 60
59 68 60
60 69 61
61 70 61
61 69 61
62 69 61
62 70 61
63 71 62
63 71 62
63 72 63
63 71 62
63 72 63
63 71 62
63 71 62
63 72 63
63 72 62
63 71 61
62 71 62
62 71 62
61 70 61
61 70 61
60 68 60
59 69 60
58 67 59
58 67 59
57 66 58
56 66 58
55 64 57
54 66 58
53 64 56
52 63 55
50 62 54
49 61 54
49 62 54
47 60 53
46 59 52
45 58 51
44 58 51
42 56 50
41 56 50
40 56 50
39 54 48
38 54 48
37 54 48
36 53 47
34 51 46
33 51 46
33 51 46
32 50 46
31 50 45
30 50 45
29 49 44
28 49 45
27 47 43
27 49 44
26 48 44
25 47 43
25 46 42
24 46 42
20 44 40
21 46 42
20 45 41
20 45 42
21 46 42
20 45 41
21 46 42
20 45 41
21 45 42
21 46 42
21 45 41
21 45 41
20 44 41
21 45 41
22 47 43
21 46 42
21 45 42
22 45 41
22 46 42
22 45 42
22 46 42
23 46 42
23 47 43
23 46 42
24 47 43
25 47 43
25 46 42
25 47 42
27 49 44
27 49 44
28 49 44
28 48 43
29 49 45
30 50 46
31 50 46
32 51 46
33 51 46
34 53 48
35 53 47
36 52 47
37 53 47
38 54 48
40 56 50
41 57 50
42 57 50
43 57 51
45 58 52
46 59 52
47 60 53
49 61 54
50 61 54
51 63 56
52 63 56
54 63 56
55 65 57
56 66 58
57 66 58
58 67 58
59 68 60
61 69 60
61 69 61
63 71 62
63 72 62
64 73 63
65 72 63
66 74 64
66 74 64
66 74 64
67 75 65
67 75 65
68 74 65
67 75 65
68 76 66
68 75 65
68 75 65
68 75 65
67 74 64
67 73 64
67 74 65
66 73 64
65 72 63
65 73 63
64 72 63
64 72 63
63 71 62
62 70 61
61 70 61
60 68 60
59 68 59
58 68 60
57 67 59
55 66 58
54 64 56
53 63 56
52 63 56
50 63 55
49 61 54
48 60 53
46 59 52
45 58 51
44 58 51
43 57 50
41 56 50
40 56 50
39 54 48
38 54 48
36 52 47
35 52 47
34 52 46
33 51 46
32 51 46
31 50 45
30 50 45
30 50 45
29 48 44
28 49 45
27 48 43
26 47 43
26 48 43
25 47 43
20 43 40
21 46 42
20 45 41
20 44 41
20 45 41
20 45 41
20 45 41
20 45 41
21 46 42
20 44 41
21 45 41
21 44 41
21 45 41
21 46 42
21 45 41
21 44 40
22 46 43
22 45 41
23 47 43
23 47 43
23 46 42
23 47 43
24 48 44
24 46 42
25 47 43
25 47 42
26 48 44
27 49 44
27 48 44
28 49 45
29 49 44
30 49 44
30 49 44
31 49 44
33 51 46
33 51 46
35 52 47
36 53 48
37 53 48
38 54 48
39 54 49
41 55 49
42 57 50
43 57 50
45 58 51
46 60 53
48 61 54
49 61 54
51 63 55
52 63 56
53 63 56
54 64 57
56 66 58
57 67 59
58 67 59
60 69 60
61 70 61
62 71 62
63 72 62
65 73 63
65 73 64
66 74 64
67 74 64
68 76 66
69 76 66
70 77 66
70 76 66
71 77 67
71 78 67
72 78 68
72 78 67
72 78 68
72 78 68
72 78 68
72 78 68
72 79 68
72 78 67
71 78 67
71 77 67
70 77 67
70 76 66
69 76 65
68 75 65
68 75 65
66 73 63
66 74 64
65 73 63
64 72 63
62 70 61
61 69 61
60 69 60
59 68 60
58 67 59
56 66 57
55 65 57
54 64 56
52 62 55
51 63 56
50 61 54
48 61 54
47 60 53
45 58 51
44 59 52
43 58 51
41 56 50
40 56 50
39 55 49
37 53 48
36 52 47
36 53 48
34 52 47
33 51 46
32 50 45
31 50 45
30 49 45
29 49 44
29 50 45
27 48 43
27 47 43
26 47 43
21 46 42
20 44 41
20 44 41
20 45 41
20 45 41
21 45 42
20 44 41
21 46 42
21 45 41
21 45 41
20 44 40
21 45 41
21 45 41
21 45 41
22 46 42
21 44 41
22 46 42
22 45 41
23 46 42
23 45 42
23 46 42
24 46 42
25 47 43
25 47 43
26 48 44
26 48 43
27 47 43
27 48 43
29 49 45
29 49 44
30 49 44
31 49 44
32 51 46
33 52 46
34 52 47
36 53 48
36 52 47
38 55 49
39 54 48
41 56 50
42 56 50
43 58 52
45 58 51
46 59 53
48 60 53
49 61 54
51 63 56
52 63 55
54 65 57
55 65 57
57 67 59
58 68 60
59 68 59
61 70 61
62 71 62
64 71 62
65 73 64
66 73 64
67 74 64
69 76 66
69 75 65
71 77 67
72 78 67
73 79 68
74 80 69
74 80 69
75 80 70
75 81 70
76 81 70
76 82 71
77 82 70
77 81 70
77 82 71
77 82 71
77 82 71
77 82 71
76 82 71
76 81 71
76 81 70
75 81 70
74 80 69
73 79 68
73 78 68
72 79 68
71 77 67
70 76 66
69 76 66
68 75 65
67 75 65
65 72 63
64 73 63
63 71 62
62 70 61
60 69 60
59 68 60
57 67 59
56 65 57
54 64 56
53 64 56
51 63 56
50 61 54
48 60 53
47 59 52
45 59 52
44 58 51
43 58 51
41 56 50
40 55 49
38 54 48
37 53 47
36 53 48
35 53 48
34 52 47
32 50 45
32 50 45
31 50 45
30 51 46
29 49 44
28 49 44
28 49 45
20 44 41
21 46 42
20 45 41
20 44 41
21 46 43
21 46 42
21 45 41
20 44 41
21 45 41
21 46 42
21 45 42
21 44 41
22 46 42
21 45 41
22 46 42
22 45 41
22 46 42
23 46 42
23 46 42
24 47 43
24 46 42
24 46 42
25 47 43
25 46 42
26 48 43
27 47 43
28 48 44
29 49 44
29 47 42
30 49 44
31 50 45
33 52 47
33 51 46
35 52 47
36 53 48
37 54 48
39 54 48
40 56 50
41 56 50
43 57 51
44 57 51
46 59 52
48 60 53
49 61 54
50 62 54
52 64 56
54 64 56
55 65 57
57 66 58
58 68 59
60 69 60
62 70 61
63 71 62
65 72 63
66 74 65
68 75 65
69 76 66
70 77 67
72 77 67
73 79 68
74 79 68
75 81 70
76 82 71
77 82 71
78 82 71
79 83 72
79 84 72
80 84 73
80 84 73
81 85 73
81 85 74
81 86 74
82 86 75
82 86 74
81 85 73
81 85 74
81 85 73
80 85 73
80 84 73
79 84 72
79 84 72
78 83 71
77 82 71
76 82 71
76 81 70
74 80 70
73 79 68
72 78 67
71 77 67
70 77 67
69 77 67
67 73 64
65 73 64
64 72 63
62 71 62
61 69 61
59 68 59
58 67 59
56 67 58
55 66 58
53 63 55
51 63 56
49 61 53
48 60 53
47 59 52
45 59 52
44 59 52
42 56 50
41 56 49
39 54 48
38 54 48
37 54 48
35 52 47
34 52 47
33 51 46
33 51 46
31 51 46
30 49 44
29 49 44
28 48 44
20 44 40
21 45 42
21 46 42
20 44 40
20 44 41
20 44 41
21 45 42
21 45 41
21 44 41
21 45 42
21 45 42
21 45 41
22 46 42
22 45 41
22 45 41
22 45 42
23 46 42
23 46 42
24 46 42
24 46 42
24 46 42
25 45 41
26 47 43
26 47 42
27 48 44
28 49 44
29 49 44
30 50 45
31 49 44
32 51 46
33 51 46
34 52 47
35 53 47
37 53 47
38 55 49
39 55 49
40 55 49
42 57 51
44 58 51
45 58 51
47 60 53
48 60 53
50 62 55
52 62 55
53 64 57
55 65 57
57 67 58
59 68 59
60 70 61
62 70 61
64 72 62
65 73 64
67 73 63
69 76 66
70 77 67
71 77 67
73 79 68
74 80 69
76 80 69
77 83 72
78 82 71
80 85 73
80 84 72
82 85 73
82 86 74
83 87 75
84 87 75
84 88 76
85 89 76
86 89 77
86 89 76
86 89 77
86 89 77
86 90 78
86 89 77
86 89 77
86 89 77
85 89 76
85 89 77
84 88 76
84 87 75
83 87 75
82 85 73
81 84 73
80 84 73
79 83 72
78 82 71
76 81 70
75 80 70
74 79 69
72 78 67
71 77 67
69 75 65
67 75 65
66 74 64
64 72 63
63 72 63
61 69 61
59 68 60
58 68 59
56 66 58
54 64 56
53 64 56
51 62 55
50 62 55
48 60 53
46 59 52
44 57 50
43 58 52
41 55 49
40 54 48
39 55 49
37 53 48
36 53 48
35 52 46
34 51 46
33 51 46
32 50 45
31 51 46
30 50 46
20 45 41
21 45 41
20 44 40
20 44 40
21 47 43
21 46 42
21 45 41
21 44 41
21 45 42
21 45 41
22 47 43
22 45 42
21 44 41
22 46 42
22 46 42
23 45 41
23 46 42
24 47 43
24 47 43
25 46 42
25 46 42
27 49 44
27 47 43
28 49 44
28 48 43
29 49 44
30 48 43
31 50 45
32 51 46
33 50 45
35 52 47
36 52 46
37 53 48
38 54 48
40 56 50
41 56 50
43 57 51
45 58 52
46 60 53
48 60 53
49 60 53
51 63 55
53 64 56
55 66 58
57 66 58
58 67 59
60 68 59
62 70 61
64 72 63
66 74 64
67 74 65
69 75 65
71 77 67
72 79 68
74 80 69
76 81 70
77 82 71
79 83 72
80 84 72
81 86 74
83 86 74
84 88 76
85 88 76
86 89 77
87 90 77
88 90 77
88 91 78
89 92 79
90 92 79
90 93 79
91 93 80
91 93 80
91 94 81
91 93 80
91 93 80
91 94 80
90 93 80
90 92 79
89 91 78
89 92 79
88 91 79
87 90 78
86 90 77
85 89 76
84 88 76
83 87 75
82 87 75
80 84 72
79 84 72
78 82 71
76 82 71
75 81 70
73 78 68
72 78 67
70 76 66
68 75 65
66 74 65
65 73 64
63 71 62
61 69 61
59 68 59
57 66 58
56 66 58
54 65 57
52 64 56
51 62 55
49 61 54
47 60 53
45 58 51
44 57 51
42 56 50
41 56 50
40 56 50
38 53 48
37 53 48
35 52 47
34 51 46
33 51 46
32 51 46
31 50 45
21 46 42
20 45 41
21 46 42
20 44 41
20 44 41
21 45 41
21 45 41
21 45 41
21 45 41
22 46 42
21 45 41
22 45 41
22 44 40
22 45 41
23 46 42
23 46 42
24 46 42
24 46 42
25 47 43
25 46 42
26 47 43
27 47 43
28 48 44
28 48 43
29 49 44
31 50 45
31 49 44
32 51 46
34 52 46
35 52 46
36 53 48
38 53 48
39 56 50
40 55 49
42 55 49
44 58 51
45 59 52
47 60 53
48 60 53
50 62 55
52 63 55
54 65 57
56 66 58
58 67 58
60 69 60
61 69 60
63 71 62
65 73 63
67 74 64
69 75 65
70 76 66
73 78 67
75 80 69
76 82 71
78 83 72
80 84 72
81 85 74
83 87 75
84 88 76
86 89 77
87 89 77
88 91 78
90 92 79
91 93 80
92 94 80
92 94 81
93 95 81
94 96 82
95 97 83
95 97 83
95 97 83
96 97 83
96 98 84
96 98 84
96 97 83
96 97 83
95 97 83
95 97 83
94 96 82
93 95 82
93 95 81
92 94 80
91 93 80
90 93 80
89 92 79
87 90 78
86 89 77
85 88 76
84 87 75
82 86 74
81 85 74
79 83 72
77 82 70
75 81 70
74 79 68
72 77 67
70 77 66
68 75 65
66 73 64
65 73 64
63 72 63
61 69 60
59 68 60
57 67 59
55 65 57
53 64 56
51 62 55
50 62 55
48 60 53
46 59 52
45 59 53
43 57 51
41 56 50
40 55 49
38 53 47
37 53 47
36 53 48
35 51 46
33 51 46
32 49 44
20 44 40
20 44 41
21 46 42
21 45 42
21 45 41
21 44 40
21 45 41
21 44 41
20 43 39
21 44 41
22 46 42
22 45 42
23 48 44
22 44 40
24 47 43
24 47 43
24 46 42
25 46 42
25 47 43
26 47 43
27 48 44
28 48 44
28 47 43
29 47 43
30 49 44
31 49 45
33 52 46
34 51 46
36 54 48
37 53 47
38 53 48
39 55 49
41 55 49
43 57 51
44 58 52
46 60 53
48 60 53
49 61 54
51 62 55
53 63 55
55 65 57
57 66 58
59 67 58
61 69 60
63 71 61
64 72 62
67 74 64
69 76 66
71 77 67
73 79 68
75 80 69
76 81 70
78 83 72
80 85 73
82 86 74
84 87 75
85 89 76
87 90 77
89 92 79
90 93 80
92 94 80
93 95 82
94 96 82
95 97 83
96 98 84
97 98 84
98 99 85
99 100 85
99 100 85
99 100 85
100 101 86
100 101 86
100 101 86
100 101 87
100 101 86
100 101 87
100 100 86
99 100 86
99 100 85
98 100 86
97 99 85
96 98 84
95 97 83
94 96 82
93 96 82
92 94 81
91 93 80
89 92 79
88 91 78
86 90 78
85 88 76
83 87 75
81 85 73
79 84 72
77 82 71
76 81 70
74 79 69
72 78 68
70 75 65
68 74 64
66 73 63
64 72 63
62 70 61
60 69 60
58 67 59
56 66 58
54 65 57
53 64 56
50 61 54
49 61 54
47 59 53
45 58 52
44 57 51
42 56 50
41 56 50
39 55 49
37 53 47
37 54 48
35 51 46
34 51 46
20 45 41
21 45 42
20 44 41
21 46 42
21 45 41
21 45 42
21 45 41
22 46 42
21 44 41
22 46 42
23 47 43
23 46 42
23 46 43
23 46 42
24 46 42
24 46 42
25 47 43
25 47 43
26 46 42
26 46 42
28 47 43
29 50 45
29 49 44
31 50 45
32 50 46
33 51 46
34 51 46
35 52 47
37 53 48
38 54 49
40 54 49
41 56 50
43 58 51
44 57 51
46 58 52
48 60 53
50 62 54
52 62 55
54 64 56
55 65 57
58 67 59
60 68 60
62 70 61
64 71 62
66 73 63
68 74 65
70 77 67
72 78 68
74 79 68
76 81 70
78 82 71
80 85 73
83 86 75
84 88 75
86 89 77
88 91 78
90 92 79
91 94 80
93 95 81
94 96 82
96 97 83
97 98 84
98 99 85
100 101 86
101 102 87
102 103 88
103 103 88
104 104 89
104 104 89
105 105 90
105 105 90
105 106 90
106 106 91
105 105 90
105 105 89
105 105 89
105 104 89
104 104 89
103 103 88
103 104 89
102 102 88
101 102 87
100 100 86
99 101 86
98 99 85
96 98 84
95 96 82
93 95 81
92 94 81
91 93 80
89 92 79
87 90 78
85 88 76
83 87 74
81 85 73
79 84 72
77 82 70
75 81 70
73 79 68
71 77 67
69 77 67
67 74 64
65 72 63
63 71 62
61 70 61
59 68 59
57 67 59
55 65 57
53 63 56
51 63 55
49 60 53
48 60 53
46 59 52
44 58 52
43 57 51
41 55 49
40 56 50
38 54 49
36 52 47
35 53 47
21 45 41
21 45 41
21 45 41
20 44 40
21 45 41
21 45 41
21 44 41
22 46 42
22 45 41
22 45 42
22 45 42
23 46 42
23 46 42
24 46 42
24 47 43
25 47 43
25 46 42
26 47 42
28 49 45
28 49 44
28 47 43
30 49 44
31 49 44
32 50 45
33 51 46
34 51 46
35 52 47
37 53 47
39 55 49
40 55 49
42 56 50
43 56 50
45 59 52
47 59 53
48 60 53
50 61 54
52 63 56
54 65 57
56 66 58
58 67 59
60 69 60
63 70 61
65 72 63
67 74 64
69 75 65
72 78 67
73 79 69
76 81 70
78 83 71
80 84 73
82 85 74
84 88 76
86 89 76
88 91 78
90 93 80
92 95 81
94 96 82
96 98 84
97 98 84
99 100 86
100 101 87
102 102 87
103 103 88
104 104 89
105 105 90
106 106 91
107 107 91
108 107 92
109 108 92
109 108 92
110 109 93
110 109 93
110 109 93
110 110 94
110 109 93
110 109 93
109 109 93
109 109 93
108 108 92
108 107 92
107 106 91
106 106 90
105 105 90
104 104 89
102 102 88
101 102 87
99 100 86
98 99 85
96 98 84
95 96 83
93 95 81
91 94 81
89 91 78
87 90 78
85 88 75
83 87 75
81 85 74
79 83 72
77 82 71
75 80 69
73 79 68
71 76 66
69 76 66
66 73 64
64 72 62
62 70 61
60 68 60
58 67 59
56 66 58
54 65 57
52 63 56
50 62 55
48 60 53
46 59 52
45 58 51
43 57 51
42 57 51
40 54 49
38 54 48
37 53 47
21 45 42
21 45 41
21 46 42
21 44 41
21 44 40
21 45 41
21 44 40
22 45 41
23 47 43
23 46 42
23 46 42
24 47 43
24 45 42
24 47 43
24 46 42
25 47 42
26 46 42
27 47 43
28 48 44
29 48 44
29 47 43
31 50 46
32 50 46
33 50 45
34 52 47
36 52 47
37 53 48
38 53 47
40 55 49
42 56 50
43 56 50
45 59 52
47 60 53
49 61 54
51 62 54
53 64 57
55 65 57
57 66 58
59 68 59
61 70 62
63 71 62
66 73 64
68 74 65
70 77 67
72 78 68
74 80 69
77 82 70
79 84 72
81 86 74
84 87 75
86 89 77
88 91 78
90 92 79
92 94 81
94 96 82
96 97 83
98 99 85
100 100 86
102 102 88
103 103 88
105 105 89
106 106 91
107 107 91
109 109 93
110 110 94
111 110 94
112 111 94
113 111 95
113 111 95
114 113 96
114 113 96
114 113 96
115 114 97
115 114 97
114 113 96
115 113 97
114 113 96
114 112 96
113 112 95
112 111 95
111 111 95
110 110 94
110 109 93
108 108 92
107 107 92
105 105 90
104 104 89
103 103 88
101 102 87
99 100 85
97 98 84
95 97 84
93 94 81
91 94 81
89 92 79
87 89 77
85 88 76
83 86 74
81 85 73
78 84 72
76 81 70
74 79 69
72 78 68
70 76 66
67 74 65
65 73 64
63 70 61
61 69 60
58 67 59
56 66 58
54 64 56
52 63 55
51 62 55
48 59 52
47 60 53
45 58 51
43 56 50
42 56 50
40 55 50
39 54 48
21 44 41
20 44 40
20 43 40
21 45 41
22 46 42
22 45 41
22 45 41
23 46 43
23 46 42
22 45 41
23 46 42
23 45 41
24 46 42
25 46 42
25 46 42
26 47 43
27 47 43
28 47 43
29 49 44
30 49 44
30 49 44
31 49 44
33 51 46
34 51 46
36 53 47
37 53 47
38 54 48
40 55 50
42 56 50
43 56 50
45 57 51
47 59 52
49 61 54
51 62 55
53 63 55
55 65 57
57 66 58
59 68 60
62 71 62
64 72 62
66 74 64
69 76 66
71 77 67
73 79 68
76 80 69
78 83 72
80 85 73
83 86 74
85 88 76
87 90 77
89 92 79
92 94 80
94 95 82
96 98 84
98 99 85
100 101 87
102 103 88
104 104 89
106 106 91
107 107 91
109 108 92
111 110 94
112 111 95
113 111 95
114 113 96
116 114 97
116 115 98
117 115 98
118 116 99
119 117 100
119 117 100
119 117 100
119 117 100
119 117 100
119 117 99
119 117 100
119 116 99
118 116 99
118 116 99
117 115 97
116 114 97
115 114 98
114 112 95
113 112 96
111 110 94
110 109 93
108 108 92
107 106 91
105 105 90
103 104 89
101 102 87
99 100 86
97 98 84
95 97 83
93 94 81
91 93 79
88 90 77
86 89 76
84 89 76
82 86 74
79 83 72
77 82 71
75 81 70
73 78 68
70 77 67
68 74 65
66 73 64
63 71 62
61 70 61
59 68 59
57 67 58
55 65 57
53 64 56
51 62 55
49 60 53
47 59 52
45 59 52
43 57 51
42 56 50
40 55 49
21 46 42
20 43 40
21 44 41
21 45 42
21 44 40
22 46 42
22 46 42
22 44 40
23 45 42
24 47 43
24 46 42
24 46 42
25 47 43
25 47 43
26 46 42
27 48 43
28 48 44
29 48 44
29 48 44
31 49 45
32 50 45
33 50 45
35 52 47
36 52 47
37 52 47
39 55 49
40 55 49
42 56 50
43 57 50
45 58 51
47 59 52
49 60 53
51 63 55
53 63 55
55 65 57
57 67 58
60 68 60
62 70 61
65 73 63
67 73 64
69 76 66
71 77 67
74 79 69
76 81 70
79 83 72
81 85 73
84 88 76
86 89 77
88 91 78
91 93 80
93 95 82
96 97 84
98 99 85
100 101 86
102 103 88
104 105 89
106 106 91
108 107 91
110 109 93
112 111 94
113 112 96
115 113 97
116 115 98
118 116 99
119 117 100
120 118 100
121 119 101
122 119 101
122 120 102
123 121 103
123 121 103
124 121 103
124 122 104
124 122 103
124 121 103
124 121 103
124 121 103
123 120 102
122 120 102
121 119 101
120 118 100
119 117 100
118 116 99
117 115 98
116 115 98
114 113 96
113 112 95
111 110 94
109 108 92
107 107 91
105 106 90
103 103 88
101 103 88
99 100 85
97 98 84
95 97 83
92 94 81
90 93 80
88 90 78
85 88 76
83 87 75
81 85 73
78 83 71
76 80 69
73 78 67
71 77 67
69 75 66
66 74 64
64 72 62
62 70 61
59 69 60
57 65 57
55 66 58
53 63 56
51 61 54
49 61 54
47 60 53
45 59 52
44 58 51
42 56 50
21 44 41
21 45 41
21 45 42
22 45 42
21 44 41
22 45 42
22 45 42
23 46 42
24 47 43
23 45 42
24 46 42
25 47 43
25 47 43
25 46 42
27 48 44
28 48 44
29 49 45
30 49 44
31 49 45
32 50 45
33 50 45
34 52 47
36 52 47
37 53 48
39 54 48
40 55 49
42 57 50
44 57 51
45 58 52
47 60 53
49 62 55
51 62 55
53 64 56
56 65 57
58 68 60
60 68 60
62 71 62
65 72 62
67 74 65
69 76 66
72 77 67
74 80 69
77 82 71
79 83 72
82 86 74
84 88 75
87 89 77
90 92 79
92 94 80
94 96 83
97 98 84
99 100 85
102 102 87
104 104 89
106 106 90
108 108 92
110 110 94
112 111 95
114 112 96
116 114 98
118 116 99
119 117 100
121 119 101
122 120 102
123 121 103
124 122 103
126 123 104
126 123 105
127 124 106
128 124 106
128 125 106
129 125 107
129 126 107
129 126 107
128 125 106
128 125 106
128 125 106
127 124 106
127 124 105
126 123 104
125 122 103
124 122 104
123 120 102
121 119 102
120 118 100
119 116 99
117 115 98
115 114 97
113 112 96
111 110 94
109 108 92
107 107 91
105 105 90
103 103 88
101 102 87
99 100 85
96 97 83
94 95 82
91 93 80
89 91 78
86 89 76
84 88 76
81 86 74
79 84 72
76 81 70
74 79 68
72 78 68
69 77 67
67 74 64
64 71 62
62 70 61
60 69 61
58 67 59
55 65 57
53 63 55
51 63 55
49 61 54
47 59 52
45 58 52
44 58 52
21 44 40
21 44 41
21 45 41
22 45 42
22 45 41
22 45 41
23 47 43
23 46 43
23 45 41
24 45 42
24 46 42
25 46 42
26 47 43
27 48 44
27 47 43
28 49 44
29 49 44
30 49 44
32 50 45
32 50 45
34 52 47
36 54 48
37 53 47
39 55 49
40 55 49
42 56 50
43 57 51
45 58 52
47 59 53
49 60 53
51 62 55
53 63 56
55 65 57
58 66 58
60 69 60
62 70 61
65 72 63
67 74 64
70 76 66
72 77 67
75 80 69
78 82 71
80 85 73
83 86 75
85 89 76
88 91 78
90 92 79
93 95 81
96 97 83
98 99 85
100 101 86
103 104 89
105 105 90
108 108 92
110 109 93
112 111 95
114 113 96
116 115 98
118 116 99
120 118 101
122 119 102
123 121 103
125 122 104
126 123 105
128 125 106
129 125 107
130 126 107
131 128 109
131 128 108
132 129 109
132 129 109
133 129 110
133 129 109
133 129 110
133 129 110
133 129 110
132 128 109
132 128 109
131 128 109
130 127 108
129 126 107
128 125 106
127 124 106
126 123 105
124 122 103
123 120 102
121 119 101
119 117 100
118 116 98
115 113 97
113 112 95
111 110 94
109 108 93
107 106 91
105 105 89
102 102 87
100 101 86
97 99 85
95 96 82
92 94 81
90 93 80
87 90 77
85 88 76
82 86 74
79 83 72
77 82 70
74 79 69
72 77 67
69 75 65
67 74 64
65 72 63
62 70 61
60 69 60
58 67 58
55 65 57
54 64 56
51 62 55
49 61 54
47 59 53
46 59 53
21 45 42
21 44 40
21 45 41
22 45 41
22 45 41
23 46 42
23 47 43
23 45 41
24 46 42
24 46 42
25 46 42
26 47 43
26 46 42
28 49 45
28 48 44
29 48 44
30 49 44
31 50 45
32 50 45
34 51 46
35 51 46
36 52 47
38 54 48
40 54 48
42 56 50
43 57 51
45 57 51
47 60 53
49 60 53
51 63 55
53 64 57
55 65 57
58 67 58
60 69 61
62 70 61
65 73 63
67 74 64
70 76 66
72 78 68
75 80 70
77 82 71
80 85 73
83 86 74
86 89 76
88 90 78
91 93 80
94 96 82
96 98 84
99 100 86
101 102 87
104 105 90
106 106 91
109 108 92
111 110 94
114 112 96
116 114 97
118 116 99
120 119 101
122 120 102
124 121 103
126 123 105
128 125 106
129 126 107
131 127 108
132 128 109
133 129 110
134 130 110
135 131 111
136 131 111
137 132 112
137 133 113
137 133 113
137 133 113
138 134 114
137 133 113
137 133 113
137 132 112
136 132 112
135 131 111
134 130 111
134 130 110
133 129 109
132 128 109
130 127 108
128 125 106
127 123 105
125 122 104
123 121 103
122 119 101
119 117 100
117 115 98
115 113 97
113 112 95
111 110 94
108 108 92
106 106 90
103 103 88
101 102 87
98 100 85
96 97 83
93 95 81
90 92 79
88 90 77
85 88 76
83 87 75
80 84 73
77 81 70
75 80 69
72 79 68
70 77 67
67 74 64
64 71 62
62 71 62
60 69 61
58 67 59
55 65 57
54 64 57
51 62 55
49 61 54
47 59 52
21 45 41
21 44 40
21 44 40
22 46 42
23 46 42
23 46 42
23 45 41
24 45 41
24 46 42
25 46 42
26 47 43
26 46 42
27 48 43
29 50 46
29 49 44
30 48 44
31 50 45
32 50 46
33 50 45
35 53 48
37 53 48
38 53 47
39 55 49
41 56 50
43 57 51
45 58 52
47 60 53
49 61 54
50 60 53
53 63 55
55 65 57
57 66 58
59 68 59
62 71 62
65 72 63
67 74 65
70 76 66
72 78 68
75 80 69
78 83 71
80 84 72
83 87 75
86 88 76
88 91 78
91 94 80
94 95 81
97 98 84
100 100 86
102 103 88
105 105 89
107 107 92
110 110 94
113 111 95
115 114 97
117 116 99
120 117 100
122 119 101
124 122 104
126 124 105
128 125 106
130 127 108
132 128 109
133 129 110
135 131 111
136 132 112
137 133 113
138 133 113
139 135 114
140 136 115
141 136 115
141 137 116
142 137 116
142 137 116
142 137 116
142 137 116
142 137 116
141 136 115
140 136 115
140 135 115
139 134 114
138 133 113
137 132 112
135 131 112
134 130 110
133 129 109
131 127 108
129 126 107
127 124 106
126 123 105
123 121 103
121 119 101
119 117 100
117 115 98
114 113 96
112 110 94
109 108 92
107 107 91
104 103 88
102 102 88
99 100 86
96 97 83
94 95 82
91 93 80
88 91 79
85 88 75
83 86 74
80 84 72
77 82 71
75 80 70
72 79 68
70 76 66
67 74 65
65 72 63
62 70 61
60 67 59
58 68 59
55 64 57
53 63 56
51 62 55
49 61 53
