P3
120 80
255
18 40 37
18 41 39
17 40 37
18 41 38
18 41 39
18 40 38
18 40 38
17 40 37
18 41 38
18 41 38
18 40 38
18 41 38
18 41 39
18 40 38
19 42 39
18 41 39
18 40 38
18 40 38
18 41 38
18 41 38
18 41 38
18 41 38
18 41 38
18 41 38
18 41 38
18 42 39
18 41 38
18 41 38
18 41 38
18 41 39
18 41 38
18 41 38
18 40 37
18 42 39
18 41 38
18 41 38
18 41 38
18 42 39
18 41 38
18 41 38
18 41 38
18 41 38
18 42 39
18 40 38
19 43 40
18 41 39
18 40 38
18 41 38
19 42 39
19 42 39
19 42 39
18 42 39
18 41 39
19 42 39
18 41 38
18 42 39
19 42 39
18 41 38
18 41 38
18 41 38
18 42 39
18 41 39
18 41 38
19 42 39
18 42 39
18 41 39
19 42 39
19 42 39
18 41 38
19 42 39
18 41 39
18 41 38
19 42 39
19 42 39
19 42 39
18 42 39
18 41 38
18 41 38
18 41 38
18 41 38
18 42 39
18 42 39
18 41 38
18 41 38
19 42 39
19 42 39
19 42 39
19 42 39
18 41 38
18 41 39
18 40 38
19 42 39
19 43 40
19 42 39
18 41 38
18 41 39
18 40 37
19 42 39
18 41 38
18 42 39
18 41 38
19 42 39
19 43 40
18 42 39
18 41 38
19 42 39
18 41 39
18 41 38
18 42 39
19 42 39
19 42 39
19 42 39
19 42 40
19 42 39
18 41 38
18 41 38
18 41 39
19 42 39
19 42 39
19 42 39
18 40 37
18 40 38
18 41 38
17 40 37
18 41 38
18 41 38
18 40 38
18 41 38
18 40 38
18 40 37
18 41 39
18 42 39
18 40 38
18 41 39
18 40 38
18 41 38
18 41 38
18 42 39
18 41 38
18 41 38
18 40 38
18 41 38
17 39 37
18 41 38
18 41 38
18 41 38
18 41 38
18 41 38
18 40 38
18 41 38
18 41 38
18 41 38
18 41 38
19 43 40
18 41 39
18 41 39
18 41 38
18 41 38
18 41 38
19 42 39
18 41 38
19 43 40
19 42 39
18 42 39
19 42 39
18 41 38
18 42 39
18 41 38
19 42 39
18 40 38
18 42 39
18 41 38
19 43 40
18 41 38
19 42 39
18 41 38
18 41 38
18 41 38
18 41 38
19 42 39
18 41 38
19 42 39
19 42 39
18 40 37
19 42 39
18 42 39
19 42 39
18 41 38
18 42 39
18 41 38
18 41 39
18 42 39
18 42 39
18 41 38
19 42 39
19 42 39
18 41 38
19 42 39
18 41 38
19 42 39
19 42 39
18 42 39
18 41 38
19 42 39
18 41 39
19 42 39
18 41 38
19 42 39
19 42 39
19 43 40
19 43 40
18 41 38
19 43 40
18 41 38
19 42 39
19 43 40
18 42 39
19 42 39
19 42 39
19 42 39
18 41 39
19 43 39
18 42 39
19 43 40
18 41 38
19 43 40
19 42 39
18 41 39
19 42 39
18 41 39
19 42 39
19 42 39
19 42 39
19 42 39
19 43 40
19 42 39
19 42 39
18 41 39
19 42 39
19 42 39
18 40 38
18 40 38
19 42 39
18 40 38
18 40 37
18 41 38
18 40 38
18 41 38
18 41 38
18 41 38
18 41 38
18 42 39
18 40 38
18 41 38
18 41 39
18 41 39
18 42 39
18 41 38
18 40 38
18 41 39
19 42 39
18 41 39
18 41 39
18 41 39
18 41 38
18 41 38
18 41 38
19 42 39
18 41 38
18 41 39
19 42 39
18 41 38
18 41 38
19 42 39
19 42 39
18 41 38
18 41 38
19 42 39
19 42 39
18 41 38
19 42 39
18 41 38
18 41 38
19 43 40
18 41 38
18 42 39
19 42 39
19 43 40
18 40 38
19 42 39
18 41 38
19 42 39
18 42 39
19 42 39
19 42 39
19 43 40
19 42 39
19 42 39
19 42 39
19 42 39
19 42 39
19 42 39
18 42 39
19 42 39
18 42 39
19 42 39
18 42 39
19 42 39
18 41 38
19 42 39
19 42 39
19 42 39
19 42 39
19 42 39
19 42 39
19 42 39
18 42 39
19 43 40
19 42 39
19 43 40
19 43 40
18 41 38
19 42 39
19 42 39
19 42 39
19 43 40
19 42 39
20 44 41
18 41 38
19 42 39
19 42 39
19 42 39
19 43 40
18 41 38
19 42 39
19 43 40
19 42 39
18 41 38
19 43 40
19 43 40
19 42 39
19 43 40
18 42 39
19 42 39
19 43 40
19 44 40
19 43 40
19 42 39
19 43 40
19 42 39
19 43 40
18 41 38
19 43 40
19 42 39
19 43 40
19 43 40
19 42 39
19 43 40
19 42 39
19 42 39
18 40 37
18 40 38
18 41 38
19 42 39
18 41 38
18 41 39
18 40 37
19 42 39
18 41 38
18 41 38
18 41 38
18 41 39
18 41 39
18 41 39
19 42 39
18 41 38
18 41 38
18 42 39
18 42 39
19 42 39
18 41 39
18 41 38
18 41 38
18 42 39
18 41 38
19 42 39
18 42 39
18 42 39
18 41 38
18 40 38
18 41 39
19 42 39
18 42 39
18 41 38
19 42 39
19 42 39
18 41 39
19 42 39
18 41 38
18 41 39
18 42 39
19 42 39
18 41 38
18 41 38
18 41 38
19 42 39
18 41 38
19 42 39
19 43 40
19 42 39
18 41 38
18 41 39
19 42 39
18 41 38
19 42 39
19 42 39
19 42 39
19 42 39
19 42 40
18 41 38
19 42 39
19 43 40
19 42 39
18 41 38
19 42 39
19 42 39
19 42 39
19 42 39
19 42 39
19 42 39
19 43 39
19 43 40
19 42 39
18 42 38
19 42 39
18 41 39
19 43 40
19 42 39
19 43 40
19 42 39
19 43 39
19 42 39
19 42 39
19 43 39
19 42 39
19 42 39
19 42 39
19 44 41
19 42 39
19 42 39
19 43 39
19 43 39
19 42 39
19 44 40
19 43 40
19 42 39
19 42 39
19 43 40
19 42 39
18 41 38
19 42 38
19 43 40
19 44 40
19 42 39
19 42 39
19 43 40
20 44 41
19 42 39
19 43 40
19 43 40
20 45 41
20 44 41
19 43 40
19 43 39
19 43 40
19 43 40
19 42 39
19 43 40
20 44 40
19 42 39
18 41 39
19 42 39
18 41 39
19 42 39
18 41 39
18 40 37
17 40 37
18 41 39
19 42 39
18 41 39
18 40 37
18 41 38
18 41 39
18 41 39
19 42 39
18 42 39
18 41 39
18 42 39
18 41 38
18 42 39
18 42 39
19 43 40
18 41 38
18 40 38
19 42 39
18 41 39
18 41 38
18 41 38
19 42 39
19 42 39
18 41 39
18 41 38
18 41 38
19 42 39
19 42 39
19 43 39
19 42 39
19 43 40
19 42 39
18 42 39
18 42 39
18 42 39
19 42 39
19 42 39
19 42 39
19 43 40
19 42 39
18 42 39
19 42 39
19 43 40
19 42 39
18 41 38
19 43 40
19 42 39
19 43 40
19 43 40
19 44 40
19 42 39
19 43 40
19 42 39
18 42 39
19 43 40
19 43 40
19 43 40
19 43 40
19 43 40
19 43 40
19 42 39
19 42 39
19 42 39
19 42 39
19 42 39
19 43 39
19 43 40
19 42 39
19 42 39
19 43 40
19 43 40
19 43 40
19 43 40
19 43 40
19 42 39
19 44 41
19 42 39
19 43 40
19 43 40
19 42 39
19 43 40
19 42 39
19 43 40
19 43 40
19 43 40
19 42 39
19 43 40
19 42 39
19 43 40
20 44 40
19 42 38
19 43 40
19 43 40
19 43 39
19 43 39
19 43 40
19 42 39
19 43 39
19 43 40
19 43 40
19 43 39
19 43 40
19 43 40
20 44 40
19 43 40
19 43 39
19 43 40
19 43 39
19 43 39
19 42 39
19 43 40
20 44 40
19 44 40
18 41 38
18 40 37
18 41 38
18 41 39
18 42 39
18 41 38
18 42 39
18 41 39
18 41 38
18 42 39
18 41 39
19 42 39
19 43 40
19 42 39
18 41 38
19 42 39
18 41 38
19 42 39
18 42 39
18 41 38
18 41 38
19 43 40
18 41 38
19 43 40
18 42 39
18 41 38
19 43 40
19 42 39
19 42 39
18 41 38
19 42 39
19 43 40
18 41 38
19 42 39
19 43 40
19 42 39
18 41 38
19 43 40
19 42 39
19 43 40
18 41 39
18 41 38
20 44 40
19 42 39
19 43 40
19 43 40
19 42 39
19 43 40
19 42 39
19 43 40
19 42 39
19 42 39
19 43 39
19 43 39
19 42 39
19 42 39
18 42 39
19 43 40
19 42 39
19 43 40
19 43 40
19 43 40
19 43 40
19 42 39
19 43 39
19 42 39
19 43 40
19 42 39
19 43 40
19 43 40
19 43 39
19 43 40
19 42 39
19 43 40
19 42 39
19 44 40
19 42 39
19 43 40
20 44 41
19 43 40
19 43 40
20 44 41
20 44 41
19 43 39
19 43 40
20 44 40
19 43 39
19 43 40
19 43 40
19 43 40
19 42 39
19 43 40
20 44 40
19 43 39
19 43 40
19 43 40
20 45 41
19 43 39
19 42 39
19 43 40
19 44 40
20 44 41
19 43 39
19 43 40
19 43 40
19 43 40
19 43 40
19 43 40
19 43 40
19 43 40
20 45 41
19 43 40
19 42 39
19 44 40
19 44 40
19 43 39
20 44 41
20 44 41
20 44 41
20 44 40
18 41 39
18 41 38
18 42 39
18 42 39
18 41 38
18 42 39
19 42 39
18 40 37
18 41 38
19 43 40
18 41 39
18 40 37
19 42 39
19 42 39
19 42 39
19 42 39
19 43 40
19 42 39
18 41 38
19 42 39
19 42 39
18 41 39
18 41 38
19 43 40
19 43 40
19 42 39
18 42 39
19 43 40
19 43 40
19 43 40
19 42 39
19 42 39
19 42 39
19 42 39
19 42 39
18 41 38
19 43 40
18 41 38
19 42 39
20 44 41
19 42 39
19 42 39
19 42 39
19 43 40
19 43 40
19 42 39
19 42 39
19 42 39
19 43 40
19 43 40
19 43 39
19 43 40
19 42 39
19 42 39
19 43 40
19 43 39
19 42 39
19 42 39
19 44 40
19 43 40
19 43 40
19 43 40
20 44 41
19 43 40
20 44 41
19 42 39
19 42 39
19 44 40
20 44 41
19 43 40
19 43 39
19 42 39
19 43 40
20 44 40
19 43 40
19 43 40
19 42 39
20 44 41
19 43 40
19 43 40
19 43 40
19 43 39
19 43 40
19 42 39
19 43 40
19 43 40
20 44 40
20 44 40
20 44 40
19 44 40
19 43 40
20 44 41
19 43 39
19 43 40
19 43 40
19 43 39
20 44 41
19 44 40
19 43 40
19 43 40
19 43 40
20 45 42
19 42 39
19 43 40
19 43 40
20 45 41
20 44 40
19 43 40
20 44 40
20 44 40
19 43 40
20 44 40
20 45 41
20 45 41
20 44 41
19 43 40
19 43 40
20 44 40
20 44 40
19 43 40
18 41 38
19 43 40
18 41 39
18 41 38
18 41 38
19 42 39
19 43 40
19 43 40
18 42 39
19 42 39
19 43 40
18 41 38
19 42 39
18 41 39
19 42 39
18 41 39
19 43 40
19 42 39
18 41 38
18 41 38
19 42 39
19 42 39
19 42 39
18 41 38
19 42 39
19 42 39
19 43 40
19 42 39
19 43 40
18 41 38
19 43 40
19 42 39
19 42 39
19 42 39
19 43 40
19 42 39
18 41 38
19 42 39
19 43 40
19 43 40
19 43 40
19 42 39
19 43 40
19 43 40
19 43 40
18 41 38
19 43 40
19 42 39
19 43 40
19 42 38
19 43 40
19 44 40
19 43 40
19 43 40
19 43 40
19 42 39
19 43 39
19 43 40
19 43 39
19 43 40
20 44 40
19 42 39
20 44 41
19 42 38
19 42 39
19 43 39
19 43 40
20 44 41
19 43 40
19 42 39
19 43 40
19 43 40
19 42 39
19 43 40
20 44 41
19 43 40
19 43 40
19 43 40
19 43 40
19 43 40
20 44 41
20 44 40
20 45 41
19 43 40
19 43 40
19 43 40
19 44 40
20 44 41
20 44 40
20 44 41
19 43 40
19 43 40
20 44 40
20 44 41
20 44 41
19 43 40
20 44 41
19 43 39
20 44 41
20 44 41
20 44 41
19 44 40
20 44 41
20 45 41
20 44 41
20 44 41
20 44 41
20 45 41
20 44 41
19 43 40
20 44 40
19 44 40
20 44 40
19 43 40
19 43 40
19 43 40
20 45 41
20 44 41
19 43 40
20 44 41
18 41 38
19 43 40
19 43 40
18 41 38
18 41 38
19 42 39
18 42 39
19 42 39
19 42 39
19 43 40
19 42 39
19 42 39
18 42 39
19 43 40
18 41 39
19 42 39
19 42 39
19 42 39
19 42 39
19 43 40
19 43 40
19 43 40
19 43 40
19 42 39
19 43 40
19 43 40
19 42 39
19 43 40
19 43 40
19 42 39
19 43 40
19 42 39
19 43 40
19 43 40
20 44 41
19 44 40
19 42 39
20 44 41
19 43 40
18 41 38
20 44 41
19 43 39
19 43 40
19 43 39
19 43 40
19 43 40
20 44 41
19 43 40
19 43 40
19 43 40
19 43 40
20 44 40
19 43 40
19 44 40
19 43 40
20 44 40
19 42 39
20 44 41
20 44 41
19 43 40
20 44 41
20 44 41
20 44 41
20 44 41
19 42 39
19 43 40
19 43 39
19 43 40
19 43 40
20 44 40
19 43 39
19 42 39
20 44 41
19 43 40
19 43 40
20 45 41
19 43 39
20 44 40
20 45 41
20 45 41
20 44 41
20 44 40
20 44 41
19 43 40
20 44 40
19 44 40
20 44 40
19 43 40
20 44 41
20 44 41
20 45 41
20 44 40
20 45 41
20 44 40
20 44 40
20 44 41
20 44 41
20 44 40
20 44 40
19 43 40
20 45 41
20 44 41
20 44 41
20 45 41
20 44 40
20 45 41
20 44 41
19 44 40
19 43 40
20 44 41
20 45 41
20 45 41
20 44 40
19 43 40
20 44 40
20 44 40
20 45 41
19 43 40
20 45 41
20 44 41
19 43 40
19 43 40
18 41 38
19 42 39
18 42 39
19 42 39
19 42 39
19 42 39
19 42 39
18 41 38
19 42 39
19 42 39
19 42 39
19 43 40
19 42 39
19 42 39
19 42 39
19 43 40
19 43 40
19 42 39
19 43 40
19 42 39
19 43 39
19 43 40
20 44 40
19 42 39
19 43 40
19 43 40
19 42 39
19 43 39
19 42 39
19 43 40
19 43 40
19 44 40
19 43 40
19 43 39
19 43 40
19 42 39
19 42 39
19 42 39
19 43 40
19 43 40
19 43 40
19 43 40
19 43 39
20 44 41
20 44 41
19 43 40
19 43 40
19 43 39
19 42 39
19 43 40
20 44 41
19 43 40
19 43 39
19 43 40
19 42 39
19 44 40
19 42 39
20 44 40
19 44 40
19 43 40
20 44 41
20 44 41
19 43 40
19 44 40
19 43 39
19 43 40
20 44 40
20 44 40
20 44 40
20 44 40
19 43 40
20 44 40
20 44 40
19 43 39
19 43 40
20 44 41
19 43 40
20 44 40
19 43 40
20 45 41
20 45 42
19 43 40
19 43 40
20 44 40
20 44 41
20 44 41
20 44 40
20 44 41
20 45 41
20 44 40
20 43 40
20 44 41
20 44 40
20 44 41
20 44 41
20 44 41
20 44 40
20 45 41
20 45 41
20 44 40
20 44 40
20 45 42
20 44 41
20 45 42
20 44 41
20 45 41
20 45 41
20 45 41
20 45 41
20 44 41
20 45 41
20 45 41
20 45 41
20 45 41
19 43 40
20 44 41
20 45 42
20 45 41
19 42 39
18 40 37
19 42 39
19 43 40
19 43 40
19 43 40
19 44 41
19 42 39
19 43 40
19 42 39
19 43 40
19 43 40
19 42 39
19 43 40
19 42 39
19 42 39
19 42 39
19 42 39
19 43 39
19 43 40
18 41 38
19 42 39
19 42 39
19 43 40
19 44 40
19 43 40
19 42 39
19 42 39
19 43 40
19 42 39
19 42 39
19 43 40
19 43 39
19 43 40
19 43 40
20 44 41
19 43 39
19 43 40
19 43 40
20 44 41
19 42 39
19 43 40
19 43 40
19 42 39
20 45 41
20 44 41
19 43 39
19 43 40
20 44 41
20 44 40
20 44 40
19 43 40
19 43 40
20 44 40
19 43 40
19 43 40
20 44 41
19 43 40
19 43 40
20 44 40
20 44 41
19 43 39
20 44 41
20 44 40
19 43 40
20 44 41
20 44 41
20 44 40
20 44 40
19 43 40
20 44 41
20 44 40
20 44 40
20 44 40
20 44 40
19 43 39
20 43 40
19 43 40
20 45 41
20 44 41
20 45 42
20 45 41
20 44 40
20 45 41
20 44 40
21 46 42
20 44 41
19 43 40
19 44 40
20 45 41
20 44 41
20 44 41
20 44 40
20 44 40
20 45 41
20 44 41
20 44 41
20 45 42
20 44 41
20 44 41
21 46 42
20 45 41
20 45 41
20 46 42
20 45 41
20 44 40
20 45 42
20 44 41
20 45 42
20 44 40
20 44 41
20 45 41
21 46 42
20 44 41
20 44 40
20 45 42
20 44 41
20 45 41
20 44 41
20 45 41
18 41 38
18 41 38
19 43 40
19 42 39
19 43 40
19 42 39
19 43 40
19 42 39
19 42 39
19 42 39
19 42 39
19 43 39
19 43 40
19 43 40
19 43 40
19 42 39
19 43 40
19 43 39
19 42 39
19 43 40
19 43 40
19 43 40
19 42 39
19 42 39
20 44 41
19 42 39
19 42 39
19 43 40
19 44 40
19 43 40
19 43 40
19 43 40
20 44 41
20 44 41
19 43 40
19 43 39
19 43 40
19 43 40
19 43 40
19 43 39
19 44 40
20 44 40
19 43 39
20 44 41
19 43 40
20 44 40
20 44 40
20 44 40
19 43 40
20 44 40
20 44 40
20 45 42
19 43 40
20 44 41
19 43 40
20 44 41
19 43 40
20 44 40
20 44 40
20 44 41
20 45 41
20 44 41
20 44 40
20 45 41
20 44 40
20 45 41
19 43 40
20 45 41
20 45 41
20 44 41
20 44 40
20 44 41
20 44 41
20 45 42
20 45 41
20 44 40
20 44 40
20 45 41
20 45 41
20 45 41
20 45 42
20 44 41
20 44 40
20 44 40
20 44 41
20 45 41
20 45 42
20 44 41
20 45 41
20 45 41
20 44 41
21 46 42
20 44 41
20 45 41
20 44 41
20 44 40
20 44 40
20 44 40
20 45 42
20 45 42
20 45 41
20 45 41
20 44 40
20 44 40
20 44 41
20 45 41
20 45 42
20 44 40
20 45 41
20 45 41
21 46 42
20 45 42
20 45 41
20 45 42
20 44 41
20 45 41
20 45 41
20 45 41
20 45 41
20 45 42
19 42 39
19 44 40
19 42 39
19 42 39
19 43 40
19 42 39
19 43 40
19 42 39
19 42 39
19 42 39
19 43 40
19 43 40
19 42 39
19 42 39
19 43 40
19 42 39
19 42 39
19 43 40
19 42 39
19 44 40
20 44 41
19 42 39
19 43 40
19 43 40
19 42 39
19 43 40
19 43 40
20 44 41
19 43 39
20 44 40
19 43 40
19 43 40
20 44 40
20 45 41
19 43 39
20 44 40
19 43 40
19 42 39
20 44 40
20 44 40
19 43 39
19 43 39
19 43 39
19 43 40
19 43 39
20 44 41
19 43 40
20 44 41
20 45 42
20 45 41
19 43 40
20 44 41
20 44 40
20 44 41
19 43 40
20 44 40
20 44 40
19 43 40
19 43 39
20 45 41
19 43 40
20 44 41
20 44 41
21 46 42
20 44 41
20 44 41
20 44 41
20 45 41
20 44 41
20 45 41
20 45 41
19 43 40
20 45 41
20 45 41
20 44 41
19 43 40
20 44 40
20 44 41
20 44 41
20 45 42
20 44 40
20 46 42
21 46 42
20 45 41
20 44 40
20 45 41
20 45 41
20 45 41
20 45 41
20 44 41
20 44 41
20 45 42
20 44 41
20 46 42
20 45 41
20 45 42
20 45 41
20 45 41
20 45 41
20 45 41
20 44 40
20 45 41
20 45 41
20 45 41
21 46 42
21 46 42
20 44 41
20 44 40
20 44 40
20 45 41
21 46 42
20 45 41
21 46 42
20 45 41
20 44 41
20 45 41
20 45 42
20 45 42
20 45 42
21 46 42
19 42 39
19 42 39
19 42 39
18 42 39
19 43 39
19 43 40
19 43 40
19 43 40
19 43 40
19 43 39
19 43 40
19 43 40
20 44 40
19 43 40
19 42 39
19 43 40
19 43 40
19 43 40
19 43 40
19 43 40
20 44 41
19 43 40
20 44 41
19 42 39
19 43 40
20 44 41
19 43 40
19 43 40
19 42 39
19 43 40
19 43 40
20 44 40
20 44 41
20 45 41
20 44 40
19 43 40
19 43 39
20 44 40
20 44 40
19 43 40
20 44 40
19 43 40
20 44 41
19 43 40
20 44 40
20 44 41
20 44 41
19 42 39
20 44 40
20 44 40
20 44 41
19 43 40
20 45 41
19 43 40
19 43 39
20 45 41
20 44 41
20 45 41
19 43 40
20 46 42
20 45 41
20 45 41
20 44 40
20 44 40
20 44 41
20 44 41
20 44 41
20 44 41
20 44 40
20 45 41
20 44 41
20 45 41
20 45 41
20 45 41
20 45 41
20 44 41
20 45 42
20 45 41
21 46 42
20 45 41
20 45 41
20 44 40
20 44 41
20 45 42
20 45 41
20 45 41
20 44 41
21 47 43
20 45 41
20 45 42
20 45 42
20 45 41
21 46 42
20 45 41
20 45 41
20 45 42
20 45 42
20 45 42
20 45 41
20 44 41
20 45 41
21 46 42
20 45 41
20 43 40
20 45 41
21 47 43
21 47 43
20 44 40
20 45 41
21 46 42
21 47 43
20 45 41
20 45 41
20 45 41
21 46 42
20 45 42
20 45 41
21 46 42
20 45 41
21 46 42
19 42 39
19 43 40
19 43 40
19 43 40
19 43 40
19 43 40
19 43 40
19 42 39
19 43 40
19 43 40
19 43 40
19 43 40
19 43 40
19 43 40
20 44 40
19 44 40
20 44 40
19 43 39
19 42 39
19 43 40
19 43 40
20 44 40
20 44 41
19 43 40
19 42 39
19 43 40
19 43 39
19 43 40
20 44 41
19 43 39
20 44 40
20 44 41
19 43 40
20 44 41
20 44 40
20 45 41
19 43 39
19 43 40
19 43 40
19 42 39
20 44 41
19 43 39
20 45 42
20 44 40
20 44 41
20 44 41
20 44 41
20 44 41
20 45 41
20 44 41
20 45 41
20 44 40
20 45 41
20 44 41
20 44 41
20 44 40
20 44 41
20 43 40
20 45 41
20 44 40
20 45 42
20 44 41
20 45 41
20 44 40
20 43 40
20 44 40
20 44 41
20 45 41
20 44 40
20 45 42
20 44 41
20 45 41
21 46 42
20 44 40
20 45 41
20 45 41
20 45 41
21 46 42
20 45 41
20 44 40
20 45 41
20 43 40
20 44 41
20 45 42
21 46 42
21 46 42
21 46 42
20 44 40
21 46 42
20 45 41
20 45 41
20 45 41
21 46 42
20 44 40
20 45 41
21 46 42
20 45 41
20 45 41
20 45 41
20 45 42
21 46 42
20 44 40
20 45 42
21 46 42
20 45 42
20 45 41
20 45 41
21 46 42
20 44 40
21 46 42
20 45 41
21 46 42
21 46 42
21 46 42
20 45 41
21 46 42
21 46 42
20 45 41
21 46 42
21 46 42
19 43 40
19 43 39
19 43 40
19 43 40
19 43 40
19 43 40
19 43 40
19 43 39
19 43 40
19 43 40
20 44 40
20 44 41
19 42 39
19 43 40
19 43 40
19 43 39
20 44 41
20 44 41
19 43 40
19 43 40
19 43 40
20 44 41
20 44 40
19 44 40
20 44 41
20 44 40
19 43 40
19 43 40
20 45 41
19 43 39
20 44 40
20 44 40
19 43 40
20 44 40
20 44 41
20 45 42
19 43 40
20 44 41
20 44 41
20 44 41
19 42 39
20 44 41
20 46 42
20 44 41
20 44 41
20 44 41
20 44 41
20 45 41
20 44 41
20 44 41
20 45 41
20 44 41
20 45 42
20 44 40
20 44 41
20 45 41
20 45 41
20 45 41
20 44 41
20 44 40
20 45 41
20 45 42
20 45 41
20 44 40
20 45 42
21 46 42
20 44 40
20 45 41
20 45 41
20 45 41
20 44 41
20 45 42
20 45 41
20 44 40
20 45 41
20 45 41
20 44 41
21 46 42
21 46 42
21 46 42
20 45 41
21 46 42
20 44 41
20 45 41
21 45 42
21 46 42
21 46 42
20 45 41
21 46 42
20 44 40
20 44 41
20 44 41
20 45 42
21 45 42
21 46 43
21 46 42
20 44 41
21 46 42
20 45 41
21 46 42
20 45 41
21 47 43
21 47 43
21 46 42
20 45 41
21 46 42
21 46 42
21 46 42
21 47 43
21 46 42
21 47 43
20 45 41
20 45 41
21 46 42
21 47 42
20 45 42
21 46 42
21 46 42
21 46 42
21 47 43
19 43 40
19 43 40
19 44 40
19 43 40
19 44 40
20 44 41
19 42 38
19 43 40
19 43 40
19 43 40
20 44 40
19 43 40
19 43 40
20 44 40
19 43 40
19 43 40
20 44 41
19 43 40
19 43 40
19 43 40
19 43 40
19 43 40
20 44 41
20 44 41
20 45 41
20 45 41
19 43 40
20 44 41
20 44 40
20 44 41
19 43 40
20 44 41
20 44 40
20 44 41
19 43 40
20 44 41
20 44 41
19 43 40
19 43 40
20 45 41
20 44 41
20 45 41
20 44 40
20 46 42
20 44 40
20 44 41
20 45 41
20 44 41
20 45 41
20 44 41
20 44 41
20 44 40
19 43 40
20 45 41
20 45 42
20 44 40
20 44 41
21 46 42
20 44 41
20 44 41
20 44 41
20 45 41
20 45 41
20 44 40
20 44 41
20 45 41
20 45 41
20 45 41
20 45 41
20 45 41
20 45 41
20 45 41
21 46 42
20 45 41
20 45 41
20 45 41
20 45 42
20 44 41
20 45 42
21 45 42
21 45 41
21 46 42
20 45 41
21 46 42
21 46 42
21 46 42
21 46 42
21 46 42
21 46 43
21 47 43
21 46 42
21 46 42
20 45 41
20 44 41
21 46 42
21 47 43
20 45 41
20 44 41
21 46 42
21 47 43
20 45 41
21 46 42
21 47 43
21 47 43
21 45 42
21 45 42
21 47 43
21 47 43
21 46 42
21 46 42
21 46 42
21 47 43
21 46 42
21 46 42
21 47 42
21 47 43
21 47 43
21 47 43
21 46 42
21 46 42
19 43 39
19 42 39
19 42 39
19 43 40
19 43 39
19 43 39
19 44 40
19 42 39
19 43 40
19 44 40
19 43 40
20 44 40
19 42 39
19 42 39
20 44 40
19 43 40
19 43 40
19 43 39
19 42 39
19 43 40
19 43 40
20 44 40
19 44 40
19 44 40
20 44 41
20 44 41
19 43 40
19 43 40
20 44 40
20 44 41
20 45 42
20 45 42
19 42 39
19 44 40
20 44 40
19 43 40
20 45 41
20 44 41
20 44 41
20 44 41
19 43 39
20 44 41
20 45 41
20 44 40
20 44 40
20 45 42
19 42 39
20 44 41
20 44 40
20 46 42
20 44 40
20 45 41
20 43 40
20 44 40
20 44 41
20 44 41
20 44 41
20 45 42
20 45 41
21 46 42
20 45 41
20 45 41
20 45 42
20 44 41
20 45 41
20 45 42
20 45 42
20 45 41
21 46 42
21 46 42
20 45 41
20 45 41
21 46 42
21 46 42
21 45 42
20 45 42
21 46 42
21 46 42
21 46 42
21 46 42
21 46 42
21 46 42
21 46 42
21 47 43
21 46 42
20 44 41
21 46 42
21 46 42
20 45 41
21 45 42
21 46 42
21 46 42
20 45 41
20 45 41
21 46 42
21 46 42
21 46 42
21 46 42
21 46 42
21 46 42
21 45 41
21 46 42
21 46 42
21 46 42
21 47 43
21 47 43
21 47 43
21 46 42
21 47 43
21 46 42
21 46 42
21 46 42
21 46 42
21 47 43
21 47 43
21 47 42
21 47 43
21 46 42
21 46 42
21 47 43
20 44 41
20 44 40
19 43 39
19 43 39
19 43 40
20 44 41
20 44 40
19 43 40
19 43 40
19 43 40
20 44 40
19 43 40
20 44 41
19 42 39
19 42 39
20 44 41
20 44 41
20 44 40
20 44 41
20 44 40
20 44 40
20 44 41
20 44 40
20 44 41
20 44 40
20 45 41
20 45 41
20 44 41
20 44 41
20 45 41
19 43 40
20 44 41
20 44 41
19 43 39
20 45 41
20 44 40
20 45 42
20 44 40
20 45 41
20 44 40
19 43 40
20 45 41
20 44 41
20 45 41
20 45 41
20 44 41
20 44 41
20 44 40
20 45 41
20 44 40
20 44 41
20 43 40
20 45 41
20 45 41
20 45 41
20 44 40
20 45 41
20 45 42
21 46 42
20 45 41
21 46 42
20 45 41
20 45 41
20 45 41
20 45 41
20 44 41
20 44 41
20 45 42
21 45 42
20 45 41
20 45 41
21 46 42
21 46 42
20 45 42
20 45 42
21 45 42
20 45 42
20 45 41
20 45 41
20 45 41
20 45 41
21 46 43
21 46 42
20 45 41
20 45 41
20 45 41
21 46 42
21 46 42
21 46 42
20 44 41
21 47 43
20 45 41
21 47 43
21 47 43
21 47 43
21 47 43
21 46 42
21 47 43
21 46 42
20 45 41
20 45 41
20 44 41
21 47 43
21 46 42
21 47 43
21 47 43
21 47 43
22 48 44
21 46 42
21 46 42
21 47 43
21 47 43
21 46 42
21 46 42
21 46 42
22 48 44
21 47 43
22 47 43
21 46 42
21 47 43
19 43 40
20 44 40
20 44 41
19 43 40
19 42 39
19 43 40
20 44 41
20 44 41
19 43 39
20 44 40
20 45 41
20 44 41
20 44 40
19 43 39
20 44 40
19 43 40
20 45 41
20 44 41
20 44 40
19 43 40
20 45 41
20 44 40
19 43 40
19 44 40
20 45 42
20 44 40
20 44 41
20 44 41
20 44 41
19 43 40
20 44 41
19 43 40
19 43 40
20 44 41
20 44 41
20 44 40
20 45 41
20 46 42
20 45 41
20 44 41
20 45 41
20 45 41
20 44 40
20 44 40
20 45 41
20 45 41
20 44 41
20 45 41
20 45 41
21 46 42
20 44 41
20 45 41
20 44 41
20 45 42
20 45 41
21 45 42
21 46 42
20 45 41
20 44 40
20 44 41
20 45 42
20 45 42
20 45 41
21 46 42
20 44 40
21 46 42
21 46 42
20 45 42
20 45 42
20 45 41
20 45 41
20 45 41
20 44 40
21 46 42
21 46 42
20 45 41
20 45 41
21 47 43
21 46 42
21 47 43
21 46 42
21 46 42
21 47 43
21 46 42
20 45 41
21 46 42
20 45 41
21 46 42
21 46 42
21 46 42
21 46 42
21 46 42
21 46 42
21 46 42
21 46 42
21 46 42
21 47 43
21 47 43
21 46 42
21 46 42
21 46 42
21 46 42
21 47 43
21 46 42
22 48 43
21 47 43
21 45 41
21 45 41
21 46 42
21 46 42
21 47 42
21 46 42
21 47 43
21 47 43
21 46 42
21 47 43
22 47 43
21 47 43
21 46 42
21 47 42
19 43 40
19 43 40
19 43 40
20 44 41
19 42 39
20 44 41
20 44 40
19 43 40
19 43 40
20 44 40
20 44 41
20 44 40
20 45 41
20 44 41
20 44 40
19 43 40
20 44 41
20 44 41
19 43 40
19 42 39
20 44 40
20 44 40
20 45 41
19 43 40
20 44 41
20 44 41
20 44 41
19 43 40
19 43 40
20 45 41
20 45 41
20 44 40
20 44 41
20 44 40
20 45 41
20 44 40
21 46 42
20 44 40
20 44 40
20 45 41
20 44 40
20 44 40
20 45 41
20 45 41
20 44 41
20 45 42
20 44 40
20 46 42
20 45 41
21 46 42
20 45 41
20 45 42
20 44 40
20 45 42
20 45 41
20 44 41
20 45 41
20 45 41
21 46 42
20 45 41
20 45 41
20 45 41
20 45 41
20 45 41
20 45 41
20 45 41
20 45 41
20 45 42
20 45 41
21 47 43
20 45 41
21 47 43
20 45 41
21 46 42
20 45 41
20 45 41
21 46 42
20 45 41
21 46 42
21 45 42
20 45 41
21 47 43
21 46 42
21 46 42
21 46 42
21 46 42
21 46 42
21 47 43
21 46 42
21 47 43
21 46 42
21 47 43
21 46 42
21 46 42
21 46 42
21 47 43
21 47 43
22 48 43
21 47 42
21 46 42
21 46 42
21 46 42
22 48 44
21 46 42
21 47 43
22 48 44
21 47 43
21 46 42
22 48 44
21 47 43
21 46 42
21 46 42
21 47 43
21 47 43
22 48 43
21 47 43
21 47 43
21 47 43
21 47 42
22 48 43
19 43 40
19 43 39
19 43 40
20 44 40
19 43 40
19 43 40
19 43 40
20 44 40
19 43 40
20 44 41
20 45 42
20 44 40
19 43 40
19 43 40
20 45 42
20 44 41
20 44 41
20 44 40
20 44 40
20 44 40
19 43 40
20 44 41
20 44 41
20 44 41
20 45 41
20 44 40
20 44 41
20 44 41
20 44 40
20 43 40
20 45 42
20 44 40
20 45 41
20 45 41
20 45 41
20 45 42
20 45 41
20 44 40
20 45 42
20 44 41
20 45 42
21 46 43
20 45 42
20 44 40
20 44 40
20 46 42
21 46 42
21 46 42
20 45 42
20 45 41
20 45 41
20 44 40
21 46 42
21 46 42
20 45 42
21 46 42
20 45 41
21 46 42
20 45 41
20 45 41
20 45 41
21 47 43
20 45 41
20 45 41
20 45 41
21 46 42
21 46 42
20 45 41
21 46 42
21 46 42
21 46 42
21 46 42
21 46 42
20 45 42
20 45 41
21 46 42
21 46 42
20 45 41
21 47 43
21 46 42
21 46 42
21 47 43
20 45 41
21 47 43
21 46 42
20 45 41
22 48 43
21 46 42
21 47 43
21 47 43
21 47 43
21 46 42
21 47 43
21 47 43
21 46 42
21 47 43
22 48 44
21 46 42
21 46 42
21 46 42
21 47 43
21 47 43
21 46 42
21 46 42
21 46 42
21 46 42
21 47 43
21 47 42
21 47 43
21 47 43
84 77 70
152 99 89
192 114 99
168 100 87
104 73 65
21 47 43
22 48 43
22 47 43
22 48 44
22 48 44
20 44 40
19 43 40
19 43 40
19 42 39
19 43 40
20 44 41
20 44 41
19 43 40
20 44 41
19 43 40
20 44 40
19 43 40
20 45 41
20 44 40
20 44 41
20 45 41
20 46 42
20 44 41
20 44 41
20 45 41
20 45 41
20 45 41
20 44 41
20 44 41
20 45 41
20 44 40
20 45 41
20 44 40
21 46 42
20 44 40
20 45 41
20 45 41
20 45 41
20 45 41
20 45 41
20 44 41
21 46 42
20 45 41
21 46 42
19 43 40
20 45 41
20 45 41
20 44 41
21 46 42
20 45 41
21 46 42
20 45 42
20 45 41
20 45 42
20 45 41
20 44 40
20 44 40
20 44 40
21 46 42
21 46 42
21 46 42
21 46 42
20 45 42
21 46 42
20 45 42
21 46 42
20 45 41
21 47 43
21 46 42
21 46 42
21 46 42
20 45 41
21 46 42
21 46 42
21 46 42
21 47 43
21 46 42
21 46 42
21 46 42
21 46 42
20 45 41
21 47 43
21 45 42
21 46 42
21 46 42
21 47 43
21 46 42
21 46 42
21 45 41
21 45 41
21 46 42
21 46 42
21 46 42
22 48 44
21 46 42
21 46 42
21 47 43
20 45 41
21 46 42
21 46 42
22 48 43
21 47 43
22 48 44
21 47 43
21 47 43
22 48 44
21 47 42
21 47 43
22 48 43
21 46 42
21 46 42
21 47 43
22 48 43
21 46 42
97 52 44
198 75 58
220 73 53
231 77 55
241 81 58
243 81 58
158 67 53
22 47 43
22 47 43
21 47 43
22 48 44
19 42 39
20 44 41
20 44 40
20 44 40
20 44 41
20 44 41
20 44 41
19 43 40
20 44 41
20 45 41
20 44 40
20 45 42
20 44 41
19 43 40
20 44 41
19 43 40
20 45 41
20 44 41
20 45 41
19 43 40
20 44 41
20 45 42
20 44 41
20 45 41
20 44 41
20 44 40
20 45 41
21 46 42
20 45 41
20 46 42
20 44 40
20 45 41
20 45 41
20 45 41
20 45 41
20 45 42
20 45 41
21 46 42
21 46 42
20 45 41
20 45 41
21 46 42
20 44 41
20 45 41
20 45 41
20 44 41
20 45 41
20 45 41
20 45 41
20 45 41
21 47 43
21 46 42
21 46 43
20 45 41
20 44 41
20 45 41
21 46 42
21 46 42
21 46 42
21 46 42
21 47 43
20 45 41
20 45 41
20 45 41
21 46 42
20 45 41
21 47 43
21 46 42
20 45 41
21 46 42
21 47 43
21 47 43
20 45 41
21 46 42
21 46 42
21 45 41
20 45 41
20 45 41
21 46 42
21 46 42
21 46 42
22 48 43
21 47 43
20 45 41
21 47 43
22 48 43
21 47 43
21 47 43
21 47 43
21 47 43
21 47 43
20 45 41
22 48 43
22 48 43
22 47 43
22 48 44
21 47 43
22 47 43
21 47 43
21 46 42
21 47 43
21 47 42
21 47 43
22 48 43
22 48 44
22 49 44
22 48 44
22 48 44
53 53 48
156 55 42
197 66 48
214 71 51
227 75 54
254 115 90
255 113 88
241 78 55
86 52 45
21 47 43
22 48 43
22 48 43
20 44 41
20 44 40
20 45 41
19 43 40
20 44 40
20 44 40
20 44 41
20 45 42
20 44 41
20 44 41
20 44 40
20 45 41
20 44 40
19 44 40
20 44 41
20 45 42
20 44 41
20 44 41
20 46 42
20 45 41
20 45 41
19 43 39
20 45 42
20 44 41
20 44 41
20 45 42
20 44 41
20 45 41
20 45 41
19 43 40
20 45 41
20 45 41
20 45 41
20 45 42
20 44 41
20 44 41
20 45 41
20 44 41
20 45 41
20 45 41
20 45 41
20 45 41
21 46 42
20 44 41
21 46 42
20 45 41
21 46 42
21 46 42
20 44 40
21 46 42
20 44 40
20 45 42
21 46 42
20 45 42
20 44 41
21 46 42
21 47 43
21 47 43
21 47 43
20 45 41
21 46 42
20 45 41
21 46 42
21 46 42
21 47 43
21 46 42
21 46 42
21 47 43
21 46 42
21 46 42
21 46 42
21 46 42
21 47 43
21 46 42
21 46 42
21 47 43
21 47 43
21 47 43
21 46 42
22 48 44
21 46 42
21 46 42
21 46 42
21 47 43
21 47 43
21 46 42
21 46 42
21 47 43
21 46 42
21 47 43
21 47 43
22 48 43
21 46 42
21 47 42
21 47 43
22 49 44
21 47 43
21 47 43
21 47 43
21 47 43
22 48 44
21 47 42
22 48 44
22 47 43
22 47 43
21 47 42
21 46 42
21 47 43
84 78 73
139 47 35
168 63 49
196 102 87
206 121 105
221 119 101
228 99 79
230 74 52
160 62 47
22 49 44
21 46 42
21 47 43
20 44 40
20 44 40
20 44 41
20 44 40
20 44 40
20 44 41
20 44 41
20 44 40
20 44 41
20 44 40
20 45 42
20 44 40
20 44 40
20 44 41
20 45 41
20 45 41
20 44 40
20 45 41
20 44 40
20 44 40
20 44 41
20 44 41
20 45 41
20 46 42
20 44 41
20 44 40
20 45 41
20 44 41
21 46 42
20 45 41
20 44 41
20 45 41
20 44 40
20 45 41
21 46 42
20 45 41
20 45 41
20 44 40
21 46 42
21 46 42
21 46 42
20 44 41
20 44 41
20 45 42
20 45 41
21 46 42
20 45 41
21 46 43
21 46 42
21 46 42
20 45 42
21 46 42
21 46 42
20 45 41
21 46 42
20 45 41
21 46 42
21 46 42
20 45 41
21 46 42
21 46 42
21 46 42
20 45 41
20 45 41
21 47 43
21 47 43
20 45 41
21 47 43
21 46 42
21 47 43
21 45 41
21 46 42
20 45 42
21 47 43
21 47 43
21 47 43
21 46 42
22 48 44
21 46 42
21 47 43
20 45 41
21 47 43
21 47 43
21 47 43
21 46 42
20 45 41
22 47 43
21 47 43
21 46 42
21 47 43
21 46 42
22 48 44
21 46 42
21 47 42
21 47 43
21 47 43
21 47 43
21 47 43
22 48 43
22 48 44
21 47 42
21 46 42
21 47 43
22 48 44
22 48 44
22 47 43
22 48 44
21 47 43
70 65 59
127 62 52
134 112 103
152 136 124
170 150 135
186 163 145
196 168 149
195 128 110
153 64 51
64 71 64
22 48 44
22 48 43
19 43 40
20 44 41
19 44 40
19 43 40
20 44 41
20 44 40
20 44 40
19 43 40
19 43 40
19 43 40
20 44 41
20 44 41
20 44 40
20 45 41
20 44 40
20 45 42
20 45 41
20 44 40
20 45 41
20 45 41
20 45 41
20 44 41
20 44 41
20 45 41
20 44 40
20 45 41
20 45 42
20 44 40
20 45 41
20 44 41
20 44 41
20 44 40
20 44 41
20 45 41
20 44 40
20 45 41
20 45 42
20 45 41
21 46 42
21 46 42
20 44 41
20 44 40
20 45 41
21 46 42
20 44 41
20 45 41
21 46 42
20 45 41
21 46 42
20 45 41
20 45 41
21 46 42
20 45 41
20 45 41
20 45 41
21 46 42
21 47 43
21 46 42
21 47 43
21 46 42
20 45 41
21 47 43
21 47 43
21 46 43
21 46 42
21 46 42
20 45 41
21 45 42
21 46 42
21 47 43
21 46 42
21 47 43
21 46 42
21 46 42
21 47 43
20 45 41
21 47 43
21 47 43
21 47 42
21 47 43
21 46 42
21 46 42
22 48 43
21 46 42
21 47 43
21 47 43
21 47 43
21 47 43
21 46 42
21 46 42
21 46 42
21 47 43
21 47 43
21 46 42
21 47 43
22 48 44
21 47 43
21 47 43
22 48 44
22 48 44
21 47 43
21 47 43
22 48 43
21 47 43
21 46 42
21 47 43
22 48 43
22 48 43
56 56 51
102 90 82
102 95 86
101 93 85
122 108 95
136 120 105
168 149 133
209 187 172
225 200 184
234 209 191
222 198 180
128 119 108
20 44 41
20 44 41
20 45 42
20 44 41
19 43 40
20 44 41
20 44 41
20 44 41
20 45 41
20 45 41
20 44 41
20 45 41
20 45 42
20 44 41
20 45 41
20 44 41
20 45 41
20 44 41
20 44 40
20 44 41
20 44 40
20 45 41
20 44 41
20 45 42
20 44 40
21 46 42
20 45 41
20 45 41
20 45 41
20 44 41
20 45 41
20 44 41
20 44 40
20 45 41
20 45 41
20 44 41
21 46 42
20 45 41
20 45 42
20 45 41
20 45 41
20 45 41
20 44 41
21 46 42
21 46 42
20 45 41
20 45 41
21 46 42
21 46 42
20 45 41
21 46 42
20 45 41
21 45 42
21 46 42
21 46 42
21 46 42
21 47 43
21 46 42
21 47 43
21 46 42
21 47 43
21 47 43
21 47 43
20 45 41
21 46 42
21 46 42
21 46 42
21 46 42
21 47 43
21 46 42
21 46 42
22 48 44
21 47 43
21 46 42
21 46 42
21 47 43
21 47 43
21 47 43
21 47 43
21 47 43
21 46 42
21 47 43
22 47 43
21 46 42
21 47 43
21 47 43
22 48 44
21 46 42
21 46 42
21 46 42
22 48 43
22 48 43
21 47 43
22 48 43
21 47 43
22 48 43
22 48 44
21 47 42
21 47 43
22 48 44
22 48 44
21 47 43
21 46 42
21 46 41
21 45 41
20 45 41
20 43 40
19 43 39
19 43 39
49 50 44
55 55 48
58 58 50
57 55 46
131 121 112
193 177 166
208 189 176
220 198 183
233 208 191
249 222 201
244 216 195
20 44 41
20 44 40
20 44 41
20 46 42
20 44 40
20 44 40
20 44 40
20 45 42
20 45 42
21 46 42
20 45 42
20 44 41
20 44 40
20 44 40
19 43 40
20 45 42
20 45 41
20 44 40
20 45 41
20 44 40
20 45 41
20 44 41
20 44 40
20 45 41
20 45 41
20 44 41
20 45 41
20 45 41
20 44 41
20 44 41
20 45 42
20 44 40
20 45 41
20 45 41
20 45 41
20 45 41
20 44 41
20 45 41
21 46 42
20 45 41
21 46 42
20 45 41
20 45 41
20 45 41
20 45 41
21 46 42
20 45 41
20 45 41
20 45 41
20 45 42
21 46 42
21 47 43
21 46 42
21 46 42
21 45 42
21 46 42
21 46 42
21 46 42
20 45 41
21 47 43
21 46 42
21 46 42
21 46 42
21 47 43
21 46 42
20 45 41
21 46 42
21 46 42
21 46 42
20 44 41
21 46 42
21 47 43
21 47 43
21 46 42
21 47 43
21 47 43
21 47 43
21 46 42
21 46 42
21 47 43
21 46 41
21 46 42
22 48 43
21 46 42
21 46 42
21 46 42
21 47 42
21 47 43
22 48 44
21 46 42
21 47 43
22 48 44
22 48 43
21 47 43
22 47 43
21 47 43
21 47 43
21 47 43
21 47 43
22 49 44
22 48 44
22 48 44
22 48 44
21 46 41
20 43 40
17 38 36
14 33 32
14 32 31
13 29 28
11 25 24
13 22 18
25 31 23
40 37 37
81 65 85
113 96 108
135 115 124
166 144 145
169 146 147
214 188 178
190 163 159
20 44 40
20 44 41
20 45 41
20 46 42
20 44 40
20 44 41
20 44 41
20 44 40
20 44 40
20 45 41
20 44 41
19 43 40
20 44 41
20 44 41
20 45 42
20 45 41
20 45 41
20 44 40
20 45 41
20 44 41
20 45 41
20 45 42
20 44 41
20 44 40
20 45 41
20 44 40
20 44 41
20 44 41
20 45 41
20 45 42
20 44 41
21 46 42
21 47 43
20 45 41
21 46 42
20 44 40
20 45 42
20 44 41
20 45 41
20 45 41
21 46 42
20 45 41
20 44 41
21 46 42
20 45 41
20 45 41
20 45 41
21 47 43
21 47 43
21 46 42
20 45 42
21 46 42
20 45 41
20 45 41
21 46 42
21 46 42
20 45 41
21 46 42
21 46 42
21 45 42
21 46 42
21 47 43
21 46 42
21 46 42
21 46 42
21 45 42
21 46 42
21 46 42
21 45 41
21 47 43
21 47 43
21 46 42
21 46 42
22 48 43
21 47 43
21 47 42
21 47 43
21 47 43
21 46 42
21 47 43
21 47 43
22 48 44
21 46 42
21 46 42
21 47 42
21 47 42
21 47 43
21 46 42
21 47 43
22 47 43
21 46 42
22 48 44
21 47 43
22 48 43
21 46 42
21 46 42
22 48 44
21 47 42
21 47 43
21 47 43
21 47 43
21 47 43
21 46 42
22 48 43
21 46 42
21 46 41
20 44 40
19 41 38
16 36 33
15 33 31
13 29 26
11 24 22
36 31 43
59 41 68
68 47 78
75 51 84
81 54 89
86 57 92
91 60 96
93 61 96
19 43 40
20 44 40
20 45 42
20 44 40
20 44 40
19 43 40
20 45 41
20 44 41
20 44 41
20 45 41
20 45 42
20 45 41
20 45 41
20 45 42
20 45 41
21 46 42
21 46 42
20 44 41
20 45 41
20 45 41
20 44 41
20 44 41
20 45 41
21 47 43
20 45 41
20 45 41
21 46 43
21 46 43
20 45 41
21 46 43
20 45 41
20 45 41
21 46 42
20 45 41
20 45 41
21 47 43
20 45 42
21 46 42
20 45 41
21 46 42
21 47 43
20 45 41
21 46 42
20 44 41
21 47 43
21 46 42
21 46 42
21 46 42
21 46 42
21 45 42
21 46 42
21 46 42
21 46 42
21 46 42
21 47 43
21 47 43
21 46 43
20 45 41
21 46 42
21 47 43
21 47 43
21 46 42
21 47 43
21 46 42
21 47 43
21 46 42
21 47 42
21 47 43
21 46 42
21 47 42
21 47 43
20 45 41
21 47 43
21 46 42
21 46 42
21 47 43
21 47 43
21 47 43
22 48 43
22 48 44
21 46 42
21 47 43
21 46 42
22 48 43
22 48 43
21 47 43
21 46 41
21 47 43
22 48 43
21 47 43
22 48 44
22 48 43
22 48 44
22 48 44
22 47 43
22 48 43
22 47 43
22 48 44
21 47 43
22 48 44
22 47 43
22 48 43
21 47 43
22 48 43
21 47 42
22 47 43
21 46 41
22 47 43
21 47 42
21 46 41
21 45 41
21 46 41
39 41 50
50 34 57
56 38 63
61 42 69
69 46 75
73 48 78
79 52 83
82 53 85
20 45 42
20 44 40
20 45 41
20 45 41
19 43 40
20 44 41
20 45 41
20 44 41
20 44 40
20 45 41
20 45 41
20 45 41
20 44 41
20 45 41
20 45 41
20 44 41
20 44 40
20 45 42
20 44 41
20 45 41
20 44 41
20 44 41
20 45 41
20 45 41
20 45 41
20 44 41
20 44 40
20 45 42
20 45 41
20 45 41
21 46 42
20 45 41
21 46 42
20 44 41
20 45 41
21 46 42
21 46 42
20 45 41
21 46 42
21 46 42
21 46 42
21 46 42
21 46 42
21 46 42
20 45 42
20 45 41
21 46 42
21 46 42
21 46 42
21 46 42
21 47 42
20 45 41
20 45 41
21 46 42
21 46 42
21 46 42
21 46 42
21 46 42
21 47 43
21 46 42
21 47 43
21 46 42
21 45 41
21 46 42
21 46 42
21 46 42
20 45 41
21 46 42
21 46 42
21 47 43
21 47 43
21 47 43
21 46 42
22 48 44
21 46 42
22 47 43
22 48 44
21 46 42
21 47 43
21 46 42
21 47 43
21 47 43
22 48 44
21 47 43
21 46 42
21 47 43
22 48 43
22 48 44
22 48 44
21 47 43
21 47 43
22 48 44
22 48 43
21 47 42
22 48 44
22 47 43
22 48 43
22 48 44
21 47 43
22 47 43
21 47 43
21 47 43
22 49 45
22 48 43
22 48 43
21 47 43
21 47 42
21 47 43
22 47 43
21 46 42
22 48 43
22 47 43
30 43 45
44 30 49
48 33 54
44 31 50
51 35 57
56 38 61
60 40 64
62 40 63
20 44 41
20 44 40
20 44 40
20 44 41
20 46 42
20 45 41
20 44 41
20 45 41
19 43 40
20 44 41
20 45 41
20 44 41
19 43 40
20 45 41
20 45 41
21 46 42
21 46 42
20 45 41
20 45 41
20 44 40
21 46 42
20 45 41
20 44 41
20 45 41
20 45 41
21 46 42
21 46 42
21 46 42
20 45 41
20 44 41
20 45 41
21 46 42
20 44 41
21 47 43
20 45 41
20 45 41
20 45 41
20 44 40
20 45 41
21 46 43
20 45 41
20 45 41
21 46 42
21 46 42
21 47 43
21 46 42
21 46 42
21 46 42
20 45 41
21 46 42
20 45 41
21 46 42
21 47 43
21 46 42
21 46 42
21 47 43
21 47 43
21 47 43
21 47 43
21 46 42
21 46 42
21 46 42
21 47 42
22 48 44
20 45 41
21 45 41
21 47 43
21 46 42
21 47 43
22 48 44
21 47 43
21 46 42
21 47 43
21 47 43
21 46 42
22 48 43
21 47 43
21 47 43
21 47 43
21 47 43
21 47 43
21 47 42
22 48 44
22 47 43
22 48 44
22 48 44
21 47 43
22 48 44
22 47 43
21 46 42
21 47 43
21 47 43
21 47 43
21 46 42
22 48 44
22 49 44
21 46 42
22 48 43
22 48 43
21 47 42
22 48 44
22 47 43
22 47 43
21 46 42
21 46 42
22 48 43
21 46 42
21 47 43
21 46 42
21 46 42
20 44 40
21 45 41
20 43 40
46 45 45
40 36 40
34 30 36
39 33 41
37 29 40
34 27 34
52 40 48
20 44 41
20 44 40
20 46 42
20 45 41
20 44 41
20 45 41
20 45 41
20 44 41
20 45 41
21 46 42
20 45 41
20 44 40
20 43 40
21 46 43
20 45 42
20 44 40
20 44 41
20 45 41
20 45 41
20 45 41
21 46 42
20 45 41
20 44 41
20 45 42
21 46 43
20 45 41
20 45 41
20 45 41
21 46 42
20 45 42
21 46 42
21 46 42
20 45 41
21 46 42
21 46 42
21 46 42
20 45 42
21 47 43
20 45 41
21 45 42
21 46 42
21 47 43
20 45 41
21 46 42
21 45 41
21 47 43
20 45 41
21 45 42
21 46 42
21 47 43
21 46 42
21 45 42
21 46 43
20 45 41
21 47 43
21 46 42
21 47 43
21 46 42
21 46 42
21 46 42
21 47 43
21 46 42
21 46 42
21 46 42
22 48 44
21 46 42
21 47 43
21 47 43
21 46 42
21 45 42
21 46 42
21 46 42
21 47 43
21 47 43
21 47 43
21 46 42
21 47 43
21 46 42
21 46 42
22 48 44
22 47 43
21 47 43
21 47 42
22 48 44
21 47 42
21 47 43
22 48 43
22 48 43
22 48 44
22 48 44
22 49 44
22 48 44
21 47 43
22 49 44
21 46 42
21 47 43
22 48 43
21 47 43
21 46 42
22 48 43
21 47 43
21 47 42
22 48 44
22 48 44
22 47 43
22 47 43
21 45 41
20 45 41
19 42 39
17 37 35
15 34 32
13 31 30
13 30 29
22 31 29
13 24 19
23 31 24
32 37 29
37 40 30
41 42 31
44 48 39
20 44 40
20 44 41
20 45 41
20 45 42
20 44 40
20 45 41
20 45 41
20 45 41
21 46 42
20 44 40
20 44 41
20 44 41
20 44 41
20 44 41
20 44 41
21 46 43
20 45 41
20 45 41
21 46 42
20 45 41
20 46 42
20 45 42
20 44 41
20 45 41
20 44 40
20 45 41
21 46 42
20 45 41
21 46 42
20 45 41
21 45 42
21 45 42
20 45 41
20 45 41
20 45 41
21 46 42
20 45 42
20 45 41
20 45 41
21 47 43
20 45 41
20 45 41
20 45 41
21 46 42
21 45 42
21 46 42
20 45 41
21 46 42
21 46 42
21 45 42
21 47 43
21 46 42
21 47 43
21 47 43
21 45 42
21 47 43
21 46 42
21 47 43
21 46 42
21 47 43
21 45 41
21 46 42
21 47 43
21 46 42
21 46 42
21 46 42
21 47 43
21 47 43
21 47 43
21 46 42
21 46 42
21 47 43
21 46 42
21 47 43
21 47 43
21 47 43
21 47 43
21 47 43
22 48 43
22 48 44
21 47 43
22 48 44
22 48 43
22 48 44
21 47 42
22 48 44
21 47 43
21 47 42
21 47 43
21 47 43
22 48 43
21 47 43
22 47 43
21 46 42
22 47 43
21 47 43
22 49 44
21 47 43
22 48 43
22 48 43
22 48 43
22 48 44
21 46 42
22 47 43
22 48 44
22 48 43
22 48 43
22 48 43
21 46 41
19 41 38
16 36 34
14 32 31
13 31 29
11 24 23
9 21 19
9 18 16
13 18 14
18 22 18
23 28 22
18 39 34
20 45 41
20 44 41
20 44 41
20 44 41
21 46 42
20 44 41
20 45 42
20 45 41
20 44 40
20 44 41
20 45 41
20 44 41
20 44 41
21 46 42
21 46 43
21 47 43
20 45 41
20 44 41
20 45 41
20 44 41
20 45 42
20 44 41
21 46 42
21 46 42
20 45 41
20 45 41
21 46 42
21 46 42
20 45 41
21 46 42
21 46 42
20 45 42
20 45 42
20 45 41
20 45 42
20 45 41
21 46 42
20 45 41
21 46 42
20 45 41
21 46 42
20 45 41
22 48 44
21 46 42
21 45 42
21 46 42
20 45 41
21 46 42
20 45 41
20 45 41
21 47 43
21 46 42
21 46 42
21 47 43
21 46 42
21 47 43
21 46 42
21 46 42
20 45 41
22 48 43
21 46 43
21 47 43
22 47 43
21 46 42
21 46 42
21 46 42
21 47 43
21 47 43
21 47 43
21 47 43
21 46 42
21 46 42
21 47 43
21 47 43
22 48 43
21 46 42
22 47 43
22 48 43
21 47 43
22 48 43
21 47 43
21 46 42
21 47 43
21 47 43
22 48 44
22 48 44
21 47 42
21 47 43
22 48 44
21 47 43
21 47 43
22 48 44
22 48 44
22 48 44
22 47 43
21 47 42
21 47 43
21 47 42
22 47 43
21 47 42
22 48 44
22 47 43
21 47 43
22 48 43
22 48 43
22 48 43
22 48 43
21 47 42
21 46 42
21 47 43
21 45 41
21 45 41
20 44 40
19 43 39
19 41 37
17 38 34
18 39 35
20 43 38
20 43 38
20 44 39
20 45 41
20 44 41
20 45 42
20 45 41
20 45 42
20 45 42
20 46 42
20 44 41
21 46 42
20 45 41
20 44 40
20 45 42
20 45 41
20 45 42
20 45 41
20 45 42
19 43 40
20 44 40
20 45 41
20 44 41
20 45 42
20 45 41
20 46 42
20 45 41
21 46 42
21 46 42
20 45 41
20 45 41
21 45 42
20 45 41
20 45 41
21 46 42
21 46 42
21 46 42
21 47 43
20 45 41
21 46 42
20 45 41
21 46 42
20 45 41
20 45 41
20 45 41
21 46 42
21 45 42
21 46 42
21 46 42
21 46 42
20 45 41
21 46 42
21 46 42
21 47 43
21 47 43
21 46 42
21 46 42
20 45 41
21 46 42
21 47 42
21 47 43
21 46 42
21 46 42
21 46 42
21 47 43
22 48 44
22 48 43
21 45 42
21 46 42
21 47 42
21 47 43
21 47 43
21 46 42
20 45 41
21 47 43
21 47 43
22 48 44
21 47 43
22 48 44
21 47 43
21 46 42
21 46 42
21 47 43
21 46 42
21 46 42
22 48 43
21 47 42
22 48 44
21 47 42
21 47 42
22 48 43
21 47 43
22 48 43
22 48 44
22 48 43
22 49 44
21 47 42
22 47 43
22 48 44
22 48 43
21 47 43
22 48 43
22 48 43
21 47 42
21 47 43
21 47 43
22 47 43
22 48 43
21 47 43
22 48 43
22 47 43
21 47 42
22 48 43
21 46 42
22 48 44
22 48 43
21 47 42
22 47 43
21 46 42
21 46 42
22 47 42
21 47 42
21 46 42
20 44 41
20 45 41
20 45 41
20 44 40
20 44 40
20 44 41
20 44 40
20 45 41
20 45 42
20 45 41
20 45 41
21 46 42
20 44 41
20 45 41
20 45 42
20 45 41
21 47 43
20 45 41
20 45 41
21 46 42
20 45 41
20 45 41
21 46 42
20 45 42
20 44 41
20 45 41
20 45 41
20 45 41
20 45 42
20 45 41
20 45 41
21 46 42
21 46 42
20 45 42
20 45 41
21 46 42
21 47 43
21 46 42
21 46 42
21 46 42
21 46 42
21 45 42
21 46 42
21 47 43
21 46 42
21 46 42
21 46 42
21 46 42
21 46 42
21 46 42
21 46 42
21 47 43
21 46 42
21 47 43
21 47 43
21 46 42
21 46 42
20 44 41
21 46 42
21 46 42
21 47 43
21 46 42
21 46 42
21 46 42
22 48 44
21 47 43
21 47 42
22 48 43
21 46 42
21 46 42
21 47 42
21 46 42
21 47 43
21 46 42
21 47 43
22 49 45
21 47 43
21 46 42
21 46 42
21 47 43
22 48 44
21 46 42
22 48 43
22 48 44
22 47 43
21 47 43
21 47 43
22 48 44
21 47 43
22 48 43
22 48 44
22 48 44
22 49 44
21 47 43
22 48 44
21 47 43
21 47 42
22 47 43
22 48 44
22 48 44
22 48 43
21 47 43
22 48 43
22 49 45
21 47 43
23 49 45
22 48 43
22 48 44
22 48 44
22 47 43
22 47 43
21 47 42
22 48 44
21 47 42
22 47 43
21 47 43
22 48 44
22 48 44
22 47 43
22 48 44
20 45 42
20 45 41
20 44 41
20 45 41
20 44 41
20 45 41
20 45 41
21 46 42
20 45 41
21 46 42
20 44 40
20 45 41
20 44 41
20 44 41
20 45 41
20 44 41
20 45 41
21 46 42
20 45 42
21 46 42
20 45 41
21 46 42
20 45 42
20 45 41
20 44 41
20 44 41
20 45 41
21 47 43
21 46 42
21 46 42
21 46 42
20 45 41
21 46 42
21 46 42
20 45 41
20 45 41
21 46 42
21 46 42
21 46 42
20 45 41
21 47 43
21 46 42
21 46 42
21 47 43
21 46 42
20 45 41
21 47 43
21 46 42
21 46 42
21 46 42
21 46 42
21 47 43
21 46 42
21 47 43
21 47 43
21 46 42
21 47 43
21 47 42
21 47 43
21 47 43
21 46 42
21 46 42
21 47 43
22 48 44
21 47 43
22 48 44
22 48 43
21 46 42
21 46 42
21 46 42
22 48 43
21 46 42
21 46 42
21 47 43
22 48 44
21 47 43
21 47 43
22 47 43
21 47 43
21 46 41
22 48 44
21 47 43
21 47 42
21 47 43
21 47 43
22 48 44
21 47 42
22 49 45
21 47 43
22 48 43
21 46 42
22 47 43
22 47 43
21 47 43
21 47 42
22 48 43
22 48 43
21 47 43
21 47 43
22 48 44
22 48 43
22 48 44
22 48 44
22 48 44
22 47 43
22 47 43
22 48 43
22 47 43
22 47 43
22 47 43
22 48 43
22 48 44
22 48 43
22 49 44
22 48 43
22 48 43
22 48 44
22 49 45
22 49 44
22 48 43
21 46 42
20 45 41
20 45 41
20 45 41
20 45 41
20 45 41
20 44 41
20 44 41
20 45 41
20 44 41
20 44 40
20 45 42
21 46 42
21 46 42
20 45 42
20 45 42
20 45 41
20 45 42
20 45 42
21 45 42
21 46 42
19 43 40
20 45 41
20 45 42
20 45 41
20 44 40
21 46 42
20 45 42
21 46 42
20 45 42
20 45 41
20 45 41
20 45 41
21 46 42
21 46 42
21 46 42
20 44 41
21 46 42
20 45 41
21 46 42
21 46 42
20 45 41
21 46 42
21 46 42
20 45 41
21 47 43
21 47 43
21 46 42
21 47 43
22 47 43
21 46 42
21 46 42
21 46 42
21 47 43
21 47 43
21 46 42
21 46 42
22 48 43
20 45 41
21 46 42
21 46 42
21 46 42
21 46 42
22 47 43
21 46 42
21 46 42
21 47 43
21 46 42
21 47 42
21 47 43
21 47 43
22 48 43
21 47 43
21 46 42
21 47 43
22 48 44
22 48 44
21 47 43
22 47 43
21 46 42
21 47 43
22 48 44
21 46 42
22 48 43
22 48 43
21 46 42
22 49 45
21 47 43
21 47 43
22 48 43
22 49 44
22 47 43
22 49 44
22 48 44
21 47 42
22 47 43
22 48 44
22 49 44
21 47 43
21 47 43
22 49 44
22 48 43
22 48 44
22 48 44
21 47 43
22 47 43
22 49 44
22 47 43
22 48 43
22 47 43
22 48 44
22 47 43
22 47 43
22 49 44
22 48 43
21 47 43
22 49 44
22 48 43
21 46 42
22 48 43
20 44 40
20 43 40
20 45 41
20 44 40
20 45 41
20 45 42
20 45 42
20 45 41
21 46 42
20 45 41
20 44 41
20 45 41
20 44 41
20 44 41
20 45 42
20 43 40
20 45 42
20 44 41
20 44 41
20 45 41
20 44 41
20 44 41
21 47 43
20 45 42
20 45 41
20 45 41
21 46 42
20 45 41
20 45 41
21 46 42
21 46 42
21 46 42
21 46 42
21 46 42
21 46 42
20 45 41
20 45 41
20 45 41
21 47 43
20 45 41
21 46 42
21 46 42
21 46 42
21 45 42
21 46 42
21 46 42
21 47 43
21 46 42
21 47 43
21 46 42
21 46 42
21 46 42
21 46 42
21 47 43
21 46 42
21 47 43
21 46 42
21 47 43
21 47 43
21 47 42
21 45 41
21 45 41
21 47 43
21 46 43
21 47 42
21 47 43
21 46 42
21 47 43
21 47 43
21 47 42
22 48 43
22 48 44
21 47 43
21 47 43
21 47 43
21 47 42
21 46 42
21 46 42
21 47 43
21 46 42
21 47 43
21 46 41
21 46 42
21 47 43
21 47 43
21 47 43
22 47 43
21 47 43
21 47 43
21 47 43
22 48 44
22 48 44
21 47 43
22 47 43
21 46 42
22 48 44
22 48 43
22 48 44
22 47 43
22 48 43
22 48 43
22 48 43
22 48 44
22 48 44
22 48 43
22 48 43
22 48 44
21 46 42
22 48 43
22 48 43
22 48 43
22 49 44
22 48 43
22 48 43
22 49 44
22 48 44
21 47 43
22 48 44
22 48 43
23 50 45
20 45 42
20 45 41
21 46 42
20 45 41
20 44 41
20 45 41
20 45 41
20 44 40
20 44 41
20 45 41
20 44 41
20 45 41
20 45 41
20 45 41
20 44 41
20 44 41
21 46 42
20 45 42
20 44 40
20 45 42
20 45 41
20 45 41
20 45 41
20 45 41
21 46 42
21 45 42
20 45 41
21 46 42
20 44 40
21 46 42
21 46 42
21 46 42
20 45 42
20 45 41
21 46 42
20 45 41
21 47 43
20 45 41
21 46 42
21 46 42
20 45 41
20 45 41
21 46 42
21 46 42
21 46 42
21 46 42
21 46 42
21 47 43
21 46 42
20 45 41
21 46 42
21 47 43
21 46 42
20 45 41
21 47 43
20 45 41
21 46 42
22 48 44
21 47 43
21 47 43
21 46 42
21 46 42
21 47 43
21 47 43
21 46 42
21 47 43
21 47 43
21 45 41
21 47 43
21 46 42
21 47 43
21 46 42
22 48 44
22 48 44
22 48 43
21 47 43
21 47 43
22 48 43
21 46 42
22 48 44
21 47 43
21 46 42
22 47 43
22 47 43
22 47 43
21 47 43
21 46 42
22 48 43
22 48 43
22 48 44
22 47 43
22 47 43
22 49 44
22 48 43
21 47 43
22 49 44
22 48 43
22 48 43
21 46 42
22 48 43
22 48 43
22 47 43
21 47 42
22 49 45
22 48 43
22 49 44
22 49 44
22 48 44
22 49 44
22 49 44
22 48 44
22 48 44
22 48 44
22 48 44
22 47 43
22 47 43
22 48 44
22 48 43
22 47 43
22 47 43
20 45 41
20 45 42
20 44 40
20 44 40
20 44 41
20 45 41
20 45 41
20 45 41
20 45 42
20 45 41
20 45 41
20 44 40
20 45 41
21 46 42
20 44 40
20 45 41
20 44 40
20 45 41
21 46 42
20 45 41
20 44 41
21 46 42
20 45 41
20 45 41
20 45 41
21 46 42
21 46 42
20 45 41
21 46 42
20 44 40
21 46 42
21 46 42
21 46 42
20 45 41
20 44 41
20 45 41
20 45 42
21 46 42
20 45 41
20 45 41
21 46 42
20 45 41
21 46 42
22 48 44
20 45 41
20 45 41
21 46 42
20 45 41
21 46 42
21 46 42
21 46 42
20 45 41
20 45 41
21 46 42
21 46 42
20 45 41
21 47 42
21 46 42
21 46 42
21 47 43
21 47 43
21 46 42
21 45 41
21 47 43
21 47 43
21 46 42
21 46 42
21 47 43
21 46 42
22 48 44
22 48 44
21 47 43
21 47 43
21 47 43
21 46 42
21 46 42
21 45 41
22 49 44
21 47 43
21 47 43
21 46 42
21 46 42
21 47 43
21 46 42
21 47 43
21 47 43
21 47 43
22 48 44
21 46 42
22 49 44
22 48 43
22 49 44
22 48 43
22 48 44
22 48 44
22 47 43
22 47 43
22 48 44
21 47 42
22 49 44
22 49 44
21 47 43
22 48 43
22 49 44
21 47 43
22 48 43
22 48 44
21 47 43
22 48 44
22 48 43
22 48 44
22 48 43
22 48 43
22 48 44
22 49 44
22 49 44
22 48 44
22 49 44
22 48 44
22 49 44
20 45 42
20 44 40
20 44 41
21 46 42
21 46 42
20 44 41
20 45 41
20 45 42
20 44 41
20 45 41
20 45 42
20 45 41
21 46 42
21 46 42
20 45 41
21 46 42
20 45 41
20 44 41
20 45 42
20 45 41
20 46 42
21 47 43
20 45 41
20 45 42
21 46 42
21 46 42
20 45 42
21 46 43
21 46 42
21 46 42
21 46 42
20 45 41
20 45 42
20 45 42
20 45 41
20 45 41
20 44 40
21 46 42
20 45 41
21 46 42
21 46 42
20 45 41
21 46 42
21 46 42
21 47 43
20 45 41
21 46 42
20 45 41
20 45 41
20 45 41
21 46 42
21 46 42
20 45 41
21 46 42
21 47 43
21 46 42
21 46 42
21 47 43
21 47 43
21 46 42
21 46 42
21 45 41
22 48 43
21 47 43
21 47 43
21 47 43
21 46 42
21 46 42
21 46 42
22 48 44
22 47 43
21 46 42
21 47 43
21 47 43
21 46 42
21 47 43
21 47 43
21 46 42
21 46 42
21 47 43
21 47 42
21 47 43
21 46 42
22 48 43
22 48 44
21 47 43
21 47 43
21 47 43
22 47 43
21 47 43
21 47 42
21 47 43
22 48 43
22 48 43
22 49 44
22 48 43
22 48 43
21 47 43
21 47 43
22 47 43
21 47 43
22 49 44
21 47 42
22 49 44
21 47 43
21 47 43
23 50 45
22 49 44
22 48 44
21 47 43
21 47 43
23 50 45
22 48 43
22 48 44
22 49 44
22 47 43
22 49 44
22 48 43
22 49 45
22 47 43
20 44 40
20 45 41
20 44 40
20 45 41
20 45 41
20 44 41
20 44 41
20 45 41
20 45 42
20 44 41
20 45 41
20 44 40
21 46 42
20 45 42
21 47 43
20 45 42
21 46 42
20 45 41
20 44 41
21 46 42
20 45 41
20 44 41
20 45 41
21 46 42
21 45 42
20 45 41
20 45 41
21 46 42
21 46 42
21 46 42
21 46 42
20 45 41
21 46 42
20 45 42
20 44 41
21 46 42
21 45 42
20 45 41
21 46 42
21 46 42
21 46 42
20 45 41
21 47 43
20 45 41
21 47 43
21 46 42
21 47 43
21 47 43
21 45 41
21 46 42
21 46 42
21 46 42
21 47 43
21 46 42
21 46 42
21 47 43
21 45 42
21 46 42
21 46 42
22 48 44
21 45 41
21 46 42
21 47 43
20 45 41
21 47 43
21 46 42
21 47 43
21 47 43
21 46 42
22 48 43
21 46 42
21 46 42
22 48 43
22 48 44
21 47 43
22 48 43
22 48 43
21 47 43
22 49 44
21 47 43
21 47 42
21 47 43
21 47 43
21 47 43
21 46 42
21 47 43
21 47 43
22 49 44
21 47 43
21 47 42
21 47 43
22 48 43
22 47 43
22 47 43
22 47 43
22 48 43
22 49 44
22 48 43
22 49 44
22 48 44
21 47 43
22 48 44
22 48 43
22 48 44
22 49 44
22 47 43
22 48 43
21 47 43
22 49 44
22 48 44
22 49 44
22 49 44
22 48 44
22 48 44
22 49 44
22 47 43
22 48 44
22 49 44
22 48 43
22 48 43
20 44 40
20 44 41
20 44 40
20 44 40
20 45 41
20 45 41
20 44 41
21 46 42
21 46 42
20 45 41
21 46 42
21 46 42
20 45 41
20 44 41
20 45 41
21 46 43
20 45 41
20 45 42
20 44 40
20 45 41
20 45 41
20 45 41
20 45 42
20 45 41
20 45 41
21 46 42
20 44 41
21 46 42
21 46 42
21 46 42
21 46 42
21 46 42
21 46 42
21 46 42
21 46 42
20 45 41
21 46 42
21 46 42
21 46 42
21 47 43
21 47 43
21 46 42
20 45 42
20 45 42
21 47 43
21 46 42
20 45 41
21 46 42
21 47 43
21 47 43
21 46 42
21 46 42
21 47 43
21 46 42
21 46 42
21 47 43
21 47 43
21 47 42
21 46 42
21 47 43
21 47 43
21 47 43
21 46 42
21 46 42
21 47 43
21 47 43
22 48 43
21 47 43
21 46 42
21 46 42
21 47 43
22 48 43
21 46 41
22 48 43
21 47 43
21 47 43
21 47 43
21 47 42
21 46 42
21 47 43
21 47 42
21 46 42
21 47 43
21 47 43
21 47 43
22 48 44
22 49 45
21 47 43
21 47 43
22 49 44
22 47 43
21 47 43
22 48 44
22 48 44
22 48 44
21 47 43
22 48 43
22 48 44
22 49 44
22 48 44
22 48 44
22 48 44
22 49 44
22 48 44
21 47 43
21 47 43
22 48 44
21 47 42
22 49 44
22 48 44
22 49 44
22 48 43
22 48 43
22 48 44
22 49 44
22 49 44
22 48 43
21 47 42
22 48 44
22 48 43
20 45 41
20 45 41
20 45 41
20 45 41
20 44 41
20 45 41
21 46 42
20 44 40
21 46 42
20 45 42
20 45 41
20 44 41
20 44 40
20 45 42
20 44 40
20 45 42
20 45 41
20 46 42
21 46 42
21 46 42
21 46 42
20 45 41
21 46 42
21 46 42
20 45 41
20 45 41
21 46 42
20 45 42
21 46 42
20 44 41
20 44 41
21 46 42
20 45 41
21 46 42
20 45 41
21 46 42
21 46 42
21 46 42
21 46 42
21 47 43
21 46 42
20 45 41
21 46 42
20 45 41
21 46 42
21 47 43
21 45 42
21 47 43
21 47 43
21 46 42
21 46 42
21 46 42
20 45 41
21 46 42
21 46 42
21 46 42
21 46 42
21 47 43
21 46 42
21 46 42
21 46 42
21 46 42
22 48 44
21 47 43
21 47 43
21 46 42
21 46 42
21 46 42
21 46 42
21 47 43
21 46 42
22 48 44
21 47 43
21 46 42
21 47 43
21 46 42
21 47 42
21 47 42
22 48 43
22 48 44
22 48 44
21 47 42
22 48 44
21 47 43
21 47 43
21 47 43
22 48 43
22 48 44
22 49 44
21 47 43
21 46 42
22 48 44
22 48 43
22 47 43
21 47 43
21 47 43
21 47 43
21 47 42
22 49 44
22 48 43
22 48 43
22 49 44
21 47 43
22 48 44
22 47 43
22 47 43
22 48 43
22 49 44
22 48 43
23 50 46
23 50 45
22 48 44
22 48 44
22 48 43
22 49 44
21 47 43
22 48 44
22 48 44
22 48 43
22 49 45
20 44 41
20 45 41
20 44 41
20 44 41
21 46 42
21 46 42
20 45 41
20 45 41
20 45 41
21 46 42
20 45 41
21 46 42
20 45 41
20 45 42
20 44 40
21 46 42
20 45 41
20 44 41
20 45 42
20 45 41
20 45 41
21 46 42
20 45 41
21 46 42
20 45 41
21 46 42
21 46 42
20 45 41
19 43 39
21 47 43
21 46 42
20 45 41
20 44 40
20 45 41
20 45 41
21 46 42
21 46 42
21 46 42
21 47 43
21 46 42
21 46 43
21 46 42
21 45 42
21 46 42
21 46 42
21 46 42
21 46 42
20 45 41
21 46 42
21 46 42
21 47 43
21 47 43
21 46 42
21 47 43
21 47 43
21 47 43
21 46 42
21 47 43
21 46 42
21 46 42
21 47 43
21 46 42
21 47 43
21 47 43
21 47 43
21 47 43
21 46 42
21 46 42
21 46 42
21 47 43
21 47 43
22 48 43
21 47 43
22 48 44
21 47 43
21 47 43
21 47 43
21 47 42
21 47 43
22 48 43
21 47 43
21 46 42
21 46 42
22 49 44
22 48 43
21 47 42
22 48 43
22 48 43
22 47 43
21 46 42
21 46 42
21 47 43
22 48 44
22 48 44
21 46 42
21 47 42
22 48 44
21 47 43
22 48 44
22 48 44
22 47 43
21 47 43
22 48 43
22 48 43
22 47 43
22 48 44
22 48 43
22 48 44
22 48 44
21 47 43
22 48 44
21 47 42
22 47 43
21 47 43
22 48 43
22 48 44
22 48 43
21 46 42
22 48 44
21 47 43
21 46 42
20 45 42
20 45 41
21 46 42
20 45 41
20 44 41
20 45 41
20 45 42
20 45 41
20 44 41
20 44 41
20 45 41
20 45 42
20 44 41
20 45 41
21 46 42
21 46 42
20 45 41
21 46 43
20 45 41
20 45 41
20 45 41
20 45 41
21 47 43
21 46 42
22 48 44
20 45 42
21 46 42
21 46 42
21 46 42
21 47 43
21 46 42
21 45 42
20 45 41
20 45 42
20 44 41
21 46 42
20 45 41
20 45 41
21 46 42
21 46 42
21 46 42
21 46 42
21 46 42
21 46 42
20 45 41
21 46 42
20 45 41
21 47 43
21 47 43
21 46 42
21 47 43
20 45 41
21 47 43
21 46 42
21 46 42
21 46 42
21 47 43
21 46 42
21 47 43
21 46 42
22 48 43
21 46 42
21 46 42
21 47 42
21 46 42
21 47 43
21 46 42
20 45 41
21 46 42
21 46 42
21 47 43
21 46 42
20 45 41
21 47 43
21 46 42
21 47 42
21 47 43
21 47 43
22 48 44
21 47 43
22 48 43
21 47 43
21 46 42
22 47 43
21 46 42
21 47 43
22 47 43
22 48 43
22 49 44
21 46 42
22 47 43
21 47 43
22 47 43
22 49 44
21 46 42
22 48 44
22 49 44
22 48 44
21 47 43
22 48 44
22 47 43
22 47 43
22 48 44
21 47 43
22 47 43
21 47 42
22 47 43
22 48 44
22 48 44
21 47 43
22 48 44
22 49 44
22 48 44
22 48 44
21 47 43
21 47 42
22 47 43
22 49 45
22 49 44
20 44 41
20 44 40
20 45 41
20 45 42
21 46 42
20 45 41
20 45 42
20 44 41
20 45 42
20 44 40
19 43 40
20 45 41
21 47 43
20 45 42
20 44 40
21 46 42
20 45 41
20 45 41
20 45 41
20 44 40
21 46 42
21 46 42
21 46 42
20 45 42
21 46 42
21 46 42
20 45 41
20 45 41
21 47 43
21 47 43
21 46 42
21 46 42
21 46 42
21 46 42
20 45 42
21 47 43
21 47 43
21 46 42
20 45 41
21 46 42
21 47 43
20 45 42
21 46 42
21 46 42
21 46 42
21 46 42
21 46 42
21 47 43
21 46 43
21 47 43
21 46 42
21 46 42
21 46 42
21 46 42
21 46 42
21 47 43
21 46 42
21 47 43
21 47 43
21 46 42
21 47 43
22 48 44
21 47 43
21 46 42
21 46 42
21 46 42
21 47 43
21 46 42
22 48 43
21 47 43
22 48 44
21 47 43
21 46 42
21 47 42
21 46 42
21 47 43
21 47 43
21 47 43
21 47 42
21 47 42
21 47 43
22 47 43
21 47 43
21 46 42
21 47 43
22 48 44
21 47 42
21 47 43
21 47 42
21 47 43
22 48 44
22 48 44
21 47 42
22 48 44
21 47 43
21 46 42
21 47 43
22 48 44
21 47 43
22 48 43
22 48 43
22 48 44
22 48 43
21 47 43
21 47 43
22 48 44
22 48 44
22 48 44
22 49 44
22 48 43
22 48 43
22 47 43
22 47 43
22 49 45
22 48 43
22 48 44
22 48 43
22 48 43
22 47 43
21 47 42
20 44 40
20 45 42
20 45 41
20 44 41
20 45 41
20 44 41
20 45 41
20 45 42
20 45 42
20 44 40
20 44 41
20 45 41
20 45 41
20 45 41
20 45 41
20 45 41
21 46 42
20 45 42
21 46 42
20 45 41
20 45 41
21 46 42
21 46 42
21 46 42
21 46 42
20 45 41
21 46 42
21 46 42
20 45 41
20 45 41
21 46 42
21 46 42
21 46 42
21 46 42
20 45 42
20 44 41
20 45 41
21 46 42
20 45 41
21 46 42
21 46 42
20 45 41
21 46 42
21 46 42
21 46 42
21 46 42
21 47 43
20 45 41
20 45 41
21 46 42
20 45 41
21 46 42
21 46 42
20 45 41
22 48 43
21 47 43
21 46 42
21 47 43
21 47 42
21 46 42
22 48 44
21 47 43
21 47 43
21 46 42
21 46 42
21 46 42
21 46 42
22 47 43
21 47 43
21 46 42
21 47 43
21 47 43
21 46 42
21 47 43
22 48 43
21 46 42
21 47 43
21 46 42
21 46 42
21 47 43
21 47 42
22 48 44
21 47 43
22 47 43
22 47 43
21 47 43
22 47 43
22 48 43
22 48 43
22 47 43
21 47 42
22 48 44
22 48 44
22 48 44
22 48 44
21 47 43
22 48 43
21 47 43
21 47 43
21 47 43
21 47 43
22 48 43
21 47 43
21 47 43
21 46 42
22 48 44
22 48 44
22 49 45
22 48 43
22 49 45
21 47 43
22 48 43
22 48 43
22 48 44
22 49 45
23 49 45
22 48 43
22 49 45
22 47 43
22 48 44
20 45 41
20 45 41
20 44 40
20 44 40
20 45 41
20 45 41
20 45 41
20 45 42
20 45 41
20 45 41
20 44 41
20 45 41
20 45 41
20 45 41
21 46 42
20 44 40
20 45 41
19 43 39
21 46 42
20 45 42
20 45 41
21 46 42
21 46 42
20 45 41
21 47 43
20 44 40
21 46 42
21 46 42
21 47 43
20 45 41
21 45 42
21 46 42
20 45 41
21 46 42
21 46 42
21 46 42
20 45 41
21 46 42
21 46 42
21 46 42
20 45 41
21 46 42
21 46 42
21 46 42
20 45 41
21 46 42
21 46 42
21 46 42
20 45 41
22 48 44
21 46 42
20 45 41
21 46 42
21 47 42
21 47 43
21 46 42
21 46 42
21 46 42
21 46 42
21 47 43
21 47 43
21 47 43
22 48 44
21 46 42
21 47 43
21 46 42
21 46 42
21 46 42
21 46 42
21 46 42
21 46 42
22 47 43
21 46 42
21 47 43
21 46 42
22 48 44
21 47 43
22 48 43
22 48 44
21 46 42
21 47 43
21 47 43
22 47 43
22 48 44
21 47 43
22 49 44
21 46 42
22 49 44
21 46 42
21 47 43
21 45 41
22 48 44
22 48 44
22 48 44
21 47 43
21 46 42
22 49 44
21 47 43
21 47 43
22 48 43
22 48 44
22 48 44
22 49 44
22 49 45
23 50 45
22 49 44
21 47 43
21 47 42
21 47 43
22 48 44
22 49 44
22 48 44
21 47 43
22 49 44
22 48 44
23 50 45
22 47 43
21 47 43
22 48 44
22 49 45
21 46 42
21 46 42
20 44 40
20 45 41
20 45 41
20 44 41
21 46 42
20 46 42
20 45 41
20 45 42
20 45 41
20 44 41
20 44 41
21 46 42
20 44 41
20 45 42
20 45 41
20 45 41
20 45 41
20 45 41
20 45 41
21 46 42
21 46 42
20 45 42
20 46 42
20 45 41
21 46 42
21 46 42
21 46 42
20 45 41
21 46 42
21 46 42
20 45 41
21 47 43
21 46 42
20 45 41
20 44 41
21 46 42
20 45 41
21 46 42
21 46 42
21 47 43
20 45 41
21 46 42
21 46 42
20 45 41
21 46 42
21 46 42
21 47 43
21 47 43
21 47 43
21 46 42
20 44 41
21 46 42
21 46 42
21 47 43
21 46 42
21 46 42
21 47 43
21 47 43
21 47 43
21 46 42
21 47 43
21 47 43
22 47 43
21 45 42
21 47 43
21 46 42
21 46 42
21 46 42
21 46 42
22 48 44
21 46 42
21 47 42
21 46 42
21 47 43
22 48 44
22 48 44
21 46 42
21 46 42
21 46 42
21 46 42
22 47 43
22 48 44
21 47 43
21 47 43
21 47 43
22 47 43
21 47 43
21 47 43
21 47 43
22 48 43
21 47 42
22 47 43
21 47 43
22 47 43
21 46 42
22 48 44
21 47 42
22 48 43
22 49 45
22 48 44
22 48 43
22 47 43
22 48 43
21 47 43
22 48 44
22 48 44
21 47 43
22 49 44
22 48 44
22 48 44
22 48 44
22 48 44
22 49 44
22 48 44
22 48 44
22 49 44
22 49 44
22 49 45
21 46 42
20 44 41
21 46 42
20 45 41
21 46 42
20 45 41
20 45 42
20 45 41
20 45 42
20 44 40
20 45 41
21 46 42
21 46 42
21 46 42
20 45 42
20 44 41
20 45 41
20 44 41
21 45 42
20 45 41
20 45 41
20 44 40
21 46 42
20 45 41
21 46 42
21 46 42
20 44 40
21 46 42
21 46 42
20 45 42
20 45 41
21 47 43
20 45 41
21 46 42
21 46 42
20 45 41
21 46 42
21 47 43
21 47 43
21 46 43
22 48 44
21 47 43
21 46 42
21 46 42
21 46 42
21 47 43
22 48 43
21 46 42
21 47 43
21 46 42
21 46 42
21 46 42
21 46 42
20 45 41
21 46 42
21 46 42
21 47 43
20 45 41
21 46 42
21 47 43
21 47 42
21 46 43
21 45 41
21 47 43
21 46 42
21 47 43
22 49 45
21 46 42
22 47 43
21 47 43
22 48 44
22 48 44
21 46 42
21 47 43
21 47 42
21 47 43
22 49 44
21 47 43
21 47 43
21 46 42
21 47 42
22 48 43
21 47 43
21 47 43
21 46 42
21 47 43
21 47 42
21 47 43
22 48 44
21 47 43
22 48 44
22 48 44
21 46 42
22 48 44
21 47 43
22 48 44
22 47 43
21 46 42
22 48 43
21 47 42
22 49 44
22 48 44
21 47 43
21 47 43
22 48 43
22 48 44
22 48 43
22 48 43
21 47 43
22 48 44
22 48 44
22 47 43
22 48 44
22 48 43
22 49 44
22 47 43
22 48 43
22 49 44
22 48 44
22 48 44
20 45 41
20 44 40
20 45 41
20 45 41
20 45 41
20 45 41
20 45 41
20 45 41
21 46 42
20 45 41
20 45 41
21 46 42
20 45 41
20 45 41
21 46 42
19 43 40
20 45 41
20 45 41
20 45 41
20 45 41
21 46 42
21 46 42
21 46 43
20 45 41
21 46 42
21 46 42
20 45 41
21 47 43
21 46 42
20 45 41
21 46 42
20 45 41
21 46 42
20 45 42
21 47 43
20 45 41
21 46 42
20 45 41
20 45 41
20 44 41
21 46 42
20 45 41
21 47 43
21 46 42
21 45 42
20 45 41
20 45 41
21 46 42
21 47 43
21 46 42
21 46 42
20 45 41
21 47 43
21 46 42
21 47 43
21 47 43
21 46 42
22 48 44
21 46 42
21 46 42
20 45 41
21 47 43
21 45 41
21 46 42
21 47 43
21 47 43
21 47 43
22 48 44
21 47 43
21 46 42
21 47 43
21 46 42
21 46 42
22 47 43
21 47 43
21 47 42
21 46 42
21 47 43
21 47 43
21 46 42
21 47 42
21 46 42
21 46 42
22 49 44
22 47 43
22 48 44
22 48 44
21 47 43
21 47 43
21 47 43
21 46 42
22 47 43
21 47 42
21 47 43
21 47 43
22 49 44
22 48 44
22 47 43
22 48 44
21 47 42
22 48 43
22 48 44
22 47 43
21 47 43
22 48 44
22 47 43
21 47 43
22 48 44
21 47 42
22 48 44
21 47 43
22 47 43
22 48 44
21 46 42
21 47 42
22 48 43
22 48 43
22 48 43
22 48 43
22 48 44
20 44 41
20 44 40
21 46 42
20 45 41
20 44 40
20 45 41
20 45 41
20 45 41
20 45 41
20 45 41
20 44 41
20 45 41
20 45 41
21 46 42
21 46 42
20 45 42
21 46 42
21 46 42
20 45 41
20 45 41
21 46 42
20 45 41
20 45 41
20 45 42
20 45 41
21 47 43
20 43 40
20 44 41
20 45 42
20 45 41
20 45 41
21 47 43
21 46 42
21 47 43
21 46 42
22 48 44
21 47 43
20 44 40
21 46 43
21 46 42
21 46 42
21 46 42
21 46 42
21 46 42
20 45 41
21 46 42
21 47 43
21 46 42
22 48 44
20 45 41
21 46 42
21 46 42
20 45 41
21 47 43
20 45 41
21 46 42
21 46 42
21 46 42
21 46 42
21 46 42
21 46 42
21 46 42
22 48 44
21 47 43
21 46 42
21 47 43
21 47 43
21 46 42
21 46 42
21 47 43
21 46 42
21 47 43
21 47 43
21 47 43
21 47 43
21 47 43
21 47 43
21 46 42
21 47 43
21 47 43
21 47 43
21 47 43
21 46 42
21 46 42
21 47 43
22 48 44
21 46 42
21 46 42
21 46 42
21 47 43
22 48 44
21 47 43
21 47 43
22 48 43
22 48 43
21 47 42
22 48 43
21 47 43
21 47 43
22 48 44
22 47 43
22 48 43
21 47 42
22 49 44
22 48 44
23 49 45
22 48 43
21 46 42
22 48 43
22 48 44
22 49 45
21 47 43
22 48 44
22 47 43
22 49 44
22 49 44
22 48 43
22 48 43
22 49 44
21 47 43
20 45 41
20 44 41
20 45 41
21 47 43
20 45 41
20 44 41
21 46 42
21 46 42
20 45 41
19 43 40
20 45 41
19 43 39
20 45 41
21 47 43
21 46 42
20 45 41
20 45 41
20 45 41
21 46 42
20 44 41
21 46 42
21 46 42
21 46 42
20 44 41
20 45 41
20 44 41
21 46 42
20 45 41
20 44 41
20 45 41
21 46 42
21 46 42
21 46 42
21 46 43
21 45 42
21 46 42
20 45 41
21 47 43
21 47 43
21 46 42
20 45 42
21 47 43
21 46 42
21 47 43
21 46 42
21 46 42
21 46 42
20 45 41
21 46 42
21 46 42
21 46 42
21 46 42
21 47 43
20 45 41
22 48 43
21 47 43
21 46 42
21 48 43
20 45 41
21 46 42
21 46 42
21 47 43
20 45 41
21 46 42
21 46 42
21 46 42
21 46 42
22 47 43
21 47 42
21 45 41
22 48 44
21 46 42
21 46 42
21 46 42
21 47 43
21 47 43
21 47 43
21 46 42
22 47 43
21 47 43
21 46 42
21 47 42
22 48 43
21 47 43
21 47 43
21 45 41
21 46 42
21 46 42
21 47 43
22 48 44
21 47 43
21 47 43
21 46 42
22 48 44
22 48 44
21 47 43
21 46 42
22 48 44
22 49 44
22 48 44
21 46 42
22 48 43
22 48 44
21 46 42
22 48 43
21 47 43
22 48 43
22 47 43
22 48 44
21 47 43
22 48 44
22 48 44
22 47 43
22 48 44
22 48 43
22 48 44
22 48 44
22 48 44
22 48 43
21 47 43
20 45 41
21 46 42
20 45 41
20 45 41
20 44 41
20 44 40
20 46 42
21 46 42
20 45 41
20 45 42
20 45 41
20 45 41
21 46 42
20 44 41
20 45 41
20 45 41
20 45 41
21 46 42
20 45 41
20 45 41
21 46 42
20 45 41
20 45 41
21 46 43
20 45 41
20 45 41
20 45 42
20 45 41
21 47 43
20 45 42
20 45 41
20 45 41
20 45 41
20 45 41
21 46 42
21 46 42
21 46 42
21 46 42
21 46 42
20 45 41
21 47 43
21 46 42
21 46 42
21 46 42
21 47 43
21 46 42
21 46 42
21 46 42
21 47 43
21 46 42
21 47 43
21 46 42
20 45 41
20 45 41
21 47 43
21 47 43
21 47 43
21 46 42
20 45 41
22 48 44
22 48 44
20 45 41
21 47 43
20 45 41
21 47 43
21 46 42
21 46 42
21 46 42
21 47 43
21 47 43
21 47 43
21 47 43
21 46 42
21 46 42
22 48 44
22 48 44
21 46 42
21 46 42
22 48 44
21 46 42
21 47 43
21 47 43
22 47 43
20 45 41
20 45 41
21 47 42
21 47 43
21 47 43
21 47 43
21 47 43
21 47 43
21 47 43
21 46 42
21 47 43
21 47 43
21 46 42
21 46 42
22 48 43
22 48 44
22 48 44
22 48 43
22 48 44
21 46 42
21 47 43
22 48 43
22 48 44
23 49 45
22 48 44
22 48 43
21 47 42
22 48 44
22 48 43
22 47 43
22 48 44
22 47 43
22 48 44
22 47 43
22 48 43
21 47 42
22 47 43
20 44 41
21 46 42
20 45 42
21 46 43
20 45 41
20 45 41
20 45 41
21 46 42
20 45 41
21 46 42
20 44 41
20 45 41
20 45 41
20 44 40
20 45 41
21 47 43
21 46 42
20 45 41
21 46 42
20 45 41
20 45 41
20 45 41
20 44 41
20 45 41
21 45 42
20 44 41
21 46 42
20 45 41
21 46 42
20 45 41
20 45 41
21 46 42
21 46 42
21 46 42
20 45 41
20 45 41
20 44 41
21 46 42
20 45 42
21 47 43
21 46 42
21 47 43
20 45 41
21 46 42
21 46 42
21 46 42
21 46 42
21 46 42
21 46 42
21 47 43
21 46 42
20 45 41
21 46 42
21 46 42
21 46 42
20 45 41
21 47 42
21 46 42
20 45 41
21 46 42
21 46 42
21 46 42
21 47 43
22 48 44
21 47 43
21 46 42
22 48 43
21 46 42
21 46 42
22 48 44
22 48 44
21 47 43
21 47 43
21 47 43
21 46 42
21 46 42
21 46 42
21 46 42
21 47 43
21 45 41
21 47 43
21 47 43
21 47 43
22 48 44
21 46 42
21 47 42
21 46 42
22 48 43
21 46 42
22 48 44
21 47 43
21 45 41
22 47 43
21 46 42
22 48 44
21 47 43
21 47 43
22 48 43
22 49 44
22 48 44
21 47 43
21 46 42
22 48 44
22 49 45
21 47 43
21 47 43
22 47 43
22 48 44
21 46 42
22 48 43
22 48 43
22 48 44
22 48 44
22 48 44
22 49 44
21 47 43
22 48 44
22 47 43
21 47 43
22 48 44
20 45 41
20 44 40
20 45 42
21 46 43
20 44 40
20 45 41
20 45 41
20 45 41
20 44 41
20 45 41
20 45 41
21 46 42
20 45 41
21 46 42
21 46 42
21 46 42
20 44 40
20 45 42
21 46 42
20 45 41
20 44 40
20 45 41
20 45 41
21 46 42
21 46 42
21 46 42
20 45 42
20 45 41
20 45 41
21 46 42
20 45 41
21 47 43
21 46 42
20 45 41
21 46 42
20 45 41
21 45 41
20 45 41
21 46 42
21 46 42
21 46 42
21 46 42
21 46 42
21 47 43
21 47 43
21 46 42
20 45 41
21 45 42
21 46 42
20 45 41
21 47 43
21 46 42
21 46 42
21 46 42
21 46 42
21 46 42
21 47 43
20 45 41
21 46 43
21 46 42
21 46 42
21 46 42
21 46 42
22 48 44
21 46 42
22 47 43
21 46 42
21 46 42
21 46 42
21 47 42
21 47 43
20 45 41
21 46 42
21 47 43
22 48 44
22 47 43
21 46 42
21 46 42
21 46 42
21 47 42
21 47 43
21 47 43
21 46 42
21 46 42
20 45 41
22 47 43
21 47 43
22 48 44
21 46 42
22 48 44
21 47 43
22 48 44
21 46 42
22 47 43
21 47 43
22 48 44
22 47 43
21 47 43
22 47 43
22 49 44
21 47 43
21 46 42
22 48 44
22 48 43
22 48 43
22 48 44
22 48 44
22 48 44
22 48 43
22 48 44
22 47 43
22 49 44
22 48 43
22 47 43
21 47 43
22 48 44
22 48 44
22 49 44
22 49 44
21 47 42
20 45 41
20 45 41
21 46 42
20 45 41
20 45 41
21 46 42
20 44 41
21 46 42
21 46 42
20 46 42
20 44 41
20 45 41
20 45 42
20 44 41
20 45 41
21 46 42
20 45 41
20 45 41
20 45 41
21 46 42
20 44 41
21 46 42
20 45 41
21 47 43
20 45 41
21 46 42
21 46 42
20 44 41
21 45 42
20 44 41
20 45 41
22 48 43
20 45 41
21 46 42
21 45 42
21 46 42
20 45 41
21 47 43
21 46 42
21 46 43
21 46 42
21 46 42
21 46 42
21 46 42
21 47 43
20 45 41
21 46 42
21 46 42
21 46 42
20 45 41
20 45 41
21 46 42
21 46 42
21 47 43
21 46 42
21 47 43
21 45 42
21 46 42
20 45 41
21 46 42
21 46 42
21 46 42
21 46 42
21 46 42
21 46 42
21 46 42
20 45 41
21 46 42
21 46 42
22 48 43
21 45 41
21 47 43
21 47 42
20 45 41
21 46 42
21 47 43
20 45 41
21 46 42
21 46 42
21 46 42
21 47 43
22 48 43
21 47 43
21 47 43
22 48 44
21 47 43
21 47 43
21 47 43
22 48 43
21 47 42
22 48 43
21 46 42
21 47 43
21 46 42
21 47 43
21 46 42
21 47 43
21 47 43
21 47 43
21 45 41
21 47 43
22 48 44
21 46 41
21 47 43
22 48 44
21 47 43
21 47 42
21 47 43
21 47 43
22 47 43
22 48 44
21 46 42
22 48 43
22 48 43
21 46 42
22 48 43
22 48 44
22 49 44
22 48 43
21 47 43
19 43 40
21 46 42
20 45 42
20 45 41
21 46 42
20 45 41
20 45 41
21 46 42
21 46 42
20 46 42
19 43 40
20 45 41
20 44 41
20 44 41
20 45 42
21 45 42
21 46 42
21 46 42
20 45 41
20 45 41
20 44 41
21 46 42
21 46 42
20 45 41
20 45 42
20 45 41
21 47 43
20 45 41
20 45 42
21 46 42
20 44 41
19 43 40
21 46 42
21 46 42
21 46 42
20 44 41
20 45 41
21 46 42
21 46 42
20 45 41
20 45 42
21 46 42
20 45 42
21 46 43
21 46 42
20 45 42
21 46 42
21 46 42
21 47 43
21 46 42
21 47 43
21 47 43
21 47 43
21 46 42
21 46 42
21 47 43
21 46 42
21 46 42
20 45 41
21 47 43
21 47 43
21 46 42
21 47 43
21 46 42
20 45 41
21 47 43
21 47 43
21 47 43
21 46 42
21 46 42
21 46 42
21 46 42
22 48 44
21 46 42
21 47 43
21 47 43
21 47 43
21 47 42
22 47 43
21 47 43
21 46 42
21 47 43
21 47 43
22 48 44
21 46 42
21 47 43
21 47 42
21 47 43
21 47 42
20 45 41
21 47 43
22 48 43
21 47 43
21 47 43
21 47 43
21 47 43
21 47 43
21 47 43
21 47 43
21 47 42
22 47 43
22 49 44
21 47 43
22 48 43
21 47 43
21 47 43
22 48 44
21 47 43
22 48 44
22 48 44
22 48 44
22 47 43
21 47 43
22 48 44
22 48 44
21 47 43
22 48 44
22 48 44
22 48 43
22 48 44
21 46 42
20 45 42
21 46 42
21 46 42
21 46 42
21 46 42
21 46 42
21 46 42
20 45 41
20 45 41
19 43 39
20 45 41
20 44 41
21 46 42
20 44 40
20 45 41
20 45 41
20 45 41
21 46 42
21 46 42
20 45 41
20 45 41
21 46 42
20 45 41
20 46 42
21 46 42
21 46 42
21 46 42
20 45 41
20 44 41
21 46 42
20 45 41
20 45 41
21 46 42
20 45 41
20 44 41
20 45 42
21 46 42
21 46 42
20 45 41
20 45 42
21 46 42
21 46 42
21 47 43
21 46 42
21 46 42
21 47 43
21 46 42
21 46 42
21 46 42
21 46 42
21 46 42
21 46 42
21 46 42
21 46 42
20 45 41
21 46 42
21 46 42
21 46 42
21 45 41
21 47 43
21 46 42
21 47 43
21 47 43
21 47 43
21 46 42
21 46 42
21 47 43
21 46 42
21 46 42
21 45 41
21 46 42
21 46 42
21 46 42
21 46 42
22 48 43
21 46 42
21 46 42
21 46 42
21 47 42
21 47 42
21 47 43
21 46 42
22 49 44
21 46 42
21 47 43
21 47 42
21 46 42
21 47 43
21 46 42
22 49 45
22 47 43
21 47 43
21 46 42
22 48 44
21 47 43
21 46 42
22 48 44
21 47 43
21 46 42
21 46 42
22 49 44
21 47 43
21 47 43
22 48 44
21 47 43
22 48 43
21 47 43
21 46 42
21 47 43
22 48 43
22 49 44
21 47 43
22 48 44
21 47 43
22 49 44
22 48 43
21 47 43
21 47 43
21 47 43
19 43 40
20 45 41
20 45 41
20 45 41
20 45 42
20 45 41
20 45 42
20 45 42
20 44 41
20 45 41
20 44 41
20 44 40
20 45 42
20 45 41
21 46 42
20 45 41
20 45 41
20 45 42
20 45 41
20 45 41
21 46 43
20 45 42
21 46 42
20 45 41
20 45 41
20 45 42
20 45 41
21 46 42
20 45 41
21 47 43
21 46 42
21 47 43
21 45 42
20 45 41
21 46 42
21 46 42
21 46 42
21 45 42
21 46 42
22 48 44
22 48 44
21 46 42
21 46 42
20 45 41
20 45 41
20 44 41
21 46 42
21 46 42
20 45 41
21 46 42
21 46 42
21 45 42
21 46 43
21 46 42
21 46 42
21 46 42
20 45 41
20 45 41
21 45 41
21 46 42
21 46 42
21 47 42
21 47 43
21 46 42
21 47 43
21 46 42
21 46 42
21 47 43
21 46 42
21 47 43
21 45 41
20 45 41
22 48 44
21 46 42
20 45 41
20 45 41
21 46 42
21 46 42
21 46 42
21 46 42
21 47 43
21 46 42
22 48 43
21 47 43
22 49 44
21 47 43
22 47 43
21 47 43
21 47 43
22 48 44
22 48 44
21 47 43
21 47 43
21 47 43
21 47 43
21 47 43
21 47 43
21 47 43
22 48 44
21 47 43
21 47 43
21 46 42
22 48 43
22 48 43
21 47 43
22 48 44
21 47 43
22 48 43
21 46 42
21 47 43
22 48 44
21 46 42
21 47 43
22 48 44
22 47 43
22 47 43
22 48 44
22 48 44
22 48 44
22 47 43
20 44 40
20 45 41
21 46 42
20 45 42
20 46 42
20 45 41
21 46 42
20 45 41
20 44 40
20 45 41
20 44 41
20 45 41
20 45 41
20 44 41
20 45 41
21 46 42
20 44 40
21 46 42
20 44 40
20 45 42
21 46 42
20 45 41
20 45 41
20 45 41
21 46 42
20 44 41
21 46 42
21 46 42
21 47 43
21 47 43
20 45 42
21 46 42
21 46 42
20 45 41
20 45 41
21 46 42
21 46 42
21 45 42
20 45 42
20 45 41
20 45 41
21 46 42
21 46 42
21 46 42
21 47 43
21 46 42
21 47 43
21 46 42
21 46 42
21 46 42
21 47 43
20 45 41
21 46 42
21 47 43
20 45 41
21 46 42
21 45 42
21 46 42
20 45 41
21 45 42
21 47 43
21 46 42
20 45 41
21 46 42
21 47 43
21 47 43
21 46 42
21 46 42
20 45 41
21 47 43
21 45 41
20 45 41
21 46 42
21 47 43
21 46 42
21 46 42
21 47 43
21 47 43
21 46 42
21 46 42
21 47 43
21 47 43
21 46 42
21 47 43
21 46 42
22 47 43
21 47 43
21 47 42
21 47 43
21 47 42
21 47 42
21 46 42
22 47 43
22 48 43
21 47 42
21 47 43
21 45 41
21 46 42
21 47 43
22 48 43
22 48 44
21 46 42
21 47 43
21 47 43
22 47 43
21 47 42
21 47 42
21 46 42
20 45 41
21 47 42
22 48 43
21 47 43
21 47 42
22 48 43
21 47 43
21 47 43
22 48 43
21 47 43
21 47 43
22 49 44
20 45 41
20 45 41
20 45 42
20 45 42
21 46 42
20 44 40
20 45 41
20 45 41
20 45 41
21 46 42
20 45 41
20 45 41
21 46 43
21 46 42
20 45 41
20 44 41
20 45 41
20 44 40
20 45 41
20 45 41
20 45 41
20 45 41
20 45 41
21 46 42
20 45 41
21 47 43
20 45 41
20 45 41
20 45 41
20 45 42
20 45 41
20 44 40
21 46 42
20 45 42
21 46 42
21 46 42
21 45 42
21 46 42
20 44 41
20 45 41
20 45 41
20 45 41
20 45 41
21 47 43
20 45 41
20 45 41
21 46 42
21 46 42
21 47 43
21 46 42
21 46 42
21 46 42
21 46 42
21 46 42
21 47 43
21 46 42
21 46 42
21 46 42
21 46 42
20 45 41
20 45 41
21 46 42
20 45 41
20 45 41
21 46 42
21 47 43
21 46 42
21 46 42
21 46 42
21 46 42
21 47 43
20 45 41
21 46 42
21 46 42
21 47 43
22 48 44
22 49 44
21 47 43
21 47 43
21 46 42
21 47 43
21 46 42
21 45 41
22 48 44
21 46 42
22 48 43
21 47 43
21 46 42
21 47 43
20 45 41
21 46 42
21 47 43
22 48 44
22 48 44
22 48 43
21 47 43
21 47 43
21 47 43
22 48 44
21 47 43
21 47 43
21 47 42
21 47 43
21 47 43
22 48 44
22 48 43
22 47 43
21 47 42
21 47 43
22 48 44
21 47 43
21 47 43
21 47 43
21 47 43
22 48 44
22 47 43
22 49 45
22 49 44
22 49 44
22 49 44
21 47 43
20 45 41
20 45 41
20 45 42
20 45 41
20 45 42
20 45 41
20 44 41
20 45 41
20 45 42
20 45 41
21 46 42
20 43 40
20 45 41
20 45 42
20 43 40
20 45 42
20 44 40
20 45 41
21 46 42
20 45 41
20 45 41
21 46 42
20 44 41
20 45 42
21 46 42
20 45 41
20 44 41
20 45 41
20 45 41
20 45 41
20 43 40
20 45 41
21 46 42
20 45 42
21 46 42
21 46 42
20 45 42
21 47 43
20 45 41
20 45 41
20 45 41
20 45 41
21 46 42
21 46 42
21 46 42
22 48 44
21 47 43
22 48 44
21 46 42
21 46 42
21 46 42
21 46 42
21 46 42
21 47 43
22 48 44
21 46 42
21 47 43
20 44 40
21 47 43
20 45 41
21 46 42
21 46 42
21 46 42
21 46 42
21 47 43
21 46 42
21 46 42
21 47 43
21 46 42
20 45 41
20 45 41
21 47 43
21 47 43
21 47 43
21 47 43
21 47 43
21 47 43
22 48 43
21 46 42
21 46 42
21 47 42
21 46 42
21 47 43
21 46 42
21 46 42
21 47 43
21 47 43
21 46 42
21 46 42
21 47 43
21 47 43
21 47 43
21 46 42
21 46 42
21 46 42
21 47 42
22 48 44
21 47 43
21 46 42
21 47 43
21 47 42
22 47 43
21 47 43
21 46 42
22 48 44
22 48 44
22 48 43
22 48 43
21 47 43
21 46 42
22 48 44
22 48 43
21 47 43
22 49 44
21 47 43
21 47 43
22 48 44
22 48 43
21 47 42
20 45 41
20 45 42
19 43 40
21 46 42
21 46 42
20 45 41
20 45 41
20 44 40
20 44 41
20 44 40
21 46 42
20 45 42
20 45 41
21 46 42
20 45 42
20 45 41
21 46 42
20 44 40
20 45 41
21 47 43
20 45 41
20 44 41
21 46 42
20 44 40
21 46 42
21 47 43
21 45 42
20 44 41
21 47 43
21 46 42
21 46 42
20 45 41
20 44 40
20 45 41
21 47 43
20 45 41
20 45 41
21 46 43
19 43 39
20 44 41
21 46 42
20 45 41
20 45 42
21 46 42
21 46 42
21 46 42
21 47 43
21 47 43
20 45 41
21 46 42
21 46 42
21 46 42
21 46 42
22 48 44
21 47 43
20 45 41
21 46 42
21 46 42
20 45 41
21 46 42
21 46 42
21 46 42
21 47 43
22 48 44
21 47 43
21 46 42
21 46 42
22 48 43
21 47 43
21 46 42
21 47 42
21 47 43
21 47 43
21 46 42
22 48 44
22 49 44
21 46 42
21 46 42
21 47 43
21 45 42
21 47 43
21 47 43
21 46 42
21 47 42
20 45 41
21 46 42
21 46 42
22 49 44
21 47 43
21 47 43
21 46 42
21 45 41
22 48 44
22 48 43
21 47 43
21 45 41
21 47 43
22 48 44
21 46 42
21 47 43
21 47 42
21 45 41
21 47 43
21 47 43
21 46 42
21 47 43
21 47 43
21 46 42
21 47 43
21 46 42
22 48 44
21 47 42
21 47 43
22 47 43
21 47 43
22 48 44
22 48 44
22 48 43
22 48 44
21 47 42
19 43 40
20 44 40
20 45 41
20 45 41
20 44 40
20 45 41
20 44 40
21 46 42
20 45 41
20 45 42
21 45 42
20 45 42
21 46 42
20 45 41
20 45 41
20 45 41
20 44 40
21 46 42
21 46 42
20 44 40
20 45 41
20 45 41
20 45 42
20 45 42
21 46 42
20 45 41
21 46 42
20 45 41
21 46 42
20 45 42
21 46 42
20 45 41
20 45 41
21 46 42
21 47 43
20 45 41
21 47 43
21 46 42
21 46 43
21 46 42
21 46 42
21 46 42
21 45 42
20 45 41
21 46 42
20 45 41
20 45 41
21 46 42
21 46 42
21 46 42
20 44 40
20 45 41
21 46 42
21 47 43
21 46 42
20 45 42
21 46 42
21 46 42
21 46 42
21 46 42
21 46 42
21 45 41
21 47 43
21 45 41
21 47 43
21 46 42
21 47 43
21 47 43
21 46 42
21 45 41
21 46 42
21 47 43
21 46 42
21 46 42
21 47 43
22 48 44
20 45 41
21 47 43
22 48 44
21 46 42
21 46 42
22 48 44
21 46 42
21 47 43
21 47 43
21 47 43
21 47 42
21 47 43
21 47 43
21 46 42
21 46 42
21 46 42
21 47 43
21 46 42
21 47 43
21 47 43
21 47 43
22 48 44
21 46 42
21 47 43
21 47 43
22 47 43
23 50 45
21 46 42
21 47 43
21 47 43
21 46 42
22 48 44
21 46 42
22 48 44
21 45 41
21 46 42
21 47 43
21 47 43
21 47 43
21 47 43
22 49 44
22 49 44
21 46 42
22 48 43
20 45 41
20 44 40
20 45 42
20 46 42
20 45 41
21 46 42
20 44 41
20 45 41
20 46 42
20 45 41
20 45 41
20 44 40
21 46 42
20 45 41
21 46 42
20 45 41
21 46 42
20 45 41
20 45 41
20 45 41
20 45 41
20 45 41
20 44 40
20 45 41
20 45 41
20 45 41
21 46 42
21 46 42
20 45 41
20 45 41
21 46 42
20 45 41
21 46 42
21 46 42
20 45 41
21 46 42
20 45 41
21 46 42
21 47 43
21 46 42
21 46 42
21 46 42
21 46 42
21 46 43
20 45 41
21 46 42
20 44 41
21 47 43
21 47 43
20 45 41
21 47 43
21 46 42
21 46 42
21 46 42
20 45 41
22 48 44
21 47 43
20 45 41
20 45 41
21 46 42
21 46 42
21 47 43
21 46 42
21 47 43
21 45 41
20 45 41
21 46 42
21 47 43
21 46 42
21 46 42
21 46 42
21 47 43
21 47 43
21 46 42
21 46 42
21 47 43
21 46 42
21 45 41
21 46 42
21 45 41
21 46 42
21 46 42
21 47 42
22 48 44
21 47 43
22 48 43
22 49 45
21 47 43
22 48 44
21 46 42
21 47 43
21 46 42
21 47 43
22 48 43
22 48 44
21 47 43
21 47 43
21 46 42
22 48 43
21 47 43
21 47 43
21 46 42
21 46 42
21 45 41
21 45 41
21 47 43
21 46 42
22 47 43
22 49 45
21 46 42
21 47 43
22 48 44
21 46 42
21 47 43
22 48 43
21 47 43
22 47 43
22 49 44
22 48 44
22 48 44
20 44 40
20 44 40
21 46 42
20 45 42
21 46 42
21 46 42
20 44 40
20 44 41
21 46 42
20 45 41
20 45 41
20 45 41
20 45 42
20 45 41
20 45 42
20 44 41
21 46 42
20 44 40
21 46 42
21 46 42
20 44 41
21 45 42
20 45 41
20 45 41
21 45 42
20 45 41
21 47 43
20 45 41
20 44 40
20 45 41
21 46 42
20 45 42
20 44 41
21 47 43
20 45 41
20 45 41
20 45 41
20 45 41
21 46 42
20 45 41
21 47 43
21 46 42
21 46 42
21 46 42
20 45 41
20 45 41
21 46 42
20 45 41
20 45 41
20 45 41
21 46 42
20 45 41
21 46 42
21 47 43
21 45 42
21 46 42
21 46 42
21 47 43
21 46 42
21 46 42
21 47 43
20 45 41
21 46 42
21 46 42
20 45 41
20 45 41
20 44 40
21 46 42
21 46 42
21 47 43
21 46 42
21 46 42
21 46 42
21 47 43
21 46 42
21 47 43
21 47 43
21 46 42
21 47 43
21 46 42
21 46 42
21 46 42
21 47 42
21 46 42
22 48 44
22 48 43
21 46 42
22 48 43
21 46 42
21 46 42
22 48 43
21 46 42
21 46 42
21 46 42
21 47 42
21 47 43
21 47 43
21 47 43
21 47 43
22 47 43
22 47 43
21 47 43
21 47 43
21 47 42
21 46 42
22 48 44
22 48 44
22 48 44
21 46 42
22 48 44
21 46 42
22 48 43
22 47 43
21 47 43
22 48 43
21 47 43
22 48 44
21 46 42
21 47 43
22 47 43
20 44 40
20 45 41
20 45 41
20 45 42
21 46 42
20 45 41
21 46 42
21 46 42
20 45 42
21 45 42
20 45 41
21 46 42
21 46 42
20 44 41
20 44 41
21 47 43
20 45 41
20 45 42
20 45 41
20 44 40
20 44 40
20 45 41
20 45 41
20 45 41
20 45 41
21 46 42
21 46 42
21 46 42
20 45 41
21 46 42
20 45 41
21 46 43
21 46 42
20 45 41
21 46 42
20 45 41
21 47 43
21 46 42
20 45 41
20 45 41
21 46 42
21 47 43
21 47 43
21 46 42
21 46 42
21 46 42
20 45 42
21 46 42
20 45 41
20 44 41
20 45 41
21 45 42
21 46 42
20 45 41
21 46 42
20 45 41
21 46 42
21 46 43
20 44 40
21 46 42
21 46 42
21 46 42
21 47 43
20 45 41
20 45 41
22 48 43
22 48 44
21 47 43
21 46 42
21 47 43
20 44 40
21 46 42
21 47 43
21 46 42
21 47 43
21 47 43
21 47 43
21 47 43
21 47 43
21 47 43
21 46 42
21 47 43
21 46 42
21 46 42
21 47 43
22 48 44
21 47 43
22 48 44
21 46 42
21 46 42
21 46 42
21 47 43
21 47 43
21 46 42
21 47 43
21 47 43
21 47 43
21 46 42
21 46 42
22 48 44
22 47 43
21 46 42
22 49 44
21 47 43
22 48 43
21 47 43
21 47 42
21 47 43
21 47 42
21 46 42
22 48 43
21 47 43
21 46 42
22 48 44
21 47 43
22 48 44
21 46 42
22 47 43
22 48 44
22 48 44
20 44 41
20 45 41
20 45 41
21 46 42
20 45 42
20 45 41
20 45 42
20 45 41
21 46 42
20 44 41
20 44 40
20 45 41
20 45 41
21 46 42
21 46 42
21 46 42
20 45 41
20 45 41
21 46 42
20 45 41
21 46 42
21 46 42
20 45 41
20 44 40
20 45 41
20 45 41
20 45 42
21 47 43
21 45 42
20 44 40
20 45 41
21 46 42
21 46 42
21 46 43
21 46 42
20 45 41
20 44 40
20 45 41
20 45 41
20 45 41
20 45 42
21 46 42
21 47 43
21 47 43
21 46 42
21 47 43
20 45 42
21 47 43
20 45 42
20 45 41
21 46 42
20 45 41
21 46 42
21 46 42
21 46 42
21 46 42
21 46 42
21 46 42
21 46 42
21 46 42
20 45 41
21 46 42
20 45 41
21 46 42
21 46 42
20 45 41
21 46 42
21 47 43
21 47 43
20 44 41
20 45 41
21 47 43
21 46 42
21 46 42
21 46 42
21 46 42
21 47 43
21 46 42
21 46 42
21 46 42
21 46 42
21 47 42
21 46 42
21 47 43
21 46 42
21 47 42
21 46 42
21 47 43
21 47 43
21 47 43
21 47 43
22 48 43
21 47 43
21 47 43
21 47 43
22 48 44
21 47 43
21 47 43
21 46 42
21 47 43
22 48 44
21 47 43
21 46 42
21 47 43
21 47 43
21 46 42
21 47 43
22 47 43
22 48 43
22 48 44
21 46 42
21 47 43
22 48 44
21 47 43
21 46 42
22 48 44
22 48 44
21 47 43
21 46 42
21 47 43
20 45 41
20 44 41
20 44 41
21 46 42
21 46 42
20 45 41
20 44 41
20 45 41
20 45 41
20 45 41
20 45 42
21 46 42
20 45 41
20 45 42
21 46 42
20 45 41
20 45 41
20 45 41
20 45 41
20 45 41
20 44 41
21 46 42
20 44 40
21 45 42
19 43 40
20 46 42
21 47 43
21 46 42
20 45 41
21 46 42
20 44 41
20 45 42
20 45 41
21 47 43
21 47 43
20 45 41
20 45 41
21 46 42
20 45 41
20 45 41
20 45 41
20 44 41
20 45 41
21 47 43
21 46 42
21 47 43
20 44 40
21 46 42
20 45 42
20 45 42
21 46 42
20 45 41
20 45 41
20 45 41
21 46 43
20 44 40
21 47 43
21 45 42
21 46 42
21 47 43
21 46 42
21 47 43
21 46 42
20 45 41
21 46 42
21 47 43
21 46 42
21 46 42
21 46 42
21 47 43
21 47 43
22 48 44
21 46 42
21 46 42
20 45 41
21 47 42
20 45 41
21 46 42
20 45 41
21 46 42
21 47 43
20 45 41
21 46 42
21 45 42
21 46 42
21 46 42
21 46 42
20 45 41
22 47 43
20 45 41
21 47 43
21 45 41
21 47 43
22 48 43
20 45 41
21 46 42
21 46 42
21 47 43
22 48 44
22 48 43
21 46 42
22 48 44
22 48 43
22 49 45
22 47 43
22 47 43
21 47 43
21 47 42
22 49 44
22 48 44
21 47 42
22 47 43
22 48 44
21 47 43
21 46 42
22 48 43
22 48 44
22 48 43
21 47 43
21 47 43
20 45 41
20 45 42
21 46 43
20 45 41
20 44 40
20 45 42
19 43 40
20 45 41
21 46 42
20 44 40
20 44 40
21 46 42
21 46 43
20 45 41
21 46 42
20 45 41
20 45 41
20 45 41
20 44 40
21 46 42
21 46 42
20 45 42
20 45 41
20 44 41
21 46 42
21 46 42
20 45 41
21 46 42
20 45 41
20 45 41
20 45 41
20 45 41
21 46 42
21 46 42
21 46 42
21 46 43
20 45 41
21 46 42
20 45 41
21 45 42
21 46 42
21 46 42
21 46 42
21 46 42
21 46 42
21 46 43
21 46 42
20 45 41
21 46 42
20 45 42
20 44 41
21 46 42
20 45 41
20 44 41
20 45 42
21 46 42
21 46 42
21 47 43
21 46 42
21 46 42
21 47 43
21 46 42
21 47 43
21 47 43
20 45 41
21 46 42
21 46 42
21 47 43
20 44 41
21 46 42
21 46 42
21 46 42
21 46 42
21 46 42
21 47 43
21 46 42
21 46 42
21 47 43
21 46 42
22 47 43
21 46 42
21 47 43
21 47 43
21 46 42
20 45 41
21 46 42
21 46 42
21 47 43
21 46 42
21 47 43
21 47 43
21 46 42
21 46 42
21 46 42
21 46 42
21 46 42
21 46 42
21 47 43
21 46 42
21 47 43
22 48 44
21 46 42
21 46 42
21 47 43
21 46 42
21 47 43
21 47 43
21 46 42
21 47 43
21 47 43
21 46 42
22 47 43
22 48 44
21 47 43
21 47 43
21 46 42
22 48 43
22 48 43
21 47 43
21 46 42
20 45 41
20 44 41
21 47 43
20 45 42
20 45 41
20 45 41
21 45 42
20 45 41
21 46 42
20 45 41
20 45 41
21 46 42
20 44 40
20 45 41
20 45 41
21 46 42
20 45 41
20 44 40
20 45 41
21 45 42
21 46 42
20 45 41
20 45 41
20 45 41
21 46 42
21 46 42
20 45 42
20 45 41
20 44 40
21 46 42
21 46 42
21 46 42
20 45 41
21 46 43
20 44 41
21 46 42
21 46 42
21 47 43
21 47 43
21 46 42
21 46 42
21 46 42
20 45 41
21 46 42
20 45 42
20 45 42
21 46 42
21 46 42
21 47 43
21 46 42
21 46 42
20 45 41
21 46 42
21 46 42
20 45 41
21 47 43
21 47 43
21 47 43
21 46 42
21 46 42
21 46 42
20 45 41
21 46 42
21 46 42
21 46 42
21 47 43
21 46 42
22 48 44
21 46 42
21 46 42
21 47 43
21 46 42
21 46 42
21 46 42
21 46 42
21 47 43
21 47 43
21 46 42
21 46 42
21 46 42
21 46 42
21 45 41
21 46 42
21 46 42
21 47 43
21 46 42
21 46 42
21 46 42
21 46 42
21 46 42
21 46 42
21 47 43
21 47 43
22 48 44
21 47 43
21 46 42
21 47 43
22 48 43
22 48 44
21 47 42
22 48 44
20 45 41
21 46 42
21 47 43
22 48 44
21 47 43
21 45 41
21 46 42
21 46 42
21 46 42
22 48 44
22 48 44
21 47 42
21 46 42
21 46 42
21 47 43
21 47 43
21 46 42
21 47 43
21 47 43
20 45 41
20 45 41
21 46 42
20 44 40
20 45 41
21 46 42
20 45 41
20 45 41
20 44 40
20 45 41
21 46 42
20 44 41
20 45 41
20 45 42
20 45 41
20 45 41
21 46 42
21 46 42
21 46 42
20 45 41
20 45 42
21 46 42
20 45 41
21 46 42
21 46 42
20 45 41
21 46 43
21 46 43
21 47 43
20 45 41
20 45 41
21 46 43
20 45 41
21 46 42
21 46 42
21 46 42
21 46 42
21 47 43
21 46 42
20 45 41
21 46 42
21 46 42
20 45 42
21 47 43
20 44 40
21 46 42
20 45 41
20 44 40
21 46 42
21 45 42
21 47 43
21 46 42
20 45 41
21 46 42
21 45 42
21 46 42
22 48 44
21 46 42
21 46 42
21 46 42
21 45 41
21 46 42
20 45 41
21 46 42
21 47 43
21 46 42
21 47 43
21 46 42
21 46 42
20 45 41
21 47 43
21 47 43
20 45 41
21 45 42
21 45 42
21 47 43
21 47 43
21 46 42
21 46 42
21 46 42
21 46 42
21 46 42
21 46 42
21 46 42
21 46 42
21 47 43
21 46 42
22 48 44
21 47 43
21 47 43
22 48 43
21 47 43
21 46 42
21 46 42
21 46 42
21 46 42
21 46 42
21 47 43
21 47 43
21 46 42
21 46 42
21 46 42
21 47 43
21 46 42
21 46 42
21 47 42
21 46 42
21 47 43
21 46 42
21 46 42
21 47 42
22 48 43
21 47 43
21 46 42
21 46 42
21 46 42
21 47 43
21 46 42
21 46 42
22 48 44
20 45 42
21 46 42
20 45 42
20 45 41
20 45 41
20 45 41
20 44 41
20 44 40
20 45 41
21 46 42
20 44 41
20 45 41
20 45 41
20 45 41
21 46 42
21 46 42
21 46 42
20 45 42
20 45 41
20 45 41
20 45 41
20 45 42
20 45 42
21 46 42
21 46 42
21 46 42
20 45 41
20 45 41
20 45 41
20 45 42
21 46 42
20 45 41
20 45 42
21 45 42
20 45 41
20 45 42
20 45 41
20 45 41
20 45 41
20 45 42
20 45 41
20 45 41
21 46 42
21 46 42
20 45 41
20 45 41
20 45 41
21 46 42
21 46 42
20 45 41
21 47 43
21 47 43
20 45 42
21 46 42
20 45 41
21 45 42
21 47 43
21 46 42
21 46 43
21 45 41
21 45 42
21 45 41
21 46 42
20 45 41
20 44 41
21 46 42
21 47 43
21 46 42
21 47 43
21 46 42
21 47 43
21 46 42
21 47 43
21 47 42
21 47 43
21 47 43
21 46 42
21 47 43
21 45 42
21 47 43
21 46 42
21 47 43
21 47 43
21 47 43
21 47 43
21 47 43
21 46 42
21 46 42
21 45 41
21 47 43
21 45 42
22 48 44
21 47 43
21 47 43
21 47 42
21 46 42
21 47 43
20 45 41
21 47 43
21 46 42
22 49 44
21 46 42
22 48 44
22 48 43
21 46 42
21 46 42
21 46 42
21 47 43
21 46 42
21 46 42
21 46 42
22 48 44
22 48 43
21 47 43
21 46 42
22 48 44
22 48 43
21 46 42
21 47 43
21 47 43
20 45 42
20 45 42
20 44 41
21 46 42
21 46 42
20 44 41
20 45 42
21 46 42
20 45 41
21 46 42
20 44 41
21 46 42
21 46 42
20 45 41
21 46 42
20 45 42
20 45 41
20 45 41
21 46 42
20 45 41
20 44 40
20 45 42
20 45 42
20 45 41
20 44 41
21 46 43
21 46 42
20 45 41
21 46 42
21 47 43
20 44 40
20 44 40
20 44 41
21 46 43
20 45 41
20 45 42
21 46 42
20 45 41
20 44 41
21 45 42
20 45 41
21 46 42
20 44 40
20 45 41
20 45 41
21 46 42
20 45 41
21 46 42
21 47 43
21 46 42
20 45 41
20 44 40
20 45 41
21 46 42
21 47 43
21 46 42
21 46 42
21 47 43
20 45 41
20 45 41
21 47 43
21 46 42
21 46 42
21 45 41
20 45 41
21 47 43
21 46 42
21 47 43
21 47 43
21 47 43
21 46 42
20 45 41
21 46 42
21 45 41
21 46 42
21 46 42
21 46 42
21 46 42
21 46 42
20 45 41
21 47 43
21 46 42
21 47 43
21 47 43
21 47 43
21 46 42
21 47 43
21 46 42
21 46 42
21 47 43
21 45 41
20 45 41
22 48 44
21 46 42
21 47 43
22 48 44
21 47 43
21 47 43
21 47 43
21 47 43
21 47 43
21 45 42
21 47 43
22 48 44
21 47 43
21 46 42
21 46 42
21 46 42
21 46 42
21 47 43
21 46 42
21 47 43
22 48 43
21 46 42
21 46 42
21 47 43
21 46 42
21 47 43
22 48 44
21 47 43
20 45 41
20 45 41
20 45 41
20 45 42
20 45 41
21 46 42
21 46 42
20 45 41
21 46 42
20 45 42
20 45 41
20 44 40
20 45 41
20 45 41
20 45 42
20 44 41
20 45 41
20 44 40
21 46 42
21 46 42
20 44 40
20 44 41
21 47 43
20 45 42
20 45 41
21 46 42
20 45 41
21 46 42
20 45 41
20 45 41
21 46 42
21 46 42
21 46 42
20 44 40
20 45 41
20 45 41
21 46 42
20 45 42
21 46 42
21 47 43
20 45 41
22 48 44
21 46 43
20 45 41
21 46 42
20 45 41
20 45 42
20 44 41
21 46 42
21 46 42
20 44 41
21 46 42
20 45 41
20 45 41
22 48 44
20 45 41
21 46 42
21 46 42
20 45 41
20 45 41
21 47 43
21 47 43
20 45 41
20 45 41
21 46 42
20 44 41
20 45 41
21 45 42
20 45 41
21 46 42
19 43 39
21 45 41
21 46 42
21 46 42
20 45 41
21 46 42
21 46 42
21 46 42
21 46 42
20 44 40
21 47 43
21 47 43
21 45 41
21 47 42
21 46 42
21 46 42
21 46 42
21 46 42
21 46 42
22 47 43
20 45 41
21 47 43
21 46 42
22 48 43
22 48 44
21 46 42
21 47 43
21 47 43
21 46 42
21 47 43
21 47 43
22 48 43
21 47 43
22 49 44
21 47 43
21 46 42
20 45 41
21 46 42
20 45 41
21 46 42
21 46 42
21 46 42
21 46 42
21 46 42
22 48 44
22 49 44
21 46 42
21 46 42
21 47 43
21 46 42
