P3
120 80
255
17 39 36
16 37 35
17 39 37
16 38 36
17 38 36
17 39 36
17 38 36
16 37 35
17 39 37
17 39 37
17 38 36
17 39 37
17 38 36
17 38 36
17 39 36
16 38 36
17 38 36
17 39 37
17 40 38
17 39 36
17 39 37
16 38 36
17 39 37
17 39 37
17 38 36
17 38 36
17 38 36
17 40 37
17 38 36
17 39 37
17 39 37
17 38 36
17 40 37
17 39 37
17 38 36
17 38 36
17 38 36
17 38 36
17 39 37
17 39 36
17 38 36
17 38 36
17 39 37
17 38 36
17 39 37
17 39 37
17 39 37
17 38 36
17 39 37
17 38 36
17 39 37
17 39 37
17 39 37
17 39 37
16 38 36
16 38 36
17 38 36
17 39 37
17 39 36
17 38 36
17 39 37
17 39 36
17 39 37
17 39 37
17 38 36
17 38 36
17 39 37
17 39 37
17 39 37
17 38 36
17 39 37
17 38 36
17 38 36
17 39 37
17 38 36
16 37 35
17 38 36
17 39 37
17 38 36
17 39 36
17 38 36
17 39 37
17 38 36
17 38 36
16 38 36
16 38 36
17 39 36
17 39 36
17 39 37
17 38 36
17 39 37
17 38 36
17 39 37
17 39 37
17 38 36
17 38 36
17 38 36
17 39 37
17 39 37
17 38 36
17 39 37
16 38 36
16 37 35
17 38 36
17 39 37
17 39 36
16 37 35
17 39 37
17 38 36
17 38 36
17 38 36
17 38 36
17 39 36
17 38 36
17 38 36
16 37 35
17 38 36
16 38 35
17 38 36
17 39 37
17 39 37
17 38 36
17 39 37
16 38 36
17 39 37
17 39 37
17 40 38
17 38 36
17 39 36
17 39 37
17 39 37
17 39 37
17 39 37
17 39 37
17 39 37
17 39 37
17 38 36
17 39 37
17 38 36
17 39 37
17 39 37
17 39 37
16 38 35
17 38 36
17 38 36
17 39 37
17 39 36
17 39 37
17 38 36
17 38 36
17 39 37
17 40 38
17 39 37
17 39 37
17 39 37
17 39 37
17 38 36
17 38 36
16 38 36
17 39 37
17 39 37
17 39 37
17 39 37
17 38 36
17 38 36
17 40 37
17 40 38
17 39 36
17 39 37
17 39 37
17 39 37
16 38 36
17 39 37
17 39 37
17 39 37
17 38 36
17 39 37
17 39 37
17 39 37
17 38 36
17 39 37
17 38 36
17 39 36
17 38 36
17 38 36
17 39 36
17 39 36
17 39 36
17 38 36
17 38 36
17 39 37
17 39 37
17 38 36
17 39 37
17 39 37
16 38 36
17 39 37
17 38 36
17 38 36
17 39 37
16 37 35
17 39 37
17 38 36
17 39 37
17 38 36
17 38 36
17 38 36
17 38 36
17 38 36
17 39 37
17 40 38
17 39 36
17 38 36
17 38 36
17 39 37
17 39 37
17 39 37
17 38 36
17 39 37
17 39 37
17 38 36
17 39 37
17 39 37
17 39 37
17 39 37
17 39 37
17 38 36
16 38 36
17 39 36
17 39 37
17 38 36
17 39 37
17 38 36
17 38 36
17 38 36
17 38 36
17 39 36
16 38 35
17 38 36
17 39 37
17 39 36
17 39 37
17 40 37
17 38 36
17 38 36
17 39 37
17 38 36
17 39 37
17 39 37
17 39 37
17 39 37
17 39 36
17 38 36
17 39 36
17 40 37
17 38 36
17 38 36
17 38 36
17 39 36
17 38 36
17 39 37
17 39 37
17 40 37
17 39 37
17 38 36
17 38 36
17 39 36
17 40 37
17 38 36
17 39 37
17 38 36
17 39 37
17 39 37
17 38 36
17 39 37
17 38 36
17 39 37
17 39 37
17 39 37
17 39 37
17 39 37
17 39 37
17 40 38
17 39 37
17 38 36
17 38 36
17 39 36
17 39 37
17 38 36
17 40 37
17 40 37
17 39 37
17 40 38
17 39 37
17 38 36
17 39 37
17 39 37
17 38 36
17 39 37
16 38 36
17 39 37
18 40 38
17 39 37
17 39 36
17 39 37
17 39 37
17 39 37
17 39 37
17 39 37
17 38 36
17 38 36
17 40 37
17 39 37
17 39 37
17 39 37
17 39 37
17 39 37
17 39 37
17 40 37
17 39 37
16 38 36
17 40 37
17 39 37
17 39 36
17 40 37
17 38 36
17 38 36
17 39 36
17 39 37
17 39 36
17 39 36
18 40 38
17 39 37
17 39 37
17 38 36
17 38 36
17 38 36
17 39 37
17 38 36
17 39 37
17 39 37
17 40 37
17 39 37
17 39 37
17 39 37
17 39 37
17 39 37
17 38 36
17 39 36
17 39 37
17 39 37
17 39 37
17 39 37
17 38 36
17 39 37
17 39 36
17 39 37
17 39 37
17 38 36
17 39 37
17 39 37
17 39 37
17 38 36
17 39 37
17 39 37
17 40 37
17 38 36
17 39 37
17 39 37
18 40 38
17 39 37
17 38 36
17 39 37
17 39 37
17 39 37
17 39 37
17 38 36
17 40 37
17 39 37
17 39 37
17 38 36
17 39 37
17 40 37
17 40 37
17 39 37
18 40 38
17 39 37
17 40 37
17 39 37
17 39 37
17 39 37
17 39 37
17 40 38
17 39 37
17 40 37
17 39 37
17 38 36
17 39 37
17 39 37
18 40 38
17 39 37
17 39 36
17 39 37
17 39 37
17 40 37
17 39 37
17 39 37
17 39 37
17 39 37
17 39 37
17 38 36
17 40 37
17 39 37
17 39 37
17 39 37
17 38 36
17 39 37
17 38 36
17 40 37
17 40 37
17 39 37
17 39 37
17 39 37
17 40 37
17 39 37
17 39 37
17 39 37
17 38 36
17 40 38
17 40 38
17 38 36
17 39 37
17 38 36
16 38 35
17 39 37
17 40 37
17 39 37
17 39 37
17 39 37
17 39 37
18 40 38
17 39 36
17 39 37
17 38 36
17 39 37
17 39 37
17 39 37
17 40 37
17 40 37
17 39 37
17 39 37
17 39 37
17 39 36
17 39 37
17 39 37
17 39 37
17 39 37
17 38 36
17 39 37
17 39 37
17 39 36
17 38 36
17 38 36
18 41 38
17 38 36
17 39 36
17 39 36
17 38 36
17 40 38
17 39 37
17 40 37
16 38 36
17 39 37
17 39 37
17 39 36
17 39 36
17 39 37
17 38 36
17 40 37
17 39 37
18 40 38
17 39 37
17 39 37
17 39 37
17 39 37
16 38 36
17 39 37
17 39 36
18 40 38
17 39 37
18 40 38
17 38 36
17 40 38
17 39 37
17 39 36
18 40 38
17 39 37
17 39 37
17 39 37
17 39 37
17 40 37
17 39 37
17 39 36
17 39 37
17 39 37
17 39 37
17 39 37
18 40 38
18 40 38
17 39 37
17 39 37
18 40 38
17 39 37
17 39 37
17 40 37
17 39 37
17 39 37
18 40 38
17 40 37
17 40 37
17 39 37
17 39 37
17 38 36
17 39 37
17 38 36
17 39 37
18 41 38
17 39 37
17 39 37
17 39 37
17 39 37
17 39 36
17 39 37
17 38 36
17 40 38
17 39 37
17 39 37
17 39 37
17 38 36
17 40 37
17 39 36
17 39 37
17 40 37
17 40 38
17 40 37
17 39 37
17 39 37
17 39 37
17 40 38
17 39 37
17 40 37
18 40 38
17 39 36
17 39 37
17 39 37
17 39 37
17 39 37
17 39 37
17 39 36
17 39 37
17 38 36
17 39 37
17 39 37
17 40 37
17 38 36
17 38 36
17 39 37
17 39 37
17 39 37
17 39 37
17 40 38
17 39 37
17 38 36
17 40 38
17 39 37
17 40 37
17 38 36
17 39 36
17 39 36
17 39 37
17 38 36
17 39 37
17 38 36
17 39 37
17 38 36
17 39 36
17 38 36
17 39 37
17 40 37
17 39 37
16 38 36
17 38 36
17 39 37
18 40 38
17 39 37
17 40 37
17 39 37
17 38 36
17 38 36
17 39 37
17 39 37
17 40 37
17 39 37
17 39 37
17 39 37
17 39 37
17 39 37
17 39 37
17 40 38
17 39 37
17 39 37
17 39 37
18 40 38
17 39 37
17 39 37
17 40 37
17 39 37
17 39 37
17 40 37
17 39 37
17 38 36
18 40 38
17 39 37
17 39 37
18 41 38
17 39 37
17 39 37
17 40 37
17 39 37
17 39 37
17 39 37
17 40 37
17 39 36
17 40 37
17 39 36
18 40 38
17 39 37
17 39 37
17 38 36
17 39 36
17 38 36
17 40 37
17 39 37
18 40 38
17 40 37
17 40 37
17 39 37
17 39 37
17 40 37
17 39 37
17 38 36
17 40 37
17 40 37
17 39 37
18 40 38
17 39 37
18 40 38
17 39 37
17 40 37
17 40 37
17 39 37
17 39 37
17 39 37
17 39 36
17 40 37
18 40 38
17 39 37
17 39 36
17 39 37
17 38 36
17 39 36
17 39 37
17 39 37
18 40 38
17 38 36
17 39 37
17 39 37
18 40 38
17 39 37
17 39 37
17 39 37
17 39 37
17 39 37
17 40 37
17 40 37
17 39 37
17 39 37
17 39 37
17 39 36
17 39 36
17 40 37
17 40 37
18 40 38
17 39 37
17 39 36
17 39 37
17 39 37
17 39 37
17 38 36
17 39 36
17 39 37
18 40 38
17 39 37
18 40 38
17 39 37
18 40 38
17 38 36
17 39 37
17 39 36
17 39 37
17 39 37
17 39 37
17 40 38
17 39 37
18 40 38
17 39 37
17 39 36
17 39 37
17 39 37
17 39 37
17 38 36
17 40 37
17 39 37
18 40 38
17 39 36
17 40 37
18 40 38
17 40 37
17 39 37
18 40 38
17 40 37
17 40 38
17 40 37
18 40 38
17 40 37
17 39 37
17 40 37
17 40 37
18 40 37
17 40 37
17 40 37
17 39 37
17 39 37
17 39 37
17 40 37
17 39 37
17 39 37
17 38 36
17 39 37
18 40 38
17 40 37
18 40 38
17 39 37
18 41 38
17 40 37
17 39 37
17 40 37
17 39 37
18 40 38
18 40 38
17 40 37
18 40 38
18 40 38
17 39 37
17 39 37
17 39 36
17 39 37
17 39 37
17 40 37
18 41 38
17 40 37
17 39 37
18 40 38
17 39 36
18 40 38
17 40 37
17 39 37
17 40 37
17 39 37
18 40 38
17 39 37
18 40 38
17 39 37
17 39 37
17 39 37
18 40 38
17 39 37
18 40 38
17 39 36
17 40 37
18 40 38
17 39 37
17 39 37
18 40 38
17 39 37
17 39 37
17 40 37
17 39 37
17 39 37
17 40 37
18 41 38
17 40 37
18 40 38
17 40 37
17 39 37
18 40 37
17 39 37
17 38 36
17 39 37
18 40 38
17 40 38
17 39 36
17 40 37
17 40 37
17 39 37
17 39 37
18 40 38
17 40 38
17 39 37
17 39 37
17 39 37
17 40 37
17 39 37
17 38 36
17 40 38
17 39 37
17 40 37
17 39 36
17 39 36
17 39 37
18 40 38
17 39 36
17 39 37
17 38 36
17 38 36
17 39 37
17 39 37
17 39 37
17 40 37
17 39 37
18 41 38
18 41 38
17 40 37
18 40 38
17 39 37
17 39 37
17 39 36
18 40 38
18 40 38
17 40 37
17 39 37
18 40 37
17 39 37
18 40 38
17 40 37
17 40 37
17 40 37
17 39 37
18 40 38
18 40 37
17 39 37
18 40 38
18 40 38
17 40 37
18 40 37
17 40 37
17 40 37
18 40 38
17 40 37
18 40 38
17 40 37
17 40 37
18 41 38
17 38 36
18 40 38
17 40 37
18 40 38
17 40 38
17 39 37
17 39 37
17 40 37
17 39 37
18 41 38
18 40 38
18 41 38
18 40 37
18 40 38
17 39 37
17 40 37
18 40 38
17 39 37
18 41 38
17 39 37
17 39 37
17 40 37
17 40 37
17 39 37
17 39 37
17 40 37
17 39 37
17 40 37
17 39 37
17 40 37
18 40 37
17 39 37
17 39 36
17 40 37
18 41 38
17 39 37
17 40 37
17 39 37
17 39 37
17 40 37
18 40 37
17 39 37
17 39 36
17 40 37
17 39 37
17 39 37
18 40 38
17 40 37
18 40 38
18 41 38
18 41 38
17 39 37
18 40 38
18 40 38
17 39 37
18 40 38
18 40 37
17 40 37
17 40 37
17 40 37
17 39 37
18 40 38
17 39 37
17 39 37
17 39 36
17 40 37
17 40 37
18 40 38
17 40 37
17 40 37
17 39 37
17 39 36
17 39 36
17 38 36
17 40 37
18 40 38
17 39 36
17 39 37
17 39 37
18 40 38
17 39 37
17 39 37
17 39 37
17 40 37
17 39 37
17 39 36
17 40 37
17 40 37
18 40 38
18 40 38
17 40 37
18 41 38
18 41 38
18 40 38
17 39 37
17 40 37
18 40 37
17 39 36
18 41 39
18 40 38
17 40 37
18 41 38
17 40 37
18 40 38
17 40 38
18 40 38
18 40 38
17 39 37
18 40 38
17 40 37
17 39 37
18 40 37
18 41 38
17 40 37
17 40 37
18 40 38
18 40 37
18 40 38
18 40 37
18 40 38
18 40 38
18 40 38
18 41 38
18 40 38
17 40 37
18 41 38
18 41 38
17 40 37
17 39 37
18 41 38
18 40 38
17 39 37
18 40 38
17 39 36
18 41 38
17 39 37
17 39 37
17 39 37
17 39 37
18 40 38
17 39 37
17 40 37
18 41 38
18 40 37
17 39 37
18 40 37
18 40 37
18 40 37
18 41 39
18 41 39
17 40 37
17 39 37
18 40 38
18 40 38
17 40 37
18 40 38
17 39 36
18 40 38
17 40 37
18 40 38
17 39 37
17 39 37
18 41 38
18 40 38
18 40 38
17 39 37
18 40 38
17 40 37
18 40 38
18 42 39
18 40 37
17 39 37
18 40 38
18 41 39
18 40 38
18 41 38
17 39 37
18 41 38
17 40 37
18 40 38
17 39 37
17 39 37
18 40 37
17 40 37
18 40 38
17 39 37
17 39 37
17 39 36
18 40 38
18 41 38
17 39 37
18 40 38
17 39 37
18 40 37
18 40 38
18 40 38
18 40 38
18 40 38
17 39 37
17 39 37
17 39 37
17 39 36
18 40 38
17 39 37
16 37 35
18 40 38
17 39 37
18 41 38
18 40 38
18 40 37
18 41 38
18 40 38
18 40 38
18 41 38
18 40 38
18 40 38
18 40 38
18 40 38
17 40 37
17 39 37
17 39 37
18 40 38
18 40 37
18 41 38
18 40 38
17 39 37
17 40 37
17 40 37
17 39 37
18 40 37
18 40 37
18 40 37
18 40 38
17 39 37
17 39 37
18 40 38
18 40 38
18 41 38
17 40 37
18 40 38
17 39 37
18 40 37
17 40 37
18 40 37
18 40 37
17 39 37
18 40 37
17 40 37
18 41 38
17 40 37
18 41 39
18 40 38
17 40 37
18 40 38
17 39 37
18 40 38
17 39 37
18 40 37
18 40 38
18 40 38
18 40 38
18 40 38
18 41 38
18 40 37
18 41 38
18 40 38
18 41 38
18 40 38
18 40 38
17 40 37
18 40 38
18 40 38
18 40 38
18 41 38
18 40 37
18 40 38
18 41 38
17 39 37
17 40 37
18 40 38
18 40 38
17 39 37
17 40 37
18 41 38
18 40 38
17 39 37
18 41 38
18 40 38
18 40 37
18 40 38
18 40 38
18 40 37
18 41 38
18 40 38
18 40 38
17 40 37
17 39 37
18 40 38
18 40 38
17 39 37
18 41 39
18 40 37
17 40 37
18 40 38
18 41 39
18 40 38
18 40 37
18 40 38
18 40 38
18 40 38
18 40 38
17 40 37
17 40 37
18 41 38
17 39 37
18 41 38
18 40 37
17 40 37
18 40 37
18 40 38
17 39 37
17 40 37
18 40 38
17 39 37
17 39 37
17 40 37
17 39 37
18 40 37
18 40 38
18 41 38
18 40 38
18 40 38
18 41 39
18 41 38
18 40 38
18 41 38
18 40 38
17 39 37
18 41 38
18 40 38
18 41 38
18 41 38
18 40 37
18 40 38
18 41 38
18 41 38
18 41 38
18 41 38
17 39 37
18 41 38
18 40 38
18 41 38
17 40 37
18 41 38
18 40 38
18 41 38
18 40 38
18 41 39
18 41 38
18 40 38
18 40 38
18 41 39
17 40 37
18 41 38
18 40 37
18 40 38
18 41 38
18 40 38
18 40 37
18 40 38
18 40 37
18 40 38
17 40 37
18 40 37
18 41 38
18 41 38
17 39 37
18 40 37
18 41 38
18 40 37
18 40 37
18 42 39
18 40 38
18 40 37
17 39 37
18 42 39
18 40 37
18 41 38
18 40 38
17 39 37
18 40 37
17 40 37
18 40 37
17 40 37
18 40 38
18 40 38
18 40 38
18 41 38
18 41 38
18 40 38
18 41 38
18 41 38
17 40 37
18 41 38
18 40 38
18 41 38
18 41 38
17 40 37
18 40 37
18 40 38
18 40 38
17 39 37
18 40 37
18 40 38
18 40 38
18 40 37
18 40 37
18 40 38
18 41 38
17 39 37
18 40 37
18 41 38
18 41 38
18 41 38
18 40 38
18 41 39
17 40 37
18 40 38
18 40 38
17 39 37
18 40 38
17 40 37
18 40 38
18 40 37
18 40 38
18 41 39
18 40 38
18 40 38
18 40 38
18 40 38
17 39 37
17 39 37
18 40 38
18 40 38
17 39 36
18 41 38
18 40 38
18 40 37
18 40 38
18 40 37
18 41 38
18 40 37
18 41 38
18 40 38
18 42 39
18 40 38
17 40 37
18 41 38
18 40 38
18 40 38
18 40 38
18 41 38
17 40 37
18 40 38
17 40 37
17 40 37
18 40 37
18 41 38
18 41 39
18 41 38
18 41 38
18 41 38
18 40 37
18 40 38
18 40 38
18 42 39
18 41 38
18 40 37
18 40 37
18 40 37
18 41 38
18 40 38
18 40 37
18 40 38
18 41 39
18 41 38
18 41 38
18 40 37
18 41 38
18 41 38
18 41 39
18 40 38
18 40 37
18 41 39
18 41 38
18 40 38
18 41 38
18 41 38
18 41 38
18 41 38
18 41 38
18 40 37
18 41 38
18 41 39
18 41 38
18 41 38
18 41 39
18 41 38
18 40 38
18 41 38
18 40 37
18 40 38
18 40 37
18 40 37
18 40 37
18 41 38
18 40 38
18 41 38
18 40 38
18 40 37
18 41 38
18 40 38
18 41 38
18 40 38
17 40 37
17 39 37
18 40 37
18 40 38
18 40 38
18 40 38
17 40 37
18 40 37
18 40 38
17 39 37
18 40 38
18 40 38
17 39 37
18 40 38
18 40 38
17 39 37
18 40 37
18 40 38
18 40 38
17 39 37
17 40 37
18 40 38
18 40 37
18 41 38
18 40 37
18 40 37
18 40 37
18 40 38
18 40 38
17 40 37
18 40 38
18 40 37
17 40 37
17 39 37
18 40 37
18 41 38
18 40 37
17 40 37
18 41 38
18 41 39
17 39 36
17 39 37
18 41 38
18 41 38
18 41 38
18 40 38
18 41 38
18 40 38
18 41 38
18 40 38
18 42 39
18 41 38
18 40 38
18 40 38
18 40 37
18 41 38
18 41 38
18 41 39
18 41 38
18 40 38
18 42 39
18 40 37
18 41 38
18 41 38
18 41 38
18 41 38
18 40 37
18 40 38
18 42 39
18 40 38
18 41 38
17 40 37
18 40 38
18 40 38
18 41 39
18 41 38
18 42 39
18 42 39
18 42 39
18 40 37
18 40 38
18 41 38
18 41 38
18 41 38
18 40 38
18 41 39
18 41 39
18 41 38
18 41 38
17 39 37
18 40 37
18 41 38
18 41 38
18 40 38
18 40 37
18 40 38
18 42 39
18 41 39
18 41 38
18 41 38
18 41 38
17 39 37
18 41 38
18 40 38
18 40 37
18 40 38
18 40 38
18 41 39
19 42 39
18 41 38
18 41 38
18 40 38
18 41 38
18 41 38
18 41 38
18 41 38
18 40 38
18 41 38
18 40 38
18 41 38
17 39 37
18 41 38
18 41 38
18 41 38
18 41 39
18 41 38
18 41 38
18 41 39
18 42 39
18 40 38
18 41 38
18 41 38
18 41 38
18 41 39
18 42 39
18 40 38
18 40 37
18 40 38
18 41 38
18 41 38
18 40 38
18 40 37
18 41 38
18 41 38
18 41 38
18 40 38
18 41 38
18 41 38
18 41 38
18 41 39
18 41 38
18 40 38
18 41 38
18 40 37
18 40 38
18 41 38
18 41 39
18 40 38
18 40 38
18 41 38
18 40 38
18 41 38
18 40 38
18 41 38
18 41 38
18 40 37
18 41 38
18 41 39
18 41 38
18 42 39
18 41 38
18 41 38
18 40 38
18 41 38
18 40 38
18 41 38
18 40 37
18 40 38
18 41 38
18 42 39
18 40 38
18 40 38
18 41 38
18 41 39
18 41 39
18 40 37
18 41 38
18 41 39
18 41 39
18 41 38
18 40 37
18 40 38
18 42 39
18 40 38
18 40 38
18 41 38
18 41 39
18 41 38
18 40 37
18 41 38
19 42 39
18 40 38
18 41 39
18 41 38
18 41 38
18 42 39
18 41 38
18 40 38
18 40 38
18 42 39
18 41 38
18 41 39
18 41 39
18 41 38
18 41 38
18 41 38
18 41 38
18 41 38
18 42 39
18 41 39
18 41 38
18 40 38
18 40 38
18 40 38
18 41 38
18 40 38
18 41 38
18 40 38
18 40 38
18 41 38
18 41 38
17 40 37
18 41 38
18 41 39
18 41 38
18 40 37
18 40 38
18 42 39
18 41 38
18 41 38
18 40 38
18 41 38
18 41 39
18 40 38
18 41 38
18 41 38
18 40 37
18 41 38
18 41 38
18 41 38
18 41 38
18 41 38
18 41 39
18 42 39
18 40 38
18 41 38
18 41 38
18 41 39
17 40 37
18 42 39
18 41 38
18 41 38
18 41 38
18 40 37
18 41 39
18 41 38
18 41 38
18 40 38
18 41 39
18 40 37
18 40 38
18 41 38
18 41 39
18 41 38
18 40 38
18 41 39
18 41 39
18 40 38
18 41 38
18 41 39
18 40 37
17 40 37
18 41 38
18 41 38
18 41 39
18 41 39
18 41 38
18 42 39
18 40 38
19 42 39
18 41 38
18 41 38
18 40 38
18 41 38
18 41 38
18 40 38
18 40 38
18 41 38
18 41 38
18 41 38
19 42 39
18 41 38
18 40 38
18 41 39
18 41 38
18 41 38
18 41 38
18 41 39
18 40 38
18 41 38
18 41 38
18 41 38
18 41 39
18 40 37
18 41 39
18 42 39
18 41 38
18 41 38
18 42 39
18 41 38
19 42 39
18 41 38
18 41 39
19 42 39
18 41 38
18 41 38
18 41 38
19 42 39
18 41 39
19 42 39
18 42 39
18 40 37
18 41 38
18 41 38
18 41 38
18 41 39
18 41 39
18 41 38
18 40 38
19 42 40
18 41 39
18 42 39
18 41 38
18 41 39
18 42 39
18 41 38
18 40 37
18 41 38
18 41 38
18 41 38
18 40 38
18 41 38
19 42 39
18 41 38
18 42 39
18 41 38
18 42 39
18 40 37
18 42 39
18 41 38
18 41 38
18 41 38
18 41 38
18 41 38
18 40 38
18 41 38
18 40 38
18 42 39
18 41 39
18 41 38
18 40 37
18 40 37
18 41 39
18 40 37
18 40 38
18 41 38
18 41 38
18 41 38
18 41 39
18 41 39
18 40 38
18 40 38
18 41 39
18 41 38
18 41 38
18 40 37
18 42 39
18 41 38
18 41 38
18 40 37
18 40 38
18 41 38
18 41 38
18 42 39
18 41 38
18 40 38
18 40 38
17 40 37
18 41 38
17 39 37
18 40 37
18 41 38
17 40 37
18 41 38
18 41 39
18 41 39
19 42 39
18 41 38
18 41 38
18 41 38
19 42 39
19 42 39
19 42 39
18 41 38
18 41 39
18 41 38
19 42 39
18 41 39
18 41 38
18 41 38
18 41 39
18 42 39
18 41 38
18 41 39
18 41 38
18 41 38
18 40 38
18 41 38
18 41 38
19 42 39
19 42 40
18 41 39
18 41 38
18 41 39
18 41 38
18 41 38
18 41 38
18 42 39
18 41 38
18 41 38
18 42 39
18 41 38
19 42 39
18 41 38
18 41 38
18 41 38
18 42 39
18 41 38
18 42 39
18 42 39
18 41 39
18 41 39
18 41 38
18 41 38
18 41 38
18 41 38
19 42 39
18 41 38
18 41 38
19 42 39
18 42 39
18 41 38
18 41 38
19 42 39
19 42 39
19 42 39
18 41 39
18 42 39
18 41 38
18 41 38
18 41 38
19 42 39
18 41 38
18 42 39
18 41 39
18 42 39
18 41 38
18 41 38
18 42 39
18 42 39
18 41 38
18 41 38
18 42 39
18 41 38
19 42 39
18 41 38
18 42 39
18 41 39
18 41 38
18 41 39
18 41 38
18 41 38
18 42 39
18 40 37
18 40 38
18 41 38
18 40 38
18 41 38
18 40 38
18 41 38
18 41 38
18 41 39
18 41 38
17 39 37
18 41 38
18 42 39
18 41 38
18 41 38
18 41 38
18 41 39
18 41 38
18 41 39
18 42 39
18 42 39
18 41 39
18 41 38
18 40 38
18 41 38
18 41 38
18 40 38
19 42 39
18 40 37
18 40 37
18 41 38
19 42 39
18 41 38
18 41 38
19 42 39
18 41 38
18 42 39
19 42 39
18 42 39
18 41 39
19 42 39
19 42 39
18 41 39
18 41 38
18 41 39
18 41 39
19 42 39
19 42 39
18 41 38
19 42 39
18 41 39
18 40 38
18 41 39
18 42 39
18 42 39
18 41 38
18 42 39
19 42 39
18 41 38
18 41 38
19 42 39
18 41 38
18 41 38
18 42 39
18 40 37
18 41 38
19 42 39
18 41 38
18 41 38
18 41 38
18 42 39
18 42 39
19 42 39
18 41 38
18 41 38
19 42 39
19 43 40
18 41 38
18 41 39
19 42 39
19 43 40
18 42 39
19 42 40
18 41 38
18 42 39
18 41 38
18 41 38
18 41 39
18 40 38
18 41 38
18 41 38
18 41 38
19 43 39
18 41 38
19 42 39
18 41 38
18 41 38
18 41 38
18 42 39
18 42 39
18 41 38
18 40 38
18 41 38
19 42 39
18 41 38
18 41 38
18 41 39
19 42 39
18 40 38
18 41 38
18 41 38
18 41 38
18 42 39
18 41 38
18 40 38
18 41 38
18 41 39
18 41 38
18 41 38
18 41 38
18 41 38
18 41 38
18 41 38
18 40 38
18 41 38
19 42 39
18 41 38
18 40 38
18 41 38
18 41 38
19 42 39
18 41 38
18 41 39
19 42 39
18 41 39
18 41 38
18 41 38
18 42 39
18 41 38
18 41 38
18 41 38
18 40 38
18 41 38
18 41 39
18 41 38
18 41 38
18 41 38
18 41 38
18 41 39
18 41 39
18 41 39
19 42 39
19 42 39
18 41 38
19 42 39
19 43 40
18 42 39
19 42 39
18 41 38
18 41 38
18 41 38
19 42 39
18 41 39
19 42 39
19 42 39
18 42 39
18 41 39
19 42 39
18 41 38
18 41 38
18 41 38
19 42 40
18 41 38
18 41 38
19 43 40
18 41 38
18 41 38
19 42 39
19 42 39
19 42 39
19 42 39
18 41 38
19 43 40
18 41 38
19 42 39
18 41 38
19 42 39
18 41 39
18 42 39
18 41 38
19 42 39
18 42 39
19 42 39
18 41 39
19 42 39
18 41 38
19 43 40
19 43 40
18 41 38
19 42 39
19 42 40
19 42 39
19 42 39
19 43 40
19 42 39
18 41 38
19 42 39
18 42 39
18 41 38
19 42 39
18 42 39
18 41 38
18 41 38
19 42 39
19 42 39
19 42 39
18 41 38
18 41 38
18 41 39
18 41 38
18 42 39
18 41 38
18 42 39
18 41 38
19 42 39
18 42 39
18 41 38
19 42 39
19 42 39
18 41 38
19 42 39
19 42 39
19 42 39
18 41 39
19 42 39
18 41 38
18 41 38
18 41 38
18 41 38
18 41 38
18 41 39
18 40 37
18 41 39
18 42 39
18 41 38
18 41 39
18 41 39
18 41 38
18 42 39
18 41 39
18 41 39
19 42 39
18 41 39
18 41 38
18 41 38
18 42 39
18 41 39
18 42 39
18 41 38
18 42 39
19 42 39
19 42 39
18 41 38
18 41 38
18 41 38
18 41 39
18 41 38
18 41 38
18 40 38
18 41 38
19 42 39
19 42 39
19 43 40
18 41 38
19 42 39
18 42 39
19 42 39
18 41 38
19 42 39
19 43 40
19 42 39
19 43 40
18 41 38
18 41 39
19 42 39
19 42 39
19 43 40
18 41 39
19 43 40
18 41 39
18 41 39
19 42 39
19 43 40
18 42 39
19 42 39
19 42 39
19 43 40
19 42 39
19 42 39
19 43 39
19 42 39
19 42 39
19 42 39
18 41 38
19 42 39
18 41 38
19 42 39
18 42 39
19 43 40
19 42 39
19 42 39
18 41 38
19 42 39
19 42 39
18 42 39
19 43 40
18 41 38
18 41 38
18 41 38
19 42 39
19 43 40
19 42 39
19 43 40
19 42 39
18 41 38
19 42 39
19 42 39
19 42 39
19 43 40
19 42 39
19 42 39
19 42 39
19 42 39
19 43 40
18 41 38
19 42 39
19 42 39
19 42 39
19 43 40
18 42 39
18 41 39
19 42 39
19 42 39
19 43 40
18 42 39
19 42 39
18 41 38
18 42 39
19 42 39
19 42 39
19 42 39
18 42 39
18 41 38
19 43 40
18 41 38
18 41 38
18 41 39
19 42 39
18 41 38
18 41 38
19 42 39
19 42 39
18 41 38
19 42 39
18 41 38
18 41 39
18 42 39
18 41 38
18 41 38
18 41 38
19 42 39
18 41 38
19 42 39
18 41 39
18 41 38
19 42 39
18 41 39
18 42 39
18 41 38
18 41 39
18 42 39
18 41 39
18 42 39
18 41 39
18 41 38
18 40 37
18 41 38
19 42 39
18 41 38
19 42 39
19 42 39
19 42 39
19 42 39
19 43 40
18 42 38
18 42 39
19 43 40
19 42 39
18 41 38
18 42 39
19 42 39
19 42 39
19 43 40
19 42 39
19 43 40
19 42 39
19 42 39
19 42 39
18 41 39
18 41 38
19 42 39
19 42 39
19 42 39
19 42 39
19 43 40
18 41 38
18 40 37
19 43 40
19 42 39
19 42 39
19 42 39
19 43 40
18 41 38
19 42 39
19 43 40
19 43 40
19 42 39
19 42 39
19 42 39
19 43 40
19 42 39
18 41 38
19 42 39
18 41 39
18 41 39
19 42 39
19 42 39
19 42 39
19 43 40
18 42 39
19 42 39
19 42 39
19 42 39
19 42 39
19 42 39
19 42 39
18 42 39
19 42 39
19 42 39
19 42 39
18 41 38
19 42 39
18 42 39
19 42 39
19 42 39
18 41 38
19 43 40
19 42 39
19 42 39
18 41 38
19 42 39
19 43 40
18 41 38
19 42 39
19 42 39
18 41 38
18 41 38
19 42 39
19 42 39
19 42 39
18 41 38
19 42 39
19 43 40
19 42 39
19 42 40
18 41 38
19 43 40
19 42 39
19 43 40
19 42 39
19 42 39
19 42 39
18 42 39
18 42 39
19 42 39
18 41 38
19 42 40
18 40 38
18 42 39
19 42 39
19 43 40
19 42 39
19 42 39
18 41 39
18 42 39
18 42 39
19 42 39
19 42 39
18 41 38
18 41 39
18 41 38
19 42 40
19 42 39
19 42 39
18 41 38
18 41 38
19 42 39
19 42 39
19 42 39
18 41 38
19 43 40
19 42 39
19 43 40
19 43 40
19 43 40
19 42 39
19 42 39
18 41 39
19 42 39
19 42 39
19 42 39
19 42 39
19 42 39
19 42 39
19 42 39
19 42 39
19 42 39
19 42 39
19 42 39
19 42 39
19 42 39
18 42 39
18 41 38
18 42 39
18 41 38
19 42 39
19 42 39
19 42 39
19 42 39
19 42 39
19 42 39
19 42 39
19 43 40
19 42 39
18 41 38
19 42 39
19 42 39
19 42 39
19 42 39
19 42 39
19 42 39
19 42 39
19 43 40
19 42 39
19 42 39
19 43 40
19 43 40
18 42 39
19 43 40
19 43 39
18 41 39
19 42 39
18 41 38
19 42 39
19 42 39
19 42 39
19 42 39
19 43 40
19 42 39
18 41 38
19 42 39
19 42 39
19 42 39
18 42 38
18 41 38
19 42 39
20 44 41
19 43 40
19 43 40
19 42 39
18 42 39
19 42 39
18 42 39
19 42 39
19 43 40
18 41 38
18 42 39
19 42 39
18 41 38
19 42 39
19 43 40
19 42 39
19 42 39
18 41 38
18 41 38
19 42 39
19 42 39
19 42 39
18 42 39
19 42 39
19 42 39
19 43 40
18 41 38
19 42 39
18 41 38
19 43 40
19 42 39
19 43 40
19 42 39
19 42 39
18 41 38
18 41 38
19 42 39
18 40 38
18 41 38
18 42 39
19 42 39
18 41 38
19 42 39
19 42 39
19 42 39
19 42 39
18 42 39
19 42 39
19 42 39
18 41 38
18 42 39
19 43 40
18 42 39
18 41 38
19 43 40
19 43 40
18 42 39
19 42 39
19 43 40
19 42 39
19 42 39
18 41 38
19 42 39
19 43 40
19 42 39
19 42 39
19 42 39
18 41 38
19 42 39
19 43 40
19 42 39
19 43 40
19 42 39
19 42 39
19 42 39
19 42 39
19 42 39
19 42 39
19 42 39
19 42 39
19 42 39
19 43 40
19 43 39
19 43 40
18 41 38
19 43 40
18 42 39
19 42 39
19 42 39
19 43 40
19 42 39
19 42 39
19 42 39
19 42 39
19 43 40
19 42 39
19 42 39
19 42 39
19 42 39
19 43 40
19 43 40
19 42 39
19 42 39
19 43 39
19 43 40
19 44 40
19 43 40
19 43 39
19 43 40
19 43 39
19 43 40
19 42 39
19 43 40
19 42 39
19 43 39
19 42 39
18 42 39
19 43 40
19 43 40
18 42 38
19 43 40
19 43 40
19 42 39
19 42 39
19 42 39
19 43 40
18 41 38
19 42 39
19 43 40
18 41 38
18 41 38
19 42 39
19 42 39
19 43 40
19 43 40
18 41 38
19 42 39
19 43 40
18 41 38
19 42 39
19 42 39
19 43 40
19 42 39
18 41 38
19 42 39
19 42 39
19 43 39
19 42 39
19 42 39
19 42 39
19 42 39
19 42 39
19 42 39
18 42 39
19 42 39
18 42 39
18 42 39
18 41 38
19 42 39
19 43 40
19 43 40
18 42 39
19 42 39
19 42 39
19 44 40
19 43 40
18 41 38
19 42 39
18 41 39
19 42 39
18 41 38
18 41 38
19 42 39
19 42 39
19 42 39
18 41 38
19 42 39
19 43 40
19 42 39
18 41 38
19 43 40
19 43 40
19 42 39
19 42 39
19 43 40
19 42 39
19 43 40
19 43 40
19 42 39
19 42 39
19 43 40
19 43 40
19 43 40
19 43 40
19 43 39
19 43 39
19 43 40
19 43 40
19 43 40
19 42 39
19 42 39
19 42 39
19 43 40
19 43 40
19 42 39
19 43 40
19 42 39
19 43 40
19 42 39
19 43 40
19 43 40
19 42 39
19 43 40
19 42 39
19 43 40
19 42 39
19 44 40
19 42 39
19 42 39
19 42 39
19 42 39
19 43 40
19 42 39
19 43 40
18 41 39
20 44 41
19 42 39
19 42 39
19 42 39
19 42 39
19 43 40
19 42 38
19 43 40
19 42 39
19 43 39
19 42 39
19 42 39
19 43 39
19 42 39
19 43 39
19 42 39
19 42 39
19 42 39
19 43 39
19 42 39
19 43 39
19 43 40
19 43 39
19 42 39
19 42 39
19 42 39
19 42 39
19 42 39
19 43 40
19 42 39
19 42 39
19 42 39
19 43 39
19 42 39
19 42 39
19 44 40
19 42 39
19 42 39
19 42 39
19 43 40
19 42 39
19 42 39
19 43 40
19 43 40
19 43 40
19 42 39
19 43 39
19 43 40
19 42 39
19 42 39
19 42 39
19 42 39
19 42 39
19 42 39
19 43 40
19 42 39
18 41 38
19 42 39
18 41 39
19 42 39
18 41 38
19 42 39
18 41 38
19 42 39
19 43 40
19 42 39
18 42 39
19 42 39
18 41 38
19 43 40
19 43 40
19 43 40
19 42 39
19 44 40
19 43 40
19 42 39
19 43 40
19 43 40
19 42 39
19 43 39
19 43 39
19 43 40
19 44 40
19 43 40
19 42 39
19 43 40
19 43 40
19 43 40
19 42 39
19 42 39
19 43 40
19 42 39
19 43 40
19 43 40
19 43 40
19 42 39
18 41 38
19 43 40
19 42 39
19 43 40
19 43 39
19 43 39
19 43 40
20 44 40
19 43 40
19 42 39
19 43 40
20 45 41
19 42 39
19 43 40
19 43 40
19 43 40
19 43 40
19 43 40
20 44 41
19 44 40
19 43 40
19 43 39
19 43 40
19 43 40
19 43 40
19 42 39
19 42 39
19 43 40
19 43 40
19 43 40
19 43 40
19 42 39
19 43 40
19 42 39
19 42 38
19 42 39
20 44 41
20 44 41
20 44 40
19 43 40
19 42 39
19 43 40
19 43 40
19 42 39
19 43 40
19 42 39
19 43 40
19 43 40
19 42 39
19 42 39
19 42 39
19 43 40
19 43 40
19 43 39
19 41 38
19 43 40
19 42 39
19 42 39
18 41 38
19 43 40
18 41 38
19 43 40
19 44 40
19 43 40
19 43 40
19 42 39
19 42 39
19 43 40
19 43 40
19 42 39
19 42 39
19 43 40
19 43 40
19 42 39
19 42 39
19 42 39
19 43 40
19 42 39
19 42 39
19 43 40
19 43 40
19 42 39
19 43 40
19 43 40
19 43 40
19 43 40
19 43 40
19 43 40
19 42 39
19 42 39
19 42 39
19 42 39
19 42 39
19 43 39
19 43 40
19 44 40
19 43 39
19 43 40
20 44 41
19 43 39
19 43 40
19 43 40
19 43 40
19 43 40
19 43 40
19 43 40
19 43 40
19 42 39
19 43 40
20 44 41
19 43 40
19 43 40
19 43 40
19 42 39
19 42 39
19 43 40
19 43 40
19 42 39
19 43 40
20 44 40
19 43 40
19 43 40
19 44 40
20 44 41
20 44 40
19 43 39
19 43 40
19 43 39
19 43 40
20 45 41
20 44 40
19 43 40
19 43 40
19 42 38
19 43 40
19 43 40
19 43 40
19 43 40
19 41 38
19 42 39
19 42 39
19 43 39
19 43 40
19 43 40
19 43 39
19 43 40
19 43 39
19 43 39
19 43 40
19 43 39
19 43 40
19 43 40
19 42 39
20 44 41
19 43 40
19 43 40
19 43 39
19 43 39
19 42 39
19 42 39
19 43 40
19 43 40
20 44 40
19 43 39
19 42 39
19 42 39
19 43 40
19 42 39
19 42 39
19 43 40
19 42 39
19 44 40
19 43 40
19 43 40
19 43 39
19 43 40
19 42 39
19 43 39
19 43 40
19 43 39
19 42 39
19 43 40
19 43 40
19 42 39
19 43 40
19 42 39
19 42 39
19 43 40
19 42 39
19 42 39
19 42 39
19 43 40
19 43 40
19 42 39
19 43 40
19 42 39
19 42 39
19 43 40
19 43 39
19 43 40
19 42 39
19 42 39
19 43 40
19 42 39
19 42 39
19 42 39
19 42 39
19 43 40
19 43 40
19 42 39
19 42 39
19 42 39
18 41 38
19 43 40
19 43 40
19 43 40
20 44 40
19 42 39
19 43 40
19 44 40
19 42 39
19 43 40
20 44 41
19 43 40
20 44 41
19 43 40
20 44 41
19 43 40
20 44 41
20 44 40
19 43 40
20 44 41
19 43 39
19 43 40
20 44 40
19 43 40
19 43 40
20 44 40
19 43 40
19 43 40
19 43 40
19 42 39
19 43 40
19 42 39
19 42 39
19 44 40
20 44 41
19 43 40
19 43 40
20 44 40
19 43 40
19 44 40
20 45 41
19 42 39
19 43 40
20 44 41
20 45 41
20 44 40
19 43 40
19 43 39
20 44 41
19 43 40
20 44 40
19 43 40
20 44 41
19 43 40
19 43 40
19 42 39
19 43 40
19 42 39
19 42 39
19 43 39
20 45 41
19 43 40
19 44 40
19 43 40
20 44 41
19 43 40
19 44 40
19 43 39
19 43 40
19 42 39
19 43 40
19 42 39
19 43 39
19 43 40
19 43 39
19 43 40
19 43 40
19 42 39
19 44 40
20 44 41
19 43 40
19 43 40
19 42 39
19 42 39
19 44 40
19 42 39
19 43 40
19 44 40
19 43 40
20 44 41
19 43 40
20 45 41
20 44 41
20 44 41
19 43 40
19 42 39
19 42 39
19 43 39
19 42 39
20 44 40
19 43 40
19 42 39
19 42 39
19 43 40
19 43 40
19 43 40
19 42 39
19 43 40
19 42 39
19 42 39
19 42 39
19 43 40
19 43 40
19 43 40
19 43 40
19 42 39
19 43 40
19 43 39
18 41 38
19 42 39
19 42 39
20 45 41
20 44 41
19 42 39
19 42 39
20 44 41
20 44 40
19 43 40
19 43 40
19 43 40
19 42 39
20 44 40
19 43 40
19 43 40
20 44 40
19 43 40
19 43 40
19 43 40
20 44 40
20 44 40
20 44 40
19 42 39
19 43 40
19 44 40
19 43 40
19 43 39
19 43 40
19 43 39
19 43 40
19 43 40
19 43 40
20 44 40
19 43 40
19 43 40
20 44 40
20 44 41
19 43 40
20 44 41
19 42 39
20 45 41
19 43 40
19 43 40
20 44 41
20 44 40
20 44 41
19 43 40
20 44 41
20 44 40
19 43 39
20 45 41
19 43 40
20 44 41
19 43 40
20 44 41
20 44 41
19 43 40
20 44 41
20 44 40
19 43 40
19 43 40
19 43 40
20 44 41
19 43 39
19 43 40
19 43 40
19 44 40
19 43 40
20 44 40
19 43 40
19 42 39
20 44 40
19 43 39
20 44 40
19 43 40
19 43 39
20 44 40
19 43 40
19 43 39
19 43 40
20 44 41
19 43 40
19 43 40
19 43 40
19 43 40
19 43 40
19 43 39
19 43 40
19 43 40
19 42 39
19 43 40
19 43 40
19 43 40
19 43 40
19 42 39
19 43 40
19 43 40
20 44 41
19 43 40
19 43 40
19 43 40
19 44 40
19 42 39
19 42 39
19 43 39
20 44 41
19 44 40
19 43 40
19 43 40
19 43 40
19 43 40
19 43 40
19 43 39
19 43 40
19 42 39
19 42 39
19 43 40
19 42 39
19 42 39
19 42 39
19 43 40
19 42 39
20 44 40
19 43 40
19 43 40
20 44 40
19 42 39
20 44 40
19 43 39
20 44 40
19 43 40
19 42 39
19 43 40
19 42 39
19 43 40
19 43 39
19 44 40
19 43 39
20 44 40
20 45 41
19 43 40
19 43 40
21 46 42
20 44 41
19 43 40
19 43 40
19 43 40
19 42 39
19 43 40
20 43 40
20 44 41
20 45 41
20 44 40
19 43 39
20 44 41
20 44 40
20 44 40
20 43 40
20 44 41
20 44 41
20 44 40
19 43 40
19 43 40
19 43 40
19 43 40
19 43 39
20 44 41
20 44 41
19 43 40
20 45 41
20 44 41
20 44 40
19 43 40
20 44 41
19 42 39
20 44 41
20 44 41
20 44 40
19 43 40
19 43 39
19 43 40
19 43 40
19 43 40
19 44 40
19 43 40
19 43 40
20 45 42
19 43 40
19 43 40
20 44 41
19 43 40
20 44 41
19 43 40
19 44 40
19 42 39
20 44 41
19 43 40
20 44 41
19 43 40
19 43 40
19 43 39
19 43 39
20 44 40
19 43 40
19 43 40
20 45 42
19 42 39
19 42 39
19 43 40
19 42 39
19 44 40
19 43 40
20 44 41
20 44 41
19 43 40
19 43 39
19 42 39
19 43 40
20 44 40
19 43 40
19 42 39
19 42 39
19 43 40
19 43 40
19 42 39
19 43 40
19 43 40
19 42 39
19 43 40
19 43 40
20 44 41
19 43 40
19 43 40
19 43 40
19 43 40
19 42 39
20 44 41
19 43 40
19 43 40
19 43 40
19 43 39
19 43 40
19 43 40
20 44 40
19 43 40
20 44 40
20 45 41
20 44 41
20 44 41
20 44 41
20 44 41
20 44 41
20 44 41
20 44 41
20 45 41
20 45 41
20 44 41
20 44 41
19 43 40
20 45 42
20 44 41
20 44 41
20 45 41
20 44 41
19 43 40
20 44 41
20 44 40
20 45 41
20 44 40
19 43 40
20 44 41
20 44 40
19 43 40
20 44 40
19 43 39
20 44 40
19 43 40
19 43 40
20 44 40
20 45 42
19 43 40
20 45 41
19 43 40
20 44 41
20 44 40
19 43 40
19 44 40
20 44 41
20 44 40
19 43 40
20 44 40
20 45 41
20 44 40
20 44 41
19 43 40
20 44 41
20 44 40
20 44 40
20 45 41
19 43 39
20 44 41
20 45 41
19 43 40
19 43 40
20 45 41
20 44 41
20 45 41
20 44 41
19 43 39
20 44 41
20 44 41
19 43 40
20 44 41
20 44 41
19 43 40
20 44 41
19 43 40
19 43 40
19 43 40
20 44 40
19 43 40
20 44 40
19 43 40
19 43 40
19 43 39
19 43 40
19 43 40
20 44 40
20 44 40
19 44 40
19 42 39
19 43 40
19 43 40
19 43 40
20 44 41
19 43 40
19 43 40
20 44 40
19 43 40
19 43 40
19 43 39
19 43 39
19 44 40
19 42 39
19 43 40
19 43 40
19 44 40
19 43 39
19 44 40
19 44 40
19 43 39
20 44 41
20 44 40
19 43 40
19 43 40
19 43 40
19 42 39
19 42 39
19 43 39
19 43 40
19 43 40
19 43 40
20 45 41
19 43 40
20 45 41
20 44 40
20 44 41
20 44 41
20 44 41
20 44 41
20 44 40
20 44 40
20 45 41
20 44 40
19 43 40
19 43 40
20 45 41
20 45 41
19 43 39
19 42 39
20 45 42
20 45 41
19 43 40
19 43 40
20 44 41
20 45 41
20 44 41
20 45 41
20 44 41
20 45 41
20 44 41
20 45 41
20 44 40
20 44 40
20 44 40
20 44 40
19 43 40
20 44 40
20 45 41
20 44 40
20 44 41
20 45 41
20 43 40
20 44 40
20 44 41
19 43 40
20 44 41
20 44 40
20 45 41
19 43 40
20 44 40
20 44 40
20 44 41
20 44 41
20 45 41
19 43 40
20 44 41
20 45 41
20 45 41
20 44 40
19 43 39
20 44 41
19 43 40
20 44 41
20 44 41
20 44 41
19 43 39
19 43 40
20 44 40
19 43 40
20 44 40
20 44 40
20 45 42
20 44 41
20 44 41
20 44 40
19 43 40
20 44 40
20 45 41
19 44 40
20 44 40
20 44 40
20 44 41
20 44 41
19 43 40
20 44 41
20 45 41
20 44 41
20 44 40
19 44 40
19 43 40
19 43 39
19 43 40
19 43 40
19 43 40
19 43 40
20 45 41
19 43 40
20 44 41
19 43 40
20 44 40
19 42 39
20 44 41
19 43 40
19 43 40
20 45 41
20 44 41
19 43 40
19 43 40
19 43 40
20 44 41
19 43 40
20 44 40
19 43 39
19 43 40
19 43 40
19 43 40
20 44 40
19 43 40
19 43 39
19 43 40
19 44 40
20 45 41
19 42 39
19 43 40
20 44 40
20 44 41
20 45 41
20 44 40
20 44 41
19 43 40
20 45 41
20 44 41
20 44 40
21 46 42
20 44 40
20 44 41
20 45 42
20 44 41
20 44 40
20 45 41
19 43 40
20 44 41
20 45 41
20 44 41
20 43 40
20 44 41
20 44 40
20 45 41
20 44 40
20 45 42
20 45 41
20 44 41
20 44 40
20 45 41
20 45 41
20 44 41
20 45 41
20 44 40
20 44 40
20 44 40
20 44 41
20 45 41
20 44 40
19 43 40
20 45 42
20 45 42
20 44 41
20 45 41
20 44 41
20 44 41
20 45 42
20 45 41
20 44 41
20 44 40
20 44 40
20 44 41
20 45 42
20 45 41
20 44 41
20 44 41
20 44 40
20 44 40
20 45 41
20 44 41
20 45 41
19 43 40
19 43 40
20 45 41
20 44 41
20 45 41
20 44 41
20 44 41
20 44 41
20 45 41
20 44 40
19 43 40
20 45 41
20 45 41
20 45 41
20 45 41
20 44 40
19 43 40
19 43 40
20 44 41
19 43 40
20 44 41
20 44 41
20 44 41
20 44 41
19 43 39
20 44 40
20 44 41
20 44 41
19 43 40
19 43 40
20 44 40
19 43 39
19 44 40
20 44 40
19 43 39
19 42 39
20 45 41
20 44 40
19 43 40
19 43 40
19 43 40
19 43 40
19 43 39
20 44 41
20 44 41
19 44 40
19 43 40
19 43 40
20 45 41
19 42 39
20 44 41
19 43 39
19 43 40
19 43 39
18 41 38
19 42 39
19 43 39
20 44 41
20 45 41
20 45 41
20 45 42
20 44 41
20 45 41
20 45 41
20 45 41
21 46 42
20 45 41
20 45 41
20 45 41
20 45 41
20 45 42
20 45 41
20 44 40
20 44 40
21 46 42
20 44 41
20 45 41
20 44 41
20 43 40
20 43 40
20 44 41
20 44 40
20 45 41
19 43 40
20 44 41
20 45 42
20 44 41
20 44 40
20 45 41
20 45 41
20 46 42
20 44 41
20 44 41
20 44 41
20 44 40
20 45 41
20 44 41
20 45 41
20 44 40
20 44 41
19 43 39
20 44 40
20 45 41
20 44 41
20 45 41
20 44 40
20 45 42
20 45 42
20 44 40
20 45 41
19 43 40
20 44 40
20 45 41
20 45 41
20 45 41
20 44 41
20 45 42
19 43 40
20 45 42
20 44 40
20 45 41
20 44 40
20 45 41
20 45 41
19 43 40
20 44 41
20 45 41
19 43 40
20 45 41
20 44 40
20 44 40
20 44 41
20 45 41
20 45 41
20 44 41
20 45 41
20 44 41
20 44 40
20 44 40
20 44 40
20 44 41
20 45 41
19 43 40
20 44 41
20 44 40
19 43 40
20 44 40
20 44 40
20 44 40
20 44 40
19 43 40
20 45 41
20 44 40
20 44 41
19 43 40
20 45 41
19 43 40
20 44 40
19 43 39
20 44 40
19 43 39
20 44 41
20 44 41
19 43 40
19 43 40
19 43 40
19 43 40
19 43 40
20 44 40
19 43 40
20 44 40
19 44 40
19 43 40
20 44 41
19 43 40
19 43 40
20 44 41
20 45 41
20 45 41
20 44 41
20 45 41
20 44 40
21 46 42
20 45 41
20 44 40
20 45 42
20 44 41
20 44 40
20 46 42
20 44 40
20 45 41
20 44 41
20 44 40
20 45 41
20 45 41
20 45 42
20 45 42
20 45 41
20 45 42
20 45 42
20 44 41
20 44 41
20 44 41
20 45 41
20 45 41
20 44 41
20 44 41
20 44 40
20 45 41
20 45 41
20 45 41
20 44 41
20 45 42
20 44 41
20 45 41
20 44 41
20 45 41
20 44 41
20 44 40
20 44 41
20 44 41
20 45 41
20 44 40
20 44 41
21 46 42
20 44 40
20 44 41
19 43 40
20 44 41
20 44 40
20 44 41
20 44 41
20 44 40
20 44 41
20 45 42
20 44 41
20 45 42
20 45 41
20 45 41
20 44 40
20 45 41
20 44 41
20 45 41
20 44 41
20 44 41
20 45 42
20 45 41
20 44 40
20 44 40
20 44 40
20 44 41
20 44 40
20 45 41
20 44 40
20 45 41
20 44 40
20 44 41
20 45 42
20 44 40
20 44 40
20 45 41
19 43 40
20 45 41
20 44 40
20 44 40
20 44 40
20 44 40
20 44 41
20 44 41
19 43 40
20 45 41
20 45 41
20 45 41
20 44 41
20 44 41
19 43 39
20 44 40
20 44 40
20 44 40
20 44 40
20 44 41
20 45 41
19 43 40
20 44 40
19 43 39
20 45 41
20 44 41
20 44 41
19 43 40
20 44 41
20 44 40
19 43 40
20 44 41
19 43 40
20 44 40
19 43 40
20 45 41
20 45 41
20 45 42
20 45 41
20 44 41
20 45 41
20 44 40
20 45 41
19 43 40
20 44 40
20 43 40
20 45 41
20 44 40
20 44 40
21 46 42
20 45 41
20 44 41
20 44 41
20 45 42
20 44 41
21 46 42
20 45 41
20 44 41
20 45 41
19 43 40
20 45 41
20 45 41
20 46 42
20 45 41
20 44 41
21 46 42
20 45 41
20 45 41
20 45 41
20 45 41
20 45 41
21 46 42
21 46 42
20 45 41
20 44 41
20 45 42
20 44 41
20 44 41
20 44 41
20 44 40
20 45 42
20 45 42
21 46 42
20 44 41
21 46 42
20 45 41
20 45 41
20 45 41
20 44 41
20 44 40
20 45 42
20 44 41
21 46 42
20 45 41
20 45 42
20 45 41
20 45 42
21 46 42
20 44 41
20 44 40
20 45 41
20 45 41
19 43 40
20 44 40
20 44 41
20 44 40
20 44 40
20 45 42
20 45 42
19 43 40
20 44 40
20 44 40
20 45 41
20 44 41
20 44 40
20 44 41
20 44 40
20 44 41
20 45 41
20 45 41
20 45 41
20 45 41
20 44 40
20 45 41
20 44 41
20 44 40
20 44 41
20 44 41
20 44 40
20 44 41
21 46 42
20 44 41
20 44 40
20 44 40
20 44 41
20 44 41
20 44 41
19 43 40
20 44 40
20 45 41
19 43 40
20 44 41
19 43 40
20 44 41
19 42 39
19 43 39
20 44 40
20 44 40
20 44 40
20 44 41
20 44 41
19 43 39
20 45 42
19 44 40
19 43 40
20 45 41
20 45 41
20 45 41
21 46 42
20 45 41
20 44 41
20 44 40
20 45 41
21 46 42
20 45 41
20 45 41
20 45 41
20 45 41
20 45 41
20 45 42
20 44 41
20 44 41
20 45 42
20 44 41
20 45 41
20 45 41
20 45 42
21 45 42
20 44 41
20 44 41
20 45 42
20 45 41
20 45 41
20 45 41
20 45 41
20 45 41
20 45 41
20 45 41
20 45 41
20 44 40
21 47 43
20 45 42
20 45 41
20 45 41
20 45 41
20 45 41
21 46 42
20 45 41
20 45 41
20 45 41
20 45 41
20 45 41
21 46 42
20 45 41
20 45 41
20 45 42
20 45 41
20 45 41
20 45 41
20 45 41
20 44 41
20 44 40
21 46 42
20 44 41
20 45 41
20 45 41
20 45 42
20 44 40
20 45 41
21 46 42
20 44 41
20 45 42
20 45 42
20 45 41
20 45 41
21 46 42
20 44 41
20 43 40
20 45 41
20 45 41
20 45 42
20 45 41
20 44 41
20 44 40
20 44 41
20 45 41
20 44 40
21 46 42
20 45 41
20 45 42
20 44 40
20 45 42
20 44 41
20 44 41
20 44 41
19 43 40
20 44 40
20 45 42
20 45 41
20 45 41
20 44 41
20 45 42
20 44 40
20 44 41
20 44 41
20 44 40
20 44 41
20 44 41
20 44 40
20 44 41
20 44 40
20 45 41
20 44 40
19 43 40
20 45 41
19 43 40
20 45 41
19 43 40
20 44 40
20 45 41
20 44 41
19 43 40
20 45 41
19 43 40
20 45 41
21 46 42
21 46 42
21 45 42
20 45 41
21 46 42
20 44 40
21 46 42
20 44 41
20 45 42
21 46 42
20 45 41
20 45 41
21 46 43
21 46 42
20 44 41
20 44 41
20 45 41
20 45 41
21 46 42
20 44 41
21 46 42
20 45 41
21 46 42
20 45 41
20 43 40
21 46 42
21 46 42
21 46 42
20 45 41
20 45 41
20 45 41
20 45 41
21 46 42
21 46 42
21 46 42
20 44 40
20 45 41
20 44 41
20 45 42
20 44 41
20 44 41
20 45 41
21 46 42
20 45 41
20 44 41
21 46 42
20 45 41
20 45 41
20 45 41
21 46 42
20 45 41
21 46 42
21 46 43
20 45 42
20 45 41
20 44 41
21 45 42
21 46 42
20 44 40
20 45 41
20 45 41
20 45 42
20 44 41
21 47 43
21 46 42
20 45 41
20 45 41
20 46 42
20 45 41
20 44 40
20 44 40
20 45 42
20 43 40
20 45 41
20 45 41
21 46 42
20 45 41
20 44 41
20 45 42
21 46 42
20 45 41
20 44 41
20 44 41
20 44 40
20 45 42
20 44 40
20 44 41
20 45 41
20 45 42
20 44 40
20 44 41
20 44 40
20 45 41
19 43 40
21 46 42
20 45 41
20 45 41
20 45 41
19 43 40
20 44 40
20 44 41
20 45 41
20 45 41
20 44 41
20 45 41
20 43 40
19 43 40
20 46 42
20 44 40
20 44 41
19 43 39
20 44 41
20 44 41
20 46 42
20 44 41
20 44 40
20 44 41
20 44 40
19 43 40
20 44 41
20 45 41
20 45 41
21 45 42
21 46 42
20 45 42
20 45 42
21 45 42
20 45 41
20 44 41
21 45 42
21 46 42
21 45 42
20 45 41
20 45 41
21 46 42
20 45 41
20 44 41
21 45 42
20 45 41
21 46 42
21 46 42
21 46 43
20 44 41
21 47 43
20 45 42
21 46 42
20 45 41
20 45 41
21 46 42
21 46 42
20 45 41
20 45 42
20 45 41
21 46 42
20 45 42
20 45 41
20 45 41
21 46 42
20 45 41
21 45 42
20 45 41
20 45 41
20 45 41
21 46 42
20 45 41
20 45 41
20 45 42
20 45 42
20 45 42
20 45 41
21 46 42
20 45 41
20 45 42
21 46 43
20 45 41
20 45 42
20 45 41
20 45 41
20 45 42
20 44 41
19 43 40
21 47 43
21 46 42
21 46 42
21 46 42
20 45 42
20 44 40
20 45 41
20 44 41
21 46 42
20 45 42
20 45 41
20 44 41
20 45 42
21 46 42
20 45 42
20 44 41
20 44 40
20 44 41
20 45 41
20 45 41
20 45 41
20 44 41
19 43 40
20 44 40
20 45 41
20 44 41
20 45 41
20 45 41
20 44 40
20 44 41
20 45 41
20 44 41
20 44 41
20 44 40
20 44 40
20 45 42
20 45 41
20 44 41
20 45 42
20 44 40
20 44 41
20 44 41
20 43 40
20 44 40
20 44 40
20 44 41
20 44 40
20 44 40
20 45 41
20 44 41
20 44 41
20 45 42
20 44 41
19 43 40
20 45 41
20 44 40
19 43 40
20 44 40
20 43 40
21 46 42
21 46 42
20 45 41
21 46 42
20 45 41
21 46 42
21 46 42
21 46 42
20 45 41
21 46 42
20 45 42
20 45 42
21 46 42
20 45 41
21 46 42
21 46 42
21 46 42
21 46 42
21 46 42
20 45 41
21 46 42
20 45 41
20 45 41
21 47 43
20 45 41
21 46 42
21 46 42
21 46 42
20 45 41
20 45 41
21 46 42
21 46 42
21 46 43
20 44 41
20 45 41
20 45 41
21 46 42
20 45 41
20 45 41
21 46 42
21 46 42
21 46 42
21 47 43
21 46 42
21 47 43
20 45 41
21 46 42
20 45 42
20 45 41
21 46 42
20 45 41
20 45 41
21 46 42
21 46 42
20 45 41
20 45 41
20 45 41
21 46 42
20 45 41
20 45 42
20 45 42
21 46 42
21 46 42
20 45 41
20 44 41
20 45 41
20 45 41
20 45 41
20 45 41
20 45 41
20 44 40
20 45 41
20 45 41
20 45 41
21 46 42
20 44 41
21 46 42
21 46 42
20 45 42
20 44 40
21 46 42
20 45 41
20 45 41
20 44 40
21 46 42
20 46 42
20 45 41
20 45 41
21 45 42
20 44 40
20 44 41
20 45 41
20 44 40
20 45 41
20 44 40
20 45 41
20 45 41
20 46 42
20 45 42
20 44 41
20 44 41
20 45 42
20 44 41
20 45 41
20 45 41
20 45 41
21 47 43
20 45 42
20 45 42
20 45 41
19 43 40
20 44 40
20 44 40
20 44 41
20 44 41
20 44 41
20 44 41
20 45 42
20 45 41
19 43 40
20 45 41
21 46 42
20 45 41
20 45 41
20 45 41
20 45 41
21 47 43
21 47 43
21 46 42
20 45 41
20 45 41
21 47 43
21 46 42
21 46 42
21 47 43
21 46 42
21 46 42
21 45 42
20 45 41
20 45 41
21 46 42
21 46 42
21 46 42
20 45 41
21 47 43
21 46 42
21 46 42
20 45 41
21 46 42
20 45 41
21 46 42
20 45 41
21 46 42
21 46 43
21 46 42
21 45 41
21 46 42
21 46 42
21 46 42
21 45 42
20 45 41
21 46 42
21 46 42
20 45 41
20 45 41
20 45 41
21 46 42
21 46 42
20 44 40
20 45 41
20 44 40
21 46 42
21 45 41
20 45 41
21 46 42
20 45 41
21 46 42
21 46 42
21 46 42
20 45 41
21 46 42
20 45 41
21 46 42
20 45 41
21 46 42
21 45 41
21 46 42
21 45 42
20 45 41
20 45 41
20 45 41
21 46 42
20 45 41
20 44 41
21 47 43
21 46 42
20 44 41
21 46 42
21 46 42
20 45 41
21 46 42
20 45 41
21 46 42
20 45 41
20 44 41
20 45 41
20 44 40
20 45 42
20 45 41
20 45 41
20 45 42
21 46 42
20 45 41
21 46 43
20 45 41
20 45 41
21 47 43
21 46 42
20 45 41
21 46 42
20 45 41
20 45 41
20 45 42
20 45 41
20 45 41
21 46 42
20 45 41
20 45 41
20 45 41
20 45 42
20 44 40
20 44 40
20 44 41
19 43 39
20 44 40
20 45 42
20 44 40
20 44 40
20 45 41
20 45 41
20 45 41
20 44 41
20 45 41
21 46 43
21 45 41
21 47 43
21 46 42
20 45 41
21 46 42
21 46 42
21 47 43
21 47 43
21 46 42
21 46 42
21 47 43
21 47 43
21 47 43
21 46 42
21 46 43
21 45 42
21 46 42
21 46 42
21 46 42
21 47 43
21 45 42
20 45 41
21 46 42
20 45 41
21 46 42
21 47 43
21 46 42
20 45 41
21 46 42
21 46 42
21 46 42
21 46 42
21 46 42
20 45 42
21 46 43
20 45 41
20 45 41
20 44 41
21 46 42
21 47 43
21 47 43
21 46 42
21 46 42
21 46 42
21 45 42
21 46 42
21 46 42
20 45 41
20 45 41
21 47 43
21 45 42
20 45 41
21 46 42
20 45 41
21 46 42
21 46 42
21 46 42
21 46 42
22 48 44
20 45 42
20 45 41
21 46 42
21 46 42
21 46 42
21 47 43
20 44 40
20 45 41
20 45 41
21 46 42
21 46 42
21 46 42
21 46 42
20 45 41
20 45 41
20 45 41
20 44 41
21 47 43
20 45 42
20 44 41
20 45 41
21 46 42
20 44 40
20 45 41
20 44 41
20 45 41
20 45 42
20 45 41
20 44 40
21 46 42
20 44 40
20 45 41
20 45 41
20 44 41
20 45 42
20 45 42
20 44 40
20 45 41
20 45 41
20 45 42
21 46 42
19 43 40
20 45 42
20 45 41
20 45 41
20 45 41
20 45 42
20 44 41
20 45 41
20 45 41
20 44 40
20 45 42
20 45 42
20 44 41
20 45 41
20 44 40
20 45 41
21 46 42
20 44 41
21 47 43
21 46 42
20 45 41
21 46 42
21 47 43
21 47 43
21 46 42
21 46 42
20 45 41
21 46 42
21 47 43
21 46 42
21 47 43
21 46 42
21 47 43
21 47 43
21 46 42
21 46 42
21 47 43
20 45 41
21 46 42
21 46 42
21 46 42
21 46 42
21 46 42
20 45 41
21 46 42
21 46 42
21 46 42
21 45 41
21 47 43
20 45 41
21 46 42
21 46 42
20 45 41
20 45 41
21 46 42
20 45 41
21 46 42
21 46 42
21 46 42
21 46 42
20 45 41
21 46 42
21 46 42
21 45 42
21 46 42
20 45 41
21 45 41
21 47 43
21 46 42
21 46 42
21 47 43
21 46 42
21 46 42
20 45 41
21 46 42
21 46 42
20 45 41
20 44 41
20 45 41
21 46 42
21 47 43
21 46 42
20 45 41
21 47 43
21 46 42
21 46 42
21 46 42
21 46 42
20 45 41
20 45 41
21 46 42
21 46 42
21 47 43
20 45 41
21 46 42
21 46 42
20 45 41
21 46 42
20 45 41
20 46 42
20 45 41
21 46 42
20 45 42
20 45 41
20 45 41
21 46 42
20 45 42
20 45 41
20 45 41
20 45 41
20 44 40
21 46 42
20 45 41
20 45 41
21 46 42
20 45 42
21 46 43
20 45 42
20 45 41
21 46 42
20 45 41
20 44 41
20 44 41
20 45 42
20 45 41
21 46 42
20 45 41
20 45 42
21 46 42
20 44 41
20 45 42
20 45 41
20 45 41
20 44 40
20 45 41
20 44 41
21 47 43
21 46 42
21 47 42
21 46 42
21 46 42
21 46 42
21 47 43
21 46 42
21 46 42
21 46 42
21 47 43
21 46 42
21 46 42
22 48 43
22 48 44
21 47 43
21 46 42
21 47 43
21 47 43
20 45 41
20 45 42
21 47 43
21 47 43
21 46 42
21 46 42
21 45 42
21 46 42
21 46 42
21 47 43
21 46 42
21 47 43
21 46 42
20 45 41
21 47 43
21 46 42
21 48 43
21 47 43
21 47 43
21 45 42
21 46 42
21 45 41
21 46 42
21 45 41
20 45 41
21 46 42
21 46 42
21 46 42
20 45 41
21 47 43
21 46 42
21 46 42
20 45 41
21 45 42
21 45 41
21 46 42
21 47 43
21 46 42
20 45 41
21 46 42
21 46 42
21 47 43
21 46 42
21 47 43
21 47 42
21 46 42
21 46 42
20 45 41
21 46 42
20 45 41
21 46 43
21 47 43
21 46 42
20 45 41
20 45 42
21 46 42
21 46 42
21 46 42
20 44 41
21 46 42
21 46 42
21 46 42
20 45 41
20 45 42
21 46 42
20 45 42
21 45 42
21 46 42
21 46 42
20 45 42
21 46 42
21 46 42
20 44 40
21 46 42
21 47 43
20 45 41
20 45 41
20 44 41
20 45 41
21 46 42
20 45 42
21 46 42
21 46 42
20 45 41
20 45 41
21 46 42
20 44 40
20 45 41
20 45 41
20 45 42
20 44 41
20 44 40
20 44 41
20 45 41
20 45 41
20 44 41
20 45 41
20 44 41
20 45 41
20 45 41
20 44 40
21 46 42
21 46 42
21 46 42
21 47 43
21 47 43
21 47 43
21 46 42
21 46 42
21 46 42
21 46 42
21 45 41
22 48 43
21 46 42
22 48 44
21 46 42
21 46 42
21 46 42
21 47 43
21 46 42
21 47 43
21 46 42
21 46 42
21 47 43
21 47 43
21 46 42
21 46 42
22 48 44
21 46 42
21 46 42
21 46 42
21 47 43
21 47 43
21 46 42
21 46 42
21 47 42
21 46 42
21 46 42
21 47 43
21 46 42
20 45 41
21 46 42
21 47 43
21 46 42
21 46 42
21 46 43
21 46 42
21 47 43
20 45 41
21 45 42
21 46 42
21 47 43
21 46 42
21 46 42
21 46 42
21 45 42
21 46 42
21 46 42
21 46 42
21 46 42
21 46 42
21 46 43
21 46 42
21 46 42
21 46 42
22 48 44
21 46 42
21 46 42
20 45 41
22 48 44
20 45 41
21 46 42
21 46 42
21 46 42
21 46 42
21 47 43
21 46 43
20 45 41
21 47 43
20 45 41
21 46 42
21 46 42
21 46 42
21 47 43
21 46 42
20 45 41
21 46 42
21 46 42
21 47 43
20 44 41
21 46 42
21 46 42
20 45 41
21 46 42
21 46 43
21 46 42
20 45 41
21 47 43
20 44 41
21 46 42
20 45 41
21 47 43
20 45 41
21 46 42
21 46 42
21 46 42
20 45 42
20 45 41
21 46 42
20 45 41
20 45 42
20 45 41
19 43 40
20 44 41
20 44 41
20 45 41
20 45 42
21 46 42
20 45 41
20 45 41
21 46 42
22 48 43
21 47 43
21 47 43
21 47 43
22 48 43
21 46 42
21 46 42
21 47 43
21 47 43
22 48 44
21 47 43
21 46 42
21 47 43
21 46 42
21 46 42
21 46 42
22 47 43
22 48 44
21 46 42
21 46 42
21 47 43
21 46 42
21 46 42
22 48 43
21 46 42
21 47 43
22 48 44
21 46 42
21 47 43
21 46 42
21 47 43
21 47 43
21 46 42
22 48 44
21 47 43
21 47 42
21 47 43
21 47 43
21 46 42
21 46 42
21 46 42
21 47 43
21 46 42
20 45 41
21 46 42
21 47 43
21 47 43
21 46 42
21 46 42
21 46 42
21 47 43
21 47 43
21 47 43
21 47 43
21 47 43
21 46 42
21 47 43
21 47 43
21 46 42
21 47 43
21 47 43
21 47 43
21 46 42
21 47 43
21 46 42
21 47 43
21 46 42
21 47 43
21 46 42
20 45 41
20 44 40
21 47 43
20 45 41
21 46 42
20 45 41
93 91 83
142 131 120
117 110 101
56 64 59
20 45 41
21 46 42
21 46 42
20 44 40
21 46 42
21 46 42
21 46 42
20 45 42
20 45 41
21 46 42
21 46 42
20 45 41
21 46 42
21 46 42
21 46 42
20 45 42
21 46 42
20 45 41
20 44 41
20 45 41
21 46 42
21 46 42
20 45 41
21 46 42
21 46 42
20 45 41
20 45 42
20 45 41
20 44 40
20 45 41
20 45 41
20 45 42
20 45 42
20 45 41
20 45 41
21 46 42
21 46 42
20 45 42
21 46 43
20 45 42
20 44 40
21 46 42
21 47 42
22 47 43
21 46 42
21 46 42
21 47 43
21 47 43
21 47 43
21 46 42
21 47 43
22 48 44
21 47 43
21 46 42
21 47 43
22 48 44
21 47 43
21 47 43
21 47 43
21 46 42
21 46 42
21 47 43
21 46 42
21 47 43
21 47 43
21 47 43
22 48 44
22 48 44
22 48 44
21 47 42
21 47 42
21 47 43
21 46 42
21 47 43
22 48 44
21 47 43
21 47 43
21 47 43
22 48 44
21 47 43
21 47 42
22 47 43
21 47 43
21 47 43
21 47 43
21 47 43
22 48 44
21 47 43
21 46 42
21 46 42
21 47 43
21 47 43
21 46 42
21 47 43
21 46 42
21 46 42
21 47 43
21 47 43
21 47 43
21 46 42
21 47 43
21 47 43
21 46 42
21 45 41
21 47 43
21 46 42
21 46 42
21 47 43
21 46 42
21 46 42
21 47 43
21 46 42
21 45 41
21 46 42
53 62 57
197 176 159
243 216 196
241 215 196
233 208 191
165 143 144
52 51 65
20 45 41
20 45 41
21 46 42
21 46 42
21 45 42
21 47 43
21 46 42
21 46 42
21 46 42
20 45 41
21 46 42
21 46 42
21 46 43
20 45 41
21 46 42
21 46 42
21 45 42
21 46 42
20 45 42
21 46 42
20 45 42
20 45 41
20 45 41
21 46 42
20 44 40
20 45 41
21 47 43
20 45 41
20 44 41
20 44 41
20 45 41
20 45 41
20 45 41
20 45 42
20 45 41
20 45 41
20 45 42
20 44 40
21 46 43
20 45 41
22 48 43
21 47 43
21 47 43
22 47 43
21 46 42
21 47 42
21 47 43
21 47 42
21 46 42
21 47 43
21 47 43
21 47 43
21 47 43
21 47 43
21 46 42
21 47 43
21 47 43
21 47 43
21 47 42
21 46 42
22 47 43
21 47 43
21 47 43
21 47 43
21 47 43
21 47 43
21 46 42
21 46 42
21 47 42
21 47 43
21 46 42
22 48 43
21 46 42
21 46 42
21 46 42
21 47 43
21 47 42
21 47 43
21 47 43
22 48 43
21 47 43
21 46 42
21 47 43
21 47 43
22 48 44
21 46 42
21 47 43
21 47 43
21 47 43
21 46 42
21 47 43
22 48 44
21 46 42
21 46 42
22 48 43
21 47 43
21 46 42
21 47 43
22 48 44
20 45 41
21 46 42
21 46 42
22 48 43
22 48 43
21 46 42
21 47 43
21 46 42
21 47 43
21 45 41
21 45 41
21 47 43
21 46 42
26 47 43
189 168 151
249 219 197
250 221 200
247 219 198
206 180 172
102 71 107
85 58 94
39 47 54
21 46 42
21 46 42
20 45 41
21 46 42
21 45 41
21 46 42
21 46 42
21 46 42
22 48 44
21 46 42
21 46 42
20 45 41
21 46 42
21 46 43
20 45 41
21 46 42
20 45 41
20 45 41
21 46 42
21 47 43
21 47 43
21 46 42
21 46 42
21 46 42
21 46 42
20 45 41
21 46 42
20 45 42
21 47 43
20 45 42
20 45 41
21 46 42
21 46 42
21 46 42
21 47 43
21 46 42
20 45 41
20 45 41
20 45 42
21 46 42
22 48 43
21 46 42
22 48 43
21 47 43
21 47 43
22 48 44
21 47 43
22 48 43
21 47 43
22 47 43
22 48 44
21 47 43
21 47 43
21 47 43
22 48 43
22 48 43
22 48 43
21 46 42
21 47 43
22 48 44
21 47 43
22 48 43
21 47 43
21 46 42
22 48 44
21 47 43
21 47 43
21 47 43
21 47 42
22 48 44
21 47 43
21 47 43
22 48 43
21 47 43
22 47 43
21 47 43
21 47 43
21 47 43
22 48 44
21 47 43
21 47 42
21 46 42
22 48 44
22 48 44
22 48 44
21 46 42
21 47 43
21 47 43
21 47 43
21 46 42
21 47 43
21 46 42
21 47 43
21 47 42
21 46 42
21 47 43
21 47 42
21 47 43
21 47 43
21 47 43
21 47 43
21 47 43
21 46 42
21 47 42
21 46 42
21 46 42
22 48 43
21 46 42
21 46 42
21 47 43
21 46 42
93 90 81
225 197 176
244 214 192
255 234 209
204 176 169
104 71 108
95 63 102
84 56 91
60 47 69
21 46 42
21 46 42
21 45 42
21 46 42
21 46 42
21 46 42
21 45 41
21 45 41
21 46 42
21 46 42
22 48 44
20 45 41
21 46 43
21 46 42
21 46 42
21 46 42
21 46 42
21 46 42
20 45 41
21 45 42
21 46 42
21 45 42
21 46 42
21 46 43
21 46 42
20 45 41
20 45 41
20 45 41
21 46 42
20 45 41
20 45 41
21 46 42
20 45 41
20 45 41
20 45 41
21 46 42
21 47 43
21 46 42
20 44 41
22 47 43
21 47 43
21 46 42
22 48 43
22 48 43
22 48 43
22 48 43
22 48 44
22 49 44
22 47 43
22 48 43
21 46 42
22 48 43
22 47 43
22 48 43
22 47 43
22 48 44
22 48 43
21 47 42
21 46 42
21 47 43
22 47 43
21 47 43
21 47 43
21 47 43
21 47 43
21 47 43
22 48 43
21 47 43
22 48 44
21 47 43
22 48 44
22 48 43
22 48 43
22 48 44
21 46 42
21 47 43
21 47 43
21 47 43
22 47 43
21 47 42
21 47 43
21 47 43
22 48 44
21 47 43
21 47 43
21 47 43
21 47 43
21 46 42
21 47 43
21 46 42
21 47 43
22 47 43
21 46 42
22 48 43
21 47 43
21 47 43
21 47 43
21 47 43
21 46 42
21 47 43
21 46 42
21 46 42
21 47 42
21 47 43
21 46 42
21 47 43
21 47 43
21 47 43
21 46 42
21 46 42
21 47 43
108 101 89
207 180 159
204 176 160
153 126 128
167 143 135
149 125 124
92 63 94
77 51 82
60 46 65
25 48 44
21 46 42
21 47 43
21 46 42
21 46 42
21 46 42
21 46 42
21 46 42
21 45 42
21 46 42
21 46 42
21 46 42
21 46 42
20 45 41
21 47 43
22 48 44
21 46 42
21 47 43
20 45 41
21 47 43
21 46 42
20 44 40
20 45 41
21 46 42
21 46 42
21 46 42
21 46 42
20 45 41
21 46 42
20 45 41
20 45 41
20 45 41
20 45 41
20 45 41
20 45 41
20 45 41
21 46 42
20 45 41
21 46 42
21 47 43
21 47 43
22 48 44
22 47 43
21 47 43
22 48 44
22 48 44
22 48 44
22 48 43
22 47 43
21 47 43
21 47 43
21 47 43
22 48 44
21 47 43
22 47 43
22 48 44
22 48 44
21 46 42
22 48 43
21 47 43
21 47 43
22 48 43
22 48 43
21 47 43
22 48 44
21 47 43
22 47 43
21 47 43
22 48 43
22 48 44
22 48 44
22 48 44
22 48 43
21 47 43
22 48 44
21 47 43
21 47 43
21 47 43
22 48 44
21 47 43
21 47 43
21 47 43
22 47 43
21 47 43
22 48 43
21 47 43
22 48 44
21 46 42
21 47 42
22 47 43
22 48 44
21 47 43
22 48 43
21 47 43
22 48 44
21 46 42
22 48 43
21 47 42
21 47 42
22 48 43
22 47 43
21 46 42
22 47 43
21 47 42
21 46 42
22 48 44
21 47 43
21 47 43
21 46 42
21 47 43
21 47 42
60 61 61
110 87 94
89 59 88
165 141 128
153 133 117
186 163 145
102 84 87
68 48 70
79 74 74
20 45 41
21 46 42
21 46 42
21 46 42
21 46 42
21 47 43
21 47 43
21 46 42
21 46 42
21 47 42
21 46 42
21 46 42
21 47 43
21 46 42
22 48 44
20 45 41
21 46 42
21 46 42
21 46 42
21 46 42
21 46 42
21 47 43
21 46 42
20 45 41
21 46 42
21 46 42
21 46 42
20 45 41
21 45 41
21 46 42
21 46 42
20 45 41
21 45 42
20 45 41
20 45 41
21 47 43
21 46 42
21 46 42
20 45 41
21 47 43
21 47 43
21 47 43
22 48 44
22 48 44
22 48 44
22 48 44
21 47 43
21 47 43
21 47 43
22 48 44
21 47 43
22 48 43
22 48 44
21 47 42
22 48 44
22 47 43
22 47 43
22 48 44
21 47 43
21 47 42
21 47 43
22 48 44
21 47 43
22 48 44
22 48 44
21 47 43
22 48 43
21 47 43
21 47 43
22 48 44
21 46 42
22 47 43
21 47 43
22 47 43
21 47 43
22 48 44
21 47 42
22 47 43
21 47 43
22 48 43
21 47 43
22 47 43
21 47 42
21 46 42
22 48 44
21 46 42
22 48 44
21 47 43
22 49 44
21 47 43
21 46 42
22 47 43
21 47 43
21 47 43
21 47 42
21 46 42
21 47 43
22 47 43
21 47 43
21 46 42
20 45 41
21 47 43
22 48 43
21 47 43
21 47 43
21 46 42
21 47 43
21 47 43
21 46 42
21 46 42
20 45 41
23 46 43
56 38 55
69 45 68
117 98 91
147 127 108
119 104 89
73 60 64
74 67 66
64 65 59
17 38 36
19 42 39
20 44 41
20 45 41
21 45 41
21 46 42
21 45 41
21 47 43
22 47 43
21 46 42
21 46 42
21 47 43
21 46 42
21 46 42
21 46 42
21 45 41
21 46 42
21 46 42
21 46 42
22 47 43
21 46 42
21 46 42
21 46 42
21 46 43
21 46 43
21 46 42
21 46 42
21 46 42
21 47 43
21 46 42
20 45 42
21 46 42
21 46 42
21 46 42
21 46 42
21 46 42
20 45 41
21 46 42
21 46 42
22 47 43
22 48 43
21 47 42
22 48 44
22 48 44
22 48 44
22 47 43
22 48 44
22 48 43
22 47 43
22 48 43
21 47 43
21 47 43
22 48 43
22 48 43
22 49 45
22 48 44
21 46 42
21 47 43
22 47 43
22 48 43
22 48 44
22 48 44
22 48 43
21 47 43
22 48 43
21 47 43
21 47 43
22 47 43
22 49 44
22 47 43
21 47 43
22 48 43
22 48 43
22 48 44
22 47 43
22 48 43
22 48 44
21 47 43
21 47 43
22 48 43
21 47 43
22 48 43
21 46 42
21 47 43
21 47 43
22 48 43
22 48 44
21 46 42
22 48 44
21 47 43
21 47 43
21 47 43
22 48 44
22 47 43
21 47 43
21 47 42
22 48 44
21 47 43
21 47 43
22 48 43
21 47 42
21 46 42
22 48 43
22 47 43
21 46 42
22 47 43
21 47 42
21 46 42
21 45 41
21 45 41
20 45 40
20 43 39
26 38 38
41 28 40
49 35 44
70 58 53
51 45 42
50 49 42
53 54 48
26 38 36
14 33 31
16 36 34
19 42 38
20 45 41
20 45 41
21 45 41
21 47 43
21 46 42
21 46 42
22 48 44
21 46 42
21 46 42
21 46 42
21 46 42
21 47 42
21 46 42
21 47 42
21 46 42
21 46 42
21 46 42
21 47 42
21 47 43
20 44 41
21 46 42
22 48 44
21 47 43
21 46 42
21 46 42
21 46 42
21 47 43
21 46 42
21 46 42
20 45 41
21 46 42
21 46 42
21 46 42
21 47 43
20 45 41
21 46 42
22 49 45
22 49 44
22 48 43
22 48 44
22 48 43
22 49 44
22 49 44
22 48 44
22 48 44
22 48 44
22 48 44
22 49 44
22 48 43
22 48 44
22 49 44
22 48 43
22 49 44
22 48 44
21 46 42
22 49 44
22 48 44
21 47 43
22 48 44
22 48 43
22 48 44
22 48 44
22 48 44
21 47 42
22 48 43
22 48 44
22 48 43
22 48 44
22 48 43
22 49 44
22 48 43
22 49 44
21 47 42
22 47 43
22 48 43
21 47 42
22 48 43
22 47 43
22 48 43
21 47 43
22 48 43
21 47 43
21 47 43
22 47 43
22 49 44
21 47 43
22 48 44
21 46 42
22 48 44
21 46 42
22 48 44
22 48 43
22 48 43
21 47 43
21 47 42
21 47 43
22 48 43
21 46 42
21 46 42
22 48 43
21 47 42
21 47 43
21 47 43
21 46 42
21 47 42
21 46 42
20 44 40
21 45 41
20 42 38
19 41 37
15 30 27
14 15 16
31 30 23
32 34 25
24 28 22
13 27 25
13 29 27
16 36 33
18 40 37
20 44 40
20 44 40
20 44 40
21 46 42
21 45 41
22 47 43
22 47 43
21 46 42
20 45 41
21 47 43
21 46 42
21 47 43
21 46 42
21 46 42
21 46 42
21 47 43
21 46 42
21 46 42
21 46 42
20 45 41
21 46 42
21 46 42
21 47 43
21 46 42
21 46 42
20 45 41
21 46 42
21 46 42
21 47 43
21 46 42
21 45 42
21 46 42
21 46 42
21 46 42
20 45 41
20 45 41
21 46 42
22 48 44
22 48 43
22 47 43
22 48 44
22 48 44
22 49 44
22 49 45
22 47 43
22 48 43
21 47 43
22 48 44
21 47 43
22 48 43
22 49 44
22 48 44
21 47 43
21 47 43
22 48 43
22 48 44
22 48 43
25 47 43
33 46 46
37 44 46
36 43 45
43 51 50
65 71 64
22 48 44
21 47 42
21 46 42
22 49 45
22 47 43
22 48 44
21 47 42
22 49 45
22 47 43
22 49 45
22 48 43
22 48 44
22 49 44
22 48 44
22 48 44
21 47 43
22 48 44
22 48 43
22 49 45
21 47 42
22 47 43
22 48 43
21 47 43
21 47 42
21 47 42
22 48 44
22 48 44
22 48 44
22 48 43
21 46 42
22 48 43
22 49 44
21 47 43
21 47 42
21 46 42
22 47 43
21 46 42
21 47 43
21 47 43
21 47 42
21 47 42
21 47 43
21 46 42
21 45 41
21 46 42
21 47 42
21 45 41
20 44 39
19 41 37
18 38 33
16 34 30
17 37 33
17 36 32
18 39 35
19 42 38
21 45 40
21 45 40
21 45 41
21 47 42
21 46 41
21 46 42
21 47 43
21 47 42
21 45 41
22 47 43
20 45 41
21 46 42
21 47 42
21 46 42
21 46 42
21 47 43
21 46 42
21 46 42
21 47 43
21 47 43
21 46 42
21 46 42
21 47 43
21 47 43
21 47 43
21 46 42
21 46 42
21 46 42
21 46 42
21 47 42
21 46 42
20 45 41
21 46 42
21 46 42
20 45 41
20 45 41
20 45 41
21 47 42
21 47 43
22 47 43
22 48 43
22 48 44
22 48 43
22 48 44
22 49 45
22 48 43
22 48 44
21 46 42
21 47 43
22 48 44
22 48 43
21 47 43
22 48 43
22 48 43
22 48 44
22 49 44
22 48 43
22 48 43
98 95 86
47 48 50
41 43 47
40 43 47
40 43 47
212 190 173
214 191 174
96 95 86
22 48 43
22 49 44
22 48 44
22 48 44
22 48 44
23 50 45
22 48 43
22 49 44
22 48 44
22 48 43
22 48 43
22 47 43
22 48 44
22 49 44
22 48 43
22 49 44
21 47 43
22 49 44
22 48 44
22 48 44
21 47 42
22 48 44
22 48 44
22 48 43
22 48 43
21 47 42
21 47 43
22 49 44
21 46 42
22 49 45
21 47 43
21 47 43
22 48 43
22 48 44
22 48 43
21 47 43
22 48 44
21 47 42
21 47 43
21 47 43
22 47 43
22 47 43
22 47 43
22 47 43
21 46 42
21 46 42
20 45 40
20 44 40
20 44 40
21 45 41
21 45 41
20 45 40
20 45 40
20 45 40
20 45 40
21 47 42
21 46 42
21 45 41
21 46 42
21 46 42
20 45 41
22 48 44
21 45 41
21 47 43
21 47 43
20 45 41
21 47 43
22 48 44
21 47 43
21 47 43
21 47 43
21 46 42
21 47 43
21 47 43
21 47 43
21 47 43
21 46 42
20 45 41
21 47 43
21 46 42
21 47 43
21 46 42
21 46 42
21 47 43
21 47 43
21 46 42
21 46 42
21 46 42
20 45 41
21 46 42
21 47 43
21 47 42
21 46 42
22 49 45
23 49 45
22 49 44
23 49 45
21 47 43
22 48 43
22 49 44
23 49 45
22 48 44
22 49 44
22 48 44
23 50 45
23 49 45
21 47 43
22 48 44
22 48 44
22 49 44
22 49 44
90 89 80
125 112 102
41 43 47
57 57 56
98 93 83
140 126 116
237 211 192
226 201 183
188 169 154
48 61 55
22 48 44
22 48 44
22 49 45
22 48 44
22 48 44
22 48 43
22 49 44
22 47 43
22 48 44
22 49 44
22 48 44
22 48 44
21 47 43
21 46 42
22 49 44
22 49 45
22 48 43
22 48 44
22 47 43
21 47 43
22 48 44
22 48 44
22 48 44
22 48 43
22 48 44
21 47 43
21 47 43
21 47 42
21 47 43
21 47 43
21 46 42
22 48 44
22 48 44
22 49 44
22 48 43
22 47 43
21 47 43
22 48 43
22 48 43
22 48 44
21 46 42
22 47 43
22 48 43
21 47 43
21 46 42
21 46 42
21 45 41
22 47 43
21 47 43
21 47 43
20 45 41
21 46 42
21 46 41
22 48 43
21 46 42
21 46 42
21 46 42
21 46 42
21 47 42
21 47 43
21 47 42
21 46 42
21 46 42
21 47 43
21 47 43
21 47 42
21 46 42
21 46 42
22 47 43
22 48 44
21 47 43
21 47 43
21 47 43
21 46 42
21 46 42
21 46 42
21 47 43
21 47 43
21 46 42
21 47 43
21 47 43
21 46 42
21 46 42
21 46 42
21 46 42
21 46 42
21 46 42
21 46 42
21 47 43
21 46 42
21 46 42
21 46 42
22 49 44
22 47 43
22 49 44
21 47 42
22 49 45
22 47 43
21 47 43
22 48 43
22 48 44
22 49 44
22 47 43
22 48 44
22 49 44
22 48 44
22 49 44
22 48 43
22 48 44
22 49 44
157 142 127
89 81 76
39 42 45
72 70 65
115 108 95
174 155 141
231 204 184
213 188 170
188 168 153
98 96 88
22 48 43
22 48 43
22 48 43
22 48 44
22 48 43
21 47 43
22 48 43
22 49 44
22 48 44
22 49 44
22 48 43
22 48 44
22 49 44
21 47 43
22 47 43
21 47 42
22 48 44
22 48 44
22 47 43
22 49 44
22 48 43
22 47 43
21 47 43
22 48 43
21 46 42
22 47 43
22 48 44
22 48 44
22 47 43
22 48 44
22 47 43
22 48 44
22 48 43
22 48 44
21 47 42
22 48 43
21 47 43
21 47 43
21 46 42
22 48 44
22 48 43
22 48 44
21 47 42
21 46 42
21 47 42
21 47 43
22 48 43
22 48 44
22 47 43
21 47 43
22 47 43
21 47 43
22 48 43
21 46 41
21 47 43
21 46 42
21 47 43
22 48 43
21 47 42
22 48 44
21 47 43
22 48 44
21 47 43
21 46 42
21 47 43
22 47 43
21 47 43
22 47 43
21 47 42
21 46 42
21 46 42
21 47 43
21 47 43
22 48 44
21 47 43
21 46 42
21 47 43
21 47 43
21 47 43
21 46 42
21 46 42
20 45 41
21 46 42
20 45 41
21 46 42
20 45 41
20 45 41
21 46 42
21 47 43
20 45 41
21 46 42
21 46 42
22 48 43
22 49 44
22 49 45
22 47 43
22 49 45
22 49 44
22 49 45
22 49 45
22 49 44
22 48 44
22 48 44
22 49 44
22 48 44
22 48 43
22 48 44
22 48 43
22 48 43
22 49 45
163 145 130
52 50 49
37 39 41
37 39 42
37 40 42
176 153 137
213 187 168
196 172 154
175 154 139
120 111 102
22 49 44
22 48 44
22 49 44
22 48 43
22 48 43
22 49 44
22 49 45
22 48 43
22 48 44
22 47 43
22 48 44
22 48 44
22 48 44
21 47 43
22 48 43
22 48 44
21 47 43
23 50 45
22 48 44
22 48 43
22 47 43
22 48 43
22 48 43
22 48 44
22 49 44
22 48 43
22 49 44
22 48 44
22 47 43
22 48 44
21 47 43
21 46 42
22 49 44
22 48 44
22 49 44
22 48 43
22 47 43
21 47 43
22 48 44
22 49 44
22 47 43
21 46 42
22 48 43
22 48 44
21 46 42
22 48 43
21 47 42
21 47 42
22 48 43
21 47 42
22 48 44
21 46 42
21 47 43
21 47 43
22 48 44
22 47 43
22 48 44
21 47 43
21 47 43
21 47 43
21 46 42
21 46 42
22 47 43
22 48 44
21 47 43
22 48 43
21 47 43
22 49 45
21 47 43
21 46 42
22 47 43
22 48 44
21 46 42
21 46 42
21 47 42
21 47 43
21 47 43
21 47 43
21 47 43
21 46 42
21 46 42
21 47 43
21 47 43
21 46 42
21 47 43
21 46 42
21 46 42
21 47 43
21 47 43
21 46 42
21 46 42
21 47 43
22 49 44
23 49 45
22 49 44
22 48 43
22 49 44
22 47 43
22 49 44
21 47 43
22 48 44
22 48 44
22 48 43
22 49 44
22 48 43
23 50 45
23 50 45
22 48 43
21 46 42
22 48 43
140 126 112
35 36 38
32 33 35
32 34 36
32 34 36
160 140 126
183 158 141
172 151 135
136 120 108
81 80 73
22 48 44
22 48 43
22 47 43
22 48 43
22 49 44
22 47 43
22 49 44
22 49 44
22 48 44
22 48 43
22 47 43
22 47 43
49 52 45
73 57 46
38 50 45
22 49 44
22 48 44
22 48 44
21 46 42
22 49 44
22 48 43
22 49 45
22 49 45
22 47 43
23 50 45
22 48 44
22 48 44
22 48 44
22 49 44
22 48 43
22 49 44
22 48 43
22 48 43
22 48 43
22 49 44
21 47 43
22 48 43
21 47 43
21 47 43
22 49 44
22 48 44
22 47 43
22 48 44
22 47 43
22 48 44
21 47 43
22 48 44
22 48 44
22 48 43
22 48 43
22 48 44
22 48 44
21 46 42
21 47 43
22 48 43
21 47 43
22 48 44
22 48 43
22 48 44
21 46 42
21 46 42
21 47 42
22 48 43
21 47 43
22 48 43
21 47 43
21 47 42
21 46 42
21 47 42
21 46 42
22 47 43
21 46 42
21 47 43
21 46 42
21 47 42
22 48 44
21 46 42
21 46 42
21 46 42
21 47 43
21 47 43
21 47 43
21 46 42
21 47 42
21 46 42
21 47 43
21 47 42
21 46 42
21 45 41
21 46 42
22 48 44
22 48 44
22 48 43
22 48 43
22 49 44
22 49 44
23 50 45
22 48 44
22 49 45
22 48 44
22 49 44
22 48 44
22 48 44
22 49 44
22 48 43
21 47 42
22 48 44
22 48 44
22 47 43
22 48 44
102 96 86
50 46 43
27 29 30
27 28 30
27 28 30
109 95 85
143 125 110
109 98 87
96 89 81
50 58 52
21 45 41
22 47 43
22 48 43
22 47 43
21 46 42
22 48 44
22 48 43
22 48 44
21 47 42
22 48 44
125 73 52
232 112 68
255 125 74
255 124 73
238 146 115
178 161 146
57 65 59
22 48 43
23 49 45
22 48 43
22 48 44
22 48 43
22 49 44
22 47 43
22 49 44
22 49 44
22 48 44
23 49 45
22 48 43
22 48 43
22 49 44
22 48 43
22 48 44
22 48 44
22 49 44
22 47 43
22 49 44
22 48 44
22 48 44
21 47 43
21 47 43
22 48 44
22 48 43
22 48 43
22 49 44
21 47 43
22 48 44
21 47 43
21 47 43
22 48 43
21 46 42
22 47 43
21 47 43
22 48 43
22 48 43
21 47 43
22 48 44
22 48 43
21 47 43
22 47 43
21 46 42
21 47 43
21 47 43
45 58 52
88 88 80
75 79 72
30 50 46
21 46 42
21 47 43
22 48 44
21 47 42
21 46 42
22 48 43
21 47 43
21 46 42
21 47 43
21 47 43
21 47 43
21 47 43
22 48 43
21 46 42
22 48 43
21 46 42
20 45 41
21 47 43
21 47 43
20 45 41
21 47 43
21 47 42
21 46 42
21 45 41
21 46 42
23 50 45
22 49 44
22 48 43
22 48 44
22 48 43
22 49 44
22 48 44
22 48 43
22 47 43
22 48 44
23 49 45
22 48 44
22 49 44
23 50 45
22 48 43
22 48 43
22 48 43
22 48 43
40 53 48
38 39 35
18 19 20
19 21 22
19 20 21
63 57 49
88 80 69
63 57 48
48 50 43
15 35 33
17 39 36
21 45 41
22 47 43
22 48 44
22 48 43
22 47 43
22 49 44
22 49 44
22 49 44
159 101 79
255 127 74
255 128 75
255 127 75
255 125 74
255 124 76
233 190 170
195 176 161
67 73 67
22 49 44
22 48 44
22 48 44
22 48 43
23 49 45
22 48 43
22 47 43
22 47 43
22 48 44
22 48 43
22 47 43
22 48 44
22 48 44
21 47 43
22 48 44
22 47 43
22 48 43
22 48 43
22 48 43
22 48 44
22 48 43
21 47 43
21 47 43
22 47 43
22 48 43
22 48 43
22 48 44
22 48 43
21 47 43
22 48 44
22 48 44
22 47 43
21 47 43
21 47 43
21 47 43
21 47 43
22 48 43
22 49 44
21 46 42
21 47 43
22 47 43
21 47 43
21 47 43
59 68 62
174 157 142
233 206 187
240 190 172
233 131 114
207 89 73
131 57 45
32 48 43
21 47 43
21 47 43
21 46 42
21 46 42
21 46 42
21 47 43
21 47 43
21 47 43
21 47 43
21 46 42
21 46 42
21 47 43
21 46 42
22 48 43
22 47 43
21 46 42
21 46 42
22 48 43
21 46 42
21 46 42
21 47 43
20 44 41
21 46 42
22 49 44
23 50 45
22 48 43
22 49 44
23 49 45
22 49 44
22 48 43
22 49 44
22 49 44
22 49 44
22 49 44
22 47 43
22 48 43
22 48 43
21 46 42
21 46 41
22 47 42
22 48 44
21 45 40
21 36 33
7 11 11
8 9 8
8 10 9
15 15 13
33 35 25
31 35 27
11 24 22
13 29 28
16 37 34
21 45 41
21 46 41
22 47 43
22 47 43
22 48 43
22 48 43
22 48 43
96 94 84
232 199 177
255 132 84
255 133 82
255 169 120
255 128 78
253 121 72
238 160 133
211 190 174
146 134 123
22 48 44
22 49 44
21 47 43
22 48 44
22 48 44
22 48 43
22 48 43
22 49 44
23 49 45
22 49 44
22 48 44
22 49 44
22 49 44
22 49 44
21 47 43
23 49 45
22 49 44
22 48 43
22 48 44
22 49 45
22 48 43
22 48 43
22 49 45
21 47 43
22 48 44
22 49 44
22 48 43
22 48 44
22 48 44
22 47 43
22 47 43
22 48 43
21 47 43
22 47 43
22 48 44
22 47 43
22 49 44
22 49 44
22 48 43
22 48 44
21 47 42
21 46 42
58 66 59
216 191 172
250 204 183
248 124 105
243 80 57
236 78 56
228 76 54
216 72 52
160 60 46
21 47 42
21 47 43
21 47 42
21 47 43
21 46 42
21 46 42
21 47 43
21 47 43
21 47 42
21 47 43
22 47 43
22 47 43
21 45 41
21 46 42
22 48 44
22 48 44
21 47 43
21 47 43
21 46 42
22 47 43
21 47 43
21 47 43
21 47 43
23 49 45
22 49 44
23 49 45
22 48 44
22 49 44
22 49 44
22 49 44
22 49 44
22 49 44
22 49 44
23 50 45
22 47 43
22 49 44
23 49 44
22 48 43
22 48 43
21 46 41
21 46 41
21 45 40
17 36 32
10 24 22
7 14 13
6 11 10
6 12 11
8 17 16
11 25 23
14 32 30
17 38 34
20 44 39
22 48 43
22 48 43
22 48 43
22 47 43
22 48 43
23 49 44
22 49 44
157 141 125
228 201 180
250 168 137
255 130 80
255 153 105
255 123 73
249 118 70
234 121 81
204 180 165
172 154 142
51 63 58
22 48 43
22 48 44
22 49 44
22 49 44
22 48 44
22 48 44
22 47 43
22 48 44
22 47 43
22 48 44
22 49 45
22 48 44
22 48 43
22 49 44
22 48 44
23 50 45
22 48 44
22 49 45
23 49 45
22 49 44
22 48 43
22 47 43
22 48 44
22 49 45
22 47 43
22 47 43
22 48 44
22 47 43
22 49 44
21 47 42
22 47 43
22 48 43
22 47 43
21 46 42
21 46 42
22 48 44
21 47 43
22 47 43
22 48 44
22 48 44
22 48 44
180 160 143
246 171 150
251 91 68
255 124 97
248 94 70
236 78 56
227 75 54
218 72 52
196 66 47
105 50 41
21 47 43
22 47 43
21 47 43
21 47 43
21 46 42
22 48 43
21 47 43
21 47 42
21 47 42
21 47 43
21 47 42
21 47 43
22 48 44
21 47 42
21 47 43
21 46 42
22 48 43
20 45 41
22 48 44
21 46 42
21 46 42
21 47 43
23 50 45
22 49 44
22 49 44
23 50 45
23 50 45
22 48 44
22 48 43
22 48 43
22 48 44
23 49 45
23 49 44
22 49 44
22 49 44
22 49 44
22 48 43
22 48 43
21 46 41
21 46 41
21 45 40
20 44 39
19 41 36
18 39 35
18 39 35
18 39 34
20 42 38
20 44 39
21 46 41
22 47 42
22 47 41
22 48 43
23 49 44
22 48 43
22 47 42
22 48 43
22 48 44
22 48 43
167 149 132
211 185 165
222 180 158
244 116 68
242 115 67
234 125 87
211 119 86
211 108 71
184 144 126
154 139 129
73 77 72
23 49 45
22 49 44
22 47 43
22 48 44
22 48 43
22 49 44
22 48 44
22 48 44
22 48 44
22 48 44
22 47 43
22 47 43
22 48 44
21 47 43
22 48 44
22 49 45
22 49 44
22 48 44
22 48 43
22 48 44
21 47 43
22 48 44
22 48 43
21 47 43
22 48 43
22 48 43
22 47 43
22 48 44
22 47 43
22 47 43
22 47 43
22 48 44
22 48 44
22 48 44
21 47 43
22 48 43
21 46 42
22 48 43
21 47 42
22 49 44
42 56 50
220 152 133
238 77 54
245 83 59
255 134 107
247 95 71
233 77 54
225 74 53
208 69 49
189 63 46
136 50 38
28 48 43
21 47 43
21 46 42
21 46 42
21 47 43
21 47 43
21 47 43
21 47 43
22 48 44
21 46 42
22 48 44
21 46 42
22 48 44
22 49 44
21 46 42
22 48 43
21 47 43
21 47 43
21 47 43
21 47 43
21 47 43
21 46 42
22 49 44
22 49 44
22 48 44
22 49 44
23 50 46
22 49 44
23 50 45
23 49 44
22 49 44
22 49 44
22 49 44
23 49 45
22 48 44
22 48 43
22 48 43
22 49 44
22 48 43
22 48 43
22 47 42
21 46 41
22 47 43
22 47 42
22 47 42
22 48 43
22 47 42
21 46 41
23 50 45
22 48 44
23 49 44
22 49 44
22 47 43
22 48 43
22 48 43
23 49 45
21 47 42
22 48 43
153 136 120
190 167 148
198 174 154
218 124 91
212 108 71
169 146 130
166 148 133
148 123 109
164 108 88
132 121 111
64 70 64
22 47 43
22 48 43
22 47 43
22 48 43
22 48 43
22 48 44
22 48 44
22 48 43
22 48 43
22 47 43
22 48 43
22 48 44
23 51 46
23 50 45
22 48 43
22 48 44
22 48 44
22 48 44
22 48 44
22 47 43
22 48 43
21 47 42
22 49 44
22 49 44
22 48 44
21 47 42
22 48 43
21 47 43
22 49 44
22 48 43
22 47 43
22 48 44
21 47 42
22 47 43
21 47 43
22 48 43
21 47 42
22 47 43
22 48 44
22 47 43
82 73 65
209 72 52
224 72 50
227 73 51
227 75 52
224 73 51
219 72 51
206 73 54
192 112 98
170 124 112
140 106 97
38 54 49
22 47 43
21 46 42
21 47 43
22 49 45
21 45 41
22 48 44
21 47 43
22 48 44
21 46 42
21 46 42
21 46 42
21 47 43
21 47 43
21 47 43
21 47 43
21 47 43
21 47 43
21 46 42
20 45 41
21 46 42
21 46 42
23 49 44
23 50 45
23 50 45
22 49 44
22 49 44
23 50 45
23 50 45
23 50 46
22 49 44
23 49 45
22 48 43
22 49 44
22 49 44
23 49 44
23 50 45
22 48 43
22 49 44
22 48 44
22 48 44
21 47 42
22 48 43
21 46 41
22 48 43
22 48 43
22 48 43
22 48 43
22 47 42
22 48 43
22 48 43
22 48 43
23 49 44
22 48 43
22 48 43
22 47 42
22 48 44
22 48 44
107 100 89
163 144 127
173 153 135
176 126 104
152 106 87
152 134 120
117 104 93
110 99 89
106 70 56
100 92 84
36 53 49
22 48 43
22 47 43
22 48 43
22 49 44
22 48 43
22 49 44
23 50 45
22 48 44
22 48 43
22 48 43
22 48 43
22 49 44
22 48 43
22 47 43
22 48 43
22 47 43
22 48 44
22 48 43
22 48 43
22 48 44
22 48 43
22 48 44
22 48 44
23 49 45
22 48 44
22 47 43
22 49 44
23 50 45
23 50 46
22 48 44
22 48 43
22 48 43
22 49 44
22 48 43
22 48 44
21 47 42
21 47 42
21 47 42
22 48 43
22 48 44
75 49 42
187 60 41
198 64 43
212 68 47
205 66 46
206 67 47
195 98 82
179 146 131
168 151 137
143 131 121
112 105 97
33 52 47
21 47 43
22 48 43
21 46 42
21 47 42
22 48 44
22 48 43
22 48 43
21 46 42
21 47 43
21 47 43
21 47 43
21 47 43
21 47 43
21 47 43
21 46 42
22 48 44
22 48 43
21 47 43
22 48 43
21 47 43
21 47 43
23 50 45
23 50 45
22 48 44
23 49 45
23 50 45
23 49 45
23 50 45
23 50 46
22 48 44
22 49 44
23 50 45
23 49 45
22 48 44
23 49 44
23 50 45
22 49 44
22 49 44
22 49 44
22 49 44
22 48 43
23 50 45
23 49 44
22 48 43
22 49 44
22 49 44
23 50 45
22 47 42
23 49 45
23 49 44
22 49 44
22 48 43
22 48 44
22 49 44
22 48 44
22 48 43
22 49 44
38 52 46
102 93 80
123 110 96
124 105 90
122 82 66
99 89 79
107 98 88
86 71 62
83 44 28
57 54 48
17 38 36
19 43 39
21 46 41
22 48 44
23 49 44
22 49 44
22 48 43
22 48 44
22 48 43
22 49 44
22 48 44
22 48 44
23 49 45
22 49 44
22 48 44
22 48 43
22 48 44
22 47 43
23 49 45
21 47 43
22 48 44
22 47 43
22 49 44
22 49 44
22 48 43
22 48 43
22 49 44
22 48 44
22 49 44
22 49 44
21 47 42
22 48 44
22 47 43
22 49 44
22 48 43
21 47 42
22 47 43
21 47 42
22 47 43
21 47 43
22 48 44
27 47 42
160 53 36
176 57 38
175 56 38
176 59 41
175 116 100
164 145 129
154 138 124
135 123 112
106 99 91
106 100 92
21 46 42
21 46 41
21 46 42
21 46 42
22 48 43
21 47 42
21 46 42
21 46 42
22 48 44
22 48 43
22 48 43
21 46 42
21 47 43
21 47 42
21 46 42
21 47 43
21 47 43
22 48 44
21 46 42
22 48 44
21 46 42
21 47 43
23 49 45
23 49 45
23 50 45
23 50 45
23 50 45
23 49 45
22 49 44
23 49 45
22 49 44
22 48 43
23 50 45
23 49 44
22 49 44
22 48 43
23 50 45
22 48 44
22 48 44
23 50 45
23 50 45
23 50 45
23 50 45
23 50 45
22 49 44
23 50 45
23 50 45
22 49 44
22 49 44
23 49 44
22 48 43
23 49 44
22 49 44
22 49 44
22 49 44
22 48 43
21 46 41
22 47 42
21 46 41
37 47 41
60 58 47
74 69 57
72 41 25
56 37 26
48 35 25
49 27 14
41 26 17
13 29 27
13 31 29
16 36 33
20 44 40
21 46 42
22 47 43
22 48 43
22 47 43
23 50 46
22 48 43
22 48 44
22 48 44
22 48 43
22 47 43
22 48 43
23 49 45
22 49 44
22 48 44
22 49 45
22 49 44
22 48 44
22 49 45
22 49 44
22 49 45
23 50 45
21 46 41
22 48 43
23 50 45
22 49 44
23 50 45
22 48 44
22 48 44
21 46 42
22 48 44
21 47 43
22 48 44
22 47 42
22 49 44
21 47 42
21 47 42
22 47 43
21 46 41
22 47 42
85 42 34
134 43 28
150 49 33
140 96 81
130 116 101
124 112 99
110 101 91
95 89 81
86 82 74
56 58 53
17 38 36
18 40 37
19 43 40
20 45 41
21 46 42
21 47 43
22 48 43
22 48 43
21 47 43
22 47 43
21 45 41
21 47 43
21 47 43
21 46 42
21 47 43
21 47 43
22 48 44
21 46 42
21 46 42
21 47 43
22 48 44
22 48 43
22 49 44
23 50 45
23 51 46
23 51 46
23 50 45
23 50 45
22 49 44
23 51 46
23 50 45
23 50 45
22 49 44
23 50 45
22 49 44
22 49 44
23 49 44
22 48 44
23 50 46
22 47 43
22 49 45
22 48 43
23 49 44
22 48 43
23 49 45
23 49 45
22 49 44
23 50 45
22 49 44
22 48 43
22 48 43
22 49 44
22 48 43
22 48 44
22 49 44
22 47 42
21 47 42
22 46 41
21 45 40
16 36 32
21 30 25
32 35 26
40 27 16
40 22 10
27 19 10
17 16 13
10 22 21
11 26 24
13 31 29
17 37 34
20 45 40
21 46 42
22 48 43
22 49 44
22 47 43
22 48 43
23 49 44
22 49 44
23 49 45
22 48 44
21 47 43
22 48 44
22 47 43
22 49 44
23 50 45
22 47 43
22 49 44
23 49 45
22 48 44
22 48 43
22 49 44
22 48 43
22 49 45
22 47 43
22 48 44
22 48 43
22 47 43
22 49 44
22 49 44
22 48 43
22 49 44
22 49 44
22 49 44
22 47 43
22 47 43
21 46 42
22 47 43
21 46 41
21 45 40
20 44 39
21 42 37
55 29 23
71 39 29
79 72 60
72 67 55
57 56 47
53 54 47
42 46 38
57 57 51
18 32 31
14 32 31
14 33 32
16 36 34
19 41 38
20 45 41
21 46 42
21 46 42
21 45 41
21 47 43
22 49 44
21 47 43
22 48 44
22 47 43
22 47 43
21 47 43
21 46 42
22 48 44
21 46 42
22 48 43
22 50 45
21 47 43
22 48 44
22 49 44
23 50 45
22 48 44
22 49 44
23 49 45
23 49 45
23 50 46
23 49 45
22 49 44
22 48 44
23 50 45
22 49 44
22 47 43
22 48 43
22 48 44
22 49 44
23 50 45
22 49 44
22 49 44
23 50 45
23 50 45
23 50 45
23 50 45
23 50 45
23 50 45
23 49 45
22 49 44
23 50 45
23 50 45
22 47 43
22 49 44
23 49 44
22 48 43
22 47 42
22 47 42
21 46 41
22 46 41
21 44 39
17 36 32
13 29 26
10 23 21
10 22 20
10 22 20
13 27 25
14 31 28
18 38 35
19 42 37
21 46 41
22 47 42
22 47 42
22 49 44
22 48 44
23 49 44
22 49 44
22 49 44
22 48 43
22 49 44
23 49 45
22 48 43
22 48 43
22 48 44
22 48 44
22 49 44
22 49 45
22 49 44
22 48 43
22 48 43
22 48 44
22 48 44
22 49 44
22 48 43
21 47 42
22 49 44
22 48 43
22 49 44
22 47 43
22 48 44
22 49 44
22 47 43
22 48 44
22 48 43
22 48 43
22 47 43
22 47 42
21 46 41
21 46 41
21 45 40
20 44 39
20 43 38
17 37 33
23 27 22
39 39 29
38 39 28
43 42 31
29 33 24
15 25 20
12 27 26
12 28 26
14 32 31
14 33 32
16 36 34
18 41 38
19 43 39
21 47 43
22 47 43
21 47 42
21 47 43
22 47 43
21 47 43
21 47 42
21 47 43
21 47 43
21 46 42
21 47 43
22 47 43
21 47 43
22 48 44
21 47 43
21 47 42
22 48 44
23 50 45
23 49 45
23 50 45
22 49 44
23 49 45
22 48 44
23 50 46
23 49 45
23 50 45
22 48 44
22 49 44
23 51 46
23 50 45
23 51 46
23 50 45
22 48 43
23 50 45
23 50 45
23 50 45
22 47 43
22 48 43
22 49 44
22 49 44
22 49 44
23 49 44
23 50 45
23 49 44
22 49 44
23 50 45
22 49 44
22 48 44
22 49 44
22 48 43
22 49 44
22 49 44
22 47 42
22 47 42
22 47 42
21 45 40
21 45 40
21 44 39
21 43 38
21 45 40
20 44 39
21 45 40
22 47 42
22 47 42
22 47 42
22 47 42
22 47 43
23 50 45
22 48 43
23 50 45
22 48 43
22 48 43
22 48 44
22 49 44
22 48 44
22 48 43
22 49 44
22 48 44
22 48 44
22 48 43
23 50 45
22 49 44
22 48 44
22 48 44
22 49 44
22 48 44
22 47 43
22 49 44
22 49 44
22 49 44
22 48 43
22 48 44
23 49 45
22 49 44
21 47 42
22 48 43
22 48 44
22 48 44
22 48 43
21 46 41
22 47 42
21 46 41
22 46 42
21 45 40
20 43 39
21 45 40
20 42 37
18 38 33
14 30 27
10 22 20
8 19 17
9 21 19
10 23 22
12 28 26
15 33 31
15 34 32
17 38 35
20 43 40
20 44 40
22 48 43
22 47 43
22 48 43
22 48 43
22 48 43
21 46 42
21 47 43
21 47 43
21 47 43
21 47 43
21 47 43
21 47 42
21 46 42
21 47 43
21 47 43
22 47 43
21 46 42
21 47 43
22 49 44
23 50 45
23 51 46
23 49 45
23 50 45
22 49 44
23 50 46
23 51 46
23 50 45
23 50 45
22 49 44
23 50 45
23 49 44
23 50 45
22 49 44
23 50 45
22 49 44
23 50 45
23 50 45
22 48 44
22 49 44
22 49 44
23 51 46
22 48 43
22 49 44
23 50 45
23 50 45
22 48 44
23 50 45
23 50 45
22 49 44
23 49 44
22 47 43
22 48 43
23 49 44
22 48 43
22 48 43
22 48 43
23 49 44
21 46 42
22 48 43
22 47 42
22 48 43
22 48 43
22 48 43
22 48 43
22 47 43
22 48 44
22 48 43
22 47 43
22 48 44
22 49 44
23 49 45
22 49 44
22 48 43
22 49 45
23 50 45
22 49 44
22 49 44
22 49 44
23 49 45
22 49 44
22 48 43
22 48 44
23 49 44
22 49 44
22 48 43
22 49 44
22 49 44
23 49 45
22 49 44
22 48 43
21 47 42
22 47 43
22 48 43
23 50 45
22 48 43
22 47 43
22 48 43
22 48 43
22 48 43
21 47 42
22 48 43
22 47 42
22 48 43
21 46 42
22 46 42
21 45 40
21 45 40
21 44 40
21 44 40
20 42 37
20 42 38
19 42 37
19 42 38
19 41 37
20 43 38
20 44 40
20 45 40
21 45 40
22 47 42
21 47 42
21 47 42
21 47 43
21 46 41
21 46 42
22 48 43
22 48 43
22 49 44
22 48 44
21 47 43
22 47 43
21 47 42
21 47 42
22 48 44
21 47 43
22 47 43
21 47 43
22 48 43
21 47 43
22 49 44
23 50 45
22 49 44
23 50 45
23 49 44
23 50 45
23 50 45
23 50 45
23 49 44
22 49 44
23 51 46
23 51 46
22 49 44
23 51 46
23 50 45
23 50 45
22 49 44
23 49 45
22 48 44
23 49 44
23 49 44
23 49 45
22 47 43
23 50 45
24 51 46
22 49 44
23 49 44
22 49 44
24 51 46
22 49 44
23 49 44
23 49 45
22 49 44
23 51 45
22 49 44
23 49 44
22 47 42
22 48 44
22 47 43
23 49 44
22 48 44
22 48 43
22 48 43
22 49 44
22 48 43
23 50 45
22 48 43
22 48 43
22 49 44
22 49 44
22 49 44
22 49 44
22 49 44
22 49 44
22 48 43
22 49 44
23 49 45
22 49 44
22 48 43
23 50 45
22 49 44
22 48 44
22 48 43
22 48 43
22 49 44
22 49 45
23 49 45
22 48 43
22 49 44
22 49 44
22 48 43
22 48 43
22 49 44
22 48 43
22 48 44
22 48 43
22 48 44
23 50 45
22 49 44
22 48 44
22 48 43
22 47 43
21 47 42
21 47 42
22 48 43
22 47 43
22 47 42
22 48 43
21 46 42
21 46 41
21 46 42
21 46 41
21 46 41
21 46 41
21 46 42
22 47 42
21 45 41
21 45 41
21 47 42
21 45 41
22 47 42
22 47 43
22 48 43
22 48 43
22 48 43
21 46 42
22 48 44
21 47 42
22 47 43
22 48 44
21 47 43
22 48 43
21 47 43
22 48 44
21 47 42
21 47 43
21 46 42
22 48 43
21 46 42
21 47 43
23 50 46
23 51 46
23 50 45
23 51 46
22 49 44
23 50 46
23 50 45
23 51 46
23 50 45
23 49 45
23 49 44
23 50 45
22 49 44
23 50 46
23 50 45
22 49 44
22 49 44
23 50 45
22 49 44
22 49 44
22 49 44
23 49 45
23 49 44
22 49 44
23 51 46
22 48 44
23 50 45
22 48 44
23 50 45
22 48 44
23 49 44
23 50 45
22 48 43
23 50 45
23 50 45
22 49 44
22 48 43
23 50 46
22 48 43
23 49 44
23 50 45
22 49 44
22 48 43
22 49 44
22 49 44
22 48 43
22 49 44
21 46 42
22 48 44
22 48 43
22 49 44
22 49 44
22 48 43
23 50 45
22 48 44
23 50 45
23 50 45
22 49 44
22 49 44
23 49 45
23 50 45
23 50 45
23 49 44
22 49 44
22 47 43
22 48 44
22 49 44
22 48 44
22 48 44
22 48 43
22 49 44
22 48 44
22 48 44
22 49 45
23 49 45
22 48 44
22 48 44
22 48 44
23 49 45
22 49 44
22 49 44
22 48 44
22 48 43
22 48 44
22 48 44
22 48 43
22 48 44
22 48 43
22 47 42
22 47 43
21 46 42
21 46 42
22 48 43
22 48 43
21 46 42
21 46 42
22 47 43
21 47 42
21 46 42
21 46 41
21 47 42
22 48 43
21 47 43
21 46 42
21 47 43
22 48 44
22 48 44
22 48 44
22 48 44
22 48 44
21 47 43
22 48 44
21 47 42
22 47 43
22 48 44
21 46 41
21 47 43
21 46 42
22 48 44
21 47 43
22 49 44
23 50 45
23 50 45
23 50 45
23 50 45
24 51 46
23 50 46
24 51 46
23 50 45
23 50 45
23 50 45
23 51 46
23 50 45
23 49 45
23 50 45
23 50 45
23 50 46
22 48 44
23 50 45
23 50 45
22 48 44
23 50 45
22 48 43
23 49 45
22 49 44
23 51 46
22 49 44
22 49 44
23 50 45
23 49 45
23 50 45
23 49 44
23 49 44
22 49 44
23 49 44
22 49 44
23 50 45
22 49 44
22 48 43
23 49 45
22 49 44
23 50 45
22 48 43
23 50 45
22 49 44
23 49 44
22 49 44
23 50 45
22 48 43
23 50 45
23 49 44
22 49 44
23 49 45
22 49 44
22 48 43
22 48 44
22 49 45
22 48 44
22 49 44
22 49 44
22 48 43
22 49 44
22 48 43
22 49 45
23 49 45
22 49 45
22 48 44
22 49 45
23 50 45
22 48 43
22 49 44
23 50 45
22 49 44
22 47 43
22 49 44
22 48 44
23 50 45
22 48 44
22 48 43
22 49 44
21 47 42
22 49 44
22 49 44
22 48 44
22 48 43
22 47 43
22 47 42
22 48 43
22 47 43
22 47 43
22 48 43
22 48 44
22 48 44
22 48 43
23 49 45
22 48 44
21 47 42
22 48 44
22 49 44
21 47 42
22 48 43
21 47 42
21 47 43
22 49 44
22 48 43
21 46 42
22 48 43
21 47 43
21 47 43
21 47 43
22 48 44
21 47 43
22 49 44
21 47 42
22 48 44
22 48 43
22 48 43
21 47 43
21 46 42
21 47 43
22 49 44
23 50 45
23 51 46
22 49 44
24 52 46
22 49 44
23 51 46
22 48 44
23 50 45
23 49 45
23 50 45
23 49 44
22 49 44
23 50 45
23 49 44
23 50 45
23 49 44
23 50 45
23 50 45
23 50 45
24 51 46
23 50 45
23 50 45
23 49 44
22 49 44
23 51 46
22 49 44
22 48 43
22 48 43
23 50 45
22 48 44
23 50 45
23 50 45
23 50 45
22 49 44
22 49 44
23 51 46
22 48 43
23 50 45
23 50 45
23 49 44
23 50 46
22 48 44
23 51 46
23 50 45
22 48 44
23 50 45
23 50 45
22 49 44
22 48 43
22 49 44
23 50 45
22 48 43
22 49 44
23 50 45
22 48 44
22 48 44
23 50 45
22 49 44
22 49 45
22 49 44
23 50 45
23 50 45
23 50 45
22 49 44
23 50 45
22 48 43
23 50 45
22 48 43
23 50 45
23 50 45
22 49 44
22 49 44
22 48 43
22 49 44
22 49 44
22 48 43
22 48 44
21 47 43
22 49 44
21 47 42
22 48 43
22 48 43
22 47 43
22 48 43
22 48 43
22 48 43
22 49 44
22 48 43
22 48 44
22 48 43
22 49 44
22 47 43
21 46 42
22 47 43
22 49 44
22 48 43
21 47 42
22 47 43
22 48 44
22 48 43
22 48 43
22 48 43
22 47 43
22 48 44
22 49 45
22 48 44
22 47 43
22 48 44
22 49 44
22 47 43
22 47 43
22 48 43
22 48 44
21 47 43
22 47 43
22 49 44
21 47 43
21 47 43
21 47 42
23 50 45
23 50 45
23 50 45
24 51 46
24 51 46
23 50 45
23 49 45
23 51 46
23 50 45
22 48 43
23 50 45
23 51 46
22 49 44
24 52 47
23 50 45
23 50 45
23 50 45
23 50 45
23 50 45
23 50 45
23 49 44
23 51 46
23 49 44
24 52 47
23 50 45
23 50 45
23 50 45
23 50 45
24 52 47
23 50 45
22 49 44
23 50 45
22 48 43
23 50 45
23 50 45
23 50 45
23 49 45
23 50 45
23 49 45
23 49 45
22 49 44
23 50 45
23 49 45
23 50 45
23 50 45
23 50 45
23 49 45
23 49 45
23 49 44
22 48 44
22 49 44
23 50 45
22 48 43
23 49 44
23 49 45
23 50 45
22 48 44
22 49 44
23 50 45
22 49 44
23 51 46
22 49 44
22 49 44
22 49 44
22 49 44
23 50 45
23 50 45
22 48 43
23 50 45
23 49 45
22 49 44
22 49 44
22 48 43
21 47 42
22 49 45
22 48 44
22 49 44
22 48 43
22 48 44
22 49 44
22 49 45
22 48 44
22 48 43
22 49 44
22 47 43
22 48 44
23 49 45
22 49 44
22 48 43
22 48 44
22 49 44
23 49 44
22 47 43
22 49 44
21 46 42
23 49 44
22 48 44
22 48 43
21 46 42
22 48 44
22 48 44
21 46 42
22 47 43
22 47 43
22 47 43
21 47 42
22 48 43
21 47 42
22 48 44
22 47 43
22 48 44
21 47 43
21 47 42
21 46 42
22 49 45
22 48 43
22 48 43
22 48 44
21 47 43
21 47 43
23 49 45
23 49 45
23 50 46
23 50 45
22 49 44
23 51 46
23 50 45
22 49 44
23 51 46
23 50 45
23 50 45
23 49 44
22 49 44
23 50 46
23 50 45
23 49 45
23 51 46
23 51 46
23 50 45
23 49 45
23 50 45
23 49 45
23 49 44
23 50 45
22 49 44
23 50 45
22 49 44
23 50 45
23 50 46
23 49 45
22 48 43
23 49 45
23 50 46
22 49 44
23 50 45
22 49 44
23 50 45
22 49 44
23 50 45
22 48 43
23 50 45
23 50 45
23 49 44
23 50 45
23 50 46
23 49 45
23 50 45
23 50 45
23 49 45
23 49 44
23 51 46
23 50 45
22 49 44
22 48 43
22 48 44
22 49 44
22 49 44
23 50 45
22 49 44
23 50 45
22 49 44
22 49 44
22 47 43
22 48 43
22 49 44
23 50 45
23 51 46
23 50 45
22 49 44
22 49 45
22 48 43
22 48 43
22 48 44
22 49 44
23 49 45
22 49 44
22 49 44
22 49 44
23 50 45
22 48 44
22 48 44
22 48 43
22 47 43
23 50 45
22 48 43
23 49 44
22 47 43
22 49 44
22 48 44
22 48 43
22 49 44
22 48 44
22 49 44
22 49 44
22 48 44
22 48 44
22 48 43
22 48 43
22 48 44
22 49 44
22 48 43
22 48 43
22 48 44
22 48 44
21 47 43
22 49 44
21 47 43
22 48 43
21 47 43
21 47 43
22 49 44
22 48 44
22 48 43
22 49 44
22 48 44
21 47 43
22 48 43
22 48 43
21 47 42
22 48 44
23 50 45
23 51 46
23 50 46
22 49 44
23 49 44
23 50 45
23 49 44
22 49 44
23 50 45
24 51 46
23 51 46
23 50 45
23 49 44
23 50 45
23 50 45
23 50 45
23 50 45
23 50 46
23 50 45
23 50 45
23 50 45
22 49 44
23 51 46
23 50 45
23 50 45
23 49 44
23 51 46
23 50 45
22 49 44
23 49 45
23 49 45
23 49 45
22 48 44
22 49 44
22 49 44
23 50 45
22 49 44
23 50 45
23 50 45
23 50 45
23 49 45
23 49 45
23 49 45
22 49 44
23 49 45
22 49 44
23 50 45
23 49 45
23 49 45
23 51 46
23 50 45
23 50 46
23 51 46
22 49 44
22 49 44
22 49 44
23 49 45
22 48 44
22 48 44
22 48 43
23 50 45
23 49 45
22 48 44
23 50 45
23 50 45
22 49 44
23 49 45
23 50 45
22 49 44
22 49 45
22 49 44
22 48 44
22 49 45
22 49 44
22 49 44
22 48 43
22 48 43
22 48 44
22 48 43
23 50 45
22 49 44
22 48 44
22 48 44
22 47 43
22 49 44
22 48 44
22 48 44
22 48 44
23 49 45
22 49 45
22 48 44
22 48 44
22 49 44
22 48 44
22 47 43
22 49 44
22 48 44
22 49 44
22 47 43
22 47 43
21 47 43
22 47 43
22 48 44
22 49 44
22 48 44
22 48 43
22 48 43
22 48 43
21 47 42
22 48 43
21 46 42
21 47 43
21 46 42
22 48 43
22 48 44
22 48 44
22 47 43
22 48 44
21 47 43
21 47 43
23 49 45
23 49 44
23 50 45
23 49 44
23 49 45
23 50 45
23 50 45
23 50 45
23 50 45
23 51 46
23 50 45
23 50 45
23 49 44
23 51 46
23 50 45
23 50 45
23 50 45
23 50 46
23 49 44
23 49 45
23 51 46
23 49 45
22 49 44
23 50 45
23 50 45
23 50 45
22 49 44
23 49 44
23 49 45
23 49 44
23 50 45
23 50 45
22 48 44
23 50 45
23 49 45
23 49 44
23 50 45
22 48 44
23 49 45
23 49 45
22 49 45
22 49 44
23 50 46
23 50 45
23 51 46
23 51 46
23 50 45
23 50 45
22 49 44
22 49 44
23 49 45
22 48 43
23 49 44
23 49 45
22 49 44
23 50 45
23 50 45
23 50 46
23 50 45
22 48 43
23 49 45
22 49 44
22 48 44
23 49 45
22 49 44
22 48 44
23 49 45
23 50 45
22 49 44
22 48 44
22 48 43
22 48 44
23 50 45
22 49 44
23 50 45
22 49 44
23 49 45
23 49 45
22 49 44
21 47 42
22 48 44
23 50 45
23 50 45
23 50 46
22 48 44
22 48 43
22 48 44
22 48 44
22 48 43
23 50 45
22 48 43
22 48 43
22 49 44
22 48 44
22 49 45
22 48 43
22 48 44
22 49 44
22 48 43
21 47 42
22 49 44
22 48 44
22 49 45
22 49 44
21 47 42
21 47 43
22 48 43
22 48 44
22 48 43
22 47 43
22 49 44
21 47 42
22 47 43
22 49 45
22 49 45
22 47 43
22 48 43
21 47 43
22 48 44
22 48 43
23 51 46
24 52 47
23 50 45
23 50 45
22 49 44
22 49 44
23 50 45
23 50 45
23 49 45
23 51 46
23 51 46
23 50 45
23 51 46
23 50 45
23 50 45
23 50 46
23 50 45
23 51 46
23 51 46
23 50 45
22 49 44
23 50 45
23 50 45
23 50 45
23 50 45
23 49 45
23 49 45
23 51 46
23 49 45
22 49 44
22 49 44
23 50 45
23 50 45
23 50 45
22 49 44
23 50 45
23 50 45
23 50 45
23 51 46
22 48 43
23 50 45
23 51 46
22 49 44
23 49 45
22 49 44
23 50 45
22 48 44
22 48 44
22 49 44
23 49 44
22 48 44
23 50 46
22 49 44
23 49 45
23 50 45
22 48 44
23 50 45
23 50 46
22 49 44
22 48 44
22 49 44
23 49 45
22 49 44
22 49 44
23 49 45
23 50 46
22 49 44
23 50 45
23 49 45
22 48 43
23 50 45
22 48 44
23 50 46
22 49 44
22 49 44
23 50 45
22 49 44
22 48 44
23 50 45
23 50 45
22 49 44
22 48 44
22 49 44
23 50 45
22 49 45
22 49 44
22 49 45
22 48 43
23 50 45
22 49 44
23 50 45
22 48 43
23 50 45
22 49 44
21 47 42
22 48 43
22 49 44
22 49 44
23 50 45
22 49 44
22 47 43
21 47 42
22 49 44
21 47 43
22 49 44
22 48 43
22 47 43
22 48 43
22 47 43
21 47 43
22 49 44
21 47 43
22 48 43
22 48 44
21 47 43
22 48 44
21 47 43
22 48 44
22 48 44
22 48 43
