P3
120 80
255
18 41 38
17 39 37
18 41 38
18 40 38
18 40 38
18 40 37
18 41 38
18 41 38
18 41 38
18 41 38
18 42 39
18 41 38
18 40 38
18 40 38
19 42 39
18 40 38
18 41 38
18 40 38
18 41 38
18 41 38
18 41 39
18 41 38
18 41 38
18 42 39
19 42 40
18 41 39
18 41 38
18 41 39
19 42 39
19 42 39
18 41 38
18 41 38
18 42 39
18 42 39
18 42 39
18 41 39
18 41 38
18 42 39
18 41 38
18 41 38
18 41 38
18 42 39
18 41 38
18 41 39
18 41 38
18 41 38
19 42 39
18 41 38
18 40 38
18 41 38
18 42 39
19 42 39
18 41 38
18 41 38
18 41 38
19 42 39
18 41 38
18 40 37
18 41 38
18 41 38
19 42 39
19 42 39
18 41 38
18 41 38
19 42 39
18 41 38
19 42 39
19 42 39
19 42 39
19 43 40
19 43 39
18 41 39
19 43 40
18 41 39
18 41 38
19 42 39
18 41 38
18 41 38
18 41 38
18 41 38
19 42 39
18 42 39
18 42 39
18 41 38
18 41 38
19 42 39
19 42 39
18 41 38
18 42 39
18 41 38
19 42 39
18 42 39
18 41 38
19 42 39
19 42 39
19 42 39
19 42 39
18 41 39
19 42 39
19 43 40
18 42 39
19 42 39
19 42 39
19 42 39
19 42 39
19 43 40
19 42 40
18 41 38
19 43 40
19 42 39
19 42 39
19 42 40
18 41 38
18 42 39
18 41 38
18 42 39
18 41 39
18 42 39
18 41 38
19 43 40
18 41 38
18 42 39
18 41 38
18 40 38
18 41 38
18 41 38
18 41 39
18 41 38
18 41 38
18 40 38
18 41 38
18 41 38
19 42 39
18 41 38
18 41 38
18 41 39
18 41 38
18 41 38
18 41 38
18 41 38
18 41 38
18 42 39
18 41 38
19 42 39
18 41 38
19 42 39
18 42 39
18 41 39
18 42 39
18 41 38
18 41 38
18 41 38
18 42 39
19 42 39
18 42 39
18 42 39
18 41 38
18 42 39
18 41 39
18 41 38
19 43 40
18 41 38
18 42 39
18 41 39
18 41 38
18 42 39
18 42 39
18 42 39
19 43 40
19 42 39
19 42 39
19 42 39
19 42 39
19 42 39
19 42 39
18 41 39
19 42 39
19 42 39
19 42 39
18 42 39
18 41 38
19 42 39
19 42 39
19 42 39
18 41 38
19 43 40
19 43 40
18 41 38
18 41 38
19 42 39
19 42 39
18 42 39
19 42 39
19 42 39
19 42 39
19 42 39
19 42 39
19 42 39
19 42 39
19 42 39
19 42 40
19 42 39
19 43 40
19 42 39
19 42 39
19 42 39
19 42 39
19 43 40
19 43 40
19 43 40
19 42 39
19 44 41
19 42 39
19 42 39
19 42 39
19 42 39
19 43 40
18 41 38
19 43 40
19 42 39
18 41 38
19 42 39
18 41 39
19 43 40
19 42 39
19 43 40
19 42 39
19 43 40
19 42 39
19 42 39
19 43 40
19 42 39
19 42 39
19 42 39
19 42 39
19 42 39
19 42 39
19 42 39
19 43 40
19 42 39
18 42 39
18 41 39
18 42 39
19 42 39
19 42 39
19 42 39
19 42 39
18 41 38
18 42 39
18 41 38
18 41 38
18 41 38
18 41 38
18 41 38
18 41 39
19 42 39
18 41 38
18 41 38
18 41 38
19 43 40
18 42 39
19 42 39
19 42 39
19 42 39
19 42 39
19 42 39
19 42 39
18 41 38
19 42 39
19 42 39
19 42 39
19 42 39
18 42 39
18 41 38
18 41 38
19 42 39
19 42 39
19 42 40
18 42 39
18 42 39
19 42 39
19 42 39
19 42 39
19 42 39
19 42 39
19 43 39
19 42 39
19 42 39
19 42 39
19 43 40
19 43 40
19 42 39
19 43 40
19 43 40
19 42 39
19 42 39
19 42 39
19 42 39
19 42 39
20 44 41
19 42 39
19 43 40
19 42 39
19 42 39
19 42 39
19 43 40
19 43 40
19 43 40
19 43 40
20 44 41
19 42 39
19 43 39
19 44 40
19 43 40
19 43 40
19 43 40
19 42 39
19 43 40
19 44 40
19 43 40
19 43 40
19 42 39
19 42 39
19 43 40
19 43 40
19 43 40
19 42 39
19 43 40
19 43 40
19 42 39
19 42 39
18 42 39
19 42 39
19 43 40
19 42 39
20 44 41
19 42 39
19 43 40
19 43 39
19 43 39
19 43 40
19 43 39
19 42 39
19 43 39
19 43 40
19 43 40
19 42 38
19 42 39
19 43 40
19 43 40
19 42 39
19 43 40
19 42 39
19 43 40
19 44 41
19 43 40
19 43 40
19 42 39
19 43 40
19 43 40
18 41 38
18 41 38
19 42 39
18 41 39
18 41 38
18 41 38
18 41 39
19 42 39
19 43 40
19 42 39
19 42 39
19 42 39
18 41 38
18 41 38
19 42 39
19 42 39
18 41 38
18 41 38
19 43 40
18 41 38
19 42 39
19 43 40
19 42 40
19 43 40
19 42 39
18 42 39
18 42 39
18 41 38
19 42 40
19 42 39
19 42 39
19 43 40
18 41 38
19 43 40
19 43 40
19 42 39
19 43 40
19 43 40
19 43 39
19 43 40
19 42 39
19 42 39
19 43 39
19 43 40
19 42 39
19 42 39
19 42 39
19 42 39
19 42 39
19 43 40
19 43 40
19 42 39
19 43 40
19 43 40
18 42 39
19 42 39
19 43 40
19 42 39
18 41 38
19 43 40
19 42 39
19 43 40
19 43 40
19 43 40
19 43 40
19 43 40
20 44 41
19 43 39
19 43 40
20 44 41
19 43 40
19 43 40
19 44 40
19 43 40
19 43 40
19 42 39
19 43 40
19 43 40
19 43 39
19 43 40
19 44 40
19 43 40
20 45 42
19 43 40
19 43 40
19 43 40
19 43 40
19 43 40
19 43 40
19 42 39
19 43 40
19 43 40
19 43 40
19 44 40
19 44 40
20 44 41
19 43 40
19 43 40
19 43 39
19 43 40
19 43 39
19 43 40
19 42 39
19 43 40
20 44 41
19 43 40
20 44 41
19 43 39
20 44 40
19 44 40
20 44 40
19 43 40
19 43 40
19 43 40
20 44 41
19 44 40
20 44 40
20 44 41
19 43 40
19 42 39
19 43 40
19 42 39
19 42 39
18 42 39
18 42 39
19 43 40
19 42 39
19 43 40
19 42 39
19 43 40
18 41 38
19 42 39
19 42 39
18 41 38
18 41 38
18 42 39
19 43 40
19 42 39
19 42 39
19 42 39
19 42 39
19 42 39
18 42 39
19 43 40
19 43 40
19 43 40
19 42 39
19 43 40
19 44 40
19 42 39
19 43 40
18 42 39
19 42 39
19 42 39
19 42 39
19 43 40
19 43 40
19 43 39
19 43 39
19 43 40
19 43 40
19 42 39
19 43 40
19 42 39
19 43 39
19 43 40
19 42 39
19 42 39
19 43 40
19 43 40
19 43 40
19 43 40
19 42 39
19 44 40
19 43 39
19 43 40
19 42 39
19 42 39
19 42 39
19 42 39
19 44 40
19 43 40
19 43 40
19 42 39
19 43 39
19 43 39
20 44 41
19 43 40
19 42 39
19 44 40
20 44 41
20 44 41
20 44 41
19 43 40
20 44 40
19 43 40
19 43 40
20 44 41
19 43 40
20 44 40
19 43 40
20 44 40
19 43 40
19 43 40
20 44 41
19 43 40
20 44 40
20 44 40
19 43 40
19 43 39
20 44 40
20 44 40
20 44 41
20 44 40
20 44 40
20 44 40
19 44 40
19 43 39
19 43 40
19 44 40
20 44 40
19 43 40
20 44 41
20 45 41
19 43 40
19 43 40
20 44 40
20 45 41
20 44 41
20 44 41
19 43 39
19 44 40
19 44 40
20 44 41
19 43 40
19 43 40
19 43 40
20 44 41
20 44 41
19 44 40
18 41 38
18 41 38
19 42 39
19 42 39
19 42 39
19 42 39
19 42 39
19 43 40
18 41 38
18 41 38
18 42 39
19 43 40
19 43 39
19 42 39
19 42 39
19 42 39
19 42 39
19 42 39
19 43 40
18 41 38
19 43 40
19 43 40
19 42 39
19 43 40
19 43 40
19 43 40
19 43 39
19 43 40
19 43 40
20 44 41
19 42 39
20 44 41
19 43 40
19 42 39
19 43 40
19 43 39
19 42 39
20 44 40
19 42 39
19 42 39
19 42 39
20 44 40
19 43 40
19 43 40
19 43 40
20 44 40
20 44 40
19 43 40
19 43 40
19 43 40
20 44 40
19 43 40
19 43 40
19 43 40
19 43 40
20 44 41
20 45 41
20 44 41
20 44 40
19 43 40
19 43 40
19 44 40
20 44 40
20 44 41
19 42 39
20 44 40
19 43 39
19 42 39
19 42 39
20 44 40
20 44 40
20 44 41
20 44 40
19 43 40
20 44 41
20 44 40
20 44 41
20 44 40
19 43 40
20 44 41
20 44 40
20 45 41
20 45 41
20 44 41
20 44 41
20 44 41
20 45 41
20 45 41
19 43 40
20 44 41
20 44 40
20 44 41
20 44 40
20 44 40
20 44 41
20 45 41
19 43 40
20 45 41
20 44 40
19 43 40
20 44 41
20 45 42
20 45 41
20 44 41
20 45 41
20 44 41
20 44 41
20 44 40
20 45 42
20 45 41
20 44 41
19 43 40
20 44 40
20 44 41
20 44 41
20 44 40
20 44 40
20 44 41
19 43 40
20 45 41
19 42 39
19 43 39
19 42 39
19 42 39
18 41 38
19 43 40
18 41 38
19 43 40
19 42 39
19 42 39
19 42 39
19 42 39
19 43 40
18 41 38
19 42 39
19 42 39
19 42 39
19 42 39
19 43 40
19 42 39
19 43 40
19 43 39
19 43 40
19 43 40
19 43 39
19 42 39
19 43 40
19 43 40
20 44 41
19 43 40
19 43 40
20 44 40
19 42 39
19 42 39
20 44 41
19 43 40
20 44 41
19 43 40
19 43 40
20 44 41
19 43 40
20 44 40
20 44 41
19 43 40
19 42 39
19 43 40
19 43 40
20 44 40
19 44 40
20 44 41
19 43 40
20 44 41
20 44 40
20 44 41
19 43 40
19 43 40
19 43 40
20 45 41
20 44 41
20 44 41
20 44 41
20 44 41
19 43 40
20 44 40
20 44 41
20 44 40
20 45 41
20 45 41
20 44 41
20 44 40
20 44 40
20 44 41
20 44 41
20 44 41
20 44 40
20 45 41
20 44 41
20 44 40
20 44 41
20 44 40
20 44 41
20 45 41
20 44 41
20 44 40
20 45 41
20 44 41
20 45 41
20 44 41
20 44 41
20 45 41
20 44 40
20 44 41
20 44 41
20 45 42
20 44 41
19 43 40
20 44 41
20 45 41
20 45 41
20 45 41
20 44 41
20 44 41
20 44 41
20 45 42
20 45 41
20 44 41
20 45 42
20 45 41
20 44 41
21 46 42
21 46 42
20 44 41
20 45 41
21 46 42
20 45 41
20 46 42
20 44 41
20 44 41
20 44 41
20 44 41
19 42 39
19 42 39
19 43 40
19 43 40
19 43 40
19 43 40
18 41 38
19 44 40
19 43 40
19 43 40
19 43 39
19 43 40
19 42 39
20 44 41
19 43 40
19 43 39
20 44 41
19 43 39
19 42 39
19 43 40
19 42 39
19 43 40
19 43 40
19 43 40
19 43 40
19 43 40
20 44 40
19 44 40
19 44 40
19 43 40
20 44 41
19 43 40
19 43 40
19 43 39
19 43 40
20 44 40
20 44 41
19 44 40
19 43 40
20 44 41
19 43 40
19 43 40
19 44 40
19 43 40
20 44 41
19 43 40
20 44 40
20 44 41
20 44 41
20 45 41
20 44 41
19 43 40
20 44 41
20 44 41
20 44 41
20 44 40
20 44 41
20 45 41
20 45 42
20 44 41
20 44 40
20 44 40
20 45 41
19 43 40
20 45 42
20 45 41
20 45 42
20 44 41
20 45 41
20 44 41
20 45 41
19 43 40
20 44 41
20 44 41
20 45 41
20 44 41
20 45 41
20 44 40
20 43 40
20 45 41
20 45 41
20 45 41
20 44 41
20 44 40
20 45 41
20 45 41
20 44 41
20 45 41
20 45 41
20 44 41
20 44 40
20 45 42
21 46 42
20 44 41
20 45 41
21 46 42
20 45 42
20 45 41
20 44 40
21 46 42
20 44 41
21 46 42
20 45 41
20 45 41
21 46 42
20 45 42
20 45 41
21 46 42
20 45 41
20 45 41
21 45 42
21 46 42
20 44 41
20 45 41
21 46 42
20 45 41
20 44 41
21 46 42
20 45 41
20 45 41
19 43 40
19 43 40
19 43 39
19 43 40
19 43 39
19 43 40
19 43 40
19 42 39
19 42 39
19 43 40
19 43 40
19 42 39
19 43 39
19 43 40
19 43 40
19 42 39
19 43 40
19 43 39
19 43 40
19 42 39
19 43 40
20 44 40
20 44 41
20 44 40
20 44 40
19 43 40
20 45 41
20 44 41
19 43 40
20 44 40
19 44 40
20 44 41
19 43 40
20 44 41
20 44 40
20 44 40
20 44 40
20 44 41
20 45 41
20 45 41
20 44 40
19 43 40
19 43 40
20 45 41
20 44 41
19 43 40
20 44 40
20 46 42
20 45 42
20 44 40
20 44 40
19 43 40
20 45 42
20 45 42
20 44 40
20 44 41
20 46 42
20 45 41
20 44 41
20 45 41
20 44 40
20 44 40
20 44 41
20 44 40
20 44 40
20 45 41
20 45 41
20 45 42
20 45 41
20 45 41
20 45 41
20 45 41
21 46 42
20 45 41
20 45 41
20 45 42
21 46 42
21 46 42
21 46 42
21 46 42
21 46 42
20 45 41
20 45 41
21 46 42
21 46 42
21 46 42
20 45 41
21 46 42
21 46 42
21 46 42
20 45 41
21 46 42
21 46 42
21 46 42
21 46 42
21 46 42
21 46 42
21 46 42
21 46 42
21 46 42
20 45 42
20 45 41
20 45 41
20 45 42
21 46 42
21 46 42
20 45 41
21 47 43
20 45 41
21 47 43
21 46 42
21 46 42
21 47 43
21 46 42
20 45 41
21 46 42
20 45 41
20 45 42
20 45 41
21 46 43
19 42 39
19 42 39
19 43 40
19 43 40
19 42 39
19 43 40
19 43 40
19 43 39
20 44 41
20 44 41
20 44 41
19 43 40
19 44 40
19 42 39
20 44 41
19 44 40
19 43 40
20 44 41
20 44 41
20 44 41
20 44 40
20 44 41
19 43 40
19 43 40
20 44 41
19 43 40
20 44 40
20 44 40
19 43 40
20 44 41
20 44 40
20 44 40
20 44 41
20 44 40
20 44 40
20 44 41
20 44 41
20 45 42
20 45 42
20 44 40
20 45 41
20 44 41
20 45 41
19 43 40
20 45 41
20 45 41
20 44 41
20 45 41
20 45 41
21 47 43
20 45 41
21 46 42
20 45 42
19 43 40
20 45 41
21 46 42
20 44 41
20 44 41
20 44 41
20 44 40
20 45 41
20 45 41
20 45 41
20 45 42
21 46 42
20 45 41
20 45 41
20 45 42
21 46 42
20 45 42
19 43 40
20 44 41
21 46 42
20 44 41
21 45 42
20 45 41
21 46 42
21 46 42
20 45 41
20 45 41
20 45 41
21 46 42
21 46 42
21 47 43
20 45 42
21 46 42
21 47 43
20 45 41
21 46 42
21 46 42
21 46 42
21 46 42
21 46 42
21 46 42
20 45 41
21 47 43
21 46 42
21 46 42
21 47 43
21 46 42
21 46 42
20 45 41
20 45 41
21 46 42
21 47 43
21 47 42
21 46 42
21 46 42
21 46 42
21 46 42
21 45 41
21 46 42
21 46 42
21 46 42
21 47 43
21 46 42
20 45 41
21 46 42
21 46 42
21 46 42
19 42 39
20 44 40
20 45 42
19 43 39
19 42 39
20 44 40
19 43 39
19 43 39
19 43 40
20 44 41
20 44 40
19 43 40
19 43 39
20 44 41
19 43 40
20 44 40
20 45 41
19 43 40
20 44 41
19 43 40
19 43 40
20 44 41
20 45 41
20 44 41
20 44 41
19 43 39
20 44 40
19 43 40
20 45 41
20 45 41
19 43 40
20 44 41
19 44 40
19 43 40
20 45 42
20 44 40
21 46 42
20 44 41
20 45 41
20 45 41
20 45 42
20 43 40
20 45 41
20 44 40
20 45 42
20 45 41
20 44 41
20 46 42
20 45 42
21 46 42
20 44 41
19 43 40
20 44 41
21 46 42
20 45 42
20 45 41
21 46 42
21 46 42
20 45 41
20 45 41
21 46 42
21 46 42
20 45 41
21 46 43
21 46 42
20 45 41
21 46 42
21 47 43
20 45 41
21 46 42
20 45 41
21 46 42
21 47 43
20 45 41
21 46 42
20 45 42
20 45 41
21 46 42
20 45 41
20 45 41
21 46 42
21 46 42
21 47 43
21 46 42
21 47 43
21 47 43
21 46 42
21 46 42
21 47 43
21 47 43
21 45 42
21 47 43
21 46 42
20 45 42
21 46 42
21 47 43
21 46 42
21 47 43
21 47 43
21 46 42
21 46 42
21 47 43
21 47 43
21 46 42
21 47 43
21 46 42
21 47 43
21 46 42
21 46 42
21 47 43
22 48 44
21 47 43
21 46 42
21 46 42
22 48 43
21 47 43
21 46 42
21 47 43
21 47 43
21 47 43
19 43 40
20 45 41
19 43 39
19 43 40
20 44 40
19 43 40
19 43 40
20 45 41
19 43 40
20 44 40
20 44 40
19 43 40
20 45 41
20 44 40
20 44 40
20 45 41
19 43 40
19 43 39
19 43 40
20 44 40
20 44 41
19 42 39
19 43 40
20 44 41
20 44 40
20 44 41
20 44 40
20 44 41
20 45 41
20 44 41
20 44 41
20 44 41
20 45 41
20 45 41
20 44 40
20 45 41
21 46 42
21 46 42
20 45 41
21 46 42
20 44 41
21 46 42
20 45 42
20 44 41
20 45 41
20 45 41
20 45 41
21 46 42
20 45 41
21 46 42
20 45 42
20 45 41
20 45 41
21 47 43
21 46 42
20 45 41
20 45 41
21 46 42
20 45 41
20 45 41
21 46 42
21 46 42
20 45 41
21 46 42
21 46 42
20 44 41
21 46 42
20 45 41
21 46 42
21 46 42
21 47 43
20 45 42
21 46 42
21 47 43
21 46 42
22 47 43
21 46 42
20 45 41
21 46 42
21 46 42
21 46 42
21 47 43
21 47 43
21 46 42
21 46 42
21 47 43
22 48 44
21 46 42
21 47 43
21 46 42
21 46 42
21 46 42
21 47 43
21 46 42
21 47 42
21 47 42
21 47 43
21 46 42
22 48 43
22 48 44
21 46 42
22 48 43
21 46 42
21 47 43
22 48 44
22 48 43
21 47 43
21 47 43
21 47 43
21 47 42
21 46 42
21 46 42
21 47 43
21 47 43
21 47 43
21 47 43
21 47 43
21 46 42
21 47 43
21 46 42
19 43 40
19 43 40
19 43 40
20 44 40
19 43 40
20 44 41
20 44 41
20 44 40
19 43 39
20 44 40
20 44 41
20 44 41
20 44 40
20 44 40
20 45 41
20 44 41
20 44 41
20 44 40
20 44 41
20 46 42
20 45 41
20 44 41
20 46 42
19 43 40
20 44 40
20 45 41
20 45 42
20 45 42
20 45 41
20 45 41
20 45 41
20 44 41
21 46 42
20 45 41
21 46 42
20 45 41
20 44 40
20 44 40
21 46 42
20 45 41
20 45 41
21 46 42
21 46 42
21 46 42
20 45 41
20 45 42
20 45 41
20 45 42
21 46 42
20 45 41
20 45 41
20 45 41
21 46 42
21 46 42
20 45 41
21 46 42
21 46 42
21 46 42
21 45 42
21 46 42
21 46 42
21 45 42
21 46 42
21 46 42
21 46 42
21 47 43
21 47 43
21 46 42
21 47 42
21 46 42
21 47 43
21 47 43
21 46 42
21 46 42
21 47 43
21 47 43
21 46 42
21 46 42
22 48 44
21 47 43
21 46 42
21 46 42
21 46 42
22 48 43
21 46 42
21 47 43
21 47 43
21 47 42
21 47 43
21 46 42
21 47 42
21 46 42
22 48 43
21 47 43
21 46 41
21 47 43
22 48 43
21 47 43
22 48 43
21 46 42
21 47 43
21 47 43
22 48 44
22 48 43
22 47 43
22 48 43
21 47 43
21 47 43
21 47 43
21 47 43
21 47 43
21 47 43
22 49 44
21 46 42
22 47 43
22 48 44
22 47 43
22 48 44
22 48 43
22 48 44
20 44 41
19 44 40
19 43 40
19 43 40
20 44 41
19 43 40
19 43 40
19 43 39
20 44 41
20 44 40
20 44 41
20 44 40
20 45 41
20 45 41
20 44 40
20 44 41
20 44 41
20 44 40
20 45 41
20 45 41
20 44 40
20 44 41
20 44 40
21 46 42
20 45 41
20 44 41
20 45 41
20 44 41
20 45 41
20 44 41
20 44 40
20 45 41
21 46 42
20 44 41
20 45 42
20 44 41
21 46 42
21 46 42
21 47 43
21 46 42
20 45 41
20 45 41
20 45 41
21 46 42
21 46 42
21 46 42
21 45 42
21 46 42
20 45 41
20 45 41
20 44 41
21 47 43
21 46 42
21 46 42
21 46 42
21 46 42
20 45 41
21 46 42
21 47 43
21 46 42
21 47 43
21 47 43
21 46 42
21 46 42
21 47 43
21 47 43
21 47 43
21 47 43
21 47 43
21 47 43
21 46 42
22 48 43
21 47 43
21 47 43
21 47 43
22 48 44
21 46 42
21 46 42
21 46 42
21 47 43
21 47 43
21 46 42
21 47 43
21 47 43
21 47 43
21 47 42
22 48 44
21 46 42
22 47 43
22 48 43
21 47 43
21 47 43
21 47 43
21 47 43
21 47 43
21 47 43
22 48 44
22 48 44
22 49 44
21 46 42
22 48 44
21 47 43
22 48 44
21 47 43
22 48 44
22 48 43
21 47 42
22 49 45
22 48 44
22 49 45
22 48 44
21 47 43
21 46 42
22 48 43
22 49 44
22 48 43
21 47 43
22 48 44
22 47 43
22 48 44
20 44 40
20 44 41
20 44 41
20 45 41
19 43 40
20 44 41
20 44 41
20 45 42
20 44 40
20 44 41
20 44 41
20 45 41
20 45 42
20 44 41
20 44 40
20 44 41
20 45 42
20 45 42
20 45 42
20 44 41
20 44 41
20 44 40
21 46 42
20 45 41
20 45 42
20 45 41
21 46 42
20 45 41
20 45 41
20 45 41
20 45 41
20 45 41
20 45 41
20 45 41
21 46 43
20 45 41
20 44 41
21 46 42
21 46 42
21 46 42
21 46 42
21 46 42
20 45 41
21 46 42
20 45 41
21 46 42
21 47 43
21 46 42
21 47 43
21 47 43
21 46 42
20 45 41
21 47 43
21 46 42
21 46 42
21 46 42
20 45 41
21 46 42
21 47 43
21 46 42
21 46 42
21 47 43
21 47 43
22 47 43
21 47 43
21 46 42
21 46 42
21 46 42
21 47 43
22 47 43
21 47 43
21 46 42
21 47 43
21 47 43
21 47 43
21 46 42
22 48 44
21 47 43
21 47 43
22 48 44
22 48 43
22 47 43
21 47 43
21 47 43
21 47 43
22 48 44
22 48 44
21 46 42
22 48 44
21 46 42
22 48 44
21 47 43
22 48 44
21 47 42
22 48 44
22 49 44
22 48 44
21 47 43
22 47 43
21 47 43
22 48 43
22 49 45
22 48 44
22 49 45
22 48 43
22 48 44
22 49 45
22 48 43
22 48 43
22 48 44
22 48 44
22 49 45
22 49 44
22 48 44
22 48 44
22 49 44
22 48 43
22 49 44
22 49 44
22 48 44
20 44 41
20 44 40
20 44 40
20 43 40
20 45 42
19 43 40
20 45 41
20 45 41
20 44 41
20 45 41
20 44 40
20 45 41
20 45 41
20 44 41
20 45 41
20 45 41
20 45 41
20 44 41
20 45 41
20 45 41
20 44 41
20 45 41
20 45 41
20 45 41
20 45 41
20 44 41
20 45 41
19 43 39
20 45 41
20 45 42
21 46 42
21 46 42
20 45 41
21 46 42
20 45 41
20 45 41
21 46 42
20 45 42
21 46 42
20 45 41
21 47 43
21 46 42
21 46 42
21 46 42
20 45 41
21 46 42
20 45 41
21 46 42
21 46 42
21 46 42
21 46 42
21 46 42
21 47 43
20 45 41
21 47 43
21 47 43
21 46 42
21 47 43
21 47 43
21 47 43
21 47 43
21 46 42
21 47 43
21 47 43
21 47 43
21 47 43
21 47 43
22 48 44
21 47 43
21 47 43
21 46 42
22 47 43
21 47 43
22 48 43
21 47 42
22 47 43
21 47 43
21 47 43
22 48 43
21 47 43
22 47 43
22 47 43
21 46 42
22 48 43
22 48 44
22 47 43
22 48 44
22 49 44
22 48 44
22 49 45
22 49 44
22 48 43
22 48 44
21 47 43
22 49 44
22 48 44
22 48 43
21 47 42
22 48 43
22 48 44
22 49 44
22 47 43
22 48 44
22 49 44
21 47 42
23 49 45
22 49 44
22 49 44
22 48 44
22 48 44
22 49 44
22 49 44
22 49 44
22 49 44
22 48 44
23 49 45
22 48 43
22 48 44
23 50 45
23 50 45
20 44 41
20 44 40
20 44 40
20 45 41
20 44 41
20 44 40
20 45 41
20 45 41
20 44 41
20 45 41
20 45 41
20 45 41
20 44 41
20 45 41
20 44 41
20 45 41
20 45 41
20 45 41
20 44 40
20 44 41
20 45 41
20 45 42
21 46 42
20 45 41
20 45 42
20 45 41
20 45 42
21 46 42
21 46 42
20 45 41
20 45 41
20 45 41
20 45 41
20 45 41
21 46 42
21 46 42
21 46 42
21 46 42
21 47 43
21 47 43
21 45 42
21 46 42
21 46 42
21 47 43
21 46 42
22 48 44
21 47 43
21 46 42
20 45 41
21 47 43
21 46 42
22 48 44
21 46 42
21 46 42
21 47 43
21 47 43
21 46 42
22 48 43
21 47 43
21 47 43
21 47 43
21 47 43
21 47 43
21 46 42
22 48 44
21 47 42
22 47 43
21 46 42
21 47 43
21 47 43
22 48 44
22 49 44
21 47 43
22 47 43
21 47 43
22 48 43
22 47 43
22 48 44
22 48 44
22 48 43
22 48 43
22 48 43
22 48 43
22 48 43
21 47 43
22 48 43
22 48 43
22 48 43
22 48 43
22 48 44
21 47 43
22 48 44
22 48 43
22 49 44
22 49 44
22 48 43
22 49 45
22 48 44
22 48 44
22 48 44
22 47 43
22 49 44
23 50 45
22 49 44
23 50 45
23 51 46
22 49 44
22 48 44
22 48 44
22 49 44
22 47 43
22 49 44
22 48 43
22 49 44
23 50 45
22 49 44
22 49 44
22 49 44
22 49 44
22 48 44
20 45 41
20 44 40
20 44 40
20 45 41
20 44 41
20 45 42
20 44 41
20 44 41
20 44 41
20 45 41
20 45 42
20 45 41
20 45 41
20 45 42
20 45 41
20 45 41
20 45 41
21 46 42
21 46 42
20 45 41
20 44 41
20 45 41
20 44 41
20 45 41
20 45 41
20 45 41
20 45 41
20 45 41
20 45 41
20 45 41
20 45 41
20 45 41
21 46 42
21 46 42
21 47 43
21 46 42
21 46 42
21 47 43
21 47 43
21 46 42
20 45 41
21 47 43
21 46 42
21 47 43
21 46 42
21 46 42
21 46 42
21 47 43
21 47 43
21 47 43
21 46 42
21 47 43
21 46 42
21 47 42
21 46 42
21 47 43
21 47 42
21 47 43
22 48 43
21 47 42
22 48 43
22 48 44
21 47 42
21 47 43
22 48 44
22 48 44
22 47 43
22 48 44
21 46 42
22 47 43
22 48 43
22 47 43
22 48 43
22 49 45
21 47 43
22 48 43
22 48 43
23 50 45
22 49 44
22 48 44
22 49 45
22 47 43
22 47 43
22 48 44
22 49 44
22 48 44
22 49 44
22 49 44
22 49 44
22 48 44
22 49 44
22 48 44
22 48 44
22 48 44
22 49 44
22 49 45
22 49 45
23 49 45
22 49 44
23 50 45
22 49 44
22 49 44
23 50 45
22 49 45
22 49 44
22 49 45
22 49 44
22 47 43
23 50 45
23 50 45
22 49 45
22 49 44
23 50 45
22 48 44
23 49 45
23 50 45
23 50 45
22 48 43
23 50 45
23 50 45
20 44 40
20 45 41
20 45 41
20 45 41
21 46 42
20 45 41
20 45 41
20 44 40
20 45 42
20 45 42
20 45 41
20 43 40
20 45 42
20 45 42
20 45 41
20 45 41
20 45 41
20 45 42
20 44 40
20 45 41
20 45 42
20 45 41
21 46 42
20 45 41
20 45 41
21 46 42
21 46 42
21 46 42
21 47 43
21 46 42
21 46 43
21 46 42
20 45 41
21 46 42
21 46 42
21 47 43
20 45 41
20 45 41
21 46 42
21 47 43
21 46 42
22 48 43
21 46 42
21 47 43
22 48 44
21 46 42
21 46 42
21 46 42
21 46 42
21 46 42
21 47 43
21 47 43
22 48 44
21 47 43
21 47 43
21 47 43
22 48 44
22 48 44
21 46 42
21 46 42
21 47 43
22 48 43
22 47 43
21 47 43
22 48 44
21 47 43
34 53 49
122 111 102
136 104 94
81 55 48
22 47 43
22 48 44
22 47 43
21 47 43
22 48 44
22 48 43
22 47 43
23 49 45
22 49 44
21 47 42
21 47 43
22 48 44
21 47 43
22 48 44
22 49 44
22 48 44
22 49 44
22 48 43
22 48 44
22 49 44
22 48 44
22 49 44
22 48 44
22 48 44
22 49 44
22 49 44
22 49 44
23 50 45
22 49 44
22 48 43
22 48 43
22 49 45
23 50 45
22 49 44
22 48 44
22 49 44
22 49 44
22 48 44
22 49 44
23 50 45
23 50 45
23 50 45
22 49 45
22 49 44
22 49 44
22 49 44
22 49 44
22 49 44
22 49 44
22 48 43
20 44 40
20 44 40
20 44 40
20 45 41
20 45 41
21 46 42
20 45 41
20 45 42
20 45 42
20 45 42
20 45 41
21 46 42
20 45 41
20 45 41
20 45 41
21 46 42
20 45 41
20 45 42
20 45 41
21 46 42
21 46 42
20 45 41
21 46 42
21 46 42
20 45 42
21 46 42
21 46 42
21 46 42
21 46 42
20 44 40
21 46 42
21 47 43
21 46 42
20 45 41
21 45 42
21 46 42
21 46 42
21 47 43
20 45 41
21 47 43
20 45 42
21 47 43
21 46 42
21 46 42
21 47 43
22 48 44
21 47 43
21 47 43
21 47 43
21 46 42
21 47 43
21 47 43
21 47 43
21 47 43
21 46 42
22 48 43
21 47 42
21 47 43
22 48 43
22 48 43
22 48 43
21 47 43
22 48 43
22 48 44
21 46 42
69 69 63
181 125 114
212 89 72
227 76 55
241 86 64
187 70 53
43 48 43
21 47 43
22 48 43
22 49 44
22 48 44
22 48 44
22 48 44
23 49 45
22 48 44
22 49 44
22 49 44
22 49 44
22 47 43
22 49 44
22 48 44
22 49 45
22 48 43
22 49 44
22 48 44
22 49 44
23 50 45
22 49 44
23 50 45
23 50 45
22 49 44
22 49 44
22 49 44
22 49 44
22 49 44
22 49 44
23 50 45
23 49 45
22 49 44
22 49 44
22 49 45
22 49 44
23 50 45
23 49 44
22 48 44
23 50 45
23 49 45
22 49 44
23 49 45
22 49 44
23 50 46
23 49 44
23 50 45
24 52 47
23 50 45
20 45 41
20 45 41
20 44 41
20 44 41
20 45 41
20 45 41
20 44 40
20 44 40
21 46 42
21 46 42
20 45 41
20 44 41
21 46 42
20 45 42
20 44 40
21 46 43
20 43 40
20 44 40
20 45 41
20 45 41
21 46 42
21 48 44
21 46 42
21 46 42
20 45 41
21 46 42
20 45 42
21 47 43
21 46 42
21 46 42
21 47 43
21 46 42
20 45 41
21 45 42
21 46 42
21 46 42
21 46 42
21 46 42
21 46 42
21 46 42
21 47 43
21 47 43
21 46 42
21 45 41
22 48 44
21 46 42
21 47 43
21 47 43
21 46 42
21 47 43
21 46 42
22 48 44
21 47 42
21 47 43
22 48 44
22 48 43
22 48 44
21 47 43
21 47 43
22 48 43
21 47 43
21 46 42
22 47 43
21 47 43
35 53 48
144 85 77
182 62 46
200 67 49
215 72 52
249 119 95
242 89 66
151 61 48
22 47 43
22 49 45
22 49 44
22 48 43
22 48 43
22 48 44
22 48 44
22 49 44
23 50 45
22 48 43
22 48 44
22 48 44
23 49 45
23 49 45
22 48 44
22 49 44
23 50 45
23 50 46
23 50 45
23 49 45
23 49 45
22 49 44
22 49 44
22 49 44
22 48 43
22 49 44
23 50 45
22 49 44
23 50 45
22 49 44
23 50 45
23 50 45
23 50 45
22 49 44
23 49 45
23 50 45
23 50 45
23 50 45
22 49 44
23 51 46
22 49 44
23 50 45
23 50 45
22 49 44
23 50 45
24 51 46
23 50 45
23 49 45
20 44 41
20 44 40
20 45 42
20 45 42
20 45 41
20 44 41
20 45 41
20 45 41
20 45 41
20 45 41
20 45 41
21 45 42
21 46 42
20 44 41
20 45 41
20 44 41
21 46 42
21 46 42
21 46 42
20 44 40
20 44 40
20 45 41
21 46 42
20 45 41
20 45 41
21 45 41
20 45 41
20 45 41
20 45 42
20 45 42
22 48 44
21 46 42
21 47 43
21 47 43
21 46 42
20 45 41
21 46 42
21 46 42
21 46 42
20 45 41
21 47 42
21 47 43
21 46 42
21 46 42
21 47 43
21 46 42
21 47 42
21 47 43
21 46 42
21 47 43
21 47 43
21 47 42
21 47 43
21 46 42
22 47 43
21 47 43
21 47 43
21 47 42
21 47 43
22 48 44
22 48 44
21 47 43
21 47 43
21 47 42
67 64 59
130 98 90
160 55 40
171 58 42
189 79 64
203 115 100
209 134 116
193 111 95
27 49 44
22 49 44
22 48 44
22 48 44
22 48 44
22 48 44
52 64 58
132 124 114
173 158 145
159 145 132
97 95 86
22 48 44
22 48 44
22 48 43
23 50 45
23 49 45
22 49 44
22 49 45
23 50 45
22 48 44
22 48 43
23 50 45
22 49 44
23 50 45
23 50 45
23 50 45
22 48 44
22 49 45
22 49 44
22 49 44
23 50 46
22 49 44
23 50 45
23 49 45
23 50 45
22 49 44
24 51 46
23 50 45
23 49 45
23 51 46
23 51 46
23 50 45
23 51 46
23 50 45
22 49 44
23 50 46
23 50 45
23 50 45
20 44 40
20 44 40
20 44 40
20 45 41
20 44 41
20 45 42
20 45 42
20 45 41
21 46 42
20 45 41
20 45 41
21 46 42
21 46 42
21 47 43
20 45 41
20 45 41
21 46 42
21 45 42
20 45 41
21 46 42
20 45 41
21 46 42
21 45 42
21 46 42
21 46 42
21 46 42
21 46 42
21 46 42
21 46 42
21 46 42
21 46 42
21 47 43
21 46 42
21 47 43
21 47 43
21 47 43
21 46 42
21 46 42
22 47 43
21 46 42
21 47 43
21 47 43
21 46 42
21 47 43
21 46 42
21 47 43
21 47 43
22 48 44
22 48 44
21 47 42
21 47 42
21 46 42
21 46 42
22 48 43
22 48 43
20 45 41
22 48 44
21 47 43
22 48 44
22 48 43
22 48 44
22 48 44
22 47 43
22 48 44
67 68 62
110 102 95
133 56 45
142 84 74
153 134 124
156 139 126
172 151 134
169 146 129
24 47 43
22 48 44
22 49 44
22 48 43
22 49 44
79 82 77
179 164 153
204 186 174
214 194 180
237 213 195
242 216 195
134 123 111
23 49 45
22 49 44
22 49 45
23 50 45
23 50 45
22 48 44
22 49 44
23 49 45
23 50 45
23 49 44
23 51 46
22 48 44
23 49 45
23 49 45
23 50 45
23 50 45
23 50 46
91 82 73
175 94 65
209 104 64
214 106 66
139 77 53
23 50 45
23 50 45
23 50 45
22 49 44
23 50 45
23 49 44
23 50 45
23 50 45
24 51 46
23 50 45
23 50 45
23 50 45
22 49 44
23 50 45
20 44 40
20 44 40
20 45 41
20 45 42
20 45 42
20 45 41
20 44 40
21 46 42
20 45 41
20 45 41
21 46 42
20 45 42
21 46 42
20 45 41
20 45 41
20 45 42
21 46 42
20 45 41
21 46 42
21 46 42
21 46 42
21 45 41
21 46 42
20 45 41
21 46 42
21 46 42
21 47 43
21 46 42
21 46 42
21 47 42
21 46 42
21 46 42
21 46 42
21 46 42
21 47 43
21 47 43
21 47 43
21 46 42
21 46 42
20 45 41
22 48 43
21 46 42
21 47 43
22 48 43
21 47 43
21 47 43
22 48 43
21 46 42
22 47 43
22 48 43
21 47 43
21 46 42
22 48 43
21 46 42
21 47 43
21 47 43
22 48 44
21 47 43
22 48 44
22 48 44
21 47 43
22 48 44
21 47 42
22 48 44
45 53 48
86 72 66
104 71 63
103 96 88
100 93 85
101 92 83
107 95 83
108 98 86
22 49 44
21 47 43
22 49 44
22 48 44
22 47 43
110 101 100
157 143 139
160 144 142
165 146 144
174 153 150
185 161 157
154 128 133
35 51 52
22 49 45
22 48 44
23 50 45
23 50 45
23 50 45
22 48 44
23 50 45
23 49 44
23 50 45
22 48 44
22 49 45
23 49 45
22 49 44
23 50 45
23 49 45
103 101 94
206 147 125
226 110 66
234 115 71
255 157 113
255 141 99
168 146 131
23 49 45
23 50 45
23 51 46
22 49 44
24 51 46
23 49 45
22 49 44
23 51 46
22 49 44
23 51 46
23 50 45
23 50 45
23 50 45
20 45 41
20 45 41
20 45 41
20 44 41
20 45 41
20 45 41
20 45 42
20 44 41
20 44 40
21 46 42
21 46 42
20 44 41
21 46 42
21 46 42
21 46 42
20 45 41
21 46 42
21 47 43
20 45 41
20 44 41
21 46 42
21 46 42
21 46 42
21 46 42
21 46 42
21 46 42
21 46 42
21 46 42
21 46 42
20 45 41
21 45 41
21 47 43
21 46 42
21 46 42
21 46 42
21 46 42
21 46 42
21 47 43
22 48 43
21 46 42
21 46 42
21 47 42
22 48 43
21 46 42
21 47 43
21 47 42
21 46 42
22 48 43
22 48 44
21 46 42
22 48 44
21 47 43
21 47 42
21 47 43
22 48 43
22 48 43
21 47 43
21 47 42
22 47 43
21 47 43
21 46 42
22 48 43
22 48 43
22 47 43
21 46 42
56 40 34
49 41 35
43 46 39
51 52 44
44 46 37
50 50 40
40 53 47
22 47 43
22 48 43
23 49 45
22 48 44
27 46 45
61 42 70
65 45 75
67 46 77
72 49 81
78 53 87
82 54 88
85 56 89
62 53 69
22 47 43
22 49 44
22 49 44
22 49 44
22 48 44
22 49 44
22 49 44
22 49 44
22 49 44
23 50 45
23 50 45
22 49 44
22 49 44
23 50 45
46 60 56
151 137 129
189 100 68
204 100 60
212 103 62
222 109 67
219 174 154
214 190 172
105 101 91
23 49 45
23 49 44
23 51 46
23 50 45
23 50 45
23 51 46
22 49 44
23 49 45
23 49 44
23 50 45
23 50 45
23 50 45
20 45 41
20 45 41
21 46 42
20 44 40
21 46 42
21 46 42
20 45 41
21 47 43
21 46 42
21 46 42
21 46 42
20 45 41
20 45 41
20 45 42
20 45 41
20 45 41
21 46 42
20 45 41
21 46 42
20 45 41
21 46 42
21 46 42
21 46 42
20 44 40
20 45 41
21 46 42
21 46 42
21 47 43
21 46 42
20 45 41
21 46 42
21 46 42
21 46 42
21 46 42
21 47 43
22 48 44
21 46 42
22 48 43
22 48 44
21 46 42
20 45 41
21 47 43
21 46 42
21 47 42
21 47 42
21 46 42
20 45 41
22 48 43
22 48 43
22 48 44
21 47 43
21 46 42
22 48 43
22 47 43
22 49 44
21 47 43
21 47 43
21 47 43
21 46 42
21 47 43
20 45 41
19 42 39
17 38 36
15 34 32
15 34 32
13 29 27
9 19 18
11 19 15
22 25 18
36 35 26
22 39 33
21 45 40
21 46 41
21 46 41
22 47 42
22 47 42
32 45 47
51 35 58
57 39 64
59 41 67
62 42 70
62 42 69
65 43 71
69 45 72
56 48 63
22 49 44
23 49 45
22 49 44
23 50 45
22 48 44
23 49 45
22 48 44
23 50 45
23 50 46
23 49 45
22 48 43
23 50 45
23 50 45
23 50 45
74 77 71
147 119 108
156 99 80
148 107 93
170 90 61
187 103 74
180 160 146
188 168 153
145 132 119
22 49 44
22 49 44
22 49 44
23 50 45
23 50 45
23 49 45
23 50 45
22 49 44
23 51 46
22 49 45
23 51 46
23 50 45
20 45 42
20 45 41
21 46 42
20 45 41
20 45 42
21 46 42
20 45 41
20 45 41
20 45 41
21 46 42
20 45 41
21 46 42
21 46 42
21 47 43
20 45 41
21 47 43
20 45 41
21 46 42
20 45 41
21 46 42
21 46 42
21 46 42
21 46 42
21 46 42
21 46 42
21 46 42
21 46 42
21 46 42
21 47 43
21 46 42
21 47 42
21 47 43
21 46 42
21 46 42
22 48 44
21 46 42
21 47 43
21 46 42
21 46 42
21 47 43
21 46 42
21 46 42
21 47 42
21 46 42
21 47 42
21 47 43
21 46 42
21 47 43
21 46 42
21 47 43
22 48 43
21 47 43
21 47 43
21 47 43
22 48 43
21 46 42
21 47 43
22 47 43
22 48 44
22 49 44
21 46 42
20 44 40
18 41 38
17 38 35
17 38 35
16 37 34
15 34 31
16 36 32
17 37 33
18 40 36
20 44 39
21 46 41
21 46 41
21 47 42
22 47 43
21 47 42
27 47 45
41 29 46
41 28 46
43 30 49
46 31 51
40 28 46
45 31 50
49 32 52
34 45 47
22 48 43
22 48 43
22 48 44
22 48 43
22 49 44
21 47 42
22 48 44
23 49 44
23 49 45
23 50 45
23 50 45
23 50 45
22 48 44
22 49 44
72 76 70
124 96 85
111 101 94
114 106 99
126 104 94
135 90 74
142 130 120
148 133 121
115 107 96
23 50 45
23 50 45
22 49 44
23 50 45
23 51 46
23 50 45
23 49 44
84 86 79
136 127 116
137 127 116
76 81 73
23 50 45
20 44 41
21 46 42
20 45 41
20 45 41
21 46 42
20 44 40
20 45 42
21 46 42
20 44 40
21 45 42
21 46 42
20 45 41
20 45 41
21 46 42
20 45 41
21 46 42
21 47 43
21 46 42
21 46 42
21 46 42
21 47 43
21 47 43
21 46 42
21 46 42
21 46 42
20 45 41
20 45 42
21 46 42
21 46 42
21 45 41
21 46 42
21 46 42
21 46 42
21 46 42
21 47 43
21 46 42
21 47 43
21 46 42
21 47 43
21 46 42
21 47 42
22 48 43
21 47 43
21 47 43
21 46 42
21 47 43
22 48 44
21 46 42
21 46 42
21 47 43
21 47 43
22 47 43
21 46 42
22 48 43
21 47 43
22 48 44
21 45 41
21 47 43
21 47 42
22 48 44
21 47 42
22 48 43
21 47 43
22 48 43
21 47 43
21 45 41
21 45 41
21 46 41
22 47 43
22 47 43
22 47 43
21 47 42
21 47 42
21 47 42
22 48 43
21 47 42
22 48 43
38 44 44
34 31 33
25 25 28
24 27 28
36 35 37
47 44 42
49 46 41
26 49 44
21 46 42
22 49 44
22 48 43
23 49 45
23 49 45
22 48 44
22 49 44
22 49 44
22 49 44
23 49 44
23 49 45
22 49 45
22 49 45
22 48 43
42 56 51
89 65 55
98 87 78
95 88 80
96 80 71
105 88 78
109 100 91
98 91 81
64 69 62
22 48 44
23 51 46
23 50 45
23 49 44
22 49 44
25 49 45
144 132 124
209 189 176
219 199 184
250 227 206
229 205 187
156 143 130
20 45 41
20 45 41
21 45 42
21 46 42
20 45 41
20 44 41
20 45 42
20 45 42
20 45 41
20 45 42
21 46 42
20 45 42
21 46 42
20 45 41
21 46 42
21 46 42
21 46 42
21 46 42
21 46 42
21 46 42
21 46 42
21 46 42
21 47 43
21 46 42
20 45 41
21 46 42
21 46 42
21 45 41
21 46 42
21 46 42
21 46 42
21 47 43
21 47 43
22 48 44
21 46 42
21 47 43
21 46 42
21 47 43
21 47 43
22 48 43
21 47 42
21 47 43
21 47 43
21 46 42
21 47 43
22 48 43
22 49 45
21 46 42
22 47 43
21 47 43
21 46 42
21 47 43
21 46 42
21 47 42
21 47 43
22 47 43
22 48 44
22 48 44
22 48 44
21 47 43
22 48 44
22 47 43
22 48 44
22 47 43
22 47 43
21 47 43
21 46 42
22 48 44
21 47 43
22 47 43
22 48 43
22 47 43
21 46 42
21 45 41
20 44 40
18 40 37
17 38 35
15 34 32
11 23 20
11 21 16
14 23 17
27 31 23
30 37 29
23 45 39
21 46 41
21 46 41
21 46 42
22 48 43
22 48 43
22 48 44
22 48 44
22 49 44
22 48 43
22 49 44
22 48 43
23 49 45
22 49 44
22 49 44
23 49 44
22 48 43
48 44 38
40 26 17
48 35 27
51 34 24
58 53 45
58 58 50
68 67 58
32 52 47
22 49 44
22 48 44
23 51 46
22 49 44
24 49 44
86 81 78
189 173 162
191 175 165
195 178 168
200 183 171
210 190 176
214 192 176
21 46 42
21 46 42
20 45 41
20 45 41
21 46 42
20 45 41
21 45 42
20 45 41
21 47 43
21 46 42
21 46 42
21 46 42
21 47 43
21 46 42
21 46 42
20 45 41
20 45 41
20 44 40
21 46 42
21 45 42
21 46 42
20 45 41
21 46 42
21 47 43
21 46 42
21 46 42
21 46 42
21 47 43
21 47 43
20 45 41
21 47 43
21 46 42
21 46 42
22 48 44
21 46 42
21 47 43
21 46 42
21 47 43
21 47 43
21 47 43
21 46 42
21 47 43
21 47 43
21 47 43
21 47 42
22 48 43
21 47 42
21 47 43
21 47 43
21 47 43
21 46 42
21 46 42
21 47 43
21 46 42
21 46 42
21 47 42
22 48 44
22 48 44
22 47 43
21 47 43
22 47 43
22 48 44
21 47 43
21 47 43
22 48 44
21 46 42
22 48 44
22 48 44
21 47 43
22 48 44
22 48 43
22 48 43
21 46 42
19 43 39
17 38 36
15 34 32
14 31 30
13 29 28
11 25 24
10 23 21
10 22 21
12 27 25
16 35 31
20 43 38
20 44 39
21 45 40
22 47 43
22 48 43
22 47 43
22 48 43
22 49 44
22 48 44
22 48 44
22 49 44
22 48 43
22 47 42
22 47 42
21 46 41
20 44 40
17 37 34
15 33 31
11 17 14
12 11 6
13 13 6
13 22 16
27 35 27
28 47 42
22 48 43
22 48 43
23 49 44
22 47 42
22 48 43
23 39 38
111 103 98
163 151 144
168 156 148
174 161 153
179 165 156
184 168 157
192 174 161
21 46 42
20 45 41
21 47 43
20 45 41
20 45 42
20 45 41
21 46 42
20 45 41
20 45 41
20 45 41
21 46 43
20 45 41
20 45 42
21 46 42
21 46 42
20 45 41
21 46 42
21 46 42
20 45 41
20 44 41
21 46 43
21 47 43
20 45 41
21 46 42
21 46 42
21 47 43
21 46 42
21 46 42
21 46 42
21 45 42
21 45 41
21 46 42
21 47 43
21 46 42
22 48 44
21 46 42
21 46 42
21 46 42
21 46 42
21 45 41
21 47 42
21 46 42
21 47 43
22 48 43
21 46 42
21 47 43
21 47 43
21 47 43
21 47 43
21 46 42
21 47 43
21 47 43
22 48 43
21 47 43
21 46 42
21 46 42
21 47 43
21 47 43
21 47 43
22 48 43
21 47 43
22 47 43
21 47 43
21 47 43
21 46 42
21 47 43
22 48 43
21 47 42
22 48 43
21 47 42
21 47 42
22 47 43
21 47 43
21 46 42
21 46 42
22 47 43
21 46 42
21 46 42
21 45 41
20 44 40
21 45 41
21 45 41
21 45 41
22 47 43
21 47 42
21 47 42
22 48 43
21 47 42
22 48 43
22 47 43
22 48 43
22 48 43
22 48 43
22 48 44
22 48 43
22 49 44
22 47 43
19 43 39
16 37 34
14 32 30
13 30 29
12 27 26
10 24 22
9 19 18
10 23 21
13 29 26
20 42 37
21 45 40
21 46 41
22 49 44
22 48 43
22 48 43
22 33 32
104 97 91
148 136 128
150 139 131
147 136 128
153 142 134
154 142 133
154 142 132
21 46 42
20 45 41
20 45 41
20 45 42
21 46 42
20 45 41
21 46 42
20 45 41
21 45 42
20 45 41
20 44 41
21 46 42
20 45 41
20 44 40
20 45 41
20 45 42
21 46 42
21 46 42
20 45 41
21 46 42
20 45 41
21 46 42
20 45 41
21 46 42
20 45 41
21 46 42
20 45 42
21 47 43
21 47 43
20 45 41
21 46 42
21 46 42
21 46 42
21 46 42
21 47 43
21 46 42
21 46 42
21 46 42
21 46 42
21 47 43
21 47 43
22 48 44
22 48 44
21 46 42
21 45 41
21 46 42
21 47 43
22 48 43
21 47 43
21 46 42
21 47 43
21 47 43
22 47 43
22 48 44
22 47 43
21 47 43
21 47 42
22 47 43
22 48 43
21 47 43
21 46 42
21 47 43
22 48 43
22 48 44
21 47 42
22 48 44
22 49 44
21 46 42
21 47 42
22 48 43
21 47 43
21 47 42
21 47 42
21 47 43
21 47 43
21 47 43
22 48 44
22 49 44
21 46 42
21 47 43
22 48 44
22 48 44
22 48 43
21 47 43
22 48 44
22 48 44
22 48 43
22 48 44
22 48 43
22 47 43
22 48 43
22 49 44
22 47 43
22 49 44
22 48 44
23 49 45
22 49 44
22 48 44
22 47 43
21 46 42
21 47 43
21 45 41
20 45 40
21 46 41
21 45 41
21 47 42
22 47 43
22 47 43
22 48 43
22 48 43
22 48 43
22 48 43
19 32 31
52 49 47
123 114 106
120 112 104
127 118 110
129 119 111
128 118 110
123 114 106
20 45 41
20 44 41
21 46 42
20 45 41
20 45 42
20 45 41
20 45 42
21 46 42
21 46 42
21 47 43
20 45 42
20 45 41
20 45 41
21 47 43
21 46 42
21 46 42
20 45 41
20 45 41
20 45 41
20 45 41
21 47 43
21 46 42
20 45 41
21 46 43
21 46 42
21 46 42
21 46 42
21 46 42
21 47 43
21 47 43
21 46 42
21 46 42
21 46 42
21 47 43
21 47 43
21 46 42
21 47 43
21 46 42
21 47 43
21 46 42
21 46 42
21 46 42
21 47 43
21 46 42
21 46 42
21 46 42
22 48 44
22 48 44
21 46 42
21 47 43
21 47 43
22 48 44
22 48 43
21 47 43
21 47 43
21 47 43
21 46 42
22 47 43
22 48 43
22 48 44
21 47 43
22 48 44
22 48 44
21 46 42
22 48 43
22 47 43
22 48 44
22 48 44
22 49 44
21 47 43
22 49 44
21 47 43
22 48 43
22 48 44
22 49 44
22 48 44
21 46 42
21 47 42
22 48 43
22 48 44
22 48 44
21 47 43
22 48 43
22 48 44
21 47 43
22 48 44
22 49 44
22 48 44
22 48 44
22 48 44
22 48 43
22 48 43
22 48 43
22 48 44
22 49 44
22 47 43
22 49 44
22 48 43
22 48 43
23 50 45
22 48 43
23 49 45
22 49 44
22 48 43
22 48 43
22 48 43
22 47 43
22 47 43
22 48 43
22 49 44
22 49 44
23 49 45
18 36 33
13 15 16
58 55 51
93 88 80
102 95 86
107 100 91
101 94 86
100 93 85
20 44 41
20 44 41
21 45 42
20 45 41
20 45 41
20 45 41
21 46 42
21 47 43
21 46 42
20 45 41
20 45 41
20 45 41
20 44 40
21 46 43
20 45 42
21 47 43
21 46 42
20 45 41
21 46 42
21 46 42
22 48 44
20 45 41
21 46 42
21 45 41
21 46 42
21 46 42
21 46 42
21 47 43
21 47 43
21 47 43
21 46 42
22 47 43
21 46 42
21 47 43
21 46 42
21 46 42
21 47 43
20 45 41
21 47 43
21 47 43
21 47 43
21 47 43
21 46 42
21 46 42
21 47 43
22 48 43
21 46 42
21 47 43
22 48 43
21 46 42
22 48 44
21 47 43
21 47 43
21 47 43
22 48 43
22 48 43
21 47 43
21 47 43
22 48 43
21 47 43
22 48 44
21 46 42
21 47 43
21 46 42
21 47 43
22 47 43
22 47 43
22 48 43
22 48 43
22 48 43
22 48 44
22 49 44
21 47 43
21 47 42
22 49 45
22 48 44
22 48 43
22 48 43
22 48 43
22 48 44
22 49 44
21 47 43
22 48 44
22 48 44
21 47 42
22 48 43
22 48 43
22 48 43
22 49 44
22 49 44
22 48 43
22 47 43
22 49 44
22 48 43
22 48 43
22 48 43
22 48 43
22 47 43
22 48 43
22 47 43
22 48 43
22 49 44
22 48 43
22 48 44
22 47 43
22 49 44
23 49 44
22 48 43
21 47 42
22 48 43
21 47 42
22 47 43
22 46 42
11 22 20
7 9 10
30 30 27
49 48 42
61 58 52
41 43 37
25 27 25
20 45 41
20 45 41
21 46 42
21 46 42
21 46 42
21 46 42
21 46 42
20 45 41
21 46 42
21 45 42
21 46 42
20 45 41
20 45 42
21 46 42
21 46 42
21 46 42
21 46 42
20 45 41
21 46 42
20 45 41
21 46 42
21 47 43
21 47 43
20 45 41
21 46 42
21 47 43
21 47 42
21 47 42
21 46 42
21 46 42
21 46 42
21 47 43
20 45 41
21 46 42
20 45 41
21 46 42
21 46 42
21 47 43
21 46 42
22 48 43
21 47 43
21 46 42
21 46 42
22 48 43
21 45 41
21 46 42
21 47 43
21 47 42
21 46 42
21 47 43
21 47 43
21 46 42
22 48 43
21 46 42
21 46 42
21 47 43
21 46 42
22 48 44
21 47 43
22 48 44
21 46 42
21 47 42
22 47 43
22 48 44
21 47 43
21 47 43
22 48 44
22 47 43
22 47 43
22 48 44
22 48 44
22 47 43
22 48 43
21 47 42
22 49 44
22 48 44
22 48 43
21 47 43
22 48 44
21 47 43
22 47 43
22 48 44
22 48 44
22 48 43
22 48 43
22 48 44
22 47 43
21 47 43
22 48 43
22 48 44
22 49 44
22 49 44
21 47 43
22 49 44
22 47 43
22 48 43
22 48 43
23 51 46
22 48 44
22 48 44
22 48 44
22 49 45
22 49 44
22 48 43
22 48 44
22 48 44
22 48 43
21 47 42
22 47 43
21 46 42
21 45 41
19 41 37
17 37 33
13 29 26
5 12 12
2 5 4
1 4 4
3 6 6
6 14 12
18 38 34
20 45 41
20 45 41
20 45 41
21 46 42
20 45 42
21 46 42
20 45 41
20 45 41
20 45 41
20 45 41
20 45 41
21 46 42
21 46 42
21 46 42
21 47 43
21 46 42
21 46 42
20 45 41
20 45 41
21 46 42
21 46 42
21 47 43
21 46 42
21 47 43
20 45 41
21 46 42
21 47 43
21 47 43
21 46 42
21 46 42
21 47 43
21 47 43
21 46 42
21 46 42
21 46 42
21 46 42
21 45 41
21 47 43
21 47 43
21 46 42
21 45 42
21 46 42
21 46 42
21 46 42
21 47 43
21 47 43
21 47 43
21 46 42
21 47 43
22 48 43
21 46 42
22 48 44
21 47 42
21 46 42
22 48 43
22 47 43
21 47 43
21 47 42
21 47 43
22 48 44
21 47 43
22 48 43
22 47 43
21 47 43
22 48 44
22 47 43
21 47 42
21 47 43
21 46 42
22 48 43
21 47 43
22 48 44
22 49 44
22 48 43
22 49 44
22 48 43
22 48 44
22 48 43
22 47 43
22 48 43
22 48 43
22 49 44
22 48 43
22 48 43
22 48 44
22 48 44
22 49 45
23 50 45
22 48 44
22 49 44
22 47 43
22 48 43
22 49 44
22 48 43
22 48 44
22 48 44
22 47 43
22 48 44
22 48 43
22 48 44
22 49 44
22 48 44
22 49 44
22 48 43
22 48 43
22 48 43
23 50 45
22 49 45
21 46 41
21 46 42
18 40 36
14 33 31
12 28 27
12 28 27
9 22 21
8 18 17
8 18 17
9 20 19
10 24 22
14 31 28
21 45 42
20 45 41
21 46 42
20 45 41
21 45 41
20 44 40
21 47 43
21 46 42
21 46 42
21 46 43
20 45 41
20 45 41
20 45 41
20 45 41
21 46 42
21 46 42
20 45 41
20 45 41
21 46 42
21 46 42
21 46 42
21 46 42
21 45 42
21 46 42
21 46 42
21 46 42
21 46 42
21 46 43
21 46 42
20 45 41
21 47 43
21 46 42
21 47 43
21 46 42
21 46 42
21 47 43
21 46 42
20 45 41
21 47 43
21 46 42
21 46 42
21 47 43
22 48 43
21 47 43
21 46 42
22 48 44
21 46 42
21 46 42
21 47 43
21 45 42
22 48 43
21 47 43
22 48 43
22 47 43
21 47 43
21 46 42
21 47 43
21 47 43
21 47 43
21 47 43
21 47 43
21 46 42
21 46 42
21 47 43
22 48 44
21 46 42
22 48 43
22 48 43
21 47 42
21 47 43
21 47 43
21 47 42
22 47 43
22 48 43
21 46 42
22 48 43
21 47 43
22 48 43
22 48 44
22 48 44
21 47 42
22 47 43
22 49 44
22 48 44
21 47 43
22 47 43
21 47 42
22 49 44
22 48 44
22 48 44
21 47 43
22 48 44
22 48 44
22 49 44
22 48 43
22 48 43
22 49 44
22 48 44
22 48 43
22 49 44
22 49 44
22 47 43
22 48 43
22 49 45
23 50 45
21 47 42
22 48 43
22 48 43
21 47 42
21 47 42
21 46 42
20 45 41
18 41 38
18 41 38
17 39 36
17 38 35
16 36 34
16 37 34
18 40 36
20 43 39
20 45 41
20 45 41
21 46 42
20 45 41
21 46 42
20 45 41
21 46 42
20 45 41
20 45 41
20 44 41
21 46 42
21 46 42
21 46 42
20 45 41
21 46 42
21 46 42
20 45 41
21 46 42
21 46 42
20 45 41
20 45 41
21 46 42
21 47 43
21 46 42
21 46 42
21 46 42
21 46 42
21 46 42
21 46 42
21 47 43
21 46 42
21 45 41
21 46 42
21 47 43
21 45 41
21 46 42
20 45 41
20 45 41
22 48 44
21 46 42
21 46 42
21 47 43
21 47 42
21 46 42
21 46 42
21 46 41
21 47 42
21 47 43
21 46 42
21 47 43
21 46 42
21 47 43
22 48 44
21 47 43
21 47 43
21 46 42
21 47 43
21 47 43
21 46 42
21 47 42
21 47 43
22 47 43
21 46 42
21 47 43
21 46 42
21 47 43
21 46 42
22 48 43
21 47 43
22 48 43
21 46 42
22 48 43
22 49 44
21 47 43
22 49 45
22 48 44
21 47 43
21 47 43
22 47 43
21 47 43
22 48 43
21 47 43
22 49 44
22 48 43
22 49 44
22 48 43
21 46 42
21 47 43
22 48 44
22 48 44
21 47 43
22 48 43
22 48 43
22 48 43
22 48 44
22 47 43
22 48 43
22 48 43
23 50 45
21 47 43
22 47 43
22 48 43
22 48 44
22 48 43
21 47 43
22 48 44
22 48 44
22 48 44
22 49 44
22 49 44
22 49 44
22 48 44
22 48 43
21 47 42
21 47 42
23 49 45
21 46 41
22 48 44
22 48 43
22 49 44
21 46 42
20 45 41
21 46 42
21 46 42
20 45 41
20 45 42
21 46 42
20 45 41
20 45 42
20 45 41
20 45 42
21 46 42
21 46 42
20 44 41
20 45 42
20 45 41
20 45 41
21 46 42
20 45 41
21 46 43
21 46 42
21 46 42
21 46 42
21 46 42
20 45 41
20 45 41
21 46 42
21 46 42
20 45 41
21 46 42
21 46 42
21 46 42
21 46 42
21 46 42
21 46 42
21 46 42
21 46 42
21 46 42
21 46 42
21 47 43
20 45 41
21 47 43
21 46 42
21 46 42
21 47 43
21 47 43
21 46 42
21 46 42
21 47 43
21 47 43
21 47 43
21 46 42
21 47 43
21 47 43
21 46 42
22 48 44
21 46 42
21 46 42
22 48 43
21 47 43
21 47 43
21 47 43
21 46 42
21 46 42
21 46 42
22 47 43
22 47 43
21 46 42
21 47 43
21 47 43
21 47 43
21 47 43
21 47 43
21 47 43
21 47 43
22 47 43
21 46 42
21 47 43
22 48 43
21 47 43
21 47 42
21 47 43
22 47 43
21 47 42
22 47 43
22 49 44
22 48 44
21 47 42
22 49 45
22 48 44
21 47 43
22 49 44
22 47 43
21 47 43
22 48 43
22 48 43
22 48 43
22 48 44
22 49 44
21 46 42
22 48 43
22 48 44
22 49 45
22 47 43
22 48 43
22 47 43
22 49 45
21 47 42
22 49 44
22 49 44
22 48 43
21 47 43
22 49 45
22 48 43
22 49 44
22 48 43
22 48 44
22 48 43
22 49 44
21 47 43
21 46 42
20 45 41
20 45 42
20 45 41
20 45 41
20 44 40
20 45 41
21 46 42
20 45 42
21 46 42
21 46 42
20 45 41
20 45 41
21 46 42
21 46 42
21 46 42
21 45 42
21 46 42
21 47 43
20 45 41
20 45 42
21 46 42
20 45 41
21 46 42
21 46 42
20 45 41
21 46 42
21 46 42
21 46 42
20 45 41
21 46 42
21 47 43
21 47 43
21 46 42
21 46 42
20 45 41
21 46 42
21 46 42
21 46 42
21 46 42
21 47 42
21 47 43
21 46 42
21 47 43
21 47 43
21 47 43
21 45 41
21 47 43
21 47 43
21 47 43
22 48 44
21 46 42
21 47 43
21 46 42
21 46 42
21 46 42
21 47 43
21 47 43
21 47 43
21 47 43
21 46 42
21 46 42
21 47 43
21 47 43
21 46 42
21 47 42
21 47 43
21 47 43
22 48 43
21 47 43
21 47 43
21 47 42
21 47 43
21 47 42
21 47 43
21 46 42
22 48 44
22 48 43
22 48 44
22 48 43
21 46 42
22 48 44
21 47 43
21 47 43
22 49 44
21 47 43
21 47 43
22 48 43
22 48 43
22 48 44
21 47 43
21 47 42
22 48 43
22 47 43
22 48 44
22 47 43
22 48 43
22 48 43
21 47 43
22 48 44
22 48 43
22 49 44
22 48 44
22 49 44
22 48 44
22 48 43
22 48 44
22 48 44
22 48 44
22 48 44
22 49 44
22 48 43
22 49 44
21 47 43
21 47 43
21 47 43
21 47 43
22 47 43
22 49 44
22 47 43
21 47 43
20 45 41
20 45 42
20 45 42
20 45 41
21 46 42
20 44 41
20 45 42
21 47 43
21 46 43
20 44 40
20 45 41
21 46 42
20 45 41
20 45 41
20 45 41
20 45 41
20 45 41
21 46 43
20 44 41
20 45 41
20 45 41
20 45 41
21 46 42
20 45 41
20 45 42
20 45 41
21 46 42
21 47 43
21 45 42
21 46 42
21 46 42
21 47 43
20 45 41
21 46 42
21 46 42
21 45 42
21 47 43
21 47 43
21 47 43
21 46 42
20 45 41
21 46 42
21 46 42
21 46 42
21 46 42
21 47 43
21 46 42
21 46 42
21 47 43
21 46 42
20 45 41
21 47 43
21 46 42
21 46 42
21 47 43
22 48 44
21 47 43
21 47 43
21 47 43
21 47 43
21 46 42
21 47 43
22 48 44
21 47 43
21 46 42
22 47 43
21 47 43
21 46 42
21 47 42
21 47 43
22 48 43
21 47 43
21 46 42
21 47 43
21 47 43
22 49 44
21 47 42
21 47 43
21 47 43
21 47 43
21 47 42
22 48 43
21 47 43
21 47 43
22 48 44
21 46 42
21 47 43
22 48 44
22 48 43
21 47 43
22 49 44
22 48 44
22 48 43
22 49 44
22 48 44
22 48 43
21 47 42
22 47 43
22 48 44
22 48 44
22 48 44
23 50 45
22 48 44
22 49 44
21 46 42
22 49 44
22 48 44
22 48 44
22 48 43
22 48 43
22 48 44
22 48 44
22 48 43
21 47 43
22 48 43
21 47 43
22 49 44
22 48 43
22 47 43
21 46 42
20 45 41
20 45 41
21 46 42
21 47 43
20 44 41
20 44 41
21 46 42
21 46 42
20 44 41
21 46 42
20 44 41
20 45 41
20 45 41
21 46 42
21 47 43
21 46 42
21 46 42
21 46 42
20 45 41
20 45 41
21 46 42
21 46 42
21 46 42
21 47 43
21 46 42
21 46 42
20 45 41
21 46 42
21 46 42
21 48 43
21 46 42
21 46 42
21 46 42
21 46 43
21 46 42
21 46 42
20 45 41
21 45 42
20 45 41
21 47 42
21 46 42
21 46 42
21 46 42
21 45 42
21 47 43
20 45 41
21 46 42
21 46 42
21 47 43
21 46 42
21 47 43
21 47 43
21 46 42
21 46 42
21 47 43
21 47 43
21 46 42
21 47 43
21 47 43
21 47 43
22 48 44
21 46 42
21 47 43
21 47 42
21 46 41
21 46 42
21 46 42
21 47 43
21 47 42
21 47 43
21 47 43
21 47 43
21 46 42
21 47 43
22 47 43
21 47 43
21 47 43
22 48 43
21 46 42
22 49 45
21 47 42
22 47 43
22 48 43
21 46 41
21 46 42
21 47 43
22 48 44
21 47 42
22 48 44
21 47 43
22 48 44
22 47 43
21 47 43
22 49 44
22 48 44
21 47 42
21 47 43
22 48 44
22 47 43
22 48 44
22 48 43
21 47 43
22 49 45
21 47 43
22 49 44
22 48 44
22 49 45
21 47 42
21 47 43
22 49 44
22 48 44
22 48 43
22 48 44
22 48 44
22 49 44
22 48 43
22 47 43
22 48 43
22 48 44
20 44 40
20 45 41
20 45 41
20 45 41
21 47 43
20 45 41
21 46 42
21 46 42
21 46 42
20 45 41
20 45 41
20 45 41
21 46 42
20 45 41
21 47 43
20 45 41
21 46 42
20 44 41
21 47 43
21 47 43
21 46 42
21 46 42
21 46 42
21 45 42
21 45 42
21 46 42
20 45 41
21 46 42
21 46 42
21 46 42
21 46 42
21 46 42
21 46 42
21 47 43
21 46 42
21 47 43
20 45 41
21 46 42
21 47 43
20 45 41
21 47 43
21 47 43
21 46 42
21 46 42
20 45 41
21 46 42
21 46 42
21 47 43
22 48 43
21 46 42
21 46 42
21 46 42
21 46 42
21 46 42
21 46 42
21 46 42
21 47 43
21 45 41
22 48 44
21 46 42
21 46 42
21 46 42
21 47 43
21 47 43
21 47 43
22 49 44
21 47 43
21 47 43
21 46 42
21 47 42
22 48 43
21 47 42
21 47 43
21 47 43
21 47 43
22 47 43
21 47 42
22 48 44
22 49 45
21 47 43
21 47 43
21 47 43
22 48 43
22 48 43
22 48 43
21 47 43
22 48 44
21 47 43
21 47 42
22 47 43
22 48 43
21 47 43
22 48 44
21 46 42
22 48 44
21 47 43
21 47 43
21 47 43
21 47 43
22 49 44
21 47 43
21 47 43
22 48 44
21 47 43
22 49 44
22 47 43
22 48 44
21 47 43
22 48 44
22 47 43
21 47 43
22 48 44
22 48 43
22 48 44
22 48 44
22 47 43
22 49 44
22 49 44
22 48 44
22 49 45
20 45 41
21 46 42
21 46 43
20 45 41
20 45 41
20 44 41
21 46 42
20 44 40
20 45 42
20 44 40
21 46 42
20 45 41
21 46 42
21 46 42
20 45 42
20 44 40
21 45 42
20 45 41
20 45 41
21 46 42
20 45 41
20 44 41
21 46 42
21 46 42
20 44 41
21 46 42
21 46 42
21 46 42
20 45 41
21 46 42
21 46 42
21 46 42
20 45 41
20 45 41
20 45 41
21 46 42
21 47 43
21 46 42
21 46 42
21 46 42
20 45 41
21 47 43
21 46 42
21 46 42
21 47 43
21 47 43
21 46 42
21 45 42
21 45 41
22 48 43
21 46 42
21 46 42
21 46 42
21 47 43
21 46 42
21 47 43
21 46 42
21 46 42
21 47 43
21 47 43
22 48 44
21 46 42
21 47 43
21 46 42
21 47 43
20 45 41
22 48 44
21 47 43
21 47 43
21 47 43
21 46 42
21 47 43
22 48 43
21 47 42
21 47 43
21 46 42
21 46 42
22 48 44
22 48 44
22 48 44
22 47 43
21 47 43
21 46 42
21 46 42
22 48 44
21 47 42
21 47 43
22 47 43
21 46 42
21 47 43
22 48 43
21 47 42
21 47 43
22 49 45
21 47 43
22 47 43
22 48 44
21 46 42
22 47 43
22 48 43
22 47 43
22 48 43
22 48 43
21 47 43
22 48 43
22 48 43
21 46 42
21 47 43
22 49 44
22 47 43
22 48 44
21 47 43
22 48 43
22 48 44
22 48 44
21 47 43
21 47 43
22 48 44
22 48 43
22 48 43
20 44 40
20 44 40
20 45 41
20 45 41
20 44 40
20 45 41
21 46 42
20 45 41
20 45 41
20 45 41
21 46 42
20 45 41
21 46 42
20 45 41
20 45 41
21 47 43
20 45 41
21 46 42
21 47 43
21 46 42
21 46 42
20 45 41
21 46 42
20 45 41
21 47 43
21 46 42
21 47 43
21 46 42
21 46 42
21 46 42
21 46 42
21 46 42
21 46 42
21 46 42
20 45 41
20 45 41
21 46 42
20 45 41
21 46 42
21 46 42
20 45 42
21 47 43
21 46 42
21 46 42
21 46 42
21 46 42
21 46 42
20 45 41
21 46 42
21 47 43
21 46 42
21 46 42
21 46 42
21 47 43
21 46 42
21 46 42
21 46 42
21 46 42
21 46 42
20 45 41
21 46 42
22 48 43
21 46 42
21 47 43
21 46 42
21 46 42
21 47 42
21 47 43
21 47 43
21 47 43
22 47 43
21 46 42
21 47 43
21 47 43
22 47 43
21 46 42
21 47 43
22 47 43
21 46 42
22 48 43
22 48 43
21 47 43
22 48 44
21 46 42
21 47 43
21 47 43
22 48 43
21 46 42
21 47 43
22 47 43
21 47 43
21 47 42
22 48 44
21 47 43
21 46 42
22 48 43
21 47 43
22 48 44
21 47 43
22 48 44
21 47 43
22 49 45
22 48 43
21 46 42
22 48 44
22 48 44
22 48 44
22 48 44
22 49 45
22 49 44
21 46 42
21 46 42
21 46 42
21 47 43
22 49 44
22 48 44
21 47 43
22 48 44
22 49 44
21 47 43
20 44 41
20 45 42
20 45 41
20 45 41
20 45 41
20 44 41
21 46 43
20 44 41
20 45 41
20 45 41
21 46 43
20 45 41
20 45 41
20 45 41
20 45 42
20 44 41
20 45 41
20 45 42
20 45 41
21 46 42
20 45 41
21 46 42
20 45 41
21 46 42
20 45 41
21 46 42
20 45 41
20 45 42
21 46 42
20 45 41
21 47 43
21 47 43
21 46 42
21 46 42
21 45 42
21 46 42
21 46 42
21 47 43
21 46 42
21 47 43
21 46 42
21 46 42
21 46 42
20 45 42
20 44 41
21 46 42
21 46 42
21 46 42
21 47 43
21 46 42
21 46 42
21 46 42
21 46 42
21 46 42
21 46 42
21 47 43
20 45 41
21 47 43
21 46 42
21 46 42
21 46 42
21 46 42
21 47 42
21 47 43
21 47 43
21 47 43
21 46 42
21 47 43
21 45 41
22 47 43
21 47 42
21 46 42
21 47 43
21 47 43
22 48 43
21 46 42
22 48 44
22 48 44
21 47 43
21 47 42
21 45 41
21 46 42
21 47 43
22 49 44
21 47 43
22 48 44
21 47 43
22 47 43
21 47 43
21 47 43
22 48 43
21 47 42
21 47 43
22 48 43
22 48 44
21 47 42
22 48 44
21 47 43
21 47 42
21 47 43
21 47 42
21 46 42
22 47 43
22 48 43
22 47 43
21 47 43
21 47 43
21 45 41
22 48 44
22 47 43
22 47 43
22 48 44
21 46 42
21 47 43
22 48 43
22 48 43
22 48 43
22 49 44
22 48 43
21 47 43
20 44 40
20 45 41
20 44 40
20 44 40
20 45 41
20 45 42
20 45 41
21 46 42
21 46 42
21 46 42
21 46 42
21 46 42
20 45 41
20 44 41
20 45 41
21 46 42
20 45 42
20 45 42
20 44 41
20 45 41
21 46 42
21 46 42
20 45 42
21 46 42
21 46 42
20 45 41
21 47 43
20 45 41
21 46 42
21 47 43
21 46 42
20 45 42
20 45 41
21 46 42
20 45 41
21 45 42
20 45 41
21 47 43
21 46 42
21 46 42
20 45 41
20 45 42
21 46 42
21 47 43
21 46 42
21 46 42
21 47 43
21 47 43
21 45 42
20 45 41
22 48 43
21 47 43
20 45 41
21 46 42
21 47 43
21 46 42
20 45 41
21 47 43
21 45 41
21 46 42
21 47 43
21 47 43
21 47 43
21 46 42
20 45 41
21 47 43
22 48 43
21 46 42
21 46 42
21 46 42
20 45 41
21 46 42
22 48 44
21 47 43
21 46 42
21 47 43
21 46 42
21 47 43
21 46 42
21 47 43
22 48 43
21 47 42
21 47 43
21 47 43
21 47 43
21 47 43
21 46 42
21 47 43
21 47 43
22 48 43
21 47 43
21 47 43
21 46 42
21 47 43
21 47 43
22 48 44
22 47 43
21 47 43
21 47 42
22 48 44
22 47 43
21 47 43
22 48 44
22 48 44
22 48 43
21 47 43
21 47 43
21 47 43
21 47 43
22 48 44
21 47 43
21 47 43
21 47 43
22 47 43
21 47 43
21 46 42
22 48 43
21 46 42
22 47 43
22 48 44
20 45 41
20 45 41
20 45 42
21 46 42
20 44 40
20 44 41
20 45 41
20 45 41
20 45 41
20 45 41
20 45 42
20 45 41
20 45 42
20 45 41
20 45 41
20 45 42
21 46 42
21 46 42
20 45 41
20 45 41
20 45 41
20 45 41
21 46 42
20 45 41
20 45 42
21 46 42
21 46 42
21 46 42
20 45 41
21 47 43
20 45 41
21 46 42
21 46 42
21 47 43
21 46 42
21 46 42
21 46 42
21 47 43
20 45 42
21 46 42
21 46 42
21 48 44
21 46 42
21 46 42
20 45 41
21 46 42
22 48 43
21 46 42
20 45 41
21 46 42
21 45 41
21 47 43
21 47 43
21 47 43
21 46 42
21 46 42
21 46 42
21 45 41
21 47 43
21 47 43
21 47 43
21 47 43
21 46 42
21 46 42
21 46 42
21 47 43
21 47 43
21 46 42
21 47 43
21 47 43
21 47 43
21 47 43
21 46 42
22 48 44
21 47 42
21 47 43
21 47 43
21 46 42
21 46 42
21 47 43
21 46 42
21 47 42
22 47 43
21 46 42
21 46 42
21 47 43
21 47 43
21 46 42
21 47 43
21 46 42
21 46 42
22 48 43
21 47 43
21 47 43
21 47 43
22 48 43
22 48 44
22 48 44
21 47 43
22 47 43
22 48 44
22 48 44
22 47 43
21 46 42
21 47 43
21 47 43
22 48 44
22 48 44
22 48 43
22 48 44
21 47 43
22 48 44
21 46 42
22 49 44
22 48 44
21 47 42
22 48 44
22 48 44
21 47 42
21 47 43
20 45 42
20 45 41
20 45 41
20 45 42
20 44 40
20 45 41
20 45 42
21 46 42
20 45 41
20 44 40
20 45 41
20 44 40
20 45 41
20 44 40
20 45 41
20 44 41
20 44 41
20 45 41
21 46 42
21 46 42
21 46 42
20 45 41
20 45 41
20 45 41
21 46 42
20 45 41
20 45 41
20 44 41
21 46 42
21 46 42
21 46 42
21 47 43
21 46 42
21 46 42
21 46 42
20 45 41
20 44 41
21 46 42
21 46 42
20 45 41
21 45 42
21 46 42
21 46 42
21 46 42
21 46 42
20 45 41
21 46 42
21 46 42
20 45 41
21 46 42
21 47 43
22 48 44
21 46 42
21 46 42
21 47 43
21 46 42
20 45 41
21 46 42
21 47 43
21 47 43
21 46 42
21 46 42
21 47 43
21 47 43
22 48 44
21 47 43
21 46 42
21 46 42
21 47 43
21 46 42
22 48 43
21 46 42
21 47 43
21 47 43
21 46 42
21 47 43
21 47 43
21 47 43
21 46 42
21 45 41
21 47 43
21 47 43
21 46 42
21 46 42
21 46 42
21 47 43
21 47 43
21 47 43
21 47 43
21 47 43
22 48 44
21 46 42
21 46 42
21 47 43
22 48 43
22 48 43
21 47 42
22 47 43
21 47 43
22 48 43
21 46 42
22 48 44
21 47 43
21 47 43
21 47 43
22 47 43
21 47 43
22 48 44
21 47 43
21 46 42
22 48 44
22 48 44
21 47 43
21 46 42
21 47 43
22 48 44
22 48 44
21 47 42
21 47 43
21 47 43
19 43 40
21 46 42
20 45 42
20 45 41
21 46 42
21 46 42
20 45 41
21 46 42
20 44 41
21 46 42
20 44 41
20 44 41
20 45 41
21 46 42
20 44 40
20 45 42
20 44 40
20 45 41
21 46 42
21 46 42
20 45 42
20 45 41
20 45 41
20 45 41
21 46 43
20 45 41
20 45 42
20 45 41
20 45 41
20 45 41
21 46 42
21 46 42
20 45 41
20 45 41
20 45 41
21 46 42
20 45 41
20 45 41
20 45 41
20 45 41
20 45 42
21 46 42
20 45 41
20 45 42
20 45 41
21 46 42
20 45 41
21 46 42
20 45 41
21 46 42
21 45 41
21 46 42
21 46 42
21 47 43
21 45 41
21 46 42
20 45 41
21 46 42
21 46 42
21 45 42
21 46 42
21 47 43
21 46 42
21 47 43
21 47 43
21 47 43
21 46 42
22 48 43
21 46 42
21 47 43
21 46 42
21 47 43
21 46 42
21 47 43
21 46 42
21 47 43
21 45 41
21 47 43
21 46 42
21 47 43
21 47 43
21 46 42
21 47 43
22 48 44
21 46 42
21 46 42
22 48 44
22 48 44
21 46 42
21 46 42
21 46 42
21 47 43
21 47 43
21 46 42
21 46 42
20 45 41
21 46 42
21 47 42
21 47 43
21 47 43
21 47 43
21 47 42
21 46 42
22 48 43
22 48 44
22 47 43
22 48 43
21 46 42
21 46 41
21 47 43
21 46 42
22 47 43
21 47 43
21 47 43
21 46 42
21 47 43
22 48 43
22 48 44
21 46 42
22 47 43
21 46 42
20 44 40
20 45 42
21 46 42
21 46 42
20 44 41
20 45 41
20 44 40
20 44 40
20 45 41
20 45 42
20 44 41
21 46 42
20 43 40
21 46 42
20 45 41
20 44 41
20 45 41
20 45 41
20 44 41
21 46 42
20 45 41
20 44 41
21 46 42
21 46 42
20 45 42
20 45 42
20 45 41
21 46 42
20 45 41
21 46 42
20 45 41
20 45 41
21 46 42
20 45 41
20 45 41
21 46 43
21 46 42
21 46 42
21 46 42
21 46 42
21 46 42
21 46 42
20 45 41
21 46 42
21 46 42
21 46 42
21 46 42
21 46 42
20 45 41
21 46 42
21 46 42
21 46 42
20 45 41
21 45 42
21 46 42
21 46 42
21 46 42
21 46 42
21 46 42
21 45 42
21 46 42
21 46 42
21 46 42
21 46 42
21 46 42
20 45 41
20 45 41
21 46 42
20 45 41
21 46 42
21 47 43
21 46 42
21 46 42
21 47 43
21 46 42
20 45 41
22 49 44
21 47 43
20 45 41
21 47 43
21 46 42
21 47 42
21 47 43
21 46 42
21 47 43
21 46 42
21 47 43
21 47 42
21 46 42
21 47 43
21 47 42
21 47 43
21 46 42
21 47 43
21 45 41
22 48 43
21 46 42
21 47 43
21 47 42
21 47 43
21 47 42
21 46 42
22 47 43
21 47 43
21 47 43
21 47 42
22 48 44
21 47 43
22 47 43
22 48 44
22 47 43
22 47 43
21 46 42
21 46 42
21 47 43
21 46 42
21 47 42
21 47 43
22 48 44
21 47 43
20 45 41
20 44 41
20 45 41
20 45 42
21 46 42
20 45 41
20 45 41
20 45 42
20 45 41
21 46 42
20 45 41
20 45 41
20 45 41
20 45 41
21 47 43
20 45 42
20 45 41
20 44 40
21 46 43
20 45 41
21 46 42
21 46 42
20 44 40
21 46 42
21 46 42
20 45 41
21 46 42
21 46 42
20 45 41
21 46 42
20 45 41
20 45 42
20 45 41
20 45 42
20 45 41
21 47 43
20 45 41
21 46 42
21 46 42
21 47 43
21 46 42
21 46 42
21 46 42
21 46 42
21 46 42
21 46 42
20 45 41
21 46 42
21 46 42
21 46 42
21 46 42
21 46 42
21 47 42
21 47 43
21 46 42
21 46 42
21 46 42
20 45 41
21 46 42
21 46 42
21 47 43
21 47 43
20 45 41
21 47 43
21 46 42
21 46 42
21 46 42
21 46 42
21 47 43
21 46 42
21 47 42
21 46 42
21 46 42
21 45 42
21 45 41
21 47 43
21 47 43
21 46 42
21 46 42
21 47 43
21 47 43
21 46 42
21 46 42
21 47 43
20 45 41
21 47 43
21 47 43
21 46 42
21 46 42
21 45 41
21 47 42
21 47 43
21 46 42
21 46 42
20 45 41
21 47 43
21 47 43
22 47 43
21 47 42
21 47 43
21 47 43
21 47 43
21 46 42
21 46 42
21 46 42
21 47 43
21 47 43
21 46 42
21 46 42
21 47 43
22 47 43
22 47 43
21 46 42
21 47 43
22 47 43
22 48 44
21 46 42
21 47 42
22 48 43
20 45 41
20 45 42
20 45 42
20 44 40
20 45 42
20 45 41
20 45 42
21 46 42
20 44 41
20 45 41
20 44 41
20 45 42
21 45 42
20 45 41
20 45 41
20 45 41
20 44 40
20 45 41
20 45 42
20 44 41
20 45 41
21 46 42
20 45 41
21 46 42
21 46 42
20 45 41
20 45 42
20 45 41
20 45 41
20 45 41
20 45 42
20 45 41
21 46 42
20 44 40
21 46 43
21 46 42
20 45 41
20 44 40
21 47 43
21 46 42
20 45 41
21 46 42
20 45 41
20 45 41
20 45 41
20 45 41
20 45 41
21 47 43
20 45 41
21 46 42
20 44 40
20 45 41
20 45 41
20 45 41
20 45 41
21 45 42
21 46 42
20 45 41
20 45 41
20 45 41
21 46 42
21 46 42
20 45 41
20 45 41
21 47 43
21 47 43
21 45 41
21 47 43
21 45 42
21 46 42
21 46 42
20 45 41
21 46 42
21 46 42
21 46 42
21 47 43
20 45 41
21 46 42
21 46 42
21 47 43
21 46 42
21 46 42
22 48 44
21 47 42
20 45 41
21 46 42
21 47 43
21 47 43
21 46 42
20 45 41
21 47 42
21 46 42
21 46 42
21 47 43
20 45 41
21 47 42
21 47 43
21 46 42
21 46 42
21 47 43
22 48 44
21 47 42
21 46 42
21 46 42
21 47 43
21 46 42
22 47 43
22 47 43
21 46 42
22 48 44
21 47 43
21 47 43
21 47 43
22 47 43
21 47 43
22 49 44
21 46 42
22 47 43
21 47 42
22 47 43
20 44 41
20 44 41
20 44 40
20 44 40
20 44 41
21 46 43
19 43 40
20 45 42
20 45 41
20 45 41
19 43 40
20 44 41
20 45 42
20 45 41
20 45 41
20 45 41
20 45 41
21 46 42
20 45 42
20 45 42
20 44 41
20 44 40
20 45 41
20 45 41
20 45 42
20 44 41
20 45 41
20 45 41
20 45 41
20 45 41
21 47 43
20 45 41
21 46 42
20 45 41
21 46 42
21 46 42
20 45 41
21 46 42
21 46 42
20 45 42
21 47 43
21 47 43
21 46 42
21 47 43
20 45 41
20 45 41
21 45 42
21 46 42
20 45 41
21 46 42
20 45 41
20 45 41
21 47 43
21 47 43
20 45 42
21 47 43
21 47 43
21 47 43
20 45 41
21 47 43
20 45 41
21 46 42
20 45 41
21 46 42
21 46 42
21 47 43
21 47 43
21 46 42
21 46 42
21 47 43
21 46 42
21 46 42
21 47 43
21 46 42
21 47 43
21 47 43
21 47 43
21 47 43
21 47 43
21 46 42
21 46 42
21 46 42
21 47 42
21 46 42
21 45 41
21 46 41
21 46 42
21 46 42
21 46 42
21 46 42
21 47 43
22 48 43
21 46 42
21 47 43
22 47 43
21 47 43
21 46 42
21 46 42
22 48 43
21 46 42
21 47 43
21 46 42
21 47 43
21 46 42
21 47 43
22 47 43
21 46 42
21 47 43
22 49 45
21 47 43
22 48 44
21 47 43
22 48 44
21 46 42
22 47 43
21 46 42
22 47 43
22 47 42
22 47 43
22 47 43
20 44 40
21 46 42
21 46 42
20 45 41
20 45 41
20 45 41
20 45 42
20 45 41
20 45 41
20 44 41
20 45 41
19 43 40
20 45 41
21 46 42
20 44 41
21 47 43
20 44 41
21 46 42
20 45 42
20 45 42
20 44 41
20 45 41
20 45 41
21 46 42
21 46 42
21 46 42
21 46 42
20 45 42
20 45 41
20 45 41
20 45 41
20 45 41
20 44 41
20 45 41
20 45 41
21 46 42
20 45 41
21 46 42
20 45 41
20 45 42
20 45 41
22 48 44
20 44 41
21 45 42
20 45 41
21 46 42
20 45 41
20 45 42
21 46 42
20 45 41
20 45 41
21 47 43
20 45 41
20 45 41
21 46 43
21 47 43
20 45 41
21 46 42
21 47 43
21 46 42
20 45 41
20 45 41
21 46 43
21 47 43
21 47 43
21 45 42
20 45 41
21 46 42
21 45 42
22 48 44
21 47 43
21 46 43
21 46 42
21 46 42
21 46 42
21 46 42
20 45 41
21 47 42
21 46 42
20 45 41
21 46 42
21 46 42
21 46 42
21 47 43
21 45 42
20 45 41
22 48 44
21 47 43
21 47 43
21 47 43
21 47 43
21 46 42
21 46 42
21 46 42
21 47 43
21 47 43
22 47 43
21 46 42
22 47 43
21 47 43
21 46 42
22 48 43
21 46 42
21 47 43
21 46 42
21 45 41
21 46 42
21 46 42
22 47 43
21 46 42
22 47 43
22 47 43
22 48 44
22 47 43
22 47 43
22 47 43
22 48 43
22 48 44
22 47 43
22 47 43
20 45 41
20 45 41
21 46 42
20 45 41
20 45 41
21 46 42
20 45 41
20 44 40
21 46 42
20 45 42
20 45 41
20 44 40
20 45 41
20 45 42
21 46 42
21 46 42
21 46 42
20 45 41
20 45 41
20 44 40
20 45 42
20 44 40
20 44 41
20 45 42
20 45 41
20 44 41
20 45 42
21 46 42
21 47 43
21 46 42
20 44 41
21 46 42
20 45 41
20 45 41
20 45 42
21 46 42
21 46 42
20 45 41
20 45 42
21 47 43
20 45 41
21 46 42
20 44 40
21 46 42
20 45 41
21 46 42
20 45 41
21 46 42
20 45 41
20 45 41
21 45 42
21 46 42
20 45 41
20 45 42
21 46 42
21 45 41
21 46 42
21 46 42
20 45 41
21 46 42
21 46 42
21 46 42
21 46 42
21 47 43
21 46 42
21 47 43
21 46 42
21 46 42
21 47 43
20 45 41
21 46 42
21 46 42
21 46 42
21 46 42
21 46 42
21 46 42
21 47 43
21 47 43
22 48 44
21 46 42
21 46 42
21 46 42
21 47 43
21 46 42
22 47 43
21 46 42
21 47 43
21 46 42
21 47 43
22 48 44
21 46 42
21 47 43
21 46 42
21 46 42
21 46 42
21 47 43
21 46 42
22 48 43
21 46 42
21 46 42
21 46 42
21 46 42
22 48 43
21 46 42
21 46 42
21 45 41
22 47 42
21 46 42
22 47 43
21 45 41
22 48 44
22 47 42
22 48 44
22 47 43
22 47 43
22 47 42
22 46 42
22 48 43
22 48 43
22 47 42
20 45 41
21 46 42
20 44 41
20 45 41
20 45 41
20 45 41
20 43 40
20 45 41
20 44 41
20 44 41
20 45 41
21 46 42
20 44 41
20 45 42
20 45 41
20 45 41
20 45 41
20 45 41
20 44 40
20 44 40
20 45 41
21 46 42
20 45 41
20 45 41
20 45 41
20 45 42
21 46 42
21 46 42
21 46 42
20 45 41
20 45 41
20 45 41
20 45 41
20 45 41
20 45 41
21 46 42
21 46 42
21 46 42
20 45 42
21 46 42
21 46 42
20 45 41
21 46 42
20 44 40
21 46 42
21 46 42
21 47 43
20 45 42
21 46 42
21 46 42
21 45 42
20 45 41
21 45 42
21 46 42
20 45 41
21 45 42
20 45 41
21 46 42
20 45 41
21 46 43
20 45 41
21 46 42
21 46 42
20 45 41
21 46 42
21 46 42
21 47 43
20 45 41
21 46 42
21 47 43
21 46 42
20 45 41
21 47 43
21 46 42
21 46 42
20 45 41
21 46 42
21 46 42
21 46 42
20 45 41
21 46 42
21 46 42
21 46 42
21 46 42
20 45 41
21 46 42
20 45 41
21 47 43
21 46 42
20 45 41
21 46 42
21 46 42
21 47 43
21 47 42
21 46 42
21 47 43
21 45 41
21 46 42
21 46 42
22 47 43
21 46 42
21 46 42
23 49 44
21 46 42
22 48 43
22 46 42
22 47 43
22 47 43
23 49 44
23 48 44
22 47 43
22 48 43
22 47 43
22 46 42
22 47 43
23 48 44
23 48 44
22 46 42
22 47 43
23 47 43
20 45 41
20 44 40
20 46 42
20 45 42
20 45 41
20 45 41
20 44 40
20 44 40
20 45 41
20 44 40
20 45 42
20 45 41
20 44 40
20 45 42
20 45 41
20 45 42
20 45 42
21 46 43
20 45 42
20 45 41
20 45 41
20 45 41
20 45 41
21 46 42
21 46 43
20 44 41
20 45 41
20 45 41
20 44 41
20 45 41
20 45 42
20 45 41
21 45 42
21 47 43
21 46 42
21 46 42
20 45 41
21 46 42
20 45 42
20 45 41
20 45 41
20 45 41
21 45 42
22 48 44
20 44 40
20 44 41
21 46 43
20 45 41
21 46 42
21 46 42
21 46 42
20 45 41
21 46 42
20 45 41
21 46 42
20 44 41
20 45 41
21 46 42
20 45 41
21 46 42
21 46 42
21 46 42
21 46 42
20 45 41
21 46 43
21 46 42
21 46 42
21 46 42
21 46 42
20 45 41
20 45 41
20 45 41
21 46 42
21 46 42
20 45 41
21 46 42
21 46 42
20 45 41
21 46 42
21 47 43
21 45 42
21 46 42
21 46 42
21 46 42
21 46 42
20 45 41
21 46 42
21 47 43
21 47 43
21 46 42
21 46 42
21 47 43
21 45 41
21 47 43
21 46 42
21 46 42
21 46 42
22 48 43
22 47 43
22 47 43
22 47 43
22 47 43
22 47 43
22 46 42
22 46 42
22 47 43
22 46 42
22 47 42
22 47 43
23 47 43
22 46 42
22 46 42
23 48 44
23 47 43
23 48 44
23 48 44
22 46 42
23 48 43
23 46 42
23 47 43
20 43 40
19 43 40
20 44 41
20 44 40
20 44 41
20 44 40
20 44 41
19 43 40
20 44 41
20 45 42
20 44 41
21 46 42
20 45 41
20 45 41
20 45 41
20 44 41
20 44 40
21 46 42
21 46 42
20 45 41
20 45 41
20 44 40
20 45 41
20 45 42
20 45 42
20 44 41
21 47 43
20 45 41
21 46 42
21 45 42
21 46 42
20 45 41
20 44 41
20 45 41
21 46 42
20 45 41
20 45 42
21 46 42
20 44 40
21 46 42
21 46 42
21 47 43
20 44 40
21 45 42
20 45 41
20 45 41
20 44 41
21 47 43
21 46 42
20 45 41
20 45 41
20 45 41
21 46 42
20 45 41
20 45 41
20 45 42
21 45 42
21 47 43
20 45 41
20 45 42
20 45 42
20 45 41
21 46 42
21 46 42
21 46 42
21 46 42
21 46 42
21 45 42
20 45 41
21 46 42
21 46 42
21 45 42
20 45 41
21 45 42
21 46 42
21 46 42
21 47 42
21 46 42
21 47 43
21 47 43
21 46 42
21 46 42
21 46 42
21 47 43
21 46 42
21 46 42
21 46 42
21 46 42
21 46 42
21 47 43
21 45 41
21 46 42
21 46 42
21 46 42
20 44 40
22 47 43
22 47 43
22 47 43
22 46 42
21 45 41
22 47 43
22 47 43
22 47 42
22 47 43
22 47 43
23 47 43
23 47 43
22 47 42
22 46 42
23 47 43
23 47 43
23 46 42
23 47 43
23 47 43
23 48 43
23 47 43
23 47 43
24 48 44
24 48 44
24 48 43
20 45 42
20 44 41
20 45 41
20 44 41
20 45 41
20 46 42
20 45 41
21 46 43
21 46 42
20 45 41
20 45 41
20 45 42
20 44 40
20 45 41
20 44 40
20 45 42
20 44 41
20 43 40
20 45 41
21 46 42
20 45 41
20 45 41
20 45 41
20 45 41
21 46 42
20 45 41
20 45 41
20 44 41
20 46 42
21 46 42
19 43 40
20 45 41
20 44 40
21 46 42
20 45 41
20 45 41
20 44 41
21 46 42
20 45 41
20 44 41
20 44 40
20 45 41
20 45 41
21 46 42
20 45 41
20 44 41
20 44 41
21 46 42
21 47 43
21 47 43
20 45 41
21 46 42
20 45 41
21 46 42
21 47 43
21 46 42
21 46 42
20 45 41
21 46 42
21 46 43
20 45 41
20 45 41
20 44 40
21 46 42
21 46 42
21 46 42
20 45 41
20 45 41
21 46 42
21 46 42
21 45 41
21 46 42
21 47 43
21 47 43
21 46 42
21 46 42
21 47 43
21 45 41
21 46 42
21 45 42
21 46 42
21 47 43
21 46 42
21 45 41
21 46 42
21 47 43
22 47 43
21 46 42
21 45 41
21 46 42
21 46 42
21 46 42
21 46 42
21 46 42
22 46 42
22 46 42
22 46 42
22 46 42
22 46 42
22 47 43
22 47 42
22 46 42
23 47 43
23 47 43
23 48 43
22 46 42
23 47 42
23 47 43
23 47 43
24 49 44
24 47 43
24 48 44
24 47 43
24 48 44
24 47 43
25 49 44
24 48 43
24 47 43
25 49 45
25 49 44
21 46 42
20 44 40
20 44 40
20 45 41
19 43 40
21 46 42
19 43 40
20 45 41
20 45 41
20 44 41
20 44 40
20 45 42
21 46 42
20 45 41
20 44 41
20 45 41
20 45 41
20 45 41
20 44 41
21 46 42
20 45 41
20 44 41
20 46 42
21 46 42
21 46 43
21 46 42
20 45 41
20 45 41
20 45 41
20 45 41
21 46 42
20 45 41
20 45 41
21 46 42
20 45 41
21 46 42
20 45 41
21 46 42
20 45 41
20 45 41
20 44 41
20 45 41
21 46 42
20 44 40
21 46 42
20 44 41
20 45 41
20 44 41
20 45 41
20 45 41
20 45 41
20 45 41
21 46 42
20 45 41
20 45 41
20 44 40
20 44 41
20 45 42
21 46 42
21 47 43
21 46 42
21 46 42
21 46 42
21 46 42
21 46 42
21 46 42
21 46 42
21 46 42
20 45 41
21 46 42
21 46 42
21 45 42
21 46 42
21 46 42
21 46 42
21 46 42
20 45 41
22 48 44
21 46 42
21 46 42
21 46 42
21 46 42
21 45 42
21 47 43
21 46 42
20 45 41
21 46 42
21 46 42
21 45 41
22 47 43
21 46 42
22 47 43
23 49 45
22 47 43
22 47 43
22 46 42
22 46 42
22 47 43
23 47 43
22 46 42
23 48 44
23 47 42
23 47 43
23 48 44
23 47 43
24 48 44
24 47 43
24 48 43
24 47 43
24 46 42
25 48 44
24 47 43
24 47 43
25 49 44
25 48 43
25 49 44
25 48 43
26 49 45
25 48 43
26 48 44
20 45 41
20 45 41
20 45 41
20 44 40
20 45 41
20 45 41
20 45 42
20 44 41
20 44 41
20 45 41
20 45 41
19 43 40
20 45 42
20 45 42
20 44 40
20 44 40
20 45 41
20 44 40
20 45 41
21 46 42
20 45 41
21 46 42
20 45 42
20 44 41
20 45 42
19 43 40
20 45 41
20 45 41
20 45 42
21 46 42
20 45 41
20 44 41
20 45 41
21 46 42
20 45 41
20 45 41
20 44 41
21 46 43
20 45 41
21 46 42
20 45 41
20 45 41
21 46 42
20 45 42
20 45 42
20 44 41
20 45 41
21 46 42
21 46 42
20 45 41
20 45 41
20 45 41
20 45 42
21 46 42
21 46 42
21 46 42
20 44 41
21 47 43
21 46 42
21 46 42
21 46 42
21 46 42
20 45 41
21 46 42
21 46 42
21 46 42
21 46 42
21 46 42
21 46 42
21 47 43
20 45 41
20 44 40
21 46 42
20 44 40
21 45 41
21 46 42
21 46 42
21 46 42
21 45 41
21 46 42
21 46 42
21 45 42
21 46 42
21 46 42
21 46 42
21 46 42
21 46 42
21 46 42
22 47 43
21 46 42
22 47 43
21 45 41
22 46 42
22 47 43
22 47 43
22 46 42
23 49 44
23 47 43
23 47 42
23 47 43
23 46 42
24 48 44
23 47 42
23 46 42
23 46 42
25 49 45
24 48 43
24 47 43
25 48 43
25 47 43
25 48 44
25 48 43
26 48 43
26 48 44
26 48 44
26 47 43
27 48 44
27 50 45
27 50 45
27 48 43
20 44 41
20 44 41
20 44 40
20 44 41
20 45 41
20 45 41
20 45 41
20 44 41
20 44 41
20 43 40
20 45 41
21 46 42
21 46 42
20 44 40
20 44 41
20 45 42
20 44 41
20 45 42
20 45 42
20 45 41
20 46 42
20 45 41
20 45 41
20 45 42
20 44 41
20 45 41
20 45 41
21 46 42
20 45 42
20 45 41
21 46 42
20 44 40
20 45 42
20 44 41
20 45 41
20 44 41
20 45 41
20 45 41
20 45 41
20 45 41
21 46 42
20 44 41
20 45 42
20 45 41
20 44 41
20 44 41
20 44 41
21 46 42
21 46 42
20 45 42
21 46 42
20 45 42
20 45 41
20 45 41
21 46 42
20 45 42
21 46 42
21 46 42
20 45 41
20 45 42
21 46 42
21 46 42
20 44 40
21 46 42
20 45 41
20 45 42
21 46 42
20 45 41
21 46 42
20 45 41
20 45 41
21 46 42
21 46 43
21 46 42
20 45 41
21 46 42
21 45 42
21 46 42
21 46 42
22 47 43
21 46 42
21 46 42
21 46 42
21 45 41
21 45 41
21 46 42
22 46 42
21 45 42
22 46 42
22 47 43
22 47 43
22 46 42
23 47 43
22 47 43
22 46 42
23 47 43
23 47 43
23 47 43
24 49 44
24 48 44
24 48 43
24 47 43
25 48 44
24 47 43
25 48 44
25 48 43
25 47 43
26 48 44
26 48 43
26 48 43
26 48 43
27 49 44
27 48 44
28 49 45
28 49 44
28 49 44
29 51 46
28 50 45
29 50 45
29 49 44
20 45 41
20 45 41
20 45 41
20 45 41
21 46 42
20 45 42
20 44 40
20 45 41
20 45 41
20 44 40
20 44 41
20 45 41
20 45 42
20 45 41
20 45 42
21 46 42
20 44 41
20 44 41
20 45 41
20 44 41
20 44 40
20 45 41
21 46 42
20 45 41
21 46 42
20 45 41
20 45 41
20 45 41
20 44 40
20 45 41
20 45 41
20 45 42
20 45 41
20 45 41
20 45 41
21 46 42
20 45 42
21 46 42
20 45 41
21 46 42
21 46 42
20 45 42
20 45 41
20 45 41
21 46 42
21 46 42
20 45 41
21 46 42
20 45 41
21 47 43
20 45 41
20 44 40
20 45 41
20 45 42
20 45 41
20 45 41
20 45 41
20 44 40
20 45 41
21 46 42
20 45 41
20 45 42
20 44 40
21 46 42
20 45 41
20 45 41
20 45 41
20 45 41
21 47 43
21 46 42
21 46 42
21 46 42
21 45 41
20 45 41
21 46 42
21 46 42
21 46 42
21 45 42
21 45 41
21 46 42
21 46 42
21 46 42
21 44 40
22 46 42
21 46 42
21 45 41
22 46 42
22 46 42
22 47 42
22 47 43
23 48 44
22 46 42
23 47 43
23 48 43
23 47 43
24 48 43
24 47 43
24 47 43
24 47 43
25 48 43
24 46 42
25 47 43
25 48 43
25 48 43
26 49 44
27 49 45
27 49 44
27 48 44
27 49 44
27 48 44
28 49 44
28 49 45
29 50 45
29 49 44
30 52 47
30 51 46
30 50 45
30 50 45
31 52 47
30 50 45
20 44 41
19 43 40
20 44 40
20 44 40
20 44 40
20 44 41
20 45 41
20 44 40
20 44 41
20 44 40
20 44 41
20 44 40
20 45 42
20 44 41
20 45 41
20 44 40
20 45 41
20 44 41
20 45 42
20 45 42
20 44 41
20 45 41
20 45 41
20 45 41
20 44 41
21 46 42
20 45 41
20 45 42
21 46 42
20 45 41
21 46 42
20 45 41
20 45 41
20 44 41
20 45 41
20 45 41
21 47 43
20 45 41
21 46 42
20 45 42
20 44 40
20 45 42
20 44 41
20 44 40
20 45 41
21 46 42
21 46 42
20 45 41
21 46 42
20 45 41
21 46 42
20 45 41
20 44 41
21 46 42
20 45 42
21 46 42
20 45 41
21 46 42
21 46 42
21 46 42
21 47 43
21 46 42
21 45 42
20 45 42
21 46 42
21 46 42
21 46 42
20 45 41
21 45 42
20 45 41
20 45 41
21 46 42
21 46 42
21 46 42
21 46 42
20 44 40
21 46 42
21 46 42
21 45 41
21 46 42
22 47 43
22 47 43
21 46 42
21 46 42
21 45 41
22 46 42
23 48 43
22 47 43
22 46 42
22 46 42
22 46 42
23 46 42
23 46 42
23 47 43
24 47 43
25 48 44
25 48 44
24 46 42
25 48 44
26 50 45
25 48 43
26 48 44
26 48 44
27 48 44
27 49 44
27 48 43
28 49 45
29 50 45
28 49 44
29 50 45
30 50 45
30 50 45
30 50 45
31 51 46
31 50 45
32 51 46
32 50 46
32 51 46
32 51 46
33 52 47
20 44 41
19 43 40
20 45 41
20 45 42
20 45 41
20 45 41
20 45 41
20 45 41
20 44 40
20 45 41
20 44 40
20 45 41
20 44 40
20 45 41
20 45 42
20 45 41
20 45 41
20 44 40
20 45 41
20 45 41
20 44 41
20 45 41
20 44 41
21 46 42
20 44 41
20 45 42
21 46 42
20 44 40
20 46 42
20 44 40
20 45 41
20 45 41
20 45 41
20 45 42
20 45 41
20 45 41
20 45 41
20 45 41
20 45 41
21 46 42
20 45 41
21 46 42
20 45 41
20 45 41
21 47 43
20 45 41
20 45 42
20 45 41
20 45 42
20 44 41
21 46 42
20 45 42
20 45 41
21 46 42
21 46 42
20 45 41
20 45 41
20 44 41
21 45 42
20 45 41
20 45 41
20 45 42
20 45 41
21 46 42
21 45 42
20 45 41
21 46 42
20 45 41
21 45 42
20 44 40
20 44 40
21 46 42
20 44 41
21 47 43
20 45 41
21 47 43
21 46 42
21 46 42
21 45 41
21 45 41
22 47 43
21 45 41
21 45 42
21 45 41
22 47 43
22 47 42
22 45 41
22 46 42
23 47 43
23 47 43
23 45 41
23 47 42
23 46 42
24 46 42
24 47 43
25 48 44
25 47 43
25 48 43
26 48 43
26 47 43
26 48 43
27 49 44
28 50 46
28 48 44
28 49 44
29 49 45
30 51 46
30 49 44
31 51 46
31 50 45
31 51 46
32 51 46
33 53 48
33 51 46
34 53 48
33 51 46
34 53 48
34 53 48
34 52 47
35 52 47
20 44 40
20 45 41
19 43 39
20 45 41
20 44 41
20 45 41
20 44 41
20 45 41
21 46 43
20 45 41
20 45 42
20 45 42
20 45 41
20 45 41
20 45 41
20 44 40
21 46 42
20 45 41
20 45 41
20 44 41
20 45 42
20 45 41
20 44 41
20 44 41
20 45 41
20 46 42
20 43 40
20 45 41
20 45 42
19 43 40
20 45 41
20 44 41
20 44 41
20 44 41
21 46 42
19 43 39
20 45 42
20 44 41
21 46 42
20 45 41
21 46 42
21 46 42
21 46 42
21 46 42
20 45 41
20 45 41
20 45 41
20 45 41
21 47 43
20 45 41
21 46 42
21 46 43
21 45 42
20 44 40
20 45 42
21 46 42
20 45 41
21 46 42
21 46 42
20 45 41
21 46 42
21 45 42
20 43 40
20 45 41
21 45 42
20 45 42
21 46 42
21 45 42
20 45 41
21 46 42
21 47 43
21 46 42
20 45 41
21 46 42
21 45 41
21 46 42
22 47 43
21 46 42
21 46 42
22 46 42
21 45 41
22 46 43
22 47 43
22 46 42
22 47 43
22 45 41
23 46 42
23 48 44
23 47 43
23 47 43
24 47 43
24 47 43
24 46 42
25 47 43
26 48 44
26 48 44
27 49 45
27 49 44
27 48 44
27 48 43
28 50 45
29 50 45
29 50 45
30 50 45
30 50 46
30 50 45
31 51 46
32 51 45
32 51 46
33 52 47
34 52 47
34 52 46
34 52 47
35 53 48
35 53 48
36 54 48
36 54 48
37 54 48
37 55 49
37 54 48
20 44 41
20 45 41
20 46 42
19 43 39
20 45 42
20 45 42
20 44 41
20 46 42
20 45 41
19 43 40
20 44 41
20 45 41
20 45 42
20 44 40
20 44 41
20 45 41
20 45 42
20 44 41
19 43 40
20 45 41
20 44 41
20 44 40
20 45 41
20 44 41
20 46 42
20 45 42
20 45 42
20 44 41
20 44 41
20 44 41
20 44 41
20 44 41
21 46 42
20 45 41
20 45 42
20 45 41
20 45 41
20 45 41
21 46 42
20 45 41
20 45 41
21 46 42
21 47 43
20 45 41
20 45 41
20 44 40
20 45 41
20 45 42
20 44 40
21 46 42
20 45 41
20 45 41
20 45 41
20 45 41
20 44 41
20 45 41
20 45 42
21 46 42
20 45 42
21 47 43
20 44 40
20 44 41
21 46 42
20 44 41
21 46 42
21 46 43
20 45 41
20 45 41
21 45 42
20 45 41
21 47 43
20 45 41
21 45 41
21 45 42
21 46 43
21 45 41
21 45 41
21 46 42
22 46 42
22 47 43
22 47 43
22 47 43
22 46 42
23 47 43
23 46 42
23 46 42
23 47 43
24 47 43
24 47 43
25 48 44
25 48 43
25 47 43
25 47 43
26 47 43
27 49 45
27 49 44
28 49 45
28 49 44
28 49 44
30 51 46
30 50 45
30 50 46
31 52 47
31 50 45
32 51 46
32 50 45
33 52 47
34 53 48
35 53 48
35 53 48
36 53 48
36 54 48
37 53 48
37 54 48
38 54 48
38 55 49
39 56 49
39 56 50
40 56 50
40 55 49
20 45 42
20 45 42
20 45 41
20 44 40
20 45 42
20 44 41
20 44 41
20 45 41
20 44 40
20 45 41
20 45 42
20 45 42
21 46 42
20 45 41
20 45 41
20 44 41
20 45 42
20 44 40
20 45 42
20 44 41
20 45 41
20 44 40
20 44 41
20 45 42
21 46 42
20 44 41
20 44 41
21 46 42
21 46 42
20 45 41
20 45 42
21 47 43
21 46 42
21 47 43
20 44 41
20 44 40
20 45 41
20 45 41
20 45 41
20 44 41
21 47 43
20 45 41
20 45 41
20 45 42
20 45 41
20 45 42
20 45 41
20 45 41
20 45 41
20 44 40
20 45 41
21 46 42
20 44 40
20 45 41
20 45 42
20 45 42
20 45 41
21 46 42
21 46 42
21 46 42
21 46 42
21 46 42
20 45 41
20 45 41
21 46 42
20 45 41
20 45 41
20 45 41
20 44 40
21 45 42
20 44 41
21 46 42
20 44 41
21 45 41
21 44 41
21 46 42
21 46 42
22 47 43
22 47 43
22 47 43
22 45 42
22 46 42
23 47 43
22 46 42
23 47 42
23 46 42
24 47 42
24 46 42
25 49 44
25 47 43
25 48 44
26 47 43
27 49 45
27 49 44
27 48 44
28 48 43
29 50 45
29 49 45
30 50 45
31 51 46
31 50 45
32 52 47
33 51 46
33 51 46
34 54 48
35 53 48
35 53 47
36 53 47
37 54 48
37 54 48
38 54 49
39 55 49
39 55 49
40 56 50
40 56 50
41 56 50
41 56 50
42 57 51
43 57 51
43 57 51
20 45 42
21 46 42
20 44 41
19 43 39
20 44 40
20 45 41
20 44 40
20 45 42
20 44 40
20 44 40
20 44 40
19 43 40
20 44 41
20 45 41
20 44 40
20 44 40
20 45 42
20 45 41
20 45 41
20 44 40
20 44 41
21 46 42
21 47 43
21 46 42
20 45 41
20 45 41
20 44 40
20 45 41
21 47 43
20 45 41
20 45 41
19 43 40
20 45 41
19 43 40
21 46 42
20 45 42
20 45 41
20 45 41
20 44 40
21 46 43
20 45 41
20 44 40
20 45 42
21 46 42
20 45 42
20 44 40
20 45 42
21 46 42
20 44 40
20 45 42
20 45 41
21 46 42
21 46 42
20 45 41
20 44 40
20 45 41
20 45 41
20 45 41
20 45 41
21 47 43
21 45 42
20 45 41
20 45 41
20 45 41
20 44 40
21 46 43
21 46 42
20 45 41
20 45 41
21 45 41
20 45 41
21 45 41
20 44 40
21 45 41
21 46 42
21 45 41
21 45 41
22 46 42
22 45 42
22 46 42
22 46 42
23 47 43
22 45 41
23 46 42
24 47 43
24 47 42
24 46 42
25 47 43
25 48 44
26 48 44
26 48 44
27 48 43
27 48 44
28 49 44
29 50 45
29 49 44
30 49 44
30 49 45
32 51 46
32 50 45
32 49 44
34 52 46
34 52 47
35 53 48
36 53 48
37 53 48
37 54 48
38 55 49
39 54 48
40 56 50
41 56 50
41 56 50
42 56 50
43 57 51
44 58 51
44 58 51
44 58 51
45 58 52
46 59 52
46 59 53
20 44 41
20 45 41
20 45 42
20 44 40
20 45 42
20 45 42
21 46 42
20 45 41
20 44 41
20 44 40
20 44 40
20 44 41
20 44 41
20 44 41
20 44 41
19 43 40
19 43 40
20 44 40
21 46 42
20 44 40
20 45 42
21 46 42
20 44 40
20 44 40
20 44 40
20 45 41
20 45 41
20 44 40
20 45 41
20 45 41
20 44 41
20 44 40
20 44 40
20 44 40
20 46 42
20 44 41
20 45 41
20 45 42
20 44 41
19 43 40
21 46 42
20 45 41
20 44 40
20 45 41
20 45 42
21 46 42
20 46 42
21 47 43
20 45 41
20 44 41
20 45 41
21 46 42
21 46 42
20 44 40
20 45 42
20 45 41
20 45 41
20 44 41
20 45 41
20 44 40
20 45 41
21 46 42
21 46 42
20 44 40
20 44 40
20 45 41
21 46 42
20 45 41
21 45 41
21 45 41
21 45 41
20 44 40
21 45 41
21 46 42
21 46 42
21 45 41
22 47 43
22 45 41
22 46 42
22 45 42
23 47 43
23 45 41
23 46 42
24 47 43
24 47 43
25 47 43
25 47 43
26 48 44
26 48 43
26 47 43
27 48 43
28 49 44
28 49 44
29 49 45
30 50 46
31 51 46
31 50 45
32 51 46
33 51 46
34 52 47
35 52 47
36 54 48
36 53 47
38 54 49
38 55 49
39 54 48
40 54 49
41 56 50
41 56 50
42 57 51
44 58 52
44 58 52
45 60 53
46 60 53
47 60 53
47 60 53
48 60 53
49 61 54
49 61 54
49 61 53
21 46 43
20 45 41
20 45 41
20 44 40
20 44 40
19 43 40
20 44 40
20 44 41
19 43 40
20 44 41
20 44 40
20 44 40
20 45 42
20 44 40
20 44 41
20 44 40
20 44 40
20 44 41
20 45 41
20 45 42
20 44 41
19 43 40
20 44 40
20 45 41
20 45 41
20 45 42
20 44 40
19 43 40
19 43 40
20 45 41
20 45 42
20 44 40
20 45 41
20 46 42
21 46 42
20 45 41
20 45 41
20 45 41
21 47 43
20 45 41
20 45 41
20 44 40
20 44 40
20 44 41
20 45 41
20 45 41
20 45 41
20 45 41
21 46 42
20 44 41
20 44 41
19 43 40
20 44 40
20 43 40
20 44 40
20 45 41
20 44 41
20 45 41
20 44 40
20 45 42
20 45 41
21 45 41
20 45 41
20 44 41
21 46 42
21 45 41
21 45 42
21 46 42
21 45 42
21 45 41
21 46 42
21 46 42
21 44 41
22 46 42
22 46 42
22 46 42
22 45 41
22 45 41
23 47 43
23 46 42
23 46 42
23 46 42
24 47 43
25 48 44
25 47 42
26 48 44
26 48 44
27 48 44
27 48 43
27 47 43
28 49 44
29 50 45
30 51 46
31 50 46
31 50 45
32 52 47
33 51 46
34 53 47
35 52 47
36 53 48
37 54 49
38 54 48
39 56 50
40 56 50
41 56 50
41 56 50
43 58 52
44 58 52
45 59 52
45 59 52
46 59 52
47 60 53
48 60 53
49 61 54
49 61 54
50 62 54
51 63 55
52 64 56
53 64 56
53 64 56
20 45 41
20 44 41
20 44 41
20 45 41
20 44 40
20 44 41
19 43 40
20 44 41
20 44 41
19 43 40
20 44 40
19 43 40
20 44 41
20 45 42
20 45 41
20 45 41
20 45 42
20 44 41
20 44 41
20 44 40
20 44 41
20 45 41
20 44 41
19 43 40
20 45 42
20 44 40
20 45 41
20 44 40
20 43 40
20 45 41
20 44 41
20 45 41
20 45 41
20 45 42
20 44 41
20 44 41
20 45 42
20 45 41
20 45 41
20 45 41
20 44 40
20 45 41
20 45 41
20 45 41
20 44 40
21 46 42
20 44 40
20 44 41
20 44 40
20 44 41
20 45 41
20 45 42
20 44 41
20 45 41
21 46 42
20 45 41
21 47 43
20 44 40
20 45 41
20 45 42
20 45 41
20 44 40
20 44 41
20 44 40
21 45 41
21 46 42
21 45 41
21 45 41
22 47 43
21 45 42
21 45 41
21 45 42
22 46 42
22 45 42
22 47 43
21 44 40
22 46 42
23 46 42
23 46 42
23 46 42
24 46 42
24 47 43
25 47 43
25 48 44
25 47 43
26 48 43
27 47 43
28 48 44
27 47 42
29 50 45
30 49 44
31 51 46
31 50 46
32 51 46
33 51 46
34 51 46
35 53 48
36 53 48
37 55 49
38 55 49
39 54 49
40 56 50
41 55 49
42 57 50
43 57 51
44 59 52
45 58 51
46 59 53
47 60 53
48 61 54
50 62 55
51 63 55
51 63 56
52 65 57
53 64 57
54 64 56
54 65 57
55 66 58
56 66 58
56 66 58
20 44 40
20 44 41
20 44 40
20 44 40
20 44 40
20 45 41
20 44 41
20 45 42
20 44 40
19 43 40
20 44 40
20 45 41
20 45 41
20 44 41
21 46 42
20 44 40
20 45 42
20 45 41
20 44 41
20 45 41
20 45 41
20 45 41
20 44 41
21 46 42
20 45 42
20 44 41
20 44 40
20 45 41
20 45 42
20 44 41
20 44 41
20 44 41
21 46 42
20 45 41
20 45 41
20 44 40
20 44 41
20 44 41
20 45 41
20 43 40
21 47 43
20 45 42
20 45 41
20 45 41
20 44 40
20 44 40
20 45 41
20 44 41
20 45 41
20 44 40
21 46 42
20 45 41
20 45 41
20 44 40
20 44 41
20 44 41
20 44 40
21 46 42
20 45 41
21 46 42
21 46 42
20 45 41
21 47 43
21 45 42
20 45 41
20 44 41
21 46 42
21 46 42
21 46 42
21 45 41
22 47 43
22 46 42
22 46 42
22 46 42
22 46 42
22 45 41
23 46 42
23 46 42
24 46 42
25 48 44
25 47 43
25 47 43
26 48 44
26 48 44
26 47 43
27 48 44
28 48 44
29 49 44
29 49 44
30 50 45
31 51 46
32 51 46
32 49 44
34 52 46
35 52 46
36 53 47
37 54 48
38 54 48
39 55 49
40 55 49
42 57 51
42 56 50
44 59 52
45 58 52
46 60 53
47 59 52
48 61 54
49 62 54
50 62 55
51 62 55
53 64 57
54 64 56
55 65 57
55 65 57
56 66 58
57 66 58
58 68 60
59 68 59
59 68 60
61 70 61
20 44 41
20 44 41
20 44 40
20 44 41
20 45 42
20 44 41
20 44 41
21 46 42
20 45 42
20 44 41
20 45 41
20 45 41
20 44 41
20 44 41
20 44 41
20 44 40
20 44 40
20 44 41
20 45 42
21 46 42
20 45 42
20 45 41
20 45 41
20 44 41
20 44 40
20 44 41
20 44 41
20 45 41
20 44 40
21 46 42
20 45 41
20 45 41
20 45 42
20 45 41
21 46 42
20 44 40
20 45 41
20 45 42
20 44 40
21 46 42
20 44 41
21 46 42
20 44 40
21 47 43
20 44 41
20 44 41
21 45 42
20 45 41
21 46 42
21 46 42
20 44 41
21 46 42
21 46 42
20 45 41
20 44 41
20 45 41
20 45 41
20 44 40
20 45 41
20 45 41
20 44 40
20 44 41
21 46 42
21 46 42
21 46 42
21 46 42
21 45 42
21 46 42
21 46 42
21 45 41
21 45 41
21 45 41
22 46 43
22 45 41
23 46 42
23 47 43
24 47 43
24 47 43
24 46 42
25 47 43
25 47 43
25 47 43
26 48 44
27 48 44
27 47 42
28 48 43
29 49 45
30 49 45
30 49 44
31 50 45
32 50 45
33 51 46
35 53 47
36 53 48
37 54 49
38 54 48
39 56 50
40 56 50
41 56 50
42 56 50
44 59 52
45 59 52
46 59 53
48 61 54
49 61 54
50 62 55
51 62 54
52 63 56
54 64 57
54 64 56
56 67 58
57 67 58
58 69 60
59 69 61
60 69 61
61 69 60
62 71 62
63 71 62
64 72 63
64 71 62
20 45 41
19 43 40
20 44 40
20 44 40
20 44 41
20 44 40
20 46 42
20 45 41
19 43 39
20 44 41
20 45 42
20 44 41
20 45 41
20 45 41
19 43 40
20 45 42
20 46 42
20 44 40
20 44 41
20 45 41
20 43 40
20 44 41
21 46 42
20 45 41
20 44 40
20 44 40
20 44 40
19 43 40
20 45 41
20 44 40
20 45 41
20 44 40
20 44 40
20 45 41
20 45 41
20 45 41
20 44 41
20 45 42
19 43 40
21 46 42
20 46 42
19 43 40
20 45 41
20 45 42
20 45 42
20 45 41
20 45 42
20 45 41
20 44 40
20 44 41
20 44 41
21 46 43
21 46 42
20 44 41
20 45 42
20 44 40
20 44 40
20 45 41
20 44 41
21 45 42
20 45 41
21 46 42
21 46 42
21 46 42
21 46 42
21 46 42
21 45 42
21 44 41
21 45 42
21 45 41
22 46 42
22 45 42
22 44 41
22 45 41
23 46 42
24 48 44
23 45 41
24 47 43
25 47 43
25 47 43
26 48 43
27 49 45
27 49 44
27 48 43
29 49 45
29 49 44
30 49 44
31 49 45
32 51 46
33 51 46
34 52 47
35 52 47
36 53 48
37 54 48
39 54 49
40 54 49
41 55 49
42 57 51
44 58 51
45 59 53
47 60 53
47 59 52
49 60 53
50 63 56
52 64 56
53 66 58
54 65 57
56 66 58
57 67 59
58 68 59
59 69 60
61 70 61
61 70 61
63 71 62
64 72 63
64 72 62
66 74 64
66 74 64
67 74 64
68 75 65
20 45 41
20 44 40
20 44 40
20 45 42
20 45 42
20 43 40
20 44 41
20 45 41
20 44 40
20 44 40
20 44 40
20 45 41
21 46 42
20 44 41
20 44 41
20 44 40
20 45 41
19 43 39
20 45 41
20 45 41
20 44 40
20 44 41
20 44 40
20 44 40
21 46 42
20 45 42
19 43 40
20 45 42
20 45 41
20 46 42
20 45 41
21 46 42
20 45 41
20 45 42
20 44 41
21 46 42
20 45 41
20 44 41
21 46 42
20 44 41
20 44 40
20 44 41
20 44 41
20 44 40
20 44 40
20 45 41
20 44 41
20 45 42
20 45 42
20 44 41
20 45 41
20 44 41
20 45 41
21 46 42
20 44 41
20 45 41
20 44 40
20 44 40
21 45 42
20 45 41
21 45 41
21 45 41
21 45 41
21 45 42
21 46 42
21 46 42
21 45 42
22 47 43
22 45 42
22 46 42
23 47 43
23 46 42
22 45 41
23 45 41
23 46 43
24 46 42
24 47 43
25 48 44
26 49 45
26 48 44
27 48 43
27 48 44
28 48 44
29 49 44
30 49 44
30 49 44
32 51 46
32 49 44
34 52 47
35 52 47
36 53 47
37 53 48
38 54 48
39 55 49
40 55 49
42 56 50
43 57 50
45 59 52
46 59 53
47 60 53
49 61 54
50 62 54
52 64 56
53 64 56
54 64 56
56 66 58
58 69 61
59 67 59
60 69 60
61 69 61
63 72 62
64 72 63
65 72 63
66 74 64
67 74 65
68 75 65
70 77 66
70 77 66
71 78 67
72 78 67
20 44 40
20 46 42
20 45 42
20 44 41
20 44 41
20 44 41
20 44 41
20 44 41
19 43 40
20 45 41
20 45 42
19 43 39
20 44 41
20 45 41
19 43 39
20 44 40
20 45 41
20 44 41
20 45 41
20 44 41
20 44 40
20 44 40
20 44 40
19 43 40
20 45 42
19 43 40
20 45 42
20 44 41
20 45 42
20 45 41
20 45 41
20 45 41
21 47 43
20 44 40
20 44 40
20 45 41
20 44 40
21 47 43
20 45 41
20 45 42
20 44 40
20 45 41
20 44 41
20 45 41
20 45 41
20 44 41
20 45 41
21 46 42
20 44 40
21 46 42
20 45 42
20 43 40
20 44 40
20 44 41
20 44 41
20 45 41
20 44 40
20 44 40
20 45 41
21 46 42
21 45 41
20 43 40
21 45 41
21 46 42
20 44 40
21 45 41
21 45 42
22 45 42
23 47 43
22 45 42
23 47 43
22 45 41
23 46 42
23 46 42
24 47 43
24 46 42
25 47 42
26 48 44
26 47 43
27 48 44
27 48 44
29 49 45
29 50 45
30 49 45
31 49 44
31 49 44
33 51 46
34 51 46
35 54 48
36 53 48
38 54 48
39 54 48
40 55 49
41 56 50
43 57 51
44 57 51
45 58 52
47 59 53
48 60 53
50 62 55
52 63 56
53 64 56
54 64 57
56 67 58
58 67 59
59 68 60
61 69 60
62 70 61
64 72 63
65 72 63
66 74 64
67 74 65
69 76 66
70 76 66
72 78 68
72 78 68
74 80 69
75 80 69
76 81 70
76 82 71
20 44 40
20 45 42
19 43 40
20 45 41
20 45 41
20 45 41
20 45 41
20 44 41
20 44 41
20 44 40
20 45 41
20 44 40
19 43 40
20 44 41
20 44 41
20 45 41
21 46 42
20 44 40
20 45 41
21 46 42
20 44 40
20 45 41
19 43 39
20 44 41
19 43 40
20 44 40
20 45 41
20 45 42
19 42 39
20 44 41
20 45 41
20 45 41
20 45 41
20 45 41
20 45 41
20 43 40
21 46 42
20 44 41
20 44 41
20 45 42
20 44 41
20 44 40
20 44 41
20 45 41
20 45 42
20 45 41
21 46 42
20 45 41
21 46 42
20 45 41
20 44 41
21 46 42
20 45 41
20 44 41
20 45 41
20 45 41
21 45 42
20 45 41
20 45 41
20 44 41
21 45 42
21 45 41
21 45 42
21 45 41
21 45 41
21 46 42
21 45 41
22 46 42
22 45 42
22 46 42
22 45 41
23 45 41
23 46 42
24 46 42
24 47 43
25 47 43
25 46 42
26 48 43
26 47 42
28 48 44
29 49 45
29 49 44
30 50 45
31 51 46
32 52 47
33 51 46
34 52 47
35 52 47
37 53 47
38 54 48
39 55 49
41 55 49
42 57 51
43 57 50
45 58 52
47 60 53
48 60 53
50 62 54
51 61 54
53 64 56
54 65 57
56 65 57
57 67 58
59 68 60
61 70 61
62 70 61
64 71 62
66 73 64
67 75 65
68 75 65
70 77 66
71 78 67
73 78 67
74 79 68
75 81 70
77 82 71
78 83 72
79 83 72
80 84 72
80 85 73
19 43 40
20 45 41
19 43 40
20 44 40
20 44 41
20 44 41
20 44 40
20 45 41
20 45 42
20 44 40
20 45 41
20 45 42
20 45 41
20 44 41
19 43 40
20 45 42
20 44 40
20 44 40
20 45 42
20 44 41
20 44 41
20 44 41
20 44 40
20 44 41
20 44 41
20 45 41
20 44 41
20 45 42
20 44 40
20 44 41
20 45 41
20 44 40
19 43 40
20 44 41
20 45 42
20 44 40
20 45 41
20 45 41
20 43 40
20 45 41
20 45 42
20 45 41
19 43 40
20 45 41
20 44 40
20 45 41
20 45 41
20 45 41
20 44 40
20 45 42
20 44 41
20 45 41
20 44 40
21 45 42
20 44 40
21 46 42
20 45 41
21 45 41
20 45 41
21 47 43
21 45 42
21 46 42
21 45 41
21 45 42
21 44 40
21 45 41
22 45 41
22 45 42
23 46 43
23 46 42
23 46 42
24 48 44
24 48 44
24 47 43
25 48 43
26 49 45
26 48 44
26 47 43
27 47 43
29 49 45
29 48 44
31 50 46
31 50 45
32 50 45
33 51 46
34 50 45
36 52 47
37 52 47
38 54 48
40 55 49
41 56 50
43 57 51
44 58 51
46 60 53
47 60 53
49 61 54
51 62 55
52 64 56
54 64 56
55 65 57
57 67 58
59 68 59
60 68 60
62 71 62
64 72 62
66 73 64
67 74 64
69 75 66
70 76 66
72 78 67
74 80 69
75 80 69
77 82 71
78 83 71
79 84 73
80 85 73
81 85 73
83 86 74
84 88 76
85 88 76
