P3
120 80
255
17 39 36
17 38 36
17 39 37
17 39 37
17 39 37
17 39 37
17 39 37
17 40 38
17 38 36
17 38 36
17 38 36
17 39 37
17 38 36
17 38 36
17 39 37
17 38 36
17 38 36
17 39 37
17 39 37
17 40 37
17 40 37
17 39 37
17 39 37
16 38 36
17 38 36
17 38 36
17 39 37
17 39 37
17 38 36
17 39 36
17 40 38
17 39 37
17 39 37
17 39 37
17 39 36
17 38 36
17 39 37
17 39 36
16 38 36
17 40 38
17 38 36
17 38 36
17 39 37
17 38 36
17 40 37
17 39 37
17 38 36
16 38 36
17 39 37
17 39 37
17 38 36
17 39 36
17 39 37
16 38 35
16 38 35
17 39 37
17 38 36
17 39 37
17 39 37
17 38 36
17 39 37
17 39 37
17 38 36
17 40 38
17 40 37
17 38 36
16 38 36
17 39 36
16 37 35
17 39 37
17 38 36
17 39 37
17 38 36
17 39 37
17 39 36
17 39 37
17 39 37
17 39 37
17 39 37
17 39 37
17 39 37
17 39 37
17 38 36
17 38 36
17 39 37
17 39 37
16 38 36
17 39 37
17 39 37
17 40 37
17 39 37
17 39 37
16 38 36
17 39 37
17 39 37
17 39 37
17 39 37
17 38 36
17 39 37
17 38 36
17 39 37
17 38 36
17 39 37
17 39 37
17 39 36
17 38 36
17 39 37
17 39 37
17 39 37
17 39 37
17 39 36
17 39 37
17 39 37
17 39 37
17 39 37
17 38 36
17 38 36
17 39 36
17 38 36
17 39 37
17 39 37
17 38 36
17 39 37
17 39 37
17 38 36
17 39 37
17 38 36
17 38 36
17 39 37
17 38 36
17 39 36
17 39 37
17 39 37
17 39 37
17 38 36
17 39 37
17 39 36
17 39 37
17 38 36
17 39 36
17 38 36
17 38 36
17 39 37
17 39 37
17 39 36
17 39 37
17 39 36
17 39 37
17 39 37
17 39 37
17 38 36
17 38 36
17 38 36
17 39 37
17 39 36
17 39 36
17 39 37
17 39 37
17 38 36
17 40 37
17 39 37
17 38 36
17 39 37
17 39 37
16 38 36
17 39 37
17 39 37
17 38 36
17 39 37
17 38 36
17 38 36
17 39 36
17 39 37
17 39 37
17 39 37
17 39 37
17 38 36
17 38 36
17 40 37
17 39 37
17 38 36
17 38 36
17 39 37
17 39 37
17 39 37
17 38 36
17 39 37
17 39 37
17 39 37
17 39 37
17 39 37
17 39 36
17 40 37
17 39 37
17 39 37
17 39 37
17 39 37
17 39 37
17 39 37
17 39 37
17 39 36
17 40 37
17 39 37
17 39 37
17 39 36
17 40 37
17 39 37
16 37 35
17 39 37
17 38 36
17 38 37
17 38 36
17 39 36
17 39 37
17 39 37
17 39 37
17 39 37
17 39 36
17 38 36
17 39 37
17 39 37
16 38 36
17 39 37
17 38 36
17 38 36
17 39 37
17 39 37
17 39 36
17 38 36
16 38 36
17 38 36
17 39 36
16 38 36
16 37 36
17 39 37
17 39 37
17 38 36
16 38 36
17 39 37
17 39 37
17 39 36
17 40 38
17 39 37
17 38 36
17 38 36
17 39 37
17 39 36
17 39 37
17 39 37
17 39 37
17 39 37
17 39 37
17 39 37
17 39 37
17 39 37
17 39 36
17 39 37
17 39 37
17 39 37
17 38 36
18 40 38
17 38 36
17 39 37
17 40 38
17 39 37
17 39 37
17 39 37
17 39 37
17 39 37
18 40 38
17 40 37
17 40 37
17 39 36
17 39 37
17 40 37
17 38 36
17 38 36
17 39 37
17 39 37
17 39 36
18 40 38
16 38 36
17 39 36
17 39 37
17 38 36
17 39 36
17 39 37
17 39 37
17 39 37
17 39 37
17 39 37
17 39 36
17 39 37
17 39 37
17 38 36
17 39 37
17 39 37
17 39 37
17 39 37
17 39 36
17 40 38
17 39 37
18 41 39
17 39 37
18 40 38
17 40 37
17 39 37
17 40 37
17 39 37
17 40 37
17 39 37
17 39 37
17 39 37
17 39 37
17 39 37
17 39 37
17 40 38
17 39 37
17 39 37
17 39 36
17 38 36
17 39 37
17 39 37
17 39 37
17 39 37
17 39 36
17 39 37
17 40 37
17 40 37
17 39 37
17 38 36
17 39 37
17 38 36
17 39 37
17 39 36
17 39 37
17 39 37
17 40 38
17 38 36
17 39 36
17 39 37
17 39 37
17 39 37
17 39 36
17 39 37
17 40 38
17 38 36
17 39 37
16 38 35
17 38 36
17 39 37
17 38 36
17 40 37
17 39 36
17 39 37
17 39 36
17 38 36
17 38 36
17 39 37
17 38 36
18 40 38
17 38 36
17 39 36
17 39 36
17 39 37
17 38 36
17 39 37
18 40 38
17 40 37
17 39 37
17 39 37
17 39 37
18 40 38
18 40 38
17 38 36
17 39 37
17 38 36
17 39 37
17 39 36
17 39 37
17 39 36
17 40 38
17 39 36
17 39 37
17 39 36
17 39 37
17 39 37
17 40 37
17 40 37
17 40 37
17 39 37
17 39 37
17 39 37
17 39 36
17 39 37
17 39 37
17 38 36
16 38 36
17 39 37
17 39 36
17 38 36
17 38 36
17 39 37
17 39 36
17 39 36
17 39 37
17 40 37
17 40 37
17 39 37
17 40 38
17 39 37
17 40 37
17 39 37
17 40 37
18 40 38
17 39 37
17 39 36
17 39 36
17 40 37
17 39 37
17 39 37
17 39 37
17 40 37
17 40 37
17 40 37
17 40 37
17 39 37
17 39 37
17 39 36
16 38 36
17 39 37
17 40 37
17 39 37
17 40 37
17 39 37
17 39 37
17 39 37
17 39 37
17 39 36
17 38 36
17 40 37
17 39 37
17 39 37
17 39 37
17 39 37
17 39 37
17 39 37
17 39 37
17 39 36
17 40 37
17 39 37
17 40 37
17 39 37
17 39 37
17 39 36
17 39 37
17 38 36
17 40 37
17 39 37
17 39 37
17 39 37
17 39 36
17 39 36
17 39 37
18 40 38
17 39 37
17 39 37
17 39 37
17 40 38
17 39 37
17 39 37
17 39 37
17 39 37
17 39 37
17 39 37
17 40 37
17 39 37
17 38 36
17 39 37
17 38 36
17 39 37
17 38 36
17 39 37
17 39 36
17 38 36
17 39 37
17 39 37
18 40 38
17 40 38
17 38 36
18 40 38
17 40 37
17 40 38
17 38 36
17 39 37
18 40 38
17 38 36
17 38 36
17 39 37
17 40 37
17 39 36
17 40 37
17 40 37
17 39 37
17 40 37
17 39 37
17 38 36
17 39 37
17 39 37
17 39 37
18 40 38
17 40 37
18 40 38
18 40 38
17 39 37
18 40 38
17 40 38
17 39 37
17 40 37
17 39 37
17 39 37
17 40 37
18 40 38
17 38 36
17 38 36
17 39 37
17 39 37
17 39 37
17 40 37
17 40 37
17 39 37
17 39 37
17 39 37
17 39 37
17 39 36
17 39 36
17 39 37
17 40 37
17 39 37
17 39 37
17 39 37
17 39 37
18 40 38
17 40 37
17 39 37
17 39 37
17 40 37
17 39 37
18 40 38
17 40 37
18 40 38
17 39 37
17 39 37
18 40 38
17 39 37
17 38 36
17 39 36
18 41 38
17 40 37
18 40 38
17 40 37
18 40 38
17 40 38
18 40 38
17 39 37
17 40 37
17 40 37
17 39 37
17 39 37
17 39 37
17 39 37
17 39 37
17 39 37
17 39 37
17 39 37
17 39 37
17 39 37
17 39 37
17 38 36
18 40 38
17 40 38
17 40 37
17 39 37
17 39 37
17 39 37
17 39 37
17 39 37
17 39 37
17 39 37
17 39 37
17 39 37
17 40 37
17 39 37
17 39 37
17 39 37
17 40 37
18 40 38
17 39 36
17 39 36
17 40 37
17 40 37
17 39 36
18 40 38
17 39 36
17 40 38
17 39 37
17 38 36
17 40 38
17 39 37
17 40 37
17 39 37
17 39 37
17 40 37
17 39 37
18 40 38
17 39 37
17 39 37
18 40 38
17 39 37
17 39 37
17 40 37
17 39 36
17 40 37
17 39 37
17 39 36
18 40 38
17 39 37
17 40 37
17 39 37
17 39 37
18 40 38
17 38 36
18 40 37
18 40 38
17 40 37
18 41 38
18 41 38
18 40 38
17 39 36
17 40 37
18 40 38
17 40 37
18 40 38
17 39 37
17 39 37
18 40 38
18 40 38
18 40 38
17 39 37
17 40 38
17 39 37
17 39 37
17 39 37
17 40 37
17 39 37
17 39 37
17 39 36
18 40 37
17 40 37
17 40 37
17 40 37
17 39 36
17 38 36
17 40 38
17 39 37
18 40 38
18 41 39
18 40 38
17 39 37
17 39 37
18 40 38
17 39 37
17 39 37
17 39 37
17 40 37
17 39 37
17 40 37
17 39 36
17 39 37
18 40 38
17 38 36
17 38 36
18 40 38
18 40 38
17 39 37
18 41 38
17 40 37
17 39 36
17 39 37
18 40 38
17 39 37
17 39 37
17 40 38
17 39 37
18 40 37
17 39 37
18 40 38
17 39 37
17 39 37
18 40 38
17 39 37
17 40 37
17 40 37
17 39 37
17 39 37
17 40 37
18 40 38
17 39 37
18 40 38
17 39 37
17 39 37
17 39 36
17 40 38
18 40 38
17 39 37
17 38 36
17 39 37
17 39 36
17 39 37
17 40 38
18 40 38
17 39 37
18 41 38
18 40 38
17 39 37
18 40 38
17 39 37
18 40 38
17 40 37
17 40 37
17 39 37
17 40 37
17 39 37
18 40 37
17 39 37
18 40 38
17 39 37
17 40 38
17 40 37
17 39 37
18 40 38
18 40 38
17 39 36
17 40 38
17 39 36
18 40 38
18 40 38
17 39 37
18 40 38
17 39 37
18 41 38
18 40 37
18 41 38
18 40 38
17 40 37
18 41 39
17 40 37
17 39 37
17 40 37
18 40 38
17 39 37
17 40 37
17 39 37
17 39 37
18 40 38
17 39 37
17 39 36
18 40 38
17 40 37
17 40 37
18 40 38
17 39 37
18 40 37
17 39 37
18 41 38
17 40 37
18 40 38
17 40 37
17 39 37
18 40 38
18 40 38
17 39 37
17 40 37
17 40 37
18 40 38
18 40 38
17 39 37
17 38 36
18 40 38
18 40 38
18 40 37
18 40 38
18 40 38
17 40 37
18 40 38
18 40 38
17 40 37
18 41 38
18 40 38
17 39 37
17 40 37
17 39 37
18 41 39
18 40 38
18 40 38
18 41 38
17 39 37
18 40 38
17 39 37
17 39 36
17 39 37
17 40 37
18 41 38
17 40 37
17 39 36
17 38 36
17 39 37
17 40 37
17 39 37
17 39 37
17 39 37
17 39 37
17 40 37
17 39 37
18 40 38
17 39 37
17 40 37
17 39 37
17 40 37
18 40 37
18 40 38
17 39 37
17 39 37
17 39 37
17 40 37
17 39 37
17 39 36
17 40 37
17 40 37
17 40 37
17 39 37
17 40 37
17 40 37
18 41 38
18 40 37
18 40 37
18 41 38
18 40 38
17 39 36
17 39 37
18 40 38
17 39 37
17 40 37
17 39 37
18 40 38
18 40 38
18 41 38
17 39 37
18 40 38
18 40 37
18 40 38
17 40 37
18 40 38
17 39 37
18 40 38
17 39 37
18 41 38
18 40 38
17 39 37
17 40 37
18 40 38
18 41 38
18 40 38
18 41 38
17 40 37
18 40 38
18 40 38
18 41 38
18 40 37
17 39 36
18 41 38
17 38 36
18 41 38
18 40 38
18 40 37
18 40 38
18 41 38
17 40 37
17 40 37
18 40 38
17 40 37
18 40 38
17 40 37
18 40 37
18 41 39
17 40 37
17 39 37
17 39 36
18 40 38
17 40 37
18 41 39
17 40 37
17 40 37
18 40 37
17 39 37
18 40 37
17 40 38
18 40 38
18 40 38
17 39 37
17 40 37
17 40 37
18 41 38
17 40 37
18 41 38
18 40 38
17 39 37
17 39 37
18 40 37
17 39 37
18 40 38
17 39 36
18 40 38
17 39 37
17 39 37
17 39 36
17 39 37
17 39 37
18 40 37
18 41 38
17 39 37
18 40 38
17 40 37
17 40 37
17 39 37
17 39 37
18 40 38
17 39 37
17 40 37
18 40 38
18 40 38
18 40 37
17 40 37
17 39 36
17 39 37
18 40 38
17 39 37
17 40 37
17 40 37
17 39 36
17 40 37
18 40 38
17 39 36
17 40 38
17 39 36
17 39 37
18 40 38
17 40 37
18 40 38
18 40 38
17 40 37
18 40 38
18 41 39
17 39 37
18 40 38
17 40 37
18 40 38
18 40 38
18 40 37
17 39 37
17 39 36
17 40 37
18 40 38
17 39 37
18 40 37
17 39 37
17 39 37
17 40 37
18 40 38
18 41 38
18 40 37
17 40 37
18 40 38
17 40 37
17 40 37
18 40 38
18 40 38
18 40 38
18 40 38
17 39 37
17 39 37
18 41 38
17 39 37
18 41 38
18 40 37
18 40 37
17 39 37
18 40 37
18 41 38
18 40 38
18 40 38
17 40 37
18 40 37
18 40 38
18 40 37
18 40 38
18 40 38
18 40 37
17 40 37
17 40 37
18 40 37
18 40 38
18 40 37
18 40 38
18 41 38
18 40 38
18 40 38
18 41 38
17 39 37
18 40 37
18 40 38
18 40 38
18 41 38
18 40 38
18 41 38
18 40 37
17 39 37
18 40 37
17 40 37
18 40 38
17 40 37
18 40 38
17 39 36
18 41 38
17 39 37
18 40 38
18 40 38
17 39 37
17 40 37
18 40 38
17 40 37
17 39 37
17 40 37
17 40 37
18 41 38
18 41 38
17 39 37
18 40 38
17 40 37
17 39 36
18 41 38
17 40 37
17 40 37
18 40 37
17 39 36
17 40 37
18 41 38
18 40 37
17 40 37
18 40 38
17 39 36
17 40 37
18 40 37
17 40 37
17 39 37
18 41 38
18 40 38
18 41 39
18 40 38
18 40 38
17 39 37
17 39 36
18 40 38
17 39 37
18 40 38
18 41 38
18 40 38
17 40 37
18 40 38
17 40 37
18 40 38
17 40 37
17 40 37
17 39 36
18 40 38
18 40 38
18 40 38
18 40 38
17 39 37
18 41 38
18 41 38
18 41 39
17 39 37
18 40 38
18 41 39
17 39 37
17 40 37
18 40 38
17 40 37
18 41 38
18 40 38
18 40 38
17 40 37
18 40 38
17 39 37
18 41 38
18 40 37
18 40 37
17 40 37
18 40 38
18 41 38
17 40 37
17 40 37
18 40 38
18 40 38
18 40 37
18 41 38
18 40 37
18 40 38
18 40 38
18 40 37
17 39 37
18 40 38
18 41 38
17 39 37
18 40 38
18 41 38
18 41 38
18 40 38
18 41 38
18 40 38
17 39 37
18 41 38
18 40 37
17 40 37
17 40 37
18 41 38
17 39 37
18 40 38
18 41 38
18 41 38
18 40 37
17 40 37
18 40 37
18 41 38
18 41 38
17 39 37
18 40 38
17 40 37
18 41 38
17 40 37
17 39 37
18 41 38
17 40 37
18 40 38
18 40 37
18 40 37
18 40 38
17 39 37
17 40 37
18 40 38
18 41 39
17 39 37
18 40 37
17 39 37
18 40 38
18 40 38
18 41 38
18 41 38
18 40 37
18 42 39
17 40 37
18 40 38
18 40 38
18 40 38
18 40 38
18 40 38
17 40 37
18 40 38
18 40 37
18 40 38
18 40 37
18 40 38
17 40 37
17 39 37
17 40 37
17 39 37
17 39 37
17 39 36
17 39 37
18 40 38
18 40 38
18 40 38
17 39 36
18 40 37
17 39 37
17 39 37
18 40 38
17 40 37
17 40 37
17 40 37
17 40 37
18 40 38
17 39 37
18 40 38
18 41 38
18 41 38
17 39 37
18 40 38
18 41 38
18 41 38
18 40 38
17 40 37
18 40 38
18 40 37
18 40 38
18 41 38
18 40 37
18 40 38
18 40 38
18 41 38
18 40 38
18 41 39
18 40 37
18 40 38
18 40 37
18 40 38
18 41 39
18 41 38
18 40 38
18 41 38
18 41 38
18 40 38
18 40 38
18 41 38
17 39 37
18 40 38
18 40 37
18 40 37
18 40 38
18 41 39
18 41 38
18 41 39
18 41 38
17 40 37
18 40 37
18 40 38
18 40 37
18 40 38
17 40 37
18 42 39
18 40 38
17 40 37
18 41 38
18 41 39
18 40 38
17 39 37
18 41 38
18 41 38
18 40 37
18 40 38
18 40 37
18 40 37
18 41 38
18 40 38
18 40 37
18 40 38
18 40 38
18 40 38
18 40 38
18 40 38
18 40 38
18 40 38
19 42 39
18 41 38
18 40 37
18 40 38
18 40 37
18 40 38
18 40 37
18 40 38
18 41 38
17 40 37
18 40 38
18 41 39
18 40 38
17 39 37
18 40 38
18 40 38
18 41 38
18 41 38
18 40 38
18 41 38
17 40 37
18 40 38
18 41 39
18 40 37
18 41 38
17 39 37
17 39 37
18 40 38
18 40 38
18 41 38
18 41 38
17 39 37
18 40 38
18 41 38
17 39 37
18 40 38
18 41 38
17 40 37
18 40 38
18 40 37
18 40 37
18 40 38
18 40 38
18 41 38
17 39 36
18 41 38
17 40 37
18 40 37
18 42 39
18 41 38
18 40 37
18 40 37
17 40 37
18 40 38
18 41 38
19 42 39
18 40 38
18 40 37
18 41 38
18 40 38
18 41 39
18 41 38
18 40 37
17 39 37
18 42 39
18 40 38
18 41 38
18 41 38
18 41 38
18 40 37
18 40 37
18 42 39
18 40 37
18 41 38
18 41 38
18 41 38
18 41 38
18 40 38
18 40 37
17 40 37
18 41 39
18 40 38
18 40 38
18 42 39
18 40 37
19 42 39
18 41 38
18 41 38
18 41 38
18 40 37
18 41 38
18 41 38
18 41 38
18 40 37
18 41 38
18 41 38
18 41 38
18 41 38
18 41 38
18 41 39
18 41 39
18 40 38
18 40 38
18 40 38
18 40 38
18 40 37
18 41 38
18 40 37
18 40 37
18 42 39
18 41 38
18 41 39
18 41 39
18 41 38
18 40 38
18 41 38
18 40 38
18 41 38
18 41 38
18 41 39
18 40 38
18 40 38
18 40 37
18 41 38
18 41 38
18 40 37
18 41 39
18 41 38
18 41 38
18 41 38
18 41 39
18 41 38
18 41 38
18 41 38
18 40 37
18 41 38
18 41 39
18 40 37
18 40 38
18 41 38
18 41 38
18 41 38
18 41 38
18 40 37
18 40 37
18 40 38
18 41 38
17 40 37
18 40 37
18 40 38
18 40 38
18 41 38
18 40 38
18 40 37
17 40 37
18 41 38
18 41 38
18 40 38
18 40 37
17 39 36
18 41 38
18 41 38
17 39 37
18 40 37
18 41 38
18 41 39
17 40 37
18 40 37
18 40 38
18 41 38
18 40 38
18 40 38
18 41 38
18 41 38
18 40 37
18 41 39
18 41 39
18 40 37
18 40 38
18 41 38
18 41 38
18 40 37
18 41 39
18 40 38
18 41 39
18 40 37
18 41 38
18 41 38
18 40 37
18 41 39
18 41 38
18 41 39
18 41 38
18 41 38
18 41 39
18 41 38
17 39 36
18 41 38
18 41 39
18 41 39
18 40 38
18 41 39
18 40 37
18 40 38
18 41 38
18 41 38
18 41 38
18 41 38
18 41 38
18 41 38
17 40 37
18 40 38
18 41 38
18 41 38
18 42 39
18 40 37
18 41 38
19 42 39
18 41 38
18 41 38
18 41 38
18 41 38
18 40 37
18 41 39
18 41 38
18 42 39
18 41 38
18 40 38
18 41 38
18 41 39
18 40 38
18 42 39
18 41 38
18 40 38
18 41 39
18 41 38
18 40 38
18 42 39
18 41 38
18 41 38
17 40 37
18 42 39
18 41 39
18 41 38
18 40 37
18 41 38
18 40 38
18 40 38
18 40 37
18 40 38
18 40 38
18 40 38
18 40 38
18 42 39
18 40 37
18 41 39
18 41 39
18 41 39
18 41 39
18 40 38
18 41 38
18 40 38
18 40 38
18 41 38
18 41 38
18 40 37
18 40 37
18 41 39
17 39 37
18 40 38
18 40 37
18 40 38
18 40 37
18 41 38
18 41 38
17 40 37
18 41 38
18 40 38
18 41 38
18 40 38
17 39 37
18 41 39
18 40 37
18 41 38
18 40 38
18 40 38
18 40 38
18 41 39
18 40 38
18 41 38
18 41 38
18 41 39
18 41 38
18 41 38
18 42 39
18 40 37
18 41 38
18 40 37
18 40 38
18 40 38
18 41 38
18 42 39
18 40 37
18 40 37
18 40 38
18 40 37
18 41 38
18 41 38
18 41 38
18 41 38
18 40 37
18 41 38
18 41 38
18 40 37
18 42 39
18 41 38
18 41 38
19 42 39
18 41 38
19 42 39
18 41 38
18 41 38
18 41 38
18 41 38
18 40 38
18 41 38
18 40 38
18 42 39
18 42 39
18 41 38
18 41 39
18 42 39
18 41 38
18 41 38
18 41 38
19 42 39
18 41 38
18 40 38
18 40 37
18 40 38
19 42 40
18 41 39
18 41 38
18 41 38
18 40 38
18 40 38
18 41 38
18 41 38
18 41 38
19 42 39
19 42 39
18 41 38
18 42 39
18 42 39
18 40 37
18 42 39
18 41 38
18 41 38
18 41 38
18 42 39
18 41 38
18 41 39
18 41 39
19 42 39
18 40 37
18 40 37
18 41 38
18 40 37
18 41 38
18 41 38
18 40 38
18 42 39
18 40 38
18 41 38
18 41 38
18 40 38
18 40 38
18 40 38
18 40 38
18 40 37
18 41 38
18 41 38
18 41 38
18 41 38
18 41 38
18 40 38
18 41 38
18 41 38
18 41 38
18 41 38
18 41 39
18 40 38
18 42 39
18 41 38
18 41 39
18 41 38
18 41 38
18 41 38
18 40 37
18 40 37
18 41 38
18 41 38
18 41 39
18 40 37
18 40 38
18 42 39
18 40 38
18 41 39
18 41 39
18 40 38
18 41 38
18 40 38
18 41 38
18 41 38
18 42 39
18 41 38
17 39 37
18 41 39
18 41 38
19 43 41
18 41 38
18 41 38
19 42 39
18 41 38
18 41 38
18 40 38
18 41 39
18 40 38
18 41 38
18 41 38
18 41 38
18 41 38
18 42 39
18 41 38
18 41 38
18 40 38
18 41 38
18 41 38
18 41 38
18 41 38
19 42 39
18 41 39
18 41 38
18 41 38
18 41 38
18 41 38
19 42 39
18 42 39
18 41 38
18 42 39
18 41 38
18 42 39
18 41 38
18 40 38
18 41 39
18 41 39
19 43 40
18 41 38
18 41 38
18 41 38
18 41 39
18 42 39
18 41 38
18 41 38
18 41 38
18 41 39
18 40 38
18 41 38
18 41 38
19 42 39
18 41 38
18 41 38
18 40 37
18 41 38
19 42 39
18 41 38
18 41 38
18 41 38
18 42 39
18 42 39
18 41 38
18 42 39
18 41 39
18 41 38
18 41 38
18 41 38
18 41 38
18 41 39
18 42 39
19 42 39
18 41 38
18 41 39
18 42 39
18 42 39
18 41 39
18 41 38
18 41 38
18 41 38
18 40 38
18 40 38
18 41 38
18 40 37
18 41 38
18 40 37
18 42 39
18 41 38
19 42 40
19 42 39
18 40 38
19 42 39
18 41 38
18 40 38
18 41 38
18 40 38
18 42 39
18 41 38
18 41 38
18 41 38
18 40 38
18 41 38
18 41 38
18 40 38
18 41 39
18 40 37
18 41 38
18 41 38
18 40 38
18 41 38
18 41 38
18 41 39
19 42 39
18 41 38
18 41 38
19 42 39
18 42 39
18 41 38
18 41 38
19 42 39
18 40 38
18 41 38
18 41 38
18 42 39
18 41 39
18 41 38
19 42 39
18 41 38
18 41 38
18 42 39
18 41 39
19 43 40
18 42 39
18 41 38
18 41 38
18 41 38
18 41 38
18 42 39
18 41 38
19 42 39
19 42 39
18 41 38
19 42 39
19 42 39
18 41 39
19 42 39
19 42 40
18 40 38
18 40 38
18 41 38
19 42 39
19 43 41
18 41 38
18 41 38
19 42 39
18 41 38
18 41 38
18 41 38
18 40 38
18 42 39
18 41 39
18 41 38
18 41 38
18 41 38
18 41 38
18 41 39
18 41 39
18 41 38
18 42 39
19 42 39
18 41 38
18 41 38
18 42 39
18 41 39
19 42 39
19 42 39
18 40 37
18 41 39
18 41 38
18 42 39
19 42 39
18 41 38
19 42 39
18 40 38
19 42 39
19 42 39
18 40 38
18 42 39
19 42 39
18 41 38
18 41 38
18 42 39
18 41 39
18 42 39
18 41 38
18 41 38
18 41 38
19 42 39
18 42 39
18 40 38
18 42 39
18 40 38
18 41 38
18 41 38
19 42 39
18 41 38
18 40 38
18 41 39
18 42 39
18 41 39
18 41 39
19 43 40
19 42 39
18 41 38
19 42 39
18 41 38
18 41 39
18 41 38
18 41 38
18 41 39
18 41 38
18 41 39
18 41 39
18 41 38
19 42 39
18 41 38
18 41 38
18 41 39
18 40 38
18 41 38
18 40 37
19 42 39
18 41 39
18 42 39
19 42 39
18 41 38
19 42 39
19 42 40
18 42 39
19 42 39
19 42 39
19 42 39
19 42 39
18 42 39
19 42 39
19 42 39
18 41 39
18 41 38
18 41 38
18 40 38
18 41 38
18 41 39
19 42 39
18 42 39
18 41 38
19 42 39
18 42 39
18 41 38
18 42 39
19 42 39
18 41 39
19 42 39
18 41 38
18 41 38
18 41 39
18 41 38
18 41 38
18 41 39
18 41 38
18 41 38
19 42 39
19 42 39
18 41 38
18 41 38
18 41 38
18 41 38
18 41 38
19 42 39
18 42 39
18 41 38
18 41 38
18 41 38
19 42 39
19 42 39
19 42 39
18 41 38
19 43 40
18 41 38
19 42 39
18 41 38
18 41 38
19 42 39
19 42 39
18 41 38
18 42 39
19 42 39
18 42 39
18 41 38
19 42 39
18 41 38
19 43 40
19 42 39
18 41 38
18 41 38
18 41 39
19 42 39
18 41 39
18 41 38
18 41 38
18 41 38
18 42 39
19 42 40
18 41 38
18 41 38
18 41 38
19 43 40
18 41 38
18 42 39
18 41 38
18 40 37
18 41 38
18 41 39
18 42 39
18 40 38
18 41 38
19 42 40
18 40 38
19 42 39
18 40 38
18 41 38
18 41 38
19 42 39
18 41 38
18 42 39
18 41 38
18 42 39
18 40 38
18 40 37
18 41 38
18 41 38
18 41 38
18 41 39
18 41 38
18 41 38
18 41 38
18 41 38
18 40 37
18 41 39
18 41 39
18 41 39
18 41 38
18 41 38
19 43 40
18 41 38
18 41 38
18 41 39
18 41 38
19 42 39
18 41 38
19 42 39
19 42 39
18 41 38
19 42 39
18 42 39
18 41 38
18 41 38
18 42 39
19 42 39
18 41 38
19 43 40
18 41 38
19 42 39
19 42 39
19 42 39
19 42 39
18 41 38
19 43 40
19 42 39
18 41 38
19 42 39
18 41 38
19 43 40
18 41 39
19 42 39
19 43 40
19 42 39
19 42 39
18 42 39
18 42 39
18 41 39
19 43 40
19 42 39
19 42 39
18 41 38
19 42 39
19 42 39
19 42 39
18 41 38
19 42 39
19 42 39
18 41 38
18 42 39
18 41 39
19 42 39
19 42 39
18 41 38
19 42 39
18 42 39
19 42 39
19 42 39
18 42 39
18 41 38
19 42 39
19 42 39
18 41 38
19 42 39
18 41 39
18 41 38
19 42 39
18 41 38
18 42 39
19 42 39
19 42 39
19 42 39
18 41 39
18 42 39
18 41 38
18 42 39
19 43 40
18 41 39
19 42 39
18 41 38
18 41 38
18 41 38
19 42 39
18 41 39
18 41 38
19 43 40
18 41 38
19 42 39
19 43 40
18 41 39
18 41 39
18 42 39
18 41 38
18 41 38
18 42 39
18 41 38
19 42 39
18 41 38
18 41 38
18 41 39
18 42 39
19 43 40
19 42 39
19 42 39
18 41 38
18 41 38
18 42 39
18 40 38
18 41 38
18 41 38
18 41 38
18 40 38
18 42 39
19 42 39
18 41 38
18 40 38
18 41 39
18 42 39
19 42 39
19 42 39
18 41 38
19 42 39
19 42 39
19 42 39
18 41 38
19 42 39
19 42 39
18 41 38
18 41 38
18 40 38
18 41 38
18 41 39
19 42 39
18 41 38
18 41 38
19 42 39
19 42 39
19 42 39
19 42 39
19 42 39
19 42 39
19 42 39
19 43 40
18 41 38
19 42 39
19 42 39
19 42 39
19 42 39
18 41 38
19 42 39
19 42 39
18 42 39
18 41 38
19 42 39
19 42 39
18 41 38
19 42 39
18 41 38
19 43 40
19 42 39
18 41 39
18 41 38
18 41 38
18 41 38
18 42 39
18 41 38
19 43 40
18 41 38
18 41 38
18 42 39
19 42 39
18 42 39
18 41 38
19 42 39
18 41 38
19 43 40
19 42 39
18 41 38
19 43 40
19 42 39
19 42 39
19 42 39
18 41 38
19 42 39
18 41 39
19 42 39
18 41 38
18 42 39
19 42 39
18 41 38
19 42 39
18 41 38
19 42 39
18 41 38
19 42 39
19 43 40
18 41 38
19 42 39
19 43 40
18 40 37
18 41 38
19 42 39
19 42 39
19 42 39
18 42 39
18 41 38
18 41 38
18 41 38
18 41 38
19 42 39
18 41 39
18 41 39
19 42 39
18 41 38
19 42 39
18 41 38
19 42 39
18 41 39
19 42 39
19 42 39
18 41 39
18 40 38
18 41 38
19 42 39
18 41 38
18 41 38
18 41 38
19 42 39
18 41 39
18 41 38
18 41 38
19 42 40
18 41 39
18 41 38
18 41 39
18 41 38
18 41 38
19 42 39
18 42 39
19 43 40
18 41 38
18 42 39
18 42 39
19 42 39
18 41 38
19 42 39
18 41 38
19 42 39
19 42 39
19 42 39
19 42 39
18 42 39
19 43 40
19 42 39
19 42 39
19 42 39
18 41 38
19 43 40
19 42 39
19 42 39
19 42 39
19 43 40
19 43 40
19 42 39
19 42 39
19 43 40
19 43 40
18 41 38
18 41 38
19 43 40
19 42 39
19 42 39
19 43 40
19 42 39
19 42 39
18 41 38
19 42 39
19 42 39
19 42 39
19 42 39
19 42 39
19 44 40
19 43 40
18 42 39
18 41 38
19 42 39
19 43 40
19 43 40
19 43 40
18 41 39
19 42 38
19 43 40
19 42 39
18 42 39
19 43 40
19 42 39
19 42 39
18 41 38
18 42 39
19 42 39
19 42 39
19 42 39
18 41 38
19 42 40
18 41 38
19 43 40
19 42 39
18 41 38
18 41 38
19 43 40
19 42 39
19 42 39
18 41 38
18 42 39
18 41 39
18 41 38
19 42 39
18 41 38
18 41 38
19 42 39
19 42 39
18 42 39
18 41 38
19 42 39
19 42 39
19 42 39
18 42 39
19 42 39
19 43 40
19 42 39
18 42 39
19 43 40
18 41 38
18 41 39
19 42 39
19 42 39
18 42 39
19 42 39
18 41 39
18 41 38
18 41 39
19 42 39
19 42 39
18 42 39
19 42 39
18 41 38
18 41 39
19 42 39
18 41 38
18 41 38
19 42 39
18 41 38
18 41 38
18 42 39
18 41 38
18 41 38
19 42 39
19 42 39
19 42 39
19 43 40
19 43 40
19 43 40
19 42 39
19 43 40
19 42 39
19 43 40
19 43 40
19 42 39
19 43 39
19 43 40
19 42 39
19 42 39
19 42 39
19 42 39
19 43 40
19 42 39
19 42 39
19 42 39
19 42 39
19 42 39
19 42 39
19 42 39
19 42 39
19 42 39
18 41 38
19 42 39
18 41 38
19 43 40
19 42 39
19 43 40
18 41 38
19 42 39
19 42 39
19 42 39
19 43 40
19 42 39
19 42 39
19 42 39
18 41 38
19 42 39
19 43 40
19 43 40
19 42 39
19 43 40
18 40 37
19 42 39
19 43 40
19 43 40
19 42 39
19 42 39
18 41 38
19 42 39
18 41 38
19 42 39
20 44 41
18 41 38
19 42 39
19 42 39
19 42 39
19 42 39
19 42 39
19 42 39
19 42 39
19 42 39
18 41 38
19 42 39
19 42 39
19 43 40
19 43 40
19 43 40
18 41 38
19 42 39
19 43 40
19 42 39
19 42 39
19 42 39
19 42 39
18 42 39
18 41 38
19 42 39
19 42 39
18 41 39
19 43 40
19 42 39
18 41 38
19 42 39
19 43 40
18 41 38
19 43 39
18 41 38
18 41 38
18 41 38
19 42 39
18 41 38
18 41 38
19 42 39
18 42 39
19 43 40
18 41 38
19 42 39
19 42 39
19 43 40
18 41 38
18 42 39
19 42 39
18 41 38
19 42 39
18 41 38
19 42 39
19 42 39
18 42 39
19 42 39
19 42 39
19 43 40
18 41 39
18 41 39
18 41 39
18 41 38
19 43 40
19 43 40
19 42 39
19 43 40
19 43 40
19 42 39
19 43 40
19 43 40
19 43 40
19 43 40
19 42 39
19 43 40
19 42 39
19 43 40
19 42 39
19 43 40
18 42 39
19 42 39
19 43 40
19 43 40
19 43 39
20 44 41
19 44 41
19 42 39
19 42 39
19 42 39
19 42 39
19 43 40
19 43 40
19 42 39
19 43 40
19 43 40
19 42 39
19 42 39
18 41 38
19 42 39
19 42 39
19 43 39
19 43 40
19 43 40
19 43 40
19 42 39
19 42 39
19 43 40
19 43 40
19 42 39
19 42 39
19 43 39
19 43 40
19 42 39
19 43 40
19 42 39
19 42 39
19 42 39
19 42 39
19 43 40
19 42 39
19 42 39
19 42 39
19 42 39
19 42 39
19 42 39
19 42 39
19 42 39
19 42 39
19 42 39
18 42 39
19 42 39
18 41 38
19 43 40
19 43 40
19 42 39
19 43 39
19 42 39
19 42 39
19 42 39
19 42 39
19 42 39
19 42 39
19 42 39
19 42 39
19 43 40
19 42 39
18 41 38
18 41 38
19 42 39
19 42 39
19 43 40
19 43 40
19 42 39
19 43 40
19 42 39
19 42 39
19 43 39
19 42 39
19 43 39
19 42 39
19 43 40
19 42 39
18 41 38
19 42 39
19 42 39
19 42 39
19 43 40
19 42 39
19 43 40
18 42 39
19 42 39
19 43 40
19 42 39
19 42 39
19 42 39
19 43 40
19 42 39
18 41 39
18 41 39
18 42 39
19 42 39
19 42 39
19 43 40
19 42 39
19 43 40
19 42 39
19 42 39
19 43 39
19 43 40
19 43 39
19 43 40
19 43 40
19 43 40
19 42 39
19 43 40
19 42 39
20 44 40
19 43 40
19 43 40
19 44 40
19 43 40
19 43 40
19 42 39
19 43 40
19 43 40
19 42 39
19 42 39
19 42 39
19 43 40
19 42 39
19 43 40
19 42 39
19 43 40
19 42 39
19 43 40
19 42 39
20 44 40
19 43 40
19 42 39
19 43 40
19 42 39
20 44 41
19 43 40
19 43 40
19 43 40
19 43 40
19 43 39
19 42 39
19 42 39
19 42 39
19 42 39
19 42 39
19 43 39
19 43 40
18 41 38
19 42 39
19 42 39
19 43 40
19 43 40
19 42 39
19 43 40
19 43 40
19 43 39
19 43 40
19 43 39
19 43 40
19 42 39
19 43 40
19 43 40
19 43 40
19 42 39
19 42 39
19 43 40
19 42 39
19 43 40
19 42 39
19 43 40
19 42 39
19 42 39
19 44 40
19 42 39
19 43 40
19 42 39
19 43 39
19 43 40
19 43 40
19 42 39
19 42 39
19 43 40
19 44 40
19 42 39
19 43 39
19 43 40
19 43 40
19 43 40
19 42 39
18 41 38
19 43 40
19 43 40
18 41 38
19 43 40
19 43 40
19 42 39
18 42 38
19 42 39
19 42 39
19 42 39
19 43 40
19 42 39
18 41 39
19 43 40
18 42 39
19 42 39
19 42 39
19 42 39
19 42 39
19 42 39
19 42 39
19 43 40
19 42 39
19 42 39
19 42 39
19 43 40
19 42 39
19 42 39
19 43 40
19 43 40
19 42 39
19 42 39
19 42 39
19 42 39
18 41 38
19 43 40
19 43 40
19 42 39
19 43 40
19 42 39
19 43 40
19 42 39
19 42 39
19 44 40
19 43 40
19 43 40
19 43 40
19 43 40
20 44 41
19 43 40
19 43 39
20 44 40
19 43 40
19 42 39
19 43 40
19 43 40
19 42 39
20 44 41
19 43 40
19 43 39
19 43 40
19 43 40
19 43 40
19 43 40
19 42 39
19 43 40
19 42 39
19 44 40
19 43 40
19 43 40
19 43 40
20 44 41
19 43 40
20 44 41
19 43 40
19 43 39
19 44 40
19 43 40
19 43 40
19 44 40
19 42 39
19 44 40
19 43 40
19 43 40
19 43 40
19 43 39
19 43 40
20 44 41
19 42 39
19 43 40
19 42 39
19 42 39
19 43 40
19 43 40
19 43 39
19 43 40
19 42 39
19 42 39
20 44 41
19 43 40
19 43 40
19 43 40
19 42 39
19 43 40
19 42 39
19 43 40
19 44 40
19 42 39
19 43 40
19 43 40
19 43 40
19 42 39
20 44 41
20 44 41
19 43 40
19 42 39
19 42 39
19 42 39
19 42 39
19 43 40
19 43 40
20 44 41
19 43 40
19 42 39
19 43 40
19 42 39
19 42 39
19 42 39
19 43 39
19 42 39
19 43 40
19 43 40
19 42 39
19 42 39
19 42 39
19 42 39
19 42 39
19 42 39
19 42 39
19 42 39
19 42 39
19 43 39
19 42 39
19 43 40
19 42 39
19 42 39
19 42 39
19 43 40
19 43 40
19 43 40
19 42 39
19 43 39
19 43 39
19 43 40
19 43 40
19 43 40
19 43 40
19 42 39
19 42 39
19 43 40
19 43 40
20 44 41
19 43 40
20 44 41
19 43 40
19 42 39
19 43 40
19 43 40
19 42 39
20 44 41
19 43 40
20 44 41
19 43 40
19 43 40
19 43 40
19 43 40
20 44 40
19 43 40
19 43 40
19 43 39
19 43 40
19 42 39
19 43 40
19 43 39
20 44 40
19 43 40
19 43 40
20 45 41
20 44 40
20 44 41
19 43 40
19 43 40
19 43 40
19 43 40
19 43 40
19 42 39
19 43 39
20 44 41
19 43 40
20 44 40
19 43 40
19 42 39
19 44 40
20 44 41
20 44 41
19 42 39
19 42 39
19 42 39
19 43 40
19 42 39
19 42 39
19 43 40
19 43 39
18 41 38
19 43 40
20 44 41
19 43 40
19 43 40
19 44 40
19 42 39
19 43 40
19 44 40
19 42 39
19 43 40
19 43 39
19 43 39
19 43 40
19 42 39
19 42 39
19 42 39
19 43 40
19 43 40
19 43 40
19 43 40
19 43 40
19 42 39
19 42 39
19 43 40
19 42 39
19 42 39
19 43 40
19 43 40
19 43 40
19 43 40
19 43 39
19 43 40
19 43 40
19 42 39
19 42 39
19 42 39
19 42 39
19 43 40
19 43 40
19 43 40
20 44 41
19 42 39
19 43 40
19 42 39
19 43 40
19 43 40
19 42 39
18 42 39
19 42 39
19 42 39
19 43 40
19 43 40
19 43 39
19 43 40
19 43 40
19 43 40
19 43 40
20 44 40
19 43 40
20 44 41
20 45 41
19 43 39
20 44 40
19 44 40
20 44 41
20 44 40
19 42 39
19 43 39
19 43 39
19 43 40
19 43 40
19 43 40
19 43 40
19 43 40
20 44 40
20 44 40
19 43 40
19 43 40
20 44 41
19 43 40
19 43 40
19 43 40
19 43 39
19 42 39
19 43 40
19 43 40
19 43 40
19 43 39
20 44 41
19 42 39
19 43 40
19 43 40
19 43 40
18 41 38
19 42 39
19 42 39
19 43 39
19 43 40
19 43 40
19 43 40
19 44 40
19 43 40
20 44 41
19 43 39
19 42 39
19 43 40
20 44 41
19 43 40
19 43 40
19 43 40
19 42 39
19 43 40
19 43 40
19 43 40
19 43 40
19 43 40
19 42 39
19 43 40
19 43 40
19 43 40
19 42 39
19 43 40
19 43 40
19 43 39
19 42 39
19 43 40
19 43 39
19 43 40
19 43 40
20 44 41
19 43 40
20 44 40
19 43 40
19 43 40
19 43 40
19 43 40
19 42 38
19 44 40
19 43 40
19 43 40
19 43 40
19 43 40
19 42 39
19 43 40
19 43 40
19 43 40
19 42 39
19 43 40
19 43 40
19 42 39
19 43 40
19 43 40
19 43 40
19 43 40
20 44 41
20 44 41
19 43 40
19 43 40
19 43 40
19 43 39
19 43 40
19 43 40
19 43 40
20 44 41
19 43 40
19 43 39
19 43 40
19 42 39
19 43 40
19 43 40
19 43 40
19 44 40
19 43 40
19 44 40
19 43 40
19 43 40
19 43 39
19 43 40
20 45 41
20 44 41
19 44 40
19 42 39
19 43 40
20 44 41
20 44 41
20 44 41
20 44 40
19 43 40
20 45 41
19 42 39
19 43 40
20 44 41
19 43 40
20 45 41
20 44 41
19 43 40
20 44 41
20 44 40
20 44 41
20 44 41
20 44 41
19 43 40
19 43 40
20 44 41
19 43 39
20 44 40
20 44 40
19 43 40
19 42 39
19 43 40
20 44 40
19 43 39
19 43 40
19 43 40
20 44 41
20 44 41
19 43 40
19 44 40
19 43 40
19 43 40
20 44 41
20 44 41
20 44 40
20 44 40
20 44 40
19 43 40
19 43 40
19 43 40
20 44 40
20 44 41
20 44 41
19 43 40
19 43 40
19 43 40
19 43 40
19 43 40
20 44 41
19 44 40
19 43 39
19 43 40
19 43 39
19 43 40
19 43 39
20 44 41
19 43 40
20 44 41
19 43 40
19 43 40
19 43 40
19 43 39
19 43 39
19 43 40
19 43 40
19 43 40
20 44 41
19 43 40
19 43 39
19 43 40
19 43 40
19 43 40
19 43 39
19 42 39
19 43 40
19 42 39
19 43 40
19 43 40
19 42 39
19 43 39
20 44 41
19 42 39
19 44 40
20 44 40
19 42 39
19 43 40
20 44 40
19 43 40
19 43 40
19 42 39
19 42 39
19 42 39
19 43 40
19 43 40
19 42 39
19 42 39
19 44 40
19 43 40
19 43 40
19 43 40
19 42 39
19 42 39
19 44 40
20 44 40
19 43 40
20 44 40
19 43 40
19 43 40
20 45 41
19 43 39
20 44 41
19 43 39
20 44 40
20 44 41
19 43 39
19 43 40
19 43 39
19 44 40
19 42 39
19 43 40
19 43 40
19 44 40
19 43 40
20 44 41
19 43 40
20 44 41
20 44 40
20 44 40
19 43 40
19 43 40
20 44 40
20 45 41
19 43 40
19 43 40
19 43 40
20 44 41
19 43 40
19 43 40
20 44 41
20 45 42
19 43 40
19 43 39
20 44 41
20 45 41
19 43 40
19 43 39
19 43 40
20 44 40
20 44 41
20 44 40
19 43 40
19 43 39
19 43 40
20 44 41
20 45 41
20 44 41
19 43 40
20 44 40
20 44 40
20 44 40
19 43 40
19 43 40
20 44 41
20 44 41
19 43 40
20 44 40
19 43 40
20 44 41
19 43 40
19 43 39
19 43 40
20 44 41
20 45 41
19 44 40
20 44 40
19 44 40
19 43 40
20 44 40
20 45 42
19 44 40
19 43 40
20 44 41
19 43 40
19 43 40
20 45 41
19 43 40
19 44 40
19 42 39
19 43 40
19 43 40
20 44 41
19 43 40
19 43 39
19 43 40
19 43 40
19 43 40
19 43 40
19 43 40
19 43 40
19 42 39
19 43 40
19 43 40
20 44 40
19 43 40
19 43 40
19 43 40
19 42 39
19 43 40
19 43 40
19 43 40
19 43 40
19 43 40
19 43 40
19 44 40
19 43 39
19 42 39
19 43 40
20 44 41
19 43 40
19 43 40
19 43 40
18 42 38
19 43 39
20 44 41
19 43 40
20 44 40
20 44 41
19 43 40
20 45 41
20 44 41
20 44 40
20 44 40
19 43 40
19 43 40
19 43 40
19 43 40
20 44 40
20 44 40
20 44 40
19 43 40
20 44 41
20 44 41
19 44 40
19 43 40
20 44 41
20 44 40
19 43 40
20 44 40
19 43 40
20 44 40
20 44 41
20 44 41
19 43 39
20 44 41
20 45 42
20 44 40
19 44 40
19 43 40
20 44 40
20 44 40
20 44 40
20 45 41
19 43 40
20 44 41
20 45 41
20 44 41
19 43 40
19 43 40
20 44 41
20 44 40
19 43 40
19 42 39
19 43 40
19 43 40
20 44 40
20 44 41
20 44 40
20 44 40
20 44 41
19 43 40
19 43 40
20 44 41
20 44 40
20 44 41
20 44 41
19 43 40
19 43 40
20 44 40
20 44 40
19 43 40
19 44 40
19 43 39
19 43 40
20 44 40
20 44 41
20 44 40
20 44 41
19 43 40
20 44 40
19 43 40
20 44 41
20 44 41
19 44 40
19 43 40
19 43 40
19 43 40
20 44 41
20 44 41
19 43 40
19 43 40
20 44 41
19 43 40
20 44 41
19 43 39
20 44 41
19 42 39
19 43 40
19 43 40
19 43 39
19 43 40
19 43 39
19 44 40
19 43 39
19 42 39
19 43 40
19 43 40
19 43 39
19 43 39
19 43 40
19 43 40
19 43 39
19 43 40
19 43 39
20 44 40
20 44 41
20 44 40
19 43 40
19 43 40
18 41 38
19 42 39
19 42 39
19 43 40
19 43 40
19 43 39
19 43 40
20 44 40
20 44 41
20 45 42
20 44 40
20 45 41
20 44 41
19 43 40
19 43 40
20 45 41
19 43 40
20 44 40
20 44 41
20 44 41
20 44 41
20 44 41
20 44 41
20 44 40
20 44 41
20 44 41
20 44 40
20 45 41
19 43 40
20 44 41
20 44 40
20 45 41
20 44 41
20 44 41
20 45 41
20 44 41
20 45 41
20 44 40
20 45 42
19 43 40
20 45 42
20 45 41
20 44 41
19 43 40
20 44 41
20 44 41
20 44 41
20 45 41
19 43 40
20 44 40
20 44 40
20 44 41
20 44 41
20 44 41
20 44 40
20 44 41
20 44 41
20 45 41
20 44 40
20 44 41
20 44 40
20 44 41
20 44 41
20 44 40
20 44 40
20 44 40
19 43 40
20 44 41
19 43 40
20 44 40
20 44 40
19 43 40
20 44 40
19 43 40
20 44 41
20 44 41
20 44 41
20 44 41
20 44 41
19 43 40
19 43 40
19 43 40
20 44 41
19 43 40
19 44 40
20 44 41
20 44 41
20 45 41
19 43 40
19 43 40
20 44 41
20 44 40
19 43 40
20 44 41
19 43 40
20 44 40
19 43 40
19 43 40
19 43 40
20 45 41
19 43 40
19 43 40
19 42 39
20 44 41
19 43 40
19 43 40
19 43 40
19 43 40
19 43 40
20 44 41
19 43 40
19 43 40
19 44 40
20 44 41
19 43 40
19 43 40
20 44 41
19 43 40
19 43 40
20 44 41
20 44 41
19 42 39
20 44 41
19 42 39
20 44 40
19 43 40
19 43 40
20 44 40
20 45 41
20 44 40
20 44 41
19 43 40
20 44 40
19 43 40
20 44 41
20 45 41
20 45 41
20 44 40
20 45 41
20 44 40
20 44 41
20 44 41
20 45 41
20 45 41
20 44 41
20 45 41
20 44 40
20 44 40
20 44 41
20 44 41
20 44 40
20 44 41
19 43 40
19 43 40
20 45 41
20 44 40
20 44 41
20 44 40
20 45 41
20 45 41
20 44 41
20 45 41
20 46 42
20 44 41
20 44 41
20 45 41
20 44 41
20 44 41
19 43 40
20 44 40
20 44 41
20 45 41
20 44 40
20 44 40
20 45 42
20 44 40
20 44 41
20 44 40
20 44 41
20 44 41
20 44 41
20 45 41
20 44 41
20 45 41
19 43 40
20 45 41
20 45 41
20 44 40
20 44 40
19 43 40
19 43 40
19 43 39
19 43 40
20 45 41
20 44 41
19 43 40
19 43 40
20 45 41
20 44 41
20 44 40
19 43 40
20 44 40
19 43 40
20 44 40
20 44 41
19 44 40
20 45 41
19 43 40
19 43 40
20 44 40
20 44 41
19 43 40
19 43 40
19 43 40
20 44 40
19 43 40
19 43 40
19 43 39
19 43 40
19 43 40
19 43 40
19 44 40
20 44 40
20 44 40
19 43 39
19 43 40
20 44 40
20 44 41
20 44 40
19 43 40
19 42 39
19 42 39
19 43 40
19 43 40
19 43 39
19 43 40
19 43 40
19 43 40
19 42 39
19 42 39
19 44 40
19 42 39
19 42 39
20 44 40
20 44 40
20 44 40
20 45 42
20 44 41
19 43 40
19 43 40
20 44 40
20 45 42
20 45 41
21 46 42
20 45 41
20 44 40
20 44 40
20 44 40
21 47 43
20 44 40
20 44 41
20 45 41
20 45 41
20 44 41
20 43 40
20 44 41
20 44 41
20 44 41
20 45 41
20 44 41
20 45 42
20 45 41
21 46 42
20 44 41
20 44 41
20 45 41
20 44 40
20 44 40
20 45 41
20 45 41
20 44 41
20 44 41
20 44 40
20 45 41
20 44 40
20 45 41
20 44 41
20 45 41
20 44 41
19 43 40
20 44 40
20 44 41
20 45 41
20 44 40
20 45 42
20 44 41
20 44 41
21 46 42
20 45 41
20 45 41
20 45 41
19 43 39
20 44 41
20 44 41
20 44 41
20 45 41
20 44 40
20 45 41
20 44 41
20 45 41
20 44 40
20 44 40
19 43 39
20 43 40
20 44 40
20 44 40
20 45 41
20 44 41
20 44 40
20 45 41
19 43 40
20 44 40
20 44 40
20 44 41
20 44 41
20 45 41
20 45 42
20 44 41
19 44 40
20 44 41
20 44 41
20 44 40
20 45 41
20 44 40
20 44 41
20 44 40
20 44 40
20 44 40
19 43 40
20 45 41
20 44 40
20 44 41
19 43 40
20 44 41
20 45 41
20 44 40
20 44 40
19 43 40
19 43 40
20 44 40
20 45 42
20 44 40
19 43 40
19 43 39
19 43 40
19 43 40
19 43 40
20 45 41
20 44 40
19 43 40
19 43 40
20 44 41
20 45 41
19 42 39
20 44 41
20 45 41
20 45 41
20 45 41
20 45 41
20 44 41
20 45 41
19 43 39
19 43 40
20 45 41
20 44 41
20 45 41
20 45 41
20 45 41
20 45 41
20 44 40
20 45 41
20 44 40
20 45 41
20 44 40
20 45 41
20 45 42
19 43 40
20 45 42
20 45 42
20 45 41
20 44 40
20 44 41
20 45 41
20 45 41
20 45 41
20 44 40
20 44 40
20 45 41
20 45 42
20 44 41
19 43 40
20 44 40
20 44 40
20 44 40
20 45 41
20 45 41
20 45 41
20 45 41
20 45 41
20 45 41
20 44 40
20 45 41
20 44 40
20 45 41
20 45 41
20 45 42
19 43 40
21 46 42
20 45 41
20 44 41
20 43 40
20 44 40
20 45 41
20 45 42
20 45 41
19 43 39
20 45 42
20 45 41
20 44 40
19 43 40
20 45 41
20 44 41
20 44 40
20 44 41
20 44 41
20 45 41
20 44 40
20 43 40
20 45 41
20 44 41
20 44 41
20 45 41
20 45 41
19 43 40
20 44 41
20 44 40
19 44 40
20 45 41
20 44 40
19 43 40
20 44 40
20 44 41
20 44 40
20 45 42
20 45 42
19 43 40
20 43 40
20 44 41
20 45 41
20 44 40
20 45 42
20 44 40
20 44 40
20 45 42
20 44 40
20 44 41
19 43 40
20 44 41
20 44 40
20 44 41
20 44 41
20 44 41
19 43 40
20 44 41
19 43 39
20 44 40
20 44 41
20 44 40
19 43 39
20 44 41
20 45 42
19 43 40
19 43 40
19 43 40
20 45 42
21 46 42
19 43 40
20 45 41
20 44 41
20 45 41
20 45 41
20 45 41
20 45 42
20 44 40
19 43 40
20 45 42
20 44 41
20 45 41
19 43 40
20 45 41
20 45 41
20 46 42
20 45 41
20 45 41
20 44 40
20 44 41
20 44 41
20 44 40
21 46 42
20 45 42
20 45 42
20 44 40
20 45 41
20 44 40
20 44 41
20 46 42
20 44 41
20 45 41
20 44 41
21 46 42
20 45 41
20 44 41
20 45 41
20 45 41
20 44 40
20 45 41
20 44 41
20 45 41
20 45 41
20 44 41
20 44 41
20 44 41
20 45 41
20 45 41
20 45 41
20 44 41
20 44 41
20 44 40
20 45 41
20 45 41
20 44 41
20 44 41
20 45 42
20 45 42
20 45 42
20 44 40
20 44 41
20 44 40
20 44 40
20 45 41
20 44 41
20 45 41
20 45 41
20 44 41
20 45 41
20 44 41
20 45 42
20 44 40
20 45 41
20 45 41
20 45 41
20 44 40
20 45 41
20 45 42
20 44 41
20 44 41
20 44 41
20 44 41
20 44 40
20 44 40
20 44 41
19 43 40
20 45 41
20 44 40
19 42 39
20 43 40
20 44 40
20 44 41
20 44 40
19 43 39
20 45 41
19 43 40
20 45 41
19 43 40
20 45 41
19 43 40
20 44 41
20 44 41
19 43 40
20 44 40
19 43 40
19 43 40
20 44 41
20 44 40
20 44 41
20 44 41
20 44 41
19 43 40
20 44 41
20 44 40
20 44 41
20 44 40
20 44 41
19 44 40
20 45 41
20 45 42
20 45 41
20 45 42
20 45 41
21 46 42
20 45 41
20 45 41
20 45 41
21 46 42
20 44 41
20 44 41
20 45 42
20 45 41
20 44 40
20 45 41
20 44 41
20 45 41
20 45 41
20 44 41
21 46 42
20 44 41
20 45 41
20 45 41
20 46 42
20 45 41
20 45 41
20 44 41
21 46 42
20 43 40
20 45 41
20 45 41
20 44 41
20 45 42
20 45 41
20 44 41
20 45 41
20 45 41
20 45 41
20 45 42
21 46 42
20 45 41
20 45 41
20 45 42
21 46 42
20 44 40
20 45 41
21 46 42
21 46 42
20 45 42
20 45 41
20 45 41
20 45 42
20 45 41
20 45 41
20 45 41
20 44 41
20 45 41
20 45 41
20 45 42
20 44 41
20 45 42
20 45 42
21 46 42
20 44 41
20 45 41
20 45 41
20 45 41
20 45 41
20 44 40
20 44 41
20 44 41
20 44 41
20 44 41
20 45 41
20 44 41
20 44 41
20 44 40
20 44 41
21 46 42
20 44 41
20 45 41
20 45 41
20 44 40
20 44 40
20 44 41
20 45 41
20 44 41
20 44 40
21 46 42
20 45 42
20 45 41
20 44 41
20 44 40
20 44 41
19 43 40
20 44 41
20 45 41
20 44 41
20 44 40
20 45 41
20 44 41
20 44 41
20 44 40
20 45 41
20 46 42
20 44 40
20 44 41
20 44 41
19 43 40
20 44 41
20 45 41
20 44 40
20 44 41
20 44 40
20 44 40
20 44 40
20 44 40
19 43 40
20 44 40
19 43 39
20 45 41
20 45 41
20 45 41
20 45 41
20 45 41
21 46 42
20 45 41
20 44 41
21 46 42
21 46 42
21 46 42
20 45 42
20 45 41
20 45 41
20 45 41
20 45 41
21 46 42
20 45 41
20 45 41
20 45 41
21 46 42
20 45 41
20 45 41
20 45 41
20 45 41
21 46 42
20 45 41
20 45 41
20 45 41
21 47 43
21 46 42
21 46 42
20 45 41
20 44 41
20 45 41
21 46 42
20 45 41
21 46 42
20 45 41
20 45 41
20 45 41
20 44 41
20 45 41
20 45 41
20 45 41
20 45 42
21 46 42
20 45 42
21 46 42
20 45 41
21 47 43
20 45 41
20 45 42
21 46 42
20 44 40
20 44 40
20 45 41
20 44 41
20 45 41
20 44 41
20 45 42
20 45 41
19 43 40
20 45 41
20 46 42
20 45 41
20 44 41
20 45 41
20 44 41
20 44 41
20 45 41
20 45 41
20 45 41
20 44 40
20 44 41
21 46 42
20 45 42
20 44 40
20 45 41
20 45 41
20 45 42
20 44 40
20 44 41
20 44 41
20 45 41
20 44 40
21 46 42
20 45 42
21 46 42
20 45 41
20 44 41
20 45 41
20 44 41
20 44 41
20 45 41
21 46 42
20 44 41
20 45 42
20 44 40
20 45 41
20 44 41
20 45 41
20 44 40
20 45 41
20 44 40
21 46 42
20 44 40
20 45 41
20 44 40
20 44 41
20 44 41
20 45 41
20 44 40
19 43 40
19 44 40
20 44 40
20 44 41
20 45 41
20 45 41
20 44 40
21 46 42
21 46 42
21 46 42
21 46 42
21 46 42
20 45 42
21 46 42
21 46 42
21 46 42
20 45 42
20 45 41
21 47 43
20 45 41
21 46 42
20 45 41
20 45 41
20 44 41
21 46 42
20 45 41
21 46 42
20 45 42
20 45 41
21 47 43
20 44 41
20 45 42
21 46 42
21 46 43
21 46 42
21 46 42
21 46 43
20 45 41
20 44 41
20 45 41
20 45 41
20 45 41
21 46 42
21 46 42
20 45 41
20 44 41
21 46 42
20 45 41
20 44 41
21 46 42
21 46 42
21 46 42
20 45 41
20 45 41
21 47 43
20 45 42
20 45 41
20 45 41
20 45 41
21 47 43
21 46 43
21 47 43
20 45 41
20 44 40
20 45 41
20 44 41
20 44 40
20 45 42
20 45 42
21 46 42
20 44 41
20 45 41
21 46 42
21 46 42
20 45 41
20 45 42
21 47 43
20 45 41
21 46 42
20 45 41
20 46 42
20 44 40
20 45 41
21 46 42
20 45 41
20 45 42
20 45 41
20 44 40
20 45 41
20 44 41
20 45 41
20 45 41
21 46 42
20 44 41
20 44 41
20 45 41
20 44 40
20 45 41
20 45 41
20 45 41
20 45 42
20 44 40
20 44 40
20 45 41
21 46 42
20 45 41
20 45 41
20 44 41
20 44 40
20 44 41
20 44 40
20 44 41
20 45 41
20 45 41
20 45 42
20 45 41
20 44 41
20 45 41
20 45 42
19 43 40
20 45 41
20 44 41
20 44 41
20 45 41
20 45 41
20 44 41
20 45 41
20 45 41
20 45 41
20 45 41
21 46 42
21 46 43
20 45 41
20 45 41
20 45 41
21 46 42
20 45 41
21 46 42
20 45 41
21 46 42
20 45 41
20 45 41
20 45 42
21 46 42
21 46 42
20 45 42
20 45 41
21 46 42
21 46 42
21 46 42
20 45 41
21 47 43
20 45 41
20 45 41
20 45 42
20 45 42
20 45 41
20 45 41
21 46 42
21 46 42
20 45 41
20 45 41
20 45 41
20 44 40
21 46 42
20 44 41
20 46 42
21 46 42
21 46 42
21 47 43
20 44 41
20 45 41
21 46 42
21 46 42
20 45 42
20 45 42
20 45 41
20 44 40
20 45 41
21 46 42
20 45 41
20 45 41
21 46 42
20 45 42
20 44 41
21 46 42
20 45 41
20 45 41
21 47 43
20 45 41
21 46 42
21 46 42
20 45 41
21 47 43
20 45 41
20 45 41
20 45 41
20 45 41
21 46 42
21 46 42
20 44 41
20 45 41
20 45 41
20 45 41
20 45 41
20 45 41
21 46 42
21 46 42
20 45 41
21 46 42
20 45 41
21 46 42
19 43 40
20 45 41
21 46 42
20 45 41
20 45 41
20 44 41
21 46 42
20 45 41
21 46 42
20 45 41
20 45 41
20 45 41
20 45 42
20 45 41
19 43 40
20 44 40
20 45 42
20 45 42
20 45 41
20 44 41
20 45 41
20 44 41
20 45 42
19 43 40
20 45 41
20 44 40
20 44 41
20 44 41
19 43 40
20 44 40
20 45 41
20 45 41
20 44 41
20 45 41
20 44 41
20 44 41
21 46 42
21 46 42
21 46 42
20 44 41
20 44 40
21 46 42
21 45 42
21 46 42
21 46 42
21 47 43
21 47 43
21 47 43
20 45 42
21 46 42
20 45 41
20 45 42
21 46 42
21 46 42
21 46 42
20 44 41
21 46 42
21 46 42
21 46 42
20 45 41
21 47 43
21 46 42
21 46 42
21 47 43
21 46 42
21 46 42
20 45 41
20 45 41
20 45 41
21 47 43
21 46 42
21 46 42
21 46 42
21 46 42
21 46 42
20 45 41
21 46 42
20 45 41
20 45 41
20 45 41
21 46 42
21 47 43
20 45 42
21 46 43
21 46 43
20 45 41
20 45 42
21 46 42
20 45 41
20 44 41
21 46 42
20 45 41
20 45 41
21 46 42
21 47 43
20 45 42
21 46 42
21 46 42
20 45 41
21 47 43
21 46 42
21 46 42
21 46 42
20 45 42
21 46 43
20 45 42
21 47 43
20 45 42
21 46 42
21 47 43
21 46 42
20 44 41
21 46 42
20 45 41
21 46 42
20 44 41
21 46 42
20 45 42
21 46 42
20 45 42
21 46 42
20 44 41
20 45 42
20 45 41
20 45 41
21 46 42
21 46 42
21 47 43
20 45 41
20 45 42
20 45 41
20 45 42
20 45 41
20 45 41
20 45 41
20 45 41
20 45 42
20 44 41
20 44 40
20 45 41
21 46 42
20 45 41
20 44 41
20 44 40
20 44 40
20 45 41
20 45 41
20 45 42
20 44 40
20 45 41
19 43 40
20 44 41
20 44 41
20 45 41
20 44 40
21 46 42
21 46 42
21 46 42
21 47 43
21 46 42
21 47 43
21 46 42
20 45 41
21 46 42
20 45 41
21 46 42
21 46 42
21 46 42
21 47 43
21 46 42
21 46 42
20 45 41
21 47 43
21 45 42
20 45 42
21 46 42
20 45 41
21 46 42
20 45 41
21 46 42
21 46 42
20 44 41
21 47 43
20 44 40
21 46 42
21 46 42
21 46 42
20 45 41
21 45 42
20 45 41
20 45 41
21 46 42
21 46 42
21 46 42
21 46 42
20 45 42
21 46 42
21 46 42
21 46 42
21 46 42
21 47 43
20 45 41
21 47 43
21 47 43
21 46 42
21 45 42
21 46 42
20 45 41
21 46 42
20 45 41
20 45 41
21 46 42
20 45 41
20 45 41
20 45 41
20 45 41
21 46 42
20 45 41
21 46 42
21 46 42
21 47 43
21 47 43
21 46 42
20 45 41
20 45 41
20 45 41
21 46 42
21 45 42
20 45 41
21 46 42
20 45 41
20 44 41
20 45 41
21 46 42
21 46 42
20 45 42
20 45 41
20 44 41
21 46 42
20 44 41
20 44 40
20 45 41
21 47 43
21 46 42
20 45 41
20 44 41
20 45 41
21 46 42
20 45 41
20 45 41
20 44 40
20 45 41
20 45 41
20 45 41
21 46 42
20 45 41
20 45 41
20 44 40
20 46 42
20 45 41
21 46 42
20 45 41
20 45 42
20 45 41
20 45 41
20 45 41
20 45 41
21 47 43
20 44 40
20 44 41
20 44 40
20 44 40
20 45 41
20 45 41
20 45 42
21 47 43
21 46 42
20 45 41
20 45 41
21 46 42
21 46 42
21 46 42
21 46 42
21 47 43
21 46 42
21 47 43
20 45 41
21 46 42
21 46 42
21 47 43
20 45 41
20 45 41
21 46 42
21 46 42
21 46 42
20 45 41
20 45 41
21 47 43
21 46 42
21 47 42
21 46 42
21 46 42
21 46 42
21 47 43
21 46 42
21 47 43
21 47 43
21 46 42
21 47 43
21 45 42
21 47 43
21 46 42
21 46 42
21 46 42
21 47 43
21 47 43
21 46 42
21 46 42
21 46 42
21 46 42
21 46 42
21 47 43
21 46 42
20 45 41
20 45 42
20 45 41
21 46 42
20 44 41
20 44 41
20 45 41
21 46 42
20 45 41
21 46 42
20 45 41
20 45 41
21 45 42
21 46 42
21 45 42
21 46 43
20 45 41
20 45 41
20 45 41
21 46 42
21 46 42
20 45 41
21 46 42
21 47 43
20 45 41
20 45 41
21 45 42
21 46 42
21 46 42
21 46 42
20 45 41
21 47 43
21 46 42
21 46 42
20 45 41
20 45 42
20 45 41
21 45 42
21 46 42
20 45 41
20 44 41
20 45 41
21 46 42
21 46 42
20 44 41
20 45 41
20 45 41
20 45 42
20 45 42
21 46 42
21 46 42
20 46 42
20 45 41
20 45 41
20 45 41
21 46 42
20 45 41
20 45 41
20 44 40
20 45 42
20 44 41
20 45 41
20 45 41
20 44 41
20 44 41
20 45 42
19 43 40
20 44 40
20 44 41
20 44 40
20 44 41
20 45 41
21 47 43
21 47 43
21 46 42
21 46 42
21 47 43
21 47 43
21 47 43
21 47 43
21 46 42
22 48 43
21 46 42
20 45 41
21 46 42
21 45 41
21 46 42
21 47 43
21 46 42
21 47 43
20 44 41
21 47 43
21 45 41
21 46 42
21 46 42
21 47 43
21 47 43
21 47 43
20 45 41
22 48 43
21 46 42
21 46 42
21 46 42
21 47 43
21 47 43
21 47 43
21 46 42
21 46 42
21 47 43
22 48 43
21 46 42
20 45 41
21 46 42
20 45 41
21 46 42
21 47 42
21 47 43
21 47 43
21 47 43
21 46 42
21 46 42
20 45 41
21 47 43
21 46 42
21 45 42
20 45 41
21 47 43
21 47 43
21 46 42
20 45 42
21 46 42
21 46 42
20 45 41
21 47 43
21 47 43
21 46 42
21 46 42
21 47 43
21 46 42
21 46 42
21 46 42
21 46 42
21 47 43
21 47 43
20 45 41
21 46 42
21 46 42
21 46 42
20 45 41
21 46 43
21 46 42
21 47 43
20 45 41
21 46 42
21 46 43
21 46 42
20 44 40
21 46 42
21 46 42
21 47 43
20 45 41
21 46 42
21 46 42
20 45 41
20 45 41
20 44 41
20 44 41
20 44 40
21 46 42
20 45 42
20 45 42
20 45 42
21 46 42
21 46 42
21 47 43
21 46 42
20 44 41
20 45 41
20 44 41
21 46 42
21 46 42
20 45 42
20 45 41
20 45 41
20 44 40
20 45 41
20 45 41
20 45 41
20 45 41
20 45 41
20 45 41
20 45 42
20 45 41
21 47 43
21 47 42
22 48 44
21 46 42
21 46 42
21 46 42
21 46 42
21 46 42
21 46 42
21 47 43
21 47 43
22 48 43
21 46 42
21 46 42
21 46 42
21 47 43
20 45 41
21 46 42
21 46 42
21 47 43
21 46 42
21 47 43
21 46 42
21 46 42
21 45 41
21 46 42
21 46 42
21 46 42
21 46 43
21 47 43
21 46 42
21 46 42
20 45 41
21 46 42
21 47 43
21 46 42
21 47 43
20 44 41
21 47 43
21 47 43
21 47 43
21 46 42
21 46 42
21 45 41
21 47 43
21 47 43
21 47 43
21 46 42
21 47 43
21 46 42
21 47 43
21 46 42
21 46 42
21 47 43
21 46 42
21 47 43
21 46 42
21 46 42
20 45 41
21 46 42
21 46 42
21 47 43
21 46 42
21 47 43
21 47 43
21 46 42
21 46 42
21 47 43
21 46 42
20 45 41
21 46 42
21 46 42
21 46 42
21 46 42
20 45 41
21 46 42
20 45 41
21 46 42
21 46 42
21 47 43
21 47 42
21 46 42
21 47 43
20 45 41
20 44 41
21 46 42
21 46 42
20 45 41
20 45 41
21 46 42
21 46 42
21 46 42
21 46 42
20 44 41
21 46 42
20 45 42
20 45 41
21 46 43
21 46 42
20 45 41
20 45 41
21 46 42
20 45 41
21 46 42
20 45 41
20 45 41
20 45 41
20 44 41
20 45 41
20 45 42
20 44 41
20 45 41
20 45 41
20 44 41
20 44 41
20 45 41
21 46 42
20 45 42
20 44 40
21 46 42
21 46 42
21 46 42
21 47 43
21 46 42
21 46 42
21 46 42
21 46 42
21 46 42
21 46 42
21 46 42
21 47 43
21 45 41
21 47 43
21 46 42
21 46 42
22 48 44
21 47 43
21 45 41
21 47 43
21 46 42
21 46 42
21 47 43
20 45 41
21 46 42
21 47 43
21 47 43
21 46 42
21 46 42
21 47 43
21 47 43
21 46 42
21 47 43
21 46 42
21 46 42
21 46 42
21 47 43
21 46 42
21 45 42
21 46 42
21 47 42
21 46 42
21 46 42
21 46 42
21 46 42
21 47 43
21 46 42
21 47 43
20 45 41
21 47 43
21 47 43
21 46 42
21 47 43
21 46 42
21 46 42
21 45 41
21 46 42
21 46 42
21 46 42
21 46 42
21 47 43
21 46 42
21 46 42
21 45 41
21 47 43
21 46 42
21 45 41
21 46 42
21 46 42
21 47 43
21 46 42
21 46 42
21 46 42
21 46 42
21 46 42
21 46 42
21 46 42
109 104 95
175 159 145
179 163 150
135 126 116
25 47 45
21 46 42
21 47 43
21 46 42
21 46 42
20 44 41
21 46 42
21 46 42
20 45 41
21 46 42
20 45 41
21 46 42
21 46 42
21 46 42
21 46 42
20 45 42
21 46 42
21 46 42
20 44 41
21 46 42
20 45 41
21 46 42
21 46 42
21 46 42
21 47 43
21 46 42
21 47 43
21 46 42
21 46 42
21 46 42
21 46 42
21 46 42
21 46 42
20 44 40
20 45 41
20 44 41
20 45 41
20 45 41
20 45 41
21 46 42
21 47 43
21 46 42
21 47 43
22 48 43
21 46 42
21 47 43
21 46 42
21 47 43
21 47 43
21 47 43
21 47 43
21 46 42
21 46 42
21 46 42
21 46 42
21 47 43
21 46 42
21 46 42
21 46 42
21 47 42
21 47 43
21 46 42
21 46 42
21 46 42
21 47 43
21 47 43
21 47 42
21 46 42
21 46 42
21 46 42
21 46 42
21 47 43
21 46 42
21 46 42
21 46 42
21 46 42
21 47 43
21 47 43
21 47 43
21 46 42
21 47 42
21 46 42
21 47 43
21 47 43
21 46 42
21 47 43
21 46 42
21 46 42
21 46 42
21 47 42
21 47 43
21 46 42
21 47 43
21 47 43
21 46 42
21 47 43
21 47 43
21 47 43
21 46 42
22 48 44
21 46 42
21 46 42
21 47 42
21 46 42
21 45 42
21 46 42
21 46 42
21 47 43
21 46 42
21 47 43
21 46 42
21 46 42
21 46 42
21 46 43
31 50 45
188 168 152
245 217 197
244 217 198
239 213 195
215 191 179
84 61 92
35 47 51
21 46 42
21 46 42
21 46 42
20 45 41
21 46 42
21 47 43
21 46 42
21 46 42
21 45 42
21 46 42
21 46 42
21 45 41
21 47 43
21 46 42
20 45 41
20 45 41
21 47 43
20 45 41
21 46 42
20 45 42
21 45 42
20 45 42
21 46 42
21 46 42
21 46 42
20 45 41
21 46 42
21 47 43
21 46 42
21 45 42
20 45 41
21 46 42
20 45 41
20 45 41
20 45 42
21 46 42
21 46 42
22 48 44
22 48 44
21 46 42
21 47 43
22 48 44
21 46 42
21 46 42
21 45 41
21 46 42
22 47 43
22 48 44
21 46 42
22 48 43
22 48 44
21 47 43
21 47 43
21 46 42
21 47 43
21 47 42
21 47 43
21 46 42
21 45 41
22 48 44
21 47 43
22 48 43
21 46 42
21 45 41
21 46 42
21 46 42
21 46 42
21 47 43
22 48 43
22 48 44
21 47 43
21 46 42
21 46 42
22 48 44
21 47 43
22 48 44
21 47 42
22 47 43
21 47 42
21 46 42
21 46 42
21 47 43
21 47 43
21 46 42
21 46 42
22 47 43
21 47 42
21 47 43
21 47 43
21 47 43
21 46 42
21 46 42
21 46 42
21 46 42
21 47 43
21 46 42
21 47 43
21 46 42
20 45 41
21 47 43
22 48 43
21 46 42
21 47 43
21 46 42
21 47 43
21 46 42
21 45 41
21 46 42
21 47 42
21 46 42
21 46 42
21 45 41
162 145 130
242 213 192
250 221 199
252 223 202
237 209 192
139 112 129
94 62 101
71 52 80
21 45 41
21 47 43
21 46 42
21 46 43
21 46 42
21 46 42
20 45 41
21 47 43
20 45 41
21 46 42
21 47 43
21 46 42
21 45 42
21 47 43
21 46 42
20 45 41
21 45 41
21 46 42
20 45 41
20 45 41
21 45 42
20 45 41
21 46 42
21 46 42
21 46 42
20 45 41
21 47 43
20 45 41
20 45 41
21 46 42
20 45 41
20 45 41
20 45 41
21 46 42
21 46 42
20 45 41
20 44 41
21 46 42
21 46 42
20 45 41
21 47 42
22 48 44
22 48 44
21 47 43
21 46 42
21 47 43
21 47 42
21 47 43
21 47 43
22 47 43
21 46 42
22 47 43
21 47 43
22 48 44
21 46 42
21 47 43
21 47 43
21 47 43
22 49 44
22 48 43
21 47 43
21 47 43
21 47 42
21 47 43
21 47 43
22 48 43
21 47 43
21 47 43
21 46 42
21 47 42
21 47 43
22 48 43
22 48 43
22 47 43
21 47 43
21 46 42
21 47 43
21 47 43
22 48 44
21 47 43
22 48 44
22 48 44
22 47 43
22 48 44
21 46 42
21 47 43
21 47 43
21 46 42
20 45 41
21 46 42
21 47 43
21 46 42
22 48 43
21 46 42
21 47 43
21 46 42
22 48 44
21 47 43
21 46 42
21 46 42
21 47 42
21 47 43
21 46 42
22 48 43
21 47 43
21 47 43
21 46 42
21 47 42
21 47 42
21 46 42
22 48 44
34 52 47
203 178 158
238 209 186
247 216 193
255 230 206
134 105 124
98 64 103
92 61 98
76 51 83
31 45 47
21 46 42
21 46 42
21 46 42
21 46 42
21 46 42
21 46 42
20 44 41
20 45 41
20 45 41
20 45 41
21 46 42
20 45 41
21 47 43
21 46 42
21 46 42
21 46 42
21 46 42
21 46 42
21 47 42
21 46 42
21 46 42
20 45 41
21 46 42
21 46 42
21 46 42
20 45 42
21 46 42
20 45 41
21 46 42
21 46 42
21 46 42
21 46 42
20 45 42
21 45 42
20 44 41
21 46 42
21 47 43
21 47 43
21 46 42
21 47 42
22 48 44
22 48 44
22 48 43
22 48 43
21 46 42
22 48 44
21 46 42
21 47 43
22 48 43
21 47 43
21 47 43
21 47 43
21 47 43
21 47 43
22 48 43
21 47 42
21 47 43
21 47 42
22 48 43
22 47 43
21 47 43
21 47 43
21 47 43
21 47 43
21 47 43
21 47 43
21 47 43
21 46 42
21 46 42
21 47 43
21 47 43
21 46 42
22 48 44
21 46 42
21 47 43
21 47 43
22 48 43
22 48 43
22 48 43
22 48 43
22 48 44
21 47 43
21 47 42
21 46 42
21 47 42
21 47 43
21 47 42
21 47 43
21 47 43
21 45 41
22 47 43
21 47 43
21 47 43
21 47 43
22 48 44
21 46 42
21 46 42
21 46 42
21 46 42
21 47 43
21 46 42
21 47 42
21 46 42
21 46 42
21 47 43
21 46 42
21 46 42
21 46 42
21 46 42
21 46 42
49 60 54
191 167 147
211 183 162
167 139 137
156 132 128
183 159 144
136 113 115
84 56 88
69 46 74
47 52 54
21 46 42
21 47 42
21 46 42
21 46 42
22 47 43
21 47 43
21 47 43
21 46 42
21 46 42
21 46 42
21 46 42
21 47 43
21 46 42
21 47 43
21 47 43
21 46 42
21 46 42
21 46 42
21 45 42
21 46 42
21 47 43
21 46 42
21 45 42
21 47 43
21 46 42
21 46 42
21 47 43
21 46 42
20 45 42
21 46 42
20 45 41
21 46 42
20 44 40
21 46 42
20 45 41
20 45 42
21 47 43
21 47 43
22 48 43
21 46 42
22 47 43
21 47 43
21 47 43
22 48 43
21 47 43
21 46 42
22 48 44
22 48 44
21 47 43
21 47 43
21 46 42
21 47 43
22 48 44
22 48 43
22 47 43
21 47 42
22 48 44
22 48 44
22 48 44
21 47 43
22 48 44
22 48 43
21 47 43
21 47 42
21 46 42
21 47 43
21 46 42
21 47 43
22 48 44
22 48 44
21 46 42
21 47 43
21 47 43
21 47 43
22 47 43
21 47 42
21 47 42
22 48 44
21 46 42
21 47 43
21 47 43
22 47 43
21 47 43
21 47 43
21 47 43
21 47 42
21 47 43
22 48 43
22 48 43
21 47 43
22 47 43
21 46 42
22 47 43
22 48 44
21 47 43
21 46 42
21 47 43
21 47 43
21 47 43
22 48 43
22 47 43
21 46 42
22 48 44
22 48 43
21 46 42
21 46 42
21 47 43
21 46 42
20 45 41
21 46 42
30 49 46
98 78 86
91 65 84
98 71 91
178 155 135
141 122 107
173 151 134
81 61 77
76 64 73
53 62 57
21 46 42
21 46 42
21 45 41
21 46 42
21 46 42
21 46 42
21 46 42
21 47 43
21 47 43
21 45 41
21 46 42
21 47 43
21 47 43
21 46 42
21 46 42
21 46 42
21 46 42
21 46 42
21 46 42
21 46 42
21 46 42
20 45 41
21 46 42
21 46 42
21 46 42
21 46 42
21 46 42
21 46 42
20 45 42
21 46 42
20 45 42
21 45 41
21 45 42
20 45 41
20 45 41
21 47 43
22 49 45
21 47 43
22 48 44
22 48 44
22 48 43
21 47 43
21 47 43
22 48 44
21 47 43
21 46 42
22 48 44
22 48 44
21 47 43
22 48 43
22 48 43
22 47 43
21 47 43
22 48 44
21 47 43
21 47 43
21 47 43
22 48 44
21 46 42
21 47 43
22 48 44
22 48 44
22 47 43
22 48 43
21 47 43
22 48 44
21 47 43
21 47 43
21 47 43
22 48 44
21 47 43
21 46 42
22 48 44
21 46 42
22 49 44
21 47 43
22 48 44
21 47 43
21 47 43
21 46 42
21 46 42
21 47 43
22 47 43
21 47 43
22 48 43
21 47 43
21 47 43
21 47 43
22 48 44
22 47 43
22 49 45
22 48 43
21 47 43
22 48 44
22 48 43
22 48 44
22 48 43
22 48 44
21 47 42
22 48 43
21 47 42
21 47 43
21 46 41
21 47 43
22 48 43
21 46 42
21 47 42
21 46 42
20 44 40
21 46 42
21 46 42
41 40 48
62 39 59
71 48 67
136 116 101
141 123 106
105 91 80
62 53 56
71 69 63
16 36 34
18 41 38
19 43 39
21 45 41
22 48 43
21 46 42
21 46 42
20 45 41
21 45 41
21 45 41
21 46 42
22 47 43
21 46 42
21 47 43
21 46 42
21 46 42
21 45 41
21 46 42
22 48 44
21 46 42
21 46 42
21 46 42
21 47 43
21 47 43
21 46 42
21 46 42
21 46 42
21 46 42
21 45 42
20 45 41
20 45 42
20 45 41
21 47 43
21 46 42
21 46 42
20 45 42
21 46 42
21 46 42
22 48 43
22 49 44
21 47 42
21 46 42
21 46 42
22 48 43
22 47 43
22 49 44
22 48 44
22 48 44
22 48 43
22 49 44
22 48 43
21 47 43
21 47 43
22 48 44
21 47 43
22 48 43
22 48 44
21 47 42
21 47 43
22 47 43
21 47 43
21 47 42
22 48 44
22 48 44
22 48 43
22 48 43
22 48 44
21 46 42
21 47 43
21 46 42
21 47 43
21 47 43
22 48 43
22 48 43
22 48 43
22 48 44
21 47 43
22 48 43
22 48 44
21 47 42
22 48 43
22 48 44
21 47 42
22 47 43
22 48 44
21 47 43
22 48 44
21 47 43
21 46 42
22 49 44
21 47 43
21 47 43
22 48 43
21 47 43
21 47 42
21 47 43
22 48 44
22 48 43
21 47 43
21 47 43
22 48 44
21 47 42
22 48 44
21 46 42
21 46 42
21 46 42
21 46 42
22 47 43
21 47 42
20 44 40
20 45 40
19 42 38
21 42 38
28 25 30
39 25 37
50 37 44
53 44 42
56 50 45
53 53 46
32 40 37
13 31 30
15 36 34
18 41 38
21 45 42
21 46 42
21 46 42
21 47 42
21 46 42
22 47 43
21 46 42
21 45 41
21 47 43
21 47 43
20 45 41
21 47 43
21 46 42
21 46 42
21 46 42
21 47 43
21 46 42
20 45 41
21 46 42
21 47 43
21 47 43
21 47 43
21 47 43
21 46 42
21 46 42
20 45 41
21 46 42
21 47 43
21 45 41
20 45 41
21 46 42
21 46 42
21 47 43
21 46 42
22 47 43
22 48 44
22 48 44
22 48 43
21 46 42
22 49 44
22 47 43
21 47 42
22 48 44
22 47 43
21 47 43
22 48 44
21 47 43
21 47 43
22 48 44
22 48 44
22 48 44
21 46 42
21 47 43
21 47 43
22 48 44
22 48 43
22 48 43
22 48 44
22 48 43
22 48 43
22 48 43
21 47 43
21 47 43
21 47 43
21 46 42
22 48 43
22 48 43
22 47 43
21 46 42
22 48 44
22 48 44
22 47 43
22 48 43
22 48 43
21 47 43
22 48 44
21 47 43
22 48 44
22 48 44
22 48 44
22 47 43
22 48 44
21 46 41
21 47 43
21 47 43
21 47 43
22 49 44
22 47 43
21 45 41
22 48 44
22 47 43
22 47 43
22 47 43
22 48 43
22 48 43
21 46 42
21 46 42
21 47 42
20 45 41
21 47 43
21 47 43
21 47 43
21 47 43
21 47 43
21 46 41
21 45 41
21 45 41
20 44 40
20 44 39
18 40 35
15 34 30
12 21 20
25 24 20
33 33 25
25 28 22
11 24 22
12 27 25
16 35 32
19 42 38
20 44 40
21 46 42
21 45 41
21 46 41
21 46 42
21 46 42
21 46 42
21 47 43
21 46 42
21 46 42
21 46 42
21 46 42
21 46 42
21 45 41
22 48 44
21 47 43
21 46 42
21 46 42
21 46 42
22 48 43
21 46 42
21 47 43
21 46 42
21 46 42
20 45 41
21 47 43
21 46 42
20 45 41
21 47 43
21 46 42
21 45 42
21 46 42
21 46 42
21 45 42
21 46 42
22 48 43
22 47 43
22 48 43
22 49 44
22 48 44
22 49 44
21 47 42
22 48 43
22 48 44
22 48 44
22 49 44
22 47 43
22 48 44
22 48 44
22 48 44
22 48 44
22 49 45
22 48 44
22 48 44
22 48 43
22 47 43
22 48 43
22 48 44
21 47 43
22 48 43
22 48 44
22 47 43
22 47 43
22 48 44
22 48 44
22 48 44
22 49 44
21 47 43
22 48 44
21 47 43
22 48 44
22 47 43
22 48 44
22 47 43
21 47 43
22 48 43
21 47 43
22 48 44
21 47 42
22 49 44
21 47 42
21 46 42
22 48 44
22 48 43
22 48 44
22 48 44
22 47 43
21 47 43
21 47 43
22 48 43
22 48 44
22 48 43
22 48 44
22 48 43
22 48 43
22 47 43
21 46 42
22 48 44
22 48 43
21 47 43
21 46 42
22 47 43
21 46 42
21 47 43
21 46 42
21 46 41
21 45 41
21 46 42
21 45 41
20 45 41
20 44 40
20 44 39
19 40 36
18 39 35
17 36 31
18 38 34
18 40 36
20 43 39
20 44 40
20 44 40
20 44 40
21 46 42
21 46 41
21 45 41
21 45 41
21 47 43
21 45 41
21 47 43
21 47 43
21 46 42
21 46 42
22 47 43
21 46 42
21 46 42
21 46 42
21 47 43
21 47 43
20 45 41
21 47 43
21 46 42
21 47 43
21 46 42
21 46 42
21 46 42
21 45 41
20 45 41
22 48 44
21 46 42
21 47 43
21 46 42
21 46 42
20 45 41
21 46 42
21 46 42
21 46 42
21 47 42
22 48 43
22 49 44
22 48 43
21 47 43
22 49 44
21 47 43
22 48 44
22 48 43
23 50 45
22 48 43
23 50 45
22 49 44
22 48 44
22 48 44
22 48 43
22 48 43
22 48 44
22 48 43
22 47 43
22 48 43
22 48 44
22 48 43
22 47 43
23 47 43
28 45 43
31 45 44
30 45 44
24 47 44
22 47 43
21 47 42
22 48 44
21 46 42
22 48 44
22 48 43
22 47 43
21 47 43
22 48 44
22 48 44
22 49 44
22 48 44
21 46 42
22 48 44
22 47 43
22 48 43
22 48 44
22 48 44
21 47 43
21 47 42
21 47 43
21 47 43
22 48 44
22 47 43
22 48 44
21 47 42
22 48 44
21 47 43
22 48 44
21 47 42
21 47 43
22 48 44
22 48 44
21 46 42
22 48 43
22 48 44
22 48 43
22 47 43
22 47 43
21 47 43
21 46 42
21 47 43
22 47 43
21 47 43
21 46 42
21 47 42
21 47 42
21 46 41
21 46 42
20 44 40
20 45 40
21 45 41
20 45 40
20 44 40
20 45 41
20 45 41
21 47 42
21 46 42
22 47 43
21 47 42
21 47 43
21 47 42
22 48 43
21 46 42
21 46 42
22 47 43
22 48 44
21 46 42
21 47 43
21 46 42
21 47 43
21 47 43
21 46 42
20 45 41
21 45 41
22 48 44
21 47 43
21 46 42
21 47 43
21 47 43
21 47 43
20 45 41
21 47 43
21 45 41
22 47 43
21 47 43
22 48 44
21 46 42
21 46 42
21 46 42
20 45 41
23 51 46
22 48 43
22 48 44
22 48 43
22 49 45
22 48 43
22 48 44
22 48 43
22 48 44
22 48 44
22 48 44
22 48 44
22 48 44
22 48 43
22 47 43
22 49 44
22 48 44
22 48 43
21 47 42
22 48 44
22 48 44
22 48 44
22 48 44
91 88 81
39 44 46
40 43 47
40 43 47
40 43 46
178 159 146
166 151 138
22 49 45
21 47 43
22 48 44
22 47 43
22 49 44
22 48 44
22 47 43
23 50 45
22 48 44
21 47 43
22 48 44
22 48 43
21 47 43
22 49 44
22 48 44
21 47 43
22 48 43
22 47 43
22 48 43
22 49 44
21 46 42
21 47 43
22 48 43
22 47 43
22 48 44
21 47 43
21 47 43
22 47 43
22 48 44
22 48 44
21 47 43
21 46 42
22 47 43
21 47 43
21 47 42
21 47 42
21 46 42
21 47 43
22 48 43
22 47 43
22 48 43
22 48 44
22 48 43
21 47 43
21 47 42
21 46 42
21 46 42
22 47 43
21 46 42
21 47 43
21 46 42
22 49 44
21 46 42
22 48 44
21 47 42
21 47 43
21 46 42
21 47 43
22 47 43
21 45 41
22 48 43
21 46 42
21 47 43
21 47 43
22 47 43
21 47 43
21 47 43
21 47 43
21 46 42
21 46 42
21 47 43
21 47 43
21 47 43
21 46 42
21 46 42
21 47 43
21 46 42
21 47 43
21 46 42
21 47 43
21 47 43
21 46 42
20 45 41
21 47 42
21 46 42
21 46 42
21 45 41
21 46 42
21 47 43
21 46 42
21 47 43
22 49 45
22 49 44
23 49 45
22 48 44
22 48 44
22 49 44
22 48 44
22 48 44
22 48 44
22 49 45
22 48 44
22 48 44
22 48 43
22 48 44
22 48 43
21 46 42
22 48 44
22 48 44
22 47 43
22 48 44
22 48 43
114 107 96
119 107 99
41 43 47
44 46 49
48 49 51
93 85 81
236 210 192
227 202 184
150 137 125
22 49 45
22 49 44
22 48 44
22 48 43
22 48 43
22 49 44
22 48 44
22 47 43
22 48 44
22 48 43
22 48 44
22 49 44
22 48 43
22 48 44
22 48 43
22 48 44
22 48 44
22 48 43
22 48 44
22 48 43
22 48 44
22 49 44
22 48 44
21 47 43
22 47 43
22 48 44
22 48 44
22 48 44
22 48 44
22 48 44
22 49 44
22 47 43
22 48 43
22 48 43
22 47 43
22 48 43
22 49 44
21 47 42
22 48 44
21 47 43
21 46 42
21 47 43
21 46 42
22 47 43
21 47 43
21 46 42
22 48 43
22 47 43
22 48 43
20 45 41
22 47 43
21 45 41
21 47 42
22 48 43
21 47 42
21 46 42
22 48 43
21 47 43
21 47 43
21 47 43
21 47 43
21 46 42
21 46 42
21 46 42
22 48 43
21 46 42
21 47 43
21 47 42
21 46 42
21 46 41
21 47 43
21 47 43
21 46 42
21 46 42
21 47 43
21 46 42
21 45 41
21 47 43
21 47 42
21 47 43
21 47 42
21 47 43
21 46 42
21 46 42
22 47 43
21 46 42
21 46 42
21 47 42
21 46 42
22 49 44
22 49 45
22 48 43
22 48 43
23 50 45
21 47 43
22 48 43
22 49 45
22 48 43
22 48 43
22 47 43
22 49 45
22 48 44
22 48 43
22 48 44
22 47 43
22 47 43
22 48 43
22 48 43
22 49 44
22 48 44
31 52 47
199 177 159
55 54 54
41 43 46
99 94 84
134 126 110
150 134 123
236 208 188
226 197 178
193 171 155
58 66 60
22 48 43
22 47 43
22 48 43
22 48 43
22 49 44
23 49 45
22 49 44
22 48 44
21 47 43
22 48 43
22 49 44
22 48 43
21 47 43
22 49 44
22 48 44
22 48 43
22 48 44
22 47 43
22 49 44
22 49 44
22 49 44
22 48 44
22 47 43
22 48 44
22 48 44
22 48 44
21 47 43
22 48 43
22 49 44
21 47 42
22 48 44
22 48 44
22 48 44
21 46 42
22 47 43
22 48 43
22 48 43
21 47 43
22 47 43
22 48 43
22 47 43
21 46 42
22 49 45
21 47 43
22 47 43
21 47 43
22 48 43
21 46 42
22 47 43
21 47 43
22 47 43
21 46 42
22 47 43
22 47 43
21 47 43
21 47 43
21 46 42
21 47 43
22 47 43
21 47 43
22 48 43
22 48 43
21 47 43
22 48 44
21 46 42
21 47 42
21 46 42
22 49 45
21 46 42
21 45 41
21 47 43
21 47 43
22 48 44
21 47 43
22 48 43
21 47 42
21 47 43
21 46 42
21 46 42
21 47 42
21 47 42
21 47 43
22 48 43
21 47 43
21 46 42
22 47 43
21 46 42
21 47 43
22 48 43
22 48 44
22 49 44
23 50 45
22 48 44
22 48 43
22 48 44
22 48 43
22 49 44
22 49 44
22 49 44
22 48 44
22 49 45
23 49 45
22 47 43
22 48 44
22 48 43
22 48 44
22 49 44
23 50 45
22 47 43
82 83 75
189 167 150
37 40 43
38 41 44
47 47 48
54 54 53
155 136 124
223 195 175
206 181 163
182 160 145
89 86 79
23 49 45
22 48 43
22 48 44
22 48 43
22 49 44
22 48 44
22 48 44
21 46 42
21 47 43
21 47 43
22 48 43
22 48 44
22 48 43
22 48 44
22 48 43
22 48 43
22 48 43
22 48 44
22 48 43
22 48 43
21 47 42
22 48 44
22 48 44
22 49 44
22 48 44
22 48 43
21 47 43
22 48 43
22 48 43
22 49 44
22 48 44
21 47 43
22 48 43
22 49 44
22 49 44
22 48 43
21 47 42
22 48 43
22 48 43
22 48 44
22 48 44
22 47 43
22 47 43
21 47 43
21 47 43
22 48 43
22 49 44
21 47 43
22 48 43
21 47 43
22 47 43
21 47 42
22 48 44
22 48 43
22 48 43
22 48 43
22 48 43
22 48 44
22 48 44
21 47 42
22 49 44
22 48 44
21 47 43
21 47 43
21 47 43
22 48 43
21 46 42
22 47 43
21 46 42
22 48 44
22 48 43
22 48 43
21 46 42
21 46 42
21 47 43
21 47 42
21 46 42
21 47 43
21 47 43
21 46 42
21 47 42
21 47 43
21 47 43
21 46 42
21 47 43
21 47 43
21 46 42
21 47 43
22 48 44
22 48 43
22 48 44
22 49 45
22 49 44
22 47 43
22 49 44
22 48 44
22 48 44
22 48 43
22 48 44
22 49 44
22 48 44
22 49 44
22 49 44
22 48 44
22 48 44
22 48 44
22 48 44
22 49 44
22 48 44
85 85 77
164 145 130
34 36 38
35 37 40
36 38 40
35 37 39
153 133 120
204 178 159
181 158 141
155 138 124
78 78 71
22 48 44
22 48 44
22 49 44
22 48 44
22 48 43
22 48 43
22 49 44
22 48 43
22 48 44
22 48 43
22 48 43
22 49 44
22 49 44
21 47 43
22 48 43
38 51 45
22 49 44
22 47 43
21 47 43
22 49 44
22 48 44
22 48 44
22 48 43
21 47 42
22 48 43
22 47 43
21 47 43
22 48 43
22 49 44
22 48 44
22 48 44
22 49 44
21 47 43
22 48 44
21 47 42
22 48 43
23 50 45
22 48 43
21 47 43
22 48 44
22 48 44
22 48 44
22 48 43
22 48 44
22 48 44
22 48 44
22 48 43
22 47 43
21 47 42
22 48 43
22 48 43
21 47 43
21 47 43
21 47 42
22 48 44
22 47 43
22 48 43
22 49 44
22 48 43
21 46 42
21 47 43
21 47 43
22 48 43
22 47 43
21 47 43
22 48 44
68 73 66
138 127 116
126 118 108
93 89 81
22 48 44
22 48 44
21 47 43
21 46 42
22 48 43
22 48 44
21 46 42
22 48 43
22 48 44
21 47 42
22 48 43
22 48 43
21 47 43
21 47 43
22 48 43
21 46 42
21 47 42
21 46 42
22 49 45
23 50 45
22 48 44
22 48 44
23 50 45
22 49 44
22 48 43
22 49 44
22 49 45
22 49 44
22 48 43
22 49 44
22 48 43
22 47 43
22 48 44
22 48 43
22 48 43
22 49 44
22 47 43
22 49 44
22 49 44
48 60 54
144 128 114
29 30 32
31 33 35
31 32 34
30 32 33
115 100 89
170 148 132
149 132 118
112 99 88
48 58 52
22 49 44
22 48 43
22 48 44
22 49 44
22 49 44
22 48 43
21 47 43
22 48 44
22 48 44
22 48 43
23 49 45
22 48 44
87 61 47
197 98 62
240 116 69
254 122 72
227 122 84
166 148 134
67 73 67
22 48 44
22 48 43
22 48 44
22 48 44
22 48 43
22 48 43
22 48 43
22 48 43
21 47 42
22 47 43
22 48 43
22 48 44
22 47 43
22 48 44
22 48 43
22 48 43
21 47 42
22 48 44
22 49 44
22 48 44
22 48 43
21 46 42
21 47 43
22 48 44
22 48 44
21 47 43
21 47 43
22 49 44
21 47 42
22 48 43
22 47 43
22 48 43
21 46 42
22 48 44
22 48 44
21 47 43
22 47 43
21 46 42
22 48 43
22 47 43
22 48 44
21 47 43
22 48 43
22 48 44
21 47 43
67 72 65
186 167 150
245 217 196
243 190 172
239 129 111
231 82 62
196 68 50
87 52 44
21 47 43
21 47 43
22 48 43
21 47 43
22 48 44
22 47 43
21 47 43
21 46 42
21 47 43
21 47 43
21 46 42
21 47 43
21 47 43
21 47 43
21 46 42
22 48 43
23 50 45
22 48 44
23 49 45
22 49 44
22 48 43
22 49 45
22 48 44
22 49 44
22 48 44
22 48 43
22 48 44
22 48 44
22 49 44
22 47 43
21 47 43
22 49 44
22 48 43
22 47 43
22 49 44
21 47 42
22 48 43
25 48 43
99 92 82
29 29 28
23 25 26
24 26 27
24 25 26
72 64 56
120 104 89
90 80 69
71 65 57
18 39 36
21 46 41
22 47 43
21 47 42
23 49 44
22 48 43
21 47 42
22 48 44
21 47 43
22 47 43
22 49 44
22 47 43
107 67 50
251 120 71
255 128 75
255 128 75
255 126 75
255 124 73
245 159 130
205 184 168
89 89 81
21 47 42
22 49 44
22 48 43
22 48 43
22 48 44
22 48 44
22 48 44
22 48 43
22 48 43
21 47 43
22 49 44
21 47 43
21 47 43
22 49 44
22 48 43
22 48 44
22 47 43
22 48 43
22 49 44
22 48 44
22 48 44
22 48 44
22 48 43
21 47 43
22 48 43
21 47 42
22 48 44
22 48 43
22 48 44
22 48 43
22 49 44
21 47 42
22 49 44
22 48 43
22 48 44
22 48 44
22 48 43
22 48 44
21 47 43
22 48 43
21 47 43
21 47 43
22 48 44
47 59 53
213 188 168
250 216 194
249 151 132
246 81 58
241 80 57
234 77 55
224 75 54
204 68 49
86 50 43
22 48 44
22 48 44
21 47 43
22 48 44
21 47 43
22 48 43
21 47 42
21 47 43
21 47 42
21 47 43
21 46 42
21 47 43
22 48 43
22 48 44
21 46 42
22 49 44
23 50 45
23 49 45
23 50 45
22 49 45
22 48 44
22 49 44
22 48 44
23 50 45
22 48 43
22 47 43
22 48 44
22 48 43
22 48 43
22 47 43
23 49 45
23 49 44
23 49 44
22 48 43
21 47 42
22 48 43
22 48 43
39 51 45
34 34 30
14 15 16
15 17 17
15 16 16
25 24 22
59 56 47
46 46 36
28 35 32
14 33 32
18 41 37
21 46 41
22 47 43
22 48 43
22 48 43
22 48 43
21 46 42
22 49 44
22 47 43
22 48 44
52 63 57
216 187 167
255 144 102
255 128 75
255 150 100
255 135 85
255 123 73
250 126 81
223 190 172
185 166 152
32 52 48
22 48 44
22 48 44
22 49 45
22 48 43
22 48 43
22 49 44
22 48 43
22 48 44
22 48 44
22 48 43
22 48 43
22 49 45
22 48 43
22 49 44
22 49 44
22 48 44
22 49 44
22 48 43
23 49 45
22 48 43
22 48 44
22 48 44
22 49 44
22 47 43
22 48 43
22 48 43
22 47 43
22 49 44
21 47 43
21 47 42
21 47 43
22 48 44
22 47 43
22 47 43
22 48 43
22 48 44
22 48 44
22 48 43
22 48 43
22 48 44
22 48 44
22 47 43
165 147 131
242 203 181
250 119 98
255 105 80
255 129 102
241 80 57
233 77 55
225 74 53
212 70 51
164 58 43
27 46 42
21 47 43
22 48 44
21 47 43
21 47 43
21 46 42
21 47 43
21 47 42
22 48 44
21 46 42
21 47 43
21 46 42
21 46 42
22 48 43
21 47 42
22 49 44
22 49 45
23 49 45
23 50 45
23 50 45
22 49 44
22 48 43
22 49 44
22 49 44
22 48 43
22 49 44
22 48 43
22 49 44
23 49 44
23 49 44
22 47 43
21 46 42
22 47 42
22 49 44
22 47 42
21 46 41
21 45 40
18 40 36
13 25 23
7 12 11
6 8 7
7 8 7
6 8 7
27 28 21
23 29 24
11 26 24
15 34 31
19 41 37
21 46 42
22 48 43
22 48 43
22 47 43
22 48 43
22 48 43
22 48 43
22 47 43
22 48 44
134 122 108
228 200 180
245 191 167
255 127 75
255 168 119
255 140 91
255 121 71
246 117 69
225 154 129
190 170 155
83 84 78
22 48 44
22 49 44
22 49 44
22 48 44
22 48 44
22 49 44
22 48 43
22 49 44
22 47 43
22 48 43
22 48 43
22 49 44
22 47 43
22 49 44
22 49 45
22 48 44
22 49 44
22 48 44
23 50 45
22 48 43
22 48 44
22 49 44
22 48 44
22 48 44
23 50 45
22 48 44
22 49 44
22 48 43
22 48 43
22 49 44
22 48 44
22 48 43
22 47 43
22 49 44
22 48 43
22 47 43
22 47 43
22 48 43
22 47 43
21 47 43
22 48 43
28 49 44
195 159 140
234 102 82
242 79 55
255 111 86
255 115 90
238 79 56
230 76 54
220 72 52
202 67 48
168 61 47
73 48 42
21 47 42
21 46 42
22 47 43
21 47 43
22 47 43
22 47 43
21 47 43
21 46 42
21 47 43
21 47 43
22 47 43
21 46 42
21 46 42
21 47 42
22 49 44
23 51 46
22 48 44
23 50 45
22 48 44
22 49 44
22 48 44
22 49 44
22 49 44
22 49 44
22 48 43
22 49 44
22 48 43
22 48 44
23 49 44
22 48 43
22 49 44
22 49 44
22 48 43
22 48 43
21 46 41
21 45 40
20 43 39
17 36 32
12 26 24
9 20 18
8 17 16
9 19 18
11 23 21
14 31 28
18 38 34
20 44 39
22 47 42
22 47 42
22 48 43
22 48 43
22 48 43
22 48 43
22 49 44
22 48 44
22 48 43
23 49 44
153 137 121
214 188 167
225 198 177
244 148 114
252 120 70
251 119 69
242 115 68
228 114 72
212 113 79
172 153 140
105 101 93
23 49 45
22 48 43
22 48 43
22 48 43
23 49 45
22 49 44
22 47 43
21 47 43
22 49 44
22 47 43
22 48 44
21 47 43
22 49 44
22 49 44
22 49 44
22 48 44
23 49 45
22 49 44
22 47 43
22 49 45
22 48 43
22 49 45
22 47 43
22 47 43
22 47 43
22 47 43
22 48 43
22 49 44
22 48 44
22 47 43
21 47 43
22 47 43
22 47 43
22 47 43
21 47 43
22 48 43
21 47 43
21 47 43
21 47 42
22 47 43
22 48 43
45 58 52
194 91 74
213 69 47
225 73 50
226 73 51
229 75 52
221 72 51
216 71 50
203 83 66
185 126 112
155 135 125
88 89 83
22 48 43
21 46 42
21 47 43
22 47 43
21 46 42
21 47 42
21 47 43
21 46 42
21 46 42
21 47 42
22 48 43
22 47 43
21 47 43
21 47 43
22 48 44
22 48 43
22 49 44
22 48 43
22 48 43
22 49 45
23 49 45
23 50 45
23 49 45
23 49 45
23 50 45
23 50 45
22 49 44
22 49 44
22 49 44
22 49 44
23 49 44
23 49 44
22 49 44
22 47 42
22 48 43
21 46 41
22 47 42
21 46 41
20 43 38
20 44 39
20 42 38
20 44 39
20 44 39
21 45 40
21 45 40
22 48 43
22 47 42
22 47 42
22 47 43
22 47 42
23 49 44
23 50 45
22 48 44
22 47 42
22 49 44
23 49 44
140 125 110
195 172 154
209 184 164
216 167 144
230 109 63
212 115 81
179 145 128
162 144 129
173 116 95
154 120 105
94 90 83
23 49 45
22 49 44
22 48 44
22 49 44
22 48 43
22 48 43
22 47 43
23 50 45
22 49 44
22 49 44
22 47 43
22 47 43
22 48 44
22 48 43
22 48 44
22 48 44
22 49 44
21 47 43
22 49 45
22 49 44
22 49 44
22 48 43
22 48 44
22 48 44
22 48 43
22 48 43
22 49 44
22 48 44
22 49 44
22 48 43
22 48 44
21 47 43
22 49 45
22 48 44
22 48 43
22 47 43
22 47 43
21 47 43
21 47 43
21 47 43
21 47 42
27 47 42
175 58 40
194 63 43
202 65 45
203 66 46
201 65 45
199 66 47
190 118 102
184 160 145
153 138 126
119 110 102
82 82 75
21 46 42
22 48 44
21 46 42
21 47 42
22 48 44
21 47 42
21 47 43
21 47 43
21 47 42
22 48 43
21 47 43
21 47 43
21 47 43
22 48 44
22 49 44
23 50 45
22 49 44
21 47 43
22 49 44
22 49 44
23 50 45
23 51 46
23 50 45
22 49 44
23 49 45
23 50 45
22 48 43
22 49 44
22 48 44
22 49 44
22 49 44
22 48 43
22 48 44
22 47 42
22 47 42
22 48 43
22 48 43
22 47 42
21 47 42
21 46 41
22 47 42
22 49 44
22 48 43
22 48 43
22 47 42
23 50 45
22 49 44
22 48 44
22 48 43
22 47 43
22 48 44
21 47 42
23 49 44
22 49 44
22 49 44
22 48 43
114 105 93
166 146 129
176 154 136
183 160 141
198 104 71
158 122 104
169 149 133
137 122 110
131 115 103
120 84 69
74 76 69
22 48 43
22 48 43
22 47 43
22 47 43
22 48 43
22 48 44
22 48 43
22 48 43
22 47 43
21 47 43
23 50 45
22 48 44
22 49 44
22 47 43
23 49 45
22 49 45
22 48 44
22 48 44
23 50 45
22 49 44
22 49 44
23 49 45
22 48 44
22 48 43
22 48 44
22 48 43
22 48 44
22 49 44
22 48 44
22 48 43
21 46 42
22 48 43
22 49 44
22 48 43
22 48 43
22 48 44
22 48 43
22 47 43
22 48 43
22 47 42
22 47 42
22 47 43
115 46 35
164 53 35
174 56 38
178 57 39
176 70 54
162 122 107
157 140 125
139 126 113
120 110 101
107 100 92
46 56 51
21 45 41
20 45 41
21 46 42
22 48 44
21 47 43
21 47 42
21 47 43
21 47 42
21 47 43
21 46 42
21 46 42
21 47 43
21 47 43
21 47 43
23 50 45
23 50 45
23 49 45
22 49 44
22 49 44
22 49 44
22 49 44
22 48 44
22 49 44
22 49 44
22 49 44
22 49 44
22 48 44
22 48 44
23 49 45
22 48 44
22 49 44
22 48 43
23 50 45
22 47 42
22 49 44
22 48 43
22 49 44
22 48 43
22 47 43
22 48 43
21 47 42
22 47 43
22 48 43
22 48 43
22 47 42
22 49 44
22 49 44
22 48 44
22 49 44
22 48 43
22 49 44
22 49 44
22 49 44
22 48 43
22 48 43
22 47 42
59 65 59
132 118 104
143 127 112
145 129 113
158 108 87
124 102 88
99 89 79
95 87 78
91 77 68
93 61 48
38 49 44
20 44 40
21 47 42
22 48 43
22 48 43
22 48 43
22 48 44
22 48 44
22 48 43
22 49 44
22 48 44
22 48 44
23 50 45
22 48 44
22 48 44
22 49 44
22 48 43
22 47 43
22 48 43
22 48 44
22 48 43
22 48 43
22 49 44
22 47 43
22 48 44
22 49 44
22 47 43
22 47 43
22 48 43
22 47 43
22 49 45
22 48 43
22 48 43
22 48 44
22 47 43
22 48 44
22 47 43
22 47 43
22 48 44
21 47 42
21 46 42
21 45 41
21 46 42
50 43 37
116 38 25
138 45 30
145 54 40
133 101 86
127 113 99
108 98 87
97 91 82
83 79 71
62 62 56
15 35 34
17 38 36
18 41 38
19 43 39
21 47 42
22 48 43
22 48 44
21 47 43
21 47 43
22 49 44
21 47 43
22 48 44
21 46 42
21 47 43
21 47 43
23 50 45
22 49 44
23 49 45
23 50 45
23 50 45
23 49 45
23 49 45
23 49 45
22 49 44
22 49 44
23 51 46
23 49 44
22 49 44
22 48 43
23 50 45
22 48 44
22 49 44
23 50 45
22 49 44
22 49 44
22 49 44
22 49 44
22 47 43
22 48 44
22 49 44
22 49 44
22 47 43
22 48 44
22 48 43
23 49 45
23 50 45
22 49 44
22 48 43
22 47 43
22 49 44
22 48 44
23 49 44
22 49 44
22 47 43
22 48 43
22 47 43
22 47 42
22 47 42
62 62 53
89 82 69
91 82 69
91 73 59
87 53 38
75 64 55
62 54 46
56 33 21
43 29 22
13 30 29
16 36 33
19 43 39
22 47 42
22 48 44
22 48 43
22 48 43
22 48 44
22 49 45
22 49 44
22 49 44
22 48 44
23 50 45
21 47 42
22 49 44
22 48 44
22 48 44
21 47 42
22 48 44
22 48 44
22 48 43
22 49 44
23 50 45
22 48 43
22 48 44
22 48 43
23 49 45
22 47 43
22 48 44
23 50 45
22 49 44
22 48 44
22 48 44
22 48 43
21 47 42
22 48 44
22 48 43
22 47 42
22 47 43
21 46 42
21 46 42
21 44 40
20 43 38
20 43 38
42 34 29
68 23 14
78 56 45
73 67 55
64 61 50
57 57 48
48 51 43
48 50 43
23 35 33
14 32 31
13 31 30
16 36 34
19 42 39
19 43 39
21 47 43
21 47 42
21 46 42
21 46 42
22 47 43
22 47 43
22 48 43
21 47 43
21 47 43
22 48 44
22 49 44
22 49 44
22 49 44
23 50 45
22 49 44
22 48 43
22 49 44
22 48 44
23 50 45
23 50 45
22 49 44
23 50 45
22 48 43
23 50 45
22 49 44
23 51 46
23 50 45
23 49 45
22 48 44
23 50 45
22 48 43
22 48 44
22 49 44
22 49 44
22 48 44
23 49 45
23 49 45
22 49 44
22 48 44
22 48 43
23 49 44
22 49 44
22 49 44
23 49 45
23 50 45
22 49 44
22 47 42
22 49 44
22 47 43
22 47 42
21 46 41
21 46 41
21 44 39
16 35 31
35 38 30
43 43 31
47 44 32
39 23 10
42 23 11
45 24 12
22 22 18
11 24 23
12 29 27
15 34 32
19 43 39
21 46 42
22 47 42
22 48 43
22 47 43
22 47 43
22 48 43
22 48 43
23 50 45
22 49 44
22 49 44
23 50 45
22 49 44
22 48 44
22 49 44
22 49 44
23 49 45
22 48 44
23 50 46
22 49 44
22 47 43
22 48 43
22 48 44
22 48 43
23 50 45
22 48 44
22 49 44
22 48 43
22 48 43
22 49 44
22 48 44
22 48 44
22 48 43
22 49 44
22 47 43
22 47 43
22 47 42
21 46 42
21 46 41
21 45 40
20 44 39
20 42 38
18 38 33
20 23 20
33 34 25
37 38 27
36 38 27
29 33 24
17 25 21
11 26 24
13 30 28
13 30 28
14 33 31
16 36 34
19 42 39
20 44 40
21 46 42
21 46 42
21 47 43
22 48 43
21 46 42
21 47 43
21 47 42
21 47 43
22 48 44
22 47 43
22 49 44
23 50 45
23 50 45
23 50 45
23 50 45
22 49 44
23 50 45
22 49 44
22 49 44
23 50 45
23 49 45
23 50 45
22 48 44
22 49 44
22 48 44
23 49 45
22 48 44
22 49 44
22 49 44
22 49 44
23 50 45
22 48 44
22 48 44
22 49 44
23 50 45
22 49 44
22 49 44
23 49 44
22 49 44
23 49 44
22 49 44
24 51 46
22 47 43
22 48 43
22 49 44
23 50 45
22 48 43
22 48 43
22 49 44
22 48 42
22 47 42
21 46 41
21 45 39
19 41 36
13 29 27
10 18 15
19 21 15
25 16 11
13 15 12
8 17 16
10 23 22
13 30 28
16 35 32
20 43 39
21 45 41
22 47 42
22 48 43
22 48 44
23 49 45
22 47 43
23 49 44
23 49 44
22 49 44
22 49 44
23 49 44
23 49 45
22 49 44
22 48 43
22 49 45
22 48 44
23 49 45
22 49 44
22 49 44
22 48 44
22 48 43
22 48 43
23 49 45
22 49 45
22 48 44
23 50 46
22 49 45
22 47 43
22 49 44
22 47 43
22 48 44
22 48 43
22 48 44
22 48 43
22 48 44
21 47 42
21 46 42
22 47 42
22 46 42
22 46 41
21 44 39
21 44 39
21 44 39
19 39 35
15 32 28
12 26 23
11 24 22
10 23 21
11 26 24
13 29 27
14 32 29
16 35 33
17 38 35
19 42 38
21 46 42
22 47 43
21 46 42
21 47 42
22 47 43
22 48 44
22 48 44
21 47 43
22 48 44
22 49 44
22 47 43
22 48 44
22 49 44
22 49 44
23 50 45
23 50 45
23 50 45
23 49 44
23 50 45
22 49 44
23 50 45
22 49 44
22 49 44
23 50 45
23 49 44
22 49 44
22 49 44
22 49 44
22 48 43
23 49 44
23 49 45
22 49 44
23 51 46
23 50 45
23 49 45
23 49 45
22 49 44
22 49 44
23 49 45
23 50 45
22 48 44
23 50 45
22 48 44
23 51 46
23 50 45
23 49 45
22 48 43
22 49 44
22 48 43
22 48 43
23 50 45
22 47 43
22 47 43
22 47 42
21 45 40
21 45 40
20 43 38
19 40 35
16 35 31
16 34 31
17 36 32
18 39 35
19 41 37
20 43 38
22 46 41
21 46 41
21 46 41
22 48 43
22 48 43
22 49 44
23 49 44
22 48 43
22 47 43
22 48 44
23 50 46
22 48 44
22 48 44
22 49 44
22 49 44
23 49 45
22 49 44
22 49 44
22 48 44
22 49 44
22 48 44
22 48 44
22 47 43
23 49 45
22 49 44
22 48 43
22 48 44
22 49 44
22 49 44
21 47 42
22 49 44
22 48 43
22 49 44
22 48 44
22 48 43
21 47 42
21 47 42
22 48 43
22 48 43
22 48 43
22 48 43
22 47 43
21 46 41
21 45 41
21 46 41
20 43 38
21 45 40
20 44 39
20 43 38
20 43 38
20 43 38
20 44 39
20 44 40
21 47 42
21 45 41
21 46 41
21 46 41
21 47 42
22 47 43
21 47 42
21 47 43
22 47 43
22 48 43
21 47 43
21 47 43
21 47 43
22 48 43
22 48 44
22 49 44
23 50 45
23 50 45
23 49 45
23 50 45
22 48 43
22 48 44
22 49 44
22 48 44
23 50 45
23 50 46
23 51 46
23 49 45
23 50 45
23 51 46
22 49 44
22 49 44
23 49 44
22 49 44
22 49 44
22 49 44
23 50 45
23 50 45
23 50 45
23 49 45
22 49 44
23 49 44
23 50 45
22 49 44
22 49 44
23 50 45
23 50 45
23 49 44
22 49 44
22 48 44
22 49 44
23 49 44
22 49 44
23 49 45
22 48 43
22 48 43
22 48 43
22 47 42
22 47 42
22 47 42
22 47 42
21 45 40
21 45 40
22 47 42
21 46 41
21 46 41
22 47 42
22 47 42
22 47 42
21 46 41
22 48 43
22 48 43
22 49 44
22 48 44
23 50 45
22 48 44
22 49 44
23 49 44
22 48 43
22 49 44
23 51 46
22 49 44
23 49 45
22 48 44
22 48 44
22 49 44
22 47 43
22 48 43
22 49 45
22 49 44
22 49 44
23 50 45
23 50 45
22 48 43
22 49 45
22 47 43
22 48 43
22 48 44
22 49 44
22 48 44
21 47 43
22 47 43
22 49 45
22 49 44
22 47 43
21 46 42
22 48 43
21 46 42
22 47 43
22 47 43
22 47 42
21 46 41
22 47 42
22 47 42
21 45 40
21 46 41
21 45 41
21 46 42
21 47 42
22 47 43
21 47 42
21 46 42
21 47 42
22 48 43
22 49 44
22 47 43
21 46 42
21 47 42
21 46 42
22 48 43
21 47 43
22 48 44
22 49 44
22 47 43
22 48 43
23 50 45
22 49 44
23 50 45
23 50 45
23 50 45
23 50 45
23 51 46
23 49 44
22 48 44
23 50 45
23 49 44
22 49 44
23 50 45
23 49 44
23 50 45
23 50 45
23 50 45
23 50 45
22 49 44
22 48 44
23 49 44
22 49 44
23 50 45
23 50 45
24 52 46
22 49 44
23 50 45
23 50 45
23 49 45
22 49 44
22 48 44
23 50 45
23 50 45
23 50 45
22 48 44
23 50 45
23 50 45
22 49 44
23 49 44
22 48 43
22 47 43
22 48 44
22 49 44
22 48 43
22 47 42
22 48 43
22 48 43
22 48 43
22 48 43
22 48 43
23 49 44
22 48 43
22 49 44
23 49 44
22 47 42
23 49 44
22 48 44
22 48 43
23 50 45
23 50 45
22 48 44
22 48 44
22 49 44
23 50 45
22 49 45
22 48 44
23 50 45
22 48 43
23 51 46
23 50 45
22 48 44
22 49 44
22 49 44
23 49 45
22 49 44
22 48 44
22 49 44
22 49 44
23 49 45
23 50 45
22 48 44
22 48 44
22 48 44
22 48 44
22 48 44
22 49 44
22 48 43
22 49 44
22 49 44
22 48 43
22 48 43
22 48 43
22 47 42
21 47 42
22 48 44
22 47 42
22 47 43
22 48 44
22 48 43
22 47 42
22 47 42
22 47 42
22 48 43
22 47 42
22 47 43
22 47 43
22 48 43
22 48 44
22 48 43
22 47 43
22 47 43
22 47 43
21 47 43
22 47 43
22 48 44
22 48 44
22 48 44
22 47 43
21 47 43
21 47 43
22 49 44
22 49 44
23 49 45
22 49 44
23 50 45
22 49 44
23 51 46
23 49 45
23 51 46
23 50 45
23 50 45
23 51 46
22 49 44
22 49 44
24 52 47
22 49 44
22 49 44
23 50 45
22 48 43
23 50 45
23 50 45
23 50 45
22 49 44
22 49 44
22 48 44
23 50 46
23 51 46
23 50 45
22 49 44
23 49 45
22 48 43
23 50 45
23 49 44
22 48 43
23 50 45
23 51 46
22 48 43
22 48 43
22 49 44
23 50 45
23 50 45
22 49 44
23 49 44
23 50 45
23 49 44
22 47 42
23 49 44
22 49 44
23 49 44
22 48 44
22 49 44
23 50 45
23 49 44
22 48 44
22 47 42
22 48 43
23 49 45
22 48 43
23 49 44
23 50 45
22 49 44
22 49 44
22 49 44
22 49 44
22 49 44
22 49 44
22 48 43
22 49 44
22 48 44
23 50 45
22 47 43
22 49 44
22 48 44
22 49 44
23 49 45
23 49 45
22 48 44
22 49 44
22 49 44
22 48 44
22 48 44
22 49 44
22 49 44
22 48 43
21 47 42
22 48 44
22 49 44
22 48 44
22 49 44
22 48 43
23 50 45
22 48 43
21 47 42
21 46 42
21 47 42
22 48 43
22 47 43
22 47 42
22 48 43
22 48 44
22 47 43
21 46 42
22 47 43
22 48 44
22 48 43
21 47 42
22 47 43
22 48 44
22 48 43
21 47 43
22 47 43
21 47 43
22 48 43
22 47 43
21 47 42
21 47 43
21 47 43
22 48 44
21 47 42
22 48 43
22 49 44
23 50 45
23 49 45
22 49 44
22 49 44
22 49 44
23 50 45
22 49 44
23 50 45
23 51 46
22 49 45
23 50 45
23 49 45
22 49 44
22 49 44
22 49 44
23 50 45
24 51 46
23 50 45
22 49 44
22 49 44
23 50 45
22 49 44
22 49 44
23 49 45
23 50 45
22 48 44
23 50 45
23 50 45
23 50 45
23 51 46
23 50 46
22 49 44
23 49 44
22 49 44
22 48 44
22 48 44
22 48 43
22 49 44
22 49 44
23 49 44
23 51 46
23 49 44
23 49 44
23 49 44
22 48 44
23 50 45
22 49 44
23 51 46
22 49 44
22 49 44
23 49 45
23 50 45
22 49 44
22 49 44
22 49 44
22 49 44
22 48 44
22 48 43
23 49 45
22 49 44
23 50 46
23 49 45
23 50 45
23 51 46
22 49 44
22 48 44
22 49 44
22 48 43
22 48 44
22 49 44
22 47 43
22 48 44
22 48 43
22 49 44
22 47 43
23 51 46
22 48 44
22 48 44
22 49 44
22 48 44
22 48 44
22 48 43
22 49 44
22 48 43
22 48 43
22 48 44
22 48 43
22 47 43
22 48 43
22 48 44
23 49 45
23 50 45
22 48 43
22 48 43
22 48 44
22 49 44
22 48 43
22 49 44
22 48 43
22 49 45
21 47 43
21 47 43
22 49 44
22 48 44
22 48 43
22 48 43
22 48 43
22 47 43
22 49 44
22 48 43
22 48 44
22 49 44
22 49 44
22 48 43
22 48 43
22 47 43
22 48 44
21 47 43
22 48 44
23 50 45
23 50 45
22 49 44
23 50 45
23 49 45
23 51 46
22 49 44
23 51 46
23 50 45
23 49 45
23 50 45
23 51 46
23 50 45
23 50 45
23 50 46
23 50 45
23 50 45
23 49 45
23 50 46
22 49 44
22 49 44
23 50 45
23 49 44
23 50 45
23 49 45
24 52 47
22 49 44
23 50 45
23 50 45
23 50 45
23 49 44
22 48 44
22 49 44
23 49 44
24 51 46
23 50 45
23 50 45
23 50 45
23 50 45
23 50 45
22 49 44
23 49 44
23 49 44
23 50 46
23 50 45
23 51 46
23 50 45
23 50 45
22 47 43
23 50 45
22 48 44
23 50 45
23 49 44
22 49 44
23 49 45
22 48 43
23 49 45
22 49 44
22 48 44
22 49 44
22 49 44
22 48 44
23 50 46
23 49 44
22 49 44
23 50 45
23 50 45
22 49 44
22 49 44
22 48 43
23 50 46
23 50 45
22 49 44
23 49 45
22 49 44
22 49 44
22 49 44
22 48 43
22 49 44
22 49 44
22 49 45
22 48 43
22 48 44
23 50 45
22 48 44
22 48 44
22 48 44
22 49 44
22 48 43
21 47 42
22 48 44
22 48 44
22 48 44
22 48 43
22 48 44
22 48 44
22 47 43
22 48 43
22 48 44
22 48 44
22 48 44
22 49 44
22 48 43
22 48 43
22 48 43
22 48 43
22 47 43
22 47 43
22 48 44
22 49 44
22 48 43
22 47 43
22 47 43
22 48 44
22 48 44
21 47 42
22 47 43
21 47 43
22 47 43
22 49 44
23 50 45
23 51 46
23 50 45
22 48 44
23 50 45
24 51 46
23 49 45
23 50 45
23 50 45
23 51 46
23 50 45
22 49 44
22 49 44
23 50 45
23 50 45
23 50 45
23 49 45
23 49 44
23 51 46
23 50 45
23 50 45
23 49 44
23 50 45
23 50 45
22 49 44
24 52 47
23 49 45
23 51 46
23 50 45
22 49 44
23 50 45
23 50 45
23 50 45
23 49 44
23 49 45
23 49 44
23 50 45
23 50 45
23 50 45
23 50 46
23 51 46
24 51 46
22 49 44
23 50 45
23 51 46
22 48 44
23 50 45
23 50 45
22 49 44
22 49 44
22 49 44
22 49 44
23 50 45
21 47 42
23 50 45
23 49 44
23 50 45
22 49 44
22 49 44
23 51 46
23 51 46
23 51 46
22 49 44
23 50 45
23 50 45
22 49 44
22 49 44
22 49 44
22 48 43
22 47 43
22 48 43
22 49 44
23 50 45
22 49 44
22 48 44
22 48 44
22 49 44
22 48 43
23 51 46
23 49 45
23 50 45
23 50 45
22 49 44
22 49 44
22 48 43
22 49 45
22 48 44
22 48 43
22 49 44
22 47 43
22 48 44
22 49 44
22 49 45
22 49 44
22 47 43
22 48 44
22 48 43
22 48 43
22 47 43
22 49 44
22 49 44
22 49 44
22 48 44
22 48 43
22 48 44
22 48 44
22 48 44
22 49 44
22 48 44
22 48 44
22 48 44
21 46 42
22 48 44
22 49 44
22 48 43
22 47 43
21 47 43
21 47 43
22 48 44
21 47 43
23 51 46
23 50 45
22 49 44
23 50 45
22 49 44
22 49 44
23 50 45
23 50 46
23 50 45
22 49 44
23 51 46
22 48 43
23 49 44
22 49 44
23 50 45
23 50 45
24 52 47
24 51 46
23 49 45
23 51 46
23 50 45
23 51 46
23 50 45
22 49 44
23 50 45
23 50 45
23 50 45
23 50 45
23 50 45
23 50 45
23 50 45
23 51 46
22 48 43
22 49 44
23 50 46
24 51 46
23 50 45
23 50 45
23 50 45
23 50 45
23 50 45
23 51 46
23 50 45
23 50 45
23 50 46
23 50 45
22 48 44
22 49 44
23 49 45
23 50 45
22 48 43
23 50 45
23 49 44
23 50 45
22 49 44
23 51 46
23 49 45
23 50 45
22 48 44
22 48 43
23 50 45
23 49 45
23 49 45
22 49 44
23 50 45
23 49 45
23 50 45
22 49 44
22 49 44
23 50 45
22 49 44
23 51 46
22 48 44
23 50 45
22 49 45
22 49 44
22 49 45
21 47 42
24 51 47
22 47 43
22 48 44
22 48 43
22 49 44
23 50 46
22 49 44
22 47 43
22 49 44
22 49 44
23 50 45
22 49 44
22 48 44
22 48 43
22 47 43
22 49 44
22 49 44
23 50 45
22 49 44
22 49 44
22 47 43
22 48 43
22 48 44
22 48 43
23 50 45
22 49 44
22 48 44
22 49 44
22 48 43
22 48 44
22 48 43
22 48 43
22 48 43
22 48 43
21 47 43
21 47 43
22 48 44
22 48 44
21 47 43
21 47 43
22 48 43
22 48 44
23 51 46
23 50 45
23 50 45
22 49 44
23 49 44
23 49 45
22 49 44
24 52 47
22 48 44
23 51 46
24 52 47
23 50 46
22 49 44
23 50 45
23 51 46
23 50 45
23 51 46
23 50 45
23 51 46
23 50 45
23 50 45
23 50 45
23 50 45
23 50 45
23 50 45
22 49 44
24 51 46
22 49 44
22 49 44
23 51 46
23 50 45
23 50 45
23 49 44
22 49 44
23 50 45
23 50 45
23 50 45
22 48 44
23 49 45
23 50 45
23 49 44
23 49 44
23 49 45
23 49 44
23 51 46
23 50 45
23 49 44
22 49 44
23 50 45
23 51 46
22 49 44
23 50 45
23 50 45
23 50 45
22 49 44
22 48 43
22 49 44
22 48 44
22 48 44
23 49 44
22 48 44
23 50 45
23 50 45
22 49 44
23 51 46
22 48 44
23 50 45
22 49 44
23 49 45
23 50 45
23 50 45
23 50 45
23 49 45
23 49 45
22 49 44
23 50 45
23 50 46
22 49 44
22 49 44
22 49 44
22 49 44
22 49 44
22 47 43
23 49 45
23 49 45
22 49 45
22 48 43
22 48 44
22 49 44
22 49 44
22 49 44
23 49 45
22 49 44
22 49 45
22 49 44
22 48 43
22 48 44
22 48 43
22 47 43
22 48 44
21 47 42
22 47 43
22 48 44
22 48 44
22 49 44
22 49 44
22 49 44
23 50 45
21 47 42
22 48 43
22 49 44
22 49 45
21 47 43
22 49 45
22 48 44
21 47 43
21 46 42
22 48 43
21 47 43
21 46 42
23 50 45
23 50 46
23 50 45
22 49 44
22 49 44
23 51 46
23 50 45
23 51 46
23 50 45
23 50 45
23 49 44
23 51 46
23 49 45
23 51 46
23 50 45
22 49 44
23 50 45
23 50 45
23 50 45
23 50 45
22 48 43
23 50 45
23 50 45
23 50 45
23 49 44
23 49 44
23 51 46
23 50 45
23 49 44
24 51 46
23 51 46
23 50 45
22 49 44
23 50 45
22 48 44
23 50 45
23 51 46
24 51 46
23 51 46
23 50 45
23 50 45
23 50 45
22 49 44
23 51 46
22 49 44
22 48 44
23 50 45
22 49 44
22 49 44
23 50 45
23 50 45
23 50 46
23 50 45
22 49 45
23 49 45
23 50 45
23 49 45
23 49 44
23 51 46
22 49 44
22 48 44
22 49 44
22 48 44
22 49 44
23 49 45
22 49 44
23 50 45
22 49 44
22 48 43
22 49 44
22 48 44
22 49 44
22 49 44
23 50 45
22 48 44
23 50 45
22 49 44
22 47 43
22 48 43
22 48 44
21 47 42
22 49 45
22 49 44
22 49 45
22 48 43
22 47 43
22 48 44
23 49 45
22 49 44
22 49 44
22 49 44
21 47 42
22 48 44
23 50 45
22 48 44
22 49 44
23 50 45
22 49 44
22 48 43
22 48 43
22 48 43
22 48 44
22 49 44
22 48 43
21 47 43
22 47 43
22 48 44
22 48 43
22 48 44
22 47 43
22 47 43
22 48 43
22 49 44
22 49 45
21 47 43
22 49 44
22 49 44
22 48 44
22 48 44
22 49 44
