P3
120 80
255
18 40 38
18 41 38
18 40 38
18 41 38
18 41 38
18 41 38
18 41 38
18 41 38
18 40 37
18 41 38
18 40 38
18 42 39
18 41 39
18 41 38
18 41 39
18 40 38
18 41 38
18 40 37
18 41 38
18 41 38
18 41 38
18 40 37
18 40 37
18 40 38
18 41 38
19 42 39
18 41 39
18 40 37
18 41 38
18 41 38
18 41 38
18 41 38
18 41 38
18 40 38
18 41 38
18 40 38
18 41 38
18 41 38
18 41 38
18 41 38
18 42 39
19 42 39
18 42 39
18 42 39
18 40 38
18 42 39
19 42 39
19 42 39
18 41 39
18 41 38
19 42 39
18 41 38
19 42 39
18 42 39
18 41 39
18 42 39
19 42 39
18 41 38
18 41 39
19 42 39
18 41 38
19 42 39
18 41 38
18 42 39
18 41 38
19 42 39
18 41 39
18 41 38
18 41 39
18 42 39
19 43 40
18 41 38
18 41 39
18 41 38
18 42 39
18 42 39
18 42 39
18 41 38
18 41 39
19 42 39
18 41 39
19 43 40
18 41 38
18 40 38
18 41 38
18 41 38
19 42 39
19 42 39
19 42 39
18 42 39
19 42 39
18 41 38
18 41 39
18 41 39
19 42 39
18 41 38
18 41 38
18 41 39
19 42 39
18 41 38
18 42 39
18 41 38
18 41 39
18 41 38
18 41 39
18 41 39
18 41 39
18 42 39
18 42 39
19 42 39
18 41 38
19 43 40
19 42 39
18 42 39
19 42 39
18 42 39
19 42 39
19 42 39
19 42 39
18 41 38
18 41 39
18 41 38
18 41 38
18 41 38
18 41 38
18 41 39
18 41 38
18 41 38
18 41 38
18 41 38
19 42 39
18 40 38
18 41 39
19 42 39
18 40 38
18 41 39
18 41 38
18 42 39
19 43 40
19 42 39
19 42 39
18 41 38
19 42 39
18 42 39
18 41 39
18 42 39
19 42 39
18 41 38
19 42 39
18 41 38
19 42 39
18 41 38
18 41 38
19 42 39
18 41 38
18 41 38
18 41 39
19 42 39
19 42 39
19 42 39
18 41 38
18 40 38
19 42 39
18 40 37
18 41 38
19 43 40
19 42 39
19 42 39
19 42 39
19 42 39
19 42 39
18 42 39
19 43 40
19 42 39
19 42 39
18 41 38
19 43 40
18 41 38
18 41 38
19 42 39
18 41 38
19 42 39
19 42 39
19 42 39
19 43 40
19 43 40
18 41 38
19 42 39
19 42 39
19 43 40
18 42 39
19 42 39
19 42 39
18 41 39
18 41 39
19 43 40
19 42 39
19 42 39
19 42 39
19 42 39
19 42 39
19 43 40
19 42 39
19 42 39
19 42 39
18 41 39
19 42 39
19 42 39
18 42 39
18 41 38
19 42 39
18 41 38
18 41 38
19 43 40
19 43 40
19 42 39
19 43 40
19 43 40
19 42 39
19 42 39
18 40 37
18 41 38
19 42 39
18 41 38
19 42 39
18 41 38
18 41 39
19 43 40
19 43 40
19 42 39
19 42 39
19 43 39
19 43 40
19 42 39
19 42 39
19 42 39
19 42 39
18 41 38
19 42 39
19 43 40
18 41 38
18 42 39
19 42 39
18 41 38
19 42 39
18 42 39
19 42 39
19 42 39
19 42 39
19 42 39
19 42 39
18 41 38
19 42 39
19 43 40
19 42 39
18 42 39
18 42 39
19 43 40
18 41 39
18 42 39
19 42 39
19 43 40
19 42 39
19 42 39
18 41 38
19 42 39
18 41 38
19 42 39
19 42 40
19 42 39
18 42 39
19 42 39
18 42 39
18 42 39
19 42 39
19 42 39
19 42 39
19 42 39
19 42 39
19 42 39
18 41 38
19 43 40
19 44 40
19 43 40
19 42 39
19 42 39
19 42 39
18 42 39
19 43 40
19 42 39
19 42 39
19 43 40
19 42 39
19 42 39
19 43 40
19 42 39
19 43 39
19 42 39
20 44 41
19 43 40
19 43 40
19 42 39
19 43 40
19 43 40
19 43 40
19 42 39
19 43 40
19 42 39
19 42 39
19 43 40
19 42 39
19 42 39
19 42 39
19 42 39
19 42 39
19 43 40
20 44 41
19 42 39
19 42 39
19 42 39
19 42 39
19 43 40
19 42 39
19 43 40
19 42 39
19 42 39
19 43 40
19 43 40
19 43 39
19 43 40
19 42 39
19 43 40
19 43 40
19 43 40
19 43 40
19 42 39
19 42 39
19 42 39
19 42 39
19 43 40
19 43 40
19 42 39
19 42 39
19 42 39
19 43 40
18 42 39
19 42 39
19 42 39
19 43 40
19 43 39
19 43 40
19 43 40
18 41 39
19 42 39
19 42 39
19 42 39
19 43 40
19 42 39
18 41 38
19 43 40
19 42 39
19 42 39
18 41 38
18 41 39
18 41 38
18 41 38
18 42 39
18 41 38
19 43 40
19 43 40
19 42 40
19 42 39
19 42 39
19 42 39
19 43 40
19 43 40
19 42 39
19 42 39
19 42 39
19 43 40
20 44 41
19 42 39
19 42 39
19 42 39
19 42 39
19 42 39
19 43 40
19 43 40
19 43 40
19 43 40
19 42 38
19 43 40
19 42 39
19 43 40
19 42 39
19 43 39
19 43 40
19 42 39
19 42 39
19 44 40
19 43 40
19 43 40
19 42 39
19 43 40
19 43 40
19 43 40
19 43 40
19 43 40
19 42 39
19 43 40
19 43 40
19 42 39
20 44 41
19 43 39
20 44 41
19 42 39
19 43 39
19 42 39
20 44 40
19 43 40
20 44 41
19 43 39
19 43 40
19 43 39
19 42 39
19 43 40
19 43 40
19 43 40
19 43 40
19 43 40
20 44 40
19 43 40
19 43 40
19 43 39
20 44 41
19 43 39
19 44 40
19 43 40
19 42 39
20 44 41
19 42 39
19 43 39
19 43 40
19 42 39
19 43 40
19 43 40
19 43 39
19 43 40
19 43 40
20 44 41
19 42 39
20 44 40
19 43 40
19 43 40
19 43 40
19 43 40
19 43 40
19 43 40
19 43 40
19 43 40
19 43 40
19 43 40
19 42 39
19 43 40
19 42 39
19 43 40
19 43 40
19 44 40
19 42 39
20 44 41
19 43 40
19 43 40
19 43 40
19 43 40
19 42 39
19 43 39
19 43 40
19 43 40
19 43 40
19 43 40
19 42 39
19 42 39
19 42 39
19 42 39
19 43 40
19 42 39
19 42 39
19 42 39
19 42 39
19 43 40
19 42 39
19 42 39
19 42 39
19 43 39
18 41 38
19 43 40
19 42 39
19 42 39
19 43 40
19 42 39
19 43 40
19 43 40
19 42 39
20 44 41
19 43 40
19 43 39
19 43 40
19 43 39
19 43 39
19 43 40
20 44 41
19 42 39
19 43 40
19 44 40
19 43 40
19 43 40
20 44 41
19 43 40
19 43 40
19 44 40
19 42 39
19 43 40
19 43 40
19 43 40
19 43 40
19 43 40
19 44 40
19 43 40
20 43 40
20 44 41
19 43 40
19 42 39
20 44 41
20 44 40
19 43 40
19 43 40
20 44 40
20 44 41
20 44 40
20 44 40
20 44 41
20 44 40
20 44 40
19 43 40
19 43 39
20 44 40
20 44 40
20 44 41
20 44 41
20 44 41
20 44 41
19 43 40
19 43 40
20 45 41
20 44 40
19 43 40
19 43 40
20 44 40
20 44 41
20 44 40
19 44 40
20 44 40
19 43 40
20 44 41
19 43 40
19 43 40
20 44 40
19 43 40
20 44 41
20 44 41
20 44 41
19 43 39
19 43 40
20 44 41
20 44 41
19 43 40
20 44 40
19 43 40
20 44 40
20 44 41
20 44 41
20 44 41
20 44 41
20 44 41
19 43 40
20 44 41
19 43 39
19 43 40
20 44 41
20 44 40
19 43 40
19 43 40
19 43 40
19 43 40
19 43 40
19 43 40
20 44 41
19 43 40
19 44 40
19 43 40
19 43 40
19 42 39
19 43 40
19 43 40
19 42 39
19 42 39
19 43 40
19 43 40
19 43 40
19 43 39
19 42 39
20 44 41
19 43 40
19 43 39
19 43 40
19 42 39
19 44 40
19 43 39
19 43 40
20 44 41
20 44 40
19 42 39
19 43 40
20 44 41
19 43 40
19 44 40
19 43 40
19 43 40
19 43 40
19 43 40
19 43 40
19 43 39
20 44 41
19 43 40
20 44 41
19 43 40
20 44 41
20 44 40
19 44 40
20 44 40
20 45 41
20 44 41
19 43 40
19 43 40
20 44 40
20 45 41
20 44 41
20 44 40
20 44 41
20 45 41
19 43 40
20 44 40
20 44 40
20 44 41
20 44 41
20 44 41
20 44 41
19 43 40
20 44 41
20 44 41
20 45 41
20 44 40
20 45 41
20 44 40
20 44 40
19 43 39
20 46 42
20 45 41
20 45 41
19 43 40
20 44 41
20 44 41
20 44 41
20 45 41
20 45 41
20 45 41
19 42 39
20 44 40
20 45 42
20 44 40
20 44 40
20 45 42
20 45 41
21 46 42
20 44 40
20 44 40
20 45 41
19 43 40
20 44 41
20 44 40
20 44 40
20 45 42
20 45 41
20 44 40
20 44 41
20 45 41
20 44 40
20 45 41
20 44 40
20 44 40
20 44 41
19 43 40
20 44 41
20 45 41
19 43 39
20 45 41
20 44 40
20 44 41
20 44 41
19 43 40
20 45 41
20 44 41
19 43 40
20 44 41
19 43 40
20 44 41
19 44 40
20 44 40
20 44 41
19 43 40
19 43 39
19 43 40
19 43 40
20 45 41
19 43 39
19 44 40
19 43 40
19 43 40
19 42 39
19 43 39
20 44 40
19 43 40
20 44 40
20 45 42
20 44 41
19 43 40
19 43 40
20 44 40
20 44 41
19 43 40
20 44 41
20 44 41
20 44 41
20 45 41
20 44 40
20 44 40
20 44 40
20 44 40
20 45 41
20 44 40
20 44 41
20 45 41
20 44 40
20 45 41
20 44 41
20 44 41
20 45 42
20 45 41
20 45 41
20 44 40
20 45 41
20 44 41
20 45 41
20 45 41
20 44 40
19 43 40
20 45 42
19 43 40
20 45 41
20 44 40
21 46 42
20 44 41
20 45 41
19 43 40
20 45 41
20 45 41
20 44 41
20 45 41
20 45 41
20 44 40
21 46 42
20 45 41
20 45 41
20 45 41
20 44 40
20 45 41
20 46 42
20 45 42
20 45 41
20 45 41
20 45 42
20 44 41
20 44 41
20 44 41
20 44 40
21 46 42
20 44 40
20 44 40
20 44 41
20 44 41
20 45 41
20 45 41
20 45 41
20 44 41
20 44 40
20 45 41
20 45 41
20 45 41
20 45 41
20 45 41
21 46 42
20 44 40
21 46 42
20 45 41
20 44 40
20 45 42
20 45 41
20 45 42
19 43 40
21 46 42
20 45 41
20 44 40
20 45 42
20 44 41
20 45 41
20 45 41
20 44 41
21 46 42
20 44 41
20 45 41
20 44 41
20 44 40
19 43 40
20 44 40
20 44 40
19 43 40
20 45 42
20 45 42
20 44 41
20 45 42
19 44 40
19 43 40
19 43 39
20 44 40
20 44 40
20 45 41
20 44 41
19 43 40
20 44 40
20 44 41
20 44 40
19 43 40
20 44 40
20 44 41
20 44 40
20 45 41
20 44 40
20 44 40
20 44 40
20 44 40
20 44 40
20 44 41
20 44 40
20 45 41
20 45 41
20 44 40
20 45 41
20 44 40
20 44 41
19 43 40
19 43 40
20 45 41
20 44 40
20 44 40
20 45 41
20 44 40
20 45 41
21 46 42
20 44 40
20 44 40
21 46 42
20 45 42
20 44 40
20 44 41
20 45 41
20 46 42
20 45 42
21 46 42
20 44 40
20 44 41
20 44 41
21 46 42
20 45 41
21 46 42
20 45 42
20 45 41
20 45 42
21 46 42
20 44 40
20 45 41
21 46 42
20 45 41
21 45 42
20 44 40
20 45 42
20 44 41
20 45 41
21 46 42
20 45 41
21 46 42
20 45 41
21 46 42
21 46 42
20 45 41
20 45 42
21 46 42
21 46 42
21 46 42
20 45 41
20 45 41
21 46 42
21 46 42
20 45 41
20 45 42
20 45 42
20 45 41
20 45 42
20 45 41
21 46 42
20 45 42
21 46 42
20 45 41
20 45 41
21 46 42
20 45 41
20 45 41
21 46 42
20 45 41
20 45 41
21 46 42
21 46 42
20 45 41
20 45 42
20 45 41
20 45 41
20 45 42
20 46 42
20 45 42
21 46 42
20 44 41
20 45 42
20 45 42
20 45 42
20 45 41
20 45 41
20 45 41
21 46 42
20 45 41
20 44 41
20 45 41
20 44 41
20 44 41
20 44 40
19 43 40
20 44 41
20 45 41
20 44 40
20 44 41
20 44 41
20 45 42
20 44 41
20 44 40
20 45 41
20 44 41
20 43 40
20 44 40
20 44 41
20 45 41
20 44 41
20 45 42
20 45 42
20 45 41
21 46 42
20 44 40
20 45 42
20 44 40
20 45 41
20 45 42
21 46 42
20 45 41
20 44 41
20 45 42
20 45 42
20 45 42
20 44 40
20 44 41
20 44 41
20 45 41
21 46 42
20 45 41
21 46 42
20 45 41
21 45 42
20 45 41
21 46 42
20 45 41
21 46 42
21 46 42
20 45 41
21 46 42
21 46 42
20 45 42
21 46 43
21 47 43
21 47 43
21 45 42
20 45 41
21 46 42
20 45 41
21 46 42
21 46 42
21 45 42
20 45 41
21 46 42
21 46 42
21 46 42
20 45 41
20 45 41
20 45 41
21 46 42
20 45 41
21 47 43
21 46 42
21 47 43
20 45 41
21 47 43
21 47 43
21 46 42
21 47 43
21 46 42
21 46 42
21 45 42
21 45 41
21 46 42
21 46 42
21 46 42
21 46 42
21 46 42
21 46 42
21 46 42
21 46 42
21 46 42
20 45 41
21 46 42
21 46 42
21 46 42
21 46 42
21 47 43
21 47 43
21 46 42
21 46 42
21 46 42
21 46 42
21 47 43
21 46 42
21 46 42
21 46 42
21 46 43
21 46 42
21 46 42
21 46 42
20 45 41
21 46 42
20 45 41
21 46 42
21 46 42
21 46 43
20 45 41
20 45 41
20 45 42
20 44 40
20 44 41
19 43 40
20 44 41
20 44 41
21 46 42
20 44 40
20 45 41
20 44 40
20 44 41
20 45 41
21 47 43
20 45 41
20 45 41
20 45 41
20 45 42
20 44 40
20 44 41
20 45 41
20 45 41
20 45 42
20 46 42
20 44 41
20 45 42
21 46 42
20 45 41
20 45 41
21 46 42
21 45 42
21 47 43
21 46 42
21 47 43
21 47 43
20 45 41
21 46 42
21 46 42
21 46 42
20 45 41
20 45 42
21 46 42
21 45 42
21 46 42
21 46 42
21 45 41
21 46 42
21 46 42
21 46 42
21 46 42
21 47 43
22 48 43
21 46 42
21 46 42
21 46 42
21 46 42
21 46 42
21 47 43
21 46 42
22 48 43
21 47 43
21 46 42
21 46 42
21 46 42
21 46 42
21 47 43
21 46 42
21 46 42
21 46 42
21 47 43
20 45 41
21 46 42
21 47 43
22 48 43
21 46 42
21 46 42
22 48 44
21 47 42
21 47 43
21 45 41
21 47 43
21 47 43
21 46 42
22 48 44
21 46 42
21 47 43
21 46 42
21 47 43
21 47 43
21 47 43
21 47 43
21 47 43
21 47 43
21 46 42
21 47 43
22 48 43
22 48 43
21 47 43
21 45 41
21 47 43
21 46 42
21 47 43
21 47 42
21 46 42
21 47 43
21 45 41
21 46 42
21 47 43
21 46 42
20 45 41
21 47 43
21 47 43
21 47 42
21 47 43
21 47 43
21 46 42
21 46 43
20 45 41
20 45 41
21 47 43
21 46 42
21 47 43
20 45 41
20 44 41
20 45 41
20 45 41
20 45 41
20 44 40
21 46 42
20 45 41
21 46 42
20 45 41
21 46 42
20 45 41
20 44 41
20 45 41
20 46 42
21 46 42
20 45 41
21 45 42
20 45 41
21 46 42
20 45 42
20 45 41
20 45 41
21 45 42
21 46 42
21 46 42
21 46 42
20 45 41
21 46 42
21 46 42
20 45 42
21 47 43
20 45 42
21 46 42
20 45 41
21 47 43
21 46 42
21 47 43
21 47 43
20 45 41
21 47 43
21 47 43
21 47 43
21 46 42
21 47 43
21 46 42
21 47 42
21 47 43
21 47 43
21 46 42
21 46 42
21 46 42
21 47 43
21 47 43
21 47 43
21 46 42
21 46 42
21 47 43
21 46 42
21 47 43
22 48 44
22 48 43
22 48 44
22 48 44
22 48 43
21 46 42
22 47 43
22 47 43
22 48 44
21 47 43
21 47 42
21 47 43
21 47 43
21 47 43
22 48 43
21 47 43
21 46 42
21 47 43
21 47 43
22 48 44
21 47 43
21 47 43
21 47 43
22 48 44
22 47 43
21 47 43
22 48 44
22 48 43
21 47 43
22 48 44
21 47 43
22 48 44
22 49 44
21 46 42
22 48 44
21 47 43
22 48 44
21 47 43
21 47 43
21 47 43
22 48 43
22 47 43
21 47 43
21 47 43
21 46 42
21 46 42
21 47 43
22 48 44
21 46 42
21 47 43
21 46 42
21 46 42
21 47 43
21 46 42
21 47 43
21 47 43
21 46 42
22 48 44
21 46 42
21 46 42
20 45 42
20 45 41
20 45 41
20 45 42
20 45 41
21 46 42
20 44 40
21 46 42
20 45 41
20 44 40
21 46 42
20 45 41
21 46 42
20 45 41
20 45 41
21 46 42
21 46 42
21 47 43
21 46 42
21 46 42
21 46 43
20 45 41
21 46 42
21 47 43
21 47 43
21 47 43
21 46 42
21 46 42
21 46 42
21 46 42
21 46 42
20 45 41
21 47 43
21 47 43
21 46 42
21 46 42
21 46 42
20 45 41
21 47 43
21 46 42
21 46 42
21 47 43
21 47 43
21 47 43
21 46 42
21 47 43
21 45 41
22 48 44
21 47 43
22 48 43
22 48 43
21 47 43
22 48 44
21 47 43
22 48 43
21 47 42
21 47 43
21 47 43
22 48 43
22 48 43
21 47 43
22 48 44
22 48 44
22 48 44
22 47 43
21 46 42
22 48 43
22 48 43
21 47 42
22 48 43
21 47 43
22 48 44
21 47 43
22 47 43
22 48 44
22 48 43
22 48 44
21 46 42
22 47 43
22 49 44
22 49 44
21 47 43
23 50 45
22 48 43
22 47 43
22 49 45
22 48 43
22 48 43
22 48 44
21 47 43
22 48 44
21 47 43
22 48 43
22 48 43
22 48 44
22 49 45
22 49 44
22 48 44
21 47 42
22 48 44
22 48 44
21 47 43
21 47 43
21 47 42
21 47 43
21 47 43
22 48 44
22 48 43
21 47 43
22 48 44
22 48 43
22 48 44
21 47 43
21 47 43
22 48 43
21 46 42
21 47 42
21 47 43
21 47 42
22 47 43
21 46 42
20 45 41
20 45 41
21 46 42
20 45 41
21 46 42
20 44 41
21 46 42
21 46 42
21 46 42
20 45 41
21 46 42
21 46 42
21 46 42
20 45 41
21 46 42
21 46 42
21 47 43
21 46 42
21 46 42
21 46 43
21 46 42
21 47 43
21 47 43
21 47 43
21 46 42
21 46 42
21 46 42
21 46 42
21 46 42
21 46 42
21 47 43
21 46 42
21 46 42
21 47 43
21 46 42
21 47 43
21 47 43
22 48 43
22 48 44
21 46 42
21 47 43
22 48 44
22 48 43
21 47 43
22 48 44
22 47 43
22 48 44
22 48 44
22 48 44
22 48 43
22 47 43
21 46 42
22 47 43
22 47 43
21 47 43
21 46 42
22 48 44
22 48 44
22 48 43
22 48 44
22 48 44
22 47 43
22 47 43
22 49 44
22 48 43
22 48 44
21 47 43
21 47 43
22 48 44
22 49 44
21 47 43
21 47 43
22 49 44
21 47 43
22 49 44
22 49 44
22 48 44
22 48 44
22 48 44
22 49 44
22 48 44
22 48 43
22 49 45
22 48 44
22 49 44
22 49 45
22 48 44
22 48 44
22 49 45
22 48 44
21 47 43
23 49 45
22 48 43
23 50 45
22 49 44
22 48 44
22 48 44
22 49 44
22 47 43
22 49 45
22 49 45
22 48 44
22 48 44
21 47 43
22 48 44
22 49 45
22 49 44
22 49 44
22 48 43
22 49 44
22 48 43
21 47 43
22 47 43
22 48 43
22 48 43
22 48 44
21 47 43
21 47 43
22 48 43
21 46 42
20 45 41
21 46 42
20 45 41
20 45 42
21 46 42
21 46 42
20 45 41
21 45 42
21 46 42
21 46 42
21 46 42
21 46 42
21 46 42
21 46 42
21 47 43
21 46 42
21 47 43
21 46 42
21 46 42
20 45 41
21 47 43
21 46 42
21 47 43
22 48 44
21 46 42
21 47 43
21 47 43
22 48 44
21 47 43
21 46 42
22 48 43
21 47 43
21 45 41
21 46 42
21 47 43
22 48 44
22 48 43
22 48 44
22 48 44
21 47 42
22 47 43
22 49 44
21 47 43
22 47 43
22 48 43
22 48 43
22 48 43
21 47 42
22 48 43
22 49 44
22 48 44
22 47 43
22 48 43
22 48 44
22 48 43
22 49 44
22 49 44
22 48 43
23 50 46
22 49 44
22 49 45
22 48 43
22 49 45
22 48 44
22 49 44
22 48 44
23 50 45
22 49 44
22 47 43
22 49 44
22 48 43
22 49 45
22 48 44
23 50 45
22 48 44
22 48 44
22 48 44
23 50 45
22 49 45
22 49 44
22 49 45
22 48 44
22 49 44
22 48 43
23 49 45
22 49 44
22 49 44
22 49 44
22 49 45
22 48 44
22 48 43
22 49 44
23 50 45
22 49 44
22 49 44
22 49 44
23 50 45
22 49 44
22 48 43
22 49 45
22 49 44
23 49 45
22 48 44
23 50 45
22 48 44
23 50 45
22 49 44
22 49 44
22 49 45
22 49 44
22 49 45
22 49 44
22 48 44
22 49 45
22 49 44
22 48 44
22 49 45
22 49 45
22 48 43
20 45 41
21 46 42
21 47 43
21 46 42
21 46 42
21 46 42
21 47 43
21 47 43
20 45 41
22 48 43
21 46 42
21 47 43
21 46 42
21 46 42
21 46 42
21 46 42
21 46 42
21 47 43
21 47 43
21 47 43
21 46 42
21 47 42
21 47 43
21 47 43
22 48 44
21 47 43
21 46 42
21 46 42
22 48 43
22 48 44
21 47 42
22 48 43
21 47 42
21 47 43
22 49 44
21 47 43
22 48 43
22 48 44
22 48 44
22 47 43
22 48 44
22 48 43
22 49 45
23 49 45
21 47 43
22 48 44
22 49 44
22 48 43
22 48 44
22 49 44
22 48 44
22 49 44
22 48 44
22 49 44
23 50 45
22 48 44
22 49 44
22 49 45
22 49 45
22 48 44
22 48 43
22 49 44
23 50 45
22 49 44
22 48 44
22 49 44
23 49 45
22 49 44
22 49 45
22 48 44
22 48 43
23 50 45
22 49 45
22 48 43
22 49 44
23 50 45
21 47 42
22 48 44
23 49 45
23 49 44
22 49 44
22 49 44
23 50 45
23 50 45
23 50 45
23 50 45
23 49 45
23 50 45
23 49 45
22 49 44
22 49 44
23 50 45
23 49 45
22 48 43
22 49 45
23 50 46
22 49 44
22 49 44
22 49 44
22 49 44
23 50 45
23 50 45
22 48 44
22 48 44
23 49 45
22 49 44
22 48 44
22 49 44
22 49 44
22 49 44
22 49 45
22 49 44
22 49 44
23 49 45
22 48 44
22 48 44
22 48 43
21 47 43
22 48 44
23 49 45
21 47 43
20 45 41
21 46 42
21 46 42
22 48 44
21 46 42
21 47 43
21 46 42
21 46 42
21 47 43
20 44 41
21 47 43
21 47 43
21 46 42
22 48 44
21 46 42
21 46 42
21 47 43
21 47 43
22 47 43
22 48 43
21 47 42
21 47 43
21 47 43
22 47 43
22 47 43
22 48 43
21 47 43
22 48 43
22 48 44
21 47 43
22 49 45
22 48 44
21 46 42
22 48 43
22 48 43
22 48 44
22 48 43
22 48 43
22 48 44
22 47 43
22 48 44
22 48 43
22 47 43
22 48 44
23 50 45
22 49 44
22 48 44
22 48 44
22 48 44
22 48 43
22 48 44
22 49 44
23 50 45
23 50 46
22 48 44
22 48 44
23 50 45
23 50 45
22 48 44
22 48 44
23 50 45
23 50 46
22 49 44
21 47 42
22 48 44
23 50 45
22 49 44
23 50 45
23 49 44
23 50 46
22 49 44
23 49 45
22 49 44
23 49 44
23 49 45
23 49 45
23 50 45
23 50 45
22 49 44
22 48 43
22 49 45
23 51 46
23 51 46
23 50 45
23 50 45
22 48 44
23 49 45
23 50 45
23 51 46
23 49 45
22 49 44
23 50 45
23 50 45
22 49 44
22 49 44
23 50 45
23 50 45
23 49 45
23 51 46
23 50 45
23 50 45
22 49 44
23 50 45
23 51 46
23 49 45
23 50 45
23 50 45
23 50 45
23 49 45
23 50 45
22 48 43
22 49 44
22 49 44
23 50 45
22 48 44
23 49 45
22 49 45
22 49 44
23 50 45
21 47 43
21 46 42
21 46 42
21 47 43
21 46 42
21 47 43
21 47 43
21 46 42
21 45 41
21 47 43
21 46 42
22 48 44
21 47 43
21 47 43
21 47 43
21 46 42
22 47 43
21 47 43
22 48 43
21 47 43
22 48 43
22 47 43
21 47 43
22 48 43
21 47 43
21 47 43
22 49 44
21 46 42
21 47 42
22 48 43
22 48 44
22 48 44
22 48 43
22 48 44
22 48 44
22 48 44
22 49 44
23 49 45
23 50 45
22 48 44
22 49 44
22 49 44
22 48 43
23 50 45
22 49 45
22 48 43
22 48 44
23 50 46
22 49 44
23 50 45
22 49 44
23 49 45
22 49 44
22 49 44
23 50 45
22 49 44
22 49 44
23 50 45
22 49 44
23 49 45
23 49 45
22 49 44
23 50 45
22 49 44
23 50 45
23 50 45
22 48 44
23 50 45
23 50 45
22 49 44
23 50 45
23 50 46
23 50 45
23 49 45
22 49 44
22 49 44
23 50 45
23 50 45
23 50 45
22 49 44
23 50 45
23 50 45
23 51 46
23 50 45
23 51 46
22 49 44
23 50 45
23 51 46
22 49 44
23 50 45
23 50 45
23 50 45
23 50 45
22 49 44
23 51 46
23 50 45
23 50 45
23 49 45
22 49 44
23 50 46
23 51 46
23 49 44
23 49 45
23 50 45
22 49 44
23 51 46
23 49 45
23 51 46
23 50 45
22 49 44
23 49 45
23 51 46
22 49 44
23 50 45
22 49 44
23 49 45
22 49 44
23 50 45
23 50 45
23 51 46
21 46 42
21 47 43
22 48 43
21 46 42
21 46 42
21 47 43
20 45 41
21 46 42
21 46 42
21 46 42
22 48 43
22 48 44
22 48 43
21 47 43
21 47 43
22 48 43
21 47 43
22 48 43
21 47 42
22 48 44
22 48 44
21 47 43
21 47 43
22 48 43
22 47 43
22 49 45
22 48 44
22 48 43
22 48 44
22 48 44
22 48 44
22 48 44
22 48 43
22 48 43
21 47 43
23 49 45
22 49 45
22 49 45
22 49 45
22 48 44
22 48 43
22 48 44
22 48 43
22 49 44
23 50 45
23 50 45
23 50 45
22 49 45
22 47 43
23 49 45
23 50 45
23 51 46
22 49 44
22 49 44
23 51 46
23 49 45
22 49 44
22 49 44
24 51 47
23 50 45
22 49 44
23 50 45
22 49 44
23 51 46
22 48 44
23 50 45
23 50 45
23 51 46
23 51 46
23 50 45
23 50 45
23 50 45
23 50 45
23 51 46
23 50 45
23 50 45
23 51 46
23 49 45
23 50 45
23 51 46
23 49 45
24 51 46
23 50 45
23 51 46
23 49 45
23 51 46
23 49 45
22 49 44
23 50 45
23 51 46
23 51 46
23 51 46
23 50 46
23 51 46
22 49 44
23 50 45
23 50 45
23 50 45
23 50 45
23 50 45
23 50 45
23 50 45
23 51 46
23 50 45
23 50 45
23 50 45
23 50 45
23 50 45
23 50 46
23 49 45
23 51 46
23 50 45
23 49 44
23 49 44
22 49 44
23 49 44
23 50 46
23 50 45
22 49 44
23 50 45
21 47 43
21 46 42
22 48 44
21 47 43
21 46 42
21 47 43
21 47 42
21 47 42
21 47 43
22 47 43
22 48 43
21 47 43
21 47 43
22 47 43
21 47 43
22 48 44
22 48 44
21 47 42
22 47 43
22 48 44
21 47 42
21 47 43
22 48 43
22 48 43
22 48 44
22 48 44
22 48 44
22 49 44
22 48 44
22 49 44
22 48 43
22 48 43
22 48 44
22 49 44
22 48 44
22 49 44
23 50 45
22 49 44
21 47 43
22 49 45
22 49 45
22 48 44
22 48 44
22 49 44
23 50 45
23 49 45
22 48 44
23 50 45
22 49 44
22 48 43
23 49 45
23 50 46
22 49 44
23 50 45
23 50 45
22 49 44
23 50 45
22 49 44
23 50 45
23 50 45
22 49 44
23 50 45
23 51 46
23 50 45
23 50 45
23 50 45
23 50 45
23 49 44
24 51 46
23 50 45
23 50 45
23 51 46
23 49 45
23 49 45
23 51 46
23 50 45
23 51 46
23 50 45
23 50 45
24 52 47
23 50 45
23 49 44
22 49 44
23 50 45
23 51 46
23 51 46
23 50 46
23 50 45
23 51 46
23 49 45
23 50 45
23 50 45
23 50 45
23 50 45
23 49 45
23 51 46
23 51 46
23 50 45
23 50 46
23 51 46
23 50 45
23 51 46
23 50 45
23 50 45
23 50 45
23 51 46
23 50 45
23 51 46
23 50 45
23 50 45
23 49 45
22 49 44
22 49 44
22 49 44
22 49 44
23 50 45
22 49 44
22 49 44
23 51 46
23 50 45
21 47 43
21 47 43
21 47 43
21 47 43
21 47 43
21 46 42
22 48 44
21 46 42
21 46 42
21 47 43
22 48 43
21 47 43
21 47 43
22 48 43
21 47 43
22 48 44
21 46 42
21 46 42
21 47 43
21 47 43
22 48 44
22 48 44
21 47 42
22 48 43
22 48 44
22 48 43
22 47 43
22 49 44
22 48 44
22 47 43
22 47 43
22 49 45
23 50 45
22 49 44
22 49 44
22 49 44
22 48 44
22 49 44
23 49 45
22 47 43
22 49 44
22 49 44
22 49 44
22 49 44
23 50 45
23 50 45
22 49 44
22 48 44
23 49 45
23 51 46
23 49 45
23 50 45
23 50 45
23 50 45
23 50 45
23 50 46
23 49 45
23 50 45
23 49 45
23 49 45
22 49 44
23 50 45
23 50 45
24 52 47
23 51 46
23 50 45
23 51 46
23 49 44
23 50 45
23 51 46
23 50 45
23 50 45
23 51 46
23 50 45
23 50 45
23 50 45
23 50 45
23 51 46
23 50 45
23 51 46
23 50 45
23 50 45
23 50 45
23 50 45
22 49 44
23 50 46
23 51 46
23 51 46
23 50 45
23 50 45
24 52 47
23 51 46
24 52 47
23 50 45
22 49 44
23 50 45
23 51 46
22 49 44
22 49 44
23 51 46
22 49 44
23 50 45
23 51 46
24 51 46
23 50 45
23 50 45
23 50 45
23 49 45
23 50 45
23 51 46
23 49 44
22 49 44
23 51 46
22 49 44
23 51 46
23 51 46
23 50 45
23 50 45
23 50 45
23 50 45
21 47 43
21 47 43
22 48 43
21 47 43
21 47 43
22 47 43
21 47 42
22 48 44
21 47 42
21 47 43
21 47 43
22 48 44
22 48 44
22 49 45
21 47 43
22 47 43
21 45 41
22 48 43
22 48 44
22 48 44
22 47 43
22 48 44
22 48 44
21 46 42
21 46 42
22 48 43
21 47 43
23 50 45
32 52 47
131 124 114
184 168 155
186 169 155
171 155 141
41 57 51
22 49 44
22 49 44
23 49 45
22 48 44
22 49 44
22 49 44
22 48 44
22 48 44
22 49 45
22 49 44
22 49 44
23 50 45
22 49 44
23 49 45
23 49 45
31 51 48
33 52 49
22 49 44
23 50 45
23 49 44
23 50 46
23 49 45
22 49 44
22 49 44
23 50 45
22 48 43
23 49 45
23 50 45
23 51 46
23 50 45
23 49 45
24 51 47
23 50 45
22 49 44
23 50 45
23 49 44
23 50 45
23 49 44
23 50 45
23 50 45
23 51 46
23 50 45
23 50 45
23 50 45
24 51 46
23 51 46
23 50 45
23 50 45
23 50 45
23 50 45
23 50 45
24 51 46
23 50 45
23 50 46
24 51 46
24 52 47
23 50 45
23 51 46
22 48 44
23 50 45
23 51 46
23 50 45
23 51 46
23 51 46
23 50 45
23 50 45
22 49 44
23 51 46
23 50 45
23 50 45
24 51 46
24 52 47
23 51 46
23 51 46
23 51 46
23 51 46
23 50 45
23 51 46
23 51 46
23 50 45
23 49 45
22 49 44
23 51 46
23 49 45
23 51 46
23 50 45
22 47 43
21 47 43
22 48 44
21 47 42
22 48 44
21 47 43
22 48 43
21 47 43
22 48 44
22 47 43
21 46 42
21 47 43
22 48 44
22 48 43
22 48 43
21 47 43
22 48 43
21 47 43
22 48 44
21 46 42
22 49 44
22 48 43
22 47 43
22 48 44
22 48 43
22 48 43
22 48 44
31 52 47
145 136 129
191 176 166
201 184 172
214 194 179
251 227 205
216 188 169
62 51 45
22 48 43
22 48 44
22 49 44
22 49 44
22 49 44
22 48 44
22 47 43
22 48 44
22 49 44
22 48 44
22 48 44
25 51 47
55 53 67
89 65 97
97 68 105
119 92 117
84 66 90
32 50 50
22 49 44
23 50 45
23 49 45
23 50 45
23 50 45
23 50 45
22 49 44
23 50 45
23 50 45
23 50 45
23 50 45
23 50 45
22 49 44
23 50 45
76 60 49
132 108 95
129 121 111
67 74 67
23 50 45
23 50 46
23 51 46
23 49 45
23 49 44
23 50 45
22 49 44
22 49 44
23 51 46
23 51 46
23 49 44
23 49 44
23 50 45
23 50 45
23 51 46
23 50 45
23 50 45
23 50 45
24 52 46
24 52 47
23 50 45
22 49 44
22 49 44
23 50 45
23 50 45
23 50 46
23 50 45
24 52 47
24 51 46
23 51 46
23 49 44
23 51 46
23 50 45
23 50 46
23 49 44
23 50 45
23 51 46
23 50 45
24 51 46
23 50 45
23 51 46
23 49 44
22 49 44
23 51 46
23 51 46
23 50 45
23 50 45
23 51 46
23 50 45
21 46 42
21 46 42
21 46 42
21 46 42
21 47 43
21 47 43
22 48 44
22 49 44
21 47 43
22 48 43
22 47 43
22 48 43
22 49 44
21 47 43
21 47 43
21 47 43
22 48 43
21 47 42
22 49 44
21 47 42
22 48 43
21 47 43
22 48 44
22 48 43
22 49 44
22 49 45
22 49 45
96 96 90
162 151 143
170 158 150
182 168 159
194 177 165
206 186 171
219 191 173
152 72 60
22 49 44
22 48 44
22 48 44
22 49 44
22 48 44
22 49 45
23 50 45
22 48 44
23 50 45
22 49 44
23 50 45
50 49 63
78 54 89
80 55 92
83 57 95
116 92 114
118 91 116
86 60 92
29 51 49
22 49 44
22 49 44
22 49 44
22 48 44
22 49 44
23 50 45
23 50 45
23 49 45
22 49 44
23 51 46
23 50 45
28 50 45
155 82 54
222 127 96
215 192 178
243 221 201
229 206 187
150 137 125
23 50 46
23 51 46
23 50 45
23 49 44
23 50 45
23 50 45
23 51 46
22 49 44
23 50 46
23 50 45
23 50 45
23 49 44
23 50 45
23 51 46
24 50 45
29 48 45
50 56 53
57 62 58
84 85 78
24 51 46
23 50 45
23 50 45
23 50 45
23 50 45
23 50 46
23 50 45
22 49 44
22 49 44
23 50 45
23 50 45
23 50 45
24 52 46
23 50 45
23 49 44
23 51 46
23 50 45
23 49 45
23 51 46
23 51 46
23 50 45
23 51 46
23 49 45
22 49 44
23 50 45
23 49 45
23 50 45
23 50 45
23 50 45
22 48 43
21 46 42
21 46 42
21 47 43
21 46 42
22 47 43
21 47 42
21 47 43
22 47 43
21 47 43
22 48 43
21 47 43
21 47 42
22 48 44
21 47 43
21 47 43
22 48 43
22 47 43
22 48 44
21 47 43
21 46 42
22 48 43
22 48 43
22 48 43
22 48 44
22 48 44
22 48 44
119 102 95
146 135 128
154 143 135
148 138 130
162 149 139
177 160 148
180 134 120
163 130 115
32 52 47
23 50 45
22 49 44
22 48 44
22 49 44
22 49 44
22 49 45
22 49 44
22 48 44
22 49 44
24 49 45
63 45 73
80 62 86
122 108 115
150 136 135
149 134 134
128 109 118
85 57 90
63 61 68
23 50 45
22 47 43
22 49 44
22 49 44
23 50 45
23 50 45
23 50 45
22 49 44
23 50 45
23 50 45
23 50 45
115 67 47
199 98 59
198 123 98
187 173 163
195 178 167
202 184 171
209 187 171
111 106 96
22 49 44
23 49 44
22 49 44
22 48 44
23 50 45
23 50 46
23 50 45
23 51 46
23 49 45
23 50 45
23 49 44
22 49 44
41 58 53
32 41 42
37 40 43
85 81 73
194 178 163
212 192 178
186 168 154
52 64 58
23 50 45
23 49 45
23 51 46
23 50 46
23 50 45
23 50 45
23 49 45
23 49 44
23 50 45
23 50 45
24 52 47
22 49 44
23 50 45
23 51 46
22 49 44
23 49 44
23 50 45
24 51 46
23 51 46
23 50 45
23 50 45
23 50 46
23 51 46
22 49 44
23 50 45
23 50 45
23 49 44
21 47 43
21 46 42
22 48 43
21 46 42
22 48 44
22 48 43
21 47 43
22 47 43
21 46 42
21 47 42
21 47 42
22 48 43
22 48 44
22 48 44
21 46 42
21 47 43
21 47 42
22 48 44
22 47 43
22 48 44
21 47 43
22 47 43
22 47 43
22 47 43
21 47 43
22 48 43
21 47 43
101 61 54
133 111 102
125 116 108
132 122 113
129 119 110
129 101 92
138 55 43
130 107 95
27 50 45
22 49 44
22 49 44
22 48 44
22 48 44
22 48 44
22 49 44
22 48 44
22 49 44
22 48 43
29 47 47
77 62 74
137 126 120
141 131 123
150 139 130
147 136 128
151 137 128
123 106 108
96 85 84
22 49 44
23 50 45
22 48 43
23 51 46
23 50 45
23 50 45
22 48 44
23 50 45
22 49 44
23 50 45
25 51 46
143 74 47
163 82 50
173 99 74
163 150 143
167 155 146
172 158 148
175 159 147
160 145 132
23 50 45
23 50 45
23 50 45
23 50 45
23 51 46
23 49 44
23 50 45
23 51 46
23 51 46
23 50 45
23 50 46
27 52 47
77 74 69
30 33 37
30 33 38
100 94 91
185 170 160
190 174 164
193 176 163
142 131 120
23 50 45
22 49 44
23 50 45
22 49 44
23 50 45
23 49 44
23 51 46
22 49 44
23 50 45
23 50 45
24 52 47
23 50 45
23 50 45
23 49 45
23 50 46
23 50 45
22 48 43
22 49 44
22 49 44
23 51 46
23 49 45
23 50 46
23 51 46
23 51 46
23 50 46
23 49 44
23 50 45
21 47 42
22 49 44
22 47 43
21 47 43
21 46 42
21 47 43
21 46 42
21 47 43
22 48 44
22 48 44
21 47 43
22 48 43
21 47 43
22 47 43
21 47 43
22 49 44
22 48 44
21 46 42
21 47 43
22 48 43
22 47 43
22 48 44
22 48 44
22 48 43
22 47 43
22 48 44
22 47 43
65 40 35
93 34 25
94 55 48
99 57 49
89 39 32
94 32 23
81 27 19
81 62 54
22 48 43
22 48 43
22 48 43
22 49 44
23 49 45
22 48 44
22 49 44
22 49 44
22 49 44
22 47 43
26 47 45
91 81 81
128 119 110
121 112 104
122 113 104
123 113 105
112 104 96
119 106 97
70 65 65
23 49 45
23 50 45
22 48 44
22 49 44
22 49 44
23 50 46
23 50 45
23 49 45
23 49 45
22 49 44
28 52 47
133 75 54
148 73 44
160 79 48
147 119 107
146 134 125
132 122 115
142 130 122
138 125 115
26 51 46
23 49 44
23 49 44
23 50 45
23 50 45
22 49 44
22 48 43
23 50 45
23 50 45
23 49 45
23 51 46
39 57 52
85 79 75
99 93 88
55 53 53
134 124 118
159 148 140
155 144 137
159 147 138
152 140 130
23 50 45
23 51 46
23 50 45
23 49 45
23 50 45
23 51 46
24 51 46
23 50 45
22 49 44
23 51 46
23 50 45
23 49 44
23 50 45
23 51 46
23 50 45
23 50 45
22 49 44
22 49 44
23 49 44
22 47 43
23 50 45
23 50 45
23 51 46
23 50 45
23 50 45
22 49 44
23 50 45
21 46 42
21 47 43
21 47 43
21 47 43
22 48 43
21 46 42
21 47 43
21 46 42
21 47 43
21 47 43
22 48 44
22 48 44
21 47 43
22 48 44
22 48 44
23 50 45
21 46 42
22 48 43
22 49 44
21 47 43
22 49 44
21 47 43
22 48 43
21 47 43
22 47 43
21 47 42
21 46 42
38 47 43
49 27 22
44 16 11
45 17 11
33 14 9
36 15 10
65 24 16
22 40 36
22 48 43
22 47 42
23 49 44
22 48 43
22 48 44
22 48 43
22 48 43
22 48 43
22 48 44
22 48 43
22 48 43
78 73 67
80 76 68
86 81 73
84 80 72
80 77 69
77 74 66
72 66 58
33 50 46
22 48 44
23 49 44
22 49 44
22 49 44
23 50 45
22 49 44
22 49 44
22 49 44
23 50 45
22 49 44
23 50 45
110 67 51
130 64 38
122 61 36
122 67 46
119 104 95
112 104 96
105 97 88
88 84 77
23 49 44
22 49 44
22 49 44
23 50 45
22 49 44
22 49 44
23 49 45
23 50 45
23 50 46
23 50 45
22 49 44
52 63 57
96 88 81
121 112 104
104 96 90
109 101 94
139 128 120
143 132 123
133 123 115
116 109 101
29 52 47
22 49 44
23 50 45
22 48 44
23 50 45
23 49 45
23 49 44
23 50 45
23 50 45
23 50 45
23 50 45
23 50 45
23 50 45
23 50 45
23 50 45
23 50 45
23 50 45
23 49 45
23 50 45
22 49 44
22 49 44
23 50 45
23 50 45
23 49 45
23 50 45
23 50 45
23 51 46
22 47 43
21 47 43
21 47 43
21 47 43
21 47 42
21 46 42
21 46 42
21 47 43
22 48 44
21 47 42
21 47 43
21 46 42
21 47 43
21 47 42
21 47 43
21 47 43
22 48 43
22 48 43
22 48 44
21 46 42
21 47 42
21 47 43
22 48 43
22 48 43
21 45 41
19 43 39
19 40 37
17 38 35
16 35 32
10 16 15
9 7 5
12 7 4
20 15 11
28 39 34
20 43 38
21 46 41
21 46 41
22 47 42
22 47 42
21 46 42
22 47 42
22 47 43
22 48 43
22 47 43
22 47 43
22 48 43
26 45 40
35 40 34
32 36 30
35 39 33
38 42 35
38 42 34
44 52 45
22 47 43
22 49 44
22 48 43
21 46 42
22 49 44
22 48 44
22 49 44
22 47 43
22 48 43
23 50 45
22 49 44
22 48 44
52 50 42
80 42 26
81 42 24
77 40 23
81 48 35
89 73 63
77 68 59
61 62 54
22 47 43
22 48 44
22 48 43
23 50 45
23 49 44
22 49 44
23 50 45
22 49 45
23 49 45
23 49 45
22 49 44
33 52 48
71 67 61
90 84 77
84 78 72
88 82 76
115 106 98
108 101 93
107 100 91
106 101 93
23 49 45
23 49 45
23 50 46
23 50 45
23 50 45
22 49 44
23 50 45
22 49 44
22 49 44
22 48 44
23 50 45
22 49 44
23 50 45
23 49 45
22 49 45
22 49 44
23 50 45
23 50 45
23 51 46
23 51 46
23 50 45
23 50 45
22 49 45
23 50 45
22 49 44
22 49 44
22 48 44
21 47 43
21 46 42
21 46 42
21 47 43
21 47 43
21 47 43
22 48 43
21 47 43
21 46 42
21 47 43
22 48 44
21 46 42
22 48 43
21 47 43
21 47 43
21 47 43
21 47 42
21 47 43
21 47 43
22 48 44
22 47 43
21 46 42
21 47 43
20 44 40
17 38 36
15 34 33
14 33 31
14 32 30
13 30 28
13 29 28
13 29 27
15 33 30
17 37 34
19 42 37
21 45 40
21 45 40
21 46 41
21 47 42
22 48 43
21 46 42
21 47 42
21 47 42
22 47 43
20 45 41
18 39 36
17 37 34
15 33 31
18 29 27
8 17 14
8 15 11
9 18 15
14 25 21
19 42 37
21 44 40
21 46 41
22 47 42
21 47 42
22 49 44
22 47 42
22 47 43
22 49 44
22 47 43
22 48 44
22 49 44
22 47 42
21 45 41
34 38 32
24 17 9
32 19 10
25 17 9
21 17 8
44 35 27
21 46 41
22 48 43
22 48 43
22 48 43
22 47 43
22 49 44
23 50 45
22 48 44
22 49 44
23 50 46
22 48 43
23 50 45
23 50 45
21 35 31
38 37 33
28 28 26
31 31 28
68 65 58
71 69 61
73 70 62
49 59 53
22 49 44
22 49 44
23 49 45
22 48 43
22 49 44
23 50 45
22 49 44
23 50 45
23 49 45
23 50 45
22 49 44
22 49 44
23 50 45
23 49 45
22 49 44
23 50 45
22 49 44
22 49 44
22 49 44
23 49 45
23 50 45
22 49 45
23 49 45
23 49 45
23 50 45
22 49 45
22 48 44
21 47 42
22 48 43
21 47 43
22 48 44
22 48 44
21 47 43
21 47 43
21 47 43
22 47 43
21 46 42
21 45 41
21 47 43
21 46 42
21 47 43
21 47 43
21 46 42
22 47 43
22 47 43
21 47 43
21 47 42
22 48 43
22 48 43
21 47 42
21 46 42
21 46 42
20 45 41
21 46 42
22 48 43
22 47 43
21 46 42
21 46 42
21 46 42
21 45 41
22 47 43
21 47 42
21 47 43
21 47 42
21 47 43
22 48 43
21 47 43
21 46 41
22 48 44
20 45 41
19 42 38
17 37 35
15 35 33
15 33 31
14 32 30
14 32 30
15 33 30
15 34 31
17 38 35
20 44 39
21 47 42
21 46 42
22 47 43
21 46 42
22 47 43
22 48 43
22 49 44
22 48 43
21 46 41
22 47 43
20 44 40
17 37 34
14 32 29
11 25 24
9 18 16
8 11 9
8 11 10
10 19 17
15 33 29
21 44 39
21 45 40
21 46 41
22 47 43
22 48 43
22 48 43
22 48 43
22 48 44
22 48 43
22 48 43
22 48 43
22 47 43
22 48 43
21 44 39
9 19 17
2 4 4
2 4 4
9 18 14
18 26 21
22 39 34
22 47 42
22 47 43
21 47 42
22 48 44
22 48 44
21 47 42
22 49 44
23 49 45
23 50 45
22 49 44
23 49 45
23 50 45
23 49 45
23 50 45
23 49 45
23 50 45
23 49 45
22 49 44
23 49 44
23 50 45
23 50 45
22 48 44
22 49 44
22 49 44
23 50 45
23 50 45
22 49 44
22 49 44
22 48 43
22 48 44
21 47 43
21 46 42
21 47 43
21 46 42
21 47 43
22 48 43
21 47 43
21 47 42
21 47 43
22 48 44
21 47 42
22 47 43
21 47 43
22 48 43
21 47 43
21 47 43
21 47 43
21 47 43
21 47 43
21 46 42
22 48 44
21 47 43
21 46 42
22 48 43
21 47 43
22 48 43
22 47 43
21 47 43
22 48 43
22 49 44
22 47 43
22 48 44
21 46 42
22 48 43
22 47 43
22 48 44
21 47 43
21 47 43
21 47 42
22 47 43
21 47 42
21 47 42
21 47 42
22 48 44
21 47 42
21 47 43
21 46 42
21 47 42
22 47 43
22 48 43
22 48 44
22 47 42
22 48 44
21 47 42
22 48 44
22 48 44
22 47 43
22 47 43
22 49 44
22 48 44
22 47 42
20 44 40
18 41 37
16 36 34
16 35 32
15 34 32
16 35 33
15 33 31
16 36 33
19 42 38
21 47 42
21 46 41
22 47 43
22 48 44
22 48 43
22 47 43
21 47 42
22 48 44
22 48 43
22 47 43
21 47 42
22 48 43
18 40 37
14 32 30
10 24 23
7 17 16
7 16 15
7 16 15
9 21 19
14 31 29
18 39 36
21 45 41
22 47 42
22 48 43
22 48 43
22 47 42
22 47 43
22 47 43
22 49 44
22 49 44
22 49 44
23 50 46
23 49 45
22 49 44
22 49 44
23 49 45
23 50 45
23 49 45
22 49 44
23 50 45
22 48 44
22 49 44
22 49 44
22 49 45
22 48 43
22 49 45
22 49 44
23 50 45
22 47 43
21 46 42
21 47 43
21 47 43
21 46 42
21 47 43
21 46 42
22 48 43
22 48 44
21 47 43
21 47 43
21 47 43
21 47 43
21 47 43
21 46 42
22 48 43
21 46 42
22 47 43
21 47 43
22 47 43
22 47 43
21 46 42
22 48 44
22 48 43
22 47 43
21 47 43
21 47 43
21 47 43
22 48 44
22 48 43
22 47 43
21 47 43
22 48 43
22 47 43
22 49 44
21 47 42
22 47 43
21 46 42
22 48 43
22 48 43
21 47 43
21 46 42
22 48 43
21 47 42
22 49 44
22 48 43
21 46 42
22 48 44
22 48 43
22 49 45
22 49 44
22 48 43
22 49 44
22 48 43
22 47 43
22 47 43
21 46 42
22 48 44
22 49 44
21 47 42
22 48 44
22 48 43
22 48 44
22 47 43
22 48 43
22 48 43
21 47 42
21 47 42
22 48 43
21 47 42
22 48 43
22 48 43
22 48 43
22 48 43
22 48 43
22 48 43
21 47 42
22 47 43
22 48 43
22 49 44
21 46 42
22 48 43
22 48 43
21 46 42
20 44 40
19 41 38
17 39 36
16 36 34
16 37 35
15 35 33
16 36 33
18 39 36
20 45 41
21 47 42
22 48 43
23 50 45
22 49 44
22 48 43
22 47 43
22 48 43
22 49 44
23 50 45
22 48 43
22 47 43
23 49 45
22 48 43
23 50 45
22 48 43
22 48 44
22 48 44
22 48 43
23 49 45
22 49 44
22 49 44
22 49 44
22 48 43
22 49 45
22 49 44
22 48 44
22 48 43
21 46 42
21 46 42
22 48 43
21 46 42
21 47 43
21 47 43
21 46 42
21 47 42
22 48 44
21 46 42
21 47 43
21 46 42
21 47 43
22 48 43
21 46 42
21 47 43
21 46 42
21 47 42
21 47 43
21 47 43
22 48 43
21 46 42
22 48 43
22 48 44
22 48 44
22 48 44
22 47 43
21 47 43
21 47 43
22 48 44
22 48 44
22 47 43
22 48 43
22 47 43
21 47 43
22 48 44
22 48 43
21 47 43
21 47 43
22 47 43
22 47 43
22 48 43
21 47 43
21 47 43
21 47 42
22 47 43
21 47 42
21 47 43
22 48 43
22 48 44
22 47 43
22 48 43
22 49 45
22 49 44
22 49 45
21 47 43
22 48 44
22 49 44
23 50 45
22 48 43
22 49 44
22 48 43
22 48 44
22 47 43
22 47 43
22 48 43
22 48 44
22 48 44
22 48 44
22 48 43
22 48 43
22 48 43
22 49 44
23 50 45
22 48 43
22 47 43
22 49 44
22 48 43
22 47 43
22 48 43
22 48 43
22 49 44
22 48 43
22 48 44
22 48 44
22 48 43
22 47 43
22 48 44
21 47 43
22 47 43
22 49 44
22 48 43
22 48 43
22 49 44
22 47 43
21 47 43
22 49 44
22 49 44
22 49 44
22 49 44
22 48 44
22 48 43
22 48 44
22 48 44
22 49 44
22 49 44
22 48 43
22 48 44
22 49 44
22 47 43
22 49 44
22 49 44
22 49 44
22 49 44
23 49 45
22 49 44
23 49 45
22 48 43
22 49 44
22 49 44
21 46 42
21 46 42
21 47 43
21 47 43
21 47 43
21 46 42
21 46 42
21 46 42
21 46 42
21 46 42
21 46 42
21 46 42
21 45 41
21 46 42
22 49 44
22 48 44
21 47 43
21 47 43
22 48 43
22 47 43
21 47 43
21 46 42
21 46 42
22 48 43
21 47 43
21 46 42
22 48 43
22 48 44
21 45 41
22 48 44
22 48 43
21 47 43
22 48 43
21 47 43
21 46 42
22 47 43
22 48 44
22 48 44
22 48 44
22 47 43
22 48 43
22 47 43
22 48 43
21 46 42
22 48 43
22 48 44
22 48 44
22 48 44
22 48 44
22 48 44
22 48 43
21 47 43
22 49 44
22 48 43
22 48 44
22 48 43
22 48 43
22 48 44
22 49 44
23 49 45
22 47 43
22 48 44
22 48 43
22 48 44
22 48 43
22 48 44
22 49 44
22 48 43
22 48 43
23 49 45
22 49 45
22 48 44
22 48 43
22 48 44
22 48 43
22 48 44
22 49 44
22 49 45
22 48 43
22 48 44
22 48 44
22 48 43
22 47 43
22 48 44
22 48 44
22 48 43
22 49 44
22 49 45
21 47 43
22 48 44
22 47 43
22 47 43
22 48 43
22 48 43
22 48 43
21 47 43
22 48 44
22 49 44
22 48 43
22 49 45
22 49 44
22 48 44
22 48 44
22 49 44
23 50 45
22 49 44
22 48 43
22 48 44
22 48 44
22 49 44
21 47 43
22 49 44
23 50 45
22 48 44
22 47 43
22 48 44
22 49 45
22 48 44
22 48 44
23 50 45
21 46 42
21 46 42
21 46 42
21 46 42
21 46 42
21 46 42
21 47 42
21 47 43
21 47 43
21 47 43
21 46 42
21 47 43
22 48 44
21 47 43
22 48 44
21 47 43
22 47 43
21 47 43
21 45 41
21 47 43
22 48 44
21 46 42
21 47 43
21 47 43
21 47 43
22 48 44
21 47 43
21 46 42
21 47 43
21 47 43
22 48 44
21 47 43
22 48 44
21 46 42
21 47 42
21 47 43
22 48 44
21 47 43
22 48 43
22 48 43
22 48 44
22 47 43
22 48 43
22 47 43
21 47 43
22 47 43
22 47 43
22 48 44
22 48 44
22 48 43
22 48 44
21 46 42
22 48 43
21 47 43
22 48 43
22 48 43
22 48 44
22 49 45
22 48 44
22 48 44
22 48 43
22 49 44
22 48 44
22 48 43
21 47 43
22 48 44
22 49 44
22 49 44
22 48 44
22 48 43
22 48 44
22 48 44
22 49 44
22 48 43
22 48 44
22 48 43
21 47 42
22 48 43
22 48 43
22 49 45
22 48 43
23 49 45
22 48 43
22 48 44
22 47 43
22 49 44
22 48 43
22 48 43
22 49 44
21 47 43
22 48 44
22 47 43
22 48 43
22 48 44
22 48 43
22 49 44
22 48 44
22 49 44
21 47 43
22 48 43
22 48 43
22 49 44
22 49 44
22 48 43
22 48 43
22 49 44
22 49 44
22 49 45
22 49 44
23 49 45
22 48 43
22 49 44
22 49 44
22 49 45
22 48 44
22 48 44
22 49 45
22 49 44
23 49 45
22 48 43
21 46 42
21 46 42
21 46 42
21 47 43
21 46 42
21 47 42
21 47 43
21 47 43
21 47 42
20 45 41
21 47 42
21 46 42
21 46 42
21 47 43
21 46 42
21 47 43
21 46 42
21 46 42
21 46 42
21 46 42
21 46 42
21 46 42
21 46 42
21 47 43
21 47 43
21 47 43
22 48 43
22 48 44
21 46 42
22 48 44
22 48 44
22 47 43
21 47 43
21 47 43
21 47 43
21 47 42
21 47 43
22 48 43
22 48 44
22 48 44
21 47 43
22 48 44
21 47 42
22 48 44
21 47 43
21 47 43
21 47 42
22 49 44
21 47 42
22 48 44
22 48 44
21 47 43
22 47 43
22 48 43
21 47 43
22 48 44
22 48 44
21 47 43
22 47 43
22 48 44
21 47 43
21 47 42
21 47 43
21 47 42
21 47 43
22 48 44
22 48 44
22 48 43
22 48 44
22 48 44
22 48 43
22 49 45
22 49 45
22 48 43
22 49 44
22 49 44
22 48 44
22 48 44
22 48 44
23 49 45
22 48 44
22 48 44
22 48 43
22 48 44
22 49 45
22 48 44
22 47 43
22 49 44
22 47 43
22 48 44
22 48 44
22 48 43
21 47 42
22 48 44
22 48 43
22 48 44
22 49 44
22 49 45
22 48 44
22 48 43
22 48 44
22 49 44
21 47 43
22 49 44
22 48 44
22 48 44
22 47 43
22 48 43
22 48 43
22 49 45
22 47 43
22 49 44
21 46 42
22 48 44
22 48 44
22 49 44
23 50 45
22 48 43
22 49 44
22 48 43
21 46 42
21 47 43
21 47 43
21 46 42
21 47 43
21 46 42
21 46 42
21 47 43
21 47 43
21 47 43
21 47 43
21 47 43
21 47 43
21 47 43
21 46 42
21 46 42
21 47 43
22 47 43
21 47 43
21 46 42
22 48 43
21 47 43
21 46 42
21 47 42
21 47 43
21 46 42
21 46 42
22 48 43
21 46 42
21 47 43
21 46 42
21 47 43
21 46 42
21 47 43
21 46 42
22 48 44
21 47 42
21 47 42
21 47 43
21 47 43
22 47 43
21 46 42
21 46 42
22 48 44
22 48 44
22 48 43
22 47 43
21 47 43
21 46 42
21 47 43
22 49 44
22 47 43
23 49 45
22 48 43
22 48 43
21 47 43
22 48 43
21 47 43
21 47 43
22 48 44
22 48 44
21 47 42
22 48 43
22 48 44
22 48 43
22 49 44
22 48 44
22 48 44
21 47 43
22 48 43
22 47 43
21 47 42
22 48 43
22 48 43
22 48 44
22 49 44
22 48 43
22 48 44
22 49 44
22 48 43
21 46 42
22 48 43
22 48 44
22 49 44
22 47 43
22 48 43
22 49 44
22 48 43
21 47 43
22 48 43
22 48 44
22 49 44
22 48 43
22 48 43
22 48 43
23 49 45
22 48 43
22 48 44
22 47 43
22 49 44
22 49 44
22 48 44
22 48 44
22 48 43
22 48 43
21 47 43
21 47 42
21 47 43
21 47 42
22 49 44
22 49 44
22 48 44
22 49 44
21 47 43
22 48 44
21 47 43
21 47 43
22 48 44
22 48 43
22 48 44
21 46 42
21 47 43
21 46 42
21 46 42
21 46 42
20 45 41
20 45 41
21 47 42
22 48 44
21 46 42
21 46 42
20 45 41
21 46 42
21 46 42
21 47 43
21 46 42
21 47 43
21 46 42
22 48 44
21 47 43
21 46 42
22 48 44
21 46 42
22 48 43
21 46 42
21 47 43
22 48 43
21 46 42
21 47 43
22 47 43
21 45 41
21 46 42
21 47 43
22 47 43
21 46 42
22 47 43
21 47 43
21 46 42
22 47 43
21 47 43
21 47 42
22 47 43
21 46 42
21 46 42
21 47 43
21 46 42
22 48 44
21 47 42
21 46 42
22 48 43
21 47 43
22 48 43
21 47 43
21 47 42
21 47 43
21 47 43
21 47 42
22 48 43
22 48 43
22 48 44
22 48 44
21 47 43
22 48 44
22 48 44
22 47 43
21 46 42
22 48 43
22 48 43
22 48 43
21 47 43
21 47 43
22 47 43
21 47 43
22 48 43
22 48 44
22 48 43
22 47 43
22 48 44
22 47 43
22 49 45
22 48 43
22 48 43
22 48 43
22 48 44
22 48 44
22 48 44
22 48 43
22 47 43
22 48 43
22 48 44
21 47 43
22 48 43
22 47 43
22 48 43
22 48 44
22 48 43
22 48 44
22 47 43
21 47 42
22 48 43
21 47 43
21 46 42
22 49 44
21 47 42
22 49 44
22 48 44
22 49 44
21 47 42
22 47 43
21 47 43
22 49 44
22 49 44
22 48 44
22 48 43
21 47 42
22 48 43
22 49 44
22 48 44
22 49 44
21 47 43
20 45 41
21 46 42
21 47 43
21 47 43
21 47 43
21 47 43
21 46 42
21 45 42
21 46 42
20 45 41
21 47 43
21 46 42
21 47 43
21 46 42
21 46 42
22 48 43
21 47 43
21 47 43
22 48 44
21 46 42
21 46 42
21 47 42
21 46 42
21 46 42
21 46 42
21 47 43
22 47 43
21 47 43
22 48 43
21 46 42
20 45 41
21 47 43
21 46 42
21 47 43
21 47 42
21 47 43
21 47 43
21 47 43
22 48 43
21 47 42
21 47 43
21 47 42
21 47 43
22 48 43
21 47 43
22 48 44
21 47 43
22 47 43
21 47 43
22 48 43
21 46 42
21 46 42
22 47 43
21 47 42
21 46 42
21 46 42
21 47 42
21 46 42
21 47 43
21 47 43
22 48 43
21 47 43
22 47 43
22 47 43
21 46 42
21 47 43
22 48 44
22 48 43
22 48 44
22 48 43
22 48 43
22 48 44
21 47 43
22 48 44
21 47 43
22 48 43
21 47 43
22 47 43
22 48 44
21 47 43
21 47 42
22 48 43
22 48 44
21 47 43
21 46 42
22 49 44
22 48 44
21 47 43
22 48 43
21 47 43
22 49 44
22 47 43
22 48 43
21 47 43
21 47 43
22 49 44
21 47 43
22 47 43
22 48 44
22 48 44
22 48 43
21 47 43
21 47 43
21 47 42
22 48 44
21 47 43
21 47 43
21 46 42
21 47 43
21 47 43
22 49 44
22 48 43
21 47 43
21 47 43
21 47 43
22 48 43
22 48 44
22 48 43
22 48 44
23 50 45
21 46 42
21 46 42
21 46 42
21 45 42
21 47 43
21 47 43
20 45 41
21 46 42
21 46 42
21 46 42
20 45 41
21 47 43
21 46 42
21 47 43
22 48 44
21 47 43
21 47 43
21 46 42
21 46 42
21 46 42
22 47 43
21 47 43
21 46 42
21 46 42
21 46 42
21 47 43
21 47 43
21 46 42
21 47 43
22 49 44
21 46 42
21 47 43
21 47 43
22 48 44
21 47 43
21 47 43
21 46 42
21 47 43
21 46 42
21 47 43
21 47 43
21 47 43
21 46 42
21 46 42
21 47 43
21 47 43
21 47 43
21 46 42
22 48 43
21 47 43
21 47 43
21 47 43
21 47 43
21 47 43
21 47 43
21 47 43
21 47 43
21 47 43
21 47 43
21 47 43
21 46 42
21 46 42
21 47 43
22 49 44
22 47 43
21 47 43
22 48 43
22 48 44
21 47 43
22 48 43
21 47 43
22 48 44
21 47 43
21 46 42
21 47 43
22 48 44
21 47 43
21 47 43
22 48 44
22 48 44
21 47 43
22 48 44
21 46 42
22 48 43
21 47 43
22 48 43
22 48 44
21 46 42
21 47 43
22 48 43
21 47 43
22 48 44
21 47 43
22 49 44
22 48 43
22 48 44
21 47 43
22 48 43
21 47 43
21 47 43
22 47 43
21 47 43
22 48 44
22 48 44
22 47 43
22 48 44
22 48 43
22 48 44
21 47 43
21 47 43
21 47 43
22 47 43
21 47 42
22 47 43
22 48 43
21 47 42
21 47 42
22 48 43
22 48 43
22 48 43
21 47 43
21 47 43
21 46 42
20 45 41
21 46 42
21 46 42
21 46 42
21 47 43
21 47 43
21 46 42
21 47 43
20 45 41
21 46 42
21 46 42
21 46 42
21 46 42
22 48 43
21 46 42
21 46 42
21 47 43
21 47 43
21 46 42
21 46 42
21 46 42
21 47 43
21 47 43
22 48 43
21 47 43
21 47 43
21 47 43
21 46 42
21 47 43
20 45 41
21 47 43
21 46 42
21 46 42
22 48 44
21 46 42
21 47 43
21 47 43
21 47 43
21 46 42
21 47 43
21 47 43
21 46 42
21 47 43
21 47 43
21 46 42
21 47 43
21 47 43
21 47 43
21 46 42
22 48 44
22 48 44
21 47 43
22 48 43
22 48 43
21 47 43
22 48 44
21 46 42
22 48 44
20 45 41
22 47 43
21 46 42
21 47 43
21 47 43
21 47 43
22 48 44
22 48 43
21 46 42
22 48 44
21 47 43
22 48 44
22 48 43
21 46 42
21 47 43
21 47 43
21 47 42
22 48 44
21 47 43
21 47 43
21 46 42
21 47 43
21 47 43
21 46 42
21 46 42
22 47 43
22 48 44
22 48 44
21 47 43
21 47 43
22 48 43
21 47 43
22 48 44
22 48 43
22 48 43
22 48 43
22 47 43
21 47 43
22 48 43
21 47 43
21 46 42
22 47 43
21 47 42
22 48 44
22 48 44
22 48 44
21 47 43
21 47 43
22 48 43
22 47 43
22 48 44
22 49 44
22 48 43
21 47 43
21 47 43
22 48 43
21 47 43
22 48 44
22 47 43
20 45 41
20 45 42
21 46 42
21 47 43
21 47 43
21 45 41
21 47 43
21 47 43
21 47 43
21 46 42
21 45 42
21 47 42
21 47 43
21 47 43
21 46 42
21 47 43
20 45 41
21 46 42
21 46 42
21 46 42
21 46 42
20 45 41
21 46 42
21 47 43
21 47 43
21 46 42
21 47 43
21 47 43
21 46 42
21 46 42
21 47 43
21 46 42
21 46 42
21 46 42
21 47 43
21 46 42
21 46 42
21 47 43
21 46 42
21 46 42
22 48 43
21 47 43
21 46 42
21 47 43
21 46 42
21 46 42
22 48 43
21 47 43
21 47 43
21 46 42
21 47 43
22 48 43
21 46 42
22 48 44
21 47 43
21 47 43
21 47 43
21 47 43
22 48 43
21 47 43
21 47 43
22 48 44
21 47 42
22 48 44
22 48 43
22 47 43
21 47 43
21 46 42
21 47 43
22 48 43
22 48 44
21 46 42
22 48 44
22 48 44
22 48 43
21 47 43
21 47 43
21 46 42
21 47 43
22 47 43
22 49 45
22 48 43
21 47 43
21 47 43
21 46 42
22 48 44
22 48 44
21 47 43
22 48 44
22 48 44
21 46 42
21 46 42
21 47 43
21 47 43
21 47 43
22 48 43
21 47 43
21 46 42
22 48 43
22 48 44
21 46 42
21 47 43
21 47 42
21 47 43
21 47 43
21 47 43
22 48 43
22 47 43
21 47 42
22 48 44
21 46 42
21 47 42
21 47 43
22 47 43
21 47 42
21 47 43
22 47 43
21 46 42
22 48 44
22 48 43
21 46 42
21 46 42
21 46 42
21 46 42
21 46 43
21 46 42
21 46 42
20 45 41
21 46 42
21 46 42
20 45 41
21 46 42
21 45 41
21 46 42
21 45 42
21 46 42
20 45 41
21 47 43
20 45 41
21 46 42
21 46 42
21 47 43
21 46 42
21 46 42
21 47 43
21 47 43
21 46 42
21 47 43
20 45 41
21 46 42
21 46 42
21 47 43
21 47 43
21 47 43
21 46 42
21 47 43
21 46 42
21 46 42
21 45 41
21 47 43
21 47 43
21 47 43
21 47 43
21 45 41
21 46 42
21 47 43
21 47 43
21 46 42
21 46 42
21 46 42
21 47 43
21 47 43
21 47 43
21 46 42
21 46 42
21 47 42
21 46 42
21 46 42
22 48 44
21 46 42
21 46 42
21 46 42
21 47 43
21 47 43
21 47 43
21 47 43
22 48 44
21 46 42
21 47 43
22 48 44
22 48 44
21 47 43
21 47 42
21 46 42
21 46 42
21 47 43
21 47 42
21 47 43
21 47 42
21 47 42
21 47 43
22 48 44
21 47 43
22 48 44
22 49 44
21 46 42
21 47 43
21 47 43
21 47 43
21 46 42
22 47 43
22 48 44
21 46 42
22 48 43
21 47 43
21 47 42
22 48 44
21 46 42
22 48 44
22 47 43
22 47 43
22 47 43
22 48 43
21 46 42
22 48 43
22 48 43
22 47 43
21 47 43
22 47 43
21 46 42
22 47 43
22 48 44
22 48 43
21 47 43
21 47 43
21 47 43
22 48 44
21 47 43
21 47 43
22 47 43
21 46 42
20 45 41
21 46 42
21 46 42
21 47 43
20 45 41
21 46 42
21 46 42
21 46 42
21 47 43
21 46 42
21 47 43
21 47 43
21 46 42
21 46 42
21 46 42
21 46 42
20 45 41
20 45 41
20 45 41
20 45 41
21 47 43
21 46 42
21 46 42
21 47 43
21 47 43
21 46 42
21 45 41
21 46 42
20 45 42
21 47 43
21 47 43
21 46 42
21 46 42
20 45 41
21 47 43
21 46 42
21 46 42
21 46 42
21 46 42
21 47 43
22 48 44
21 47 43
21 47 43
21 46 42
21 47 43
21 46 42
21 47 43
21 47 43
20 45 41
21 47 43
22 47 43
21 46 42
21 47 43
21 46 42
21 47 43
21 46 42
21 47 43
21 47 43
20 45 41
21 47 43
21 47 43
21 47 43
21 47 42
21 46 42
21 47 43
21 47 43
21 47 43
21 45 41
22 47 43
21 46 42
22 48 43
22 48 43
22 47 43
22 47 43
22 47 43
22 47 43
22 47 43
22 47 43
21 47 42
21 46 42
22 48 44
22 48 44
22 47 43
22 47 43
21 46 42
21 47 42
22 48 44
22 48 44
22 48 43
21 47 43
21 47 43
22 47 43
21 46 42
22 48 43
21 47 43
22 48 43
21 47 43
22 48 44
22 48 43
21 47 42
22 47 43
22 48 44
21 47 43
21 47 43
21 46 42
21 47 42
22 47 43
22 47 43
21 46 42
21 47 43
22 47 43
21 47 42
21 47 42
21 46 42
21 46 42
21 47 43
21 47 43
22 48 43
22 48 44
21 47 43
21 46 42
21 46 42
21 46 42
21 47 43
21 46 42
21 46 42
21 46 42
21 46 42
21 47 43
20 45 41
21 46 42
21 47 43
20 45 41
21 46 42
20 45 41
20 45 41
21 46 42
21 46 42
21 47 43
21 46 42
21 46 42
21 45 41
20 45 41
21 47 42
21 46 42
20 45 41
21 46 42
21 46 42
20 45 41
21 46 42
21 46 42
21 47 43
21 46 42
21 47 43
21 46 42
21 46 42
21 47 43
20 45 41
21 46 42
21 47 43
21 46 42
21 47 43
21 47 43
21 46 42
21 47 43
21 46 42
21 46 42
21 46 42
21 47 43
21 46 42
21 47 42
21 47 43
21 46 42
21 47 43
21 46 42
21 47 43
21 47 43
21 46 42
22 48 43
21 46 42
21 46 42
21 46 42
21 47 43
21 46 42
21 46 42
21 47 43
21 46 42
21 47 43
21 46 42
22 48 43
21 47 43
22 47 43
21 46 42
22 47 43
22 47 43
21 46 42
21 46 42
22 47 43
21 46 42
22 48 43
21 47 43
22 47 43
22 48 43
22 47 43
21 46 42
22 48 43
22 48 44
21 46 42
22 48 44
22 47 43
22 47 43
22 47 43
21 47 42
21 46 42
21 47 42
22 47 43
21 46 42
21 47 42
22 48 43
21 46 42
22 48 44
22 48 43
21 46 42
21 47 42
22 47 43
21 46 42
21 47 42
21 46 42
21 47 43
21 47 42
22 48 44
21 47 43
21 47 42
22 48 44
22 47 43
21 46 42
22 47 43
22 47 43
22 47 43
21 46 42
21 46 42
20 45 41
20 44 40
21 47 43
21 46 42
21 46 42
21 47 43
21 46 42
21 47 43
20 45 41
21 46 42
21 45 42
21 46 42
21 46 42
21 46 42
21 47 43
20 45 41
21 47 43
20 45 41
21 47 43
21 46 42
21 46 42
21 46 42
21 46 42
21 45 41
21 46 42
21 46 42
21 47 43
21 46 42
21 46 42
21 47 43
21 47 43
21 46 42
21 46 42
21 46 42
21 46 42
22 48 44
21 46 42
21 46 42
21 46 42
21 46 42
21 46 42
21 47 43
21 46 42
21 46 42
21 46 42
21 47 43
21 46 42
21 45 42
22 48 43
22 48 44
21 46 42
21 46 42
21 46 42
21 46 42
21 47 43
21 46 42
21 47 43
21 47 43
21 46 42
21 47 43
21 46 42
21 45 41
21 47 43
21 46 42
21 46 42
21 46 42
22 48 44
22 47 43
21 46 42
21 47 43
22 48 44
21 47 43
22 48 44
21 47 43
21 46 42
21 45 41
22 47 43
21 46 42
22 48 43
22 47 43
22 47 42
22 48 43
21 46 42
21 46 42
22 46 42
22 47 43
22 47 43
22 47 43
22 47 43
22 47 43
22 47 42
22 47 43
21 46 42
21 46 42
21 46 42
21 46 42
22 48 44
21 46 42
21 46 42
22 48 44
22 47 43
21 46 42
22 48 43
21 46 42
22 47 43
21 45 41
21 47 43
22 47 43
22 48 43
21 47 43
21 47 43
22 47 43
22 47 43
21 46 42
21 47 43
21 46 42
21 47 43
21 46 42
21 46 42
21 46 42
21 47 43
20 45 41
21 45 42
20 45 41
20 45 41
21 46 42
21 46 42
21 46 42
20 45 41
21 46 42
21 46 42
21 46 42
21 46 42
21 47 43
20 45 42
21 46 42
21 46 42
20 45 41
21 45 42
21 47 43
20 45 41
20 45 41
21 46 42
21 47 43
20 45 41
20 45 41
21 46 42
21 47 43
20 45 41
21 46 42
21 46 42
21 45 42
21 46 42
21 47 43
21 46 42
21 46 42
21 47 43
20 45 41
21 46 42
21 47 43
21 46 42
21 47 43
21 46 42
21 47 43
22 48 43
21 46 42
21 47 43
21 46 42
21 46 42
21 47 43
21 46 42
21 46 42
21 47 43
21 47 43
22 48 43
21 47 43
21 47 42
21 47 43
21 47 43
21 47 43
21 46 42
21 46 42
21 47 42
21 46 42
21 45 42
22 47 43
21 47 43
21 46 42
21 46 42
21 46 42
22 47 43
21 46 42
21 46 42
22 47 43
22 47 43
22 47 42
22 48 43
22 46 42
22 46 42
22 47 43
22 48 44
22 48 44
21 46 42
22 47 43
22 47 43
22 46 42
22 47 43
22 48 43
22 47 43
22 47 43
21 46 42
23 48 44
22 48 43
22 47 43
22 46 42
21 46 42
22 46 42
21 46 42
22 48 43
22 47 42
21 46 42
21 46 42
21 46 42
21 46 42
21 47 43
22 48 44
21 45 41
22 47 43
21 47 42
21 46 42
21 46 42
21 46 42
21 46 42
21 46 42
21 46 42
22 48 44
21 46 42
21 46 42
20 45 41
21 46 42
21 46 43
21 47 43
20 45 41
20 45 41
20 45 41
21 46 42
20 45 41
21 46 42
20 44 40
20 45 42
20 45 41
21 46 42
20 45 41
21 46 42
21 46 42
20 45 41
21 46 42
21 46 42
20 45 41
21 45 42
20 45 41
21 46 42
21 47 43
21 47 43
21 46 42
20 45 42
21 45 41
21 46 42
21 46 42
21 47 43
21 46 42
20 45 41
21 46 42
21 46 42
21 47 43
21 47 43
21 45 42
21 46 42
21 45 41
21 46 42
21 46 42
21 46 42
21 47 43
21 47 43
20 45 41
21 46 42
21 45 42
21 46 42
21 47 43
21 47 42
21 46 42
21 47 43
21 47 43
21 46 42
21 47 43
21 46 42
21 46 42
21 45 41
21 46 42
21 47 43
21 46 42
21 46 42
22 47 43
21 47 43
22 48 43
22 47 43
22 47 43
21 46 42
22 47 43
22 47 43
21 45 41
22 46 42
22 48 44
22 46 42
23 48 43
22 47 43
22 47 43
23 48 43
22 47 43
22 47 43
22 47 43
22 45 41
22 47 43
22 47 43
22 46 42
23 48 44
23 48 44
22 47 42
23 48 44
23 48 44
22 47 43
22 47 43
23 48 43
23 48 43
22 47 42
22 47 43
22 46 42
22 47 43
22 48 43
22 46 42
22 46 42
22 46 42
22 47 43
22 48 44
21 46 42
22 48 43
22 47 43
22 47 43
21 46 42
21 46 42
22 47 43
22 47 43
22 47 43
21 46 42
21 47 42
21 46 42
22 48 44
21 46 42
20 45 42
20 45 42
21 46 42
21 46 42
20 45 41
21 46 42
21 46 42
20 45 41
21 46 42
21 46 42
20 44 41
20 45 41
21 46 42
21 46 42
20 45 41
21 46 42
20 45 41
20 45 41
21 46 42
21 46 43
20 44 40
20 44 40
21 46 42
21 46 42
21 46 42
20 45 42
21 46 42
21 46 42
21 47 43
20 44 41
20 45 41
21 47 43
21 46 42
21 46 42
20 45 41
20 45 41
21 46 42
21 47 43
21 45 42
21 47 43
21 47 43
20 44 41
21 46 42
20 45 41
21 46 42
21 47 43
21 46 42
21 46 42
21 47 43
20 45 41
21 46 42
21 45 41
21 45 41
21 46 42
21 47 43
21 47 43
21 47 43
21 46 42
21 46 42
21 46 42
22 48 43
21 45 42
21 46 42
22 47 43
22 47 43
22 48 43
22 47 43
22 46 42
22 47 43
22 46 42
22 46 42
22 47 43
22 46 42
23 48 43
23 48 43
22 46 42
22 47 43
23 47 43
23 48 43
23 48 44
23 46 42
23 47 42
23 46 42
23 48 44
23 47 43
22 46 42
23 47 43
23 47 43
23 47 43
23 46 42
23 47 43
23 47 43
23 47 43
23 47 43
23 48 44
23 47 43
23 47 43
23 47 43
22 46 42
23 48 44
23 48 44
22 46 42
22 47 43
21 45 41
23 48 44
22 46 42
22 46 42
22 47 42
22 47 43
22 47 42
22 46 42
22 47 43
22 47 43
21 46 42
21 46 42
21 46 42
21 45 41
21 47 43
21 45 41
21 47 43
21 46 43
20 45 41
21 46 43
20 45 41
21 45 42
21 46 42
21 46 42
21 46 42
21 46 42
21 46 42
20 45 41
21 46 42
21 46 42
21 46 42
20 45 42
21 46 42
20 45 42
20 45 42
20 44 40
21 45 42
21 47 43
21 47 43
21 46 42
21 46 42
20 45 41
20 45 41
21 45 42
20 45 41
21 47 43
21 46 42
21 46 42
20 45 41
21 46 42
21 46 42
20 45 42
20 45 41
21 46 42
21 45 41
21 47 43
21 46 42
21 46 42
20 45 41
20 45 41
21 47 43
21 47 43
21 47 43
21 47 43
21 46 42
21 46 42
21 47 43
21 46 42
21 46 42
21 46 42
22 47 43
21 46 42
21 46 42
21 46 42
21 46 42
22 47 43
22 48 44
21 46 42
21 46 42
22 47 43
22 46 42
22 46 42
23 49 44
23 48 44
22 47 42
22 47 43
22 46 42
23 47 43
23 47 43
23 47 43
23 47 43
23 47 43
23 47 43
23 48 43
23 47 43
23 46 42
23 46 42
23 47 43
24 47 43
24 48 44
24 48 43
24 47 43
24 47 43
24 48 43
24 47 43
24 48 43
24 48 44
24 47 43
24 48 44
24 48 43
24 47 43
23 46 42
23 47 43
24 48 44
24 49 45
23 46 42
23 47 43
23 47 43
23 46 42
23 48 43
23 47 42
23 47 43
22 46 42
22 47 43
22 47 43
23 48 44
22 47 43
22 46 42
22 47 43
22 46 42
23 48 44
22 47 42
22 47 43
21 46 42
22 48 44
21 46 42
22 48 44
21 46 42
20 45 41
20 44 41
20 45 41
21 46 42
21 46 42
21 46 42
20 45 42
20 45 42
21 45 42
21 46 42
21 47 43
21 47 43
21 47 43
20 45 41
21 46 42
20 45 41
21 46 42
20 45 42
21 47 43
20 45 41
21 46 42
21 46 42
21 46 42
20 45 41
20 45 41
20 44 40
21 46 42
21 46 42
20 45 42
21 45 42
21 46 42
21 46 42
21 47 43
20 45 41
21 46 42
21 46 42
21 46 42
21 46 42
21 46 42
20 45 41
21 45 41
21 47 43
21 46 42
21 46 42
21 46 42
21 47 42
22 47 43
21 46 42
21 45 41
21 46 42
21 45 41
21 45 41
21 46 42
21 46 42
21 46 42
21 46 42
22 47 43
22 47 43
22 48 43
22 46 42
22 47 43
22 46 42
22 46 42
23 48 43
22 46 42
22 46 42
23 47 42
23 47 43
23 47 43
23 47 43
23 46 42
23 46 42
24 47 43
24 47 43
25 49 44
25 49 44
24 47 43
24 48 43
24 47 43
24 46 42
25 48 44
25 48 43
25 47 43
25 48 43
25 47 43
25 48 44
25 47 43
25 48 44
25 48 44
25 49 44
25 48 43
25 47 43
24 47 43
24 47 43
24 47 42
25 49 44
24 48 44
24 47 43
24 47 43
24 48 44
24 48 44
24 47 43
24 47 43
24 48 43
23 47 43
23 47 43
24 49 44
23 46 42
23 47 43
22 47 43
22 46 42
22 47 43
22 46 42
22 47 43
22 46 42
21 46 42
22 46 42
22 47 43
22 47 43
20 45 41
20 45 42
21 46 42
21 46 42
21 47 43
20 45 41
20 45 41
21 46 42
21 46 42
20 45 41
21 46 42
21 45 42
20 45 42
21 46 42
20 45 42
20 45 41
20 44 41
20 45 41
21 46 42
20 45 42
20 45 42
20 44 41
21 46 42
21 47 43
21 45 42
20 45 41
21 45 42
21 46 42
20 45 41
20 45 42
21 46 42
20 45 41
20 45 42
21 46 42
21 45 42
21 46 42
21 47 43
21 46 42
21 46 42
21 46 42
20 45 41
20 45 41
21 45 41
21 46 42
21 46 42
21 47 43
22 47 43
21 46 42
21 46 42
21 46 42
21 46 42
21 46 42
21 46 42
21 46 42
21 46 42
22 46 42
22 46 42
22 47 43
22 46 42
23 47 43
22 46 43
22 46 42
23 46 42
23 47 43
23 48 44
23 47 43
23 47 43
23 46 42
24 47 43
24 47 43
24 48 43
24 47 43
25 48 44
24 47 42
25 47 43
25 48 44
25 47 43
26 49 44
25 47 43
26 49 45
26 50 45
26 49 44
26 49 44
26 49 44
26 48 44
26 48 44
26 48 43
26 48 44
27 49 45
25 46 42
26 49 44
26 48 43
26 48 43
26 49 44
26 49 44
25 47 43
26 49 45
25 48 44
25 48 44
25 48 44
25 47 43
25 48 43
24 47 42
25 48 44
24 48 44
24 47 43
24 49 44
24 47 43
23 47 43
23 47 43
23 47 43
23 47 43
23 48 44
22 46 42
22 46 42
22 46 42
22 47 43
22 47 43
22 46 42
23 48 44
21 46 42
20 45 42
20 44 41
20 45 41
21 46 42
21 45 42
20 45 41
20 45 41
20 44 40
20 45 41
20 45 41
21 47 43
21 46 42
20 45 41
20 44 40
20 45 41
20 45 41
20 45 41
21 47 43
20 45 41
21 46 42
21 47 43
20 45 42
20 45 41
21 46 42
20 45 42
20 45 41
21 46 42
20 45 41
21 47 43
20 45 41
20 45 41
20 45 41
20 45 41
20 45 41
21 46 43
20 45 41
21 47 43
21 46 42
21 46 42
21 45 42
21 47 43
21 45 41
21 46 42
21 46 42
21 46 42
21 46 42
21 46 42
21 46 42
21 46 42
21 46 42
22 46 42
21 45 41
21 46 42
22 46 42
22 47 43
22 46 42
22 46 42
22 46 42
23 47 43
23 46 42
23 47 43
23 46 42
23 47 43
23 46 42
24 47 43
25 48 44
25 48 43
24 47 43
25 47 43
26 49 44
26 48 44
25 47 43
26 49 45
26 49 44
26 49 44
27 49 44
26 47 43
27 48 44
27 49 44
27 49 44
27 49 44
28 49 44
27 49 44
27 48 44
28 49 44
27 48 43
28 50 45
27 48 43
28 50 45
27 48 44
28 51 46
28 50 45
27 49 44
27 49 44
27 49 44
27 48 44
27 50 45
27 49 44
26 48 43
26 48 44
26 49 44
26 47 43
26 49 45
25 48 43
25 47 43
25 47 43
24 47 43
24 48 43
24 47 43
24 47 43
23 46 42
23 47 42
23 47 43
23 47 43
23 46 42
23 48 44
22 46 42
22 47 43
22 45 42
21 46 42
21 46 42
21 46 42
21 46 42
20 45 41
21 46 42
20 45 41
21 46 42
20 45 41
21 46 42
21 46 42
20 45 41
21 46 42
21 46 42
21 46 42
20 44 40
21 46 42
21 46 42
20 45 41
21 46 42
20 45 41
21 46 42
20 45 41
21 46 42
20 46 42
21 46 42
21 47 43
20 45 41
21 46 42
21 46 42
21 47 43
20 45 41
21 46 42
20 45 42
21 46 42
20 45 42
20 45 41
20 44 41
21 46 42
21 46 42
21 45 41
21 46 42
21 45 42
21 46 42
21 46 43
21 46 42
21 46 42
22 46 42
22 46 42
22 47 43
22 46 42
21 45 41
22 47 43
22 46 42
22 46 42
22 46 42
22 46 42
22 46 42
23 47 42
23 46 42
23 46 42
24 47 43
24 48 44
24 47 43
24 46 42
25 47 43
25 48 43
25 47 43
26 48 44
26 48 43
27 49 44
27 48 44
27 48 44
27 49 44
28 49 44
28 50 45
28 50 45
29 50 45
29 49 45
29 51 46
30 51 46
29 49 44
29 48 44
29 49 44
30 50 45
30 49 45
30 50 45
30 49 45
30 50 45
30 50 45
30 50 45
29 49 45
30 50 46
29 50 45
29 50 46
29 50 45
29 50 45
29 50 45
29 50 45
28 49 45
28 49 44
28 49 44
27 48 44
27 49 44
27 49 44
26 49 44
26 47 43
26 48 43
26 49 44
25 48 44
25 47 43
25 48 44
25 48 44
24 47 43
24 47 43
23 47 43
24 47 43
23 46 42
22 46 42
23 47 43
20 44 41
21 46 42
19 43 40
21 46 42
20 45 41
20 45 41
20 44 41
20 45 41
21 46 42
20 44 40
20 44 40
20 45 41
20 44 40
20 45 41
20 45 41
20 45 41
20 45 41
21 46 42
20 45 42
20 45 41
20 45 41
20 44 41
20 45 41
20 44 40
20 45 41
20 44 40
20 45 41
20 45 41
20 45 41
21 47 43
21 46 42
21 46 42
20 45 41
21 46 42
21 46 42
20 45 41
20 44 41
20 44 41
20 44 40
21 45 42
21 46 42
21 45 41
21 45 42
21 45 41
21 46 42
21 46 42
21 44 41
22 47 43
22 47 43
22 46 42
21 45 41
23 47 43
22 46 42
23 47 43
22 46 42
22 45 41
23 47 43
24 48 44
24 46 42
24 48 43
24 47 43
25 48 44
25 47 43
25 48 44
26 48 44
26 49 44
27 49 44
27 48 44
27 48 44
28 49 45
28 50 45
29 50 45
29 49 45
29 51 46
30 50 45
30 49 44
30 50 45
30 51 46
30 49 44
31 50 46
31 51 46
31 51 46
31 50 45
32 51 46
32 51 46
32 51 46
32 51 46
33 52 47
32 51 46
32 51 46
32 51 46
32 51 46
32 51 46
31 50 45
31 50 45
31 50 45
31 50 45
31 51 46
31 50 46
30 51 46
30 50 45
29 50 45
29 50 45
29 49 45
29 50 45
29 51 46
27 48 43
27 49 44
26 47 42
27 49 45
26 48 44
26 49 44
26 49 44
26 49 45
25 47 43
25 49 44
24 48 43
24 47 43
23 46 42
24 48 44
20 44 41
20 45 41
20 45 41
20 45 41
20 45 41
20 45 41
20 44 40
20 45 41
21 47 43
20 45 42
20 45 41
20 44 40
20 45 42
20 45 41
20 45 42
20 45 41
20 44 41
20 45 41
20 44 41
21 46 42
21 46 42
20 45 41
21 46 42
20 45 41
21 46 42
21 46 42
20 45 41
20 45 41
20 45 41
20 45 41
20 44 41
21 46 42
21 46 43
21 46 42
21 46 42
21 45 41
21 46 42
21 46 42
21 46 42
21 46 42
21 45 42
21 45 41
21 46 42
21 45 41
21 46 42
21 45 41
21 46 42
22 46 43
21 45 41
22 45 41
23 47 43
22 45 42
22 46 42
23 46 42
23 46 42
23 46 42
23 45 41
24 47 43
25 48 44
24 46 42
25 47 43
26 49 44
26 48 44
27 48 44
27 48 43
27 48 44
28 50 45
28 49 44
29 49 45
30 50 45
30 50 46
30 50 45
31 50 45
31 50 45
32 51 46
32 50 45
33 52 47
33 52 47
33 51 46
34 53 48
34 53 47
34 52 47
34 53 47
34 53 47
34 52 47
34 52 46
34 52 47
35 53 47
34 52 46
34 51 46
35 53 47
34 52 47
34 52 46
34 52 46
34 51 46
34 52 47
34 53 47
33 51 46
32 50 45
32 52 47
32 50 45
32 51 45
31 51 46
31 50 45
30 51 46
30 50 45
29 49 45
29 49 45
28 49 44
28 50 45
28 49 45
27 49 44
27 49 45
27 49 44
26 49 44
26 48 44
25 46 42
25 48 43
24 47 42
24 48 43
21 47 43
21 46 42
20 44 41
20 45 42
20 45 41
21 46 42
20 45 41
20 45 41
20 44 41
20 45 41
20 45 41
20 45 41
21 46 42
20 45 42
20 45 42
20 45 41
20 44 41
20 45 41
20 45 41
21 46 42
20 44 41
20 45 41
21 46 42
20 45 41
20 45 41
21 46 42
21 46 42
20 45 41
20 45 41
20 44 40
20 45 41
20 45 41
21 45 42
20 45 41
20 45 41
21 46 42
21 46 42
21 46 42
21 45 42
21 45 41
21 46 42
22 47 43
21 46 42
22 47 43
21 45 42
21 45 41
21 45 41
22 46 42
22 45 41
22 46 42
22 45 41
23 46 42
24 47 43
24 47 42
24 46 42
24 47 43
25 48 43
25 46 42
26 49 45
26 48 43
27 48 44
27 48 43
28 50 46
29 51 46
29 49 44
29 49 45
30 50 45
31 51 46
31 50 45
32 51 46
32 51 46
32 51 46
33 51 46
34 52 47
34 51 46
34 51 46
35 52 47
35 54 48
36 53 48
36 53 48
36 54 48
36 53 48
37 54 48
37 53 47
37 53 48
37 53 48
37 53 48
37 53 48
37 53 48
37 53 47
37 53 47
37 54 49
37 54 48
37 54 48
36 53 47
37 54 49
36 53 47
35 52 47
35 53 47
35 54 48
34 52 47
34 52 47
33 51 46
34 53 48
33 52 46
32 52 47
31 51 46
31 50 45
30 50 45
30 51 46
29 49 44
29 50 45
28 49 45
28 49 44
27 48 44
27 49 44
26 48 43
26 49 44
25 48 43
25 48 44
20 45 42
20 45 41
20 45 42
20 45 41
20 45 41
20 44 41
20 44 41
20 45 42
19 43 40
20 45 41
20 45 41
21 46 42
21 46 42
20 45 41
20 45 41
20 45 41
21 47 43
21 46 42
20 44 41
21 46 42
21 46 42
20 45 41
20 45 41
21 46 42
20 45 41
21 46 42
21 46 42
21 46 42
20 45 41
20 45 41
20 45 41
20 45 41
21 46 42
21 47 43
21 46 42
20 44 41
21 45 41
21 45 42
21 46 42
21 45 42
21 46 42
22 46 42
22 46 42
22 46 42
22 45 41
22 46 42
22 46 42
23 47 43
23 47 43
23 47 43
23 46 42
24 47 43
24 46 42
24 47 42
25 47 43
25 47 43
26 49 44
26 48 43
27 47 43
27 48 44
29 51 46
28 48 43
29 48 44
30 49 44
31 50 45
31 50 45
32 51 46
32 51 46
33 52 47
33 51 45
34 51 46
35 53 47
35 52 47
36 53 47
36 53 47
37 54 49
38 54 49
38 54 48
38 55 49
38 54 48
39 55 49
39 55 49
40 56 50
40 55 49
41 57 51
40 55 49
40 56 50
40 56 50
41 57 50
41 56 50
41 57 50
40 56 50
40 55 49
40 57 50
39 54 48
39 55 49
39 55 49
38 54 49
38 54 48
38 54 49
37 54 48
37 54 49
36 53 47
35 53 47
35 52 47
34 52 46
34 51 46
33 52 46
33 52 46
32 51 46
31 50 45
31 51 46
30 49 44
29 50 45
29 50 45
29 51 46
28 50 46
27 48 43
27 50 45
26 47 43
20 44 41
20 45 41
20 45 42
20 44 40
20 45 41
20 45 41
20 45 41
20 44 40
21 46 42
20 44 41
20 44 40
20 45 41
20 45 41
20 45 41
20 44 41
20 44 40
20 45 42
20 44 41
21 46 42
20 45 42
20 45 41
21 46 42
20 45 41
21 46 42
21 46 42
20 45 41
21 46 42
20 44 41
20 44 41
20 45 41
20 45 41
20 45 41
21 46 42
20 44 40
21 46 42
21 46 42
20 44 40
21 45 41
21 45 42
21 46 42
22 47 43
21 45 41
22 45 41
22 46 42
23 47 43
23 47 43
24 49 44
23 46 42
23 46 42
24 47 43
24 47 43
25 47 43
25 48 44
26 48 43
26 47 43
27 48 44
27 49 44
28 48 44
28 49 44
29 50 45
30 50 45
30 50 45
31 50 46
32 52 47
32 50 45
33 51 46
34 52 47
34 52 46
35 52 47
36 53 47
36 53 47
37 54 48
38 54 49
39 55 49
39 55 49
40 56 50
40 55 49
41 56 50
42 57 50
42 57 51
42 55 49
43 57 51
43 57 50
43 58 51
43 57 51
44 58 51
44 59 52
44 58 52
44 58 52
44 57 51
44 58 51
44 58 52
43 57 51
43 58 52
43 57 51
42 56 50
42 56 50
42 56 50
41 56 50
41 56 49
40 55 49
40 56 50
39 56 50
39 55 49
38 54 48
37 54 48
36 53 47
36 53 48
35 53 47
34 52 47
33 52 46
33 51 46
32 50 45
32 51 46
31 51 46
30 49 45
29 49 45
29 49 44
28 48 44
28 49 45
20 45 41
20 45 41
20 45 42
20 44 41
20 44 41
20 45 42
20 44 40
20 45 41
20 44 40
21 46 42
20 45 41
21 46 42
21 46 42
20 45 41
20 45 41
20 45 41
20 45 41
20 45 41
20 44 40
20 45 41
20 45 42
20 45 42
21 45 42
21 46 42
20 45 41
20 45 41
20 44 41
21 46 42
21 45 42
21 46 42
20 45 41
21 46 42
21 45 42
21 45 41
21 46 42
20 44 40
21 44 41
21 45 41
22 46 42
21 45 42
22 46 42
22 46 42
22 44 41
23 46 42
22 45 41
23 46 42
23 47 43
23 46 42
24 47 43
25 47 43
26 49 44
26 49 45
26 48 44
27 48 44
27 48 43
28 49 45
28 48 43
29 50 45
30 49 44
31 51 46
32 51 46
32 51 46
33 51 46
34 51 46
35 52 47
35 52 47
36 53 48
37 54 48
38 55 49
39 55 49
40 56 50
40 56 50
42 58 52
42 58 51
42 57 51
43 57 51
44 57 51
44 58 52
45 58 51
45 59 52
46 60 53
46 59 53
47 60 53
47 61 54
47 60 53
47 61 54
47 60 53
47 61 54
47 60 53
48 61 54
47 60 53
47 60 53
47 59 53
46 59 52
46 60 53
46 59 52
46 59 52
45 59 52
45 59 52
44 59 53
43 58 51
43 57 51
42 57 50
41 56 50
41 57 51
40 55 49
39 55 49
38 54 49
37 54 48
37 53 48
36 53 47
35 52 46
34 52 47
34 53 47
33 51 46
32 52 47
31 50 46
30 49 44
30 50 45
29 48 44
21 46 42
20 45 42
20 44 40
20 44 41
20 44 41
20 44 41
20 45 41
20 45 41
20 44 40
20 45 41
20 45 41
20 45 42
21 45 42
20 45 41
21 46 43
20 45 41
20 45 42
21 46 42
20 45 41
20 45 41
20 45 41
20 44 41
20 45 41
20 45 41
21 45 42
21 46 42
21 45 42
20 45 41
21 46 42
20 45 41
20 43 40
20 45 41
21 45 41
20 44 40
21 44 41
21 45 41
21 46 42
21 45 42
22 46 42
22 46 42
22 46 43
22 44 41
22 46 42
23 47 43
24 47 43
23 46 42
24 47 43
25 47 43
25 47 42
26 48 44
26 48 44
27 48 43
28 49 45
28 49 44
29 49 44
30 50 45
30 50 45
31 50 45
32 52 47
33 51 46
33 51 46
35 53 47
36 53 48
36 53 47
37 54 48
38 54 48
39 55 49
40 55 49
41 56 50
42 57 51
42 57 51
43 57 50
44 58 51
45 58 52
45 58 51
47 60 53
47 60 53
48 61 54
49 61 54
49 62 55
49 61 54
50 62 55
50 62 54
51 62 55
51 62 55
51 63 56
51 61 54
51 63 55
51 63 56
51 62 55
51 62 55
51 62 55
51 63 56
50 62 55
50 61 54
49 62 54
49 61 54
48 61 54
48 60 53
47 60 53
46 59 52
46 59 52
45 60 53
44 57 51
44 57 51
43 58 51
42 57 51
41 56 50
40 55 49
39 55 49
39 54 49
37 53 48
37 53 48
36 54 48
35 53 47
34 52 47
33 51 46
32 51 46
32 51 46
31 50 45
20 45 42
20 45 41
20 45 41
20 45 41
20 45 41
20 45 41
20 45 41
21 46 42
21 47 43
20 44 41
20 45 42
20 44 40
20 44 40
20 45 42
20 45 41
21 46 42
21 46 42
20 44 40
21 46 42
21 46 42
20 45 42
20 44 41
20 45 41
20 44 40
20 45 41
20 45 41
20 44 40
21 46 43
20 45 41
20 44 41
20 44 40
20 44 40
21 45 42
21 45 41
21 46 42
22 47 43
21 45 41
22 45 41
23 47 43
22 46 42
22 46 42
22 45 42
23 45 41
24 46 42
24 47 43
25 47 43
25 47 43
25 46 42
26 47 42
27 48 43
28 49 44
28 48 44
28 48 43
30 50 45
30 50 45
31 50 45
32 51 46
33 52 47
34 52 47
35 53 48
36 52 47
37 53 48
38 54 48
39 54 48
40 56 50
40 55 49
42 57 50
43 57 51
44 57 51
45 58 51
46 60 53
46 58 52
47 60 53
48 60 53
49 61 54
50 61 54
51 63 55
52 64 56
52 64 56
52 63 56
53 64 57
54 65 57
54 66 58
55 65 57
55 65 57
55 66 58
55 65 57
55 66 58
55 65 57
55 65 57
55 65 57
55 65 57
54 65 57
54 66 58
54 64 56
54 65 57
53 64 56
53 64 56
52 64 57
51 62 55
50 62 55
49 60 53
49 60 53
48 60 53
47 59 52
46 59 53
45 59 52
44 58 51
43 58 52
42 57 51
41 56 50
40 55 49
39 55 49
38 53 48
38 55 49
37 54 48
36 53 48
34 51 46
34 52 47
33 51 46
20 44 40
20 44 41
21 46 42
20 44 41
20 45 42
20 45 41
20 44 40
20 45 41
20 43 40
21 46 42
20 45 41
20 44 40
20 43 40
19 43 40
20 44 40
20 45 41
20 44 41
20 44 41
20 44 41
21 46 42
20 45 41
20 44 41
20 44 41
20 45 41
21 46 42
21 45 42
21 46 42
21 45 42
21 45 41
21 45 41
21 46 42
21 45 41
21 45 41
21 46 42
22 46 42
22 45 42
21 45 41
22 47 43
22 46 42
23 46 42
23 46 42
23 45 41
24 46 42
24 47 43
24 46 42
25 47 43
25 46 42
26 47 42
27 47 43
28 49 45
30 51 47
30 50 45
30 50 45
31 51 46
32 50 45
33 51 46
34 52 47
35 52 46
36 52 47
37 53 47
38 54 48
39 56 50
40 55 49
41 57 50
42 57 51
43 56 50
44 58 51
46 58 52
47 59 52
48 61 54
49 60 53
51 64 57
51 62 54
52 63 56
53 63 56
54 65 57
54 65 57
55 65 57
56 66 58
56 67 58
57 67 58
58 67 59
58 68 59
59 68 60
59 68 60
59 68 60
59 69 61
59 69 60
59 69 60
59 69 60
59 68 60
59 68 60
59 69 60
58 68 60
58 68 60
57 67 59
57 67 59
56 67 58
56 66 58
55 66 58
54 64 56
54 65 57
53 64 57
52 63 56
51 62 55
50 61 54
49 62 55
48 61 54
46 59 52
45 58 52
45 59 52
43 57 51
42 57 50
41 56 50
40 56 50
39 55 49
38 53 47
37 54 48
36 52 47
35 53 48
19 43 40
20 45 41
21 46 42
20 45 41
20 45 41
21 46 42
20 44 41
20 45 41
20 44 41
20 45 41
20 44 40
21 46 42
20 44 41
20 45 41
20 45 41
21 46 42
21 45 42
20 44 40
20 44 40
21 46 42
20 44 41
20 45 41
21 46 42
20 45 41
21 46 43
21 45 42
21 46 42
21 45 41
21 46 42
21 45 42
21 46 42
21 44 41
22 46 42
22 46 42
22 46 42
22 46 42
22 46 43
23 47 43
23 47 43
23 45 41
23 45 41
24 47 42
24 46 42
25 47 43
25 46 42
26 47 43
26 47 42
28 48 44
28 48 43
29 49 44
30 50 45
31 50 45
32 50 45
33 51 46
33 51 45
35 52 47
36 54 48
37 54 48
38 54 48
39 55 49
41 56 50
42 56 50
43 57 51
44 59 52
45 58 51
47 59 52
48 60 53
49 60 53
50 62 55
51 62 55
53 64 56
54 65 57
55 65 57
56 66 58
56 66 58
57 66 58
58 68 59
59 68 60
60 69 61
61 69 61
61 70 62
62 71 62
62 71 62
63 71 62
63 71 62
63 71 62
64 72 63
64 72 63
64 72 63
64 71 62
63 71 62
63 72 63
63 72 63
62 70 61
62 72 63
62 71 62
61 70 61
60 69 60
60 69 61
59 68 59
59 70 61
57 67 58
56 67 59
55 66 58
54 64 56
53 64 56
52 64 56
51 62 55
50 62 55
49 61 54
47 60 53
47 60 53
45 59 52
44 59 52
42 56 50
42 56 50
41 56 50
39 54 48
38 54 48
37 54 48
20 45 42
20 44 40
20 45 42
20 43 40
21 46 42
20 45 41
20 44 41
20 44 40
21 46 43
20 45 41
19 43 39
20 45 41
20 45 41
20 45 41
20 44 41
20 45 41
20 45 41
21 46 42
20 45 41
20 45 42
20 45 41
20 45 41
21 45 41
21 46 42
20 44 41
21 45 41
21 45 41
21 45 41
21 45 41
21 45 41
21 44 41
22 47 43
21 44 41
22 46 42
22 46 42
22 45 42
22 46 42
23 45 41
23 46 42
24 46 42
24 47 43
25 46 42
25 47 43
26 48 44
27 48 44
27 48 43
28 50 45
28 48 43
30 50 45
31 50 45
31 50 45
33 51 46
34 52 47
35 52 47
36 53 48
37 54 49
38 54 48
39 55 49
40 55 49
42 56 50
44 58 52
44 58 52
46 60 53
47 59 52
49 62 55
49 60 53
51 62 54
52 62 54
53 63 56
55 65 57
56 66 58
57 68 60
58 68 59
60 69 60
61 70 61
62 71 62
62 71 62
63 72 62
64 72 63
65 73 64
65 73 63
66 72 63
67 74 64
67 74 64
67 74 65
68 75 65
68 75 65
68 76 66
68 76 66
68 75 65
68 75 65
68 75 65
67 75 65
67 74 64
67 74 64
66 73 64
65 73 63
65 72 63
64 72 63
63 72 62
62 70 61
61 69 60
60 69 61
59 68 59
58 67 59
57 67 59
56 66 58
55 65 57
53 64 56
52 64 57
51 62 55
50 61 54
48 60 53
47 60 53
45 58 51
44 58 51
43 58 52
42 56 50
40 55 49
39 54 48
20 44 41
20 46 42
20 44 41
20 45 41
20 44 41
20 45 41
20 45 41
20 45 41
20 44 40
20 45 41
20 44 41
20 45 41
20 44 41
20 44 41
20 44 40
20 43 40
20 45 41
20 44 41
21 45 42
20 44 41
20 44 41
20 45 41
21 45 41
20 44 40
21 45 41
21 45 41
21 45 42
20 44 41
21 46 42
21 46 42
22 46 42
22 46 42
22 46 42
22 46 42
22 45 42
23 45 42
23 46 42
23 46 43
24 47 43
24 47 43
25 47 43
25 47 43
26 48 44
27 48 43
28 48 44
28 49 44
29 49 44
30 49 45
31 50 46
32 50 45
33 51 46
34 51 46
36 53 47
36 53 47
38 53 47
39 54 49
40 55 49
42 56 50
43 57 51
44 56 50
46 59 52
47 60 53
49 61 53
50 61 54
52 64 57
53 64 56
54 64 57
56 66 58
57 67 59
59 68 60
60 69 60
61 70 61
62 71 62
64 72 62
64 73 63
66 74 65
66 74 64
68 75 65
68 75 65
69 76 66
70 77 67
71 77 67
71 77 67
72 78 68
72 78 68
72 78 68
73 79 68
72 78 68
73 79 68
73 79 69
73 79 68
72 78 67
72 78 68
71 77 67
71 78 67
70 77 67
70 77 67
69 76 66
68 75 65
67 75 65
66 74 64
65 72 63
64 72 63
63 71 62
62 70 62
61 69 60
60 69 60
58 68 59
57 68 60
56 67 59
55 65 58
53 64 56
52 63 56
50 62 54
49 62 55
47 59 53
46 59 52
45 59 52
43 57 51
42 56 50
20 45 41
20 45 41
20 45 42
20 44 40
20 45 41
20 45 41
20 45 41
20 45 41
20 44 41
20 45 42
20 45 41
20 44 41
20 45 41
20 45 42
20 44 41
21 46 42
21 46 43
20 44 40
21 46 42
21 46 42
21 46 42
21 45 41
21 46 42
21 45 41
21 45 41
20 44 41
21 45 42
21 45 41
21 44 40
21 45 41
22 46 42
22 45 41
22 46 42
23 47 43
23 46 42
23 47 43
24 46 42
24 47 43
25 46 42
25 47 43
26 48 44
26 47 43
27 48 44
28 48 43
29 49 44
30 50 45
31 50 45
32 51 46
33 51 46
34 51 46
35 53 47
36 51 46
37 54 48
39 55 49
40 56 50
41 56 49
43 57 51
44 58 52
46 59 52
47 60 53
49 61 53
50 62 55
52 63 56
53 64 56
55 65 57
56 66 58
58 67 59
59 69 60
61 69 61
62 71 62
64 72 63
65 74 64
66 74 64
67 75 65
69 77 67
70 76 66
71 77 67
72 77 67
73 78 68
74 80 69
75 80 69
75 81 70
76 81 70
76 81 70
77 81 70
77 82 71
77 82 71
77 82 71
77 82 71
77 82 71
77 83 72
77 82 71
77 82 71
76 80 69
75 80 69
75 80 69
74 80 69
73 79 68
73 78 68
72 78 68
71 78 67
70 76 66
68 75 65
67 74 64
66 73 64
65 73 64
63 71 62
62 71 62
61 70 61
60 69 60
58 68 59
56 66 58
55 65 57
53 65 57
52 63 55
50 62 54
49 60 53
47 60 53
46 59 52
45 59 52
19 43 39
20 45 41
20 45 42
20 45 42
20 44 41
19 43 40
20 44 41
20 45 41
20 45 41
20 44 41
19 43 40
21 46 42
20 45 41
20 45 41
20 45 41
20 45 42
20 45 41
20 44 40
20 44 41
21 46 42
20 44 41
20 44 41
21 45 42
21 45 42
20 44 41
21 45 41
21 45 41
21 45 41
21 44 41
22 45 42
21 44 40
22 45 41
23 46 42
23 46 42
23 45 41
24 47 43
24 46 42
25 47 42
25 46 42
26 47 43
27 48 44
27 47 43
28 48 44
29 49 45
30 49 44
31 50 46
32 50 45
33 51 46
35 52 47
36 53 48
37 53 47
38 54 48
40 55 49
41 55 49
42 56 50
44 58 52
45 58 52
47 59 53
48 59 52
50 62 55
52 63 55
54 65 57
55 65 57
57 67 59
58 68 59
60 69 60
61 69 60
63 71 62
65 73 64
66 74 64
68 75 66
69 75 65
70 77 67
72 78 67
73 79 68
74 78 68
75 80 69
76 82 71
77 82 71
78 82 71
79 83 72
80 84 73
80 85 73
81 85 73
81 86 74
82 86 74
82 86 74
82 86 75
82 86 74
82 86 74
82 86 74
82 86 74
81 86 74
81 85 74
80 85 73
79 83 72
79 84 72
78 82 71
77 82 71
76 81 70
75 80 69
74 80 69
73 79 68
72 77 67
70 77 67
69 76 66
67 74 64
66 73 64
65 72 63
63 71 62
61 70 61
60 70 61
58 68 60
57 67 59
55 66 58
54 64 56
52 64 57
50 61 54
49 61 54
47 60 53
20 44 40
20 44 40
20 45 42
21 46 42
20 44 40
20 45 41
20 44 41
20 44 41
20 44 41
20 45 42
20 45 41
20 45 42
20 44 41
20 44 41
20 45 41
20 44 40
20 44 41
20 44 40
20 44 40
20 45 41
20 44 40
21 45 42
21 45 41
21 44 41
21 46 42
21 44 40
21 45 41
21 44 41
22 45 42
21 45 41
22 46 42
23 46 42
23 45 41
23 46 42
23 45 41
24 45 41
25 47 43
25 45 41
26 48 44
27 48 43
28 49 44
28 48 43
30 50 45
31 50 46
31 50 45
33 51 46
33 51 45
35 52 47
36 52 47
37 53 48
39 53 48
40 55 49
41 56 49
43 57 50
45 58 51
46 59 53
48 60 53
50 62 54
51 62 55
53 64 56
55 65 57
56 66 58
58 67 59
60 70 61
62 70 61
63 72 63
65 72 62
67 74 65
68 76 66
70 76 66
72 78 68
73 78 67
74 79 69
76 81 70
77 82 71
78 84 72
79 84 73
80 84 73
82 86 74
83 86 74
83 87 75
84 87 75
85 88 76
86 89 77
86 89 76
86 89 77
87 90 78
87 90 78
87 90 77
87 90 77
87 90 77
86 89 76
86 89 77
86 89 76
85 88 76
84 88 76
83 87 75
83 87 75
82 86 74
81 85 73
80 84 72
78 83 72
77 82 71
76 81 70
74 80 69
73 79 68
72 78 68
70 76 66
69 76 66
67 75 65
65 72 63
63 71 62
62 70 61
60 69 60
59 68 60
57 66 58
55 66 58
54 65 57
52 63 55
51 63 56
20 44 40
19 43 40
20 44 40
20 44 41
20 45 41
20 45 41
21 46 42
20 45 41
20 45 42
21 46 42
20 45 41
21 46 42
20 45 41
21 46 42
20 44 40
20 44 40
21 45 42
20 44 40
20 45 41
20 44 40
21 46 43
21 46 43
20 44 40
21 45 41
21 46 42
21 46 42
21 44 40
21 45 41
22 46 42
23 46 43
23 46 42
23 45 41
24 47 43
24 47 42
24 47 43
25 48 43
25 46 42
26 47 43
28 49 45
28 48 44
29 50 45
30 50 46
30 49 45
32 50 45
33 51 46
34 52 46
35 52 47
36 53 47
38 54 48
39 54 48
41 55 49
42 56 49
44 57 51
45 58 52
47 59 52
49 61 54
50 61 54
53 64 56
54 65 57
56 66 58
58 68 59
60 70 61
62 70 61
63 71 62
65 73 63
67 74 65
69 75 65
70 77 67
72 78 67
74 79 68
75 81 70
77 82 71
79 83 72
80 85 73
82 86 74
83 86 75
84 88 75
85 88 76
86 90 77
87 90 78
88 91 78
89 91 78
90 92 79
90 92 79
91 93 79
91 93 80
91 94 81
91 93 80
91 94 80
91 93 80
91 93 80
91 93 80
91 93 80
90 93 80
89 91 78
89 92 79
88 91 78
88 91 78
86 90 77
85 89 76
84 88 76
83 87 75
82 86 74
80 84 73
79 83 72
77 81 70
76 81 70
74 80 69
72 78 68
71 76 66
69 75 65
67 74 64
65 73 64
64 72 63
62 70 61
60 69 60
59 68 60
56 66 58
55 65 57
53 63 55
20 44 40
20 45 41
20 44 40
19 43 40
20 43 40
19 43 40
19 43 40
20 45 41
20 45 41
20 45 41
21 47 43
21 45 42
20 45 41
20 45 41
20 45 41
20 45 41
20 44 41
21 46 42
20 44 40
21 45 41
20 44 40
20 44 41
21 44 41
21 44 40
22 46 42
22 46 42
22 46 42
22 45 41
22 46 42
23 46 42
23 46 42
23 46 42
24 45 42
24 46 42
24 45 41
25 47 42
26 47 43
27 47 43
28 48 43
29 48 44
30 49 45
31 50 46
32 50 45
33 51 46
34 51 45
36 54 48
37 54 48
38 54 49
40 55 49
41 55 49
43 56 50
45 58 52
46 59 52
48 61 54
50 62 54
51 63 55
54 65 57
55 66 58
57 67 59
59 68 59
61 69 60
63 71 62
65 73 63
67 73 64
68 75 65
71 77 67
73 79 68
74 80 69
76 80 70
78 82 71
79 84 72
81 86 74
83 86 74
84 88 75
86 89 76
87 90 78
88 90 78
90 92 79
91 93 80
92 94 81
93 95 82
94 95 82
94 96 83
95 97 83
95 97 83
96 98 84
96 97 84
97 98 84
96 98 84
96 98 84
96 97 83
96 97 84
95 97 83
95 97 83
94 96 82
94 95 82
93 95 81
92 94 81
91 94 80
90 92 79
89 91 78
87 90 78
86 90 78
84 88 75
83 87 75
82 85 74
80 84 72
78 83 72
76 82 70
75 79 69
73 79 68
71 77 67
69 76 66
67 75 65
65 72 63
64 72 63
62 70 61
60 68 60
58 67 59
56 66 58
20 44 41
19 43 40
20 44 41
21 46 42
20 44 40
21 46 42
20 44 41
20 44 41
20 44 41
20 44 41
20 44 40
20 45 41
20 43 40
20 44 40
21 46 42
20 43 40
20 44 41
20 44 40
21 46 42
21 45 42
21 46 42
21 45 41
22 46 43
21 45 41
21 45 41
22 46 42
22 44 41
22 46 42
23 46 42
23 46 42
23 46 42
24 46 42
24 46 42
25 46 42
25 47 42
26 47 43
27 47 43
28 48 44
29 49 44
30 48 44
31 49 44
32 50 45
33 50 45
34 51 46
36 52 47
37 53 48
39 54 48
40 54 48
42 56 49
43 56 50
45 59 53
47 59 52
49 60 53
51 62 55
52 63 55
54 65 57
56 66 58
58 67 58
60 69 61
62 70 61
64 72 62
66 74 64
68 75 65
70 77 66
72 78 67
74 80 69
76 81 70
78 82 71
80 84 73
82 86 74
84 87 75
85 89 77
87 90 77
88 91 78
90 92 79
91 94 80
93 95 81
94 96 82
95 97 83
96 98 84
97 98 84
98 100 85
99 100 86
100 101 86
100 101 86
101 101 87
101 102 87
101 102 88
101 102 87
101 102 87
101 102 87
101 101 87
100 101 87
100 100 86
99 100 85
98 100 86
98 99 85
97 98 84
96 98 84
94 96 82
93 95 81
92 94 80
90 94 81
89 92 79
87 90 77
86 89 77
84 88 76
83 86 74
81 85 73
79 83 72
77 82 71
75 80 70
73 79 68
71 77 67
69 76 66
67 74 64
65 73 63
63 71 62
61 69 60
59 68 59
20 45 41
20 44 41
20 45 42
20 44 41
21 46 42
20 45 41
20 45 42
20 44 41
20 45 41
21 46 42
20 45 41
20 45 41
20 45 41
20 45 41
20 44 41
21 45 42
20 45 41
20 44 41
21 45 41
20 44 41
21 45 42
21 44 40
21 45 42
21 45 42
22 46 42
22 45 41
22 44 41
22 45 41
24 47 43
23 45 41
24 47 43
24 46 42
25 46 42
26 49 44
26 47 43
27 47 43
29 50 45
29 50 45
30 49 44
31 49 44
32 50 45
33 51 46
35 52 47
36 54 48
37 54 48
39 54 48
40 55 49
42 57 51
44 57 51
45 58 51
48 61 54
49 61 54
51 61 54
53 63 56
55 65 57
57 66 58
59 68 59
61 70 62
63 72 63
65 73 64
67 75 65
70 77 67
72 78 68
74 79 69
76 81 70
78 82 71
80 84 73
82 86 74
84 88 75
86 89 77
88 90 78
90 93 80
91 93 80
93 94 81
94 96 83
96 97 83
97 99 84
99 99 85
100 101 86
101 102 87
102 103 88
103 103 88
104 105 89
104 104 89
105 105 90
106 106 90
106 106 90
106 106 91
106 106 90
106 106 90
106 105 90
105 105 90
105 105 90
105 104 89
104 104 89
103 104 89
102 103 88
101 102 87
100 101 86
99 100 86
98 100 85
96 97 83
95 97 83
94 96 82
92 94 81
90 92 79
88 90 77
86 90 77
85 88 76
83 87 75
81 84 73
79 83 72
77 81 70
75 80 69
73 79 68
71 77 67
69 76 66
67 74 64
64 72 63
62 70 61
20 45 42
20 44 41
20 44 40
20 45 41
20 45 41
20 44 40
20 45 41
20 44 41
19 43 40
20 45 42
20 45 41
20 45 41
20 44 41
21 46 42
20 45 41
21 45 42
21 46 42
21 45 41
20 44 41
21 46 42
22 46 43
21 45 41
21 44 40
22 46 42
23 47 43
22 45 41
22 45 41
23 45 41
24 46 42
23 45 41
24 46 42
25 47 43
26 47 43
26 46 42
27 47 43
28 48 44
29 48 44
30 50 45
31 50 45
32 49 44
33 51 46
35 54 48
36 52 47
37 52 47
39 54 48
41 56 50
43 58 51
44 56 50
46 58 52
48 61 54
49 61 54
51 62 55
54 64 56
56 65 57
58 67 58
60 68 60
62 70 61
64 71 62
66 73 64
68 75 65
71 77 66
73 79 68
75 80 70
77 82 71
79 84 73
82 86 74
84 87 75
86 89 76
88 91 78
90 92 79
92 94 81
94 96 82
96 97 83
97 98 84
99 100 85
100 101 86
102 102 87
103 103 89
104 104 89
106 105 90
107 106 91
108 107 92
109 108 92
109 109 93
110 109 93
110 110 94
110 109 93
111 111 94
111 110 94
111 110 94
111 110 94
110 110 94
110 109 93
109 109 93
108 108 92
108 107 92
107 106 91
106 106 91
105 105 89
104 104 89
102 103 88
101 102 87
99 100 85
98 100 85
96 98 84
94 96 82
93 95 81
90 93 79
89 91 78
87 90 77
85 88 75
83 86 74
81 85 73
78 83 72
76 81 70
74 80 69
72 79 68
70 76 66
67 74 64
65 72 63
20 44 41
20 45 42
19 43 40
20 44 40
20 45 41
19 43 40
20 44 41
20 45 41
20 44 41
21 46 42
21 47 43
21 45 42
21 45 42
20 44 40
20 43 39
21 46 42
21 45 41
20 44 41
21 45 41
21 45 41
21 45 41
21 45 41
21 45 41
21 44 40
22 44 40
22 45 41
23 46 42
24 46 43
24 45 42
24 46 42
25 47 43
26 47 43
26 47 43
27 48 44
28 49 44
29 49 45
30 49 45
31 50 45
32 50 45
34 52 47
35 51 46
36 53 47
38 53 48
39 54 48
41 56 49
42 55 49
44 58 51
46 60 53
48 61 54
50 61 53
52 62 55
54 65 57
56 65 57
58 67 58
60 68 60
63 71 62
65 72 62
67 74 64
69 76 66
72 78 68
74 80 69
76 82 71
79 83 72
81 85 73
83 87 75
85 89 77
87 90 78
90 92 79
92 94 80
94 95 82
96 97 83
98 98 84
100 101 87
101 102 87
103 103 88
105 104 89
106 106 90
108 108 92
109 109 93
110 109 93
111 110 94
112 111 95
113 112 95
114 112 96
115 113 96
115 114 97
115 114 97
116 114 97
116 115 98
116 114 97
115 113 97
115 114 97
115 113 96
114 113 96
113 112 96
113 112 96
112 111 94
111 110 94
110 109 93
108 108 92
107 106 91
105 105 90
104 104 89
102 103 88
100 101 86
99 100 85
97 98 84
95 96 83
93 94 81
91 93 80
89 92 79
86 89 76
84 87 75
82 86 74
80 84 73
78 82 71
76 82 71
73 79 68
71 78 68
69 75 65
20 45 41
19 43 40
20 44 41
20 44 40
20 44 40
20 44 41
20 44 40
20 45 42
21 45 42
20 45 41
20 45 41
21 45 41
20 44 40
20 44 40
20 43 40
20 44 41
20 44 40
21 45 42
21 44 41
22 48 44
21 45 41
21 44 41
22 45 41
22 45 41
22 45 41
23 46 42
23 45 41
24 46 42
25 48 44
25 46 42
25 46 42
26 47 43
27 46 42
28 48 43
29 48 44
30 48 44
31 49 45
32 50 45
33 51 46
35 52 47
37 54 49
38 54 48
39 54 48
41 56 50
43 57 51
44 57 51
47 60 53
48 61 54
50 62 54
52 63 56
54 64 56
56 65 57
59 68 60
61 68 60
63 71 62
66 74 64
68 74 65
70 76 66
72 78 68
75 80 70
77 82 71
80 84 73
82 85 73
84 87 75
86 89 76
89 92 79
91 93 80
93 95 82
96 97 83
98 99 85
100 101 87
102 102 88
104 104 89
106 106 90
107 107 91
109 109 93
111 110 94
112 111 94
114 113 96
115 113 97
116 114 98
117 115 98
118 116 99
118 116 99
119 118 100
120 118 100
120 118 100
120 118 100
120 118 101
120 118 100
120 118 100
120 118 100
119 117 100
119 117 100
118 116 99
117 115 98
116 114 97
115 114 97
114 113 96
113 112 95
111 110 94
110 109 93
108 108 92
107 106 91
105 105 90
103 104 89
101 102 87
99 100 86
97 98 84
95 96 83
93 94 81
90 93 80
88 91 78
86 88 76
84 87 75
81 86 74
79 84 72
76 82 71
74 80 69
72 77 67
20 44 41
20 44 41
20 45 42
20 44 41
21 46 42
20 44 40
20 45 42
20 45 42
20 45 42
20 45 41
20 44 41
20 44 41
19 42 39
21 45 41
19 42 39
21 45 41
20 44 40
21 44 41
21 44 41
21 45 41
22 45 41
22 45 41
22 45 41
22 45 41
22 45 41
23 45 41
23 45 41
25 47 43
25 47 42
25 46 42
26 47 43
27 48 44
27 46 42
29 48 44
30 49 45
31 49 45
32 50 45
33 51 46
34 51 46
36 53 47
37 52 47
39 54 48
41 56 50
43 57 51
44 57 50
46 58 51
48 60 53
50 61 54
52 63 55
55 65 57
57 66 58
59 67 59
61 69 60
64 72 63
66 73 64
68 76 66
70 76 66
73 79 69
75 80 69
78 83 71
80 84 72
83 87 75
85 89 76
88 90 77
90 92 79
93 95 81
95 97 83
97 98 84
99 100 86
102 102 87
104 104 89
106 106 90
108 107 92
110 109 93
112 111 95
113 112 95
115 114 97
116 115 98
118 116 99
119 117 100
120 118 101
121 119 101
122 120 102
123 121 103
124 121 103
124 122 104
125 122 104
125 122 104
125 122 104
125 122 104
125 122 104
124 122 103
124 122 103
123 121 103
123 120 102
122 120 102
121 118 101
120 118 100
119 117 100
117 116 99
116 114 97
114 113 96
112 112 95
111 110 94
109 109 93
107 107 91
105 105 90
103 103 88
101 101 87
99 100 86
96 98 84
94 95 82
92 93 80
90 92 79
87 90 77
85 88 76
82 86 74
80 84 72
78 83 71
75 80 69
20 45 41
20 45 41
20 45 42
19 43 40
19 43 40
20 44 41
20 45 41
20 44 40
20 44 41
20 44 41
20 43 40
20 44 41
20 43 40
20 44 41
20 43 40
20 44 41
21 44 41
21 45 42
21 44 41
22 46 42
22 45 42
23 47 43
22 45 41
23 46 42
23 45 42
24 47 43
24 47 43
24 46 42
25 46 42
26 46 42
27 47 43
28 48 44
29 48 44
30 49 44
30 48 44
32 50 45
33 52 47
35 52 47
36 53 47
37 53 47
39 54 49
40 54 48
43 57 50
45 59 52
46 58 51
48 61 54
50 62 55
52 63 56
55 65 58
56 65 57
59 68 60
61 70 61
64 71 62
66 72 63
69 75 65
71 77 67
73 78 68
76 81 70
79 83 72
81 86 74
84 87 75
86 89 77
89 91 78
91 93 80
94 95 82
96 97 83
99 100 86
101 102 87
103 103 88
106 106 91
108 108 92
110 109 93
112 111 95
114 113 96
116 114 97
118 116 99
119 117 100
121 119 101
122 120 102
124 121 103
125 122 104
126 123 104
127 123 105
128 125 106
129 126 107
129 125 107
129 126 107
129 126 107
130 126 107
130 126 107
129 126 107
129 125 106
129 125 107
128 125 106
127 124 105
126 123 105
125 123 104
124 121 103
123 120 102
122 119 101
120 118 100
118 116 99
117 115 98
115 113 96
113 111 95
111 110 94
109 108 92
107 107 91
105 105 89
103 103 89
100 101 87
98 99 85
96 97 84
93 96 82
91 93 80
88 92 79
86 89 76
83 87 75
81 85 73
78 82 71
20 45 41
19 43 39
20 44 41
20 43 40
20 44 41
19 43 40
20 44 40
20 44 41
20 44 41
20 44 41
21 45 42
20 44 40
20 44 40
21 45 41
20 43 40
20 43 40
21 45 41
21 45 41
21 44 41
22 46 42
22 46 42
23 46 42
23 45 42
23 46 42
24 46 43
24 46 42
25 47 43
25 45 42
26 46 42
26 46 42
27 47 43
29 49 44
30 49 44
31 49 45
31 49 44
33 51 46
34 51 46
36 53 47
38 54 49
39 53 48
41 55 49
42 56 50
45 59 53
46 59 52
48 60 53
50 62 54
52 63 55
54 64 56
56 65 57
59 67 58
61 70 61
64 72 63
66 72 63
69 76 66
71 77 67
74 80 69
77 82 71
79 82 71
82 85 74
84 87 75
87 90 77
89 92 79
92 94 81
95 96 83
97 98 84
100 100 86
102 103 88
105 105 90
107 106 90
109 109 93
112 110 94
114 112 96
116 115 98
118 116 99
120 118 101
122 119 102
124 121 103
125 122 104
126 123 105
128 125 106
129 126 107
130 127 108
131 128 109
132 129 110
133 129 109
133 129 110
134 130 110
134 130 110
134 130 110
134 130 110
134 130 111
134 130 110
133 129 110
132 129 110
131 128 109
131 128 109
130 126 107
129 125 107
127 124 105
126 123 105
125 122 104
123 120 102
121 119 101
119 117 99
117 115 98
115 114 97
113 113 96
111 110 94
109 108 93
107 107 91
104 104 89
102 103 88
99 100 85
97 98 84
94 96 82
92 94 81
89 92 79
86 89 76
84 87 75
81 85 74
19 43 40
19 43 40
20 44 41
20 44 40
20 45 42
20 44 40
20 44 41
20 44 41
20 43 40
20 45 41
21 45 41
21 45 41
20 44 40
21 44 41
21 45 41
21 45 41
20 43 39
21 45 41
21 44 41
22 45 41
22 45 42
22 45 41
23 46 42
24 48 44
24 47 43
24 45 41
25 47 42
26 47 43
27 49 44
27 47 42
28 48 43
30 49 45
30 49 45
32 50 45
33 51 46
34 51 46
36 52 47
37 53 48
39 54 48
40 55 49
42 56 50
44 57 51
46 59 52
48 60 53
50 61 53
52 63 55
54 64 56
57 67 59
59 68 59
61 69 60
64 72 63
66 74 64
68 75 65
71 77 67
74 79 69
76 81 70
79 83 72
82 86 74
85 88 76
87 90 78
90 92 79
93 95 81
95 97 83
98 100 85
101 101 87
104 104 89
106 105 90
108 107 92
111 110 94
113 112 95
116 114 97
118 116 99
120 118 101
122 119 102
124 122 104
126 123 105
128 125 106
129 126 107
131 127 108
132 129 109
134 129 110
134 130 111
135 132 112
136 132 112
137 133 113
137 133 113
138 134 114
138 134 113
138 134 114
138 134 114
138 134 113
138 133 113
137 133 113
137 133 113
136 132 112
135 131 111
134 130 111
133 130 110
132 128 109
130 127 108
129 126 107
127 124 105
125 123 104
123 121 103
122 119 101
119 117 100
117 115 98
115 113 97
113 111 95
110 110 94
108 108 92
105 105 90
103 104 89
100 101 87
98 99 85
95 97 83
93 95 82
90 92 79
87 90 77
84 88 76
