P3
120 80
255
18 40 38
19 42 39
19 42 39
18 41 38
18 41 38
18 42 39
18 42 39
18 42 39
18 40 38
19 42 39
18 40 38
18 41 38
18 42 39
18 41 38
18 42 39
18 41 38
18 41 38
18 41 38
19 42 39
19 42 39
19 42 39
18 41 39
19 42 39
18 41 38
18 41 38
18 41 39
18 42 39
18 41 39
19 42 39
19 42 39
19 42 39
18 42 39
18 42 39
18 41 38
18 42 39
19 42 39
18 41 38
18 41 38
19 42 39
19 42 39
18 41 38
19 42 39
19 42 39
18 42 39
19 42 39
19 42 39
18 41 39
19 42 39
19 42 39
19 43 40
19 42 39
19 42 39
18 41 39
18 41 38
18 42 39
19 42 39
19 42 39
18 42 39
18 42 39
18 41 38
19 42 39
19 42 39
18 41 39
19 42 39
19 42 39
19 42 39
18 41 38
18 41 38
19 42 39
19 42 39
19 42 39
18 41 39
19 42 39
19 42 39
18 42 39
18 41 38
18 41 38
18 41 38
19 43 39
19 42 39
19 43 40
19 42 39
18 41 38
18 41 38
19 43 40
18 42 39
19 42 39
19 42 39
19 42 39
19 42 39
19 42 39
19 42 39
18 42 39
18 41 38
19 42 39
19 42 39
18 41 39
19 42 39
18 41 38
18 41 38
19 43 40
18 41 39
18 42 39
18 42 39
18 41 38
19 42 39
19 42 39
18 42 39
18 41 38
18 41 39
18 41 39
18 42 39
18 41 38
19 42 39
18 41 38
18 42 39
19 42 39
18 42 39
18 42 39
18 42 39
19 43 40
19 43 40
19 42 39
18 41 38
19 42 39
19 42 39
19 42 39
19 43 40
19 43 40
19 42 39
19 43 40
18 42 39
19 42 39
19 43 40
19 42 39
18 42 39
19 43 40
19 42 39
19 42 39
19 42 39
19 42 39
19 42 39
19 42 39
19 43 40
19 42 38
19 43 40
19 43 40
19 43 40
19 43 40
19 42 39
19 43 40
19 43 40
19 43 40
19 42 39
18 41 38
19 42 39
19 43 39
19 42 39
19 42 39
19 42 39
19 43 40
19 42 39
19 42 39
19 42 39
19 42 39
18 41 38
19 43 39
19 42 39
19 43 40
19 43 40
19 43 40
19 43 39
19 42 39
19 43 40
19 43 39
19 42 39
19 42 39
19 43 40
19 43 40
19 42 39
18 41 38
18 42 39
19 43 40
19 42 39
19 43 40
19 42 39
19 42 39
19 43 40
19 42 39
19 43 39
19 43 40
19 43 40
19 43 40
19 43 39
19 42 39
19 42 39
19 42 39
19 42 39
19 43 40
19 42 39
19 43 40
19 42 39
19 42 39
19 42 39
19 43 40
19 43 40
19 43 40
20 44 41
19 42 39
19 43 39
19 43 40
19 43 40
19 42 39
19 44 41
19 42 39
18 42 39
19 42 39
19 42 39
19 42 39
19 42 39
19 43 40
19 42 39
19 42 39
18 41 38
19 42 39
19 42 39
18 41 38
18 41 38
19 42 39
18 42 39
19 43 40
19 43 40
18 41 38
19 43 40
19 42 39
19 42 39
19 42 39
19 42 39
19 42 39
18 42 39
19 42 39
19 42 39
19 43 40
18 42 39
19 42 39
19 43 40
19 42 39
19 42 39
19 42 39
19 42 39
19 42 39
19 42 39
19 43 40
19 43 40
19 42 39
19 44 40
19 42 39
19 44 41
19 43 40
19 43 40
19 43 40
19 43 39
19 43 40
19 43 40
19 43 39
19 44 41
19 43 40
19 43 39
18 41 38
19 42 39
19 43 40
19 42 39
19 42 39
19 42 39
20 44 40
19 43 40
19 43 40
19 43 40
19 44 40
19 42 39
19 43 40
20 44 41
19 43 40
20 44 41
20 44 40
19 43 39
19 44 40
19 43 40
19 42 39
19 43 40
19 43 40
19 44 41
19 43 40
19 42 39
19 43 40
19 43 40
19 43 40
19 42 39
19 42 39
19 42 39
19 43 40
19 43 40
19 43 40
19 43 39
19 43 40
19 43 40
19 43 40
20 44 40
19 42 39
19 43 39
19 42 39
20 44 41
19 42 39
19 43 40
19 43 40
19 43 40
19 43 40
19 43 39
19 43 40
19 43 40
20 44 40
19 42 39
20 44 41
20 44 40
19 43 39
19 43 40
19 42 39
19 42 39
19 43 40
19 42 39
19 43 40
19 43 40
19 43 40
19 42 39
19 43 40
19 43 40
19 43 40
19 43 39
19 43 40
19 42 39
19 43 40
19 42 39
19 42 39
19 43 39
19 43 40
19 43 40
19 43 40
19 43 40
19 42 39
19 43 40
19 42 39
19 43 40
19 43 40
19 42 39
19 42 39
19 42 39
19 42 39
19 43 40
19 42 39
19 42 39
19 43 40
19 42 39
19 43 39
19 43 40
19 43 40
19 43 40
19 42 39
19 43 40
19 42 39
19 43 40
19 42 39
20 44 41
19 43 40
19 42 39
19 44 40
20 44 40
19 43 39
20 44 41
19 43 40
19 43 40
19 43 40
19 43 40
19 43 39
19 43 39
19 42 39
19 43 40
19 43 40
20 44 40
20 44 40
20 44 40
19 43 40
20 45 41
19 43 40
19 43 40
20 44 41
20 44 41
19 43 40
19 43 39
19 43 40
19 43 40
19 43 40
20 44 40
20 44 40
19 42 39
19 43 40
19 43 40
19 43 40
19 43 40
19 43 40
20 44 41
20 44 41
19 43 40
19 43 40
19 43 39
20 44 41
20 45 41
20 44 41
20 45 41
20 44 41
19 43 40
19 43 39
19 44 40
19 43 39
20 45 41
19 44 40
19 43 40
20 44 41
19 43 39
19 43 40
19 43 40
19 43 40
20 45 41
20 44 41
19 43 40
20 44 40
19 43 40
20 44 41
20 44 41
20 44 41
20 44 41
19 43 40
20 44 41
19 43 40
20 44 41
19 43 39
19 44 40
20 44 41
19 43 40
20 44 41
19 43 40
20 44 41
19 42 39
19 43 40
20 44 41
20 45 42
20 45 41
19 43 39
19 43 40
20 44 40
20 44 41
20 44 40
19 43 40
20 44 41
20 44 41
19 43 40
20 44 41
19 42 39
19 43 39
19 43 40
20 44 40
19 43 40
19 43 40
19 43 39
20 44 41
19 43 40
19 42 39
20 44 41
19 42 39
19 43 39
19 43 40
20 44 41
19 43 40
19 42 39
19 43 40
19 42 39
19 43 40
19 43 40
19 43 40
20 44 40
20 44 40
20 44 41
19 43 40
20 44 40
20 44 41
19 43 40
19 43 40
20 44 41
19 43 40
20 44 41
20 44 40
20 44 40
20 44 40
19 44 40
20 44 41
19 44 40
20 44 41
20 44 41
19 43 40
20 44 41
19 43 40
20 44 41
19 43 39
19 43 40
19 43 40
20 44 41
19 43 40
20 44 41
20 44 41
20 44 41
20 44 41
19 43 39
20 44 41
20 44 41
20 44 41
19 43 39
19 43 40
20 45 42
20 45 42
20 44 40
20 44 40
19 43 40
20 44 40
20 44 41
20 45 41
20 45 41
20 44 41
20 44 41
20 45 42
20 44 41
20 45 42
20 44 41
20 44 41
20 45 41
20 45 41
20 44 41
20 44 40
20 44 41
19 43 40
20 45 41
21 46 42
20 45 41
20 44 40
20 44 41
20 44 41
20 45 41
20 44 41
20 44 40
20 44 41
20 44 40
20 45 42
20 44 40
21 46 42
20 45 41
20 44 41
20 44 40
20 44 40
20 44 41
20 44 41
20 44 40
20 44 40
20 45 41
20 44 41
19 43 39
20 44 40
20 44 41
20 44 40
20 44 41
20 45 41
20 44 41
20 44 40
20 44 41
20 45 41
20 45 41
20 44 41
20 44 40
20 44 41
20 45 41
20 44 40
20 44 40
19 43 40
19 43 40
20 44 41
20 45 41
19 43 40
19 43 40
19 44 40
19 43 40
20 44 40
19 43 39
19 43 39
20 44 40
19 43 40
19 43 40
19 43 40
20 44 41
20 44 41
20 45 41
20 44 41
20 44 41
20 44 40
20 44 41
20 43 40
20 45 41
19 43 40
20 44 41
20 44 40
20 45 41
19 43 40
20 45 41
20 44 41
20 45 41
19 43 40
20 44 40
20 44 41
20 44 41
20 44 40
20 45 41
20 44 40
20 44 41
20 44 41
20 45 42
20 45 41
20 44 41
20 45 41
20 45 41
20 45 41
20 46 42
19 43 40
20 44 40
20 45 41
21 46 42
20 45 41
20 45 41
20 45 41
21 46 42
20 45 42
20 44 41
20 45 41
20 45 41
20 45 41
20 44 41
20 45 41
20 44 40
20 45 41
20 45 41
20 44 41
20 46 42
20 45 41
20 45 41
20 44 41
21 46 42
20 45 41
20 45 41
21 46 42
21 46 42
20 45 41
20 44 41
20 45 41
20 44 41
20 45 41
20 45 42
20 45 41
20 44 41
20 45 42
20 44 40
20 45 41
20 45 41
20 45 41
20 45 42
20 45 41
20 45 41
21 46 42
20 45 41
20 44 40
20 45 41
20 45 41
20 45 41
20 45 42
21 46 42
20 45 41
20 45 41
21 46 42
20 44 40
20 45 41
20 44 40
20 44 41
21 46 42
20 45 41
21 46 42
20 45 41
20 44 40
19 43 40
20 44 40
20 45 41
20 44 40
20 45 42
20 44 40
20 45 41
20 44 41
20 45 41
20 44 40
20 44 41
20 44 41
20 44 40
20 44 40
20 44 41
20 44 41
20 44 40
19 43 40
20 45 41
20 44 41
20 45 41
20 45 41
19 43 40
20 45 41
19 43 40
20 44 41
20 45 41
20 45 42
20 45 41
20 45 41
20 45 41
20 44 40
20 44 41
20 44 40
20 44 41
21 46 42
20 44 40
20 44 41
20 44 41
20 45 42
20 46 42
20 45 41
20 45 41
20 45 41
20 44 41
20 45 42
20 44 41
20 45 41
20 45 41
21 46 42
20 45 41
20 45 41
20 45 41
20 45 41
21 46 42
20 45 42
20 45 41
20 45 41
21 46 42
20 45 42
20 45 41
20 44 40
20 45 41
21 47 43
20 45 41
20 45 41
20 45 41
21 46 42
21 46 42
21 45 42
20 44 41
20 45 41
21 46 42
21 46 42
20 45 41
21 46 42
20 45 41
21 46 42
20 45 41
21 46 42
21 46 42
21 46 42
21 46 42
21 46 42
20 45 41
21 46 42
20 45 41
21 46 42
20 45 41
21 47 43
20 45 42
20 45 42
21 46 42
20 45 41
20 45 41
21 47 43
21 47 43
21 46 42
20 45 41
21 47 43
21 46 42
20 45 41
21 46 42
21 46 42
21 46 42
20 45 41
20 44 41
20 45 41
20 45 41
20 45 42
20 45 42
20 45 41
20 45 41
20 45 41
20 45 41
20 45 41
21 46 42
20 45 42
20 45 41
20 45 41
20 45 41
20 45 41
20 45 41
20 45 42
21 46 42
20 44 41
19 43 40
20 44 41
20 45 41
20 45 41
21 46 42
20 45 41
20 45 41
21 46 42
20 44 40
20 45 41
20 45 41
20 44 41
20 45 41
20 45 41
20 45 41
20 45 41
20 44 41
20 44 41
20 45 41
20 44 41
20 44 40
20 45 41
20 45 41
20 45 41
21 46 42
21 46 42
21 47 43
20 44 41
20 45 42
21 46 42
20 44 41
20 45 42
20 45 42
21 46 42
20 45 41
21 46 42
20 45 41
20 45 42
21 46 42
20 45 41
21 47 42
20 45 42
21 46 42
20 45 41
21 46 42
20 45 41
20 45 41
20 45 41
21 46 42
21 46 42
20 45 41
21 46 42
21 45 41
21 46 42
21 46 42
21 47 43
21 46 42
20 45 41
21 47 43
21 47 43
21 46 42
21 47 43
21 46 42
21 46 42
20 45 41
21 45 41
21 46 42
21 46 42
21 47 43
21 46 42
21 46 42
21 46 42
21 45 42
21 46 42
21 46 42
21 46 42
21 46 42
21 46 42
21 47 43
21 46 42
21 45 41
21 46 42
21 46 42
21 46 42
21 47 42
21 46 42
21 47 43
21 46 42
20 45 41
21 46 42
21 47 43
21 46 42
20 45 41
21 46 42
21 46 42
21 45 41
21 46 42
21 46 42
20 45 41
21 47 43
21 46 42
21 46 42
21 47 43
21 46 42
21 45 42
21 47 43
21 46 42
20 44 40
21 46 42
21 46 42
21 46 42
21 46 42
21 46 42
21 46 42
20 45 41
20 45 41
21 47 43
21 46 42
20 44 41
21 46 42
20 45 41
20 45 41
20 45 41
21 46 42
21 45 42
20 45 42
21 46 42
21 46 42
20 45 41
21 46 42
21 46 42
20 44 40
20 45 42
20 45 41
20 45 42
21 46 42
20 45 41
21 46 42
21 46 42
21 47 43
20 45 41
21 46 42
20 45 42
21 46 42
20 45 41
20 45 41
20 45 41
21 46 42
21 47 43
21 47 43
20 45 41
21 45 42
20 45 41
21 47 43
20 45 42
21 47 43
21 46 42
21 45 41
21 47 43
20 45 41
21 46 42
21 46 42
21 46 42
21 46 42
21 46 42
21 47 43
21 46 42
21 47 43
21 47 43
21 47 43
21 47 43
21 47 43
21 46 42
21 47 43
21 46 42
21 46 42
21 47 43
21 47 42
21 47 43
21 46 42
21 47 43
21 47 43
21 46 42
21 46 42
21 47 43
21 46 42
21 47 43
21 47 43
22 48 44
21 46 42
21 46 42
21 46 42
21 47 42
21 46 42
21 47 43
22 48 43
21 47 43
22 47 43
21 47 43
21 46 42
21 46 42
21 47 43
21 46 42
21 47 43
22 47 43
21 47 43
22 48 44
21 46 42
22 49 44
21 46 42
21 46 42
22 47 43
21 46 42
21 47 43
21 46 42
21 47 42
21 47 43
21 47 43
21 47 42
21 46 42
21 46 42
21 46 42
21 47 43
21 47 43
21 47 43
21 47 43
21 47 43
21 46 42
21 47 43
21 47 43
20 45 41
21 46 42
21 46 42
21 47 43
21 47 43
21 46 42
21 47 43
21 46 42
21 47 43
21 46 42
21 46 42
21 46 42
21 46 42
21 46 42
21 46 42
20 45 41
21 46 42
21 46 42
21 46 42
20 45 41
21 47 43
21 46 42
21 46 43
21 46 42
21 46 42
20 45 41
21 46 42
21 46 42
20 45 41
21 46 42
20 45 42
20 45 41
21 46 42
20 45 41
21 47 43
21 46 42
21 46 42
21 47 43
21 46 42
21 47 43
20 45 41
21 47 43
21 47 43
21 46 42
21 47 43
21 47 43
21 47 43
21 46 42
21 46 42
20 45 41
21 47 43
21 47 43
21 47 43
22 48 43
21 47 43
21 46 42
21 47 43
21 46 42
21 47 43
21 46 42
21 46 42
21 47 43
22 48 44
21 47 43
21 46 42
21 47 43
21 47 43
21 47 43
21 46 42
22 48 44
22 48 43
22 47 43
22 47 43
22 48 44
21 47 43
21 46 42
22 48 44
21 47 43
22 49 44
22 47 43
22 48 44
22 48 43
21 47 43
21 46 42
22 47 43
22 48 43
22 47 43
22 47 43
22 48 43
22 47 43
21 47 42
21 46 42
22 47 43
22 48 44
22 48 44
21 47 42
22 47 43
21 47 43
21 47 43
22 48 43
22 49 44
22 48 44
21 47 43
22 48 43
22 47 43
22 48 43
21 47 43
22 48 44
22 47 43
22 47 43
21 46 42
22 48 43
22 49 44
21 46 42
22 48 43
21 47 43
21 47 43
21 47 43
22 48 43
22 48 44
21 47 43
22 48 43
21 47 42
21 46 42
21 47 43
21 46 42
21 46 42
22 47 43
21 46 42
21 47 43
21 47 43
21 47 43
21 47 42
21 46 42
21 46 42
21 47 42
21 47 43
21 47 43
21 46 42
21 47 43
21 46 42
21 46 42
21 47 43
20 45 41
21 46 42
21 46 42
20 44 41
20 45 41
21 46 42
21 46 42
20 45 41
21 46 42
21 47 43
21 46 42
21 46 42
21 46 42
21 47 43
22 48 44
21 46 42
21 46 42
21 47 43
21 47 43
21 46 42
21 46 42
21 46 42
21 47 43
21 46 42
21 46 42
21 47 43
21 46 42
21 47 43
21 47 43
21 47 42
21 46 42
21 47 43
22 49 45
21 47 43
22 48 43
21 47 43
22 48 43
21 47 42
22 48 43
22 48 44
22 48 44
22 48 44
22 48 43
21 47 43
21 47 43
22 49 45
21 47 43
21 47 42
22 47 43
22 48 43
21 47 43
22 48 43
22 48 44
22 48 43
22 48 43
22 49 44
22 47 43
23 50 45
22 49 44
22 48 43
22 49 45
22 49 45
22 48 43
22 48 43
21 47 43
22 48 44
22 49 44
22 48 43
22 48 44
22 47 43
21 47 43
22 48 44
22 48 44
22 48 44
22 49 45
22 49 45
22 48 44
22 48 44
22 48 43
21 47 43
21 47 43
22 49 45
22 48 44
22 48 43
22 49 45
22 48 44
22 47 43
22 48 44
22 48 44
22 48 44
21 47 43
22 48 44
22 48 44
22 49 44
22 48 44
21 46 42
22 47 43
22 47 43
21 47 43
21 47 43
21 47 43
21 47 43
21 46 42
21 46 42
21 46 42
21 47 43
21 47 42
21 46 42
22 47 43
21 46 42
22 48 44
21 46 42
21 47 43
21 46 42
21 46 42
22 48 44
21 46 42
22 48 43
21 46 42
21 47 43
21 46 42
21 46 42
21 46 42
21 46 42
21 46 42
21 47 42
22 48 44
21 46 42
21 46 42
22 48 43
21 46 42
21 47 43
21 47 43
21 47 43
21 47 43
21 46 42
22 48 44
21 47 43
21 47 43
21 47 43
22 47 43
21 47 43
22 48 44
22 47 43
22 49 44
22 48 44
22 48 43
22 48 44
21 47 43
22 48 44
22 49 44
21 47 43
21 47 43
22 47 43
21 47 43
22 48 43
21 47 43
22 49 44
22 49 44
22 49 45
22 48 44
21 47 43
21 47 43
21 47 43
22 48 44
22 48 44
22 49 44
22 49 45
22 48 44
22 49 44
22 48 43
22 48 44
22 49 44
22 48 43
22 49 44
22 49 44
22 48 44
22 49 44
22 49 44
22 48 44
22 49 44
22 48 43
22 48 43
22 49 44
22 48 44
22 49 44
22 48 44
22 49 44
22 48 44
22 48 44
22 49 45
22 49 44
22 48 44
22 48 44
22 48 44
22 48 44
22 47 43
22 48 43
23 50 45
22 49 45
22 48 44
22 48 44
23 50 46
22 49 44
22 49 44
23 49 45
22 49 44
22 49 44
22 49 44
22 48 44
22 48 44
21 47 43
22 47 43
22 49 44
23 50 45
22 47 43
22 49 44
22 48 44
21 47 43
22 48 44
21 47 43
21 47 42
22 48 43
22 47 43
22 48 43
22 48 44
21 47 43
21 47 43
22 47 43
22 48 43
22 48 43
22 48 44
21 47 43
22 48 44
21 47 43
22 49 44
21 47 43
22 47 43
21 47 43
21 47 43
21 46 42
21 46 42
21 47 43
21 47 42
21 47 43
22 48 44
21 47 43
21 47 42
21 47 43
21 47 43
22 48 44
21 47 42
21 46 42
21 47 42
21 47 42
21 47 43
21 47 43
22 48 44
22 48 44
21 47 43
22 48 44
22 48 44
22 48 44
22 47 43
22 48 44
22 47 43
22 48 44
22 48 43
21 47 43
22 48 44
22 47 43
21 47 43
22 48 44
22 48 44
22 49 44
22 48 43
22 49 44
22 49 44
21 47 42
22 49 44
22 48 44
22 48 43
22 48 44
23 49 45
22 48 44
22 49 45
23 49 45
22 48 44
22 49 44
22 49 44
22 48 44
22 47 43
22 49 44
22 49 44
23 49 45
22 49 45
22 49 45
22 49 44
22 49 44
22 49 44
22 49 45
22 49 44
23 50 45
23 50 45
23 50 45
22 49 45
23 49 45
23 50 45
22 49 44
22 48 43
22 49 44
23 50 45
22 48 43
22 48 44
22 47 43
22 49 44
22 49 44
22 48 44
23 49 45
21 47 43
22 48 43
22 49 44
22 48 44
22 48 44
22 49 44
23 49 45
22 48 44
22 48 44
23 50 45
23 49 45
22 48 43
22 49 45
22 49 44
23 49 45
22 49 44
22 48 44
22 48 44
22 49 44
22 48 44
22 48 44
22 49 44
22 49 45
22 48 44
21 47 42
21 47 43
23 50 45
21 47 42
22 48 43
22 49 45
22 49 45
21 47 43
22 47 43
22 49 45
21 47 43
21 47 43
22 48 44
22 48 44
22 48 44
21 47 43
22 48 44
21 47 43
22 48 44
21 47 43
21 46 42
21 47 43
21 47 42
21 46 42
21 46 42
22 47 43
22 47 43
22 48 43
21 47 43
22 48 44
22 48 43
22 49 44
22 48 44
22 48 44
21 47 42
22 49 44
23 49 45
22 48 43
22 48 43
22 48 44
22 49 44
22 49 44
22 48 44
22 48 43
22 48 44
22 49 44
22 48 43
22 48 44
22 49 45
22 49 45
23 50 45
23 49 45
22 48 44
22 49 44
22 49 44
22 48 43
22 48 44
22 49 44
22 48 43
22 49 44
22 48 44
22 49 44
22 49 44
22 48 44
22 48 43
22 49 44
23 50 45
22 48 44
23 49 45
23 51 46
22 49 44
23 50 45
23 49 45
23 49 45
22 49 44
23 50 45
22 48 44
22 49 45
22 49 44
23 50 45
23 50 45
23 51 46
23 49 45
23 49 45
22 49 44
22 49 44
23 49 45
22 49 44
23 50 45
23 50 45
23 50 45
23 49 45
23 49 45
23 50 45
23 50 46
23 49 44
23 49 45
22 49 44
23 50 45
23 50 45
22 49 44
23 51 46
23 50 45
23 50 45
23 50 45
22 48 44
22 49 44
22 49 44
22 49 44
22 49 44
23 50 45
22 48 44
22 49 45
22 49 44
23 50 45
22 48 44
22 49 44
22 49 44
22 48 44
23 50 45
22 48 43
22 48 43
22 49 44
22 48 43
22 48 44
22 48 44
22 49 44
22 49 45
22 48 43
22 48 44
22 49 44
22 48 43
22 48 43
22 48 44
22 47 43
22 49 45
22 48 43
21 47 43
21 47 43
22 48 44
22 48 44
21 47 43
22 48 43
21 47 42
21 47 43
22 48 44
21 47 43
22 47 43
22 48 43
22 48 44
22 48 44
22 48 44
22 48 44
22 49 45
22 49 44
22 48 44
22 49 44
22 47 43
22 48 44
22 48 43
22 49 44
22 49 44
22 49 44
22 49 44
23 50 45
22 48 44
22 49 45
22 49 45
22 48 43
22 48 44
23 49 45
22 49 45
23 50 45
22 48 44
23 51 46
22 49 44
23 49 45
22 48 44
23 50 45
22 49 44
23 50 45
22 49 44
23 50 46
23 50 45
22 49 44
22 49 44
22 48 44
23 50 45
23 50 45
23 50 46
23 51 46
22 49 44
23 50 45
23 50 45
22 49 44
23 49 44
23 50 45
23 50 45
23 50 46
23 50 45
23 49 45
24 52 47
22 49 44
23 50 45
23 50 45
23 50 45
23 51 46
23 50 45
22 49 44
23 50 45
23 50 45
23 50 45
23 51 46
22 49 44
23 51 46
23 51 46
22 49 44
23 50 45
23 49 45
23 50 45
23 50 45
23 51 46
23 51 46
23 50 45
23 50 45
23 50 45
23 50 45
23 50 45
22 49 44
23 49 45
23 50 45
22 49 45
22 49 45
23 50 46
23 49 45
22 49 44
22 49 44
22 48 44
22 49 44
22 49 45
22 49 45
22 48 44
22 49 44
22 49 44
22 49 44
22 48 44
22 49 44
22 48 44
23 50 45
22 49 44
22 48 44
22 48 44
22 48 44
22 48 44
22 48 43
22 48 44
22 48 43
21 47 43
22 48 43
22 47 43
22 48 44
22 48 44
21 47 43
22 47 43
22 49 44
22 48 43
22 48 44
21 46 42
21 47 43
22 48 43
22 48 44
22 47 43
22 48 43
22 48 43
22 48 44
22 48 43
22 48 44
22 48 43
22 49 45
22 49 44
23 50 45
22 47 43
23 50 45
22 49 44
22 49 44
22 48 44
22 48 44
22 49 44
23 50 45
22 49 44
22 48 44
23 50 45
22 49 44
23 49 45
23 50 45
23 50 45
23 50 45
22 49 44
23 49 44
23 49 45
23 49 45
23 49 45
23 51 46
23 50 45
23 50 45
23 50 45
23 49 45
22 49 44
23 50 46
23 50 45
23 50 45
22 49 44
22 49 44
23 49 45
23 50 45
22 49 44
23 50 46
22 48 43
23 50 46
23 49 45
23 50 45
23 50 45
23 50 45
24 52 46
23 50 45
23 51 46
23 50 45
22 49 44
23 50 45
23 50 46
23 50 45
23 50 45
23 49 45
22 49 44
22 49 44
23 50 45
24 51 46
23 51 46
22 49 44
23 51 46
23 50 45
24 52 47
23 50 45
23 51 46
23 50 45
22 49 44
23 51 46
23 50 45
22 49 44
23 50 45
23 51 46
22 49 44
23 50 45
22 49 44
22 49 44
22 49 44
22 48 44
22 49 44
23 50 45
22 49 44
22 49 45
23 50 45
23 50 45
22 49 44
22 49 44
22 49 45
22 49 45
23 49 45
22 48 44
23 50 45
22 48 44
22 48 43
22 49 44
22 48 44
23 50 45
23 49 45
23 50 45
22 48 43
21 47 43
22 48 44
22 48 44
22 48 44
22 47 43
22 48 44
21 47 43
22 48 44
22 49 44
22 48 44
22 48 43
21 47 42
22 48 44
22 47 43
22 48 44
22 48 44
22 48 43
22 47 43
22 49 44
22 49 44
22 48 43
22 49 44
22 49 45
22 49 45
23 50 45
23 50 45
22 49 44
23 50 45
23 50 45
23 50 45
22 49 44
22 48 44
22 49 44
22 49 44
22 49 44
23 50 45
23 50 45
23 49 45
23 50 45
22 49 44
23 49 45
23 49 45
22 49 44
22 49 44
22 49 44
23 50 45
22 49 44
23 50 45
23 50 45
23 50 46
23 49 45
23 50 45
23 50 45
22 48 44
23 51 46
23 50 45
23 51 46
23 50 45
24 51 46
23 51 46
23 50 45
23 50 45
23 50 45
23 50 45
23 49 45
23 50 45
22 49 44
23 51 46
23 50 45
23 49 45
23 50 45
23 50 45
23 50 45
23 51 46
23 51 46
23 51 46
22 49 44
23 50 45
23 50 45
23 50 45
23 51 46
23 51 46
23 50 45
23 49 45
22 49 44
23 49 44
23 51 46
23 50 45
23 50 46
22 49 44
23 50 45
23 50 45
23 49 45
23 50 45
23 51 46
23 50 45
22 49 44
23 50 45
23 50 45
23 50 45
22 49 44
23 50 45
23 49 45
23 50 45
22 49 44
22 48 43
22 49 44
22 49 44
22 48 44
23 49 45
23 50 45
22 49 44
23 50 45
22 49 44
22 49 44
23 49 45
23 50 45
23 50 45
22 49 44
22 48 44
22 47 43
22 48 43
22 49 44
21 47 43
21 47 43
22 48 43
22 49 44
22 49 44
22 48 44
22 49 44
22 48 44
22 49 45
22 48 44
22 48 44
22 47 43
22 49 44
22 48 44
22 48 43
23 50 45
22 48 43
22 49 44
23 50 45
22 49 44
23 50 46
22 49 44
23 50 45
22 49 44
22 48 44
22 49 44
23 50 45
22 48 44
23 50 45
22 49 44
23 50 45
22 49 44
23 50 45
22 49 44
23 51 46
23 49 45
23 50 45
23 49 45
23 50 45
23 50 45
22 49 44
23 51 46
23 50 45
23 50 45
23 50 45
22 49 44
23 50 45
23 51 46
22 49 44
23 50 45
23 50 45
24 51 46
23 50 45
23 49 45
23 49 44
23 50 45
23 50 45
23 50 45
23 50 45
24 51 46
23 51 46
23 50 45
23 51 46
23 51 46
23 50 45
23 51 46
23 50 45
23 50 45
23 51 46
24 51 46
23 50 45
23 50 45
23 50 45
23 49 45
23 51 46
23 50 45
23 49 44
23 50 45
22 49 44
24 51 46
23 50 45
23 51 46
23 51 46
23 51 46
23 51 46
23 51 46
23 50 46
23 51 46
23 50 45
23 50 45
23 49 44
23 51 46
23 49 45
23 50 45
23 50 45
23 50 45
23 50 45
23 50 45
22 49 44
23 50 45
22 49 44
22 49 44
22 49 44
23 50 45
22 49 44
23 50 45
22 49 44
22 49 44
23 49 45
22 49 44
22 49 44
22 49 44
22 49 44
22 48 43
22 49 45
22 49 45
22 47 43
22 48 43
22 48 43
22 48 43
22 48 44
22 49 44
22 48 44
22 49 44
22 48 43
22 48 44
22 49 44
22 49 44
22 49 44
22 48 44
22 49 44
22 49 44
22 49 44
22 49 44
22 48 44
23 49 45
22 49 44
22 49 44
22 48 44
22 49 44
22 49 44
22 48 44
23 49 45
23 50 45
23 50 45
22 49 44
22 48 43
22 49 44
22 47 43
23 50 45
23 49 45
23 50 45
23 51 46
23 51 46
23 50 45
23 50 45
23 50 46
23 50 45
22 48 44
22 49 44
22 49 44
23 50 45
23 51 46
23 50 46
23 50 45
23 49 45
23 50 45
23 50 45
23 51 46
23 51 46
23 51 46
22 48 44
23 51 46
23 50 45
24 51 46
23 51 46
23 51 46
22 48 44
24 52 47
23 51 46
23 51 46
23 50 45
24 52 47
24 52 46
23 50 45
23 50 45
23 50 45
23 50 45
23 50 45
23 50 45
24 51 46
23 51 46
23 50 45
23 49 44
23 51 46
23 50 45
23 50 45
23 51 46
22 49 44
23 51 46
23 50 45
23 51 46
23 50 45
23 51 46
23 51 46
23 50 46
23 50 46
22 49 44
23 51 46
23 50 45
22 49 44
23 51 46
23 50 45
23 50 45
22 49 44
23 50 45
23 51 46
23 50 45
23 50 45
22 48 44
22 49 44
22 49 44
23 50 45
23 50 45
23 49 45
23 50 45
22 49 44
22 49 44
23 49 45
22 48 44
22 49 45
22 48 44
22 49 44
22 49 44
22 49 44
22 49 44
22 49 44
22 49 44
21 47 43
22 48 43
22 48 44
22 48 43
22 49 44
22 48 44
22 48 44
22 48 43
22 48 44
22 49 44
22 49 44
22 48 44
22 49 44
22 49 44
22 49 44
22 49 45
23 49 45
22 49 44
22 48 43
23 49 45
23 50 45
22 49 44
22 48 43
23 50 45
23 50 45
22 49 44
22 49 44
23 50 45
22 49 44
23 49 45
23 50 45
22 49 44
22 49 44
23 50 45
23 50 45
23 50 45
22 49 44
23 49 45
23 50 45
22 49 44
23 49 45
22 49 44
22 48 44
23 50 45
23 50 45
23 50 45
23 50 45
23 50 45
23 50 45
23 49 45
23 50 45
23 51 46
23 51 46
23 51 46
24 51 46
23 51 46
23 50 46
23 51 46
23 50 45
23 50 45
24 51 46
23 51 46
24 52 47
23 50 45
23 50 45
23 51 46
24 51 46
23 50 45
23 50 45
23 50 45
23 50 45
23 50 45
23 51 46
24 51 46
23 50 46
23 50 45
23 51 46
24 51 46
23 50 46
23 50 45
23 50 45
23 51 46
23 51 46
22 49 44
23 49 44
23 51 46
23 50 45
23 51 46
23 50 45
23 51 46
23 50 45
23 51 46
23 50 45
22 49 44
23 51 46
22 49 44
23 51 46
23 50 46
23 50 45
23 50 45
23 50 45
23 50 45
23 51 46
23 49 45
23 49 44
23 51 46
23 50 45
22 49 44
23 50 45
23 50 45
23 49 45
23 50 45
23 50 45
23 50 45
23 50 45
22 49 44
22 48 43
23 49 45
21 47 43
22 48 44
22 48 44
22 48 44
22 48 44
22 48 43
22 48 43
22 49 45
22 48 43
21 47 43
22 48 44
23 50 46
70 75 69
93 93 85
59 68 62
22 49 44
22 49 45
22 48 44
22 49 44
22 49 45
23 49 45
23 50 45
22 49 44
23 49 45
23 50 46
23 49 45
22 49 44
22 49 44
22 49 44
22 48 43
22 48 44
23 50 45
28 51 46
45 56 58
57 58 67
38 52 52
23 51 46
22 49 44
22 49 44
23 49 44
22 49 44
22 49 44
23 50 45
23 50 45
23 49 45
22 49 44
23 50 45
23 50 45
23 50 45
23 50 45
23 50 45
24 52 47
23 50 45
58 55 46
138 101 85
123 116 106
67 74 67
23 50 45
23 50 45
23 50 45
23 51 46
23 51 46
24 52 47
23 49 44
23 50 45
23 50 45
24 51 46
23 50 45
23 50 46
23 51 46
23 51 46
23 50 45
23 51 46
23 50 45
27 48 45
32 48 46
29 48 45
24 51 46
22 49 44
23 50 45
23 50 45
23 51 46
22 49 44
23 50 45
23 51 46
23 50 45
23 50 45
22 48 43
23 50 45
23 50 45
23 50 45
23 50 45
22 49 44
23 50 45
23 50 45
23 50 45
23 50 45
23 50 45
24 51 46
23 51 46
23 49 45
23 50 45
22 49 44
23 51 46
23 49 45
22 49 44
22 49 44
23 49 45
23 50 45
23 51 46
22 49 44
22 48 44
23 49 45
22 49 45
23 50 45
22 48 44
22 49 44
23 49 45
23 50 45
22 49 44
22 48 43
22 47 43
22 48 44
22 48 44
22 49 44
22 48 43
22 48 43
22 48 43
22 47 43
22 49 45
69 75 70
168 155 145
209 190 176
219 198 183
234 210 191
185 167 152
60 65 58
22 49 44
22 48 43
22 49 45
22 48 44
22 49 44
22 49 44
22 49 45
23 49 45
22 49 44
23 50 45
22 48 44
23 50 45
22 49 44
22 49 44
42 51 57
89 66 97
90 61 100
115 88 115
144 119 133
73 60 81
27 50 47
23 50 45
22 49 44
23 49 45
23 50 45
23 49 45
23 50 45
23 50 45
23 51 46
22 49 44
23 50 45
23 49 45
23 51 46
23 49 45
23 50 46
151 82 55
227 110 67
222 184 166
246 224 203
221 200 183
153 141 128
23 50 45
23 50 45
23 51 46
23 51 46
23 50 45
24 51 46
23 50 45
23 50 45
23 50 45
23 50 45
23 50 45
24 51 46
23 49 44
23 50 45
41 58 53
33 42 43
58 57 55
123 115 101
146 134 124
204 184 170
122 115 105
23 51 46
23 50 45
23 50 45
22 49 44
23 49 44
23 50 45
23 50 45
23 50 45
23 50 45
23 51 46
23 50 45
23 50 45
23 50 46
23 50 45
23 50 45
23 50 45
22 49 44
23 51 46
23 50 45
23 50 45
23 50 45
22 48 44
22 49 44
22 49 44
23 50 46
23 49 44
23 49 45
23 51 46
22 48 43
23 49 45
23 50 45
23 50 45
23 49 45
23 50 45
22 49 44
22 49 44
23 49 45
23 50 45
22 49 44
22 49 44
22 49 44
22 47 43
22 48 43
22 48 44
22 48 43
22 49 44
22 48 44
22 48 43
22 48 43
22 49 44
51 63 59
165 154 146
183 169 160
189 174 165
199 182 170
223 203 186
239 215 194
189 154 138
47 49 44
22 48 44
22 48 44
22 48 44
22 49 44
23 49 45
23 49 45
22 49 44
22 48 44
22 48 44
23 49 44
23 50 45
23 50 46
37 49 52
76 53 86
78 54 90
79 54 92
83 57 95
104 78 106
97 68 101
75 57 82
23 49 45
22 49 44
23 50 45
23 50 45
23 49 44
22 49 44
22 49 44
23 50 45
23 50 46
23 49 44
23 50 45
23 50 45
23 50 45
121 70 50
208 101 61
205 101 62
192 166 154
192 176 166
200 182 170
207 187 172
134 124 112
22 49 44
22 49 44
23 50 45
23 51 46
22 49 44
24 52 47
23 50 45
23 51 46
23 51 46
23 51 46
23 50 46
23 51 46
35 56 51
100 92 85
33 35 40
32 35 39
44 45 47
179 164 155
193 177 166
190 173 160
86 88 81
23 50 45
23 49 45
23 50 45
23 50 45
23 50 45
23 50 45
23 49 45
23 50 45
23 50 45
23 49 44
23 50 45
23 51 46
23 50 45
23 49 44
23 51 46
23 49 44
23 50 45
23 50 45
23 50 45
23 50 45
23 50 45
23 50 45
23 50 45
23 49 45
22 49 44
23 50 45
23 51 46
23 50 45
23 49 45
23 50 45
22 48 44
23 50 46
22 49 44
22 49 45
22 49 44
23 50 45
23 50 45
23 49 45
22 49 44
23 50 45
21 47 43
22 48 44
22 48 43
22 49 44
22 49 45
22 49 44
22 49 44
22 47 43
22 47 43
100 87 81
161 149 141
166 155 147
167 155 148
181 166 157
188 171 160
195 176 162
204 167 151
113 72 63
22 48 44
23 50 45
22 49 44
23 50 45
22 48 43
23 50 45
22 49 44
23 50 45
22 49 44
22 48 44
22 49 44
22 48 43
53 45 64
67 46 77
80 62 87
127 114 120
154 140 138
160 145 141
139 121 125
91 64 93
43 54 55
22 49 44
24 51 46
22 49 44
23 50 45
23 49 44
23 50 45
23 50 45
23 51 46
23 50 45
22 49 44
23 50 45
30 52 47
151 78 50
174 86 52
180 89 55
173 132 117
170 158 150
168 155 146
174 159 148
167 151 139
29 52 47
23 51 46
23 50 45
23 50 45
22 49 44
23 49 45
23 49 45
23 49 45
22 49 44
23 51 46
23 50 45
22 49 44
73 77 71
87 79 74
53 51 51
53 51 52
67 64 63
168 155 147
165 153 145
163 150 142
126 119 110
23 50 45
23 51 46
23 50 45
23 50 45
23 50 45
22 49 44
23 50 45
23 50 45
23 50 45
22 49 44
23 49 44
23 50 45
22 49 44
23 50 45
23 50 45
23 50 45
22 49 44
23 50 45
23 50 45
22 48 44
23 49 45
22 49 44
23 49 45
23 49 45
22 49 44
23 51 46
23 50 45
23 49 45
23 51 46
22 48 44
23 50 45
22 49 44
22 48 44
23 50 45
22 49 44
22 49 44
22 49 44
22 49 44
22 49 44
22 48 44
22 48 43
22 49 44
22 49 44
22 48 43
22 48 44
22 48 44
22 48 43
22 47 43
22 49 44
111 81 74
145 135 127
151 140 132
151 140 132
149 138 130
150 139 130
162 147 136
170 120 107
129 106 94
22 49 44
22 48 43
23 50 45
22 49 44
22 48 44
22 48 43
22 49 44
22 49 44
22 48 43
22 48 43
22 49 44
23 50 45
57 42 65
86 72 84
144 133 127
155 144 135
148 137 129
148 136 128
151 137 128
141 124 119
66 63 66
23 49 45
22 49 44
22 49 44
23 50 46
23 50 45
23 50 45
22 49 44
23 50 45
23 49 45
22 48 43
23 50 45
42 59 54
142 74 50
153 76 46
158 78 48
156 85 59
150 136 127
144 134 126
139 128 120
135 123 114
65 73 67
23 49 45
22 48 44
23 49 45
23 51 46
23 51 46
23 50 45
23 50 45
23 50 45
23 50 46
23 49 45
23 50 45
79 80 74
94 86 80
134 124 116
127 118 110
67 63 60
146 135 127
141 131 122
134 124 116
122 115 108
22 48 44
23 49 44
23 51 46
22 48 44
23 50 46
23 50 45
23 50 45
22 49 44
23 49 45
23 50 45
22 49 44
22 49 44
23 49 45
23 50 46
23 50 45
23 50 45
23 50 45
22 49 44
23 50 46
23 49 45
22 49 44
22 49 44
23 51 46
23 50 45
22 49 44
23 50 46
22 49 44
23 49 45
23 50 45
23 50 45
22 49 44
22 49 44
23 50 45
22 49 44
23 50 45
23 50 45
23 50 45
22 49 44
22 48 44
22 48 44
22 49 44
21 47 43
22 48 43
22 49 44
22 48 43
21 47 43
22 48 44
22 48 43
22 49 44
97 44 36
126 95 87
131 118 110
131 122 114
126 116 108
131 117 108
122 90 82
131 48 36
114 96 85
22 49 44
22 48 44
22 49 44
22 48 44
22 48 44
22 48 43
23 49 45
22 48 43
22 49 44
23 49 45
22 49 44
22 48 44
41 33 48
109 100 94
129 119 110
125 116 107
128 118 109
120 111 103
119 110 102
120 108 99
69 70 66
23 49 44
22 49 44
22 49 44
23 49 45
22 49 44
22 49 44
22 49 44
23 50 45
22 49 44
23 49 45
23 49 44
34 54 49
120 82 67
126 62 37
125 62 37
130 65 38
132 87 70
117 109 100
115 106 98
108 101 93
31 52 47
23 49 45
22 49 44
23 50 46
22 49 44
23 50 45
23 49 44
23 50 45
23 51 46
23 49 44
22 49 44
23 50 45
70 74 68
83 77 71
86 80 74
106 98 91
65 61 58
120 111 102
120 111 102
116 108 100
100 96 88
22 48 44
23 50 45
23 49 45
23 50 45
22 49 45
23 50 45
23 49 45
22 49 44
22 49 44
22 49 44
22 49 44
23 49 45
22 49 44
22 49 44
22 49 44
22 49 44
22 48 44
22 49 44
22 49 44
23 50 45
23 50 45
23 49 45
22 49 44
23 50 45
22 49 44
23 49 45
23 49 45
23 49 45
23 49 45
23 50 45
23 50 45
23 49 45
22 49 44
22 49 45
23 50 45
22 49 44
22 48 43
23 50 45
22 49 44
22 48 43
22 47 43
22 48 43
22 48 44
22 49 44
22 49 45
22 48 44
22 49 44
22 49 44
22 49 44
66 40 34
99 34 24
95 43 36
101 61 53
90 48 40
108 40 30
94 33 23
83 28 19
64 52 46
22 48 43
21 47 42
23 49 45
22 48 44
22 47 43
23 50 45
22 48 44
22 47 43
22 49 44
22 47 43
22 48 43
23 51 46
37 42 47
81 75 68
98 91 83
92 86 78
85 81 73
86 81 73
101 94 86
99 89 80
37 52 47
23 51 46
22 48 44
22 49 44
22 49 44
22 49 44
22 49 44
23 49 45
22 48 43
22 49 44
22 49 44
23 51 46
25 49 44
77 70 62
94 47 28
100 50 29
104 52 30
95 48 28
93 67 55
86 78 69
78 75 67
22 48 44
22 49 44
22 49 44
23 51 46
22 48 43
23 49 45
23 50 45
23 50 45
23 49 44
22 48 43
22 49 44
23 50 45
37 54 48
48 47 42
75 70 63
68 65 58
33 32 31
80 75 68
95 89 80
83 79 71
59 66 60
22 49 44
22 49 44
23 50 45
22 49 44
23 50 45
23 49 45
22 49 44
22 48 44
22 49 44
23 50 45
22 49 44
23 49 44
23 50 45
22 49 44
23 50 45
22 49 44
22 49 44
22 49 44
22 49 44
23 50 45
22 48 43
22 49 45
22 49 44
22 48 43
23 50 45
22 49 44
22 48 44
23 50 45
22 48 44
22 48 44
22 48 44
22 48 43
23 50 45
23 50 45
22 48 44
22 49 44
22 49 44
22 49 44
22 49 44
23 49 45
21 46 42
22 48 44
22 48 43
22 48 44
22 48 43
22 48 44
21 47 42
22 47 43
21 46 42
28 46 42
54 26 21
59 21 14
62 22 15
42 16 11
53 20 13
54 20 13
55 27 22
21 46 41
21 47 42
22 48 43
22 48 43
22 48 43
22 47 42
22 48 43
22 48 44
22 48 43
22 48 44
22 48 43
22 48 43
22 48 44
21 47 42
48 49 44
43 44 39
51 51 45
32 37 31
36 41 34
49 50 43
41 51 44
22 47 42
22 47 43
22 49 44
22 48 43
23 49 44
23 49 44
22 49 44
22 48 43
22 49 44
22 48 43
22 48 43
22 49 44
22 47 43
31 49 44
37 33 26
43 24 13
35 21 11
38 23 12
48 26 15
36 25 16
25 44 39
22 48 43
22 47 43
22 47 43
22 48 43
22 49 44
22 48 43
22 48 43
22 47 43
22 48 44
22 49 44
22 48 44
22 48 43
22 48 43
23 41 36
7 11 10
4 6 6
5 7 7
16 21 17
37 41 35
40 48 42
22 48 44
22 49 44
22 49 44
22 48 43
23 50 45
22 49 44
22 49 44
23 49 45
22 49 44
23 50 45
22 48 43
23 49 44
22 48 43
22 49 44
22 48 43
22 48 44
22 48 44
22 48 44
23 49 45
22 49 44
22 49 44
23 50 45
23 50 45
22 48 44
22 48 44
22 49 45
23 50 45
22 48 44
22 49 44
23 50 46
22 48 44
22 49 45
22 49 44
22 49 44
22 48 44
23 50 45
22 49 44
22 48 43
21 47 43
22 49 44
22 49 44
21 47 43
22 47 43
22 47 43
21 47 43
22 48 43
22 47 43
21 46 42
21 46 41
20 44 40
20 42 38
26 38 35
12 20 18
10 8 6
11 8 5
11 8 6
24 22 18
22 39 34
21 44 39
21 46 41
22 47 42
22 47 42
22 48 43
21 46 42
21 47 42
21 46 42
22 48 43
22 47 42
21 46 42
21 46 41
20 43 39
18 40 37
16 34 31
10 21 18
9 18 15
9 18 14
10 19 15
18 32 28
20 43 38
20 44 39
22 47 42
21 46 42
22 48 43
22 48 43
22 47 42
22 48 43
22 48 43
22 47 42
22 47 43
22 47 43
22 47 42
20 44 39
18 40 35
16 34 31
10 16 13
10 10 5
9 10 6
11 14 10
16 31 27
20 43 38
21 46 41
22 47 42
22 48 44
22 48 43
22 47 43
22 49 44
22 48 43
22 48 43
22 47 42
22 48 43
22 47 42
21 45 40
21 45 40
18 38 34
10 23 21
2 6 5
2 6 5
2 6 6
9 19 17
16 36 32
20 44 39
21 46 41
22 47 43
22 48 43
22 49 44
22 49 44
22 49 44
22 47 43
23 49 45
22 48 44
22 49 44
22 48 43
22 49 45
22 49 44
22 49 45
22 49 44
22 49 44
22 49 44
22 48 44
22 48 44
23 49 45
23 49 45
22 49 44
23 50 45
22 49 45
22 49 44
22 49 44
22 49 44
22 49 45
22 49 45
22 48 44
22 48 43
22 49 44
22 49 45
22 48 43
22 49 44
22 48 43
22 49 44
22 47 43
22 48 44
22 49 44
21 47 42
22 48 44
22 47 43
22 47 43
21 45 41
20 45 41
18 40 37
16 36 34
14 31 30
13 30 28
12 27 26
11 24 23
9 21 20
10 21 20
10 23 21
14 32 29
19 40 36
20 43 39
21 46 42
21 45 41
21 46 42
22 47 43
22 47 43
22 47 43
22 47 43
22 47 43
21 46 42
21 46 41
18 40 37
15 35 33
13 29 28
13 29 28
11 26 24
11 25 23
10 22 21
12 27 25
14 32 29
19 41 36
21 46 41
21 46 42
22 48 43
22 49 44
21 47 42
22 47 43
22 47 43
22 47 43
22 47 43
22 47 42
22 47 43
21 45 41
16 37 34
13 30 29
12 27 26
11 25 24
10 22 21
11 25 23
12 27 25
13 30 28
17 38 34
22 46 41
21 46 41
22 47 43
22 48 43
22 47 42
22 48 43
21 47 42
22 49 44
22 48 43
21 47 42
22 47 42
21 46 41
19 43 38
14 32 30
13 30 29
13 30 28
10 25 23
11 25 24
12 28 27
13 30 28
17 37 34
21 45 40
22 47 43
21 47 42
22 49 44
22 47 43
23 49 45
22 48 43
22 48 44
22 48 44
23 49 45
22 48 43
22 48 44
22 49 44
22 49 44
22 48 44
22 47 43
22 48 43
22 48 44
23 50 45
23 50 45
23 50 45
22 49 44
22 47 43
22 49 44
22 49 45
22 49 44
22 49 45
22 49 44
22 48 43
22 48 44
22 48 43
22 48 43
22 48 43
22 48 43
22 49 45
22 48 44
22 49 44
22 49 45
22 49 44
22 49 45
21 47 42
21 46 42
21 47 43
21 46 42
21 46 42
20 45 41
19 43 39
18 40 37
18 39 37
18 40 37
18 40 37
19 41 38
20 43 39
20 44 40
20 44 40
21 46 41
21 47 42
22 48 43
22 47 42
22 48 43
21 47 42
21 46 42
22 48 43
21 47 42
22 47 43
21 47 42
22 47 43
21 47 43
21 45 41
19 42 38
19 42 39
18 41 37
19 42 38
19 43 39
20 43 39
21 45 41
22 47 43
21 45 41
22 48 44
21 46 42
22 48 43
22 47 43
22 48 43
22 48 43
22 47 43
22 48 43
22 47 43
22 48 43
21 46 42
22 48 44
21 47 42
20 44 40
20 43 40
19 43 39
19 41 38
20 44 40
21 46 41
21 46 42
22 47 43
23 49 45
22 48 43
22 49 44
22 49 44
22 47 43
22 47 43
22 48 44
22 47 43
22 48 43
22 48 44
22 47 43
22 48 44
22 48 43
21 46 41
22 48 44
21 45 41
20 45 41
20 45 41
21 45 41
21 46 42
22 48 43
22 48 43
22 48 43
22 47 43
22 47 43
22 48 43
22 48 44
22 48 43
22 48 43
23 50 45
22 48 44
22 49 44
22 49 44
22 49 44
23 50 45
22 49 44
22 49 45
22 48 43
22 49 44
23 49 45
22 49 44
23 50 45
22 48 44
22 49 44
22 49 44
22 48 44
22 48 44
23 50 45
22 49 45
22 48 44
22 48 44
22 48 43
22 48 43
22 47 43
22 48 43
22 49 44
22 48 44
22 48 43
22 49 44
22 49 45
22 48 44
22 48 44
21 46 42
22 47 43
21 47 43
21 47 43
21 47 43
21 46 42
22 47 43
22 49 44
21 47 43
22 48 44
21 46 42
21 47 42
22 48 43
22 48 44
22 48 43
22 48 43
22 48 43
21 47 43
21 47 42
22 47 43
22 48 44
22 48 43
22 47 43
21 46 42
22 47 43
21 47 43
22 48 43
21 47 42
21 47 43
22 48 43
21 47 42
22 48 44
22 48 43
22 48 43
21 47 43
22 48 43
21 47 42
22 49 44
21 47 42
22 48 43
22 49 44
22 48 44
22 48 43
23 50 45
22 47 43
22 48 44
22 48 44
22 49 44
22 48 43
22 48 44
21 47 42
22 48 44
21 47 43
22 48 43
22 47 43
22 48 44
22 48 44
22 47 43
22 47 43
22 48 43
22 48 43
22 47 43
21 47 43
22 49 45
22 48 44
23 50 45
22 48 43
22 48 43
22 48 44
22 49 44
22 48 44
23 50 45
22 49 44
22 48 43
22 49 45
22 49 44
21 47 43
22 48 44
22 49 44
22 49 44
22 48 44
22 49 44
22 49 44
22 48 44
22 47 43
22 49 44
22 48 43
22 48 44
22 49 44
22 47 43
22 48 44
22 48 43
22 47 43
21 47 42
22 48 44
22 48 43
22 48 43
22 48 44
22 48 43
22 49 44
22 48 44
22 48 43
22 48 43
22 49 44
22 48 43
22 47 43
22 49 45
21 47 43
22 49 44
21 47 43
22 49 45
22 47 43
22 47 43
22 48 44
22 49 45
22 48 44
22 47 43
22 48 44
21 47 43
21 46 42
22 48 44
21 46 42
22 48 43
21 47 43
21 46 42
21 47 43
21 47 43
21 47 42
21 47 43
21 47 43
21 47 43
22 48 44
22 47 43
22 47 43
22 48 44
22 48 43
21 47 43
22 48 43
22 48 43
22 48 43
22 48 44
22 48 43
21 46 42
22 48 44
21 47 42
22 48 43
21 46 42
22 48 44
21 46 42
22 47 43
22 48 44
22 48 43
22 48 43
21 47 42
21 47 42
21 47 42
22 47 43
22 48 43
22 48 44
22 48 43
23 50 45
21 47 43
21 47 42
22 49 44
22 49 44
22 49 45
22 49 44
22 49 44
22 47 43
22 48 43
22 47 43
22 48 44
21 47 43
22 48 43
22 49 44
22 49 44
22 48 43
22 48 44
21 47 43
23 49 45
22 47 43
22 48 44
22 48 43
22 48 43
22 47 43
22 48 43
21 47 43
22 49 44
22 47 43
23 49 45
22 49 44
22 49 44
22 48 43
22 48 43
22 47 43
22 48 44
22 48 44
23 49 45
22 47 43
22 49 44
22 48 43
23 50 45
22 48 44
22 49 44
22 49 44
22 49 44
22 49 44
22 48 44
22 48 44
22 48 43
22 48 43
22 48 43
22 48 43
22 49 45
22 48 43
22 48 43
23 50 45
22 48 44
22 48 43
22 48 44
22 47 43
22 47 43
22 48 44
22 48 44
21 47 42
23 49 45
22 48 44
22 49 44
22 48 43
22 49 44
22 49 44
22 49 44
22 48 44
22 48 43
22 48 43
22 49 44
22 48 43
22 48 43
22 48 43
21 47 43
21 46 42
22 48 43
21 47 43
21 46 42
22 48 44
21 47 42
21 47 42
21 47 43
22 47 43
22 48 44
22 48 44
21 47 42
21 47 43
22 48 44
21 47 43
21 47 42
21 47 42
22 49 44
22 48 43
21 46 42
22 48 43
22 48 44
22 48 44
21 47 43
22 48 43
22 48 43
22 48 44
21 46 42
22 47 43
22 48 43
22 48 44
22 48 44
22 48 44
22 48 43
22 49 44
22 48 43
21 46 42
22 49 44
22 48 44
22 49 45
22 48 43
22 49 44
22 48 44
22 47 43
21 47 43
21 47 43
22 48 44
21 47 43
22 48 43
21 47 43
22 48 43
22 48 44
22 47 43
22 48 43
22 48 43
22 48 44
22 49 44
22 47 43
22 49 45
22 49 44
22 49 44
22 48 44
22 48 44
22 48 44
22 48 44
21 47 43
22 48 44
22 48 43
22 48 44
21 47 43
22 47 43
22 48 44
22 48 44
22 48 44
21 47 43
22 49 44
22 48 43
21 47 42
22 49 44
22 48 44
22 48 44
22 48 43
22 49 44
22 48 43
22 48 43
22 48 43
21 47 43
22 48 44
22 49 44
22 48 44
22 48 43
22 48 43
22 48 44
22 49 44
22 49 44
22 49 44
22 49 45
22 48 44
21 47 42
22 47 43
22 49 44
21 47 42
21 47 42
22 48 44
22 48 43
22 48 43
22 48 43
21 47 43
21 47 43
22 48 44
21 47 43
22 49 44
22 49 44
21 47 43
22 48 44
21 47 43
22 48 44
21 47 43
22 49 45
22 48 43
21 46 42
21 46 42
21 47 43
21 47 42
21 47 42
21 47 43
22 48 43
21 46 42
22 47 43
21 46 42
22 48 43
22 48 43
22 48 44
22 48 43
22 48 44
22 48 43
22 48 44
22 47 43
20 45 41
21 47 42
21 47 43
22 48 43
22 48 44
22 49 44
21 47 43
22 49 44
22 48 43
21 47 43
22 48 44
22 48 43
21 47 43
22 48 44
21 47 43
22 47 43
22 47 43
22 48 44
21 47 43
21 47 43
22 49 44
21 47 42
22 49 45
22 48 44
22 48 44
22 48 43
21 47 43
21 47 43
22 48 44
22 48 43
21 46 42
22 48 44
22 47 43
22 49 44
22 47 43
22 48 44
22 48 43
22 47 43
22 47 43
22 48 44
22 48 44
21 47 43
22 48 44
21 47 42
22 48 44
22 48 44
22 48 43
22 47 43
22 48 43
22 48 43
22 49 45
22 48 44
22 49 44
22 49 45
21 47 42
22 47 43
22 48 44
22 48 43
22 48 43
22 49 45
22 49 44
22 47 43
22 48 43
22 48 43
22 47 43
22 48 44
22 48 44
21 47 43
22 48 43
21 47 43
22 48 44
22 48 43
22 48 43
22 49 44
22 49 44
22 48 44
22 48 43
22 48 44
22 48 43
22 48 44
22 48 43
21 47 43
22 49 44
21 47 42
22 49 44
21 47 43
22 49 44
21 47 43
21 47 43
22 48 44
21 47 43
22 49 44
21 47 43
22 48 44
22 47 43
22 48 44
22 48 44
22 48 44
22 48 43
22 48 43
21 47 43
21 46 42
21 46 42
21 47 43
22 48 43
21 47 43
21 47 42
21 47 43
21 47 43
21 46 42
21 46 42
21 47 43
21 47 43
21 47 43
22 47 43
21 47 43
21 46 42
22 48 44
21 47 43
22 49 44
22 48 43
22 47 43
21 46 42
22 48 44
21 47 42
22 48 44
21 47 43
21 47 43
21 46 42
21 47 43
21 47 43
22 47 43
22 47 43
22 48 44
21 46 42
21 47 43
21 47 42
22 48 44
22 48 43
21 47 43
22 48 43
21 47 43
21 47 43
22 47 43
22 48 44
22 47 43
21 47 42
22 49 44
21 47 43
22 48 43
21 47 43
22 47 43
21 47 43
22 48 44
22 48 43
21 47 42
22 48 43
22 48 43
22 47 43
22 47 43
22 48 43
22 49 44
22 48 44
21 47 43
22 49 44
22 48 44
22 48 44
21 47 43
22 47 43
22 48 44
21 47 43
22 49 44
21 47 43
22 47 43
22 48 44
22 48 43
22 49 44
22 48 44
22 49 45
22 48 43
22 48 43
22 48 43
22 48 43
23 49 45
22 48 44
22 49 44
22 48 43
22 48 43
22 47 43
22 49 45
22 48 43
22 49 44
22 48 44
21 47 43
22 47 43
22 48 43
21 47 43
22 48 43
22 49 45
22 48 44
21 47 43
22 48 43
22 47 43
22 49 44
22 49 44
22 47 43
22 48 43
22 48 44
21 46 42
22 48 44
22 48 43
22 48 43
21 47 43
22 48 43
21 47 43
22 48 44
22 48 44
21 47 43
21 46 42
22 48 43
21 47 43
21 47 43
21 46 42
21 47 43
21 47 43
21 46 42
22 48 43
21 46 42
21 47 43
21 47 43
21 47 43
22 48 44
21 47 43
21 46 42
21 47 43
22 47 43
21 47 43
21 46 42
21 47 42
21 46 42
22 47 43
21 47 43
21 47 43
21 47 43
21 47 43
22 48 43
21 47 43
21 46 42
21 47 43
22 48 44
21 46 42
21 45 41
22 48 43
22 49 44
21 47 43
21 47 43
22 47 43
22 48 43
21 47 43
21 46 42
21 47 43
21 47 43
21 47 43
21 47 43
21 46 42
21 47 43
21 47 43
21 47 42
22 49 44
22 48 44
22 48 43
22 49 45
22 48 43
22 49 44
22 48 43
21 47 43
22 48 44
22 48 44
22 48 43
22 48 44
21 47 42
21 47 42
21 46 42
21 46 42
21 46 42
21 47 43
21 47 43
22 48 43
22 48 43
22 47 43
22 48 43
21 47 42
22 48 43
22 48 44
22 48 43
22 49 44
22 48 44
21 46 42
22 48 44
22 48 43
22 48 44
22 49 44
22 48 43
21 47 43
22 48 43
21 46 42
22 48 44
21 46 42
22 48 44
21 47 43
22 49 44
22 48 43
23 49 45
22 47 43
21 47 43
22 48 44
22 48 44
21 47 43
21 47 43
22 48 44
22 48 44
22 48 44
22 49 44
22 48 44
22 48 44
21 46 42
21 47 43
22 48 44
22 47 43
22 48 44
21 46 42
22 48 43
21 47 43
22 47 43
22 48 43
22 48 43
22 48 43
21 47 43
22 48 43
21 47 43
22 48 43
21 46 42
21 47 43
21 47 43
21 47 43
21 47 43
21 46 42
21 47 43
21 47 43
22 47 43
21 47 43
21 47 43
22 48 44
21 47 43
21 47 43
22 48 43
21 47 43
22 48 43
22 48 44
22 47 43
21 47 43
21 47 42
22 48 43
22 48 44
22 49 44
22 48 43
21 46 42
21 47 43
21 47 43
21 47 42
21 47 43
21 46 42
22 47 43
22 47 43
20 45 41
21 47 43
21 46 42
21 46 42
21 47 43
21 47 43
22 48 44
22 48 44
21 47 43
21 47 43
21 47 43
21 46 42
21 46 42
21 47 42
22 48 43
21 46 42
22 48 43
21 47 42
22 48 44
22 48 43
21 47 43
21 46 42
21 47 42
22 48 44
21 47 43
21 47 43
21 46 42
22 48 43
22 48 43
22 48 44
22 47 43
22 48 43
22 48 43
21 47 43
22 48 43
22 48 43
22 48 43
21 46 42
22 48 44
22 48 43
21 47 43
22 48 44
22 48 44
21 46 42
20 45 41
21 46 42
22 48 44
22 48 43
21 47 43
22 48 44
21 47 43
21 46 42
21 47 43
21 47 43
22 48 43
22 48 44
22 48 43
21 47 43
22 48 43
22 48 44
21 47 43
21 47 43
22 49 44
22 48 43
21 47 43
21 47 43
22 48 44
22 48 44
21 47 42
22 48 44
22 47 43
22 48 44
21 47 43
22 47 43
22 48 44
21 46 42
21 47 43
21 47 42
22 48 43
21 47 43
21 47 43
21 47 43
22 48 43
21 47 43
21 46 42
22 47 43
21 47 43
21 46 42
20 45 41
21 47 43
21 45 41
21 47 43
21 47 43
21 47 43
21 46 42
21 46 42
21 46 42
21 46 42
21 46 42
21 47 43
21 46 42
21 46 42
22 48 43
22 48 44
21 47 42
21 46 42
21 47 42
21 47 43
21 47 43
22 47 43
22 48 43
21 47 43
22 48 43
22 48 44
21 47 43
22 48 44
22 47 43
22 48 43
21 47 42
22 48 44
21 47 42
21 46 42
22 47 43
21 47 43
22 47 43
22 48 43
21 47 43
21 47 43
21 47 42
21 47 43
22 48 44
22 47 43
22 48 43
22 47 43
22 48 43
21 47 43
22 47 43
21 47 42
22 47 43
22 48 43
21 47 43
21 47 43
21 45 41
21 47 43
21 46 42
21 47 43
22 47 43
21 47 42
22 47 43
22 47 43
21 47 43
21 47 43
22 47 43
22 48 43
22 47 43
21 46 42
22 48 43
21 47 43
21 47 43
22 47 43
22 49 45
23 50 45
22 49 45
21 47 42
22 48 44
22 48 44
22 47 43
22 48 43
21 47 43
22 48 43
21 47 43
21 47 43
22 47 43
21 47 42
21 47 43
21 47 42
21 46 42
21 47 43
21 47 43
22 48 44
22 48 43
22 48 43
21 47 42
21 47 43
21 47 43
22 48 44
21 47 43
21 47 43
21 47 43
21 47 43
21 47 43
22 48 43
22 48 44
22 48 44
21 47 43
22 48 43
22 48 43
21 47 43
21 47 43
21 46 42
21 47 43
22 49 45
21 47 43
21 47 43
22 48 44
21 47 43
21 47 43
21 46 42
21 47 43
21 46 42
21 46 42
21 46 42
21 47 43
21 46 42
21 47 43
22 47 43
21 46 42
21 47 43
21 45 41
21 46 42
21 47 43
21 47 43
21 47 43
21 47 43
21 47 42
21 47 43
21 46 42
22 48 44
22 47 43
21 46 42
21 47 43
21 47 43
21 47 43
22 47 43
22 49 44
21 46 42
22 48 44
21 47 43
21 45 41
22 48 44
21 47 43
21 47 43
21 47 43
21 47 42
22 48 44
21 47 42
22 48 43
21 47 43
21 47 43
21 47 43
22 49 44
21 47 42
21 47 43
22 48 43
21 46 42
21 47 43
21 47 43
21 47 43
22 48 43
21 46 42
22 48 44
21 47 43
22 49 44
21 47 43
21 47 43
22 48 44
21 47 43
21 47 43
22 48 43
21 46 42
22 48 44
21 46 41
21 46 42
21 47 43
22 48 44
22 48 43
22 49 44
22 48 43
22 48 44
22 48 44
22 47 43
21 47 42
21 46 42
22 48 43
22 47 43
22 48 43
22 48 44
21 47 43
21 47 42
21 47 43
21 47 43
22 48 43
22 47 43
21 47 42
22 48 43
22 48 44
22 48 44
23 49 45
22 48 43
21 47 43
21 47 43
22 49 44
22 48 44
21 47 43
22 48 44
21 47 42
22 49 44
22 47 43
21 47 43
21 47 43
21 47 43
21 47 43
22 47 43
21 47 43
21 47 43
21 47 43
21 45 41
21 46 42
22 48 43
22 48 43
21 47 43
22 48 44
22 48 43
21 47 42
21 47 42
22 48 44
22 49 45
21 46 42
21 47 43
21 46 42
21 47 43
21 47 43
21 47 43
21 46 42
21 46 42
21 47 43
21 46 42
22 48 43
21 47 43
21 47 43
21 45 41
21 47 43
21 47 43
21 47 42
21 47 43
21 47 43
21 46 42
21 47 43
21 47 42
21 46 42
21 47 43
21 47 42
21 46 42
21 46 42
21 45 41
21 47 43
21 46 42
21 46 42
21 47 43
22 48 43
21 47 42
22 48 44
21 46 42
21 47 43
22 47 43
21 47 43
21 47 42
22 48 44
22 48 43
21 47 43
21 47 43
21 47 43
22 48 44
21 46 42
21 47 42
22 47 43
21 47 43
21 47 43
21 47 43
21 46 42
21 46 42
22 48 43
21 47 43
21 47 43
22 47 43
21 46 42
22 48 43
21 46 42
21 47 43
22 48 44
22 47 43
22 49 44
21 47 43
22 48 43
21 47 43
21 46 42
22 48 43
21 47 43
22 48 43
21 47 43
21 47 43
22 48 43
21 46 42
22 48 44
22 49 45
22 47 43
22 48 43
21 47 43
21 47 43
21 47 42
22 48 44
22 47 43
21 47 43
21 47 43
21 46 41
21 46 42
22 48 43
21 47 43
22 47 43
21 47 43
22 48 43
21 47 42
21 46 42
22 48 44
21 47 43
21 47 43
22 48 44
22 48 43
21 47 43
21 47 43
21 46 42
21 46 41
21 46 42
21 46 42
21 46 42
21 47 43
22 48 43
21 45 41
21 47 43
21 46 42
21 47 43
22 48 43
21 47 42
21 46 41
21 46 42
21 47 43
21 46 42
21 46 42
21 47 42
21 47 43
21 47 43
21 46 42
21 46 42
21 46 42
22 48 43
21 45 41
21 46 42
21 46 42
20 45 41
21 46 42
21 46 42
21 46 41
21 47 43
21 47 43
22 47 43
21 46 42
22 49 44
21 47 43
22 48 44
21 46 42
20 44 41
21 47 43
21 46 42
20 45 41
21 46 42
22 48 44
21 47 43
21 47 43
21 47 42
22 48 44
22 47 43
21 47 43
22 48 43
21 46 42
22 48 44
21 46 42
21 47 43
21 47 43
21 47 43
21 46 42
20 45 41
20 45 41
21 47 43
21 47 43
22 47 43
21 46 42
22 47 43
21 46 42
21 46 42
21 47 43
21 46 42
22 49 45
21 46 42
21 46 42
21 47 43
21 47 43
21 47 43
21 46 42
21 46 42
22 47 43
21 47 42
22 47 43
21 46 42
22 48 43
22 47 43
21 47 42
21 46 42
21 47 43
22 48 43
22 47 43
21 47 43
22 48 44
21 47 43
21 46 42
22 48 44
21 47 43
22 48 44
21 47 43
21 47 42
22 48 44
21 47 42
21 46 42
21 46 42
22 47 43
22 48 43
22 47 43
21 46 42
21 47 43
22 48 44
21 46 42
21 46 42
21 46 42
21 47 43
22 47 43
21 47 43
21 47 43
20 45 41
21 46 42
21 47 43
22 48 44
21 47 43
21 46 42
21 46 42
21 47 43
21 47 43
21 46 42
21 47 43
21 47 43
21 47 43
21 47 43
21 46 42
21 47 42
21 46 42
22 48 43
21 47 43
21 47 43
21 46 42
21 46 42
21 46 42
21 47 43
21 47 42
20 45 41
21 46 42
21 47 43
21 47 43
21 45 41
21 46 42
21 47 43
21 47 43
21 46 42
21 47 43
21 46 42
21 45 41
21 45 41
21 46 42
21 46 42
21 47 43
21 47 43
21 47 43
21 46 42
21 46 42
21 47 43
21 47 43
21 46 42
22 48 44
21 47 43
21 46 42
21 46 42
21 47 43
20 45 41
21 47 43
21 47 43
21 47 43
22 47 43
21 47 43
21 47 43
21 46 42
21 45 41
22 48 44
21 47 42
21 47 43
22 48 43
22 48 43
21 47 43
21 47 43
21 46 42
22 48 43
22 48 43
21 46 42
22 47 43
21 47 43
22 47 43
21 46 42
22 48 44
22 48 44
21 46 42
21 46 42
22 47 43
21 47 43
21 46 42
22 48 44
22 48 44
22 47 43
22 47 43
21 47 43
22 47 43
21 45 41
21 46 42
21 47 43
21 47 43
21 46 42
22 48 43
21 47 43
21 47 43
21 47 43
21 46 42
21 46 42
21 47 43
22 48 44
22 48 44
21 45 41
21 47 43
21 47 42
21 47 43
21 46 42
22 48 43
22 48 43
21 47 43
21 47 43
21 45 41
21 47 43
21 47 43
21 46 42
21 47 43
21 47 43
21 46 42
21 47 43
21 47 43
21 46 42
21 47 43
22 47 43
21 47 43
21 46 42
21 47 43
21 47 43
21 46 42
21 47 43
21 47 43
21 47 43
21 47 43
21 46 42
21 47 43
21 47 43
21 47 43
21 47 43
21 47 42
21 47 43
21 47 43
20 45 41
21 46 42
21 46 42
21 46 42
21 45 41
21 47 43
21 46 42
21 47 43
21 47 43
21 46 42
21 46 42
21 46 42
22 48 44
21 46 42
21 47 43
21 46 42
21 47 43
21 46 42
21 47 43
21 46 42
21 47 43
21 46 42
22 48 43
21 45 41
21 46 42
21 46 42
21 46 42
21 46 42
21 46 42
21 47 43
21 47 43
21 47 43
20 45 41
21 47 43
21 45 41
21 46 42
22 48 44
20 44 40
22 47 43
21 47 43
21 47 43
22 48 43
22 48 44
22 47 43
21 47 43
21 46 42
21 47 43
21 46 42
22 47 43
21 46 42
21 46 42
22 48 44
21 46 42
21 47 42
22 48 43
22 47 43
22 47 43
22 47 43
22 48 43
22 48 44
22 47 43
22 47 43
21 46 42
21 46 42
21 46 42
21 46 42
22 47 43
22 48 44
22 48 43
22 48 43
21 47 43
22 48 43
22 47 43
21 46 42
22 48 43
22 47 43
21 47 42
22 47 43
21 47 43
22 47 43
21 47 42
21 47 43
21 47 43
21 46 42
22 48 43
21 46 42
22 47 43
21 46 42
21 46 42
21 46 42
22 48 43
21 47 42
22 48 44
21 46 42
22 48 44
21 47 43
22 48 44
22 48 44
21 47 42
21 47 43
22 48 44
21 47 43
21 47 43
21 47 43
20 45 41
21 47 43
21 46 42
21 46 42
22 48 44
21 46 42
21 47 43
21 46 42
21 46 42
21 47 43
21 47 43
21 46 42
21 47 43
21 46 42
21 46 42
20 45 41
21 46 42
20 45 41
21 46 42
21 47 43
21 45 42
21 46 42
21 47 43
21 46 42
21 47 43
21 47 43
21 46 42
21 46 42
21 46 42
21 46 42
21 47 43
20 45 41
21 47 43
21 46 42
21 46 42
21 46 42
21 46 42
21 46 42
20 45 41
21 47 43
21 47 43
21 47 43
21 46 42
21 47 43
21 47 43
21 46 42
21 46 42
21 46 42
21 47 43
22 47 43
21 47 42
21 47 43
21 47 43
21 47 43
21 47 42
21 46 42
21 45 42
21 46 42
22 48 43
21 47 43
21 47 43
22 47 43
21 47 43
21 45 41
21 46 42
21 47 42
22 48 43
22 47 43
21 47 43
22 47 43
22 48 43
22 47 43
22 47 43
22 47 43
22 47 43
22 47 43
22 46 42
22 47 43
22 48 44
22 46 42
22 47 43
22 46 42
21 46 42
22 48 43
22 47 43
21 46 42
21 46 42
22 47 43
22 48 43
22 48 43
22 47 43
22 48 44
22 47 43
22 47 43
22 47 43
22 47 43
22 48 43
22 47 43
22 47 43
21 47 43
21 47 43
22 48 44
21 47 42
22 47 43
21 47 43
21 47 43
21 46 42
22 47 43
21 47 43
21 47 43
21 47 43
21 46 42
21 46 42
21 47 43
21 47 43
22 48 43
21 47 43
21 47 43
21 47 43
21 46 42
21 46 42
21 47 43
21 47 43
21 47 42
21 46 42
21 47 43
21 46 42
21 46 42
21 47 43
21 47 43
21 47 43
21 47 43
21 46 42
21 47 42
21 47 42
21 46 42
21 45 41
21 47 43
21 47 43
21 47 43
21 47 43
21 47 43
21 46 42
20 45 41
21 47 43
21 45 41
20 45 41
21 47 43
21 46 42
21 46 42
21 45 41
21 45 41
20 45 41
21 46 42
21 46 42
20 45 41
21 47 43
20 45 41
21 46 42
20 45 41
21 47 42
21 46 42
21 47 43
21 47 43
21 47 43
21 47 43
21 46 42
21 46 42
21 46 42
21 45 41
21 46 42
21 47 43
21 46 42
21 46 42
21 46 42
21 46 42
21 46 42
21 46 42
21 47 43
21 47 43
21 46 42
21 46 42
22 47 43
21 46 42
21 46 42
22 47 43
22 47 43
22 47 43
22 47 43
21 46 42
22 46 42
21 46 42
22 47 43
23 49 45
22 47 43
22 47 43
22 46 42
22 48 44
22 46 42
21 46 41
22 47 43
21 45 41
22 47 43
22 46 42
22 47 43
22 47 43
22 46 42
22 47 42
22 48 43
23 48 44
21 46 42
22 48 44
22 47 42
22 47 43
22 47 43
22 46 42
22 47 43
22 47 42
22 48 44
22 47 42
22 47 43
22 47 42
21 46 42
21 46 42
21 46 42
21 46 42
22 47 43
22 48 44
22 47 43
21 46 42
21 47 43
21 47 43
21 46 42
21 47 43
22 48 44
21 47 43
22 47 43
22 47 43
22 47 43
21 46 42
21 47 43
21 46 42
21 46 42
21 47 43
21 46 42
21 47 43
20 45 41
21 46 42
21 46 42
21 47 43
21 46 42
21 47 42
21 47 43
21 47 43
21 47 43
20 45 41
21 47 43
21 46 42
21 45 42
21 46 42
21 47 43
21 46 42
21 46 42
21 46 42
21 46 42
21 46 42
21 46 42
21 46 42
21 47 43
21 47 43
21 46 42
20 45 41
21 46 42
21 47 43
21 46 42
21 46 42
21 46 42
21 45 41
21 47 43
21 47 43
21 46 42
21 45 41
21 46 42
21 46 42
21 47 43
20 45 41
21 47 43
21 47 43
21 46 42
21 46 42
21 46 42
21 45 41
21 46 42
22 48 44
21 46 42
21 45 41
22 47 43
22 47 43
22 47 43
21 45 41
22 47 43
22 47 43
21 46 42
21 45 41
22 48 44
22 47 43
22 47 43
22 47 43
22 46 42
22 47 43
22 46 42
22 47 43
22 47 43
22 47 43
23 48 43
22 47 43
22 47 43
23 48 44
22 46 42
22 46 42
22 46 42
23 48 44
23 47 43
23 47 43
22 46 42
22 46 42
22 47 43
22 47 42
23 47 43
23 47 43
22 46 42
22 47 43
23 49 44
22 47 42
22 46 42
22 46 42
22 47 42
22 47 43
22 47 43
22 47 43
22 47 43
22 47 43
22 47 43
22 46 42
23 48 44
21 46 42
22 47 42
21 46 42
21 47 42
21 45 41
21 46 42
22 47 43
21 46 42
21 47 43
21 47 43
21 47 42
22 47 43
22 47 43
21 47 43
22 47 43
21 46 42
22 48 44
21 47 43
22 48 44
21 46 42
21 47 43
21 46 42
21 47 43
21 47 43
21 46 42
21 47 43
21 46 42
21 46 42
21 46 42
21 47 43
21 46 42
21 46 42
21 46 43
21 47 43
20 45 41
21 46 42
20 45 41
20 45 42
20 45 41
21 46 42
20 45 41
21 47 43
21 46 42
21 47 43
21 46 42
21 46 42
20 45 41
21 45 41
21 46 42
20 45 41
21 46 42
21 46 42
21 46 42
21 47 42
21 47 43
21 46 42
21 46 42
21 46 42
21 45 41
21 47 43
21 47 43
21 46 42
21 46 42
21 47 43
21 45 41
21 47 43
21 46 42
21 46 42
21 46 42
21 46 42
21 46 42
21 45 41
21 46 42
21 46 42
22 46 42
21 46 42
22 47 43
22 47 43
22 46 42
22 47 43
22 47 43
22 47 43
22 46 42
21 45 41
22 47 43
23 48 43
23 47 43
23 47 43
23 47 42
23 47 43
23 47 43
23 46 42
23 48 44
23 47 43
23 47 42
23 48 44
23 46 42
23 46 42
24 48 44
23 47 43
24 48 44
23 47 42
23 46 42
23 47 43
23 47 43
22 46 42
23 47 43
23 48 44
23 47 43
23 47 43
23 48 44
22 47 43
22 47 43
23 48 44
22 47 43
22 47 43
22 46 42
22 46 42
22 47 43
22 47 43
22 47 42
22 47 43
22 46 42
21 46 42
21 46 42
22 47 43
21 45 41
21 46 42
21 47 43
21 46 42
21 46 42
21 46 42
22 47 43
21 47 43
21 46 42
21 45 41
21 46 42
21 46 42
21 47 43
21 47 43
21 47 43
21 46 42
21 46 42
21 46 42
21 47 43
21 46 42
21 46 42
21 46 42
20 45 41
20 45 41
20 45 41
21 46 43
21 46 42
21 46 42
21 46 42
20 45 41
21 46 42
21 46 42
20 44 41
21 46 42
21 47 43
21 47 43
20 45 41
20 45 41
20 45 41
21 46 42
21 46 42
20 45 41
21 46 42
21 46 42
21 46 42
21 46 42
21 46 42
21 47 43
21 46 42
21 46 42
21 46 42
20 45 41
21 46 42
21 46 42
21 46 42
21 47 42
21 45 42
21 46 42
21 46 42
21 47 43
21 46 42
22 47 43
21 45 41
22 47 43
21 45 42
22 47 43
22 47 43
22 47 43
22 47 43
21 45 42
22 46 42
22 47 43
22 47 43
22 47 43
23 47 43
23 47 43
23 47 43
23 47 43
23 48 43
23 47 43
24 48 43
23 47 43
23 46 42
24 48 43
24 47 43
24 47 43
24 49 44
24 47 43
23 46 42
24 48 43
24 47 42
24 47 43
25 49 44
24 46 42
25 50 45
24 48 43
24 47 43
24 48 44
24 49 44
24 49 44
24 47 43
24 48 43
23 46 42
24 48 43
23 47 43
23 47 42
23 48 43
24 48 44
23 46 42
23 48 43
23 46 42
23 47 43
23 47 43
22 47 43
22 46 42
23 48 44
22 47 43
22 46 42
22 47 43
22 46 42
22 48 44
21 45 41
22 47 43
21 46 42
22 47 43
22 47 43
22 47 43
21 45 41
22 47 43
21 46 42
22 47 43
22 48 43
22 47 43
21 47 43
21 47 43
22 48 43
21 47 43
21 46 42
21 46 42
21 46 42
21 45 41
20 45 41
21 46 42
21 45 42
21 46 43
21 46 42
20 45 41
21 46 42
20 45 41
20 45 41
20 45 42
21 46 42
21 46 42
21 45 42
21 46 42
21 47 43
21 47 43
20 45 41
20 44 41
21 45 42
21 46 42
21 45 41
20 45 41
21 47 43
21 46 42
21 46 42
21 46 42
21 46 42
21 47 43
21 45 42
20 45 41
21 45 42
21 45 41
21 46 42
21 46 42
21 46 42
21 46 42
21 47 43
21 46 42
21 46 42
22 46 42
22 47 43
21 46 42
22 46 42
21 45 41
21 45 41
22 48 43
22 47 43
22 46 42
23 49 44
22 47 42
23 47 43
22 45 41
23 47 43
23 47 42
23 47 43
24 48 44
24 48 44
24 47 43
24 48 43
24 48 43
24 48 43
24 48 43
24 47 43
25 48 43
25 49 45
25 47 43
25 49 44
25 47 43
25 49 45
25 47 43
25 48 44
25 47 43
25 49 44
25 48 44
25 47 43
26 49 45
25 48 44
25 49 44
25 48 44
25 47 43
25 49 44
25 47 43
24 47 43
24 47 42
24 46 42
24 47 43
24 47 43
24 47 43
23 47 43
23 47 43
23 47 43
24 48 44
23 48 44
23 48 43
23 47 43
23 47 43
22 47 43
22 46 42
22 47 43
22 46 42
22 47 43
21 46 42
22 46 42
22 46 42
22 47 43
22 46 42
22 47 42
21 45 41
21 46 42
21 46 42
21 45 41
21 45 41
21 47 43
21 46 42
21 46 42
21 47 43
21 46 42
21 46 42
21 46 42
21 46 42
21 47 43
21 46 42
21 46 42
21 46 42
20 45 41
21 46 42
21 47 43
21 45 42
20 45 41
21 46 42
21 46 42
20 44 40
21 46 42
21 46 42
21 46 42
21 46 42
21 46 42
21 46 42
20 45 41
21 46 42
21 47 43
21 45 42
21 46 42
20 44 40
21 45 41
21 47 43
21 46 42
21 46 42
21 46 42
21 46 42
21 47 43
22 47 43
21 46 42
21 45 41
21 46 42
22 47 43
21 46 42
22 47 43
21 46 42
22 47 43
22 46 42
22 48 43
22 46 42
23 48 44
23 47 43
22 47 43
23 47 42
23 47 43
23 46 42
23 47 43
23 47 43
24 47 43
24 48 44
24 47 43
24 47 43
24 47 43
25 49 45
25 47 43
25 48 44
25 47 43
25 46 42
26 49 45
26 49 44
26 48 44
26 49 44
26 49 45
27 49 45
27 49 45
27 49 44
27 49 45
27 49 44
27 49 44
26 48 44
27 49 44
27 49 45
27 49 44
27 49 44
26 48 44
26 49 44
26 47 43
26 48 43
25 46 42
26 48 44
26 48 44
25 48 43
25 47 43
25 48 43
25 48 44
25 48 44
24 47 43
24 48 44
24 47 43
24 47 43
23 47 42
23 47 43
23 46 42
23 46 42
23 46 42
22 46 42
23 48 44
22 46 42
23 48 44
22 47 43
23 48 43
22 46 42
21 45 41
22 47 43
21 46 42
21 46 42
22 47 43
21 45 41
21 46 42
21 45 41
21 47 43
21 46 42
21 45 41
21 46 42
21 46 42
21 47 43
21 46 42
21 47 43
21 46 42
20 45 41
20 45 41
21 46 42
20 45 42
21 45 42
20 45 41
20 44 41
21 47 43
20 45 41
20 45 41
21 46 42
21 45 42
20 45 41
21 45 42
21 46 42
21 46 42
21 47 43
21 46 42
21 47 43
21 45 42
21 46 42
21 45 41
21 45 41
21 45 42
21 47 43
20 45 41
21 45 41
21 46 42
21 46 42
21 46 42
21 47 43
22 47 43
21 46 42
22 46 42
21 46 42
22 46 42
22 46 42
23 48 43
22 47 43
23 47 43
22 46 42
23 46 42
23 47 43
23 46 42
23 47 43
23 45 41
24 47 42
24 47 43
24 48 43
25 49 45
25 48 43
25 48 44
25 48 44
26 48 44
26 49 44
26 49 44
26 48 44
26 48 44
27 48 43
27 48 44
27 49 44
27 49 44
28 49 45
28 49 44
28 49 44
28 49 45
28 49 44
28 50 45
28 50 45
28 48 43
28 50 45
28 50 45
28 49 44
28 49 44
27 48 43
28 48 44
28 49 44
28 50 45
28 50 45
27 49 44
27 48 44
27 48 43
27 49 44
27 49 44
26 48 44
27 50 45
26 48 44
26 50 45
25 48 44
25 48 44
24 47 42
24 46 42
24 48 43
24 47 43
24 48 44
24 47 43
23 47 43
23 47 43
23 47 43
22 46 42
23 48 44
22 46 42
22 47 43
22 46 42
22 47 43
22 47 43
22 48 44
21 46 42
21 46 42
21 46 42
22 47 43
21 46 42
21 47 43
21 46 42
21 45 41
21 45 42
21 45 41
21 47 43
20 45 41
21 46 42
21 47 43
21 46 43
21 45 42
21 46 42
20 45 41
21 46 42
20 44 40
21 47 43
21 46 43
20 45 41
20 45 41
20 44 41
21 46 42
21 46 42
21 46 42
21 46 42
20 45 42
21 46 42
20 45 41
21 46 42
21 46 42
21 46 42
21 46 42
21 45 41
20 44 41
21 46 42
21 45 41
21 45 41
21 46 42
22 46 42
21 46 42
22 48 44
22 47 43
22 47 43
22 46 42
22 46 42
22 45 41
23 47 43
22 46 42
23 46 42
24 48 44
23 46 42
24 47 43
24 47 43
24 48 44
25 48 43
25 47 43
25 48 44
25 47 43
26 49 44
26 48 44
26 49 44
27 50 45
27 49 44
27 48 44
27 49 44
28 50 45
28 50 45
29 50 45
29 49 44
29 50 45
29 49 44
29 49 45
29 48 44
30 50 45
30 50 45
30 50 45
30 50 45
30 50 46
30 50 46
30 49 45
30 49 45
30 50 45
30 49 45
30 50 45
30 50 45
30 50 45
29 50 45
29 50 45
29 49 45
29 50 45
29 49 45
28 49 45
28 49 45
28 49 45
28 49 45
27 49 45
27 49 44
27 49 44
26 48 44
25 47 43
26 49 44
25 48 44
25 48 43
25 48 44
25 48 44
24 48 43
24 48 43
23 46 42
23 47 43
23 46 42
23 47 43
22 46 42
22 46 42
22 47 43
22 46 42
22 47 43
22 47 43
22 48 43
22 47 43
21 45 42
22 47 43
22 47 43
21 46 42
21 47 43
21 46 42
21 45 42
22 47 43
21 46 42
21 47 43
21 46 42
21 46 42
21 46 42
20 45 41
20 45 41
21 47 43
20 45 41
21 45 42
21 47 43
20 44 41
21 46 42
21 46 42
21 47 43
20 45 41
21 46 42
21 46 42
21 47 43
21 46 42
21 45 41
21 46 42
21 46 42
21 46 42
21 45 41
21 46 42
21 46 43
21 46 42
21 45 41
21 46 42
21 46 42
21 45 41
21 45 41
21 45 41
22 45 41
22 46 42
22 47 43
23 46 42
23 47 43
23 47 43
24 47 43
23 46 42
24 46 42
24 48 43
24 47 43
25 48 44
25 47 43
26 48 44
26 48 44
26 48 43
27 49 45
27 49 44
27 49 44
28 49 44
28 49 44
28 49 44
29 49 44
29 49 44
30 50 46
30 50 45
30 50 45
31 50 46
31 51 46
31 51 46
32 51 46
31 50 45
32 51 45
32 51 46
32 50 45
32 52 46
32 51 45
32 51 46
32 51 46
33 52 47
32 52 47
32 51 45
32 51 46
32 51 46
31 50 45
32 51 46
31 50 45
31 51 46
31 50 45
30 49 45
30 51 46
30 50 45
30 50 46
29 50 45
29 49 45
28 49 44
28 49 44
28 48 44
27 48 44
27 48 44
27 49 44
26 49 44
26 48 43
25 47 43
25 47 43
24 47 43
24 47 42
24 46 42
24 46 42
24 47 43
23 47 43
22 45 41
23 46 42
22 46 42
22 47 43
22 46 42
22 46 42
23 48 44
22 46 42
22 46 42
22 46 42
22 47 43
21 45 41
21 45 41
21 45 41
21 45 41
21 45 41
21 45 42
21 46 42
20 44 41
20 44 40
21 46 42
20 45 42
20 45 41
20 45 41
21 45 42
21 46 43
20 44 40
21 45 42
21 46 42
20 45 41
21 46 42
20 45 41
21 46 42
21 45 42
21 45 41
20 45 41
21 46 42
21 45 41
21 46 42
21 46 42
21 46 42
21 46 42
21 46 42
22 47 43
21 45 41
22 46 42
22 46 42
22 46 42
22 46 42
22 45 41
23 47 43
22 46 42
24 48 44
23 46 42
24 47 43
24 48 44
24 47 42
25 47 43
26 49 44
26 48 44
26 49 44
26 48 44
27 49 44
27 49 44
28 50 45
28 49 44
29 49 45
29 49 45
29 49 44
30 50 45
30 50 45
31 51 46
31 50 45
32 52 47
33 53 48
33 52 47
32 50 45
33 51 46
34 52 47
34 52 47
34 52 47
34 51 46
34 52 47
35 53 47
34 51 46
35 53 47
35 53 47
35 53 47
35 53 48
35 52 47
34 52 46
35 52 47
34 52 46
35 53 48
34 53 47
34 52 46
34 52 47
33 52 47
32 51 46
33 52 46
32 51 46
32 51 46
31 51 46
31 50 45
30 50 45
30 51 46
29 49 45
29 48 44
29 50 45
28 49 44
28 49 44
28 50 45
26 47 43
26 48 44
26 47 43
25 47 43
25 48 44
25 47 43
24 46 42
25 48 44
24 47 43
24 47 43
23 46 42
23 46 42
23 46 42
22 46 42
22 46 42
22 46 42
21 45 41
21 45 41
21 46 42
22 46 42
21 46 42
21 46 42
21 45 42
21 46 42
21 47 43
21 46 42
21 46 42
20 44 41
20 45 42
20 45 42
20 45 41
21 47 43
21 45 42
20 45 41
21 46 43
20 45 41
21 46 42
20 45 41
20 45 41
21 47 43
21 46 42
21 46 42
21 47 43
21 46 42
21 45 41
21 46 42
21 46 42
21 45 41
21 46 42
21 46 42
22 46 42
22 46 42
21 45 41
22 46 42
22 46 42
22 45 41
23 47 43
23 47 43
23 46 42
23 47 43
24 47 43
24 47 43
25 49 45
25 47 43
25 47 43
26 47 43
26 48 44
27 49 44
27 49 45
28 48 44
28 49 44
28 48 44
29 50 45
30 50 45
30 49 44
31 50 45
32 52 47
32 52 47
33 51 46
33 52 46
34 52 47
34 52 46
35 53 48
35 52 47
35 51 46
36 53 47
36 54 48
36 53 47
37 54 48
37 53 47
37 54 48
37 54 48
37 54 48
37 53 47
38 54 49
38 54 48
38 54 48
38 54 48
37 54 48
37 54 48
37 53 48
37 55 49
37 53 48
36 53 47
36 54 48
36 54 48
35 52 47
35 53 47
34 52 47
34 52 47
33 51 46
33 52 47
32 51 46
32 50 45
32 51 46
31 51 46
30 49 45
30 50 45
29 50 45
29 49 44
28 49 45
28 49 44
27 48 44
26 47 43
27 49 44
25 46 42
25 47 43
25 47 43
24 47 43
24 47 43
24 48 44
23 46 42
23 47 43
23 47 43
23 46 42
23 47 43
22 46 42
22 46 42
22 47 43
22 46 42
21 46 42
22 46 42
21 46 42
21 46 42
21 46 42
22 47 43
21 46 42
21 46 42
20 45 41
20 45 41
21 47 43
20 45 41
20 45 41
20 45 41
21 45 41
20 44 41
20 44 40
20 45 41
20 45 41
21 45 42
21 46 42
21 47 43
20 45 41
21 45 42
21 46 42
21 46 42
22 47 43
21 46 42
21 45 41
22 46 42
22 47 43
22 47 43
23 47 43
22 46 42
22 46 42
23 47 42
23 45 41
23 46 42
24 48 44
24 47 43
25 48 43
26 49 45
26 48 44
26 48 44
27 48 44
27 49 44
28 49 44
28 49 44
29 49 45
29 49 44
30 49 44
30 49 44
31 50 46
31 49 44
32 51 46
33 51 45
34 52 47
34 53 47
35 53 48
35 52 46
36 54 48
37 54 48
37 53 48
38 54 48
38 55 49
39 56 50
39 56 50
39 55 49
40 55 49
40 55 49
40 55 49
40 54 48
41 56 50
41 57 50
41 56 50
41 57 51
41 56 50
41 56 50
41 56 50
40 56 50
40 56 50
40 55 49
40 56 50
39 56 50
39 55 49
39 55 49
38 54 48
38 54 49
37 54 48
37 54 48
36 53 47
35 52 47
35 52 46
34 53 48
34 52 47
33 51 46
32 51 46
32 50 45
31 51 46
31 50 45
30 50 45
29 49 44
29 51 46
28 48 44
28 49 44
27 48 44
27 48 44
26 48 43
25 47 43
25 47 43
25 49 44
25 48 43
24 46 42
24 47 43
23 46 42
23 47 43
23 47 43
22 46 42
22 46 42
22 45 41
22 46 42
22 47 43
22 46 42
21 46 42
21 45 41
21 45 41
20 45 41
21 46 42
20 45 42
20 45 41
20 44 41
20 45 41
20 44 40
20 45 41
21 45 42
20 45 41
21 45 42
20 45 41
21 46 42
21 46 43
21 47 43
21 46 42
21 46 42
22 47 43
21 46 42
22 46 43
22 47 43
22 46 42
22 46 42
22 46 42
22 46 42
22 46 42
23 47 42
23 47 43
23 46 42
23 45 41
24 47 43
24 47 43
25 47 43
25 47 43
25 47 43
26 48 43
27 49 44
27 49 44
27 47 43
28 49 44
29 50 45
30 50 45
30 50 45
31 51 46
32 51 46
32 51 46
33 51 46
34 51 46
35 53 48
35 52 46
36 54 48
37 53 48
37 53 48
38 55 49
39 55 49
39 55 49
40 55 49
41 57 51
41 56 50
41 56 50
42 56 50
43 57 51
43 57 51
43 57 51
43 57 50
44 58 51
44 58 52
44 58 51
44 58 51
44 58 51
44 57 51
44 58 51
44 58 51
44 58 52
43 57 51
43 58 51
43 57 51
43 58 52
42 57 51
42 57 51
41 56 49
41 56 50
40 56 50
39 55 49
39 55 49
38 54 49
38 54 49
37 54 48
36 54 48
35 53 47
35 52 47
34 52 47
33 52 46
33 51 46
32 51 46
31 51 46
31 51 46
30 50 45
29 49 44
29 49 44
28 50 45
27 47 43
27 49 45
27 49 44
25 47 43
25 47 43
25 48 44
24 47 43
24 48 44
23 46 42
23 46 42
23 46 42
22 46 42
22 46 42
23 47 43
22 45 41
22 46 42
22 46 42
22 46 42
21 46 42
20 44 41
20 45 41
20 44 41
21 46 42
21 45 42
20 45 42
21 46 43
21 46 42
21 45 41
20 45 41
21 45 42
20 45 41
21 46 42
21 46 42
21 46 42
21 45 42
21 45 41
21 46 42
22 46 42
22 47 43
22 46 42
21 45 41
22 46 42
22 46 42
23 46 42
23 46 42
23 46 42
24 47 43
24 46 42
24 47 42
25 47 43
25 48 43
26 48 44
26 47 43
26 47 42
27 47 43
28 48 43
28 48 44
29 50 45
30 49 45
31 49 45
31 50 45
32 50 45
33 50 45
34 52 46
35 52 47
36 53 48
36 53 47
37 54 49
38 54 49
39 56 50
39 55 49
40 56 50
41 55 49
42 57 51
42 56 50
43 57 51
44 58 52
44 58 51
45 58 51
45 58 52
46 59 52
46 59 52
47 59 53
47 60 53
47 60 53
48 61 54
47 60 53
47 60 53
48 61 53
48 60 53
48 61 54
47 60 53
47 59 52
47 59 52
47 61 54
46 59 53
46 59 52
45 59 52
45 58 51
44 58 52
44 58 52
43 57 50
43 57 51
42 57 50
41 57 50
40 55 49
40 55 49
39 55 49
38 54 48
37 54 48
36 53 47
36 54 48
35 53 47
34 52 47
33 52 47
32 51 46
32 51 46
31 51 46
30 49 44
29 49 44
29 49 44
28 48 44
27 48 43
27 48 44
26 48 43
26 48 44
26 48 43
25 48 43
24 47 43
25 48 44
23 46 42
23 47 43
23 47 43
23 46 42
22 46 42
22 46 42
21 44 41
21 45 41
22 46 42
20 45 41
21 46 42
20 44 40
21 45 42
20 45 41
21 46 43
21 47 43
20 45 41
20 45 41
21 46 42
21 45 41
20 44 40
21 47 43
20 44 40
21 46 42
21 46 42
21 46 42
22 46 42
22 46 42
22 45 41
22 46 43
22 45 41
22 45 41
23 46 42
23 46 42
24 47 43
24 46 42
24 47 43
25 47 43
25 48 44
26 47 43
26 48 43
27 47 43
27 48 44
28 50 45
29 49 44
29 49 45
30 50 45
31 49 44
32 50 45
33 51 46
34 52 47
34 52 47
35 52 47
36 53 47
37 53 47
38 54 48
39 54 48
40 56 50
41 55 49
42 57 51
43 58 52
43 57 50
44 57 51
44 57 51
46 59 52
46 60 53
47 60 53
48 60 53
48 61 54
49 61 54
49 61 54
50 62 55
50 62 55
50 62 55
51 63 56
51 62 55
51 63 55
51 63 55
51 63 55
52 64 56
51 62 55
51 63 56
51 63 55
51 63 56
50 62 54
50 62 55
49 61 54
49 61 54
48 61 54
48 60 53
47 60 53
47 60 53
46 59 52
45 59 52
44 59 52
43 58 51
43 57 50
42 56 50
41 56 50
40 56 50
39 54 49
38 54 49
37 54 49
36 52 47
36 53 48
34 52 47
34 52 47
33 51 46
32 50 45
31 49 44
30 49 45
30 50 45
29 49 44
28 48 43
28 49 44
27 48 44
26 46 42
26 48 43
26 48 44
25 48 43
24 47 43
24 47 42
23 46 42
23 46 42
23 47 42
23 47 43
23 47 43
22 45 41
22 47 43
20 45 41
20 45 41
21 47 43
20 45 41
21 46 42
20 44 41
21 46 42
21 45 41
21 46 42
21 45 41
21 46 42
21 45 42
21 46 42
21 45 41
21 46 42
21 44 40
21 45 42
22 46 42
21 44 41
22 46 42
22 46 42
23 46 42
23 46 42
23 46 42
24 47 43
24 48 43
24 47 43
25 46 42
25 47 42
26 47 43
27 48 43
28 49 44
28 48 44
29 51 46
30 50 46
30 49 45
31 49 44
32 51 46
33 52 47
34 51 46
35 52 46
36 53 48
37 54 48
38 54 48
38 54 48
40 55 49
40 55 49
42 57 50
43 57 51
43 57 51
44 57 50
45 58 52
46 60 53
47 59 53
48 61 54
49 62 55
50 62 55
51 62 55
51 62 55
52 63 55
52 64 56
53 64 56
53 64 56
54 65 57
54 65 57
54 64 57
55 65 57
55 66 58
55 65 57
55 65 57
55 66 58
55 65 57
55 65 57
55 66 58
55 66 58
54 65 57
54 64 56
53 65 57
53 63 55
52 63 56
51 62 55
50 61 54
50 62 54
49 62 54
48 61 54
47 60 53
47 59 52
46 59 53
45 58 52
44 58 51
43 57 51
42 58 51
41 55 49
40 55 49
39 54 48
38 54 48
37 55 49
36 54 48
35 53 47
34 52 46
33 52 47
32 51 46
31 50 45
31 51 46
30 49 44
29 49 44
28 49 44
28 48 44
27 48 43
26 48 44
26 48 44
25 47 42
24 46 42
24 47 43
24 46 42
24 47 43
23 47 42
23 47 43
22 46 42
22 46 42
20 45 41
20 45 41
21 46 42
20 45 41
20 45 41
21 46 42
20 44 40
21 45 42
21 46 42
21 45 41
21 46 42
20 44 41
22 48 44
21 45 42
21 45 41
22 46 42
21 45 41
22 46 42
23 47 43
23 47 43
23 47 43
23 47 43
23 46 42
24 47 42
25 48 44
25 47 43
25 46 42
26 48 44
26 48 43
27 48 44
28 49 44
29 49 44
30 50 45
30 50 45
31 51 46
32 50 45
33 52 47
34 52 47
35 52 47
36 53 47
37 53 47
38 54 48
39 55 49
40 56 50
41 56 50
42 57 51
43 57 51
44 57 51
46 59 52
47 59 52
48 61 54
49 61 54
50 62 54
51 63 55
52 63 56
53 64 56
54 65 57
54 65 57
55 65 57
56 66 58
56 67 58
57 66 58
58 67 59
58 68 59
59 68 60
59 69 60
59 68 60
59 69 60
59 68 60
60 69 60
59 68 60
59 69 60
59 69 61
59 68 59
58 68 59
58 68 60
58 67 59
57 67 58
56 66 58
56 67 58
55 66 58
54 64 56
53 64 56
53 64 56
52 64 56
51 63 55
50 60 53
49 61 54
48 60 53
47 60 53
46 59 53
45 58 52
43 57 51
43 57 51
41 55 49
40 55 49
39 54 48
38 54 48
37 54 49
36 54 48
36 53 48
34 52 47
33 52 46
32 51 46
32 51 46
30 49 45
30 49 45
29 50 45
28 47 43
28 49 44
27 49 44
26 49 44
26 48 44
25 48 44
24 46 42
24 47 43
23 46 42
23 46 42
23 46 42
22 46 42
20 45 42
20 45 41
21 46 42
20 45 41
21 45 41
21 45 41
20 44 41
20 45 41
21 45 42
21 46 42
21 46 42
21 45 42
21 45 42
22 46 42
21 45 41
22 47 43
22 46 42
22 45 42
23 46 42
23 46 42
23 46 42
24 47 42
24 46 42
25 48 43
25 47 43
26 47 43
27 48 44
26 47 42
27 48 43
29 49 44
29 49 45
30 49 44
31 51 46
32 50 45
33 51 46
33 50 45
35 53 48
36 52 46
37 54 48
38 55 49
39 53 48
41 56 50
42 57 51
43 57 51
44 58 51
45 59 53
47 60 53
47 59 52
49 61 54
50 61 53
51 62 54
52 64 56
53 64 56
54 65 57
55 65 57
56 66 58
57 67 59
58 67 59
59 68 60
60 70 61
60 69 60
61 69 60
62 71 62
62 71 62
63 72 63
63 71 62
63 72 62
64 72 63
64 72 63
64 72 62
64 72 62
63 71 62
63 71 62
63 72 63
63 71 62
62 71 62
62 70 61
61 69 60
61 70 61
60 69 60
59 69 60
58 68 59
58 68 59
56 66 58
55 65 57
55 66 58
54 65 57
53 65 57
51 63 55
50 61 54
49 62 54
48 60 53
47 60 54
45 58 51
44 58 51
43 57 51
42 57 51
41 56 50
40 56 50
38 54 48
37 53 48
36 53 48
35 52 46
34 51 46
34 53 48
32 50 45
31 50 46
30 49 44
30 50 45
29 49 45
28 48 43
27 48 44
27 49 45
26 47 43
25 47 43
25 47 43
25 48 44
23 45 41
24 48 44
24 48 44
20 45 41
20 45 41
20 44 40
20 45 41
21 45 42
21 46 42
20 44 40
21 45 41
21 46 42
21 45 42
21 45 41
21 46 42
21 45 42
22 46 42
22 45 41
22 46 42
22 46 42
22 45 41
23 46 42
23 45 42
24 46 42
24 46 42
25 47 43
26 48 44
26 48 43
27 48 43
27 48 43
28 49 45
29 48 44
30 50 46
30 49 44
32 50 45
33 51 46
34 51 46
35 52 47
36 54 49
37 54 48
38 55 49
39 55 49
40 55 49
42 56 50
43 56 50
44 58 51
46 59 53
47 60 53
48 60 53
50 62 54
51 63 55
52 63 56
53 64 57
54 64 57
56 66 57
57 67 59
58 68 59
59 68 59
60 69 60
61 70 61
62 70 61
63 70 61
64 72 62
65 72 63
65 73 64
66 74 64
66 73 64
67 74 65
67 74 65
68 76 67
68 74 65
68 75 65
68 75 65
68 74 64
68 75 65
68 76 66
67 73 64
67 74 64
67 75 65
66 73 64
65 73 64
65 73 64
64 71 62
63 71 62
62 71 62
61 70 61
60 68 60
59 69 60
58 68 59
58 67 59
56 66 57
55 66 58
54 64 57
52 64 57
51 62 55
50 63 55
49 61 54
47 60 53
46 58 51
45 58 51
43 57 51
42 57 51
41 56 50
39 54 48
38 54 48
37 54 48
36 53 48
35 53 48
34 53 47
33 52 47
32 51 46
31 51 46
30 50 45
29 49 44
29 49 44
27 48 43
27 48 44
26 47 42
26 48 44
25 47 43
25 48 44
24 47 43
23 46 42
20 44 41
20 44 40
21 46 42
21 45 41
20 45 41
21 45 41
21 46 42
21 46 42
21 46 42
21 45 41
22 46 42
21 45 42
22 46 42
22 45 41
22 46 42
22 45 41
23 46 42
23 45 41
24 46 42
24 45 41
25 48 44
25 46 42
26 47 43
27 49 45
27 49 45
28 48 43
28 48 44
29 49 45
31 51 46
31 49 45
32 51 46
33 51 46
34 52 47
36 53 47
37 54 48
38 55 49
39 56 50
40 56 50
42 57 51
43 57 50
44 58 52
46 59 53
47 59 52
48 60 53
50 61 54
51 62 55
53 63 56
54 65 57
56 66 58
57 67 59
58 68 59
59 69 60
61 70 61
62 70 61
63 72 63
64 71 62
65 72 63
66 73 64
67 74 64
68 76 66
69 75 65
69 76 66
70 77 67
71 77 67
71 77 67
72 77 67
72 78 68
72 79 68
72 79 68
72 78 68
73 79 68
72 78 68
72 79 68
72 78 68
71 77 67
71 77 67
70 77 67
70 77 67
69 76 66
68 75 66
67 75 65
66 73 64
65 72 63
64 72 63
63 70 61
62 71 62
61 71 62
60 69 60
58 68 60
57 67 59
56 67 59
55 66 58
53 65 57
52 63 56
50 61 53
49 61 54
48 60 53
46 59 52
45 57 51
44 58 52
42 57 50
41 56 50
39 54 48
38 54 48
37 53 48
36 54 48
35 53 47
34 52 47
32 50 45
32 51 46
30 49 44
30 50 45
29 50 45
29 49 45
27 48 44
27 48 44
26 48 43
25 46 42
25 47 43
24 46 42
21 45 41
20 44 40
21 46 42
21 46 42
21 46 42
21 45 41
21 45 42
22 46 42
20 43 40
22 46 42
22 46 42
21 44 40
22 46 42
22 45 41
23 47 43
23 46 42
23 45 41
24 46 42
24 47 43
25 47 43
25 47 43
26 48 44
27 48 44
27 47 43
28 47 43
29 50 46
30 49 45
31 50 45
32 50 45
33 51 46
34 52 47
36 53 48
36 53 47
37 53 48
39 55 49
40 55 49
41 56 50
43 57 51
44 58 52
46 60 53
47 60 53
48 60 53
50 61 54
52 62 55
53 64 56
55 66 58
56 66 58
58 67 59
59 68 60
60 70 61
62 70 61
63 71 62
64 72 63
66 73 63
67 74 65
68 74 65
69 76 66
70 76 66
71 78 67
72 78 67
73 79 68
74 80 69
75 80 69
75 81 70
76 82 71
76 81 70
77 82 71
77 81 70
77 82 71
77 81 70
77 81 70
77 82 71
77 82 71
76 82 71
76 81 70
75 80 69
75 80 69
74 80 69
73 80 69
72 79 68
72 78 68
71 78 68
70 76 66
68 75 65
67 74 65
66 72 62
65 72 63
63 71 62
62 70 61
61 71 62
59 68 59
58 69 60
57 67 58
55 66 58
54 64 56
52 63 56
51 62 54
49 61 54
48 60 53
46 60 53
45 58 52
43 57 51
42 56 50
40 55 49
39 55 49
38 52 47
37 53 47
35 52 47
35 52 47
34 52 47
32 51 46
32 51 46
30 50 45
29 49 44
29 49 44
28 48 43
27 49 44
26 47 42
25 46 42
25 47 43
20 44 40
20 44 41
21 46 43
21 45 42
21 46 42
21 45 41
21 46 42
21 45 41
21 45 41
21 45 41
22 46 42
22 45 42
22 45 41
23 46 42
23 46 42
23 46 42
24 47 43
24 46 42
25 47 43
25 46 42
26 47 42
27 48 43
28 48 44
28 48 43
29 49 44
30 50 45
31 50 45
32 50 45
34 52 47
34 51 46
36 53 47
37 53 48
38 54 48
40 55 49
41 56 50
42 56 50
44 58 52
45 59 52
47 60 53
49 61 54
50 62 55
51 62 55
53 64 56
55 65 57
56 66 58
58 67 59
60 69 60
61 70 61
63 71 62
64 72 63
66 74 64
67 74 65
68 75 65
70 76 66
71 77 66
72 78 67
74 80 69
75 80 69
75 81 70
77 82 71
78 83 72
78 83 72
79 84 72
80 84 72
80 84 73
81 85 73
81 86 74
82 86 74
82 86 74
82 86 74
82 86 74
81 85 73
81 86 74
81 84 73
80 85 73
80 84 73
79 84 73
79 84 73
78 83 71
77 82 71
76 81 70
75 80 69
74 81 70
73 79 69
71 78 68
70 77 66
69 76 66
68 75 65
66 74 64
65 72 63
63 71 62
62 70 61
60 69 60
59 69 60
57 66 58
55 65 57
54 64 56
52 63 56
51 62 55
49 61 54
48 60 53
46 59 52
44 57 51
43 57 51
41 56 50
40 55 49
39 54 48
37 52 47
36 53 48
36 54 48
34 51 46
33 51 46
32 50 45
30 49 44
30 50 45
29 48 44
28 48 44
27 48 44
27 50 45
26 46 42
20 45 41
21 46 42
21 46 42
21 45 41
21 44 41
22 47 43
22 47 43
22 46 42
22 46 42
21 44 41
22 46 42
23 46 42
23 47 43
23 46 42
24 46 42
24 46 42
25 48 44
25 47 43
26 47 43
26 47 43
27 47 43
28 48 44
29 48 44
29 49 44
31 50 45
32 50 45
32 50 45
34 52 47
35 52 47
36 53 47
37 53 47
39 54 48
40 55 49
42 56 50
43 58 51
45 58 52
46 59 52
48 61 54
50 62 55
51 62 55
53 64 56
55 65 57
56 65 57
58 68 59
60 69 60
61 69 60
63 71 62
65 73 63
66 74 64
68 75 65
70 76 66
71 77 67
72 78 67
74 79 68
75 80 69
77 82 70
78 83 71
79 84 72
80 84 73
81 85 73
82 86 75
83 87 75
84 87 75
84 88 76
85 89 76
85 89 76
86 89 77
86 89 77
86 89 76
86 89 77
86 89 77
86 89 76
86 89 76
85 88 76
85 88 76
84 88 76
84 87 75
83 87 75
82 86 74
81 85 73
81 85 74
79 84 72
78 84 72
77 82 71
76 81 70
74 80 69
73 78 68
71 77 67
70 77 67
69 76 66
67 75 65
65 72 63
64 71 62
62 70 61
60 69 60
59 67 59
57 66 58
55 66 57
54 65 57
52 63 55
50 62 55
49 61 54
47 60 53
45 59 52
44 59 52
42 56 50
41 55 49
40 55 49
38 55 49
37 53 48
35 52 46
34 51 46
34 52 47
32 51 46
31 50 45
30 49 45
29 49 45
28 48 43
28 48 44
27 49 44
21 45 42
21 45 41
21 45 41
20 44 41
21 45 42
22 46 42
21 44 40
21 44 41
22 45 42
22 45 41
22 45 41
23 46 42
23 47 43
24 46 42
25 48 44
25 47 42
25 47 43
26 47 43
26 47 43
28 49 45
28 49 44
29 49 45
30 49 45
31 50 46
32 50 45
33 52 47
34 51 46
36 53 47
37 54 48
38 54 48
40 56 50
40 54 48
42 57 50
44 59 53
46 59 52
47 60 53
49 60 53
51 62 55
53 64 56
54 65 57
56 65 57
58 68 59
59 68 59
61 69 60
63 71 62
65 73 64
67 74 65
68 75 65
70 76 66
72 78 67
73 79 68
75 81 70
77 82 71
78 82 71
79 84 72
81 85 73
82 86 74
83 88 75
85 89 76
85 88 76
86 89 76
87 90 78
88 90 78
89 92 79
89 92 79
90 93 80
90 93 80
91 93 80
91 93 80
91 93 80
91 93 80
91 93 80
90 93 80
90 94 80
90 92 79
89 92 79
88 91 78
88 90 77
87 90 77
86 89 76
85 89 76
84 87 75
83 86 74
81 86 74
80 85 73
78 83 71
77 82 71
76 81 70
74 80 69
72 78 68
71 77 67
69 76 66
67 74 64
66 73 63
63 71 62
62 71 62
60 69 60
58 67 59
57 66 58
55 66 58
53 64 57
51 62 55
50 62 54
48 59 52
47 60 53
44 57 50
43 58 51
41 55 49
41 57 51
39 54 48
37 53 47
36 53 48
35 51 46
33 51 46
32 50 45
31 50 45
31 51 46
29 48 44
29 49 44
28 47 43
21 45 41
21 45 41
21 45 41
21 46 42
21 44 41
21 44 40
22 46 43
22 46 42
22 45 41
22 45 41
22 45 41
24 47 43
24 47 43
24 46 42
24 46 42
25 46 42
26 48 44
27 48 43
27 48 44
28 49 45
29 48 43
30 49 45
31 50 45
32 51 46
33 51 46
35 53 48
36 52 47
37 52 47
38 54 48
40 55 49
41 56 50
43 56 50
45 58 52
46 60 53
48 60 53
50 61 53
52 63 55
53 64 56
55 65 57
57 67 58
59 68 60
61 70 61
63 71 62
64 71 62
66 73 64
68 75 65
70 76 66
72 78 68
74 79 69
76 81 70
78 83 72
79 84 73
81 84 73
82 87 75
84 87 75
85 88 76
87 90 77
88 92 79
89 91 78
90 93 80
91 94 80
92 94 81
93 94 81
94 96 82
95 97 83
95 96 83
95 97 83
96 97 84
96 97 83
96 97 83
95 97 83
96 97 83
95 97 83
95 96 83
94 97 83
94 96 82
93 95 81
93 95 82
91 93 80
90 93 80
89 92 79
88 91 78
87 90 77
86 89 77
84 88 76
83 86 74
81 86 74
79 83 72
78 82 71
76 81 70
75 80 69
73 78 68
71 78 67
69 76 66
67 74 65
65 73 64
64 72 62
62 71 62
60 69 60
58 67 59
56 66 58
55 66 58
52 63 56
51 62 55
49 60 53
47 59 52
46 59 52
44 58 51
42 56 49
41 55 49
40 57 51
38 53 47
36 52 47
35 53 47
34 51 46
33 52 47
32 51 46
31 49 45
30 50 45
29 49 44
20 44 41
21 44 41
21 46 42
21 45 42
21 45 41
22 45 41
23 47 43
22 46 42
22 46 42
23 46 43
23 45 41
23 46 42
24 47 43
25 47 43
25 47 43
26 47 43
27 48 44
28 48 44
28 48 43
29 49 45
30 48 44
31 49 44
32 50 45
34 52 47
35 51 46
36 52 47
37 52 47
39 54 49
41 56 50
42 56 50
44 57 51
45 59 52
47 59 52
49 61 54
50 62 54
52 63 56
54 64 56
56 65 57
58 67 59
60 68 60
62 70 61
64 71 61
66 73 63
68 74 64
70 77 67
72 78 67
74 79 68
76 81 70
78 82 71
79 84 72
81 86 74
83 88 76
85 88 75
86 89 77
88 91 78
89 91 78
91 94 81
92 94 81
94 95 82
95 96 83
96 97 83
97 98 84
97 99 84
99 100 85
99 100 85
99 100 86
100 101 87
100 101 86
100 101 87
100 101 87
100 101 87
100 101 87
100 101 86
100 101 86
99 100 86
99 100 86
98 99 85
97 99 85
96 97 83
95 97 83
94 96 82
93 95 82
91 94 80
90 93 80
88 91 78
87 90 78
85 89 76
83 87 75
82 86 74
80 84 73
78 83 72
76 81 70
75 80 70
73 79 68
71 77 67
69 77 67
67 75 65
65 73 63
63 71 62
61 69 60
59 68 59
57 67 59
55 66 58
53 64 56
51 62 54
50 61 54
48 61 54
47 60 53
44 58 51
43 57 51
42 57 50
40 55 49
38 53 48
37 53 48
36 52 47
34 51 46
33 51 46
32 50 45
31 50 45
30 49 44
21 46 42
20 43 40
22 46 42
22 45 42
22 46 42
22 46 42
22 46 42
23 46 42
23 45 41
23 45 42
24 46 42
24 46 42
25 46 42
26 48 43
26 47 43
27 48 44
28 49 44
28 48 44
30 49 45
30 48 44
31 50 45
33 51 46
34 52 47
35 52 47
36 52 46
38 54 48
39 53 47
41 56 50
43 58 52
44 58 52
46 58 51
47 59 53
49 61 54
51 62 55
53 64 57
55 65 58
57 67 59
59 68 60
61 70 61
63 71 62
65 73 63
67 74 64
69 75 65
71 78 68
73 79 68
75 80 69
77 82 71
80 84 72
81 85 73
83 87 75
85 89 76
87 90 77
89 92 79
90 92 79
92 94 81
94 95 82
95 96 82
97 98 84
98 99 85
99 100 86
100 102 87
101 102 87
102 102 88
103 103 88
103 104 89
104 105 89
105 105 90
105 105 90
105 105 90
105 106 90
105 105 89
105 105 89
105 105 90
104 105 90
104 104 89
103 103 88
103 104 89
102 103 88
101 101 86
100 101 87
98 99 85
97 98 84
96 98 84
94 97 83
93 95 81
91 93 80
89 92 79
88 90 78
86 89 77
84 87 75
82 86 74
80 84 73
78 83 71
76 81 70
74 80 69
72 78 68
70 77 67
68 75 65
66 72 63
64 71 62
62 71 62
60 69 60
58 67 59
56 67 59
54 65 57
53 64 56
50 61 54
49 61 54
47 59 52
45 58 51
43 57 51
42 56 49
40 55 49
39 54 49
37 53 48
36 52 46
35 52 46
33 51 46
32 51 46
31 51 46
20 43 40
20 43 40
21 43 40
22 45 41
22 46 42
23 46 42
22 44 41
23 45 41
23 45 41
23 45 41
25 47 43
24 45 41
25 45 41
26 47 43
27 48 44
28 48 43
29 49 44
30 50 45
30 49 45
32 51 46
33 51 46
34 50 45
35 51 46
36 53 47
39 55 50
39 53 47
41 56 50
43 56 50
44 58 51
46 59 52
48 60 53
50 62 55
52 62 55
54 64 56
56 65 57
58 67 59
60 69 60
62 69 61
64 72 62
66 73 64
69 76 66
70 76 66
73 78 68
74 79 68
77 82 71
79 83 72
81 85 73
83 87 75
85 89 77
87 90 77
89 92 79
91 93 79
93 95 81
95 96 83
96 98 84
98 99 85
100 100 86
101 102 87
102 103 88
104 104 89
105 105 90
106 106 90
107 106 91
108 107 91
108 107 91
109 108 92
109 108 93
110 109 93
110 109 93
110 110 94
110 110 94
110 109 93
109 109 93
109 108 92
108 108 92
108 108 92
107 107 92
106 106 91
105 106 90
104 104 89
103 104 89
102 103 88
100 101 86
99 100 86
97 98 84
96 97 84
94 95 82
92 94 80
90 92 79
88 91 78
86 90 77
84 88 76
82 86 74
80 84 73
78 82 71
76 82 71
74 80 70
71 77 67
69 76 66
67 74 64
65 73 64
63 71 62
61 68 60
59 67 59
57 67 59
55 64 56
53 64 57
51 62 55
49 60 53
47 60 53
45 58 52
44 57 50
43 58 52
41 55 50
39 55 49
37 53 47
36 52 47
35 52 47
34 52 47
32 50 45
21 44 40
21 45 41
21 45 41
22 45 42
22 46 42
23 46 42
23 45 41
24 47 43
24 46 42
25 48 44
25 48 44
25 46 42
26 48 44
27 48 43
27 48 43
29 49 44
29 49 44
30 49 45
32 50 45
33 50 45
34 52 47
35 52 47
37 53 48
38 53 47
40 54 49
41 56 50
43 56 49
45 58 52
46 58 51
48 60 53
50 62 55
52 64 56
54 65 57
56 66 58
58 67 59
60 68 60
63 71 62
65 73 63
67 74 64
69 75 65
71 77 67
74 79 69
76 81 70
78 83 71
80 84 73
83 86 74
85 88 76
87 90 78
89 92 79
91 94 81
93 95 82
95 96 83
97 98 84
99 100 85
101 101 87
102 103 88
104 104 89
105 105 90
107 107 91
108 109 93
109 109 93
110 109 93
112 111 95
112 111 95
113 112 95
113 112 96
114 113 96
114 113 96
115 113 97
115 113 96
115 113 96
114 113 96
114 113 96
114 113 96
113 112 95
112 111 95
112 111 95
111 110 94
110 109 93
109 108 93
107 107 91
106 106 90
105 105 90
103 103 88
101 102 87
100 101 86
98 99 85
96 98 84
94 96 82
92 94 80
90 92 79
88 90 77
86 89 76
84 89 76
82 86 74
79 84 72
77 82 71
75 80 69
73 78 68
70 77 66
68 75 65
66 73 64
64 72 63
62 70 61
59 68 60
57 67 58
55 65 57
53 63 55
51 62 55
50 61 54
48 60 53
46 58 51
44 56 50
42 57 51
41 56 50
39 54 49
38 54 48
36 53 47
35 52 47
34 52 47
21 43 40
22 46 42
21 44 41
22 46 42
22 45 42
22 45 41
23 46 42
24 46 42
24 46 42
24 46 42
25 47 43
26 48 44
27 47 43
28 48 44
28 47 43
29 48 44
31 50 45
32 50 46
33 50 45
34 51 46
35 52 46
37 53 47
38 54 48
39 54 48
41 55 49
43 57 51
44 57 50
47 60 53
48 60 53
50 62 54
52 62 55
54 64 57
57 67 58
59 68 59
61 69 60
63 72 63
65 73 64
68 75 65
70 76 66
72 78 67
75 80 69
77 82 71
80 84 73
82 86 74
84 88 76
86 90 77
89 91 78
91 94 81
93 95 81
95 97 83
97 98 84
99 100 86
101 102 87
103 103 88
105 105 90
107 106 90
108 108 92
110 109 93
111 110 94
112 111 95
114 113 96
115 114 97
116 114 97
117 116 99
117 115 98
118 117 99
119 117 100
119 117 99
119 117 100
119 117 100
119 117 99
119 117 100
119 117 100
118 116 99
118 116 99
117 115 98
116 114 98
115 114 97
114 113 97
113 112 96
112 111 94
110 109 93
109 108 92
107 107 91
106 105 90
104 105 90
102 103 88
100 101 86
98 100 85
96 97 84
94 96 82
92 94 81
90 92 79
88 91 78
85 89 77
83 87 75
81 85 73
78 83 72
76 82 71
73 78 68
71 77 66
69 75 65
67 74 64
64 72 63
62 71 62
60 69 60
58 68 60
56 65 57
54 64 56
52 64 56
50 61 54
48 60 53
46 59 52
44 57 51
42 56 50
41 57 51
39 54 48
38 55 49
37 54 48
35 51 46
22 46 42
22 45 42
22 44 41
23 46 42
22 44 41
24 47 43
23 45 42
24 45 41
24 45 41
25 45 41
26 48 44
27 48 44
28 48 44
28 48 44
29 48 44
30 48 44
31 49 45
33 50 45
34 51 46
35 53 47
36 52 47
38 55 49
40 55 49
41 55 49
43 56 50
45 58 51
46 59 52
49 61 54
51 63 55
53 63 56
55 65 57
57 66 58
59 68 59
61 69 60
63 70 61
66 73 64
68 75 65
71 76 66
73 79 68
76 81 70
78 82 70
80 84 73
83 86 74
85 88 76
87 91 78
90 93 80
92 94 80
95 97 83
97 98 84
99 100 86
101 102 87
103 103 88
105 105 90
107 107 91
109 108 93
111 110 94
113 111 95
114 113 97
116 114 97
117 115 98
118 117 99
119 117 100
120 118 101
121 119 101
122 119 102
123 121 103
123 121 103
123 121 103
124 121 103
124 121 103
124 121 103
124 121 103
123 121 103
123 121 103
122 120 102
122 120 102
121 119 101
120 117 100
119 117 100
118 116 98
116 114 97
115 113 97
113 112 95
112 111 94
110 109 93
108 108 92
106 106 90
104 104 89
102 102 87
100 101 87
98 99 85
96 97 83
93 95 82
91 93 80
89 91 78
86 89 77
84 88 75
82 86 74
79 83 72
76 81 70
74 80 69
72 78 68
70 77 67
68 75 65
65 73 63
63 71 62
60 69 60
58 68 59
56 65 57
54 64 56
52 63 56
50 62 54
48 61 54
46 58 52
44 58 52
43 57 51
41 55 49
40 55 49
38 54 48
36 52 47
22 45 41
22 44 41
22 45 41
23 46 42
22 44 40
23 45 41
24 46 42
25 47 43
25 47 42
26 47 43
27 47 43
27 47 43
28 48 43
29 49 45
30 48 43
31 49 44
33 51 46
33 50 45
35 52 47
37 53 48
39 55 49
40 55 50
41 56 50
43 57 50
45 58 52
46 58 51
49 61 54
51 62 55
52 62 55
55 65 57
57 66 58
59 69 60
62 70 61
64 72 63
66 73 63
69 75 65
71 77 67
73 78 68
76 81 70
78 82 71
81 85 73
84 87 75
86 89 76
89 91 78
91 93 80
93 95 82
96 97 83
98 99 85
100 101 86
103 103 88
105 106 90
107 107 91
109 109 93
111 110 94
113 112 95
115 114 97
117 115 98
118 116 99
120 118 100
121 120 102
123 121 103
124 121 103
125 121 103
126 123 105
127 124 105
127 124 106
128 125 106
128 125 106
128 125 107
128 125 106
129 126 107
128 125 106
128 124 105
127 125 106
127 124 105
126 123 105
125 123 104
124 121 103
123 121 103
122 120 102
121 118 101
119 117 99
117 115 98
116 114 97
114 112 96
112 111 95
110 110 94
108 108 92
106 106 91
104 104 89
102 102 87
99 100 86
97 99 85
94 96 82
92 95 81
90 92 79
87 90 78
85 89 76
82 86 74
80 84 72
77 82 71
75 80 69
72 78 67
70 76 66
68 75 65
65 72 63
63 70 61
61 70 61
58 67 59
56 66 58
54 63 56
52 61 54
50 63 55
48 61 54
46 59 52
45 59 52
43 56 50
41 56 50
40 56 50
38 53 48
22 46 42
23 46 43
24 48 44
23 46 42
23 46 42
24 47 42
25 47 43
25 46 42
26 48 44
27 48 44
27 48 43
28 49 44
29 49 45
31 51 46
31 49 44
32 50 45
33 50 45
35 53 47
37 53 48
38 53 48
40 55 49
41 55 49
43 56 50
45 58 52
46 59 52
49 62 55
51 62 55
52 63 55
55 65 57
57 67 59
59 68 60
62 70 61
64 71 62
66 73 64
69 76 66
71 77 67
74 79 68
76 81 70
79 83 72
82 86 75
84 87 75
87 90 78
89 91 78
92 94 81
94 96 82
97 98 84
99 101 86
102 102 87
105 105 90
107 106 91
109 108 93
111 110 94
113 112 95
115 114 97
118 116 99
119 117 100
121 119 101
123 120 103
124 121 103
126 123 105
127 124 105
128 125 106
129 126 107
130 126 107
131 128 109
131 128 109
132 128 109
132 129 109
133 129 110
133 130 110
133 129 110
133 129 109
132 128 109
132 129 110
131 128 108
131 127 108
130 126 107
129 126 107
127 124 106
126 123 104
125 122 104
123 121 103
122 120 102
120 117 100
118 117 99
116 114 98
114 113 97
112 111 95
110 110 94
108 108 92
105 105 90
103 103 88
101 102 87
98 99 84
96 98 84
93 95 82
91 93 80
88 91 78
86 89 76
83 87 75
80 84 73
78 83 72
76 81 70
73 79 69
71 77 67
68 75 66
66 73 64
63 71 62
61 70 61
59 67 59
56 66 58
54 64 56
52 63 55
50 61 54
48 60 53
46 58 51
44 57 51
43 57 50
41 55 49
39 54 49
22 46 42
22 44 41
23 46 42
23 46 42
24 46 42
25 48 44
25 47 43
26 47 43
26 47 43
28 49 45
28 48 44
29 47 43
30 49 44
31 49 44
32 51 46
33 51 46
35 51 46
36 52 47
38 53 48
39 55 49
41 55 50
43 57 50
45 58 51
46 58 51
48 60 53
50 62 54
53 64 56
55 64 57
57 67 59
59 68 60
62 70 62
64 72 63
66 73 63
69 75 65
71 78 67
74 79 68
77 82 71
79 83 72
82 86 74
85 88 76
87 90 78
90 92 79
92 94 81
95 97 83
98 99 84
100 101 87
103 104 89
106 106 90
108 108 92
110 109 93
113 111 95
115 113 97
117 115 98
119 117 100
121 118 101
123 121 103
125 122 104
127 124 106
128 126 107
130 126 107
131 128 108
132 128 109
134 130 110
134 130 111
136 132 112
136 132 112
136 132 112
137 133 113
137 133 113
137 133 112
137 133 113
137 132 112
137 133 113
136 132 112
136 132 112
135 131 111
134 130 111
133 129 109
132 129 109
131 127 108
129 126 107
127 125 106
126 123 105
124 121 103
122 120 102
120 118 100
118 116 99
116 114 97
114 113 96
111 110 94
109 109 93
107 106 91
104 104 89
102 103 88
99 100 86
97 98 84
94 95 82
91 93 80
89 92 79
86 89 77
84 87 75
81 85 73
78 83 72
76 81 70
73 78 68
71 78 67
68 76 66
66 73 63
63 71 61
61 69 61
59 68 59
57 66 58
54 64 57
52 63 56
51 63 56
48 60 53
46 59 52
44 57 51
42 56 50
41 55 49
22 44 40
23 45 42
24 47 43
23 45 41
24 46 42
24 45 41
25 46 42
26 47 43
27 48 44
28 48 44
29 48 43
30 49 45
31 50 45
32 50 45
33 50 45
34 51 46
36 52 47
38 55 49
39 55 49
40 54 49
43 56 50
45 58 52
46 59 52
48 59 52
50 62 55
52 63 55
54 64 56
57 67 58
59 67 59
62 71 62
64 72 62
66 74 64
69 75 65
71 77 67
74 79 69
77 82 71
80 84 73
82 86 74
85 88 76
88 91 78
90 92 79
93 95 81
96 97 83
99 100 86
101 101 87
104 103 88
106 106 91
109 109 93
111 110 94
114 113 96
116 114 97
119 117 100
121 119 101
123 121 103
125 122 104
127 124 105
129 126 107
131 127 108
132 129 109
134 130 111
135 131 111
137 132 112
138 134 113
139 134 114
140 135 115
140 135 115
141 136 116
141 136 116
141 137 116
142 137 116
142 137 116
141 136 116
141 136 115
140 136 115
140 135 114
139 134 114
138 134 114
137 133 113
136 132 112
135 130 111
133 130 110
131 127 108
130 126 107
128 125 107
126 123 105
124 121 103
122 120 102
120 117 100
118 116 99
115 113 97
113 112 96
110 110 94
108 108 92
105 105 90
103 103 88
100 100 86
97 98 84
95 96 82
92 95 81
89 91 78
86 89 77
84 88 75
81 86 74
78 83 72
76 82 71
73 79 68
71 76 66
68 75 65
66 74 64
63 71 62
61 69 60
59 68 60
56 66 58
54 65 57
52 64 57
50 63 55
48 60 53
46 58 52
44 57 51
42 56 50
