P3
120 80
255
17 39 36
17 40 37
17 40 37
17 40 37
18 41 38
17 39 37
18 41 39
18 41 38
18 40 37
17 40 37
18 41 38
17 39 37
17 40 37
17 39 37
18 41 38
17 39 37
18 40 37
17 39 37
18 40 38
18 41 38
17 40 37
18 40 38
18 40 38
17 40 37
17 40 37
18 40 37
18 40 38
18 40 38
17 39 37
18 40 38
17 39 37
18 40 38
18 41 38
17 39 37
18 41 38
17 39 37
18 41 38
18 41 39
18 40 38
18 40 38
18 40 38
18 41 38
18 41 38
18 40 37
18 41 39
18 41 38
18 40 38
18 40 38
17 40 37
18 41 38
18 40 38
18 40 38
18 40 37
18 41 39
18 41 38
18 40 37
18 40 38
18 41 39
18 41 38
18 41 39
17 40 37
18 40 38
18 40 37
18 41 38
17 39 37
18 40 38
18 40 38
17 40 37
17 40 37
17 40 37
17 39 37
18 40 38
17 40 37
18 41 38
18 41 38
17 39 37
18 40 37
18 40 38
18 41 39
18 41 38
18 40 38
17 39 36
18 41 38
18 40 38
18 41 39
17 40 37
18 40 38
18 41 38
17 40 37
17 40 37
17 39 37
18 41 38
18 41 39
18 41 38
18 41 38
18 40 38
18 41 38
17 39 37
18 40 38
18 40 38
18 40 38
18 40 38
18 40 38
17 39 37
18 41 38
18 40 38
18 41 39
18 40 38
18 41 38
18 41 38
18 41 39
18 41 38
17 40 37
18 40 38
17 39 37
18 41 38
18 40 38
18 40 38
18 40 37
18 40 37
18 41 38
18 41 38
18 40 38
17 39 37
18 40 38
18 41 38
17 40 37
18 40 37
18 40 37
18 41 38
17 39 37
18 40 38
18 40 38
18 41 38
18 41 38
18 40 38
17 39 37
17 40 37
17 40 37
17 39 37
17 40 37
18 40 38
17 39 37
17 39 37
18 40 38
18 40 37
18 40 38
17 39 37
18 40 38
18 40 38
18 40 38
18 41 39
18 40 38
18 41 38
18 40 38
17 39 37
18 40 37
17 40 37
17 40 37
18 40 38
18 41 38
17 39 37
18 40 38
18 40 37
18 40 37
18 41 38
18 41 38
18 40 37
18 40 38
18 41 38
18 40 38
18 41 38
18 40 38
18 40 38
17 40 37
17 40 37
17 39 37
17 39 37
18 40 38
17 39 37
18 41 39
17 39 37
18 41 39
18 40 38
18 40 38
18 41 38
18 41 39
18 41 38
18 40 38
18 41 39
18 40 38
18 41 38
18 41 38
18 40 38
18 40 38
18 41 38
18 40 38
18 41 38
18 40 37
17 40 37
18 40 38
18 41 38
17 39 37
18 40 37
18 41 38
18 40 38
18 41 38
18 40 38
18 41 39
17 39 37
18 40 38
17 39 37
18 40 38
18 41 39
18 41 39
18 40 38
18 40 38
18 40 38
18 40 38
18 41 38
18 40 38
18 41 38
18 40 38
18 40 38
18 41 38
17 40 37
18 41 39
18 41 38
18 40 37
18 41 38
18 40 38
18 40 38
18 41 38
18 41 38
18 41 38
18 41 39
18 41 38
18 40 38
17 40 37
18 40 38
18 42 39
17 40 37
17 40 37
18 40 38
18 40 38
17 39 37
17 40 37
17 40 37
17 40 37
17 40 37
18 40 38
18 40 38
18 41 38
17 39 37
18 40 37
18 40 38
17 39 37
18 40 38
17 40 37
18 40 38
18 41 38
17 39 37
18 41 38
18 41 39
18 41 38
18 40 37
18 40 38
18 40 38
18 41 38
18 42 39
18 41 39
18 40 38
18 40 37
18 41 38
18 41 38
18 40 38
18 40 37
18 40 37
18 40 37
18 40 37
18 41 39
18 41 38
18 40 38
18 40 37
18 40 37
18 40 38
17 39 37
18 41 38
18 41 39
18 40 38
18 41 39
18 41 38
18 41 38
18 41 38
18 41 38
18 40 38
18 40 37
18 40 37
18 41 39
18 41 38
17 39 37
18 40 38
18 40 38
18 42 39
18 41 38
18 41 38
18 40 37
18 40 37
18 41 38
18 41 38
18 40 38
18 40 37
18 41 38
18 41 39
18 40 37
18 41 39
18 41 38
18 41 38
18 40 38
19 42 40
18 41 38
18 40 38
19 42 39
18 41 38
18 40 38
18 40 37
18 41 38
18 41 38
18 40 38
18 40 38
18 42 39
18 41 38
18 41 39
18 41 38
18 41 38
18 41 38
18 41 38
18 40 37
18 40 38
18 42 39
19 42 39
18 41 39
18 40 37
18 40 38
18 41 38
18 40 38
18 40 38
18 40 38
18 41 39
18 40 38
18 40 38
18 40 38
18 41 38
18 41 38
18 41 38
18 41 38
18 41 38
18 40 38
18 40 38
18 41 38
17 40 37
18 40 38
18 40 38
18 41 38
18 41 38
18 40 37
18 41 38
17 39 37
18 41 38
18 40 37
18 41 38
18 42 39
18 41 38
18 41 38
17 40 37
17 40 37
18 41 38
18 40 38
18 41 38
18 40 38
18 40 37
18 41 38
18 40 37
18 41 38
18 41 38
18 40 38
18 40 38
18 40 37
18 40 37
18 41 38
17 40 37
18 40 37
18 41 39
18 40 38
18 41 38
18 41 38
18 41 38
18 41 38
18 42 39
18 40 38
18 41 38
18 40 38
18 40 38
18 41 38
18 40 37
18 40 38
18 41 39
18 40 38
17 40 37
18 42 39
18 40 37
18 41 38
18 40 38
18 42 39
18 41 39
18 42 39
18 41 39
18 40 38
18 41 39
18 41 38
18 41 38
18 42 39
18 40 38
17 39 37
19 42 39
18 40 37
18 40 38
18 41 39
18 41 39
18 40 38
18 40 38
18 41 38
18 41 38
18 40 38
19 42 39
18 41 38
18 41 38
18 41 38
18 40 37
18 41 38
18 42 39
18 41 38
18 41 38
18 41 38
18 42 39
18 41 38
18 40 38
18 41 38
18 40 38
18 41 38
18 40 38
18 42 39
18 41 38
18 41 39
18 40 38
18 41 38
18 41 39
18 41 38
18 40 38
18 41 38
18 41 38
18 41 38
18 41 39
18 41 39
18 40 37
18 41 38
18 41 38
19 42 39
18 40 38
18 41 38
18 40 38
18 41 38
18 40 38
18 41 38
19 42 39
18 41 39
18 40 38
18 41 38
17 39 37
18 41 38
18 41 38
18 40 38
18 41 38
18 40 38
18 41 38
18 42 39
18 41 38
17 40 37
18 41 39
17 40 37
17 40 37
18 40 38
18 40 38
18 40 38
18 40 37
18 41 39
18 40 38
18 41 38
18 40 37
18 40 37
18 41 38
18 41 38
18 40 37
18 40 37
18 41 38
18 40 38
18 41 39
18 41 38
18 40 38
18 41 38
18 41 38
18 40 37
18 42 39
18 40 37
18 40 37
18 40 38
18 40 38
18 41 38
17 39 37
18 41 38
18 41 39
18 41 38
18 41 39
18 40 37
18 41 38
18 42 39
18 40 38
18 40 38
18 40 37
18 40 37
18 40 37
18 41 39
18 41 38
18 40 37
17 39 37
18 41 38
18 41 39
18 41 38
18 40 38
18 41 38
18 41 39
18 41 39
18 41 38
18 41 38
18 40 37
18 41 38
18 41 38
18 40 37
18 41 38
18 41 39
18 41 38
18 41 38
18 41 39
18 41 38
18 41 38
18 41 39
18 41 38
18 40 38
17 40 37
18 41 38
18 41 38
18 42 39
18 41 38
18 40 38
18 40 37
18 41 38
18 41 38
18 40 38
18 40 38
18 41 39
18 42 39
19 42 39
18 41 38
18 41 38
18 41 38
18 42 39
18 41 38
18 42 39
18 42 39
18 41 38
18 42 39
18 42 39
18 41 39
18 41 38
18 41 38
18 40 38
18 42 39
18 40 38
18 41 38
18 42 39
18 41 38
19 42 39
18 40 37
18 42 39
18 40 38
18 41 38
18 42 39
18 40 38
18 41 38
18 40 37
18 41 38
18 41 39
18 41 39
18 42 39
18 41 38
18 40 38
18 41 38
18 41 38
18 41 39
18 41 38
18 41 38
18 40 38
18 41 39
18 40 38
18 40 37
18 41 38
18 41 38
18 41 38
18 41 38
18 41 38
18 40 37
17 39 37
18 42 39
18 41 38
18 40 37
18 41 38
17 40 37
18 41 38
18 42 39
18 40 38
18 41 38
18 40 38
18 41 38
18 41 38
18 41 38
18 41 38
18 40 38
18 41 38
18 41 39
18 41 38
18 41 38
18 41 38
18 40 37
18 40 37
18 41 39
18 41 39
18 42 39
18 40 37
18 40 38
18 40 38
18 41 38
18 41 39
18 41 38
18 41 38
19 43 40
18 41 38
18 41 38
18 41 38
18 40 37
18 41 38
19 42 39
19 42 39
18 41 38
18 42 39
19 42 39
18 41 38
18 42 39
18 41 38
18 41 39
18 41 38
19 42 39
18 40 38
18 41 39
18 41 39
18 40 38
18 41 38
18 41 38
18 41 38
18 40 37
18 41 39
18 41 39
19 42 39
18 40 38
18 40 38
18 41 38
18 42 39
18 41 38
18 41 38
18 41 38
18 41 38
18 40 37
18 40 38
19 42 39
18 42 39
18 42 39
17 40 37
18 41 38
19 42 39
18 42 39
18 41 38
18 41 38
18 41 38
18 41 39
18 40 38
18 41 38
18 42 39
18 41 39
18 41 38
18 41 39
18 41 38
18 41 38
18 41 38
18 41 39
18 40 38
18 42 39
18 41 38
18 41 38
18 41 39
18 41 38
18 42 39
18 40 38
18 40 38
18 41 39
18 40 38
18 41 38
18 41 39
18 42 39
18 41 38
18 40 37
18 40 38
18 41 38
18 40 38
18 41 38
18 42 39
17 40 37
18 41 38
18 40 37
18 41 39
18 41 39
18 40 38
18 41 38
19 42 39
18 41 38
18 40 38
17 39 36
18 41 38
19 42 39
18 41 38
18 41 39
18 40 37
18 41 38
18 42 39
18 41 38
18 42 39
18 41 38
18 41 38
18 41 38
18 41 39
18 41 39
18 41 38
18 41 38
18 41 38
18 41 38
18 41 38
18 40 37
18 41 38
18 41 39
18 42 39
18 42 39
18 41 38
18 41 39
18 41 38
18 42 39
18 41 38
18 40 37
18 41 38
19 42 39
18 41 38
18 41 38
18 41 38
19 42 39
18 41 38
18 42 39
18 42 39
18 41 38
19 42 39
18 40 38
18 40 38
18 41 38
18 41 38
18 42 39
18 42 39
18 41 38
18 41 38
18 41 38
18 41 38
18 42 39
18 41 38
18 41 38
19 42 39
18 41 39
19 42 40
18 41 38
18 41 38
18 41 38
18 42 39
18 41 38
19 42 39
18 41 38
18 41 39
18 41 38
18 41 39
18 41 38
18 40 38
18 41 38
18 41 38
18 41 38
18 41 38
19 42 39
18 41 38
18 41 38
18 42 39
18 42 39
18 41 39
18 41 39
18 41 38
19 43 40
18 42 39
18 41 38
18 40 38
18 41 38
18 41 38
18 41 39
18 41 38
18 40 38
19 42 39
18 42 39
18 41 38
18 42 39
18 41 38
18 41 38
18 41 38
18 41 38
18 40 38
18 41 38
18 40 37
18 41 39
18 41 38
18 41 39
18 40 37
18 41 38
18 41 39
18 42 39
18 41 38
18 40 37
18 41 38
18 41 38
18 41 38
18 41 38
18 40 38
18 40 37
18 41 38
19 42 39
19 42 39
18 41 38
18 41 38
18 41 38
18 41 38
18 41 38
18 40 38
18 41 38
18 41 38
19 42 39
18 42 39
18 41 38
18 42 39
19 42 39
18 41 38
19 42 39
18 41 38
18 41 38
18 41 38
18 41 38
18 41 39
18 41 38
19 42 39
18 41 38
18 42 39
18 41 38
19 42 39
19 42 39
18 41 38
18 42 39
18 41 38
18 41 38
19 42 39
18 41 38
19 42 39
19 43 40
19 42 39
18 41 39
18 40 37
19 42 39
18 42 39
18 42 39
18 41 38
18 42 39
19 42 39
18 41 38
19 42 39
18 41 39
18 41 38
18 41 38
18 41 38
19 42 40
19 43 40
19 42 39
19 43 40
19 42 39
18 41 38
19 42 39
19 42 40
18 41 38
18 42 39
18 41 38
18 42 39
18 41 38
18 41 38
19 42 39
19 42 39
19 42 39
18 42 39
18 41 38
18 41 38
18 42 39
18 42 39
18 42 39
19 42 40
19 42 39
18 41 38
18 41 38
19 43 40
19 43 40
18 41 38
18 41 38
18 41 38
18 41 38
18 41 38
18 41 38
18 41 38
18 41 38
18 41 38
19 42 39
18 41 38
18 41 38
18 41 39
18 41 38
18 41 38
18 41 38
19 42 39
18 41 39
19 42 39
18 42 39
18 41 38
18 41 38
18 40 37
18 42 39
18 41 38
18 41 38
18 41 38
18 40 37
19 42 40
19 42 39
19 42 40
19 42 39
18 42 39
18 41 38
18 41 38
18 41 38
18 42 39
19 42 39
18 41 39
18 41 39
18 40 37
18 41 39
18 41 39
18 42 39
18 42 39
18 41 38
18 41 38
18 41 39
19 42 39
18 42 39
18 41 38
18 41 38
18 41 38
18 41 39
18 41 38
19 42 39
18 41 38
18 41 38
19 42 39
19 42 39
18 41 38
19 42 39
18 41 38
18 41 38
18 41 39
18 40 37
18 42 39
19 43 40
18 41 38
18 41 38
18 41 38
18 41 39
18 41 38
18 41 39
19 42 39
18 41 38
19 43 40
18 41 39
18 41 38
19 42 39
19 42 39
19 42 39
18 41 39
19 42 39
18 41 38
18 41 38
19 42 39
19 42 39
19 42 39
19 42 39
18 41 38
19 42 39
18 41 38
19 43 40
19 42 39
18 41 38
18 41 39
18 42 39
19 42 39
18 42 39
18 41 39
18 41 39
18 41 38
18 42 39
19 42 39
19 42 39
19 42 39
18 41 38
18 41 38
19 42 39
18 42 39
18 41 39
19 43 40
18 41 39
19 42 39
18 41 39
18 42 39
19 42 39
19 42 39
18 41 38
18 42 39
18 41 38
18 41 38
19 42 39
18 41 39
18 41 38
19 42 39
18 42 39
19 42 40
19 42 39
19 42 39
19 42 40
19 43 40
19 42 39
19 42 39
18 41 38
18 41 38
18 41 38
18 42 39
18 40 38
18 40 38
18 41 38
18 41 38
18 41 38
18 41 39
19 42 39
18 42 39
19 42 39
18 41 38
18 40 38
18 41 38
19 43 40
18 41 38
18 42 39
18 42 39
19 42 39
18 40 38
18 41 38
18 41 38
18 41 38
18 41 39
18 41 38
18 40 38
19 42 39
18 40 37
19 42 39
19 42 39
18 41 39
18 41 38
19 42 39
19 42 39
18 41 38
18 41 38
18 41 38
18 41 39
18 41 38
18 42 39
18 41 38
18 41 38
19 42 39
18 42 39
18 41 38
18 42 39
19 42 39
18 42 39
19 43 39
19 42 39
19 43 40
18 41 38
18 42 39
19 42 39
18 41 39
18 41 39
18 41 39
19 42 39
19 42 39
18 41 39
18 42 39
19 42 39
18 41 38
18 41 38
18 41 38
18 41 38
18 42 39
19 42 39
19 42 39
19 42 39
19 42 39
19 42 39
19 42 39
18 41 39
19 43 40
19 42 39
19 42 39
19 42 39
19 43 40
19 42 39
19 42 39
18 42 39
18 42 39
19 42 39
18 42 39
18 41 38
18 41 39
18 41 38
19 42 40
19 42 39
19 43 40
19 43 40
19 42 39
19 42 39
19 42 39
19 42 39
18 41 38
19 42 39
19 42 39
19 42 39
18 41 39
18 41 38
18 41 38
19 42 39
18 42 39
19 42 39
18 41 38
18 40 37
19 43 40
19 43 40
19 42 39
19 42 39
19 42 39
19 42 39
19 43 40
19 42 39
19 42 39
18 42 39
19 42 39
19 42 39
18 41 38
18 41 38
19 43 40
18 41 38
19 42 39
18 41 38
18 41 39
18 41 38
18 40 38
18 42 39
18 41 39
19 42 39
18 41 39
19 42 39
18 41 38
18 41 39
19 43 40
19 43 40
18 41 38
19 42 39
19 43 40
18 41 39
18 41 39
18 41 38
18 41 38
18 41 38
18 41 39
19 42 39
18 42 39
18 41 38
19 42 39
18 40 37
18 41 38
18 40 38
18 41 38
18 41 38
18 41 39
19 43 40
19 42 39
19 42 39
18 41 39
18 42 39
18 41 38
18 41 38
19 42 40
18 41 38
18 41 39
19 42 39
18 41 38
19 42 39
19 43 40
19 42 39
18 42 39
18 41 38
18 41 38
19 42 39
18 41 38
19 43 40
19 43 40
19 42 39
18 42 39
18 42 39
19 42 39
19 42 39
19 42 39
19 42 39
18 41 38
18 41 38
19 42 39
19 42 39
19 43 40
19 42 39
19 43 40
19 42 39
18 42 39
19 42 39
18 41 38
18 41 38
19 42 39
18 42 39
19 43 40
19 42 39
19 43 40
19 43 40
19 42 39
18 42 39
19 42 39
19 42 39
19 42 39
19 43 40
19 43 40
18 42 39
19 43 40
19 43 40
19 42 39
19 42 39
18 42 39
18 41 38
19 42 39
19 43 40
18 41 38
19 42 39
19 43 40
19 42 39
18 41 38
19 43 40
19 42 39
19 43 40
19 43 40
18 41 38
19 42 39
18 41 38
19 43 40
19 42 39
18 41 38
19 42 39
19 42 39
19 42 39
18 41 38
19 42 39
19 42 39
18 41 38
19 42 39
18 41 38
18 41 38
19 42 39
18 41 38
19 42 39
18 42 39
18 41 38
18 41 38
18 41 39
19 43 40
18 42 39
19 42 40
18 41 38
18 42 39
18 41 38
19 42 39
19 42 39
19 42 40
19 42 39
18 41 38
19 42 39
19 42 39
19 42 39
18 41 38
19 42 39
19 42 39
19 42 39
19 42 39
18 40 38
19 42 39
19 42 39
19 42 39
18 41 38
19 42 39
18 41 38
19 43 40
18 42 39
19 42 39
18 41 38
18 41 39
19 42 39
18 41 38
19 43 40
19 42 39
19 42 39
18 41 38
19 42 39
19 43 40
18 42 39
19 42 39
19 43 40
18 42 39
19 42 39
19 42 39
19 42 39
19 42 39
18 42 39
18 41 38
19 42 39
19 42 39
19 43 40
18 41 38
18 41 38
19 42 39
19 42 39
19 42 39
19 42 39
19 43 40
19 42 39
19 42 39
19 42 39
19 42 39
19 42 39
19 42 39
19 42 39
19 43 40
18 41 38
19 42 39
18 41 38
19 43 39
19 42 39
19 42 39
19 43 40
19 42 39
19 42 39
19 42 39
19 42 39
19 43 40
19 42 39
19 42 39
19 42 38
19 43 40
19 42 39
19 42 39
19 42 39
19 43 40
19 43 40
19 42 39
19 43 39
19 42 39
19 42 39
19 42 39
19 43 40
19 42 39
19 42 39
18 42 39
19 43 40
19 42 39
19 42 39
19 42 39
19 42 39
19 43 40
19 42 39
19 42 39
19 43 40
19 42 39
18 42 38
18 41 38
19 42 39
18 41 38
19 43 40
18 41 38
18 41 39
18 41 38
18 42 39
19 42 39
18 42 39
19 42 39
19 42 39
19 42 39
19 42 39
19 42 39
18 42 39
19 42 39
19 43 40
19 42 39
18 42 39
18 41 38
19 43 40
18 42 39
19 42 39
19 42 39
19 43 40
18 42 39
19 42 39
19 43 40
19 42 39
19 42 39
19 42 39
19 42 39
19 43 40
19 42 39
19 42 39
19 43 40
19 42 39
19 42 39
18 41 38
19 42 39
19 43 40
18 42 39
19 42 39
19 42 39
19 42 39
18 41 38
19 43 40
19 42 39
19 43 40
19 43 40
19 42 39
19 42 39
19 42 39
18 42 39
19 42 39
19 43 40
19 42 39
19 43 40
19 43 40
19 42 39
19 42 39
19 42 39
19 42 39
18 42 39
19 43 40
19 43 40
19 42 39
19 43 40
18 42 39
19 42 39
19 42 39
19 43 39
19 42 39
19 42 39
18 41 38
19 42 39
18 41 38
19 43 40
19 43 40
19 43 40
19 43 40
19 43 40
19 43 40
19 43 39
19 42 39
19 42 39
19 42 39
19 42 39
19 42 39
19 42 39
19 43 40
20 44 41
19 42 39
19 43 40
19 42 39
19 42 39
18 42 39
19 42 39
19 43 40
19 42 39
19 43 40
19 42 39
19 43 40
19 43 40
18 41 39
19 42 39
19 42 39
18 41 38
19 42 39
19 43 40
19 43 40
19 42 39
19 44 40
19 43 40
19 42 39
19 42 39
19 43 40
19 43 40
19 43 40
19 42 39
18 42 39
19 42 39
18 42 39
18 41 38
19 42 39
19 42 39
19 42 39
18 42 39
18 41 38
19 42 39
18 42 39
19 42 39
19 42 39
19 42 39
19 43 40
18 41 38
19 43 40
18 41 38
19 42 39
19 42 39
19 43 40
19 42 39
18 42 39
19 42 39
19 42 39
19 42 39
19 42 39
19 42 39
19 43 40
18 41 38
19 42 39
19 42 39
19 42 39
19 42 39
19 43 40
18 41 39
19 43 39
19 43 40
18 41 38
19 42 39
19 42 39
19 43 40
19 42 39
19 42 39
19 43 40
19 42 39
18 41 38
19 43 40
19 43 40
19 42 39
19 42 39
19 43 40
19 43 40
19 42 39
19 43 40
19 43 39
19 42 39
19 43 39
19 43 39
18 41 38
19 42 39
18 41 38
19 43 40
19 43 40
19 42 39
19 43 40
19 43 40
19 43 40
19 42 39
19 43 40
19 43 40
19 43 40
19 42 39
19 42 39
19 42 39
19 42 39
19 42 39
19 42 39
19 42 39
19 43 40
19 42 39
19 43 40
19 42 39
19 43 40
19 42 39
19 43 39
19 42 39
19 43 40
20 44 41
19 42 39
20 44 41
19 43 40
19 43 40
19 43 40
19 43 40
18 41 38
19 43 40
19 43 40
19 43 40
19 43 39
19 42 39
19 42 39
18 41 38
19 43 40
18 41 38
20 44 41
19 43 40
19 42 39
19 43 40
19 43 40
19 43 40
19 43 40
19 42 39
19 43 39
19 42 39
19 42 39
19 43 40
19 42 39
19 43 40
19 42 39
19 42 39
19 42 39
18 41 38
19 42 39
18 41 38
19 42 39
19 42 39
18 42 39
19 42 39
18 42 39
19 43 40
19 42 39
19 42 39
19 42 39
19 42 39
19 43 40
19 42 39
18 41 38
19 42 39
19 42 39
19 42 39
19 42 39
19 43 40
19 42 39
19 43 40
19 42 39
19 42 39
19 42 39
19 43 40
19 42 39
19 43 40
19 42 39
19 42 39
19 42 39
19 42 39
19 42 39
19 43 40
18 41 38
19 42 39
19 42 39
19 43 39
19 42 39
19 43 40
19 43 40
20 44 41
19 42 39
19 43 40
19 42 39
19 42 39
18 41 38
19 42 39
19 42 39
19 42 39
19 42 39
19 42 39
19 43 40
19 42 39
19 43 40
19 42 39
19 42 39
19 43 40
19 43 40
19 43 40
19 42 39
19 42 39
19 43 40
19 43 40
19 43 40
19 43 40
19 42 39
19 43 40
19 42 39
19 43 39
19 43 40
19 43 40
19 43 39
19 43 40
19 43 40
19 42 39
19 43 40
19 43 40
19 43 40
19 43 40
19 43 40
19 42 39
19 42 39
19 42 39
18 41 38
19 43 39
19 43 40
19 42 39
19 43 40
19 43 40
19 43 39
19 43 40
19 43 40
19 43 40
19 43 40
19 42 39
19 42 39
19 43 40
19 43 40
19 43 40
19 43 40
19 43 40
19 43 40
19 43 40
19 42 39
19 44 40
19 43 39
19 43 39
19 42 39
19 43 39
19 43 40
19 42 39
19 43 39
19 43 40
19 43 40
19 42 39
19 42 39
18 42 39
19 42 39
18 41 38
18 41 38
18 42 39
18 41 38
19 42 39
19 42 39
19 43 40
19 43 40
19 42 39
18 41 38
18 41 38
19 43 40
19 43 40
18 41 38
19 42 39
18 42 39
18 42 39
19 42 39
19 43 40
19 42 39
19 42 39
19 43 40
19 42 39
19 42 39
19 42 39
19 43 40
19 43 39
19 42 39
19 42 39
19 42 39
19 42 39
19 43 40
19 43 40
19 42 39
19 42 39
19 42 39
18 41 38
19 43 40
19 44 40
19 42 38
19 42 39
19 42 39
19 42 39
19 42 39
19 43 40
19 43 40
19 43 40
19 43 40
19 43 40
19 44 40
19 42 39
19 42 39
19 43 40
19 43 40
19 43 39
19 43 40
19 42 39
19 43 40
19 43 40
19 43 40
19 42 39
19 43 40
19 42 39
19 42 39
19 43 40
19 42 39
19 43 40
19 43 40
19 43 40
19 42 39
19 42 39
19 43 40
19 44 40
19 42 39
19 43 39
19 43 40
19 43 40
19 43 40
19 43 40
19 43 40
19 42 39
19 42 39
20 44 41
20 44 41
19 42 39
19 42 39
20 44 41
19 42 39
19 43 40
19 42 39
19 42 39
19 44 40
19 43 40
20 44 41
19 43 40
19 43 40
19 43 40
19 44 40
19 43 40
19 43 40
19 43 40
19 43 40
19 42 39
19 43 40
20 44 40
19 43 39
20 44 40
19 43 40
19 43 40
19 43 40
19 43 39
19 43 39
19 42 39
19 43 40
19 44 40
19 43 40
19 42 39
19 42 39
18 42 39
19 42 39
19 43 40
19 42 39
18 41 39
18 41 38
19 42 39
18 41 38
19 42 39
19 42 39
19 42 39
19 43 40
19 43 39
19 42 39
19 42 39
19 43 40
19 42 39
19 43 40
19 42 39
19 42 39
19 42 39
19 43 40
19 43 40
19 42 39
19 42 39
19 42 39
18 41 38
19 42 39
19 43 40
19 42 39
19 42 39
19 42 39
19 43 40
19 43 40
19 43 40
19 42 39
19 42 39
20 44 41
19 43 39
19 42 39
19 42 39
19 43 40
19 43 40
19 42 39
19 42 39
19 42 39
20 44 41
19 43 40
19 43 40
19 41 38
19 44 40
19 43 40
19 43 40
19 44 41
19 44 40
19 43 40
19 43 40
19 42 39
19 43 40
19 43 39
19 43 39
19 42 39
19 43 39
19 43 40
19 43 40
19 42 39
19 43 40
19 43 40
19 43 40
19 43 39
19 44 40
20 44 41
19 43 40
20 44 40
19 43 40
19 43 39
19 42 39
19 43 40
19 43 40
19 43 40
19 43 40
19 43 40
20 44 41
20 44 41
20 44 40
20 44 41
19 43 40
20 44 41
19 42 39
19 43 39
19 43 40
19 43 39
19 43 40
19 43 40
19 43 40
20 44 41
19 43 40
19 43 39
19 43 40
19 43 40
19 43 40
19 44 40
19 43 40
20 44 41
20 44 41
19 43 40
19 44 40
19 43 40
19 42 39
19 43 39
20 44 40
20 44 41
19 42 39
19 43 40
20 44 41
19 42 39
19 43 40
19 43 39
19 44 40
19 42 39
19 42 39
19 43 40
19 42 39
19 42 39
19 42 39
18 41 38
19 43 40
19 42 39
19 42 39
19 43 40
19 42 39
19 43 39
19 43 40
19 43 40
18 41 38
19 43 40
19 42 39
19 43 40
19 43 40
19 43 40
19 43 40
19 42 39
19 42 39
19 42 39
19 42 39
19 42 39
19 43 40
19 42 39
19 43 40
19 42 39
19 43 40
19 43 39
19 43 40
19 43 40
19 42 39
19 43 40
19 43 40
19 42 39
19 43 39
19 43 40
19 43 40
19 42 39
19 42 39
19 43 40
19 43 40
20 44 41
19 42 39
19 42 39
19 42 39
19 43 40
20 44 41
20 44 40
19 43 40
19 43 40
19 43 40
19 43 40
20 44 40
19 43 40
19 43 40
20 44 41
19 43 40
19 43 40
19 43 40
19 42 39
20 44 40
20 44 40
19 42 39
19 42 39
19 43 40
20 44 41
19 42 39
19 43 40
19 43 39
20 45 41
19 43 40
19 42 39
19 43 40
20 44 41
19 43 40
20 44 41
19 43 39
20 44 41
19 42 39
20 44 41
19 43 40
19 42 39
19 44 40
19 43 40
19 44 40
19 43 40
20 44 40
20 44 41
19 43 40
19 43 40
19 43 40
19 43 40
19 43 40
19 43 40
19 44 40
20 44 40
19 42 39
19 44 40
19 43 39
19 43 40
19 43 40
19 43 39
19 43 40
19 43 40
19 43 40
19 43 40
19 43 39
19 43 40
19 43 40
20 44 40
20 44 40
20 44 40
19 43 40
20 44 40
20 44 40
19 43 40
19 43 40
19 42 39
19 43 40
19 42 39
19 42 39
19 43 40
19 42 39
19 42 39
19 44 40
19 42 39
19 42 39
19 43 40
19 43 40
19 42 39
19 42 39
19 42 39
19 42 39
19 43 40
19 43 40
19 43 39
19 43 40
19 43 40
19 43 40
19 42 39
19 43 40
19 43 40
19 43 40
19 43 39
19 42 39
19 43 40
19 43 40
19 42 39
19 42 39
19 43 40
19 43 40
19 43 39
19 43 40
19 42 39
19 43 40
19 43 40
19 43 40
20 44 41
20 44 40
19 43 40
19 42 39
19 43 40
19 43 40
20 44 41
20 44 41
19 44 40
20 44 41
19 43 40
20 44 41
19 42 39
19 43 40
19 43 40
19 42 39
19 43 40
20 44 41
20 44 41
19 43 40
20 44 40
19 43 40
20 44 40
20 44 40
19 42 39
19 43 40
19 42 39
19 43 40
20 44 41
19 43 39
20 44 40
20 44 41
20 44 40
20 44 40
19 43 39
20 45 41
19 44 40
19 43 39
20 44 41
19 43 39
19 43 39
19 43 39
19 43 40
19 43 40
19 44 40
19 43 40
19 43 40
20 44 41
19 43 40
20 45 41
20 44 40
20 44 41
19 43 40
19 43 39
19 43 40
19 43 40
20 44 41
20 44 40
20 44 41
20 44 41
20 44 40
19 43 40
20 44 40
20 44 40
20 44 41
19 43 40
20 44 40
20 44 41
20 44 40
20 44 41
20 45 41
19 43 40
20 45 41
20 44 41
19 43 39
19 42 39
19 43 40
20 45 41
20 44 41
19 43 40
19 43 39
19 42 39
19 42 39
19 42 39
19 42 39
18 41 38
19 43 40
19 43 39
19 43 40
19 43 40
19 43 40
19 43 40
19 42 39
18 42 38
19 42 39
19 43 39
19 42 39
19 42 39
19 42 39
19 43 39
19 43 40
20 44 41
19 43 40
19 43 40
19 42 39
19 43 39
19 43 40
19 42 39
19 42 39
20 44 40
19 43 40
19 43 40
19 43 40
19 42 39
20 44 41
19 43 40
19 43 39
19 42 39
19 43 40
19 42 39
19 42 39
19 43 40
19 43 39
19 42 39
20 44 41
19 42 39
19 43 40
19 42 39
19 43 40
20 44 40
20 44 40
19 43 40
20 44 40
19 43 39
19 43 40
19 43 40
20 44 41
20 44 41
19 43 40
19 43 40
19 43 40
19 43 40
19 42 39
19 42 39
20 44 40
20 44 40
20 44 40
20 44 40
20 44 41
19 43 40
20 44 40
19 43 40
19 43 40
20 44 41
20 44 41
20 44 40
19 42 39
20 45 41
20 44 40
19 43 40
20 44 40
20 44 40
19 43 40
20 44 40
20 44 40
20 44 41
20 44 41
19 43 40
20 44 41
19 43 40
19 43 40
20 44 40
19 42 39
20 44 40
19 43 40
20 44 41
20 44 41
19 43 40
20 44 40
19 42 39
19 43 39
20 44 41
20 44 40
19 43 40
19 43 40
20 44 40
19 43 40
19 42 39
20 44 40
19 43 40
19 43 40
20 44 41
19 43 40
20 44 41
20 44 41
19 43 40
19 43 40
20 44 41
19 42 39
19 43 40
19 43 39
19 42 39
19 42 39
19 43 40
19 43 40
19 43 40
19 42 39
19 42 39
19 43 40
19 43 40
19 43 39
20 44 41
19 43 40
19 42 39
19 43 40
19 42 39
19 42 39
19 43 40
19 43 40
19 43 40
19 43 40
19 42 39
19 43 39
19 43 40
19 43 40
19 43 40
19 43 40
19 44 40
19 43 40
19 43 40
19 43 40
19 43 40
19 43 40
19 42 39
19 43 40
19 43 40
20 44 40
20 44 40
19 42 39
20 44 41
19 43 40
20 44 41
20 44 40
20 44 41
20 44 40
20 44 40
19 43 40
20 44 41
20 44 41
19 43 40
20 44 41
19 43 40
19 43 40
19 43 40
19 44 40
19 44 40
19 43 40
19 43 40
19 44 40
19 43 40
19 43 39
20 44 40
19 43 40
19 43 40
20 44 40
19 42 39
19 42 39
20 44 41
20 44 41
19 43 40
20 44 41
19 43 40
20 44 41
20 44 40
20 44 41
20 44 40
20 45 41
20 45 42
20 45 42
19 43 39
20 44 40
20 44 41
20 44 41
20 44 40
19 43 40
20 45 41
20 44 41
20 45 41
19 43 40
19 43 40
20 44 40
19 43 40
20 44 40
20 44 40
20 44 40
20 45 41
20 45 41
19 43 40
20 44 41
20 44 41
20 44 41
19 43 40
20 45 41
20 44 40
20 44 40
20 44 40
20 44 40
19 43 40
20 44 40
19 43 40
19 43 40
19 43 40
20 44 41
20 44 40
20 44 40
20 44 40
19 43 40
19 43 40
19 42 39
19 43 39
19 43 40
19 43 40
19 42 39
19 43 40
19 43 40
19 43 39
19 43 40
19 42 39
20 44 40
19 42 39
19 43 39
19 43 40
19 42 39
19 43 40
19 43 40
20 44 40
19 42 39
19 43 40
19 43 39
20 44 41
20 44 41
19 43 40
19 43 40
20 44 41
19 43 39
20 44 41
19 43 40
19 43 40
20 44 40
19 43 40
20 44 41
19 43 40
19 43 40
19 43 40
19 43 40
19 43 40
20 44 40
20 44 41
20 44 40
19 43 40
19 43 40
19 43 40
19 43 40
19 43 40
19 42 39
20 45 41
20 44 41
19 42 39
20 44 40
19 43 39
19 43 40
19 43 40
20 45 41
19 43 40
20 44 41
20 44 41
20 45 42
19 43 40
19 43 40
20 45 41
20 44 40
19 43 40
19 43 40
20 44 40
19 43 40
20 44 41
19 43 40
19 43 40
20 45 41
20 44 41
20 45 42
20 44 41
20 44 40
19 43 40
19 43 40
20 44 41
19 43 40
20 44 40
19 43 40
20 44 41
19 43 40
20 44 41
20 44 40
20 44 40
19 43 40
20 44 41
20 44 40
19 43 40
20 45 41
20 44 40
20 44 40
19 43 40
19 43 39
19 43 40
20 44 41
20 44 40
20 44 41
20 44 41
19 43 40
20 44 40
20 45 41
20 45 41
19 43 39
20 44 41
20 44 40
20 44 40
19 43 40
20 44 41
20 45 41
19 43 40
19 43 40
20 44 41
20 44 40
20 45 41
20 44 41
20 44 41
20 45 41
20 44 41
19 43 40
19 43 39
19 44 40
19 43 40
19 43 40
19 43 40
20 44 41
19 43 40
19 43 40
19 44 40
19 43 40
20 44 40
19 43 40
20 44 41
19 42 39
19 43 40
19 43 39
19 43 40
19 43 40
19 43 39
19 43 40
19 43 40
20 44 41
20 44 40
19 42 39
20 44 41
19 43 39
19 43 40
19 43 40
19 42 39
20 44 41
19 43 40
20 45 41
19 43 40
19 43 40
19 43 40
19 43 40
20 44 41
19 43 39
20 44 41
19 43 40
19 43 40
19 42 39
20 44 40
19 43 39
20 45 41
20 44 41
20 44 40
19 43 40
20 44 41
19 43 39
19 43 40
20 44 41
20 44 40
20 44 41
20 44 40
20 44 40
19 43 39
19 44 40
20 45 41
20 44 41
20 45 42
20 44 41
20 44 40
20 44 40
20 44 41
19 43 40
19 43 40
20 44 41
19 43 40
20 45 41
20 44 41
19 43 40
19 43 39
20 44 40
20 44 41
20 45 41
20 44 41
20 44 40
20 44 40
19 43 40
20 45 41
20 44 40
20 44 41
20 45 41
19 43 40
20 44 41
20 45 42
20 44 40
20 44 41
19 43 40
20 44 41
20 44 41
20 45 41
20 45 42
20 44 41
20 44 41
20 45 41
20 45 41
20 44 41
20 44 40
20 44 40
20 45 41
20 45 41
20 44 41
20 44 41
19 43 40
20 45 42
20 45 41
20 44 40
20 44 41
20 44 40
20 45 41
20 45 41
20 44 41
20 44 40
20 44 41
20 45 41
20 45 42
20 44 41
19 43 40
19 43 40
19 43 40
19 43 40
19 43 39
19 43 40
19 43 40
19 43 40
19 43 40
19 42 39
19 42 39
19 43 40
19 43 40
20 44 41
19 43 40
19 43 40
20 44 41
19 43 40
19 43 40
19 43 40
19 43 40
19 44 40
19 43 39
20 44 41
20 44 41
20 45 41
20 44 41
19 44 40
19 43 40
19 43 40
19 43 40
20 44 41
19 43 40
19 43 39
19 43 39
20 44 41
19 43 40
19 43 39
20 45 42
20 44 41
20 44 41
20 44 40
20 44 41
20 44 41
20 44 40
20 44 41
19 43 40
20 44 41
20 44 41
20 44 41
20 44 40
20 45 42
20 45 41
19 43 40
20 44 41
19 43 40
20 44 40
20 44 41
19 43 40
19 43 39
20 44 40
20 44 40
19 43 40
20 44 40
20 44 40
19 43 40
20 44 41
20 45 41
20 44 41
20 45 41
19 43 40
20 44 41
20 44 41
20 44 41
19 43 40
20 44 40
20 44 40
20 44 40
20 44 40
20 44 41
20 44 40
20 44 40
20 45 41
19 42 39
20 45 41
20 44 41
20 45 42
20 44 40
20 44 40
20 45 41
20 44 40
20 44 41
20 44 41
20 44 40
20 44 41
20 45 41
20 45 41
20 45 42
20 45 41
20 44 40
19 44 40
20 44 41
20 44 41
20 44 40
20 44 41
20 44 41
20 44 41
20 44 41
20 44 41
20 44 41
20 44 40
20 44 40
20 44 40
20 44 40
20 44 41
20 45 42
20 44 41
20 44 40
20 45 41
20 46 42
19 43 40
19 43 40
19 42 39
19 43 40
20 45 41
19 43 40
19 43 40
20 44 40
19 43 40
19 43 40
19 43 40
20 44 40
19 43 39
19 43 40
19 44 40
20 45 41
19 43 40
19 42 39
19 43 40
20 44 41
19 43 40
19 43 40
20 44 41
19 44 40
19 43 40
20 45 41
20 44 40
20 44 40
19 43 40
19 43 40
19 43 40
19 43 40
20 44 40
19 44 40
20 44 40
19 43 40
20 44 40
20 44 41
19 43 40
20 44 41
20 44 40
19 43 40
19 43 40
20 44 40
20 44 41
20 44 40
20 44 40
19 43 40
20 44 40
20 44 40
20 44 41
20 44 40
20 45 41
20 45 41
20 44 41
19 43 40
20 44 41
20 43 40
19 43 39
20 45 41
20 44 41
20 44 40
20 44 41
20 44 41
20 45 42
20 45 42
20 44 40
20 45 41
20 45 41
20 45 41
19 43 40
20 45 41
20 44 40
20 45 41
20 45 41
20 44 40
20 45 41
20 44 40
20 45 42
20 45 41
20 45 41
20 44 41
20 44 40
20 44 40
20 44 40
20 45 41
20 45 42
20 44 41
20 44 40
20 44 40
20 45 42
20 44 40
21 46 42
20 44 41
21 46 42
20 44 40
20 45 41
20 44 41
20 44 41
20 45 41
20 45 41
19 43 40
20 45 41
20 44 40
20 45 41
20 45 42
20 45 41
20 45 42
20 45 41
20 45 42
20 43 40
20 44 40
20 44 41
20 44 40
20 44 40
20 44 40
20 44 41
20 44 41
20 45 41
20 45 41
20 44 40
19 43 39
20 44 41
19 44 40
20 44 41
19 42 39
19 43 39
19 43 40
19 43 40
19 43 40
20 44 40
19 44 40
20 44 41
19 43 39
20 44 41
19 42 38
19 43 39
19 43 40
19 43 40
19 43 40
20 44 41
19 42 39
19 42 39
20 44 40
19 43 40
20 44 40
20 44 41
19 43 39
20 44 40
20 44 41
20 44 41
19 43 39
19 43 40
19 43 40
19 43 40
20 44 41
20 45 41
20 44 41
20 44 41
19 43 40
19 43 39
20 44 41
20 45 41
20 44 41
20 44 41
20 44 41
20 44 40
19 43 40
20 44 40
20 44 41
20 44 41
19 43 39
19 43 39
20 44 41
20 44 41
19 43 40
20 44 41
20 44 40
20 44 40
20 44 41
20 44 41
20 45 41
20 44 41
20 44 40
20 45 41
20 44 41
19 43 40
20 44 41
20 44 41
20 44 41
20 45 41
19 43 40
20 44 41
20 45 41
20 44 41
20 45 42
20 45 41
20 45 41
20 45 41
20 44 41
20 45 41
20 44 40
20 44 40
19 43 40
20 44 41
20 44 40
20 45 41
20 45 42
20 45 41
19 43 39
20 44 41
20 44 41
20 44 41
20 44 41
20 44 41
20 45 42
20 45 41
20 45 42
20 45 41
20 45 41
20 45 41
20 44 41
20 44 41
20 44 41
20 44 40
20 45 41
20 44 41
20 45 41
20 44 41
20 44 41
20 44 41
21 46 42
20 44 40
20 45 42
20 45 42
20 45 42
20 45 41
20 44 41
20 45 42
20 45 41
20 44 41
19 42 39
19 43 40
19 43 40
19 42 39
19 43 40
19 43 40
20 44 41
19 43 40
19 43 40
20 44 40
19 43 40
19 43 39
19 43 40
20 44 40
20 45 41
20 44 40
19 43 39
20 45 41
19 43 40
21 46 42
20 44 41
19 43 40
20 44 41
19 43 40
20 44 41
20 44 40
19 43 40
20 44 41
19 44 40
20 44 41
20 44 40
20 45 41
20 44 40
19 43 40
20 44 41
20 44 41
19 43 40
20 44 40
20 44 40
20 44 41
20 44 41
19 43 40
20 45 41
19 43 40
20 44 40
20 44 41
20 45 42
20 44 41
20 45 41
19 43 40
20 44 40
20 44 40
20 44 40
20 45 41
19 43 40
19 43 40
20 44 41
20 44 40
20 45 42
20 44 40
20 44 41
20 45 41
19 43 39
20 44 41
20 44 40
20 45 41
20 45 41
20 44 40
20 46 42
20 45 42
20 45 42
21 46 42
20 44 41
20 44 41
20 45 41
20 45 41
20 44 40
20 45 41
20 44 41
20 44 40
20 44 41
20 45 41
20 45 42
20 44 40
20 45 41
20 44 41
21 46 42
20 44 41
20 44 41
21 46 42
20 44 41
20 45 41
20 45 41
20 45 41
20 44 41
21 46 42
20 44 41
20 44 41
20 44 40
20 45 42
20 45 41
20 43 40
21 46 42
20 45 41
20 44 41
20 45 42
20 46 42
20 44 41
20 44 41
20 45 41
20 43 40
20 45 41
20 45 41
20 44 40
20 45 41
20 45 41
20 44 41
20 44 41
20 45 41
19 43 40
20 45 41
19 43 40
20 44 40
20 44 40
20 44 41
20 44 41
19 43 40
20 44 41
20 44 41
19 43 40
20 44 40
19 43 40
20 44 40
19 43 40
19 44 40
19 43 40
20 45 41
20 44 40
20 44 40
20 44 40
19 43 40
20 44 40
20 45 41
20 44 41
20 44 41
19 44 40
19 43 39
20 44 41
20 44 40
19 43 40
19 43 40
20 45 42
20 44 41
20 45 41
19 43 40
20 44 41
20 44 41
19 43 40
20 45 42
20 44 41
20 44 41
20 45 41
20 44 41
19 43 40
19 43 40
20 44 40
20 45 41
20 45 42
20 45 42
20 44 41
20 44 41
20 44 40
20 44 40
20 45 41
20 44 40
20 44 41
20 43 40
20 45 41
20 45 41
19 43 40
20 45 41
20 45 41
20 45 41
20 45 41
20 44 41
20 44 40
20 45 41
20 45 42
20 45 41
20 45 41
20 44 40
20 44 41
20 44 41
21 46 42
20 45 41
20 45 41
20 45 41
20 44 41
21 46 42
20 46 42
20 45 41
20 44 41
20 45 42
21 46 42
20 45 41
20 45 41
20 45 41
20 45 41
20 44 40
20 45 42
20 45 41
20 45 41
20 44 40
20 45 41
20 45 41
20 45 41
20 44 41
20 45 41
20 45 41
21 46 42
20 45 41
20 44 41
21 46 42
20 45 41
20 44 41
20 45 41
20 45 41
21 45 42
21 47 43
20 45 42
20 45 41
20 45 41
20 45 42
21 46 42
20 45 41
20 45 41
20 44 41
21 46 42
20 45 41
19 42 39
20 44 41
19 43 39
20 45 41
20 45 41
20 44 41
20 44 40
19 43 40
20 44 41
20 44 40
19 43 40
20 45 41
20 44 41
20 44 40
20 44 41
20 44 40
19 43 40
20 44 41
19 44 40
20 45 41
20 45 41
20 44 41
20 44 41
19 42 39
20 44 40
19 43 40
20 45 41
20 44 41
19 43 40
20 44 41
20 44 40
20 44 41
19 42 39
20 45 41
20 45 41
20 45 41
20 44 41
20 44 41
20 45 41
20 45 41
20 44 40
20 45 41
19 43 40
21 46 42
20 44 41
20 44 41
20 45 42
20 44 40
20 45 41
20 45 41
20 45 42
20 45 41
20 45 41
19 43 40
20 44 41
20 45 41
20 44 41
20 45 41
21 46 42
20 44 41
20 45 41
20 45 41
20 44 41
21 46 42
20 45 41
20 44 40
21 46 43
20 44 41
20 45 41
20 44 41
21 46 42
20 45 42
20 45 41
20 45 41
21 46 42
20 45 41
20 45 42
20 45 42
20 44 41
20 45 41
21 46 42
20 45 42
20 45 42
20 45 42
20 45 42
20 45 41
20 45 42
20 44 40
20 45 41
20 46 42
20 45 41
20 45 41
20 45 41
20 45 41
20 45 42
20 45 42
20 44 40
21 46 42
20 45 41
20 45 41
20 46 42
20 44 40
20 45 41
20 44 41
20 45 41
21 46 42
21 46 43
20 45 41
20 45 41
20 45 41
20 45 42
20 45 41
20 45 41
20 45 41
20 45 41
20 44 40
20 45 41
20 45 41
21 47 43
20 45 42
20 44 40
20 44 40
20 44 41
19 43 40
19 43 40
20 44 41
19 44 40
19 43 40
20 44 41
19 43 40
19 43 40
19 43 40
20 44 41
20 44 40
20 44 41
20 45 42
20 44 41
20 44 40
20 44 40
20 44 41
20 44 41
19 43 40
20 45 41
20 45 41
19 43 40
20 44 41
20 44 41
20 44 40
20 44 40
20 44 40
20 45 41
20 45 41
20 44 40
20 45 42
20 44 41
20 44 41
20 44 40
20 45 41
19 43 40
20 45 41
20 45 42
20 45 41
19 43 40
19 43 40
20 45 41
19 43 40
20 44 41
20 45 41
20 44 40
20 45 41
20 44 41
20 45 41
20 45 41
20 45 42
20 44 40
20 45 41
20 44 40
20 44 41
20 45 41
20 45 41
20 45 41
21 46 42
20 45 41
20 45 41
20 45 41
20 45 41
19 43 40
20 44 41
20 44 40
20 45 41
21 46 42
20 45 42
20 45 42
21 46 42
20 44 41
20 44 40
20 45 41
21 45 42
20 45 41
20 44 41
21 46 42
20 44 40
20 45 42
20 45 42
20 45 41
20 45 41
21 46 42
20 45 41
21 46 42
20 45 41
21 46 43
20 45 42
21 46 42
20 44 41
21 46 42
21 46 42
21 45 42
20 45 41
21 46 42
21 46 42
21 46 42
20 44 40
20 45 41
20 45 41
20 45 41
21 46 42
20 45 42
20 46 42
20 45 41
21 46 42
20 45 41
21 46 42
21 47 43
20 44 41
21 46 42
20 45 42
20 45 42
21 46 42
21 46 42
20 45 41
20 44 40
20 44 41
19 43 39
20 44 40
20 45 41
19 43 40
20 44 40
19 43 40
20 44 40
20 44 41
19 43 40
20 44 40
19 43 40
19 43 40
20 44 41
20 44 41
19 43 40
19 43 40
20 44 41
20 44 41
20 45 41
20 44 40
20 44 41
20 45 41
20 44 41
20 45 41
20 44 40
20 45 41
20 45 41
20 44 40
19 43 40
20 44 40
20 45 41
20 45 41
20 44 41
20 45 42
19 43 40
20 44 41
20 45 42
20 44 41
20 45 41
20 44 40
20 45 41
19 43 40
20 45 42
21 46 42
20 45 42
20 44 41
20 44 41
21 46 42
20 45 41
20 45 42
20 44 40
20 44 40
20 44 40
20 45 42
20 45 41
20 44 41
20 45 41
20 45 41
20 45 41
20 45 41
20 45 41
20 45 41
20 45 41
20 45 42
20 45 41
20 44 41
20 44 41
20 45 41
20 44 41
20 44 41
20 44 40
20 44 41
20 45 41
20 45 42
21 46 42
21 46 42
20 44 40
20 45 41
20 45 41
21 46 42
21 47 43
21 46 42
20 45 42
20 45 41
20 45 41
20 45 42
20 44 41
21 47 43
21 46 42
21 46 42
20 45 41
21 46 42
21 46 42
21 46 42
20 45 41
21 46 42
21 46 42
21 46 42
20 45 42
21 47 43
21 46 42
21 46 42
21 45 42
21 46 42
20 45 41
20 45 42
21 46 42
20 45 41
21 46 42
20 45 41
20 44 40
21 46 42
21 46 42
21 47 43
21 47 43
21 46 42
21 46 42
21 46 42
19 43 39
20 44 40
20 44 41
20 44 40
20 45 41
19 43 40
20 44 41
20 44 40
20 45 41
20 44 40
19 43 40
19 43 40
20 44 41
20 45 41
20 45 41
20 45 42
20 45 41
20 45 41
20 44 41
20 44 40
20 44 40
20 45 41
20 44 40
20 44 40
20 44 41
20 44 40
20 45 41
20 44 41
19 43 40
20 45 42
20 45 41
21 46 42
20 44 41
20 44 41
20 44 40
20 44 41
20 45 42
20 45 41
20 43 40
20 44 40
20 45 41
20 44 41
20 45 41
20 45 41
20 45 41
20 45 42
20 44 41
20 45 42
20 45 42
20 45 41
20 44 41
20 45 42
20 45 42
20 45 41
20 46 42
21 45 42
20 45 41
20 45 41
20 44 40
20 45 42
20 45 41
20 45 41
20 45 41
20 45 41
20 45 41
20 45 41
20 45 41
20 43 40
20 45 42
20 45 41
20 45 42
21 46 42
20 44 41
20 45 41
20 45 41
20 45 41
21 46 42
21 47 43
21 45 42
21 46 42
21 46 42
21 46 42
20 45 42
20 44 41
20 45 41
21 46 43
21 46 42
21 46 42
21 46 42
20 45 41
20 44 41
20 45 41
20 45 41
20 45 41
20 45 41
21 46 43
21 46 42
21 46 42
21 47 43
21 46 42
21 46 42
21 46 42
20 45 41
21 46 42
21 46 42
20 45 41
20 45 41
21 47 43
20 44 41
20 45 41
21 46 42
20 45 41
20 45 41
21 46 42
21 46 42
21 46 42
21 46 42
21 46 42
21 45 42
21 46 42
20 44 41
20 44 41
20 44 40
20 45 41
20 45 41
19 43 40
20 44 40
20 44 41
20 44 41
20 45 41
20 44 41
19 43 40
19 43 40
20 44 41
20 44 40
20 44 41
20 45 41
20 44 41
20 45 41
20 44 40
20 44 40
20 44 41
20 45 41
20 44 40
19 43 39
20 44 40
20 44 41
20 44 41
20 45 42
20 44 41
20 44 40
20 45 41
20 45 41
20 45 41
20 45 41
20 44 41
20 44 40
20 45 41
20 44 41
20 45 41
20 44 41
20 45 42
21 46 42
20 45 41
20 44 41
20 45 42
20 44 40
20 44 40
21 46 42
20 45 41
20 45 41
20 44 41
20 45 41
20 45 41
21 46 42
20 45 41
20 45 41
20 45 41
20 45 41
21 46 42
20 45 42
20 45 41
21 46 42
21 46 42
19 43 40
21 46 42
20 45 42
20 44 41
20 43 40
20 45 42
21 46 42
20 45 41
20 45 41
21 46 42
21 46 42
21 46 43
21 46 42
21 46 42
21 47 43
20 45 41
20 44 40
21 46 42
21 47 43
20 45 41
21 46 42
21 47 43
21 46 42
21 46 42
20 45 42
20 45 41
20 45 42
21 46 42
21 46 42
21 45 42
20 44 40
21 46 42
20 45 41
21 47 43
20 44 41
20 45 41
20 45 42
21 46 42
21 46 42
21 45 42
21 46 42
20 45 41
21 46 42
21 47 43
20 45 41
21 46 42
20 45 41
21 47 43
21 46 42
21 47 43
21 47 43
21 46 42
20 44 41
21 47 43
21 46 42
21 46 42
20 45 42
20 44 40
19 43 40
20 44 41
20 44 40
20 44 41
20 45 42
19 42 39
20 44 40
20 44 41
20 44 41
19 43 40
20 45 41
20 44 40
20 44 41
20 44 40
20 45 41
20 45 41
20 44 40
20 44 40
20 45 42
19 43 40
20 45 41
20 45 41
20 45 41
20 44 41
19 43 39
20 45 42
21 46 42
20 44 41
20 45 41
20 45 41
20 43 40
21 46 42
20 45 41
20 44 40
21 46 42
20 45 41
20 45 42
20 45 42
20 44 41
20 45 41
20 45 41
20 44 40
20 44 41
20 45 41
21 46 42
20 45 41
20 45 41
20 45 41
20 44 40
20 45 42
20 45 42
20 45 41
21 46 42
20 45 42
21 45 42
20 46 42
20 45 41
21 46 43
20 44 40
20 45 41
20 45 41
20 45 41
21 46 42
21 46 42
21 46 42
20 45 41
21 46 42
21 46 42
20 45 42
21 46 42
21 46 42
20 45 41
21 46 42
21 47 43
20 45 41
20 45 42
20 45 41
21 46 42
20 45 41
20 44 40
20 45 42
21 46 42
21 46 42
21 46 42
21 46 42
21 46 42
20 45 41
21 46 42
20 45 41
21 46 42
20 45 41
21 46 42
22 48 44
21 47 43
20 45 41
21 46 42
21 46 42
21 46 42
21 46 43
20 45 41
21 45 42
20 45 41
20 45 41
21 46 42
20 45 41
21 47 43
21 47 43
20 45 41
21 46 42
21 47 43
21 46 42
20 45 41
20 45 41
20 45 41
21 46 42
20 45 41
21 47 43
21 46 42
20 44 41
20 45 42
20 45 41
20 44 40
20 45 41
20 44 40
20 44 40
20 45 41
20 45 41
20 44 41
20 45 41
20 45 41
20 44 41
20 44 41
21 46 42
20 44 41
20 44 41
20 44 41
20 45 41
20 44 41
20 45 41
20 45 42
20 45 41
20 45 41
21 46 42
20 44 41
20 45 41
20 45 42
20 45 42
21 46 42
21 46 42
20 45 41
20 44 41
20 44 41
20 44 41
20 45 42
20 45 41
20 45 41
20 44 41
20 45 41
21 46 42
20 44 40
20 45 41
21 46 42
20 45 41
21 46 42
21 46 42
20 45 41
20 44 41
20 45 41
20 45 41
20 45 41
21 46 42
21 46 42
21 46 42
20 45 41
20 44 40
20 45 41
20 44 41
21 46 42
20 45 42
21 45 42
21 46 42
21 46 42
20 45 41
21 46 42
21 46 42
20 45 41
21 46 42
21 46 42
21 46 42
20 44 40
20 45 42
20 44 41
20 45 41
21 46 42
21 46 42
21 46 42
21 46 42
21 47 43
20 45 41
21 46 42
20 45 41
21 46 42
21 47 43
21 46 42
21 46 42
21 46 42
20 45 42
21 45 42
20 45 41
21 46 42
21 46 42
20 45 41
21 46 42
20 45 41
21 46 42
21 46 42
20 45 41
20 45 41
21 45 42
21 46 42
21 47 43
21 45 42
21 46 42
21 47 43
21 46 42
20 45 41
20 45 41
21 46 42
21 46 42
21 47 43
21 46 42
21 46 42
21 47 43
21 46 42
21 46 42
21 46 42
21 46 42
21 46 42
20 45 41
19 42 39
19 43 40
21 46 42
20 44 41
20 45 41
20 45 41
20 44 40
20 44 41
20 44 41
20 45 41
20 44 40
20 45 42
21 46 42
20 45 41
20 44 41
20 44 41
20 45 41
20 44 41
20 44 41
20 45 42
21 46 42
20 45 41
20 45 42
20 44 41
20 44 41
20 45 41
20 45 41
21 46 42
20 45 41
21 46 42
20 44 41
21 47 43
20 46 42
20 45 41
21 46 42
20 44 40
20 44 41
20 45 42
20 45 41
20 45 41
20 45 41
20 44 41
20 45 41
21 46 42
20 46 42
21 46 42
20 45 41
20 45 42
21 46 42
21 45 42
20 45 41
21 46 42
20 45 41
20 45 42
21 47 43
20 45 41
21 46 42
20 45 41
21 46 42
20 45 41
20 45 41
21 46 42
21 46 42
20 45 41
20 45 41
21 46 42
20 45 41
21 46 42
21 47 43
21 46 42
21 46 42
20 45 41
21 47 43
21 45 42
20 45 41
20 45 41
20 45 42
20 45 41
21 46 42
21 47 43
21 47 43
21 47 43
21 46 42
20 45 41
21 47 43
21 46 42
20 45 41
21 46 42
21 46 42
21 46 42
21 47 43
21 46 42
21 47 43
20 45 41
21 46 42
21 47 43
21 46 42
20 45 41
21 47 43
20 45 41
21 47 43
21 46 42
21 46 42
21 45 42
21 46 42
21 46 42
21 46 42
21 46 42
21 46 42
21 46 42
21 47 43
21 46 42
21 47 42
21 46 42
21 47 43
21 46 42
22 47 43
21 47 43
21 46 42
20 45 41
20 44 41
20 45 41
19 43 40
20 45 41
20 44 40
20 44 41
20 45 41
20 45 41
20 45 41
20 45 41
20 45 41
20 45 42
20 44 41
21 46 42
20 45 41
20 45 41
20 44 40
20 45 41
20 44 40
20 44 41
20 44 40
20 45 41
20 45 41
20 45 41
20 44 41
20 44 41
21 46 42
21 46 42
20 45 41
20 45 42
21 46 42
20 46 42
20 44 41
20 45 42
21 46 42
20 45 41
21 47 43
21 46 42
20 45 41
20 44 41
21 46 42
20 45 42
21 46 42
20 45 41
20 45 41
21 46 42
20 45 41
20 44 41
21 47 43
20 44 41
20 44 41
20 45 41
20 45 42
21 47 43
21 47 43
20 44 41
20 45 41
21 46 42
21 46 42
21 47 43
21 46 42
20 45 41
21 46 42
21 46 42
21 46 42
21 46 42
21 46 42
20 44 40
21 46 42
20 45 41
20 45 41
21 46 42
21 46 42
20 45 41
20 45 41
21 46 42
21 45 42
21 46 42
21 46 42
21 47 43
21 46 42
21 45 42
21 47 42
21 46 42
21 47 43
21 45 41
21 46 42
21 47 43
20 45 41
21 45 41
21 47 43
21 46 42
21 46 42
21 46 42
21 46 42
21 47 43
21 47 43
20 45 41
21 45 42
21 46 42
21 46 42
21 46 42
21 47 42
21 47 43
21 47 43
21 46 42
21 46 42
21 46 42
21 47 43
21 47 43
21 47 43
21 46 42
20 45 41
21 46 42
21 46 42
20 45 41
21 46 42
22 48 43
21 47 43
20 45 41
19 43 40
20 45 42
21 46 42
20 44 40
20 45 42
19 43 40
19 43 40
20 44 40
20 45 41
20 45 41
19 43 40
21 46 42
20 45 41
20 45 41
20 45 41
20 44 41
20 45 42
20 45 41
20 45 42
20 45 42
20 44 41
20 45 41
20 45 41
21 46 42
20 45 41
20 44 41
20 45 41
21 46 42
20 44 41
21 46 42
21 46 42
20 46 42
20 45 41
20 45 42
20 45 41
20 45 41
20 45 42
20 45 42
20 45 41
20 45 41
20 44 40
21 47 43
21 46 42
21 46 43
21 46 42
20 45 41
21 46 42
20 45 41
20 45 41
21 46 42
20 46 42
20 45 42
21 46 42
21 46 42
21 47 43
20 45 41
21 46 42
21 46 42
20 45 42
22 48 44
20 44 41
20 45 41
21 46 42
20 45 41
20 44 41
21 47 43
20 45 41
21 47 43
21 46 42
21 47 43
21 46 42
21 47 43
21 45 42
21 45 42
20 45 41
21 46 42
21 46 42
21 46 42
21 47 43
21 46 42
21 46 42
21 47 43
20 45 41
21 47 43
21 46 42
21 46 42
21 46 42
21 46 42
21 46 42
20 45 41
21 46 42
21 47 43
21 46 42
21 46 42
22 48 44
21 47 43
21 46 42
21 46 42
21 47 43
21 47 43
21 46 42
21 46 42
21 46 42
21 46 42
21 46 42
21 46 42
21 46 42
21 46 42
21 46 42
21 47 42
21 46 42
21 47 43
21 47 43
21 46 42
21 47 43
21 47 43
21 46 42
21 46 42
21 47 43
20 45 41
20 45 42
20 45 41
20 45 41
20 44 41
20 44 40
20 44 41
20 44 40
21 46 42
21 46 42
20 44 40
20 44 41
20 44 41
20 45 41
20 44 41
20 45 41
20 44 40
20 45 41
20 45 41
20 44 41
20 45 41
20 45 42
20 45 41
20 44 40
20 45 41
20 45 42
20 45 41
21 46 42
21 46 42
21 46 42
21 46 42
20 45 41
20 45 41
21 46 42
21 46 42
20 44 41
20 44 41
20 44 40
21 46 42
20 45 41
21 46 42
20 45 41
21 46 42
20 45 42
20 45 41
21 46 42
20 45 41
20 45 41
21 46 42
20 44 40
21 46 42
20 44 41
20 45 41
20 45 41
21 46 42
20 45 41
21 46 42
20 45 42
21 45 42
20 45 41
21 45 42
21 46 42
21 46 42
21 47 43
20 45 41
21 47 43
20 45 41
21 46 42
21 46 42
21 45 41
21 46 42
21 46 42
21 46 42
21 47 43
21 46 42
21 46 42
21 47 43
20 45 41
21 47 43
21 46 42
21 46 42
21 46 42
21 47 43
20 45 41
21 47 43
21 47 43
21 46 42
21 46 42
21 47 43
21 46 42
21 46 42
21 47 43
21 47 42
21 46 42
21 47 43
21 46 42
21 46 42
21 46 42
21 45 41
21 47 43
21 46 42
21 47 42
21 46 42
21 47 43
21 46 42
21 47 43
20 45 41
21 46 42
21 47 43
21 46 42
21 46 42
21 47 43
21 47 43
21 46 42
21 46 42
21 47 43
21 47 43
21 46 42
21 46 42
22 48 43
20 45 41
20 45 42
20 44 41
20 46 42
20 44 40
20 44 40
20 46 42
20 45 41
21 46 43
20 44 41
20 45 42
20 45 42
20 44 40
20 45 41
20 45 41
21 46 42
21 46 42
20 45 41
21 46 42
20 45 41
20 45 42
21 46 42
21 46 42
20 44 40
21 46 42
21 46 42
21 46 42
20 45 41
21 46 43
20 45 41
20 45 41
20 45 41
21 46 42
21 46 42
20 45 41
20 44 40
21 47 43
21 47 43
20 45 41
20 44 41
20 45 41
20 45 41
20 45 41
21 46 42
20 45 41
21 46 42
21 47 43
21 46 42
20 45 41
20 45 41
21 47 43
21 46 42
21 46 42
21 46 42
21 46 42
20 45 41
21 46 42
21 47 43
20 45 41
20 45 41
21 46 42
21 46 42
21 47 43
21 46 42
20 45 41
21 46 42
21 47 43
21 47 43
20 45 41
21 46 42
21 47 43
21 46 42
21 46 42
21 47 43
21 46 42
21 47 43
21 46 42
21 46 42
21 47 43
21 46 42
21 46 42
22 48 44
22 48 43
20 45 41
21 46 42
21 47 43
21 46 42
21 46 42
21 46 42
21 46 42
21 47 43
21 46 42
21 47 43
21 47 43
21 46 42
21 46 42
21 46 42
21 47 43
22 48 44
21 47 43
21 47 43
21 47 42
21 47 43
21 46 42
21 47 42
22 47 43
21 47 42
21 47 43
21 47 43
21 46 42
21 46 42
21 47 43
21 47 43
21 46 42
21 47 42
21 47 43
21 47 43
22 48 44
22 47 43
22 48 44
20 45 41
21 46 42
20 44 41
20 45 42
20 45 42
20 44 40
21 46 42
20 45 42
21 46 42
20 45 41
20 44 40
20 44 40
20 44 41
21 46 42
20 44 41
20 45 42
20 45 41
21 47 43
21 46 42
21 46 43
21 47 43
20 45 42
20 43 40
21 46 42
20 45 41
20 44 40
20 45 41
21 46 42
21 46 42
20 45 41
20 45 42
20 45 41
20 45 41
21 46 42
21 46 42
20 45 41
20 45 41
21 46 42
21 46 42
20 45 41
21 46 42
20 45 41
20 45 41
21 46 42
21 46 42
20 45 41
21 46 42
21 45 42
21 48 43
21 46 42
21 47 43
21 46 42
21 46 42
20 45 41
21 46 42
21 46 42
21 47 43
20 44 40
21 46 42
20 44 40
20 45 41
20 45 42
21 46 42
21 46 42
21 46 42
21 45 41
20 45 41
21 46 42
21 46 42
21 47 43
21 46 42
21 46 42
21 47 43
21 47 42
21 47 43
21 47 43
21 47 43
20 45 41
20 45 41
21 46 42
21 47 43
21 47 43
21 47 43
21 47 43
21 46 42
21 47 43
22 48 44
21 47 43
22 47 43
21 46 42
21 46 42
21 46 42
21 47 43
21 46 42
21 47 43
21 47 43
21 46 42
21 46 42
21 47 43
21 47 43
21 47 42
21 47 43
20 45 41
21 47 43
22 48 44
22 48 44
21 47 43
21 47 43
21 47 43
21 47 43
21 45 41
21 47 43
21 47 43
21 47 43
21 46 42
21 47 43
21 46 42
21 47 43
21 47 43
21 47 43
20 45 42
20 45 41
20 45 42
20 44 41
20 45 41
20 45 42
20 45 41
20 45 41
20 44 41
20 45 41
20 45 41
21 46 42
20 45 41
20 45 41
20 45 41
21 46 42
20 44 40
21 47 43
20 44 41
20 45 41
20 45 41
20 45 41
20 45 41
20 45 42
20 45 42
21 46 42
21 46 42
20 45 41
21 46 42
20 45 41
20 45 41
21 46 42
20 45 41
20 45 41
20 45 42
20 45 41
21 46 42
21 46 42
20 45 41
21 46 42
20 44 40
20 45 42
21 45 42
21 46 42
21 47 43
21 47 43
20 45 41
21 47 43
21 46 42
21 46 42
20 45 41
21 45 42
21 46 42
21 45 42
21 47 43
21 46 42
21 47 43
21 47 43
21 46 42
21 46 42
21 45 42
21 46 42
21 46 42
21 45 41
21 46 42
21 47 43
21 46 42
21 45 41
21 46 42
21 46 42
21 46 42
21 46 42
21 46 42
20 45 41
21 47 43
21 46 42
21 47 43
21 47 43
21 46 42
22 48 43
21 47 43
21 46 42
21 47 43
22 47 43
21 47 43
21 46 42
21 47 43
21 46 42
21 47 42
21 46 42
21 47 43
21 47 43
21 47 43
21 47 43
22 48 44
21 45 41
21 47 43
21 47 43
22 48 43
21 46 42
21 47 43
21 47 43
21 47 43
21 47 43
21 46 42
21 47 43
21 47 43
21 47 43
21 47 43
21 47 43
21 46 42
21 47 43
22 47 43
21 47 43
21 46 42
21 47 43
21 47 43
21 47 43
22 48 44
22 48 43
21 46 42
20 44 41
20 44 41
20 45 41
20 45 41
20 44 40
20 44 40
21 46 42
20 44 41
20 44 41
20 45 41
21 46 42
21 46 42
20 45 42
20 45 41
20 44 40
20 45 41
20 45 41
21 46 42
21 46 42
20 45 41
20 44 41
20 45 41
20 45 41
21 46 42
21 47 43
20 45 41
20 44 41
20 45 41
20 45 41
20 45 41
20 45 41
21 46 42
21 46 42
21 46 42
21 46 42
20 45 41
20 45 42
21 46 42
21 46 42
20 45 41
21 47 43
21 47 43
20 45 41
21 46 43
20 45 41
21 46 42
21 46 42
21 46 42
21 47 43
21 46 42
21 47 43
21 47 43
21 47 43
21 46 42
21 46 42
21 47 43
21 47 43
21 46 42
20 45 41
21 46 42
21 46 42
21 47 43
21 47 43
21 46 42
21 47 43
21 47 43
21 46 42
22 48 44
21 47 42
21 47 43
21 46 42
21 47 43
21 46 42
21 47 43
21 45 41
21 46 42
21 46 42
21 46 42
21 47 43
21 47 43
21 46 42
21 46 42
21 47 43
21 47 43
21 46 42
22 47 43
22 47 43
21 46 42
21 46 42
21 47 43
22 48 44
21 47 43
22 48 44
21 47 42
21 46 42
21 47 42
21 47 43
21 47 43
22 48 44
21 47 43
21 47 43
21 47 43
21 47 43
21 47 43
21 47 43
21 47 43
21 46 42
22 48 44
21 47 43
21 46 42
21 47 43
21 47 43
21 47 43
21 47 43
21 47 43
21 47 43
22 48 44
21 47 43
22 48 43
20 45 41
20 44 41
20 44 41
21 46 42
20 45 41
20 45 41
20 45 41
20 45 41
20 45 42
20 45 42
21 46 42
20 44 41
21 46 42
21 46 42
20 45 41
20 44 41
20 45 41
21 46 42
21 46 42
21 46 42
20 44 40
20 45 41
21 46 42
20 45 41
20 44 41
21 46 42
20 45 41
21 46 42
20 45 41
20 45 41
21 46 42
20 45 41
21 46 42
20 45 41
21 46 42
21 47 43
20 45 41
21 46 42
21 46 42
21 46 42
21 46 42
21 46 42
21 47 43
21 45 42
21 46 42
20 45 42
21 47 43
21 45 42
21 46 42
21 46 42
21 46 42
21 47 43
21 46 42
20 45 41
21 47 43
20 45 41
20 45 41
21 46 42
21 47 43
20 45 41
21 46 42
21 46 42
21 45 42
21 47 43
21 47 43
21 47 43
21 47 43
21 46 42
20 45 41
21 47 43
20 45 41
21 45 41
21 47 43
21 47 43
21 47 43
21 47 43
21 46 42
21 46 42
21 47 43
21 46 42
22 48 43
22 47 43
21 47 43
21 47 42
21 47 43
22 48 44
21 46 42
21 46 42
21 47 43
21 46 41
21 46 42
21 46 42
22 48 43
21 47 43
21 46 42
21 46 42
21 46 42
21 46 42
21 47 43
21 47 42
21 46 42
22 48 43
22 48 44
21 47 43
21 47 43
21 46 42
21 47 43
21 46 42
22 48 44
21 47 43
22 48 44
21 47 42
21 47 42
21 47 43
21 47 43
21 47 43
21 46 42
21 46 42
22 48 43
21 47 43
20 44 41
20 45 42
20 45 41
21 46 42
21 46 42
21 46 42
20 44 41
21 46 42
20 45 42
21 46 42
20 45 41
21 46 42
20 45 41
21 46 42
21 46 42
20 45 41
20 45 41
20 45 42
21 46 42
21 46 42
20 45 42
20 45 41
20 45 41
20 45 41
21 46 42
20 45 42
20 45 42
21 47 43
20 45 41
20 45 41
20 45 41
21 46 42
20 45 41
20 45 42
21 46 42
21 46 42
21 46 42
21 46 42
20 45 41
21 46 42
21 46 42
21 45 42
21 47 43
21 46 42
21 47 43
21 47 43
21 46 42
21 47 43
21 46 42
21 46 42
20 45 41
21 46 42
21 46 42
21 46 42
21 46 42
21 47 43
21 47 43
21 46 42
21 46 42
21 46 42
21 45 41
21 46 42
21 47 43
21 47 43
21 47 43
21 47 43
21 47 43
21 46 42
21 45 41
21 47 43
21 46 42
21 46 42
21 46 42
21 47 43
21 47 43
21 46 42
21 47 43
21 47 43
20 45 41
21 46 42
21 47 43
22 48 43
21 46 42
22 48 44
21 47 43
21 46 42
21 47 43
21 46 42
21 46 42
21 46 42
21 46 42
22 48 43
22 48 43
21 46 42
21 46 42
21 47 43
21 47 43
21 46 42
21 46 42
21 45 41
21 47 43
21 47 43
21 47 42
22 47 43
21 47 43
21 47 43
21 46 42
21 47 43
21 46 42
21 47 43
21 46 41
22 48 43
21 47 43
22 47 43
22 48 44
22 48 43
22 48 44
21 47 43
21 47 43
22 47 43
20 45 41
20 44 41
20 45 41
20 45 41
20 45 41
20 45 41
20 45 41
20 45 41
20 45 42
21 46 42
20 45 42
21 46 42
21 46 42
21 46 42
21 46 42
20 45 41
21 47 43
21 46 42
21 46 42
21 46 43
20 45 41
20 44 40
20 45 41
20 45 41
21 46 42
20 45 41
21 47 43
20 45 42
20 45 41
21 45 42
21 46 42
20 45 41
21 46 42
21 46 42
21 47 43
21 46 42
21 45 41
21 47 43
21 47 43
21 46 42
21 46 42
21 46 42
20 45 41
20 45 41
21 47 43
21 46 42
21 45 42
21 46 42
21 46 42
21 46 42
21 46 42
21 47 43
21 47 43
21 46 42
21 46 42
21 46 42
21 46 42
21 47 43
21 46 42
21 47 43
21 46 42
21 46 42
21 46 42
21 46 42
21 46 42
21 46 42
21 47 43
21 47 43
21 47 43
22 48 43
21 47 43
22 48 44
22 48 44
21 46 42
22 47 43
22 48 43
21 46 42
21 47 42
21 47 43
22 48 44
21 47 43
22 48 43
21 47 43
21 47 43
22 48 43
21 47 43
21 47 43
22 47 43
21 46 42
21 46 42
21 47 43
21 46 42
21 46 42
21 46 42
21 47 43
22 47 43
22 48 43
21 47 43
21 47 43
21 47 43
22 48 44
21 46 42
21 47 43
22 48 44
22 48 43
21 47 42
22 49 44
21 47 42
22 48 43
22 48 44
21 47 43
22 48 44
22 47 43
22 48 44
21 47 43
21 47 43
22 48 44
21 46 42
21 47 43
22 48 43
20 44 41
20 44 41
20 44 40
20 44 41
21 45 42
20 45 41
21 46 42
20 45 41
20 45 42
21 45 42
21 46 42
20 45 41
20 45 41
21 46 42
20 45 41
21 47 43
21 45 42
21 47 43
21 46 42
20 45 41
20 45 41
20 45 42
20 45 41
20 45 41
20 45 41
20 45 41
21 46 42
21 46 42
20 45 41
21 46 42
21 47 43
21 46 42
20 45 41
21 46 42
20 45 41
21 46 42
20 45 41
21 47 42
21 47 43
20 45 41
20 44 41
21 46 42
21 46 42
21 46 42
21 46 42
21 46 42
21 47 43
21 46 42
21 46 42
21 46 42
21 46 42
20 45 41
22 48 43
21 47 43
21 47 43
21 46 42
21 47 43
21 47 43
21 47 43
21 47 43
21 47 43
21 46 42
21 47 43
21 46 42
21 46 42
21 47 43
21 47 43
21 47 43
22 48 43
21 47 43
22 48 44
21 47 43
21 47 43
21 47 42
21 47 43
21 47 43
22 47 43
22 48 43
22 48 43
21 47 43
21 47 42
21 46 42
21 47 42
21 47 42
22 48 44
21 47 43
21 46 42
22 48 44
21 46 42
22 48 44
22 47 43
22 48 43
22 47 43
22 47 43
21 47 43
21 47 43
22 48 44
23 50 45
21 47 43
22 48 44
22 48 43
21 47 43
21 46 42
22 48 44
21 47 43
22 48 44
22 48 44
21 47 43
22 48 44
22 49 44
22 47 43
21 47 43
22 48 43
21 47 43
22 48 43
21 47 43
22 47 43
22 48 43
22 48 44
22 48 43
20 45 41
20 45 41
20 45 41
21 46 43
21 45 42
20 44 41
21 46 42
20 45 41
20 44 41
21 47 43
20 45 41
21 45 42
21 46 42
20 45 41
21 46 42
21 46 42
20 45 41
21 45 42
21 47 43
21 46 42
21 45 41
21 46 42
21 46 42
21 46 42
21 47 43
21 46 42
21 46 42
21 45 42
21 46 42
21 46 42
20 45 41
21 46 42
21 46 42
21 46 42
21 46 42
20 45 41
21 47 43
21 46 42
21 46 42
20 45 41
21 46 42
21 46 42
21 46 42
21 46 42
20 45 41
21 46 42
21 47 43
21 47 43
21 46 42
21 46 42
20 45 41
21 46 42
21 46 42
21 46 42
20 45 41
22 48 43
21 45 41
21 47 42
21 47 43
21 47 42
21 46 42
21 46 42
21 46 42
22 48 44
22 48 44
22 48 44
21 47 43
21 46 42
21 47 43
22 48 44
21 47 43
21 46 42
21 46 42
21 47 43
21 47 43
21 46 42
21 47 43
21 46 42
21 47 43
21 46 42
22 47 43
22 48 43
22 48 43
22 48 44
21 47 42
21 46 42
22 48 44
21 47 43
21 47 43
21 47 43
22 48 44
21 47 43
21 46 42
22 47 43
21 47 43
21 47 43
21 47 43
22 48 43
21 47 43
22 48 43
21 47 42
22 48 44
23 50 45
21 47 43
22 48 44
22 48 44
22 47 43
21 47 43
22 49 44
22 49 44
21 47 43
21 47 43
21 47 43
21 47 43
22 47 43
21 47 43
22 48 43
22 47 43
22 49 44
21 46 42
21 46 42
21 46 42
21 46 42
21 46 43
20 45 41
21 46 42
21 46 42
20 45 41
20 45 41
21 46 42
21 46 42
20 45 41
20 45 41
21 46 42
21 47 43
21 46 42
21 46 42
20 45 41
20 45 42
20 45 41
21 46 42
21 46 42
21 46 42
21 46 42
20 45 41
21 46 42
21 46 42
20 45 41
21 45 42
21 47 43
21 47 43
21 47 43
21 47 43
20 45 41
21 47 43
22 48 44
21 46 42
21 46 42
21 46 42
21 46 42
21 46 42
21 46 42
21 46 42
21 47 43
21 46 42
21 46 42
21 46 42
21 46 42
21 46 42
21 47 43
22 48 44
21 46 42
22 47 43
21 46 42
21 47 43
21 47 43
21 47 43
21 47 43
21 46 42
21 47 43
21 46 42
21 47 43
22 48 44
21 46 42
22 48 43
21 47 43
21 47 43
21 46 42
21 47 43
21 47 43
22 48 44
22 48 43
21 47 43
21 47 42
21 47 43
21 47 43
21 47 43
21 47 43
21 47 43
21 47 42
22 48 44
21 47 43
21 46 42
22 49 45
22 47 43
21 47 43
21 47 43
22 48 43
21 47 43
21 47 43
22 48 44
21 47 43
21 46 42
22 48 43
21 47 43
22 48 43
22 47 43
21 46 42
22 47 43
21 46 42
22 48 44
22 48 44
22 48 44
21 47 43
22 48 44
22 48 44
22 49 45
21 47 43
22 48 43
21 47 43
23 49 45
22 48 44
22 48 43
22 48 44
21 47 43
22 47 43
22 48 43
22 48 44
22 48 43
21 47 42
21 46 42
20 45 41
20 45 42
20 45 41
21 46 42
21 46 42
21 46 42
21 46 42
21 46 42
21 46 42
21 47 43
20 45 41
21 46 42
21 47 43
20 45 41
21 46 42
21 46 42
20 44 40
21 46 42
21 46 42
21 46 42
21 46 42
21 47 43
21 46 42
20 45 41
21 46 42
21 46 42
21 46 42
21 46 42
21 46 42
21 45 41
21 46 42
21 47 43
22 48 43
21 46 42
21 47 43
21 47 43
21 46 42
21 45 41
21 47 43
21 46 42
21 47 43
21 47 43
21 46 42
21 47 43
21 46 42
21 46 42
21 47 43
21 46 42
22 47 43
21 46 42
21 47 43
21 46 42
21 47 43
22 48 43
22 48 43
21 47 43
22 48 43
21 46 42
21 46 42
21 47 43
21 47 43
21 47 43
21 47 43
21 47 43
21 46 42
21 47 43
21 47 43
21 47 43
21 47 43
22 48 44
21 46 42
22 47 43
22 48 43
21 47 42
21 46 42
21 47 43
21 47 43
21 47 43
22 48 43
21 46 41
22 49 44
21 47 43
21 47 43
21 46 42
22 48 44
21 47 43
21 47 42
21 47 43
22 48 43
22 49 44
22 47 43
22 49 45
21 47 43
21 47 43
21 47 42
22 47 43
21 46 42
22 48 43
21 47 43
22 48 43
22 48 44
22 48 43
22 48 44
21 47 43
23 49 45
22 48 43
22 49 44
22 49 44
22 48 44
22 49 44
22 48 43
21 47 43
21 47 43
21 46 42
22 48 43
22 48 44
22 47 43
22 48 44
22 48 43
20 44 40
20 45 41
21 46 42
21 46 43
21 46 42
20 45 41
20 45 41
21 46 42
21 46 42
20 45 41
21 46 42
20 45 41
21 46 42
20 45 41
22 48 44
21 46 42
21 46 42
20 45 42
21 46 42
21 46 42
21 46 42
20 45 41
20 45 41
21 46 42
21 46 42
21 46 42
20 45 42
21 46 42
21 46 42
21 47 43
20 45 41
22 47 43
21 45 41
20 45 41
21 46 42
21 46 42
21 47 43
21 46 42
21 47 43
21 46 42
21 47 43
20 45 41
21 46 42
21 47 42
21 47 43
21 46 42
21 47 43
21 46 42
21 47 43
21 47 42
20 45 41
21 46 42
21 47 43
21 46 42
21 47 43
21 46 42
21 47 43
21 46 42
21 46 42
21 46 42
21 46 42
21 47 43
21 47 43
22 48 44
22 48 44
21 47 42
21 46 42
21 46 42
22 48 44
22 48 44
21 47 43
21 47 43
21 47 43
21 47 43
21 46 42
22 48 43
21 46 42
22 48 43
22 47 43
21 46 42
21 46 42
21 47 42
21 47 43
21 46 42
21 47 43
21 47 43
21 47 43
21 47 42
21 47 43
21 47 43
22 48 44
21 46 42
21 47 43
22 48 43
22 48 43
22 47 43
22 49 44
21 47 42
22 49 44
22 49 44
21 47 43
22 47 43
22 47 43
22 48 44
22 49 44
21 47 43
22 49 44
22 49 45
22 48 44
21 47 43
22 47 43
21 46 42
21 47 43
22 48 44
22 48 43
21 47 43
21 47 43
21 47 42
22 48 43
22 48 43
21 46 42
21 46 42
20 45 41
21 47 43
21 46 42
21 46 42
20 45 41
21 46 42
21 46 42
20 45 41
22 48 44
21 46 42
20 45 41
21 46 42
21 46 42
21 46 42
21 46 42
20 45 41
21 46 42
20 45 41
21 46 42
21 46 42
21 47 43
21 46 42
21 46 42
21 46 42
21 46 42
21 46 42
21 46 42
21 46 42
21 47 43
21 47 43
21 46 42
21 47 43
21 46 42
21 46 42
21 47 43
21 47 43
21 47 43
21 47 43
21 46 42
21 46 42
21 46 42
21 47 43
21 47 43
21 47 43
21 46 42
21 47 43
21 46 42
21 46 42
21 47 43
21 47 42
21 47 43
21 46 42
21 47 43
22 48 44
21 47 42
21 46 42
21 47 43
21 46 42
22 48 44
21 46 42
21 46 42
22 48 44
21 47 42
22 48 43
21 47 42
21 47 43
22 48 43
22 48 43
21 46 42
21 47 43
21 46 42
22 48 43
22 47 43
22 47 43
21 47 42
22 48 43
22 48 44
22 48 43
21 47 43
22 48 44
21 47 42
21 47 43
22 48 44
22 49 44
22 48 44
22 48 44
22 48 43
22 48 43
22 47 43
21 47 43
22 48 43
21 46 42
21 47 43
21 47 43
22 48 44
21 47 43
22 47 43
22 48 44
22 49 44
22 48 43
22 48 44
22 49 44
22 48 43
22 49 45
21 47 43
21 47 43
22 49 45
22 48 44
22 48 44
22 48 44
22 48 44
21 47 43
21 47 43
22 48 43
22 48 44
22 48 43
22 48 43
22 49 44
20 45 41
21 46 42
21 46 42
21 47 43
21 46 42
21 46 42
20 45 41
21 46 42
21 47 43
21 47 43
21 47 43
21 46 42
20 45 42
21 46 42
20 45 41
21 46 42
21 46 42
21 46 42
21 47 43
20 45 41
20 45 41
21 47 43
21 47 43
21 46 42
21 45 42
21 46 42
21 46 42
21 47 43
20 45 41
21 46 42
21 45 42
21 46 42
22 47 43
21 46 42
21 47 43
21 47 43
21 47 43
21 46 42
21 47 43
21 47 43
21 46 42
22 48 44
21 47 43
21 48 43
21 46 42
21 47 43
21 47 43
21 46 42
21 47 43
21 47 43
21 47 43
21 47 43
22 48 44
22 48 44
21 47 42
21 46 42
22 47 43
21 47 43
21 47 43
21 46 42
22 47 43
22 48 44
22 48 44
21 47 43
21 46 42
22 49 45
21 47 43
22 48 44
21 47 43
21 47 43
21 47 43
21 47 43
21 47 43
22 49 45
22 48 44
22 48 44
21 47 42
21 47 43
22 47 43
22 49 44
22 47 43
22 48 44
21 47 42
21 47 43
22 48 44
22 49 44
22 48 43
21 46 42
21 47 42
22 47 43
22 48 43
22 48 43
22 48 43
21 47 43
21 46 42
22 49 44
22 48 44
22 48 43
22 48 43
22 48 44
21 47 42
23 50 45
22 48 43
22 48 44
22 47 43
22 48 44
21 47 43
22 48 44
22 48 44
22 48 44
22 48 44
22 48 43
21 47 43
22 48 44
22 49 44
22 48 43
22 49 44
21 46 42
21 47 42
22 49 44
20 45 41
20 45 41
21 46 42
20 44 41
20 45 41
21 46 42
21 46 42
21 46 42
21 46 42
21 45 41
20 45 41
20 45 41
21 47 43
21 48 43
21 47 43
21 46 42
21 46 42
21 45 41
21 46 42
21 46 42
20 45 41
20 45 41
21 47 43
21 46 42
21 47 43
21 46 42
21 47 42
21 47 43
21 46 42
21 47 43
21 47 43
21 46 42
21 46 42
21 47 43
21 47 43
21 46 42
21 46 42
21 46 42
21 46 42
21 47 43
21 46 42
21 47 43
21 47 43
21 47 43
21 47 42
21 47 43
21 45 42
21 47 42
21 47 42
21 47 43
22 48 44
21 47 43
21 46 42
21 46 42
21 47 43
22 48 43
21 47 43
22 48 43
22 48 44
21 47 43
21 47 43
21 46 42
20 45 41
21 46 42
22 47 43
21 47 42
21 47 43
21 46 42
22 48 43
22 49 44
21 47 43
21 47 43
23 50 45
22 48 43
22 48 43
21 47 42
21 47 43
22 49 45
22 48 43
22 48 44
22 48 43
21 47 42
21 47 42
22 49 44
21 47 43
22 49 44
22 47 43
22 48 44
22 47 43
22 48 43
22 48 43
22 47 43
22 47 43
22 48 44
22 48 43
22 47 43
22 47 43
22 48 44
22 48 44
21 47 43
22 48 44
22 49 45
22 48 43
22 48 43
22 48 43
22 48 43
21 47 43
22 47 43
21 46 42
22 47 43
22 48 43
22 48 43
22 49 45
22 47 43
22 48 44
22 48 43
22 47 43
22 48 44
22 48 43
21 46 42
21 47 43
21 47 43
21 46 42
20 45 41
20 45 41
20 45 41
21 47 43
21 47 43
20 44 40
21 46 42
20 45 41
21 46 42
21 47 43
21 47 43
21 46 42
21 46 42
20 45 41
21 46 42
21 47 43
21 46 42
20 45 41
20 45 41
21 46 42
21 46 42
21 46 42
21 47 43
21 47 42
20 45 41
21 47 43
21 47 42
21 46 42
21 47 42
20 44 40
21 47 43
20 45 41
21 46 42
21 46 42
21 47 43
22 48 43
21 47 43
21 46 42
21 46 42
21 47 43
21 47 43
21 46 42
22 48 43
21 46 42
21 46 42
21 47 43
21 47 43
22 48 44
21 47 43
22 47 43
22 48 44
21 46 42
21 47 43
21 47 43
22 48 44
21 47 43
22 48 43
21 46 42
22 48 44
21 47 43
21 47 43
21 47 43
21 46 42
22 48 43
22 48 43
21 47 43
21 47 43
21 47 43
22 48 44
21 47 43
22 48 44
21 47 42
21 47 43
22 48 43
22 47 43
21 47 43
22 47 43
22 48 44
22 48 44
21 47 43
22 48 44
22 48 44
22 49 44
21 47 43
22 47 43
22 47 43
22 49 44
21 47 42
22 49 44
22 49 44
22 48 43
22 48 43
22 48 43
21 47 43
22 48 43
22 48 44
22 48 44
22 49 44
22 49 44
21 47 43
21 47 42
22 48 44
21 47 42
22 47 43
21 46 42
22 48 44
22 48 43
22 48 43
23 49 45
22 49 44
22 48 43
22 48 43
21 47 43
22 49 44
22 48 44
22 48 43
22 47 43
21 46 42
21 46 42
21 46 42
21 45 42
21 46 42
21 47 43
21 46 42
20 45 41
21 46 42
21 47 43
21 47 43
21 48 44
21 47 43
21 47 43
21 46 42
21 46 42
21 46 42
21 46 42
21 46 42
21 45 42
21 47 43
21 47 43
21 47 43
21 47 42
21 46 42
21 46 42
21 46 42
21 46 42
21 46 42
21 46 42
22 47 43
21 47 43
21 45 41
21 47 43
21 47 43
21 46 42
21 46 42
21 47 43
21 47 43
22 48 44
22 48 44
21 47 43
21 46 42
21 46 42
21 47 43
21 47 43
21 46 42
21 47 42
21 47 43
21 47 43
22 48 44
21 47 43
21 46 42
22 47 43
22 48 44
21 47 43
21 47 42
21 46 42
22 48 43
22 47 43
21 47 43
21 47 43
21 46 42
21 46 42
22 48 44
22 48 43
22 49 45
22 48 44
22 48 43
22 48 43
22 48 43
21 47 43
21 47 43
21 47 42
21 47 43
22 48 44
22 48 44
21 47 43
21 47 43
22 48 43
21 47 43
21 47 42
22 49 45
22 48 44
21 47 42
22 49 44
22 48 43
22 48 43
22 48 44
22 49 44
22 48 43
22 48 43
22 49 44
22 48 44
22 48 43
22 49 44
22 49 44
23 50 45
22 48 44
22 49 44
22 47 43
21 47 43
22 47 43
22 48 43
22 48 43
22 48 44
22 48 43
21 47 43
22 49 44
22 47 43
22 48 43
21 47 43
22 48 44
21 47 43
22 49 44
22 49 44
22 49 44
22 49 44
22 49 44
22 48 44
20 45 41
21 47 43
20 45 41
20 45 41
21 46 42
21 46 42
21 46 42
21 46 42
21 47 43
21 46 42
21 47 42
21 46 42
21 46 42
21 46 42
21 46 42
21 46 42
21 46 42
21 45 42
20 45 41
21 47 43
21 46 42
21 47 43
21 46 42
21 47 42
21 47 43
21 46 42
21 46 42
21 47 43
22 48 43
21 47 43
21 47 43
21 46 42
21 47 42
21 47 43
21 47 43
21 46 42
21 47 42
21 46 42
21 47 42
21 47 43
21 47 43
21 46 42
21 47 43
21 46 42
21 46 42
21 46 42
21 47 43
21 47 42
21 47 43
22 47 43
21 47 42
21 46 42
22 48 44
21 47 43
21 47 43
22 48 44
21 46 42
22 49 44
21 47 43
22 47 43
21 47 43
21 47 42
22 48 43
22 47 43
21 47 43
21 47 43
22 48 44
22 47 43
22 47 43
21 47 43
21 47 43
21 47 43
22 49 44
22 48 43
22 48 44
21 47 43
21 46 42
22 48 43
22 48 43
21 47 43
21 47 43
21 46 42
22 47 43
22 48 44
22 48 43
22 49 44
23 50 45
22 48 43
21 47 43
21 47 43
22 48 44
22 49 44
21 46 42
21 47 43
22 48 44
22 48 43
22 48 43
22 48 43
22 48 44
21 47 43
22 49 44
22 49 45
22 48 44
22 48 44
22 48 43
21 47 43
21 47 43
22 47 43
22 49 45
23 50 45
22 48 44
22 48 44
22 48 43
22 48 43
22 48 44
21 47 43
22 48 44
21 47 42
22 48 44
22 49 45
21 46 42
21 45 42
21 47 43
21 46 42
21 45 41
20 45 41
21 46 42
21 47 43
21 46 42
20 45 41
21 46 42
21 46 42
20 45 41
21 46 42
21 47 43
21 46 42
21 46 42
20 45 41
20 45 41
21 47 43
21 46 42
21 45 41
21 47 43
21 46 42
21 47 43
21 47 43
22 47 43
21 46 42
21 47 43
21 47 43
21 46 42
21 47 43
21 47 43
21 47 43
21 46 42
21 46 42
21 47 43
21 47 43
21 47 43
20 45 41
21 46 42
21 47 43
21 47 43
21 47 43
21 46 42
21 47 43
21 47 43
21 47 43
21 47 43
21 46 42
21 47 43
22 47 43
22 48 44
21 47 43
21 47 43
21 47 43
22 47 43
21 47 43
21 47 43
22 49 44
22 47 43
22 47 43
21 47 43
22 48 43
21 47 43
21 47 43
21 47 42
22 49 44
21 47 43
22 49 44
21 47 43
22 48 44
21 46 41
23 49 45
22 48 43
22 48 43
21 47 43
21 47 42
22 49 44
22 48 43
22 48 44
22 49 44
22 48 43
22 47 43
21 47 43
22 49 44
23 50 45
22 48 44
22 49 44
22 48 44
22 48 44
22 48 44
22 48 44
22 47 43
22 49 44
22 48 43
22 48 44
22 48 44
22 49 44
22 49 44
22 48 44
22 48 44
22 48 43
22 49 44
21 47 43
22 48 44
22 48 43
22 49 45
22 48 44
21 47 42
22 49 44
22 48 44
22 49 44
22 49 44
22 47 43
22 49 45
21 47 43
22 49 44
22 47 43
22 48 44
21 47 43
21 46 42
21 47 43
22 48 44
20 45 41
21 46 43
20 45 41
21 45 42
21 46 43
21 47 43
20 45 41
21 46 42
20 45 41
21 47 43
21 46 42
21 47 43
21 47 43
21 46 42
21 45 41
21 46 42
21 47 43
21 46 42
21 47 43
22 48 44
20 45 41
21 47 43
21 47 43
21 46 42
21 46 42
21 46 42
21 46 42
22 48 44
22 48 44
22 47 43
21 47 43
21 46 42
21 47 43
21 45 41
22 48 43
22 48 43
21 47 43
21 47 43
21 46 42
21 47 43
21 47 43
21 47 43
21 46 42
22 47 43
21 47 43
22 48 44
21 47 43
21 47 42
22 48 44
21 47 42
21 46 42
21 47 43
21 46 42
22 48 43
22 49 44
22 48 43
22 48 43
22 47 43
22 47 43
21 46 42
21 47 43
22 48 44
22 48 43
22 48 43
22 48 43
22 48 44
21 47 43
22 48 44
22 49 44
22 49 44
21 47 43
22 49 44
22 48 43
21 47 43
22 48 44
22 47 43
22 49 44
21 47 43
22 48 43
22 47 43
22 48 43
22 48 43
21 47 43
22 48 43
22 47 43
21 47 43
22 49 45
22 48 44
22 47 43
23 50 45
22 48 44
22 49 44
22 49 44
22 49 44
22 48 44
21 47 42
22 48 43
22 48 44
21 47 43
22 48 44
22 49 45
22 48 43
22 48 44
22 48 43
21 46 42
22 48 43
21 46 42
22 48 43
22 48 43
22 48 43
21 47 42
22 49 44
21 46 42
22 48 43
22 47 43
22 48 44
21 46 42
21 47 43
21 46 42
21 46 42
21 46 42
20 45 41
22 48 43
22 48 43
21 46 42
21 47 43
21 46 42
21 45 41
21 46 42
21 46 42
21 46 42
21 46 42
21 46 42
21 46 42
21 47 43
21 47 43
21 47 43
21 47 43
22 48 44
21 47 43
22 48 43
21 46 42
21 46 42
21 46 42
22 47 43
21 47 43
21 46 42
21 46 42
21 46 42
21 47 43
21 46 42
21 46 42
21 47 42
21 47 43
21 47 43
21 47 42
21 47 42
22 47 43
21 47 43
22 48 44
22 48 43
22 48 44
21 47 43
22 48 44
22 49 44
21 47 42
22 47 43
22 49 44
21 47 42
22 48 44
21 47 43
21 47 43
21 47 42
22 48 44
21 47 43
22 48 44
21 47 43
22 48 43
22 48 44
21 47 43
22 47 43
21 47 42
21 47 43
22 49 44
22 48 43
22 49 44
22 48 44
22 48 43
21 47 42
21 47 43
22 47 43
22 48 43
22 49 45
22 49 44
22 48 44
22 49 44
22 48 43
22 48 43
21 47 43
22 48 43
22 48 43
22 48 44
23 50 45
22 49 44
22 49 44
21 47 43
22 48 43
22 48 44
22 48 43
22 48 44
22 48 43
22 48 43
22 48 43
22 49 44
22 49 44
22 49 44
23 50 45
22 47 43
22 49 45
22 49 44
22 48 44
22 49 44
82 84 77
149 136 124
177 160 146
170 154 141
40 50 48
26 48 44
23 50 46
22 47 43
22 48 43
23 50 45
23 49 45
22 47 43
22 48 44
22 48 44
21 46 42
21 47 43
21 46 42
21 47 43
21 47 43
20 45 41
21 46 42
20 45 41
21 46 42
21 47 43
21 45 42
21 47 42
21 46 42
21 46 42
21 47 43
21 47 43
21 46 42
20 45 41
22 48 44
21 46 42
21 46 42
21 47 43
22 48 44
21 46 42
21 47 43
21 46 42
21 46 42
21 46 42
21 47 43
21 47 42
22 48 44
21 46 42
21 45 41
21 47 43
21 46 42
22 48 44
21 47 43
21 47 43
21 46 42
21 47 42
22 48 44
22 47 43
22 47 43
21 47 43
22 48 43
21 47 43
22 48 43
21 47 42
21 47 43
21 47 43
21 46 42
21 47 43
22 48 44
22 47 43
22 48 44
21 47 43
21 47 43
21 47 43
22 48 44
21 47 43
22 48 44
22 47 43
21 46 42
22 48 43
22 48 44
21 47 43
22 48 44
22 48 44
21 47 43
21 47 43
22 48 44
21 47 43
21 47 43
21 46 42
22 48 43
21 47 43
22 48 44
22 48 44
21 47 43
21 46 42
22 49 44
22 49 44
21 46 42
22 48 44
22 48 43
22 48 44
22 49 45
22 48 43
22 49 44
22 47 43
22 49 44
22 48 43
22 48 43
21 47 42
22 48 44
21 47 42
22 48 43
22 48 43
22 48 44
22 47 43
23 50 46
22 48 44
21 47 43
22 48 43
37 55 50
147 135 124
217 195 179
228 205 188
235 210 192
240 214 196
94 86 82
41 43 47
36 45 46
24 48 44
22 49 45
22 48 44
23 50 45
22 47 43
22 49 45
22 48 43
21 47 43
21 46 42
21 46 42
21 46 42
21 46 42
21 46 42
21 47 43
21 46 42
21 46 42
21 46 42
21 46 42
21 46 42
21 46 42
21 46 42
21 46 42
20 45 41
21 46 42
21 46 42
21 46 42
21 47 43
22 48 44
21 47 43
21 47 42
21 47 42
21 46 42
22 47 43
22 48 44
21 47 43
21 47 43
21 46 42
21 47 43
21 47 43
22 48 44
21 47 43
22 47 43
21 47 42
22 48 43
22 48 43
22 48 43
21 47 43
21 47 43
21 47 43
22 48 44
21 46 42
22 48 43
22 48 43
22 48 44
21 46 42
22 48 43
21 47 43
22 48 44
22 48 44
21 47 43
22 48 44
21 46 42
22 48 43
22 49 44
22 48 44
21 47 43
22 48 43
22 48 43
22 48 43
22 48 44
22 47 43
21 47 43
22 48 43
22 48 44
22 47 43
22 48 43
21 47 43
22 48 44
22 47 43
21 47 43
22 48 44
23 49 45
23 50 45
21 47 43
21 47 43
22 48 43
21 47 43
22 48 44
21 47 43
22 47 43
22 49 44
22 48 43
21 47 42
22 48 44
22 48 44
21 47 43
22 48 43
22 47 43
22 47 43
22 49 44
22 49 44
22 48 43
22 49 44
21 46 42
22 49 44
22 48 43
22 49 44
22 48 44
22 49 44
22 49 44
29 52 47
160 147 136
209 188 174
221 198 182
227 204 187
233 209 192
239 213 195
77 72 71
41 44 47
41 44 47
39 44 46
24 48 44
22 48 43
22 48 43
22 49 44
22 49 44
21 47 42
21 46 42
21 46 42
21 46 42
21 47 43
21 46 42
21 46 42
21 46 42
20 45 41
20 45 41
21 46 42
21 45 41
21 47 43
21 46 43
21 46 42
21 46 41
21 46 42
21 46 42
21 47 43
21 47 43
21 47 43
21 46 42
22 48 43
21 46 42
22 47 43
21 46 42
21 46 42
21 47 43
21 47 43
21 46 42
21 46 42
21 47 42
21 47 43
22 48 44
21 46 42
22 48 44
21 46 42
21 46 42
21 46 42
22 47 43
22 47 43
21 46 42
21 46 42
22 48 44
22 47 43
21 46 42
21 47 42
22 47 43
22 48 44
21 47 43
22 48 43
21 46 42
22 48 44
21 47 43
21 47 42
22 48 44
21 47 43
22 48 43
22 48 43
22 48 43
22 48 43
22 47 43
21 47 43
22 47 43
22 48 44
22 48 43
22 49 45
22 48 44
23 50 45
22 47 43
22 48 43
22 48 43
22 48 44
22 48 43
21 47 43
22 48 44
21 46 42
22 47 43
22 47 43
21 47 43
21 47 43
22 49 44
21 47 43
22 48 44
22 47 43
22 49 44
22 48 44
21 46 42
22 48 43
21 47 43
22 48 43
22 48 44
21 46 42
22 48 44
22 49 44
22 49 44
22 49 44
21 47 42
22 48 44
22 48 44
22 48 43
22 48 43
23 50 45
22 49 44
96 95 89
187 169 157
207 186 171
219 196 181
226 202 186
232 207 189
224 200 182
111 104 92
78 75 70
41 44 47
41 43 46
34 44 44
23 49 45
22 49 44
22 48 44
22 49 44
22 49 44
22 48 44
21 46 42
21 47 43
21 46 42
21 46 42
21 45 42
21 46 42
21 47 43
21 46 42
21 46 42
21 46 42
21 47 43
21 46 42
21 47 43
21 47 43
21 47 43
21 47 43
21 47 43
21 47 43
21 46 42
22 48 43
21 46 42
21 47 43
21 47 43
21 47 42
22 48 44
22 47 43
21 47 43
21 47 43
22 47 43
22 48 44
21 47 43
22 48 43
21 47 43
21 47 43
22 47 43
21 46 42
21 47 43
21 47 43
22 48 44
21 47 43
21 47 43
22 48 44
21 46 42
21 46 42
22 47 43
21 47 43
21 46 42
22 47 43
22 48 44
22 48 44
21 47 42
21 47 43
22 47 43
22 48 43
22 48 44
22 47 43
21 47 43
21 47 43
22 48 43
22 48 44
22 48 44
21 47 42
21 47 43
22 48 44
22 49 44
22 48 44
21 47 43
22 48 43
22 47 43
22 48 44
21 47 43
22 48 43
22 48 43
22 49 44
22 48 44
22 48 44
22 48 44
22 48 43
22 48 43
22 49 44
22 49 44
22 49 44
22 48 44
22 48 44
22 49 44
22 48 43
22 48 44
21 47 42
22 48 44
22 48 44
22 48 43
22 48 44
22 48 43
22 48 44
22 49 44
22 48 44
22 48 44
22 49 44
22 49 44
22 48 44
22 48 43
22 48 43
137 128 120
174 159 147
201 180 165
215 193 177
222 199 182
229 204 186
161 144 132
135 127 110
116 109 96
43 45 48
40 42 45
39 41 44
54 63 58
22 48 43
22 48 43
22 49 44
22 48 43
21 46 42
22 48 44
21 46 42
21 47 43
21 47 43
21 46 42
21 47 43
20 45 41
21 47 43
21 47 43
21 46 42
20 45 41
21 46 42
21 47 42
21 47 43
21 46 42
21 45 41
22 48 44
21 46 42
21 47 43
21 46 42
21 46 42
21 45 41
21 45 41
21 47 43
22 48 44
22 49 45
21 47 43
21 47 43
21 46 42
21 47 43
21 47 42
22 49 45
22 48 44
21 47 43
21 46 42
21 47 42
21 46 42
21 46 42
21 47 43
21 47 43
21 47 43
22 49 45
21 47 43
21 47 43
21 47 43
22 48 43
21 47 43
22 48 44
22 48 44
22 48 43
22 47 43
21 46 42
22 48 44
21 47 43
21 47 43
22 47 43
22 48 44
22 48 43
21 47 43
22 48 44
22 48 44
22 48 43
22 49 44
21 47 43
22 48 44
22 49 44
21 47 43
22 48 44
21 47 43
22 48 44
21 47 43
22 49 44
22 49 44
22 49 44
22 49 44
22 48 43
22 47 43
22 48 43
22 49 44
22 48 44
22 47 43
22 48 44
22 48 43
22 48 44
22 47 43
22 49 45
23 49 45
22 48 44
22 48 43
22 48 44
22 49 44
22 47 43
22 49 44
22 48 44
22 48 43
22 48 44
22 49 44
22 48 44
22 48 43
22 49 44
22 48 43
49 61 56
139 129 121
159 145 134
184 165 151
203 182 167
210 188 171
213 190 173
59 57 56
46 47 49
48 49 50
39 42 45
38 40 43
37 39 41
110 99 88
22 48 44
22 49 44
22 47 43
22 49 44
21 46 42
21 46 42
21 46 42
21 46 42
22 48 43
21 46 42
21 47 43
21 47 42
21 46 42
21 46 42
22 48 44
21 46 42
20 45 41
21 47 43
21 47 43
21 47 43
22 47 43
21 46 42
21 46 42
21 47 43
21 47 43
21 47 43
21 46 42
22 48 44
21 47 43
22 48 44
21 47 43
21 46 42
21 47 43
22 48 44
21 46 42
21 47 43
21 47 43
21 47 43
21 46 42
22 48 44
21 47 43
21 47 43
21 47 43
21 46 42
21 47 43
22 49 44
22 48 44
22 48 43
21 47 43
21 47 43
21 47 43
21 46 42
21 47 43
22 49 44
22 48 44
22 48 44
22 48 43
21 46 42
22 48 44
22 48 44
21 47 42
22 48 44
22 47 43
22 48 44
22 48 44
22 48 43
22 48 43
22 48 44
22 48 43
22 49 45
22 49 44
22 48 43
22 48 43
22 48 44
21 47 43
22 47 43
22 48 43
22 48 43
22 48 44
21 47 43
22 49 45
22 48 44
21 47 43
22 48 43
22 48 44
22 48 44
22 48 44
22 49 44
22 49 44
22 48 43
22 47 43
21 47 43
22 48 44
22 47 43
22 48 44
23 50 45
22 47 43
22 49 45
22 47 43
21 47 42
22 47 43
22 48 43
22 48 44
22 48 43
22 47 43
22 48 43
67 72 66
132 122 114
141 130 120
163 147 134
185 166 151
195 174 159
130 117 108
60 57 56
101 91 84
71 66 64
36 38 41
36 38 41
37 38 40
148 131 116
21 47 43
22 49 44
22 47 43
22 49 44
20 44 40
21 47 43
21 47 43
21 46 42
21 46 42
21 46 42
21 47 43
21 47 43
21 47 43
21 46 42
21 46 42
21 47 43
20 44 40
21 46 42
20 45 42
21 47 43
21 45 41
21 47 43
21 46 42
21 46 42
21 46 42
21 47 43
21 46 42
21 45 41
21 46 42
21 47 43
21 46 42
21 47 43
21 47 43
21 46 42
21 47 43
22 48 44
21 47 43
21 46 42
22 48 44
22 48 43
22 48 44
21 47 43
21 46 42
22 48 44
21 46 42
21 47 43
21 47 43
22 48 44
22 48 44
21 47 42
22 48 44
22 48 44
22 48 44
22 48 43
21 47 42
22 49 44
22 48 44
22 48 43
22 47 43
22 48 43
22 49 44
22 49 44
22 48 43
21 47 43
22 48 43
21 47 43
21 47 43
21 46 42
22 49 44
22 48 44
22 48 44
22 48 43
22 48 44
21 46 42
21 47 43
22 48 43
22 48 44
21 46 42
22 48 43
22 49 44
22 48 43
21 47 43
22 48 44
22 48 44
22 49 44
22 49 44
22 48 43
22 48 43
22 48 44
21 47 43
22 49 45
22 48 43
22 48 44
22 48 43
22 48 43
22 48 43
22 48 44
22 48 43
22 48 44
21 47 42
22 48 44
22 49 44
22 48 43
22 48 43
21 46 42
22 49 44
60 68 62
113 105 97
121 112 104
144 132 121
163 147 134
131 117 107
92 84 77
148 131 117
162 143 129
162 143 128
98 88 80
34 36 38
107 95 85
144 128 113
22 48 43
22 49 44
22 48 44
21 47 42
21 46 42
21 46 42
21 46 42
21 47 43
21 47 43
21 46 42
21 46 42
21 46 42
21 47 43
21 46 43
21 46 42
21 46 42
21 45 41
21 47 43
21 46 42
21 47 43
21 47 43
21 46 42
21 46 42
21 47 43
22 48 44
21 47 43
21 47 43
22 48 43
21 47 43
21 46 42
21 47 42
21 46 42
22 48 43
21 46 42
22 47 43
20 45 41
21 46 42
21 46 42
21 47 42
21 46 42
21 47 43
20 45 41
21 47 42
21 47 43
21 46 42
21 46 42
21 47 43
22 48 43
22 48 44
21 47 42
22 48 44
21 46 42
21 46 42
22 48 44
21 47 43
21 46 42
21 47 43
21 47 43
21 47 42
21 47 43
22 48 44
21 46 42
22 49 44
21 47 43
21 47 43
22 49 44
22 48 43
22 48 43
22 48 43
21 47 43
22 48 44
22 48 43
22 48 44
21 47 43
22 48 43
22 48 43
21 47 43
22 48 44
22 48 44
22 47 43
21 46 42
22 48 43
22 49 44
22 48 43
22 48 43
22 48 43
22 48 44
21 47 43
22 48 43
22 48 43
22 49 44
22 48 44
22 48 43
21 47 43
22 48 44
22 48 43
22 49 44
22 49 44
22 48 43
22 49 44
22 48 44
22 49 44
22 48 43
21 47 42
21 46 42
20 43 39
19 43 39
88 83 76
96 90 82
111 103 95
115 105 96
47 44 43
117 104 93
152 135 121
168 149 133
176 155 138
137 120 106
34 34 35
143 125 110
115 105 93
22 49 44
22 48 44
22 48 43
22 48 43
21 46 42
20 45 41
21 46 42
21 47 43
22 48 44
21 46 42
21 47 43
21 46 42
20 45 41
21 47 42
22 48 43
21 46 42
22 48 44
21 47 43
20 45 41
21 47 43
22 49 44
21 47 43
22 48 44
21 47 43
21 47 43
21 46 42
21 47 43
21 47 43
21 47 43
21 46 42
21 47 43
21 47 43
21 47 43
22 48 43
21 47 43
21 46 42
21 47 43
21 47 43
22 47 43
22 47 43
21 46 42
22 48 44
22 49 44
22 48 44
21 46 42
22 48 44
22 48 44
21 47 42
22 48 44
23 50 45
22 47 43
21 46 42
22 48 44
22 48 44
22 48 43
22 48 43
21 47 42
21 47 42
21 46 42
21 46 42
22 48 44
23 50 45
22 48 43
21 47 42
22 48 44
22 49 44
22 48 43
22 48 43
22 48 43
22 47 43
22 49 44
22 49 44
22 48 43
22 49 44
22 48 43
22 49 45
22 47 43
22 48 44
22 48 44
22 49 44
22 49 44
22 48 44
22 48 43
21 46 42
22 48 43
22 48 43
22 48 43
22 49 44
22 49 44
22 49 44
22 49 44
22 48 43
22 47 43
22 48 44
21 47 43
22 49 44
22 49 44
22 48 43
22 48 44
22 49 44
22 48 43
22 48 43
20 45 41
19 42 38
17 39 36
16 36 34
14 32 30
53 54 49
82 77 70
63 60 55
20 22 22
36 35 34
98 89 80
127 114 101
89 79 71
115 102 89
129 114 101
79 71 64
139 123 107
46 58 51
21 46 41
21 47 42
21 47 42
22 48 43
21 46 42
21 47 43
21 46 42
21 46 42
21 46 42
21 46 42
21 47 43
21 46 42
21 46 42
21 46 42
21 47 43
21 47 42
22 48 43
21 47 43
21 47 43
21 47 43
21 47 43
21 46 42
22 48 43
21 47 43
21 47 43
21 47 43
21 46 42
22 47 43
21 46 42
21 47 43
22 49 45
21 47 43
22 48 44
21 47 43
21 47 42
22 48 43
21 46 42
22 48 44
21 47 43
21 47 43
22 48 43
21 47 42
22 48 44
21 46 42
21 47 43
22 48 44
23 50 45
22 48 43
22 48 43
22 48 44
22 48 43
22 48 43
21 47 43
21 47 43
21 47 43
22 48 43
21 47 42
22 48 44
22 48 44
21 47 43
21 47 43
22 48 44
22 48 44
22 48 44
22 48 43
22 48 43
22 48 44
22 48 44
22 49 45
22 48 44
22 49 44
22 49 44
21 47 43
22 48 44
22 48 44
22 47 43
22 49 44
22 48 44
22 49 44
22 49 44
22 48 43
22 48 44
22 48 43
22 48 44
22 49 44
22 48 43
22 49 45
22 49 44
22 49 44
22 48 43
22 48 43
22 48 43
22 48 43
23 49 45
22 48 44
22 48 44
22 49 44
22 47 43
22 49 44
22 48 43
21 47 42
22 48 44
20 43 39
17 38 35
15 34 32
13 31 30
13 30 29
12 27 26
10 15 15
9 12 12
10 12 13
12 14 15
48 46 41
80 74 65
107 96 84
94 84 73
68 61 53
103 93 81
81 78 68
22 47 42
22 47 42
22 48 43
23 49 44
22 47 42
21 46 42
21 46 42
22 48 44
22 48 44
20 45 41
21 46 42
21 46 42
21 46 42
22 47 43
22 48 43
21 47 43
21 47 43
21 45 41
21 47 43
21 47 43
21 46 42
21 46 42
21 47 43
21 46 42
21 46 42
21 47 43
21 47 43
21 47 43
22 48 43
21 46 42
21 47 43
20 45 41
22 48 44
22 48 43
21 47 43
21 47 43
21 47 43
21 47 42
21 47 42
22 48 43
21 47 43
22 47 43
21 46 42
21 46 42
21 46 42
21 47 43
22 48 44
22 47 43
21 47 42
22 48 43
22 47 43
22 48 44
22 48 44
22 48 44
21 45 41
22 49 44
22 48 44
22 47 43
22 49 44
22 48 44
22 48 44
22 49 45
22 48 44
22 48 43
22 48 43
22 48 44
22 47 43
22 48 44
21 47 42
22 48 43
22 48 44
22 48 44
22 47 43
22 48 44
22 49 44
22 48 44
22 49 45
22 49 44
22 47 43
22 47 43
22 49 44
22 47 43
22 48 44
22 49 44
22 48 43
22 47 43
22 48 44
22 47 43
22 47 43
22 48 44
22 48 44
22 49 44
21 47 42
22 48 44
22 47 43
22 48 43
21 47 43
22 48 44
22 48 44
22 48 43
22 49 44
22 48 43
21 46 42
20 44 40
17 38 35
14 31 30
13 30 28
12 27 26
12 29 27
10 24 23
5 10 10
6 8 8
6 9 8
7 9 8
27 27 23
25 25 21
32 31 27
54 52 41
42 49 42
21 46 41
22 46 41
21 46 41
22 47 42
22 47 42
22 48 43
21 46 42
21 46 42
21 46 42
21 46 42
21 46 42
21 47 43
22 48 44
21 47 43
21 47 43
21 46 42
22 48 44
22 48 44
21 45 41
21 46 42
21 46 42
21 47 43
21 47 43
21 46 42
21 46 42
21 46 42
22 48 43
22 48 44
21 47 43
22 49 45
21 47 43
22 47 43
22 47 43
21 46 42
21 47 43
21 46 42
21 47 42
21 47 42
21 47 43
21 47 43
22 48 44
22 48 43
22 48 44
21 46 42
21 47 42
21 47 43
22 47 43
21 47 43
22 49 44
21 47 43
22 48 44
22 49 44
22 48 44
22 48 44
22 47 43
22 49 44
21 47 43
22 49 45
22 48 44
22 48 43
22 48 44
22 48 44
22 48 44
22 48 44
21 47 43
21 47 43
22 48 43
22 48 44
23 50 45
21 46 42
21 46 42
22 48 44
22 49 44
21 46 42
21 47 43
22 48 43
22 48 44
22 48 43
22 48 43
22 48 44
22 49 44
22 47 43
22 49 44
23 50 45
22 48 44
22 47 43
22 48 44
22 48 44
22 47 43
22 49 44
22 48 44
22 48 44
23 49 45
21 47 42
23 50 45
22 48 44
22 48 43
22 47 43
22 48 43
23 49 45
21 47 42
22 48 43
22 48 44
22 47 43
21 47 42
20 44 40
17 39 36
14 32 31
12 29 28
11 27 25
10 23 22
9 21 19
6 13 13
5 8 7
5 7 6
6 7 6
12 16 12
28 30 22
18 30 25
19 40 35
20 43 38
21 45 40
21 46 41
22 48 43
22 48 43
21 46 42
21 47 43
22 48 43
21 46 42
21 47 43
22 48 43
21 46 42
21 46 42
21 46 42
21 47 43
21 47 43
21 47 42
21 47 43
21 46 42
21 46 42
21 45 41
21 47 43
21 47 42
22 48 44
21 47 43
21 47 43
21 47 43
22 47 43
21 45 41
22 48 43
21 46 42
22 48 44
22 48 44
22 48 44
22 48 44
21 46 42
21 47 42
22 49 44
21 47 43
22 48 43
22 49 44
21 47 43
21 47 43
22 48 43
21 47 43
22 48 44
22 48 43
21 46 42
21 46 42
21 47 42
22 47 43
22 49 44
22 48 44
22 47 43
22 48 44
21 47 43
22 49 44
22 48 43
22 47 43
22 47 43
22 48 44
22 48 44
22 48 44
22 47 43
22 49 44
22 48 43
21 47 43
22 48 44
22 48 44
22 48 44
22 48 43
22 48 43
22 49 44
22 48 43
21 47 43
22 48 44
22 48 43
22 49 45
22 47 43
22 49 45
23 50 45
22 48 43
22 47 43
22 49 44
22 49 44
22 48 44
22 48 44
22 47 43
22 49 44
23 49 45
21 47 43
22 48 44
22 48 44
22 47 43
22 47 43
22 49 44
22 47 43
22 48 43
22 47 43
22 48 44
22 49 44
22 48 43
22 48 43
22 48 43
22 48 43
22 48 43
22 47 43
19 42 38
17 39 35
14 33 31
12 28 26
11 26 25
9 22 20
8 20 18
8 18 17
7 17 15
8 18 17
10 23 21
16 34 31
19 41 36
21 45 40
21 46 41
21 46 41
21 46 41
22 46 42
22 48 43
21 46 42
21 47 43
21 46 42
21 47 43
21 47 43
21 47 43
22 47 43
21 47 43
21 46 42
21 47 43
21 47 43
21 47 43
21 47 43
21 47 43
21 47 42
21 46 42
21 46 42
21 46 42
22 48 43
21 47 43
21 47 43
22 48 43
21 47 43
22 48 43
22 49 44
22 48 44
21 47 43
21 47 43
22 48 44
21 47 43
21 46 42
22 48 44
22 48 44
21 47 43
21 47 43
22 49 45
22 48 44
21 46 42
21 46 42
22 48 43
22 49 45
21 47 43
22 49 44
22 49 45
22 48 44
22 48 44
21 47 43
22 49 44
21 47 43
22 47 43
22 48 44
22 49 44
22 47 43
21 47 43
22 48 44
22 47 43
22 47 43
23 49 45
22 49 45
23 49 45
22 47 43
21 47 43
22 48 44
21 47 43
22 48 43
22 49 44
22 48 44
22 48 43
22 48 44
22 49 44
22 48 44
22 47 43
22 49 44
22 48 43
22 48 43
22 48 43
21 47 42
22 48 43
22 49 44
22 48 43
22 49 44
22 48 43
22 49 44
22 48 44
23 50 45
22 49 45
22 48 43
22 48 43
23 50 45
22 48 44
22 48 43
22 47 43
22 48 43
21 47 43
22 49 44
22 48 43
23 49 44
22 47 43
22 48 44
22 48 43
22 47 43
22 49 44
21 47 42
21 46 41
20 43 39
18 40 36
17 38 34
17 37 33
17 37 33
17 36 32
18 38 33
19 41 36
20 42 37
21 45 40
20 44 39
22 48 43
21 46 41
21 46 41
22 48 43
22 48 43
21 47 43
21 46 42
21 47 43
21 47 43
21 47 43
21 45 41
21 46 42
21 47 43
21 46 42
21 47 43
21 47 43
21 46 42
21 46 42
21 45 41
21 46 42
21 47 43
22 47 43
21 47 43
21 46 42
21 47 43
21 47 42
21 47 43
22 48 44
21 47 43
22 48 44
22 47 43
21 47 42
20 45 41
22 48 44
22 47 43
22 48 44
21 47 43
21 47 43
21 46 42
22 48 44
22 48 43
22 49 44
22 48 43
22 48 44
21 47 43
22 48 44
22 48 44
22 48 43
22 49 44
22 49 44
21 47 43
22 48 43
21 46 42
22 48 44
21 47 42
22 48 43
22 48 44
21 47 43
22 48 43
22 49 44
22 49 44
22 48 44
22 48 44
22 49 45
22 49 44
22 48 43
22 49 44
22 47 43
22 48 43
21 47 43
23 49 45
22 47 43
22 48 44
22 48 43
22 48 43
22 48 44
22 47 43
21 47 43
22 49 44
22 49 44
22 49 44
22 48 44
22 49 44
22 49 44
22 48 44
22 48 43
21 46 42
22 49 44
22 49 44
22 49 44
22 48 44
22 48 44
22 48 44
22 49 44
23 50 45
23 49 45
22 49 44
22 48 43
22 48 44
23 50 45
22 47 43
22 48 43
23 50 45
22 49 44
22 48 43
21 46 42
21 46 42
21 46 42
21 47 42
21 46 41
22 48 43
22 47 42
21 46 41
21 46 41
21 46 41
21 45 40
21 46 40
22 46 41
22 47 42
22 48 43
22 47 42
22 48 43
22 47 42
21 46 41
22 48 43
21 46 42
21 46 42
21 46 42
21 46 42
21 47 43
22 48 43
21 47 43
21 46 42
20 45 41
21 47 43
21 47 42
21 46 42
21 47 43
22 49 44
21 47 43
22 49 44
21 46 42
21 47 43
22 48 44
22 49 44
21 47 43
21 47 42
21 47 42
22 49 44
21 47 42
21 47 43
21 47 43
21 46 42
21 46 42
22 47 43
22 48 44
22 48 43
21 47 42
22 48 44
22 48 43
21 46 42
22 48 44
21 46 42
22 48 44
23 50 45
22 48 44
22 48 43
21 47 43
22 48 43
21 47 43
22 49 45
22 48 44
22 48 44
21 47 43
22 48 44
22 49 44
23 50 45
22 48 44
22 48 43
22 49 44
21 46 42
22 48 44
21 47 43
22 48 44
22 48 44
22 48 43
21 47 43
22 48 44
22 48 43
22 49 44
22 48 44
22 49 44
22 48 43
22 47 43
22 49 45
22 48 44
22 49 44
22 47 43
22 48 44
22 48 44
22 49 44
22 48 44
23 50 45
23 50 45
22 49 44
22 49 44
22 48 43
21 47 43
22 48 44
22 49 44
22 49 44
22 49 44
22 48 43
22 47 43
22 49 44
22 48 43
22 49 44
22 48 44
23 49 45
22 48 44
23 50 45
22 48 43
22 48 44
23 50 45
22 49 44
22 48 43
22 48 44
22 47 43
22 48 43
22 48 44
22 49 44
22 48 43
21 47 42
21 46 41
22 48 43
21 46 41
22 48 43
22 47 42
22 48 43
22 48 42
22 47 42
22 48 43
22 47 43
21 47 42
22 49 44
21 47 43
21 47 43
21 47 42
21 46 42
21 47 42
21 47 43
22 48 43
21 46 42
21 47 43
21 47 43
21 47 43
21 47 43
21 47 43
22 48 44
20 45 41
22 48 44
22 47 43
21 47 43
21 47 43
21 46 42
21 47 43
21 45 41
22 48 43
21 46 42
21 47 43
22 49 44
21 47 43
21 46 42
22 48 44
22 48 44
22 48 44
21 46 42
22 49 44
22 48 44
22 48 43
21 46 42
21 46 42
22 48 43
22 48 43
21 47 43
22 48 44
21 47 43
22 48 44
21 47 43
21 47 43
22 48 44
22 48 44
22 48 44
22 48 43
22 49 45
22 49 44
22 48 44
22 48 44
22 47 43
22 49 45
22 48 44
22 48 44
22 48 44
22 47 43
22 48 44
23 50 45
22 49 44
22 49 44
22 49 44
21 46 42
22 48 44
22 48 44
22 48 44
22 48 44
22 49 44
23 50 45
22 48 44
22 49 44
23 50 45
22 49 44
21 47 43
22 48 43
23 49 45
22 49 44
22 49 44
22 48 43
23 50 45
22 48 43
22 48 43
22 49 44
23 50 45
22 48 43
22 48 44
22 48 43
22 49 44
22 48 43
22 48 43
22 48 44
22 47 43
23 49 45
22 48 44
23 49 45
22 48 43
22 49 44
22 48 43
22 47 43
22 48 43
22 48 43
22 48 43
22 48 43
23 49 44
22 48 43
22 48 43
22 48 43
22 47 43
22 48 43
22 47 43
22 47 42
22 49 44
22 48 43
23 51 45
23 50 45
23 49 45
22 47 42
22 49 44
21 46 42
22 49 45
22 49 44
21 47 43
22 48 44
21 46 42
21 47 43
21 47 43
21 47 42
21 47 43
21 47 43
21 46 42
22 48 43
21 47 43
21 47 43
22 48 43
21 47 43
21 47 43
22 48 44
21 47 43
22 48 44
22 48 44
22 48 44
21 47 43
22 48 43
22 48 44
21 47 43
21 47 42
21 47 43
22 47 43
22 48 44
22 48 43
21 47 43
21 46 42
21 47 43
22 48 43
21 47 42
21 47 43
22 48 43
22 49 45
22 48 43
22 48 44
21 47 42
21 47 43
22 47 43
22 48 44
22 48 43
22 48 44
21 47 42
22 48 44
22 48 44
22 49 44
21 47 43
22 47 43
22 49 45
21 46 42
23 50 45
22 48 44
22 49 44
22 48 44
22 48 44
23 50 45
23 49 45
22 47 43
22 49 44
22 49 45
22 49 45
22 49 44
22 48 44
22 48 44
22 48 43
23 50 45
23 50 46
22 48 43
22 48 44
22 48 44
23 50 45
22 48 43
22 48 44
22 48 44
23 49 45
22 49 44
22 49 44
22 49 44
22 49 44
22 49 45
22 49 44
22 47 43
22 47 43
23 50 45
22 49 44
22 48 44
23 49 45
23 49 45
22 49 44
23 51 46
22 49 44
22 49 44
22 49 44
22 48 43
22 48 43
22 49 44
23 50 45
23 49 44
22 49 44
23 50 45
22 48 43
22 47 43
22 49 44
22 48 43
22 48 43
22 49 44
23 50 45
22 48 43
21 46 42
22 48 43
23 50 45
22 48 44
22 49 44
23 49 45
21 45 41
21 47 42
21 47 43
21 45 41
21 46 42
21 47 43
21 46 42
21 47 43
21 47 42
20 45 41
21 46 42
21 46 42
21 46 42
21 46 42
21 47 43
22 47 43
22 48 44
21 47 43
22 48 44
21 47 43
21 46 42
21 47 43
21 46 42
21 46 42
21 47 43
21 47 43
22 49 44
21 47 43
21 47 43
22 49 45
21 46 42
22 49 44
21 46 42
22 49 44
21 47 43
22 48 44
22 49 44
21 47 42
21 47 43
22 48 43
22 47 43
21 47 43
21 47 43
22 48 43
22 48 44
22 48 43
22 47 43
21 47 43
22 48 43
22 49 44
22 47 43
21 47 43
21 47 43
22 49 45
22 48 43
22 49 44
21 47 42
22 49 45
21 47 43
22 48 43
22 47 43
22 48 44
22 48 43
22 49 45
22 49 44
22 47 43
23 51 46
22 48 43
22 48 44
22 48 44
22 48 43
21 47 43
22 48 44
22 48 44
22 48 44
22 49 44
22 48 44
22 49 44
22 48 43
21 47 42
22 48 44
22 49 44
22 49 45
22 48 43
23 49 45
22 49 45
23 50 45
22 49 44
22 49 44
22 49 44
22 49 44
22 49 45
22 48 44
22 47 43
22 48 44
22 48 43
23 50 45
22 49 44
22 49 45
22 49 44
22 49 44
22 48 44
22 48 44
22 49 44
23 50 45
22 48 43
22 48 44
22 49 44
22 48 43
21 46 42
22 49 44
22 48 43
23 49 44
23 49 44
22 48 43
23 49 45
23 50 45
22 49 44
22 49 44
23 50 45
21 46 42
21 47 43
20 45 41
22 48 43
21 46 42
21 47 43
21 47 42
21 47 43
21 46 42
22 48 43
22 48 43
21 46 42
22 48 43
21 47 43
22 48 44
21 47 43
21 47 43
21 47 42
22 49 44
21 46 42
22 48 44
21 47 43
21 47 43
21 46 42
22 48 43
21 47 43
21 46 42
22 47 43
21 46 42
21 47 43
21 47 43
22 48 44
22 48 43
21 46 42
22 48 44
21 46 42
22 48 44
22 48 44
21 47 43
21 47 43
22 47 43
22 48 44
22 49 45
21 47 43
22 48 43
22 48 44
22 49 44
22 49 44
22 49 44
22 48 43
22 47 43
22 48 43
22 48 44
22 48 44
22 48 44
21 46 42
22 48 44
22 48 43
21 47 42
21 47 43
23 49 45
22 49 45
21 47 43
22 49 45
22 47 43
22 47 43
22 48 44
22 48 44
22 48 44
22 48 44
22 48 44
22 48 44
22 49 44
22 49 44
22 48 44
22 47 43
21 46 42
22 49 44
22 48 44
22 48 44
21 47 42
22 49 45
22 49 44
22 48 44
22 49 44
22 49 44
22 48 43
22 49 44
22 48 43
22 49 44
22 48 44
22 48 44
23 49 45
22 49 44
22 49 44
22 48 43
21 47 42
23 50 45
22 49 44
22 49 44
22 48 43
22 49 44
23 50 45
23 50 45
23 49 45
22 48 44
22 48 44
22 49 44
22 49 44
22 49 44
22 48 43
23 51 46
22 48 43
22 49 44
22 48 44
23 50 45
22 48 43
22 48 43
23 49 44
22 47 43
