P3
120 80
255
17 40 37
18 42 39
18 41 38
18 41 38
18 41 38
18 41 38
18 40 37
18 41 39
18 40 38
18 41 38
18 40 37
18 41 38
18 41 38
18 42 39
18 41 38
18 41 38
18 41 39
18 41 39
18 41 39
18 42 39
18 41 39
18 41 38
18 40 38
18 41 38
19 42 39
18 41 38
18 41 38
18 42 39
18 42 39
19 42 39
18 42 39
18 41 38
18 42 39
18 41 38
18 41 39
18 42 39
18 42 39
18 41 38
18 40 38
18 40 38
18 41 39
18 42 39
18 41 39
19 42 39
18 41 38
18 41 38
18 41 39
18 42 39
18 40 37
18 41 38
19 42 39
18 41 38
18 40 37
19 42 39
18 41 39
18 40 38
18 41 38
19 42 39
19 42 39
18 41 38
18 41 39
18 40 37
19 42 39
18 41 38
18 41 39
19 42 39
19 43 40
18 41 38
18 41 39
19 42 39
18 41 39
18 41 38
19 42 39
19 42 39
19 42 39
18 41 38
19 42 39
18 41 39
19 42 39
18 41 39
19 43 40
18 41 39
18 41 38
18 42 39
18 41 39
18 42 39
18 41 39
19 42 40
18 41 38
19 42 39
18 41 38
19 42 39
19 42 40
18 41 38
18 41 38
18 41 38
19 42 39
19 42 39
19 42 39
18 41 39
19 42 40
18 42 39
18 41 38
18 42 39
19 43 40
18 42 39
18 42 39
18 41 38
19 42 40
18 41 38
18 42 39
18 40 37
19 42 39
18 41 38
18 42 39
18 41 38
18 42 39
18 41 39
18 41 38
19 42 39
18 41 38
18 41 39
19 42 39
18 41 38
18 40 38
18 40 38
19 42 39
18 41 39
19 42 39
18 41 38
19 42 39
18 41 38
18 41 38
18 42 39
19 42 39
18 41 38
19 42 39
18 41 38
19 42 39
19 42 39
18 41 38
18 41 38
19 42 39
18 42 39
19 42 39
19 42 39
18 41 38
18 42 39
18 41 38
18 42 39
18 41 38
18 41 38
18 40 38
19 43 40
19 42 39
18 41 38
18 41 38
18 41 38
19 43 40
18 41 39
18 41 39
18 41 39
18 42 39
18 41 39
19 42 39
18 41 39
19 43 40
18 41 38
18 41 38
18 41 38
19 43 40
19 43 40
19 42 39
19 42 39
19 42 39
19 43 39
19 42 39
19 43 40
19 42 39
19 42 39
18 41 38
19 42 39
19 43 40
19 43 40
19 43 40
19 42 39
19 42 39
19 42 39
19 43 40
19 42 40
19 43 40
19 42 39
19 42 39
18 41 38
19 43 40
19 42 39
19 42 39
18 42 39
19 43 40
19 42 39
19 42 39
19 42 39
19 42 39
19 42 39
18 41 38
19 43 40
19 42 39
19 42 39
19 42 39
19 42 39
18 41 38
18 41 38
19 42 39
18 41 38
19 43 40
19 42 39
19 42 39
18 41 38
19 42 39
18 41 38
18 41 38
18 42 39
19 42 39
19 42 39
18 41 38
19 42 39
18 41 38
19 42 39
19 42 39
18 42 39
18 41 38
19 42 39
19 42 39
19 42 39
18 42 39
18 41 38
18 42 39
19 42 39
19 42 39
19 42 39
19 42 39
19 42 39
19 42 39
18 41 39
18 42 39
18 42 39
18 41 39
18 42 39
19 43 40
18 41 38
18 41 38
19 43 40
18 41 38
19 42 39
19 42 39
19 42 39
19 43 39
19 42 39
19 42 39
18 41 38
19 42 39
19 42 39
18 41 39
19 43 40
18 41 38
19 42 39
19 42 39
19 42 39
19 42 39
19 42 39
19 42 39
18 41 39
19 43 40
19 42 39
18 41 38
19 42 39
19 42 39
19 42 39
19 42 39
19 42 39
19 43 40
19 42 39
19 42 39
19 42 39
19 42 39
18 42 39
19 43 40
19 42 39
19 42 39
19 42 39
19 42 39
18 42 39
19 43 39
19 42 39
19 42 39
19 42 39
19 42 39
19 43 40
19 43 40
19 42 39
19 43 40
19 42 39
19 43 39
19 42 39
19 43 40
19 42 39
19 43 40
19 43 40
19 43 40
19 43 40
19 43 40
19 43 40
19 42 39
19 43 39
19 42 39
19 43 40
19 42 39
19 42 39
19 43 40
19 42 39
18 41 38
19 43 40
19 42 39
19 43 40
19 42 39
19 43 39
19 43 40
19 43 40
19 42 39
19 42 39
19 43 40
19 43 40
19 43 40
19 42 39
19 42 39
19 42 39
19 42 39
19 42 39
19 42 39
19 43 39
19 42 39
19 43 40
19 42 39
19 43 40
19 43 40
19 43 39
19 42 39
19 42 39
19 42 39
19 43 40
19 42 39
19 42 39
19 43 40
19 42 39
19 43 40
19 43 40
19 42 39
19 42 39
18 42 39
19 43 40
19 42 39
19 42 39
19 42 39
19 43 40
19 42 39
19 42 39
19 42 39
19 42 39
19 42 39
19 43 40
19 42 39
19 42 39
19 43 40
19 42 39
19 42 39
19 43 40
19 43 40
19 43 40
19 43 40
19 42 39
19 43 40
19 42 39
19 43 40
19 43 40
19 43 40
19 43 40
19 42 39
19 42 39
19 42 39
19 42 39
19 42 39
19 43 40
19 43 39
19 43 40
19 43 40
19 42 39
19 43 40
19 43 40
19 43 40
19 43 40
19 43 39
19 43 40
19 43 40
20 44 41
19 43 40
19 42 39
19 43 40
19 44 40
19 43 40
20 44 41
19 43 40
19 44 40
18 41 38
19 43 40
19 42 39
19 43 40
19 43 40
19 43 39
19 44 40
19 43 40
20 44 40
19 42 39
19 43 40
20 44 41
19 42 39
19 43 40
19 43 40
20 44 41
19 43 40
19 43 40
19 43 40
19 42 39
20 44 40
19 42 39
19 43 39
19 43 40
19 43 40
19 42 39
19 43 40
19 43 40
19 44 40
19 44 40
19 42 39
19 43 40
19 43 39
19 44 40
19 43 40
19 43 39
19 43 39
20 44 40
20 44 40
19 43 40
20 44 41
19 44 40
20 44 41
20 44 41
19 42 39
19 43 40
20 44 41
19 43 40
19 43 40
19 43 40
19 42 39
19 43 39
19 43 40
19 44 40
19 43 40
19 43 40
19 43 40
19 43 40
19 43 40
20 44 40
19 42 39
20 44 40
19 43 39
19 42 39
19 42 39
19 42 39
19 43 40
19 42 39
19 42 39
19 42 39
18 41 39
19 43 40
19 43 39
19 43 40
19 43 39
19 43 40
19 42 39
19 43 40
19 43 39
19 43 40
19 43 40
19 43 40
19 43 40
19 43 40
19 42 39
19 42 39
19 43 40
19 42 39
19 42 39
19 43 40
19 43 40
19 43 40
19 43 40
19 43 40
19 42 39
20 44 40
19 43 40
19 43 40
19 42 39
19 43 40
19 43 40
19 43 40
19 43 40
19 43 40
20 44 41
19 43 39
19 43 40
19 43 40
19 43 40
20 44 40
20 44 41
19 43 40
19 43 40
19 43 39
19 43 40
20 44 40
20 44 40
19 42 39
19 43 40
19 43 40
20 44 41
20 44 41
20 45 42
20 44 40
19 43 40
19 43 39
19 43 40
20 44 41
20 45 41
19 43 40
20 44 41
20 44 41
19 43 40
19 43 40
19 43 39
19 42 39
20 44 41
20 44 41
20 44 40
20 44 40
20 44 41
19 43 40
20 45 41
19 43 40
19 43 40
20 44 41
20 45 41
20 44 41
19 43 40
20 44 41
20 45 41
19 43 40
20 44 40
19 43 40
19 43 40
20 44 41
19 43 40
19 43 40
19 43 40
19 42 39
20 44 41
19 43 40
20 44 40
19 42 39
20 44 40
19 43 39
19 43 40
19 43 40
20 44 40
19 43 40
19 43 40
19 42 39
20 44 40
20 44 40
19 43 40
20 44 41
19 43 40
20 44 41
19 44 40
20 44 40
19 44 40
19 43 40
19 43 40
19 43 40
19 43 40
19 43 39
19 43 39
19 43 40
20 44 41
19 43 39
19 43 40
19 43 40
19 42 39
19 43 40
19 43 40
19 44 40
19 42 39
19 43 39
19 43 40
19 43 40
19 43 40
20 44 41
19 43 40
19 43 40
19 43 40
20 44 41
20 44 41
19 43 40
19 42 39
19 43 40
19 43 40
20 45 42
19 43 39
20 44 41
20 45 41
20 45 42
19 43 40
20 44 41
20 45 41
20 44 40
19 44 40
19 43 40
20 44 41
20 45 41
20 45 42
20 45 41
19 43 40
20 44 41
20 44 41
19 43 40
20 45 41
20 44 40
20 45 41
20 44 41
20 44 40
20 44 40
20 44 40
20 45 42
20 45 41
20 46 42
20 44 41
19 43 40
20 44 40
20 44 40
19 43 39
20 44 40
20 44 41
20 45 41
20 45 41
20 44 41
19 43 40
20 44 41
19 43 40
20 45 41
20 45 41
20 44 40
20 45 41
20 44 41
20 45 41
20 44 40
20 44 40
20 44 41
20 44 41
20 43 40
20 44 41
20 45 41
20 44 41
20 45 42
20 45 41
20 43 40
20 45 41
20 44 40
20 44 41
20 45 41
21 46 42
19 43 40
20 44 41
20 44 40
21 46 42
20 44 41
20 45 42
20 44 40
20 45 41
20 44 40
20 44 40
20 44 41
20 45 41
20 45 41
20 45 41
20 44 41
20 44 40
20 45 42
19 43 40
20 44 40
20 44 41
20 44 41
20 45 41
20 44 40
20 44 41
20 44 41
19 43 40
20 45 41
20 44 41
20 44 41
19 43 40
20 44 40
19 43 39
20 44 40
19 44 40
19 44 40
19 42 39
19 43 39
20 44 41
19 43 40
20 44 41
20 44 41
19 43 40
19 43 40
19 43 40
19 42 39
19 43 40
20 44 41
19 43 40
20 45 42
20 44 40
19 43 40
20 44 41
19 43 40
20 44 41
20 44 40
19 43 40
20 45 41
20 44 40
20 45 41
20 44 41
20 45 41
20 44 40
20 44 40
20 45 42
20 44 41
20 45 41
20 45 41
20 45 41
20 45 41
20 45 41
20 45 41
20 44 41
20 44 41
20 45 42
20 44 41
20 44 41
20 44 41
20 45 41
20 44 40
20 45 42
21 46 42
20 45 41
20 44 40
21 46 42
20 44 40
20 45 41
21 46 42
20 44 41
20 45 41
20 44 40
21 46 42
20 44 41
20 45 41
21 46 42
20 45 41
21 46 42
20 45 41
20 45 41
20 45 41
20 45 41
20 45 41
20 44 40
20 44 40
20 45 41
20 45 41
20 45 41
20 45 42
20 45 42
21 46 42
21 46 43
21 46 42
21 46 42
20 45 42
20 45 41
21 45 42
20 44 41
20 45 41
20 45 41
20 45 41
20 45 42
20 45 41
20 45 41
20 45 42
20 44 41
21 46 42
20 45 41
20 43 40
20 45 41
21 46 42
20 44 41
20 45 42
20 44 41
20 45 41
20 44 41
20 44 40
20 45 42
20 45 41
20 45 42
20 45 41
20 44 40
20 45 41
20 44 41
20 46 42
20 45 41
20 45 41
20 45 41
20 45 41
20 45 41
20 45 41
20 45 41
20 45 41
20 44 40
20 44 41
20 44 40
19 44 40
19 44 40
20 45 42
20 44 41
19 43 40
20 44 40
20 44 41
20 44 40
19 43 40
19 43 40
20 45 41
19 43 40
20 44 41
20 45 41
20 44 40
19 43 40
20 44 40
20 44 40
20 44 40
20 44 41
20 45 41
20 44 41
20 44 41
20 44 41
20 44 41
20 44 40
20 45 41
20 45 41
20 44 40
20 45 41
20 45 41
21 46 42
20 45 41
20 45 41
20 44 41
20 45 41
20 45 42
20 45 42
20 45 41
21 46 42
20 45 41
21 46 42
20 45 41
21 46 42
20 45 42
20 45 42
20 45 41
20 45 42
20 44 40
20 45 41
20 45 42
20 44 41
20 45 41
20 45 41
21 46 42
20 45 42
20 45 41
20 44 40
21 46 42
20 45 41
20 45 41
20 45 41
20 45 41
20 45 41
20 44 41
21 46 43
20 44 40
21 46 42
20 45 41
21 46 42
21 46 42
21 47 43
21 47 43
21 47 43
20 45 41
21 46 42
21 46 42
20 45 42
20 45 41
20 45 41
21 46 42
20 45 41
20 45 41
21 46 42
21 46 43
20 44 40
21 46 42
20 45 42
21 46 42
20 45 41
20 45 41
21 46 42
21 46 42
20 45 41
21 46 42
21 47 43
21 46 43
21 46 42
21 46 42
20 44 40
21 46 42
20 45 41
21 46 42
20 45 41
20 45 41
20 45 42
20 45 41
20 45 41
20 45 41
21 46 42
20 45 41
20 45 41
20 45 41
20 45 41
21 46 42
20 44 41
20 45 41
21 46 42
20 44 41
20 44 40
19 42 39
20 44 41
20 45 41
20 44 41
20 45 41
19 43 39
20 44 41
20 44 41
20 45 41
20 44 41
20 45 41
20 45 41
20 44 40
20 45 41
20 44 41
20 45 41
20 45 42
20 45 41
20 45 41
20 45 41
21 46 42
20 45 42
20 45 41
20 45 41
21 46 42
21 46 42
20 45 41
20 45 41
21 46 42
20 45 41
21 46 42
20 45 41
21 46 42
21 46 42
20 45 42
20 45 41
21 46 42
20 45 41
20 45 41
21 46 42
21 47 43
21 46 42
21 47 43
21 46 42
21 46 42
21 46 42
20 45 41
21 46 42
21 45 41
21 46 42
21 46 42
21 47 43
20 45 41
21 46 42
21 46 42
21 46 42
21 46 42
21 47 43
21 46 42
20 45 41
21 46 42
21 47 43
21 46 42
21 46 42
21 46 42
21 46 42
21 46 42
21 46 42
21 46 42
21 47 43
21 47 43
21 47 43
21 47 43
21 46 42
21 46 42
21 47 43
21 46 42
21 46 42
20 45 41
21 46 42
21 46 42
21 47 43
21 46 42
21 47 43
21 46 42
21 47 43
21 46 42
21 47 43
21 46 42
21 46 42
21 46 42
21 47 43
21 46 42
21 46 42
21 45 42
20 45 41
21 46 42
21 46 42
21 46 42
21 46 42
21 46 42
21 46 42
21 46 42
21 46 42
21 46 42
21 46 42
21 47 43
21 46 42
21 46 42
21 46 42
21 46 42
21 46 42
21 45 42
21 46 42
21 46 42
20 45 41
21 46 42
20 45 41
21 45 42
20 45 41
20 44 40
20 45 41
20 45 41
20 44 41
20 44 41
21 45 42
20 45 41
19 43 40
19 43 40
20 45 41
20 45 41
20 45 42
20 44 41
20 45 41
21 46 42
21 46 42
21 46 42
20 45 41
21 46 42
21 46 42
21 46 42
20 45 41
20 44 40
21 46 42
20 45 41
21 46 42
21 46 42
20 45 41
21 47 43
20 45 41
21 46 42
21 46 42
21 46 42
21 46 42
21 46 42
21 46 42
21 46 42
21 46 42
21 47 43
21 47 43
21 46 42
21 47 43
21 46 42
21 46 42
21 46 42
21 46 42
21 46 42
21 47 43
20 45 41
21 47 43
21 46 42
21 47 43
21 46 42
21 46 42
21 47 43
21 47 43
21 47 43
21 47 43
21 46 42
22 47 43
21 47 43
22 48 44
21 47 43
21 46 42
22 48 44
21 46 41
21 47 43
21 46 42
21 46 41
21 46 42
21 46 42
21 46 42
22 48 43
21 47 43
21 47 43
22 48 44
21 46 42
22 48 44
21 46 42
21 46 42
21 46 42
21 46 42
21 47 43
21 47 43
21 47 43
21 47 43
21 47 43
21 47 42
21 47 43
21 47 43
21 47 43
22 48 44
21 46 42
21 47 42
21 47 43
21 47 43
21 46 42
21 46 42
21 46 42
21 47 42
21 45 41
21 47 43
21 46 42
21 47 43
21 46 42
21 46 42
21 47 43
21 47 43
21 47 43
21 46 42
21 47 43
21 46 42
21 46 42
21 47 42
21 46 42
21 46 42
21 46 42
20 45 41
20 45 41
20 45 41
20 45 41
20 45 41
21 46 42
20 45 41
20 44 40
20 46 42
20 44 41
20 45 42
20 44 41
21 46 42
21 46 42
21 46 42
20 45 41
21 46 42
21 46 42
21 46 42
20 45 41
20 45 42
21 46 43
20 45 41
21 46 42
21 46 43
21 46 42
21 46 42
21 46 42
21 46 42
21 47 43
21 46 42
21 46 42
21 46 42
21 47 43
21 45 41
21 46 42
22 48 44
21 46 42
21 47 42
21 47 43
21 47 43
21 47 43
21 46 42
21 47 43
21 47 42
21 47 43
22 47 43
22 48 44
21 47 43
21 47 43
22 49 44
21 46 42
21 46 42
22 48 43
21 47 43
21 47 43
21 47 43
21 46 42
21 47 43
21 47 43
22 47 43
22 48 43
21 47 43
21 47 43
22 48 44
22 49 45
21 46 42
22 48 44
22 48 43
21 47 43
21 47 42
22 49 45
22 48 43
21 46 42
22 48 44
21 47 43
22 47 43
22 48 43
22 48 44
21 47 43
21 47 43
21 47 43
21 47 43
21 47 43
21 47 43
21 47 43
22 48 44
21 47 43
22 47 43
21 47 42
21 47 43
21 47 42
21 47 42
22 48 44
22 48 44
21 47 42
22 48 44
21 46 42
21 47 43
21 47 43
22 48 44
21 47 43
22 48 43
21 47 43
21 47 43
22 48 43
22 48 43
21 47 43
21 47 43
21 47 42
21 47 43
22 48 44
21 46 42
21 47 42
21 47 43
21 47 43
21 46 42
21 47 43
21 47 43
21 46 42
22 48 44
21 47 43
21 45 42
21 46 42
21 46 42
21 47 43
20 45 41
20 45 41
21 46 42
21 45 42
20 45 41
21 46 42
20 45 41
21 46 42
20 45 41
21 46 42
20 45 41
21 47 43
21 46 42
20 45 41
21 47 43
21 46 42
21 46 42
21 46 42
21 46 42
21 45 41
21 46 42
21 47 43
21 46 42
21 47 43
21 46 42
21 46 42
21 46 42
21 46 42
21 47 42
21 47 43
21 46 42
21 47 43
22 48 44
22 48 43
21 47 43
21 47 42
21 47 43
21 47 43
21 47 43
21 47 42
21 46 42
21 47 43
22 48 44
21 47 42
21 46 42
22 48 44
21 47 43
22 48 44
21 47 43
21 46 42
22 49 44
22 48 44
21 46 42
22 48 43
21 46 42
22 48 43
22 48 43
22 49 44
22 48 43
22 49 45
22 47 43
22 49 45
22 48 44
22 48 43
21 47 43
21 47 43
22 48 44
22 48 44
22 48 43
22 49 44
22 48 44
23 50 45
22 48 43
22 47 43
22 48 44
22 47 43
22 48 43
22 48 44
21 47 43
22 49 45
22 48 44
22 48 43
22 48 44
22 48 44
22 48 44
22 49 44
22 47 43
22 49 45
22 48 43
22 49 44
22 48 44
22 48 44
21 47 43
22 48 43
22 49 44
21 47 43
22 49 44
22 48 44
21 47 43
22 48 44
22 48 44
22 48 43
21 46 42
21 47 42
21 47 43
22 48 44
22 48 43
21 47 43
22 49 44
22 48 44
21 47 43
22 48 43
21 47 43
22 47 43
21 47 43
21 47 43
20 45 41
20 45 42
20 45 41
21 46 42
20 45 42
21 46 42
20 45 41
20 45 41
21 46 42
21 47 43
20 45 41
21 46 42
21 46 42
20 45 41
21 46 42
21 46 42
21 46 42
21 45 41
21 47 43
21 47 43
21 47 43
21 45 41
21 47 42
21 47 43
21 47 43
22 47 43
21 47 43
21 46 42
21 46 42
21 46 42
20 45 41
21 47 43
21 47 43
21 47 43
21 46 42
22 48 44
21 46 42
21 47 43
21 47 43
22 48 44
22 48 44
22 49 44
22 48 43
22 48 43
22 48 43
22 49 44
22 48 44
22 48 44
21 47 42
21 47 43
22 48 43
22 48 44
22 47 43
22 49 45
22 48 44
22 48 44
22 48 44
22 48 43
22 47 43
22 49 44
22 47 43
22 48 43
22 48 44
22 48 43
22 49 44
22 48 44
22 49 44
23 49 45
23 50 45
23 49 45
22 48 44
22 48 43
22 49 44
22 49 44
22 49 44
22 48 44
22 49 44
22 49 44
22 49 44
22 48 43
22 48 44
22 49 44
22 48 43
22 48 43
22 48 44
22 48 44
22 48 43
23 50 45
22 48 44
23 50 45
22 48 43
21 47 43
22 48 44
22 48 44
22 47 43
23 50 45
22 49 44
22 48 44
22 49 45
22 49 44
22 48 44
22 49 45
22 49 44
22 49 44
22 49 44
22 48 44
22 48 44
22 49 45
22 49 44
22 47 43
22 48 44
21 47 43
21 47 43
22 48 44
22 48 43
22 48 43
22 47 43
22 47 43
22 49 44
22 48 44
20 45 41
20 45 41
20 45 41
21 46 42
20 45 41
21 46 42
21 46 42
21 46 42
21 46 42
21 46 42
21 45 42
21 47 43
21 46 42
21 47 43
21 46 42
21 46 42
21 46 42
21 47 43
21 47 42
22 47 43
21 46 42
21 47 43
21 47 43
21 47 43
21 46 42
21 47 43
22 48 44
22 47 43
22 48 44
22 48 44
22 48 43
21 46 42
22 48 43
22 48 44
22 48 44
22 48 44
22 48 43
22 48 44
21 47 43
21 47 43
21 47 43
22 48 44
22 48 44
22 48 44
21 47 43
22 49 45
22 48 44
22 48 43
22 48 44
22 48 44
22 47 43
22 48 44
22 48 43
22 48 44
22 48 43
22 47 43
22 49 44
22 48 43
22 48 44
22 48 44
22 49 45
23 49 45
22 48 43
22 49 44
22 49 44
22 49 44
21 47 43
22 48 44
22 48 44
22 48 44
22 49 44
23 50 45
22 49 44
22 49 44
22 49 45
22 48 43
23 49 45
22 49 44
23 50 46
22 49 44
22 49 44
22 49 44
22 48 43
22 48 44
22 48 44
23 50 45
22 49 44
22 48 44
22 49 45
22 49 44
22 48 43
22 48 44
22 48 43
22 49 44
22 49 44
22 49 45
22 47 43
22 49 44
22 48 44
22 48 44
22 49 45
22 48 44
21 47 42
22 48 43
22 49 44
22 49 44
22 48 44
22 48 44
22 47 43
21 47 43
22 48 44
22 49 44
22 49 44
22 48 43
23 50 45
22 49 44
22 48 43
22 48 44
22 48 44
22 49 45
21 46 42
21 46 42
21 46 42
21 47 43
21 46 42
21 46 42
21 46 42
21 46 42
21 46 42
21 47 43
21 47 43
22 48 44
21 47 43
21 46 42
21 47 43
21 47 42
21 47 43
21 47 43
22 48 43
21 47 43
21 47 43
21 47 43
22 48 44
21 46 42
21 47 42
22 48 43
21 47 43
21 47 43
22 48 44
22 48 44
21 47 42
22 48 44
22 47 43
22 48 43
22 48 43
22 48 44
22 48 44
22 48 44
22 48 44
22 48 44
22 48 44
22 49 44
22 49 45
22 49 44
21 47 43
22 48 44
22 48 43
22 47 43
22 48 44
22 47 43
22 48 44
22 49 44
22 48 44
23 50 45
22 47 43
23 50 45
22 48 44
22 49 45
22 49 44
23 50 45
22 49 44
22 49 44
22 48 44
23 50 45
23 50 45
23 50 45
23 50 45
23 50 45
22 48 43
23 49 45
23 50 45
23 49 45
22 49 44
22 48 43
23 50 45
23 49 45
23 50 45
23 50 45
23 50 45
22 48 43
23 50 45
23 49 45
23 50 45
22 49 44
23 51 46
23 51 46
22 48 43
23 50 46
23 50 45
23 49 45
23 50 45
22 49 44
22 49 44
22 49 44
22 48 44
22 49 44
22 49 44
23 50 46
22 49 44
23 50 45
22 49 44
22 49 44
22 49 44
22 48 44
23 50 45
22 49 44
22 48 43
22 49 44
22 48 44
23 49 45
22 48 44
22 48 43
23 49 45
22 48 44
22 49 44
22 49 44
22 48 44
22 49 44
22 49 44
22 49 44
20 45 41
21 46 42
20 45 41
21 46 42
21 46 42
21 46 42
21 46 42
21 45 41
22 48 43
21 46 42
21 47 42
21 47 43
21 47 43
21 47 43
21 47 43
21 47 43
22 48 44
22 48 43
22 48 43
21 47 43
22 48 44
21 47 43
22 48 43
22 49 44
21 47 43
21 46 42
22 48 44
22 48 43
22 48 43
22 49 44
21 47 43
21 47 43
21 47 43
22 48 44
22 48 44
22 48 44
22 48 43
22 49 45
22 48 44
22 49 45
22 49 44
22 49 44
22 48 44
22 48 44
23 50 45
22 49 44
23 49 45
22 49 44
23 50 45
22 48 44
22 48 44
22 48 44
23 50 45
22 49 44
22 48 43
23 51 46
22 49 44
22 48 44
22 49 44
22 49 44
22 48 43
23 51 46
23 50 46
23 50 45
23 49 45
23 50 45
23 50 45
23 49 45
23 50 45
23 50 45
23 50 45
23 50 45
22 49 44
22 49 44
23 50 45
23 50 45
23 50 45
23 50 45
23 50 45
23 50 45
22 48 44
23 50 46
23 50 45
23 50 45
23 51 46
22 48 44
22 49 44
23 50 45
23 50 46
22 49 44
23 50 45
23 50 45
23 50 45
22 49 44
23 51 46
22 49 44
23 49 45
23 49 45
23 50 45
23 50 45
23 49 45
23 49 45
22 48 43
22 49 45
22 49 44
22 49 44
22 49 44
22 48 44
23 50 45
22 48 43
23 50 45
22 48 44
22 49 45
23 50 46
23 50 45
22 49 44
22 48 43
22 49 44
23 50 45
23 50 45
21 46 42
21 46 42
21 46 42
21 46 42
21 47 43
21 46 42
21 46 42
21 46 42
21 47 42
22 48 44
21 47 42
22 48 43
21 47 43
22 48 44
21 47 43
21 47 43
22 48 43
22 48 44
22 47 43
22 48 44
22 48 43
22 48 43
22 47 43
22 49 45
22 48 44
22 48 43
21 46 42
22 48 44
22 48 43
22 48 44
22 48 44
22 48 44
23 49 45
22 49 44
21 47 43
22 48 43
22 48 44
22 48 43
21 47 43
22 49 44
22 48 44
22 48 44
22 49 45
22 49 44
22 48 44
23 49 45
22 49 44
22 49 44
23 50 45
22 49 44
22 48 43
23 50 45
22 49 44
23 50 45
23 50 45
23 49 45
23 49 45
22 49 44
23 50 45
23 49 45
22 49 44
23 49 45
23 50 45
23 50 45
23 50 45
22 49 44
23 49 45
23 50 45
23 49 45
23 50 46
23 49 45
23 51 46
23 50 45
23 50 45
23 50 45
23 49 45
22 49 44
23 49 45
23 50 46
22 49 44
23 50 45
23 50 45
23 51 46
23 51 46
23 50 45
23 50 45
23 51 46
23 50 45
24 52 47
23 50 45
22 49 44
23 49 45
22 49 44
23 50 46
23 50 45
22 49 44
23 51 46
23 50 45
22 49 44
23 50 45
23 50 45
23 51 46
23 50 45
23 49 44
23 50 45
23 50 45
23 50 45
23 50 45
22 49 44
22 49 44
23 50 45
23 50 45
23 50 45
22 49 45
22 49 44
22 49 44
23 50 45
23 50 46
23 49 45
22 49 44
21 47 43
21 46 42
21 46 42
21 47 43
21 47 43
21 47 43
21 46 42
21 46 42
21 47 43
21 47 43
21 47 42
22 48 44
22 48 44
22 48 44
22 47 43
21 47 42
21 47 43
22 48 44
22 48 43
22 48 43
22 48 44
21 47 43
22 48 44
22 48 44
22 47 43
22 49 45
22 48 43
22 47 43
22 47 43
22 48 44
22 48 43
22 48 43
22 48 44
22 49 44
22 48 44
22 49 44
22 49 45
23 50 45
22 49 45
22 49 44
23 49 45
22 49 44
22 49 44
23 49 45
23 49 45
22 48 43
22 49 44
22 49 45
22 49 44
22 49 44
22 49 44
22 49 44
23 50 45
23 51 46
23 50 45
23 50 45
22 49 44
23 50 45
22 49 44
22 48 43
23 50 46
23 50 45
23 50 45
23 50 45
22 49 45
23 50 46
23 50 45
22 49 44
23 49 45
22 49 44
22 49 44
23 49 45
23 50 45
22 49 44
23 49 44
23 50 45
23 50 45
23 51 46
23 50 45
22 49 44
23 50 45
23 50 45
23 50 45
23 50 45
23 50 45
23 51 46
23 50 45
23 49 45
23 51 46
23 50 45
23 50 45
24 51 46
23 50 45
23 49 45
23 51 46
23 51 46
23 50 45
23 50 45
23 51 46
23 51 46
22 49 44
23 51 46
23 50 45
23 51 46
23 50 45
22 49 44
24 51 46
23 50 45
22 49 44
23 49 45
22 49 44
23 50 45
23 50 45
22 49 44
22 49 44
23 49 45
23 50 46
23 50 45
23 50 46
22 49 44
21 47 43
21 46 42
21 47 43
21 47 43
22 48 44
22 48 43
21 47 43
22 48 43
22 48 44
21 47 42
21 47 42
21 47 43
21 46 42
21 47 43
21 46 41
21 47 43
22 47 43
22 48 43
21 47 43
22 49 44
22 47 43
22 49 44
22 47 43
22 48 43
22 48 43
22 47 43
22 48 44
22 49 44
22 48 44
22 47 43
22 49 45
22 48 44
22 49 44
22 49 45
23 50 45
22 49 44
22 48 44
22 49 45
22 48 44
23 50 45
23 49 45
23 50 45
23 50 46
21 47 42
22 49 44
22 49 45
22 49 44
23 50 45
23 50 45
22 49 44
22 48 44
22 49 44
23 49 45
23 49 45
22 48 43
22 48 44
23 49 45
22 49 44
23 50 45
23 50 45
23 49 45
23 50 45
23 51 46
24 52 47
23 50 45
23 51 46
23 50 45
23 50 45
23 51 46
23 50 45
23 50 45
23 50 45
23 51 46
23 51 46
23 51 46
23 50 45
23 50 45
23 50 45
23 50 45
23 50 45
23 49 45
24 52 47
23 51 46
23 50 45
23 49 45
22 48 43
23 50 45
23 51 46
23 49 45
23 50 45
23 50 45
23 50 45
23 51 46
22 49 44
23 51 46
24 52 47
23 51 46
23 50 45
23 51 46
23 50 45
23 50 45
23 50 46
23 50 45
23 50 45
23 50 45
23 50 45
23 51 46
23 51 46
23 50 45
23 50 45
22 49 44
23 50 46
23 51 46
23 50 45
23 49 45
23 50 45
23 50 45
23 50 45
23 50 45
22 49 45
22 48 44
21 47 43
21 47 43
21 47 43
22 48 44
21 46 42
21 46 42
22 48 43
22 48 43
21 47 42
22 48 44
21 47 43
22 49 44
22 48 43
22 49 44
22 49 44
22 47 43
22 48 44
21 47 43
22 49 45
22 48 44
22 48 43
22 48 43
22 48 44
22 47 43
23 50 45
22 48 44
22 48 44
22 48 44
22 47 43
22 48 44
22 49 44
22 48 44
22 49 44
22 49 44
22 48 43
22 48 44
22 48 43
22 49 44
23 49 45
23 50 45
23 49 45
22 49 44
22 48 44
22 49 44
22 49 44
22 49 44
22 49 44
23 50 46
22 49 44
23 50 45
23 49 45
22 49 44
23 49 45
23 50 45
22 49 44
23 50 45
23 50 45
23 50 45
23 50 45
23 50 45
23 51 46
23 50 45
22 49 44
23 50 45
23 50 45
23 50 45
23 50 45
23 50 45
23 50 45
23 50 45
23 49 44
22 49 44
23 50 45
23 50 45
23 50 45
23 50 45
23 51 46
22 49 44
23 51 46
23 50 45
23 51 46
23 50 45
23 51 46
23 50 45
23 50 45
23 50 45
23 50 45
23 50 45
23 51 46
23 49 45
23 51 46
23 51 46
23 49 45
23 51 46
23 50 45
23 50 45
23 50 45
23 50 45
24 51 46
23 51 46
23 50 45
23 49 44
23 50 45
23 50 45
22 49 44
24 51 47
22 49 44
23 50 45
23 50 45
22 49 44
23 50 45
23 50 45
23 51 46
23 51 46
23 50 45
24 52 47
23 50 45
23 50 45
22 49 44
22 47 43
22 48 43
21 46 42
21 47 43
22 48 43
21 47 43
21 47 43
21 46 42
23 50 45
22 48 43
22 48 44
21 47 43
21 47 43
22 47 43
21 47 43
21 46 42
21 46 42
22 48 44
22 47 43
21 47 43
22 48 43
22 47 43
23 49 45
22 48 44
22 49 45
70 76 70
141 131 121
174 159 146
162 147 134
68 74 67
22 48 43
22 49 44
23 49 45
22 48 43
22 49 44
22 49 44
22 49 44
22 49 44
22 49 45
23 50 45
22 49 44
22 49 45
23 50 45
22 49 44
23 50 45
33 53 49
35 54 50
25 50 46
23 50 45
23 50 45
23 50 46
23 49 45
23 49 44
23 50 45
23 50 45
23 50 45
23 50 45
23 50 46
23 51 46
23 51 46
23 51 46
23 49 45
23 50 45
22 49 44
23 49 45
23 50 45
23 50 45
23 51 46
23 51 46
24 51 46
23 51 46
23 51 46
23 50 45
23 49 44
23 51 46
23 51 46
23 50 45
24 52 47
23 50 45
23 50 45
23 50 45
23 51 46
23 49 45
23 51 46
23 50 45
23 50 45
23 49 45
23 51 46
23 50 46
23 51 46
23 50 45
23 51 46
23 50 45
23 49 45
23 51 46
24 52 47
24 51 46
23 50 45
23 50 45
23 50 45
23 51 46
23 50 45
23 51 46
23 50 45
23 51 46
23 49 44
24 51 46
23 51 46
23 50 45
23 49 44
23 50 45
23 50 45
23 50 45
23 50 45
23 49 45
23 50 45
22 49 44
23 50 45
23 50 45
23 50 45
21 47 43
21 47 43
21 47 42
22 48 44
21 45 41
22 48 44
21 46 42
21 47 42
22 48 44
21 46 42
21 46 42
21 47 43
22 47 43
22 48 43
22 48 44
22 48 44
22 48 44
22 48 44
22 48 44
22 48 44
22 48 44
21 47 43
22 48 44
22 48 44
91 92 86
184 169 159
199 183 171
210 191 178
242 218 198
237 211 191
127 103 92
22 49 44
22 49 44
22 48 44
22 48 44
22 49 44
22 49 44
22 48 44
23 49 45
21 47 43
23 50 45
23 50 46
23 49 45
23 50 45
62 55 74
93 68 100
101 73 107
131 106 125
76 61 84
29 50 48
23 50 45
23 49 45
22 49 44
23 50 45
23 50 45
22 49 44
23 51 46
23 49 45
23 50 45
23 50 45
23 49 44
22 48 44
23 50 45
22 49 44
126 74 52
154 119 103
165 151 138
121 114 104
29 52 47
23 51 46
23 51 46
23 50 45
23 51 46
23 50 45
23 49 45
23 50 45
23 50 45
23 51 46
23 50 45
23 50 45
23 51 46
23 50 45
24 51 46
23 51 46
23 49 45
24 51 46
23 50 45
24 51 46
23 50 45
22 49 44
23 51 46
23 50 45
23 51 46
24 51 46
24 51 46
23 50 45
23 50 45
23 50 45
23 50 45
23 51 46
23 51 46
24 52 47
23 50 45
23 50 45
23 51 46
23 51 46
23 51 46
23 50 46
23 51 46
23 50 45
23 51 46
23 49 45
22 49 44
23 50 45
23 49 45
23 50 45
23 50 45
23 51 46
23 51 46
22 49 44
22 48 44
22 48 44
22 49 45
22 48 43
22 47 43
21 47 43
21 47 42
22 48 44
22 47 43
22 48 43
22 48 43
22 49 44
22 48 43
21 47 43
22 47 43
22 48 44
22 49 45
21 47 43
22 49 44
22 48 43
22 48 44
22 48 44
22 48 43
41 55 50
149 140 134
170 159 151
180 167 158
193 176 165
204 185 171
223 199 181
210 153 136
62 58 51
22 48 44
22 48 44
22 49 44
22 48 43
23 49 45
22 48 43
23 49 45
23 49 45
23 49 44
22 49 44
22 48 44
58 50 69
79 54 90
81 55 93
85 59 96
120 96 116
110 82 111
77 58 84
23 50 45
22 49 44
23 50 45
22 49 44
22 49 44
22 49 44
22 48 44
22 49 44
23 51 46
23 50 45
23 50 45
22 49 44
28 51 46
183 92 58
224 116 77
209 188 174
241 219 200
230 207 190
190 171 155
41 58 52
23 50 45
23 50 45
23 50 45
23 51 46
24 51 46
23 50 45
23 50 45
23 50 45
23 50 45
23 50 45
24 51 46
23 50 45
23 51 46
25 50 46
33 44 44
75 73 67
109 103 92
146 134 124
116 111 102
24 51 46
23 49 45
23 50 45
24 52 46
23 50 45
23 49 45
23 51 46
23 50 45
23 51 46
23 50 45
23 50 45
23 51 46
23 50 45
23 49 44
23 51 46
23 50 45
23 49 44
23 49 44
23 50 45
23 51 46
23 51 46
23 50 45
23 50 45
23 51 46
23 50 45
23 51 46
23 50 45
23 49 44
23 50 45
23 50 45
23 50 45
22 48 44
21 47 43
21 47 43
21 47 43
22 48 43
21 47 43
21 47 43
22 48 43
22 48 44
21 47 43
21 47 43
21 47 43
21 47 43
21 47 43
22 47 43
22 48 44
21 47 43
22 47 43
22 48 44
22 48 44
22 48 44
22 49 44
22 49 44
81 62 56
146 135 127
152 141 134
158 146 139
167 154 145
170 155 144
182 164 150
182 122 108
98 90 80
22 48 44
21 47 42
22 49 44
23 50 45
22 49 44
22 49 44
22 48 44
22 49 44
23 50 45
22 49 44
33 46 49
66 45 75
78 60 86
123 110 116
141 127 128
149 133 134
129 109 118
86 57 90
42 52 50
23 50 45
23 50 45
23 50 45
23 51 46
22 49 44
23 50 45
23 50 46
22 49 44
22 49 44
23 50 45
23 50 45
123 70 49
193 95 58
196 104 72
184 169 160
189 174 164
196 179 167
203 182 167
147 134 121
23 50 45
23 50 46
23 50 45
23 50 45
23 50 45
23 50 45
23 50 45
23 50 45
23 51 46
23 51 46
23 50 45
22 49 44
43 58 53
45 47 47
34 37 41
47 48 48
169 156 145
202 184 172
207 187 173
106 103 93
23 50 45
23 50 45
23 50 45
23 50 45
23 50 45
22 48 44
23 50 45
23 50 45
23 50 45
23 50 45
23 50 45
23 50 45
23 50 45
23 50 45
23 50 45
23 50 45
23 50 45
23 51 46
23 50 45
23 50 45
23 50 45
23 50 45
23 50 45
23 51 46
23 50 45
23 49 45
22 49 44
22 49 44
23 50 46
23 50 45
22 48 43
21 47 42
21 47 43
21 47 42
21 47 43
21 47 43
21 47 43
22 49 45
22 48 44
21 47 43
22 48 43
21 47 43
22 49 44
22 48 43
21 47 43
22 47 43
21 47 43
22 48 44
22 48 44
22 48 43
21 47 42
22 48 43
22 49 44
79 48 41
131 110 101
129 120 112
131 121 113
126 117 109
126 117 109
135 94 85
148 80 68
85 81 72
22 48 44
22 48 43
22 48 43
22 48 44
22 48 44
22 49 44
23 50 45
22 49 44
23 51 46
22 49 45
40 45 53
78 64 78
138 128 122
153 142 133
152 140 132
149 138 130
156 140 130
119 100 103
88 82 80
22 49 44
22 49 44
23 50 45
22 49 44
22 48 43
22 49 44
22 49 44
22 49 44
23 50 45
23 50 45
22 49 44
133 71 47
163 81 50
166 84 53
164 139 129
165 153 144
164 151 143
171 156 145
167 150 137
38 56 51
23 51 46
22 49 44
23 50 45
23 51 46
23 51 46
22 49 44
23 50 45
23 49 45
23 50 45
23 49 45
23 50 46
84 81 75
29 32 35
28 31 36
66 64 64
174 161 153
177 163 153
179 164 154
163 149 137
32 54 50
23 50 45
23 51 46
24 52 47
23 50 45
23 51 46
23 51 46
23 50 45
23 50 45
23 51 46
23 51 46
23 50 45
22 49 44
23 50 45
23 50 45
23 49 45
23 51 46
23 49 45
23 50 45
22 49 44
23 50 45
23 51 46
23 50 45
22 49 44
23 50 45
23 51 46
23 49 45
23 51 46
23 50 45
23 50 45
21 47 43
21 47 43
21 47 43
21 46 42
22 47 43
21 47 43
22 48 43
21 47 43
22 49 44
21 47 43
21 46 42
22 47 43
22 48 44
22 48 43
21 46 42
22 48 43
21 47 43
21 47 42
22 48 44
22 48 44
22 48 43
22 47 43
22 47 43
48 45 40
95 36 28
100 60 53
100 71 64
102 65 58
98 48 40
101 35 25
100 57 48
59 64 57
22 49 44
22 48 44
22 48 43
22 48 44
22 48 44
22 48 44
23 50 45
22 49 44
22 49 44
22 47 43
35 45 49
104 94 90
120 112 103
122 113 104
125 116 107
126 116 108
124 113 104
121 109 100
68 67 63
23 50 45
22 49 44
23 50 45
22 49 44
22 49 44
22 49 44
23 50 45
22 49 44
23 49 44
23 50 45
26 51 46
119 71 53
141 70 42
149 73 44
155 100 82
137 126 118
138 127 119
135 124 115
124 114 105
27 50 46
23 51 46
23 50 45
23 50 45
23 50 46
23 49 45
22 49 44
23 50 45
24 51 46
22 49 44
23 50 45
23 50 45
75 71 67
112 104 98
110 102 97
87 82 79
153 141 133
150 139 131
148 137 129
144 133 124
58 67 61
22 49 44
23 49 44
22 49 44
23 50 45
23 50 45
23 50 45
23 51 46
22 48 44
24 51 46
23 51 46
23 49 45
23 50 45
23 50 45
23 49 44
23 50 45
22 49 44
23 49 45
22 49 44
23 50 45
23 50 45
23 50 45
22 48 43
23 50 45
22 49 44
23 50 45
23 51 46
23 50 45
22 48 44
23 49 45
21 47 43
21 47 42
21 47 43
22 48 43
21 47 43
21 47 42
21 46 42
22 48 44
22 48 43
22 48 43
22 47 43
21 47 43
21 46 42
22 49 44
21 46 42
21 47 42
22 48 44
22 47 43
22 47 43
21 47 42
21 47 42
22 47 43
22 48 44
22 47 43
60 36 30
64 23 16
56 20 14
51 19 13
53 20 13
56 20 13
56 31 26
29 47 43
22 48 43
22 47 42
22 48 44
22 48 44
21 46 42
22 47 43
22 47 43
22 48 44
22 48 43
21 47 42
23 46 43
74 68 62
90 85 77
93 87 79
88 83 75
81 78 70
91 85 77
77 70 61
28 49 45
22 48 43
22 48 43
23 49 45
22 48 44
22 49 44
22 48 43
23 50 45
22 49 44
23 49 45
23 50 45
22 49 44
94 70 59
102 51 30
116 58 34
130 65 39
118 87 74
107 100 91
100 93 85
89 85 78
25 50 45
23 50 45
23 50 45
22 48 43
22 48 43
22 49 44
23 50 45
22 48 43
23 50 45
23 50 45
23 49 45
26 51 46
90 83 77
103 95 88
111 103 96
84 78 73
132 122 114
130 120 112
123 115 107
117 109 101
45 59 54
22 48 44
22 49 44
23 50 45
23 50 45
23 50 45
23 50 45
23 49 45
22 48 43
23 50 45
23 50 45
23 50 46
22 49 44
23 51 46
23 50 45
22 49 44
23 51 46
23 50 45
24 52 47
22 49 44
22 48 44
23 50 45
23 50 45
23 50 45
23 50 45
23 51 46
23 50 45
22 48 44
22 49 44
22 49 44
21 46 42
21 45 41
21 46 42
21 47 43
21 46 42
21 47 43
22 48 43
22 49 44
21 47 42
21 47 42
21 46 42
21 47 43
21 46 42
22 48 43
21 47 42
21 47 42
22 47 43
21 47 43
21 47 42
21 46 42
21 46 41
21 47 42
21 44 40
20 43 39
18 39 36
18 18 15
11 8 6
13 8 5
24 11 6
29 24 19
23 44 39
21 46 41
21 46 41
22 47 42
21 46 42
22 48 43
22 49 44
22 49 44
22 47 42
22 48 43
22 47 42
21 47 42
22 48 43
33 46 42
37 39 34
19 29 23
35 39 33
37 41 34
39 44 36
39 50 42
22 48 43
22 47 43
22 47 43
22 47 43
22 48 44
22 49 44
22 48 43
22 48 43
22 48 44
22 49 44
22 47 43
23 50 45
36 49 44
78 41 25
81 41 24
76 39 22
76 39 22
84 63 52
75 68 60
56 56 49
22 49 44
23 50 45
23 49 44
22 48 43
22 49 44
22 49 44
23 49 45
22 47 43
23 49 44
22 48 44
23 49 45
23 50 45
48 52 47
79 75 68
83 78 71
49 46 43
97 91 83
101 94 85
92 86 78
90 85 77
28 53 48
23 50 45
23 49 44
22 49 44
23 50 46
23 51 46
23 50 45
22 48 43
23 50 45
23 50 45
22 49 44
23 49 45
22 48 43
23 50 45
23 49 45
23 49 45
23 50 45
22 49 44
23 49 45
23 50 45
23 50 45
23 50 45
23 50 45
22 49 44
22 49 44
23 49 45
23 49 45
22 49 44
23 49 45
23 50 45
22 48 43
21 47 43
21 47 43
22 48 43
21 47 42
21 46 42
21 46 42
21 47 43
21 47 43
22 49 44
21 47 43
21 47 43
22 48 44
22 48 44
21 47 43
21 47 43
22 48 44
21 46 42
21 46 42
21 46 42
19 42 39
16 36 34
14 31 30
13 30 29
13 29 27
11 25 24
9 21 20
9 20 19
12 26 24
16 35 32
20 43 38
21 45 40
21 45 40
21 45 41
22 48 43
22 47 42
22 47 43
21 45 41
21 47 42
22 47 43
21 46 42
18 40 37
17 38 35
15 34 31
10 22 20
8 15 12
8 16 12
9 17 13
14 26 22
19 42 37
20 42 38
22 47 42
22 47 42
21 46 42
22 48 43
22 48 43
22 48 43
22 48 44
22 48 44
22 48 43
22 48 43
21 47 42
25 48 43
23 36 30
13 15 9
20 15 8
14 14 7
15 15 8
37 35 28
26 48 42
22 47 42
23 49 44
22 47 42
23 49 44
22 48 44
23 50 45
23 49 44
23 50 45
23 51 46
22 49 44
22 49 44
22 48 43
30 48 43
20 21 20
15 16 15
6 8 8
47 46 41
46 48 41
60 59 52
53 61 54
22 48 43
22 48 43
23 50 45
22 48 43
23 51 46
23 50 45
22 48 43
22 48 44
22 48 44
23 50 45
22 48 43
22 49 44
22 48 44
23 50 45
22 49 44
22 49 44
22 49 44
23 51 46
22 48 44
22 49 44
23 50 45
22 49 44
23 50 45
22 48 43
22 48 44
22 49 44
22 49 44
23 50 45
23 50 45
23 51 46
21 47 43
21 47 43
21 46 42
21 46 42
21 46 42
21 47 43
21 47 42
22 47 43
21 47 42
21 47 43
21 47 43
21 47 43
21 47 42
21 46 42
21 46 42
21 46 42
21 47 43
21 47 42
21 46 42
21 46 42
21 46 42
20 43 40
20 43 40
19 42 39
19 42 39
19 42 39
19 42 39
20 44 40
21 46 42
21 46 42
22 47 43
21 46 41
22 47 42
22 47 43
22 48 44
21 47 42
22 47 43
22 47 43
22 47 43
21 45 41
18 41 37
16 36 34
15 33 31
14 33 31
13 29 27
13 30 28
14 31 28
16 36 33
18 39 35
20 44 39
21 45 41
21 45 41
22 47 42
22 47 43
22 48 43
22 47 43
22 49 44
23 49 44
22 49 44
21 45 41
21 45 41
16 36 33
14 31 29
11 26 25
9 19 17
8 16 14
8 13 12
9 20 18
14 30 28
19 41 36
21 46 41
21 46 41
22 47 43
22 47 43
22 47 43
22 48 43
22 47 43
22 48 43
22 49 44
22 48 44
21 47 42
21 45 40
20 43 38
19 34 30
4 10 9
1 3 3
4 8 6
9 17 14
16 35 31
20 44 39
21 46 41
22 47 43
22 49 44
22 48 44
22 49 44
22 47 43
22 48 44
23 49 45
23 50 45
22 48 44
22 48 44
22 48 44
22 49 44
22 49 44
22 49 44
22 49 44
23 49 45
22 48 44
22 49 45
22 48 44
22 49 44
22 48 44
23 50 45
23 50 45
22 49 44
22 49 44
22 49 44
22 49 44
22 49 44
23 50 45
21 46 42
21 47 43
21 45 41
21 47 43
21 46 42
22 49 44
22 48 43
21 47 43
21 46 42
21 47 42
21 47 42
22 48 44
22 48 43
22 47 43
21 46 42
22 47 43
21 47 42
21 47 43
22 47 43
22 48 44
21 47 42
21 46 42
22 47 43
21 47 43
22 47 43
21 46 42
21 47 42
21 47 43
22 47 43
22 48 44
22 47 43
22 48 43
22 49 44
22 48 43
22 48 43
22 48 44
22 48 44
21 47 42
22 48 43
22 48 44
21 46 42
22 47 43
22 47 43
21 46 42
21 46 41
21 47 42
22 48 44
22 48 43
21 47 42
21 47 42
22 48 43
22 47 43
22 48 43
21 47 42
23 49 45
22 47 43
22 48 43
22 48 43
22 47 43
22 47 43
20 44 40
20 44 40
18 40 38
16 36 34
16 37 35
17 37 34
17 38 35
18 39 35
19 43 38
21 46 41
22 48 43
22 49 44
22 47 43
22 48 43
22 47 43
22 48 43
22 48 44
23 49 44
22 48 43
22 47 43
22 48 43
19 42 38
15 34 32
11 26 25
11 25 24
9 22 21
9 21 20
9 21 20
12 28 26
15 33 30
20 43 38
21 46 42
21 47 42
22 49 44
22 49 44
22 49 44
23 50 45
22 48 44
22 48 43
23 51 46
23 49 45
22 48 43
22 49 44
22 49 44
23 50 45
22 48 43
22 48 44
23 50 45
22 49 44
22 49 44
23 50 45
22 49 44
23 50 45
22 49 44
22 48 43
22 49 45
22 49 44
22 49 45
22 48 44
23 50 45
21 47 43
21 47 43
21 47 42
21 46 42
21 47 43
22 48 44
21 46 42
22 48 43
21 47 43
21 47 43
22 47 43
21 46 42
21 47 43
21 47 42
22 48 44
21 47 43
21 46 42
21 47 43
22 48 44
22 48 44
22 48 43
21 47 42
22 48 43
22 48 44
22 47 43
21 47 42
22 49 44
22 47 43
21 46 42
21 47 42
22 48 44
22 48 43
22 48 44
22 48 43
22 49 44
22 49 44
21 47 43
21 47 43
22 47 43
21 47 43
21 46 42
22 48 43
22 49 44
21 47 43
22 47 43
22 48 44
22 48 43
22 48 44
22 47 43
22 47 43
22 48 43
22 48 44
22 48 43
22 47 43
22 48 43
22 47 43
22 48 44
22 48 43
22 48 43
22 47 43
22 47 43
22 48 44
22 47 43
22 47 43
22 47 43
22 47 42
22 47 43
22 48 44
23 50 45
22 48 43
22 48 43
22 48 44
22 48 44
22 48 43
22 48 43
22 48 44
22 48 43
22 49 44
22 48 43
22 47 43
22 48 43
22 48 43
21 47 43
20 43 39
18 41 38
19 42 38
19 43 39
20 43 40
19 43 39
21 46 41
22 48 43
22 47 43
22 47 43
22 48 43
22 49 44
23 49 45
22 48 44
22 49 44
21 47 42
22 49 44
23 51 46
22 49 44
22 49 44
23 50 45
22 48 44
22 49 44
22 49 44
22 48 44
22 49 44
22 48 44
22 48 43
21 47 42
22 48 43
22 49 44
21 47 43
22 48 44
22 49 44
22 47 43
22 49 45
22 49 44
21 47 43
21 46 42
21 46 42
21 46 42
22 48 44
21 47 43
22 48 43
21 47 43
21 47 43
22 48 44
22 49 45
22 48 43
21 47 43
21 47 43
21 47 43
21 47 43
22 48 43
21 47 43
21 47 42
21 45 41
22 49 45
21 47 43
21 47 43
22 48 44
21 47 43
22 48 43
21 46 42
21 46 42
22 47 43
22 48 44
21 47 42
21 47 43
22 49 44
22 48 43
22 48 43
22 48 43
21 47 43
21 47 43
22 48 43
22 48 44
22 48 44
22 49 44
21 47 43
22 48 44
22 48 44
22 48 44
21 47 43
22 47 43
22 47 43
22 49 44
22 48 44
21 47 43
22 47 43
22 48 43
22 48 44
22 49 44
22 49 44
22 48 44
22 48 43
23 49 45
22 48 44
22 49 44
22 48 44
22 47 43
22 49 44
22 48 44
22 49 44
22 47 43
21 47 43
22 48 44
23 49 45
22 49 45
22 47 43
22 48 44
22 48 44
21 47 42
22 48 44
22 49 44
23 50 45
22 48 43
22 47 43
22 49 45
22 48 43
22 48 43
21 47 43
23 50 45
22 49 44
22 48 43
22 47 43
22 49 44
22 48 44
22 48 43
22 48 44
22 48 44
22 48 43
23 50 45
22 49 44
22 47 43
22 48 44
23 50 45
22 49 44
22 48 44
22 49 44
22 49 44
23 50 45
22 49 44
21 47 42
22 49 44
21 47 43
22 49 44
23 50 45
22 48 44
22 49 44
22 49 44
22 48 43
22 49 44
22 48 44
22 49 44
22 48 43
21 47 43
21 47 43
21 46 42
21 47 43
21 47 43
22 48 44
22 48 44
21 47 43
21 47 43
21 47 43
22 48 44
21 46 42
21 47 43
21 46 42
21 46 42
21 47 43
22 48 43
21 47 43
21 46 42
22 48 43
21 46 42
22 48 44
22 47 43
21 47 43
22 48 44
21 47 43
21 47 43
22 48 43
21 47 43
21 46 42
22 47 43
21 47 43
21 47 42
21 47 42
21 47 43
22 49 45
21 47 43
22 48 44
22 48 43
21 47 43
23 51 46
22 48 43
22 48 43
22 48 44
22 48 44
22 48 44
22 49 45
22 49 45
21 47 43
22 47 43
22 48 44
23 49 45
22 48 44
22 48 44
22 49 44
22 48 43
22 48 44
22 48 44
22 47 43
22 49 44
22 48 44
22 48 44
22 49 44
22 48 43
22 49 44
22 48 44
22 49 44
22 49 44
21 47 43
22 48 43
22 49 44
22 48 43
21 47 43
22 48 43
22 48 44
22 48 44
21 46 42
21 46 42
22 48 44
22 49 45
21 47 43
22 48 44
22 48 44
21 46 42
22 47 43
21 47 42
22 48 43
22 48 44
22 48 44
22 48 43
22 49 45
22 48 43
22 49 44
22 47 43
22 49 44
23 50 45
22 48 43
22 48 43
22 48 44
22 49 44
22 49 44
22 48 44
21 46 42
22 48 44
22 49 44
22 48 44
22 48 44
22 49 44
22 47 43
22 48 44
22 48 43
22 49 44
22 48 43
22 48 44
22 48 43
22 47 43
22 48 43
22 47 43
22 48 44
22 48 44
22 48 43
21 45 41
21 47 43
21 47 43
21 46 42
21 45 41
21 46 42
22 48 43
21 47 43
21 46 42
21 46 42
21 47 43
22 47 43
21 46 42
21 47 42
22 48 43
21 46 42
21 47 43
21 46 42
21 47 43
21 47 43
21 46 42
21 46 42
21 47 43
21 47 43
22 48 43
21 47 43
22 48 43
21 47 43
21 46 42
22 48 44
22 48 44
22 49 45
22 48 43
22 48 44
22 48 43
22 49 45
22 48 44
22 47 43
21 47 42
22 49 44
21 46 42
22 48 43
21 46 42
22 48 44
21 47 43
21 47 43
22 48 44
21 46 42
22 48 44
21 47 43
21 47 43
22 48 44
22 48 44
22 49 44
22 48 44
22 48 44
22 49 45
22 47 43
23 49 45
22 49 44
22 49 44
21 47 43
21 47 42
22 48 44
22 48 43
22 48 43
22 48 44
21 47 43
22 48 44
21 47 43
22 49 44
22 48 44
22 49 44
22 48 44
21 47 43
22 48 44
22 48 43
21 47 42
21 47 43
22 48 43
22 47 43
22 48 44
22 48 43
22 48 43
22 48 44
22 48 43
22 49 45
22 47 43
22 49 44
22 48 44
22 48 43
22 48 44
22 48 44
22 49 44
22 48 43
22 47 43
22 48 43
22 49 44
23 49 45
23 49 45
22 49 44
22 48 44
22 48 43
22 48 44
22 48 43
22 49 45
22 48 43
22 48 43
22 48 43
22 48 43
22 47 43
22 48 43
21 47 43
22 49 44
22 48 44
22 48 44
21 47 42
22 48 43
21 47 43
23 50 45
21 47 43
21 47 43
22 48 44
21 47 43
20 45 41
21 46 42
21 47 43
21 46 42
21 47 43
21 46 41
21 46 42
21 46 42
21 46 42
21 47 42
22 48 44
21 47 42
21 46 42
21 46 42
21 47 43
21 46 42
21 47 43
22 48 43
22 48 44
21 47 43
22 48 43
21 47 43
21 47 43
21 46 42
22 48 43
22 48 43
21 46 42
22 48 43
21 47 43
22 48 44
22 48 44
21 47 42
22 48 44
22 48 43
21 47 43
21 47 43
21 47 43
21 47 43
22 47 43
21 47 42
22 48 44
21 47 43
22 48 44
21 47 43
22 48 44
21 47 43
22 48 44
22 48 43
22 47 43
21 46 42
22 49 44
22 47 43
22 48 44
21 47 43
21 46 42
21 47 43
22 47 43
22 47 43
22 48 44
22 48 43
22 49 44
22 48 43
22 47 43
22 49 45
22 48 44
22 48 44
22 48 43
22 48 44
22 47 43
22 48 43
22 47 43
22 48 44
21 47 43
22 48 44
22 48 43
22 48 44
21 47 43
22 48 44
22 48 44
22 48 44
22 49 44
21 47 43
22 48 43
21 47 43
22 48 43
22 48 44
22 48 43
22 48 44
22 48 44
22 49 45
22 48 44
22 48 44
22 48 44
22 47 43
22 49 44
22 48 44
22 48 44
22 49 45
22 49 44
22 48 44
22 49 44
22 49 44
22 48 43
22 49 44
22 48 43
22 47 43
22 48 44
22 48 44
23 49 45
22 49 45
22 49 45
22 47 43
22 48 44
22 48 44
22 49 44
22 48 44
21 46 42
21 46 42
21 47 43
21 47 43
21 46 42
21 47 43
21 46 42
21 46 42
21 46 42
21 47 42
21 47 43
21 46 42
21 47 43
21 47 42
21 46 42
21 46 42
21 46 42
21 47 43
21 47 43
22 47 43
21 46 42
21 47 43
21 46 42
21 47 43
21 47 43
21 46 42
22 47 43
22 48 43
21 47 43
21 46 42
21 47 43
22 48 44
21 47 43
22 48 43
22 47 43
21 46 42
21 47 43
22 48 43
21 47 43
21 47 43
21 47 43
22 48 44
21 46 42
22 48 43
21 47 43
22 48 44
22 49 44
21 47 43
21 47 42
22 48 43
22 49 44
22 48 43
21 47 43
21 47 43
21 47 42
21 47 42
21 46 42
21 47 43
22 48 44
22 48 44
21 47 42
21 47 43
22 49 44
22 48 44
22 47 43
21 47 43
22 48 44
21 47 42
22 49 45
21 47 43
22 48 44
21 46 42
22 48 44
22 48 44
22 48 44
22 47 43
22 48 44
22 48 44
22 48 44
22 48 43
22 48 43
22 48 43
22 49 45
22 48 44
22 48 44
22 48 43
21 46 42
22 48 44
21 47 43
22 48 44
22 48 43
22 48 44
22 48 44
22 47 43
22 48 44
22 47 43
22 48 44
22 48 44
22 49 44
22 49 44
22 48 44
22 48 44
22 48 44
22 49 44
22 49 45
22 48 44
21 46 42
22 49 44
22 48 44
22 48 44
22 48 43
22 48 43
22 48 43
22 48 44
21 47 42
22 48 43
21 47 42
22 49 44
22 47 43
22 48 44
21 47 43
21 47 43
21 46 42
21 46 42
21 47 43
21 47 43
21 46 42
21 46 42
22 48 44
21 46 42
21 47 43
21 47 43
21 47 43
21 46 42
20 45 41
21 46 42
21 46 42
21 47 43
21 47 43
21 46 42
21 47 43
22 48 43
21 46 42
21 47 43
21 46 42
22 48 44
21 47 43
21 47 43
21 47 43
21 47 43
22 48 43
21 46 42
21 47 43
21 47 43
22 48 43
22 49 44
22 48 43
21 46 42
22 47 43
21 47 43
22 48 43
21 47 43
21 47 43
21 47 43
22 49 44
22 47 43
22 48 43
22 48 43
22 48 44
22 48 44
22 48 44
22 48 43
21 46 42
21 46 42
22 49 44
22 48 43
21 47 43
21 46 42
21 47 42
22 48 43
22 49 44
21 45 41
22 48 43
22 48 44
22 47 43
22 48 43
21 47 43
21 47 43
22 49 44
21 47 43
21 47 42
22 47 43
22 48 44
22 48 44
21 47 43
22 48 43
22 48 44
22 48 43
22 48 44
22 48 43
22 49 44
22 48 44
22 48 43
21 47 43
22 48 44
23 50 45
22 47 43
22 47 43
22 48 43
22 49 45
21 47 42
22 48 44
22 48 43
22 48 43
22 47 43
22 47 43
21 47 43
22 47 43
22 48 43
21 47 43
22 48 44
22 48 43
21 47 43
22 48 44
21 47 43
22 47 43
21 47 43
22 48 43
22 48 44
22 48 44
22 47 43
22 49 44
21 46 42
21 47 43
21 47 43
21 47 43
22 48 44
21 47 43
21 47 43
22 48 43
21 46 42
21 46 42
20 45 41
21 46 42
21 46 42
21 46 42
21 47 43
21 45 42
21 47 43
20 45 41
21 47 43
21 46 42
22 48 44
21 46 42
21 46 42
21 47 43
21 47 43
21 47 42
21 46 42
21 46 42
21 46 42
21 46 42
22 47 43
21 46 42
22 48 44
21 47 43
21 47 43
21 47 42
21 47 43
21 46 42
22 48 44
21 47 43
21 47 43
21 47 43
21 47 43
21 47 42
21 47 43
22 48 43
21 47 43
21 46 42
22 47 43
21 47 43
21 47 43
21 47 43
22 48 43
22 48 44
22 48 43
21 47 43
21 47 43
21 46 42
21 47 43
22 48 44
22 48 43
21 47 43
22 48 44
22 47 43
22 48 44
22 48 43
21 46 42
22 47 43
21 47 43
22 49 44
22 49 44
21 46 42
22 47 43
22 48 44
22 49 44
22 49 44
22 48 44
22 48 44
21 47 43
22 48 43
22 48 43
22 47 43
21 46 42
21 47 43
22 48 44
21 47 42
22 48 44
21 47 43
22 49 45
21 47 43
21 47 43
22 47 43
21 47 43
22 48 43
21 46 42
22 47 43
22 48 43
22 48 44
22 48 43
22 48 43
21 47 42
21 47 43
22 47 43
21 47 43
22 48 44
21 47 43
21 47 43
22 48 44
22 48 44
21 47 42
22 48 44
22 48 44
22 47 43
22 48 43
21 46 42
21 47 43
22 47 43
22 47 43
22 48 43
22 49 44
22 48 44
22 48 44
21 47 43
22 48 44
22 48 43
21 47 42
22 48 43
21 47 43
20 45 41
21 47 43
21 46 42
21 46 42
21 46 42
20 45 41
20 45 41
21 46 42
21 46 42
20 45 41
21 47 43
21 46 42
21 46 42
21 46 42
21 47 43
22 48 44
21 46 42
21 46 42
21 47 43
22 48 44
22 48 43
21 46 42
21 46 42
21 46 42
21 47 43
21 47 43
21 47 43
21 47 43
21 47 43
21 47 43
22 48 43
21 47 43
21 47 43
20 45 41
21 47 43
21 46 42
21 47 43
22 48 44
21 47 42
21 46 42
21 47 43
21 46 42
22 48 44
22 48 44
21 46 42
22 48 43
21 46 42
22 48 44
21 47 43
22 48 43
21 47 43
21 47 42
21 47 43
22 48 44
21 46 42
21 47 43
22 47 43
22 47 43
21 47 43
21 47 42
22 47 43
21 47 43
21 47 43
21 47 43
21 47 43
21 47 43
22 48 43
22 48 44
21 46 42
21 47 43
21 47 43
22 48 44
21 47 43
21 47 43
22 47 43
21 46 42
21 46 42
22 48 44
21 47 43
21 47 43
21 47 43
21 47 43
22 48 44
21 47 43
22 47 43
21 47 43
22 48 43
22 48 43
22 48 44
22 48 44
22 47 43
21 47 43
21 47 42
22 48 43
22 47 43
22 48 44
22 47 43
22 48 43
22 48 44
21 47 43
22 48 44
22 47 43
21 47 43
21 47 43
22 47 43
21 47 43
22 48 44
21 47 43
21 47 43
21 47 42
22 48 43
22 48 44
22 48 43
22 48 44
22 48 43
23 50 45
21 47 43
21 47 43
21 47 42
22 48 43
20 45 41
21 47 43
20 45 41
21 46 42
21 46 42
21 46 42
21 46 42
20 45 41
20 45 41
20 45 42
21 47 43
21 47 43
21 46 42
21 46 42
21 47 43
20 45 41
21 46 42
21 46 42
21 47 43
21 47 43
21 46 42
21 45 41
21 45 41
21 47 43
21 46 42
21 47 43
21 46 42
21 46 42
21 46 42
21 46 42
21 47 43
21 47 43
21 46 42
21 47 42
21 47 43
21 47 43
21 47 43
22 48 44
21 46 42
21 47 43
21 46 41
21 47 43
21 47 42
21 47 43
21 46 42
21 47 43
22 49 45
21 46 42
21 47 43
21 46 42
21 47 43
22 48 43
22 48 44
21 46 42
22 48 44
22 47 43
22 47 43
21 47 43
21 46 42
22 48 43
21 46 42
22 48 44
21 47 43
21 47 43
22 47 43
21 47 43
22 48 43
22 48 44
21 47 43
22 48 44
22 48 43
21 47 43
21 47 43
21 47 42
22 47 43
21 47 43
21 47 42
21 47 42
21 47 43
22 48 43
21 47 43
21 47 42
22 49 44
22 48 43
21 47 43
21 46 42
21 47 42
21 47 43
22 48 43
22 47 43
21 47 42
21 46 42
22 48 43
22 47 43
22 48 44
21 47 43
21 46 42
21 46 42
21 47 43
21 47 43
22 48 43
21 47 43
21 46 42
21 47 42
21 46 42
22 48 44
21 47 43
21 47 43
22 48 44
21 47 43
21 47 43
22 48 44
22 48 43
21 46 42
22 47 43
21 46 42
21 47 43
21 46 42
22 47 43
21 47 43
21 46 42
20 45 42
21 47 43
20 45 41
21 46 42
21 47 43
21 47 43
21 47 43
21 46 42
20 45 41
21 45 41
21 45 41
21 47 43
21 47 43
21 47 43
21 47 43
21 47 42
21 47 43
21 46 42
21 46 42
21 47 43
21 47 43
21 46 42
21 46 42
21 47 43
21 45 41
21 47 43
21 46 42
21 46 42
21 47 43
21 46 42
21 47 43
21 47 43
21 47 43
21 47 43
21 47 43
21 47 43
21 46 42
21 47 43
21 46 42
21 47 42
21 47 43
21 47 43
21 47 43
21 47 43
21 47 43
21 47 43
21 46 42
21 46 42
21 46 42
21 46 42
21 46 42
22 48 43
22 48 43
21 47 43
21 46 42
21 46 42
21 47 43
21 46 42
21 46 42
21 47 43
21 46 42
21 46 42
22 47 43
21 46 42
21 47 43
21 47 43
22 47 43
21 46 42
22 48 44
21 46 42
22 48 43
22 48 44
22 47 43
21 47 43
21 47 43
21 46 42
21 47 43
21 47 43
21 47 42
21 47 43
21 45 41
22 48 43
21 46 42
21 47 43
21 47 43
21 47 43
21 47 43
21 47 43
22 48 43
21 47 43
21 46 42
22 48 44
22 47 43
21 46 42
22 48 44
21 47 43
21 47 43
21 47 43
22 48 43
22 47 43
22 48 44
21 46 42
21 47 42
21 47 43
22 49 45
21 47 43
21 47 43
22 48 43
21 46 42
21 46 42
21 47 42
21 46 42
21 46 42
21 47 43
22 48 44
22 47 43
22 48 44
21 47 43
21 47 43
21 47 43
21 47 43
21 47 43
21 46 42
21 46 42
21 47 43
21 46 42
21 47 43
21 45 42
21 46 42
21 46 42
21 47 43
21 46 42
21 46 42
21 47 43
21 46 42
21 46 42
21 47 43
21 46 42
21 46 42
21 45 41
21 46 42
21 47 43
20 44 40
21 46 42
21 47 43
21 46 42
21 46 42
22 48 44
21 47 43
21 46 42
21 46 42
21 46 42
21 46 41
21 47 43
21 46 42
21 47 43
20 44 41
21 46 42
21 46 42
21 47 43
21 47 43
21 46 42
21 47 43
22 48 44
21 47 43
21 47 43
21 47 43
21 47 43
21 46 42
21 47 43
22 47 43
21 47 43
21 47 43
22 48 44
21 46 42
21 47 43
21 47 43
21 47 43
21 47 43
21 46 42
21 47 43
21 47 42
21 46 42
22 47 43
21 47 43
21 47 43
22 48 44
21 47 43
21 47 43
22 48 43
21 47 43
21 47 43
22 48 43
22 48 44
22 47 43
21 47 43
21 46 42
21 47 43
21 47 42
22 48 43
21 47 43
22 48 43
21 47 42
21 47 43
21 46 42
21 45 41
22 47 43
21 47 43
21 47 43
21 47 42
21 47 43
22 48 43
22 49 44
21 47 43
22 47 43
22 48 43
22 47 43
22 48 44
21 46 42
21 46 42
22 49 45
22 48 43
22 48 43
21 46 42
21 47 43
22 48 43
21 47 43
21 47 43
22 48 44
22 47 43
21 46 42
21 47 43
21 47 43
22 48 44
21 47 43
22 48 44
21 47 43
22 48 44
21 46 42
21 46 42
20 45 41
21 45 42
21 46 42
20 45 41
21 47 43
21 47 43
21 47 43
21 47 43
21 45 41
21 45 41
21 47 43
21 46 42
21 47 43
21 47 43
21 46 42
21 46 42
21 46 42
21 45 41
21 46 42
21 46 42
20 45 41
21 46 42
21 46 42
21 46 42
21 46 42
21 46 42
21 46 42
21 46 42
21 47 43
21 47 43
21 46 42
21 46 42
21 46 42
21 47 43
21 47 43
21 46 42
21 46 42
21 47 43
21 46 42
21 47 42
21 47 43
21 45 41
21 46 42
21 47 43
21 46 42
21 46 42
21 46 42
21 46 42
21 47 43
21 47 43
22 48 43
21 47 43
21 47 42
21 46 42
21 47 43
21 47 43
21 45 41
21 47 42
21 47 42
21 47 43
21 47 42
22 48 44
21 47 43
21 47 43
21 47 42
21 46 42
21 47 43
22 47 43
22 48 43
22 47 43
21 47 43
22 47 43
21 46 42
21 47 43
22 48 44
22 47 43
22 48 43
21 46 42
22 47 43
21 46 42
22 47 43
21 47 42
22 48 44
21 46 42
21 45 41
21 47 42
22 48 43
21 46 42
21 45 41
21 46 42
22 48 43
21 47 43
22 47 43
21 46 42
22 47 43
22 47 43
21 47 43
22 48 44
21 47 43
22 47 43
21 47 43
21 46 42
21 47 43
21 47 43
22 48 43
21 47 42
21 47 42
22 48 43
21 47 43
21 47 43
21 47 43
22 48 43
21 47 42
21 47 43
21 47 43
21 46 42
21 46 42
21 47 43
21 47 43
21 46 42
21 46 42
20 45 41
21 46 42
21 46 42
20 44 41
21 46 42
21 47 43
21 45 42
21 46 42
20 45 41
21 46 42
20 45 41
21 47 43
21 46 42
21 47 43
21 47 43
21 47 43
21 46 42
21 46 42
21 47 43
21 46 42
21 47 43
21 46 42
20 45 41
21 46 42
21 45 42
21 46 42
20 45 42
21 47 43
21 46 42
21 46 42
21 46 42
21 46 42
21 47 43
21 46 42
21 46 42
21 47 43
21 46 42
21 45 41
22 48 43
21 46 42
21 47 42
21 47 43
20 45 41
21 47 43
20 45 41
21 47 43
21 46 42
21 46 42
21 47 43
21 46 42
21 46 42
21 46 42
21 46 42
22 47 43
21 46 42
21 46 42
21 45 41
21 45 41
21 46 42
21 47 43
21 46 42
21 46 42
22 47 43
21 47 43
21 47 43
21 47 43
21 46 42
21 46 42
21 46 42
22 48 43
21 47 43
21 46 42
21 46 42
22 47 43
21 46 42
22 47 43
22 47 43
22 48 44
22 48 43
22 47 43
21 47 42
21 46 42
22 47 43
22 48 44
22 47 43
22 47 43
22 47 43
21 46 42
22 47 43
21 46 42
22 48 44
21 45 41
21 46 42
21 46 42
21 46 42
21 46 42
21 46 42
22 48 44
21 47 42
22 48 44
22 48 44
21 46 42
22 47 43
22 48 43
21 46 42
21 46 42
22 48 44
22 48 44
21 46 42
22 47 43
21 46 42
21 47 43
21 46 42
21 46 42
22 48 44
22 48 43
21 47 43
22 47 43
20 45 41
20 45 41
21 47 43
21 47 43
21 46 42
21 47 43
21 46 42
21 46 42
21 47 43
21 46 42
21 46 42
21 46 43
20 45 41
21 46 42
21 46 42
21 47 43
21 46 42
21 47 43
21 46 42
20 45 41
21 46 42
21 47 43
21 47 42
20 45 41
21 46 42
20 45 41
21 47 43
21 46 42
20 45 41
21 46 42
21 46 42
21 46 42
21 46 42
21 46 42
21 46 42
21 46 42
20 44 41
21 46 42
21 46 42
21 45 42
21 47 43
21 45 42
21 47 43
21 46 42
21 46 42
21 46 42
21 46 42
21 47 43
21 46 42
21 46 42
21 47 43
21 46 42
21 46 42
21 47 43
21 46 42
21 46 42
20 45 41
21 46 42
21 47 43
22 47 43
21 46 42
21 46 42
21 46 42
21 46 42
22 47 43
21 46 42
21 46 42
21 46 42
21 46 42
22 49 44
21 47 42
21 46 42
21 46 42
22 48 43
22 47 43
22 47 43
22 46 42
21 46 42
22 47 43
22 47 43
22 47 43
21 46 42
22 47 43
22 47 43
22 47 42
22 47 43
22 47 42
22 47 43
22 47 43
22 47 43
21 46 42
22 47 43
22 47 43
22 46 42
22 47 43
21 44 40
21 46 42
21 46 42
22 48 44
22 48 43
21 46 42
21 46 42
21 47 43
21 46 42
22 48 44
21 46 42
21 46 42
22 47 43
21 46 42
21 47 43
21 47 43
21 47 43
22 47 43
21 46 42
22 48 43
21 47 43
21 47 43
22 47 43
22 48 44
21 47 43
21 46 43
21 47 43
21 46 42
21 46 42
21 47 43
20 45 41
21 46 42
21 47 42
20 45 41
22 48 44
21 46 42
21 47 43
22 48 43
21 46 42
21 46 42
21 46 42
20 45 41
21 46 42
21 46 42
21 46 42
21 46 42
21 46 42
20 45 41
21 46 42
21 46 42
21 47 43
21 46 42
21 46 42
21 46 42
21 46 42
21 47 43
21 46 42
21 46 42
21 46 42
21 46 42
21 47 43
20 45 41
21 46 42
21 46 42
21 47 43
21 46 42
21 46 42
21 46 42
20 45 41
21 45 41
20 45 41
21 47 43
21 47 43
21 47 43
21 47 43
21 45 41
21 47 43
21 47 43
21 47 43
21 46 42
20 45 41
21 47 43
21 46 42
21 47 43
22 47 43
21 47 43
22 47 43
21 47 43
22 47 43
22 47 43
21 46 42
22 47 43
22 47 43
22 47 43
22 47 43
22 47 43
23 49 44
22 47 43
22 46 42
22 47 43
22 47 43
22 47 43
21 45 41
22 47 42
22 46 42
22 46 42
22 47 42
23 49 44
22 47 42
22 47 43
22 46 42
22 47 43
23 48 43
22 46 42
23 48 44
22 47 43
22 48 43
22 46 42
22 48 44
22 47 43
22 47 43
22 46 42
22 47 43
22 47 43
22 47 43
21 46 42
22 47 42
22 47 42
21 47 42
21 47 43
21 46 42
22 48 43
21 47 43
22 48 44
21 47 43
21 46 42
21 46 42
21 47 42
22 48 44
21 47 43
22 47 43
21 47 43
21 47 43
21 47 43
21 47 43
21 47 43
21 46 42
21 45 42
21 46 42
21 46 42
21 46 42
20 45 41
21 46 42
21 46 42
21 46 42
21 46 42
21 46 42
20 44 41
20 45 41
21 46 42
21 47 43
21 46 42
21 46 42
21 46 42
21 46 42
22 48 44
20 45 41
21 46 42
20 45 42
21 46 42
21 46 42
21 46 42
20 45 41
21 47 43
21 47 43
21 46 42
21 46 42
21 46 42
21 46 42
21 46 42
21 46 42
21 46 42
21 47 43
21 46 42
20 45 41
21 46 42
21 46 42
21 46 42
21 46 42
21 46 42
21 47 43
21 46 42
21 47 43
21 47 43
21 45 41
21 46 42
21 46 42
21 46 42
21 46 42
21 47 43
21 47 42
21 46 42
21 46 42
21 46 42
21 46 42
22 47 43
22 47 43
22 48 43
21 46 42
22 46 42
21 46 41
22 47 43
22 46 42
22 47 43
22 47 43
22 46 42
22 46 42
22 47 43
22 46 42
23 48 44
22 47 43
22 46 42
23 49 44
22 46 42
22 47 43
23 47 43
22 47 42
23 47 43
23 47 43
23 47 43
22 46 42
23 47 43
23 48 43
22 46 42
23 47 43
22 47 43
23 48 44
22 47 43
22 47 43
22 47 43
22 46 42
22 47 42
22 46 42
21 45 41
22 47 43
22 47 43
22 48 43
22 47 43
21 46 42
22 47 43
22 47 43
22 47 43
21 46 42
21 46 42
21 46 42
21 47 43
21 46 42
21 47 43
22 47 43
21 47 43
21 46 42
21 46 42
21 47 42
21 46 42
21 46 42
20 45 41
21 47 43
21 46 42
20 44 41
20 45 41
21 46 42
20 45 41
21 46 42
21 46 42
20 45 41
20 45 41
21 46 42
21 47 43
21 46 42
20 45 41
21 47 43
21 46 42
21 46 42
21 46 42
21 46 42
20 45 42
20 45 41
20 44 41
21 47 43
21 46 42
21 45 42
21 46 42
22 48 43
21 47 43
21 46 42
21 46 42
21 47 43
20 45 42
21 46 42
20 45 41
20 45 41
20 45 42
21 45 42
21 47 43
21 47 43
22 48 44
20 45 41
20 45 41
20 45 41
21 46 42
22 47 43
20 44 41
21 46 42
21 46 42
21 45 41
21 45 42
21 47 43
21 46 42
22 48 44
21 46 42
21 45 41
21 46 42
22 47 43
22 47 43
22 48 43
22 47 43
21 45 42
21 45 41
22 47 43
22 47 43
22 47 43
22 46 42
23 47 43
23 47 43
23 47 43
23 47 43
23 48 44
23 48 43
22 46 42
23 48 44
23 47 43
23 46 42
23 47 43
24 48 44
23 47 43
23 46 42
23 46 42
24 49 44
23 46 42
23 46 42
23 47 43
24 48 44
23 46 42
23 47 43
23 47 43
22 46 42
23 46 42
22 46 42
23 47 43
23 47 43
23 47 43
23 47 43
23 47 43
23 48 44
23 47 43
22 47 42
22 47 43
21 45 41
23 48 43
22 47 43
22 46 42
22 48 44
22 47 43
22 47 43
22 48 44
21 46 42
21 46 42
22 47 43
21 46 42
21 46 42
21 46 42
21 45 41
22 47 43
21 45 41
22 48 43
20 45 41
20 45 41
21 47 43
21 46 42
20 44 41
20 45 41
20 45 41
21 46 42
21 46 42
21 47 43
21 46 42
20 45 41
21 45 42
21 46 42
21 46 43
21 46 42
21 47 43
20 45 41
21 46 42
21 45 42
20 45 41
21 46 42
21 46 42
21 46 42
20 45 42
21 46 42
21 45 42
20 45 41
21 46 42
21 46 42
21 47 43
20 45 41
21 46 42
21 47 43
21 46 42
20 45 41
21 47 43
21 46 42
21 46 42
22 47 43
21 45 42
21 45 42
21 45 42
21 46 42
21 45 42
21 46 42
21 46 42
22 47 43
21 46 42
22 47 43
21 46 42
21 45 41
21 46 42
21 46 42
21 45 41
22 46 42
22 47 43
21 46 42
22 47 43
22 48 43
22 46 42
22 46 42
23 48 44
22 46 42
23 47 43
23 47 43
23 48 44
23 46 42
23 47 43
23 48 43
23 47 43
24 48 43
23 47 43
23 47 42
24 48 44
24 47 43
24 48 44
24 48 44
24 47 43
24 47 43
24 48 43
24 48 43
24 47 43
24 47 43
24 46 42
24 47 43
24 48 44
25 49 44
24 47 43
24 47 42
24 48 43
24 48 44
24 48 44
24 47 43
24 48 44
24 48 44
23 45 41
23 47 43
23 48 43
24 48 44
23 48 44
23 46 42
23 47 42
23 47 43
23 47 43
22 46 42
22 47 43
22 47 43
22 47 43
22 48 44
22 47 43
21 45 42
22 48 44
21 46 42
22 47 43
21 46 42
21 46 42
21 46 42
21 47 42
21 46 42
20 45 41
20 45 42
20 45 41
21 46 42
21 46 42
21 46 42
20 44 41
21 46 42
21 46 42
21 46 42
20 45 42
21 46 42
21 46 42
21 47 43
21 46 42
20 45 41
20 45 41
20 45 41
21 46 42
20 45 42
21 46 42
21 46 42
21 46 43
21 46 42
21 46 42
20 45 41
21 46 42
21 46 42
21 46 42
21 47 43
20 45 42
21 46 42
21 45 42
21 46 42
21 46 42
20 45 41
20 45 41
21 45 42
20 45 41
21 46 42
21 47 43
20 45 41
20 45 41
21 46 42
21 46 42
21 45 42
21 46 42
21 46 42
22 47 43
21 46 42
21 45 41
21 46 42
21 46 42
21 46 42
21 45 41
22 47 43
22 45 41
23 48 43
23 47 43
23 47 43
23 48 44
22 46 42
23 47 43
23 47 43
23 47 43
23 47 43
23 47 43
23 46 42
24 48 44
24 48 44
25 49 44
25 48 44
25 49 44
24 47 43
24 47 43
25 48 43
25 48 43
26 49 45
25 48 43
25 47 43
25 48 44
25 48 43
25 48 44
25 48 44
25 48 44
25 48 44
25 48 43
25 48 43
25 48 44
25 48 44
24 47 42
25 49 44
25 48 43
25 48 43
24 47 43
25 49 44
24 47 42
24 48 44
24 48 43
24 48 44
24 48 43
24 48 44
24 47 43
23 46 42
23 47 43
23 48 43
23 48 44
23 48 44
22 46 42
22 46 42
22 46 42
22 46 42
22 47 43
22 46 42
22 46 42
22 47 43
22 47 43
22 47 43
21 46 42
21 46 42
21 46 42
21 46 42
20 45 42
20 45 42
21 46 42
20 46 42
21 46 42
21 46 42
21 46 42
20 44 41
21 46 42
21 45 42
21 46 42
21 45 42
21 46 42
21 46 42
20 45 41
20 45 42
21 46 42
21 47 43
20 44 41
21 47 43
20 45 41
20 45 42
21 46 42
20 45 41
20 45 41
21 46 42
20 45 41
20 45 41
20 45 41
21 46 42
20 45 41
21 46 42
21 46 42
21 45 42
20 44 41
21 46 42
21 46 42
21 46 43
21 46 42
20 45 41
21 45 42
21 45 41
21 45 41
22 47 43
21 47 43
21 46 42
21 46 42
22 47 42
22 47 43
21 46 42
22 46 42
22 47 43
22 46 42
22 47 42
22 46 42
23 47 43
23 47 43
23 47 43
24 48 44
23 46 42
24 48 43
24 47 43
23 46 42
24 47 43
25 48 44
25 47 43
25 47 43
25 47 43
25 48 43
25 47 43
26 49 44
25 47 43
26 47 43
26 47 42
27 49 44
26 48 44
27 49 44
27 49 45
27 48 44
27 49 44
27 48 44
27 49 44
26 47 42
26 48 43
27 49 44
26 48 43
26 47 43
27 49 44
26 48 44
26 48 44
27 49 45
26 48 44
26 48 44
26 50 45
25 48 44
25 48 43
25 48 44
25 48 43
24 47 43
24 47 43
24 47 43
24 47 43
24 48 43
24 48 44
24 48 43
23 48 43
23 47 43
24 49 44
23 48 43
22 46 42
22 46 42
22 46 42
22 46 42
21 45 41
22 46 42
22 47 43
22 47 43
22 47 43
20 44 41
21 47 43
20 45 41
20 45 41
21 47 43
20 45 41
21 47 43
20 45 41
20 45 41
20 44 40
21 46 42
20 45 41
21 46 42
20 45 42
21 46 42
21 46 42
20 45 42
20 45 41
21 46 42
21 46 42
20 45 41
21 47 42
20 45 42
20 44 41
21 46 42
21 45 41
20 45 42
21 45 42
21 45 42
20 45 41
21 45 42
21 46 42
20 45 41
20 45 41
20 45 41
20 45 41
22 48 44
20 45 41
21 46 42
21 45 41
21 46 42
21 46 42
21 46 42
21 46 42
22 47 43
21 45 41
21 46 42
21 45 42
22 46 42
22 46 42
22 47 43
22 47 43
22 46 42
22 47 43
23 47 43
23 47 43
23 48 43
23 47 43
23 47 42
24 47 43
24 47 43
24 47 43
24 47 43
25 47 43
25 48 44
25 47 43
25 47 43
26 48 43
26 48 44
26 48 44
26 48 43
27 48 43
27 49 44
27 49 44
28 49 44
28 49 45
28 49 45
28 49 44
28 49 44
28 49 45
28 49 44
29 49 45
29 49 45
28 49 44
29 50 45
28 49 44
29 49 45
28 50 45
28 49 45
28 48 44
28 50 45
28 48 44
28 49 44
28 49 45
27 49 44
27 48 44
27 49 44
27 48 44
26 48 44
27 49 45
26 50 45
26 49 44
25 47 43
25 46 42
25 48 44
25 47 43
24 47 42
23 46 42
24 48 43
24 47 43
24 47 43
23 47 43
23 48 43
23 47 43
23 47 43
23 47 43
22 47 43
22 47 43
22 46 42
21 45 41
20 45 41
21 46 42
20 45 41
20 44 40
20 45 41
21 46 42
20 45 41
20 44 41
20 44 41
20 44 41
21 46 42
21 46 42
21 46 42
20 45 41
20 44 41
20 45 41
20 45 41
21 46 42
21 46 42
20 44 41
21 46 42
21 47 43
21 46 42
20 45 41
21 45 42
21 46 43
21 46 42
20 45 42
21 45 42
21 47 43
21 46 42
20 45 41
20 44 40
20 45 41
21 46 42
21 46 42
21 46 42
21 46 42
21 45 41
21 46 42
21 46 42
21 45 41
22 47 43
21 45 41
21 45 42
22 46 42
22 47 43
22 47 43
22 46 42
22 46 42
23 47 43
23 48 44
22 46 42
23 47 43
24 47 43
23 47 43
24 48 44
24 47 43
24 47 43
25 48 43
25 48 44
25 46 42
26 48 43
26 48 44
27 49 45
26 48 43
28 50 45
27 49 44
28 49 45
28 49 45
28 49 44
28 49 44
29 50 45
29 50 45
29 48 44
30 50 45
30 51 46
30 50 45
30 49 44
30 50 46
30 50 45
31 51 46
30 50 45
31 51 46
30 50 45
31 50 46
31 51 46
31 51 46
30 50 45
30 50 45
30 50 45
29 49 44
30 50 45
29 49 44
30 51 46
29 50 45
29 49 45
28 49 44
28 48 44
28 50 45
27 48 44
27 48 44
27 48 44
26 48 43
26 48 44
26 49 44
25 48 43
26 49 44
24 47 43
24 47 43
24 47 43
24 48 44
24 47 43
24 49 45
23 48 43
23 47 43
23 48 44
22 46 42
23 47 43
22 47 43
20 45 42
20 45 41
20 45 41
21 46 42
21 46 42
20 45 41
20 44 41
20 44 40
20 45 41
20 45 41
20 45 41
20 45 41
20 45 41
21 46 42
21 46 42
21 46 42
20 45 41
21 46 42
20 45 41
20 45 41
21 46 42
21 46 42
20 44 40
20 45 41
21 46 42
20 45 41
20 45 42
21 46 42
20 45 41
21 46 43
21 45 42
21 45 41
21 45 41
21 46 42
21 45 41
20 44 40
21 46 42
20 44 40
21 45 41
21 46 42
22 47 43
22 47 43
21 46 42
22 46 42
22 47 43
22 46 42
22 47 43
23 47 43
23 47 43
23 47 42
23 47 43
23 46 42
24 47 43
24 47 43
24 48 43
24 46 42
25 47 43
25 47 42
25 47 43
26 49 44
26 48 44
26 48 43
27 47 43
27 48 43
28 49 44
28 49 45
29 49 44
29 51 46
29 49 44
30 50 45
30 50 45
31 51 46
31 51 46
31 51 46
32 51 46
32 50 45
32 51 46
32 50 45
33 52 47
33 52 46
33 51 46
33 51 46
33 51 46
33 50 45
33 52 47
33 52 47
33 52 47
33 51 46
33 51 46
33 52 47
32 51 46
32 51 46
32 51 46
32 52 47
31 50 45
31 50 45
30 49 44
30 50 45
30 50 45
29 50 45
29 50 45
29 49 44
28 49 44
28 50 45
28 49 44
27 48 44
27 49 45
27 49 44
26 49 44
25 47 43
25 48 44
25 47 43
25 48 43
24 46 42
24 46 42
24 48 44
24 47 43
23 46 42
23 46 42
23 47 43
20 44 40
20 45 41
20 45 42
20 45 41
20 45 41
20 45 41
21 46 42
20 45 41
21 46 42
21 46 42
20 44 41
20 45 41
20 45 41
20 45 41
20 45 41
20 45 41
21 46 42
21 46 42
21 46 42
21 46 42
20 44 41
20 45 41
20 45 41
21 46 42
20 45 41
21 45 42
20 44 40
21 47 43
20 44 40
20 45 41
21 46 42
21 46 42
21 47 43
21 46 42
21 45 42
21 46 42
21 46 42
21 46 42
22 47 43
22 46 42
21 45 41
21 46 42
22 46 42
22 46 42
23 47 43
22 45 41
22 46 42
23 47 43
23 46 42
23 45 41
24 48 44
24 47 43
24 47 43
25 47 43
25 48 44
25 47 42
26 49 44
27 49 45
27 48 43
27 49 44
28 48 44
28 48 43
28 48 43
29 49 44
30 50 45
30 51 46
30 50 45
31 51 46
32 51 46
32 52 46
33 52 47
33 50 45
33 52 47
33 51 45
34 52 46
35 53 48
34 52 47
35 53 48
34 51 46
35 53 47
36 54 48
35 52 47
35 53 47
36 53 48
36 53 48
35 53 47
36 53 48
35 52 47
35 53 47
35 53 47
35 53 47
35 52 47
34 53 47
34 52 46
34 53 47
33 51 46
33 51 46
32 51 46
32 50 45
32 51 46
31 50 45
31 52 47
31 51 46
30 50 45
29 50 45
29 49 44
28 49 44
28 49 44
27 48 43
27 49 44
26 48 43
26 47 43
26 48 43
26 49 44
25 47 42
24 47 43
24 48 43
24 47 43
24 48 44
23 46 42
21 46 42
20 45 41
20 45 41
20 45 41
20 45 41
21 47 43
20 44 40
20 45 41
21 46 42
20 45 42
20 45 41
20 45 41
20 45 41
21 47 43
20 45 42
20 45 41
21 47 43
20 45 41
21 46 42
21 46 42
20 45 41
20 45 41
20 45 41
21 45 41
20 45 41
20 45 41
21 47 43
20 45 41
21 45 42
21 45 41
21 45 41
20 45 41
20 44 40
21 45 41
21 46 42
21 45 42
21 45 41
22 47 43
21 46 42
22 47 43
22 46 42
22 47 43
22 46 42
22 46 43
23 47 43
22 45 41
23 46 42
23 46 42
24 47 43
24 46 42
25 48 44
25 48 43
25 47 43
25 47 43
26 48 44
27 49 45
27 48 44
28 49 44
28 49 45
29 50 45
30 50 45
30 50 45
31 51 46
31 50 45
32 52 47
32 50 45
33 51 46
33 52 47
33 51 46
35 53 48
35 52 46
36 53 48
36 54 49
36 53 47
37 54 49
37 53 48
37 53 48
37 53 47
38 54 48
38 55 49
38 54 48
39 55 50
38 53 47
38 54 48
38 54 48
38 54 48
38 54 48
38 54 48
38 55 49
38 54 49
37 53 48
37 54 48
37 53 47
37 55 49
36 54 48
36 53 47
35 52 47
35 53 47
35 53 47
34 52 46
33 51 46
33 51 46
32 51 46
31 50 45
31 50 46
30 50 45
30 49 44
29 48 44
29 50 45
28 49 44
28 49 44
27 48 44
27 48 43
27 49 44
26 48 43
25 47 43
25 47 42
25 48 44
24 47 43
24 46 42
20 44 41
21 46 42
21 46 42
20 44 41
20 45 41
20 44 41
20 44 40
20 45 41
20 45 42
20 45 41
20 45 41
20 45 42
20 44 41
21 47 43
21 46 42
20 45 41
21 46 42
20 44 40
20 45 41
20 45 42
20 45 41
21 46 42
20 45 41
20 45 41
20 45 41
21 46 42
21 45 42
21 45 42
21 46 42
21 45 41
21 47 43
21 46 42
21 45 41
21 45 41
21 45 42
22 47 43
21 46 42
21 45 41
22 47 43
22 47 43
23 47 43
22 46 42
22 46 42
23 46 42
23 46 42
23 46 42
24 46 42
24 47 43
24 47 42
25 47 43
26 48 44
26 48 43
26 47 43
27 47 43
27 48 44
28 49 44
29 49 45
29 49 44
30 50 45
30 49 44
31 51 46
32 51 46
33 51 46
33 51 46
33 51 45
34 52 47
35 52 47
36 53 47
36 53 48
37 55 49
37 53 48
38 55 50
38 54 48
39 54 48
40 56 50
40 55 49
40 55 49
41 56 49
41 56 50
41 56 50
41 56 50
42 57 51
42 58 51
41 56 50
42 57 51
42 56 50
42 57 51
41 55 49
41 56 50
41 56 50
41 57 50
41 56 50
40 56 50
40 56 50
39 54 48
39 55 49
38 55 49
37 53 48
37 54 49
36 53 48
36 53 48
36 53 48
35 52 47
34 53 48
33 52 46
33 51 46
32 51 46
32 51 46
31 51 46
30 49 44
29 48 43
29 50 45
28 49 44
28 48 44
27 49 44
27 49 45
27 49 44
26 49 45
25 48 43
25 49 44
20 44 41
20 45 42
20 44 41
20 45 41
21 46 42
21 46 42
20 44 41
20 44 41
21 46 42
20 45 41
21 46 42
21 46 42
21 46 42
21 46 42
20 44 41
21 46 42
20 45 42
20 45 42
21 46 42
20 45 41
20 45 42
21 46 42
20 45 41
20 45 41
21 46 42
20 45 41
21 45 42
21 46 42
21 46 42
21 45 41
21 46 42
21 46 42
21 46 42
21 45 42
21 45 41
22 46 42
22 46 42
21 45 41
22 45 41
22 45 41
23 47 43
22 45 41
23 46 42
24 47 43
23 45 41
24 47 43
25 47 43
25 47 43
26 48 44
26 47 43
27 49 44
28 50 45
27 48 43
28 49 44
29 50 45
30 50 45
31 51 46
31 50 45
32 51 46
32 50 45
33 51 46
34 52 47
35 52 47
36 53 48
36 54 48
37 54 48
38 54 48
38 54 49
39 54 48
40 56 50
40 55 49
41 56 50
42 56 50
42 56 50
43 58 51
43 58 51
44 59 52
44 58 51
44 59 52
45 59 52
45 58 51
45 59 52
45 59 52
45 59 52
45 57 51
45 60 53
45 58 51
45 58 52
44 58 51
44 58 52
44 59 53
44 58 52
43 57 50
43 57 50
43 58 51
42 57 51
41 57 50
40 54 48
40 56 50
39 55 49
39 55 49
38 55 49
37 54 49
36 52 47
36 53 47
36 54 48
34 52 47
34 52 47
33 53 47
32 50 45
31 49 44
31 50 45
30 50 46
29 49 44
29 49 44
28 48 43
28 49 44
27 49 44
26 48 43
26 47 43
21 46 42
21 47 43
20 45 41
20 44 41
20 45 41
20 44 40
20 45 41
20 45 41
20 44 41
20 45 41
20 44 41
20 44 41
21 45 42
20 45 41
20 45 42
20 44 41
20 44 41
21 47 43
20 45 41
21 46 42
21 45 42
20 44 40
21 45 42
21 45 42
21 45 42
20 45 41
21 46 42
21 46 42
21 45 41
21 45 41
21 45 41
21 45 41
21 45 42
21 46 42
22 46 42
22 46 42
22 46 42
22 47 43
22 45 41
22 45 41
23 47 43
22 44 40
23 46 42
24 47 43
24 46 42
25 47 43
26 48 44
26 48 44
27 48 44
27 47 43
28 49 44
28 48 43
29 49 45
30 50 45
31 50 46
32 51 46
32 51 46
33 51 46
34 52 46
34 52 46
36 53 47
36 53 47
37 54 49
39 56 50
39 54 48
40 55 49
41 56 50
41 56 50
42 57 50
43 57 51
44 58 51
44 58 52
45 59 53
46 59 53
46 60 53
47 60 53
47 59 53
48 60 53
48 60 53
48 61 54
48 61 54
49 61 54
49 62 54
48 60 53
49 62 54
49 61 54
49 62 54
49 62 54
48 60 53
48 60 53
48 60 53
47 60 53
47 60 53
46 59 52
46 60 53
45 59 52
45 59 52
44 58 51
43 57 51
43 57 51
42 56 50
41 56 49
40 55 49
39 55 49
38 54 48
37 53 48
37 54 48
36 52 47
35 52 47
34 52 47
34 52 46
33 51 46
32 50 45
32 51 46
31 51 46
30 50 45
29 51 46
28 49 44
27 48 43
27 49 45
20 45 41
20 45 42
21 46 42
21 46 42
20 45 41
20 45 41
20 45 41
20 44 40
20 44 41
20 45 42
20 44 40
20 45 41
20 44 41
20 45 41
20 45 42
21 46 42
21 46 42
20 45 41
20 44 41
20 45 41
21 46 43
20 44 40
21 47 43
20 45 41
20 45 41
21 45 42
21 46 43
21 46 43
21 45 41
21 46 42
21 45 41
21 46 42
21 44 41
21 45 41
22 46 42
22 46 42
23 47 43
23 47 43
23 46 42
23 46 42
23 46 42
23 45 42
24 46 42
25 48 44
25 46 42
26 47 43
27 48 44
27 48 44
28 48 44
28 49 44
29 48 43
30 50 45
31 50 46
32 50 45
32 51 46
33 52 47
34 51 46
35 52 47
36 53 47
37 53 48
38 55 49
39 56 50
40 55 49
41 57 51
42 56 50
43 58 51
43 57 50
44 58 51
45 59 53
46 59 52
47 60 53
47 59 52
48 61 54
49 62 55
49 61 53
50 61 54
51 64 56
51 62 55
51 62 55
52 62 55
52 63 55
52 64 56
53 64 56
53 64 56
53 64 56
52 63 55
52 64 56
52 64 56
52 64 56
52 63 55
51 63 55
51 63 55
51 62 55
50 63 55
50 62 55
49 62 55
48 61 53
47 59 52
47 61 54
46 59 52
45 59 53
44 58 52
43 57 51
42 57 50
41 56 50
41 57 50
39 54 49
39 55 49
38 53 48
37 53 47
36 53 48
35 53 47
34 52 47
33 52 47
32 51 46
32 52 47
30 49 44
30 51 46
29 50 45
29 50 45
20 44 40
20 45 42
20 45 41
20 45 41
20 44 41
20 44 41
20 45 41
20 44 40
20 45 42
20 44 41
20 45 41
20 45 42
20 44 41
20 45 41
20 45 41
21 46 42
20 45 41
20 45 41
20 44 41
20 44 40
20 44 41
21 45 41
21 46 42
20 45 41
20 45 41
21 46 42
21 45 41
21 46 42
21 45 42
21 44 41
21 45 41
22 46 42
22 46 42
22 45 41
22 45 42
23 47 43
22 45 41
23 47 43
23 46 42
24 47 43
24 46 42
24 46 42
25 46 42
25 47 42
26 47 43
27 48 43
28 49 45
29 49 44
29 49 45
30 49 45
31 50 46
31 49 45
33 51 46
34 52 47
35 53 48
36 53 48
36 53 48
38 55 49
38 53 48
40 55 49
41 56 50
42 58 51
43 57 51
44 57 51
45 58 52
46 58 52
46 59 52
48 62 55
49 60 53
49 61 54
50 62 55
51 63 56
52 63 56
53 64 57
53 64 56
54 64 57
55 65 57
55 65 57
55 65 57
56 66 58
56 67 58
56 66 58
56 67 58
57 66 58
57 66 58
56 66 58
57 67 59
56 66 58
56 66 58
56 66 58
55 65 57
55 65 57
54 65 57
54 65 57
53 64 56
53 64 57
52 62 55
51 63 56
50 62 55
49 60 53
49 61 54
47 61 54
46 59 52
45 59 52
44 58 52
44 58 51
42 56 50
41 55 49
41 57 51
39 56 50
38 55 49
37 54 49
37 54 48
35 52 47
34 51 46
33 51 46
33 52 47
32 50 45
31 51 46
30 48 44
20 44 41
20 45 41
21 46 42
20 45 42
20 45 41
21 46 42
20 44 41
20 44 41
20 45 41
21 46 42
20 45 42
20 45 41
21 46 42
20 44 41
20 45 41
20 45 41
20 45 41
21 46 42
21 45 42
20 45 41
20 44 41
20 45 41
21 45 42
20 45 41
21 45 41
21 45 41
21 45 41
21 46 42
22 46 42
22 46 43
22 46 42
22 46 42
22 45 41
22 45 41
22 46 42
22 45 41
23 46 42
24 47 43
24 47 43
24 46 42
25 47 43
26 47 43
27 49 44
27 48 43
27 48 43
28 47 43
29 49 44
30 51 46
31 49 44
31 50 45
33 51 46
33 51 46
34 51 46
36 53 48
37 53 48
38 54 48
39 55 49
40 55 49
41 55 49
42 56 50
44 57 51
44 57 51
46 60 53
47 60 53
48 61 54
49 61 54
50 63 55
51 63 56
52 65 57
53 63 55
54 64 56
55 66 58
56 66 57
57 67 59
57 68 59
58 67 59
59 68 59
59 69 60
60 69 60
60 69 60
60 70 61
61 70 61
61 69 60
61 69 61
61 70 61
61 69 60
61 69 61
61 69 60
60 70 61
60 69 60
59 69 60
59 69 60
58 68 60
58 67 59
57 67 59
56 66 58
56 66 58
55 66 58
54 65 58
53 65 57
52 62 55
51 62 55
50 62 55
49 61 54
48 61 54
47 60 53
46 59 52
45 59 52
43 57 51
42 58 51
41 57 50
40 54 49
39 55 49
38 53 48
37 54 48
35 52 47
35 53 47
33 51 46
33 51 46
32 50 45
20 45 41
20 45 41
20 44 40
20 45 41
20 45 41
20 46 42
20 45 42
20 44 40
20 44 41
20 45 41
20 45 41
20 45 41
20 45 41
20 45 41
20 44 41
20 44 41
20 43 40
20 44 40
20 45 41
20 44 41
21 45 41
21 45 42
20 44 41
22 47 43
21 45 42
21 46 42
21 46 42
21 45 42
21 45 41
22 47 43
22 45 42
23 47 43
22 45 41
23 46 42
23 46 42
23 46 42
24 46 42
24 47 43
25 48 43
25 47 43
26 48 44
26 47 43
27 48 43
28 47 43
29 49 45
30 50 45
30 49 45
31 49 44
32 51 46
33 51 46
35 52 47
35 52 46
37 53 48
38 54 49
39 55 49
40 56 50
41 56 50
43 57 50
44 58 51
45 59 52
47 60 53
48 61 54
49 61 54
50 63 55
51 63 55
52 63 56
53 64 56
55 65 58
56 66 58
57 67 58
58 67 59
59 68 60
60 68 60
61 69 60
61 69 60
62 72 62
63 71 62
64 72 63
64 72 63
65 73 63
65 73 63
65 72 63
65 72 63
65 72 63
65 73 63
65 73 63
65 72 63
65 72 63
65 72 63
64 72 63
64 72 62
63 71 62
63 72 63
62 71 62
61 71 62
60 69 60
60 69 60
59 68 59
58 67 59
57 67 58
56 66 58
55 66 58
54 64 57
52 63 55
51 62 54
50 61 54
49 61 54
48 61 54
46 60 53
45 59 52
44 57 51
42 56 50
41 56 50
40 55 49
39 54 48
38 53 48
37 53 47
35 52 47
35 53 47
34 53 47
21 46 42
20 45 41
20 44 40
21 46 42
21 46 42
20 44 41
20 44 41
20 44 40
20 45 41
20 45 41
21 46 42
20 45 41
20 45 41
20 45 41
20 45 41
20 45 41
20 44 40
20 45 41
21 45 41
21 46 42
20 44 41
21 45 41
21 45 41
21 45 42
21 46 42
21 45 41
21 45 41
21 45 41
22 46 42
22 45 41
22 46 42
22 46 42
22 45 41
23 46 42
24 47 43
24 46 42
25 48 44
25 47 43
26 48 44
26 47 43
27 47 43
28 49 44
28 48 44
29 48 43
30 50 45
31 50 45
32 50 45
33 51 46
34 52 47
35 52 47
37 53 48
38 53 48
39 54 48
40 56 50
42 56 50
43 59 52
44 58 52
46 59 53
47 59 52
48 61 54
49 61 54
51 62 55
52 63 55
54 64 56
55 65 57
56 67 59
57 66 58
59 69 60
60 69 61
61 69 60
62 70 61
63 70 61
64 71 62
65 73 64
66 73 63
67 75 65
67 75 65
68 75 65
68 75 65
69 76 66
69 76 66
69 76 66
69 76 66
70 77 67
70 76 66
70 76 66
69 76 66
69 76 66
69 76 66
69 77 67
68 75 65
68 75 65
67 75 65
66 74 64
65 73 64
65 72 63
64 72 63
63 71 62
62 70 61
61 69 60
59 68 60
58 68 60
57 67 59
56 67 59
55 66 58
54 65 57
52 64 56
51 63 56
49 61 53
48 61 54
47 60 53
45 59 52
44 58 51
43 57 51
42 56 50
40 55 49
39 55 49
38 54 48
37 53 48
35 51 46
20 44 41
20 45 41
20 45 42
20 44 41
21 46 42
20 45 41
20 45 41
20 45 41
20 44 41
20 45 42
20 44 40
20 45 41
20 44 41
20 44 41
20 44 40
20 45 41
20 44 40
20 45 41
20 44 40
21 45 42
20 44 40
21 45 41
21 45 42
21 46 42
21 44 40
21 46 42
21 45 41
21 45 41
22 45 42
22 45 42
22 45 42
23 45 41
23 46 42
24 46 42
25 48 44
25 47 43
25 47 43
26 47 42
26 47 43
27 48 44
28 48 43
29 48 43
30 50 45
30 49 44
32 50 45
33 51 46
34 52 47
35 53 48
36 52 46
37 54 48
38 53 48
40 55 49
41 55 49
43 57 50
44 57 51
45 58 52
47 59 52
48 60 53
50 61 54
51 62 54
53 64 56
55 66 58
56 66 58
57 67 58
58 68 59
60 69 60
61 69 61
62 71 62
64 72 63
65 73 64
66 74 64
67 74 65
68 76 66
69 76 66
70 77 67
71 77 66
71 78 67
72 79 68
73 78 68
73 79 69
74 79 69
74 79 69
74 80 69
74 80 69
74 80 69
75 80 69
74 80 69
74 80 69
74 80 69
73 79 68
73 79 68
72 79 68
72 78 67
71 77 67
70 77 67
69 76 66
68 75 65
67 74 65
66 74 64
65 73 63
64 72 63
62 70 61
61 69 60
60 69 60
58 67 59
57 66 58
55 65 57
54 65 57
53 64 56
51 63 56
50 60 53
49 61 54
47 60 53
46 59 53
44 57 51
43 56 50
41 56 50
40 56 50
39 54 48
38 55 49
19 43 39
20 44 40
20 44 41
20 45 41
20 45 41
20 45 42
20 45 41
20 45 41
21 46 42
20 44 41
20 45 41
21 46 42
21 46 42
20 44 40
21 45 42
20 44 41
21 45 42
21 45 41
21 45 41
21 46 42
21 45 41
21 45 42
21 46 42
21 45 41
21 45 42
21 45 41
21 44 40
22 45 41
22 46 42
22 45 41
23 46 42
23 46 42
24 46 42
25 47 43
25 47 43
26 48 43
26 47 43
27 49 44
28 49 45
28 49 45
29 50 45
30 49 44
31 51 46
32 50 45
33 52 46
34 51 45
35 52 47
37 52 47
38 54 48
40 55 49
41 56 50
42 56 50
44 57 51
45 58 51
47 59 52
48 60 53
50 62 54
51 63 55
53 64 57
54 64 57
56 66 58
57 66 58
59 68 60
61 69 61
62 71 62
64 72 63
65 73 64
66 74 64
68 75 65
69 75 66
70 77 67
71 77 67
72 78 67
73 79 69
74 80 69
75 81 70
76 82 71
77 81 70
78 84 72
78 82 71
78 82 71
79 83 72
79 84 73
79 84 73
79 83 72
79 84 72
79 83 72
79 84 72
78 83 71
78 82 71
77 82 71
76 81 70
76 81 70
75 81 70
74 80 70
73 79 69
72 79 68
71 77 67
70 77 66
69 75 65
68 75 65
66 73 64
65 73 63
63 71 62
62 70 61
61 70 61
59 68 59
58 67 58
56 66 58
54 64 56
53 64 56
51 62 54
50 61 54
48 60 53
47 59 52
46 60 53
44 58 52
43 57 50
42 57 51
40 56 50
20 45 41
20 45 41
20 45 41
20 44 41
20 44 41
20 45 41
20 45 42
20 45 41
20 45 41
20 44 40
20 44 40
20 44 41
20 44 41
21 45 42
20 44 41
20 44 41
20 45 41
20 44 41
21 46 42
21 46 42
21 45 42
21 46 42
21 45 41
21 45 41
22 47 43
22 46 42
22 46 42
22 46 42
23 46 43
23 46 42
24 47 43
24 46 42
25 47 43
25 47 43
26 47 43
26 48 44
27 48 44
28 49 44
28 48 43
29 48 43
30 49 45
31 50 45
33 52 47
34 51 46
35 52 46
36 52 47
38 54 49
39 55 49
40 56 50
42 56 50
43 58 51
45 57 51
46 59 52
48 60 53
49 61 54
51 62 54
53 64 56
54 64 57
56 66 58
58 67 59
59 68 60
61 70 61
63 71 62
64 72 63
66 73 63
68 75 65
69 75 65
71 77 67
72 77 67
73 79 69
74 79 68
76 81 70
77 82 71
78 83 72
79 83 72
80 84 72
80 85 73
81 85 73
82 86 74
82 86 74
83 86 74
83 87 75
84 87 75
84 87 75
84 88 76
84 87 75
84 88 76
83 88 76
83 87 75
82 86 74
82 86 74
81 86 74
81 85 73
80 84 73
79 84 72
78 83 71
77 81 70
75 80 69
74 80 69
73 79 69
72 77 67
70 76 66
69 76 66
68 75 65
66 74 64
64 72 63
63 71 62
61 70 61
59 68 60
58 68 60
56 66 58
55 65 57
53 64 56
51 62 55
50 62 55
48 61 54
47 59 53
45 58 52
44 57 51
42 56 49
20 45 41
20 45 41
20 44 41
19 43 40
20 45 42
20 44 40
20 45 41
20 44 41
20 44 40
20 45 41
20 45 41
20 44 40
20 44 40
20 45 41
20 45 41
21 45 41
21 46 42
20 44 41
20 44 40
21 46 43
22 46 43
21 45 41
22 46 43
22 46 42
22 45 41
22 45 41
23 47 43
22 45 41
22 44 40
24 47 43
24 47 43
24 46 42
25 46 42
25 47 42
26 47 43
27 48 44
28 49 45
29 49 44
30 49 44
31 49 44
32 50 45
33 50 45
34 52 46
36 54 48
37 53 47
38 53 48
40 55 49
41 56 50
43 57 50
44 57 51
46 58 52
47 59 52
49 61 54
51 62 55
53 64 56
54 65 57
56 65 57
57 66 58
59 69 60
61 70 61
63 71 62
65 73 63
66 73 64
68 74 64
70 76 66
71 78 68
73 79 68
75 81 70
76 82 71
78 83 71
79 84 72
80 84 73
81 85 73
82 86 74
83 87 75
84 88 75
85 88 76
86 89 77
87 91 78
87 90 77
88 91 79
88 91 78
88 91 78
88 91 78
88 91 78
88 91 78
88 91 78
88 91 78
88 90 78
87 91 78
87 90 77
86 89 77
85 88 76
84 88 75
83 87 75
82 86 74
81 85 73
80 84 72
79 83 72
77 83 71
76 81 70
75 80 70
73 78 68
72 78 68
70 77 67
68 74 64
67 74 64
65 73 64
63 71 62
61 69 61
60 68 60
58 67 59
56 66 58
55 66 58
53 63 55
51 63 56
50 61 54
48 60 53
46 59 52
45 58 51
20 45 41
20 44 40
20 44 41
21 46 42
19 43 40
20 44 41
20 44 41
20 44 41
20 44 41
21 46 42
20 44 41
20 45 41
21 45 42
19 43 39
21 46 42
20 44 40
20 44 40
21 46 42
22 47 43
21 46 42
21 45 41
21 45 41
22 46 42
22 45 41
22 45 41
22 44 41
23 46 42
23 46 42
23 46 42
24 46 42
25 47 43
26 48 43
26 48 43
26 47 43
27 48 43
29 50 46
29 48 43
30 49 44
31 49 44
32 51 46
33 50 45
35 52 47
36 53 47
38 54 49
39 55 49
40 55 49
42 56 50
43 57 51
45 59 53
47 60 53
48 61 54
50 62 55
51 62 55
53 63 55
55 65 57
57 67 58
59 68 60
61 69 60
63 72 62
65 72 63
66 73 64
68 75 65
70 76 66
72 78 68
73 79 68
75 81 70
77 82 71
79 84 72
80 84 72
82 86 74
83 87 75
84 88 76
86 90 77
87 90 77
88 91 78
89 91 78
90 93 80
91 94 80
91 94 81
92 94 81
92 95 82
93 95 81
93 95 82
93 95 82
93 95 82
93 95 81
93 95 81
93 95 81
92 94 81
92 94 81
91 93 80
91 93 80
90 92 79
89 92 79
88 91 78
87 90 77
86 89 76
84 88 76
83 87 75
82 87 75
80 84 73
79 83 71
77 83 72
75 81 70
74 79 68
72 78 68
70 77 66
69 76 66
67 74 65
65 73 63
63 71 62
62 70 62
60 69 60
58 68 59
56 66 58
54 64 56
52 63 55
51 62 55
49 62 55
48 61 54
20 45 41
19 43 39
19 43 39
20 45 41
20 45 41
20 44 41
21 46 42
20 45 41
20 44 40
21 46 42
21 45 42
20 45 41
21 45 41
20 44 41
21 46 42
20 44 41
20 44 41
20 44 40
21 44 40
21 45 41
21 44 41
21 45 41
22 46 42
22 46 42
23 47 43
23 45 42
23 45 41
24 47 43
24 47 43
25 47 43
25 47 43
26 48 43
26 47 43
28 48 44
29 49 45
29 48 44
30 50 45
31 50 45
32 51 46
34 51 46
35 51 46
36 52 47
38 53 48
39 54 48
41 56 50
42 56 50
44 57 51
45 58 52
47 58 52
49 60 53
51 63 55
52 63 55
54 65 57
56 66 58
58 68 59
61 70 61
62 69 61
64 72 63
66 74 64
68 75 65
70 77 67
72 77 67
74 79 69
76 81 70
78 82 71
79 84 73
81 85 73
83 87 75
84 87 75
86 89 76
87 90 77
89 91 79
90 93 80
91 93 80
93 95 82
94 95 82
94 96 82
95 97 83
96 97 83
97 98 84
97 98 84
98 99 85
98 99 85
98 99 85
98 99 85
98 99 85
98 99 85
98 99 85
97 98 84
97 98 84
96 98 84
95 97 83
95 97 83
94 96 83
93 94 81
91 93 80
90 93 80
89 91 78
87 90 78
86 89 77
84 88 76
83 86 74
81 86 74
80 84 73
78 83 71
76 80 70
74 80 69
72 78 68
70 76 66
69 75 66
67 74 64
65 73 63
63 71 62
61 70 61
59 69 60
57 67 59
55 66 58
53 64 57
52 62 55
50 61 53
20 45 42
19 43 40
20 45 41
20 45 41
21 46 42
20 44 41
20 44 41
20 45 41
20 45 41
21 46 42
19 43 39
21 45 42
21 46 42
20 45 41
21 45 41
21 44 41
21 45 41
21 44 41
21 45 41
21 44 41
21 45 41
22 45 41
22 44 41
22 45 41
23 45 41
23 45 41
24 47 43
24 46 42
25 47 43
26 48 43
26 47 43
27 49 45
27 48 43
29 49 44
29 49 44
31 50 45
31 49 44
32 50 45
33 50 45
35 51 46
36 53 48
38 54 48
39 55 49
41 56 50
42 55 49
45 59 52
46 59 52
48 60 53
49 60 53
51 62 54
53 64 56
55 65 57
57 67 59
59 68 59
61 68 60
63 72 62
65 72 63
67 74 64
69 76 66
72 78 68
74 79 68
76 81 70
77 82 71
80 85 73
81 85 73
83 87 75
85 88 76
87 90 77
89 91 78
90 93 80
92 93 80
93 96 82
94 96 82
96 97 83
97 98 84
98 99 85
99 100 86
100 101 86
101 101 87
102 102 87
102 102 87
102 103 88
103 103 88
103 103 88
103 104 89
103 103 88
103 104 89
103 103 88
102 103 88
101 102 87
101 102 87
100 101 86
99 101 86
98 100 86
97 98 84
96 97 83
95 96 82
94 95 82
92 94 81
91 93 80
89 92 79
87 90 77
85 89 77
84 87 75
82 85 73
80 84 73
78 82 71
76 82 71
74 80 69
72 79 69
70 77 67
68 75 65
66 74 64
64 72 62
62 70 61
60 68 59
58 67 59
56 66 57
54 64 56
52 63 56
20 44 41
20 45 41
20 44 41
20 44 40
20 44 40
20 43 40
20 44 41
21 46 42
20 45 41
20 44 40
20 44 40
20 45 41
20 44 41
20 45 41
20 44 41
20 43 39
21 44 41
21 45 42
22 46 43
21 44 40
21 44 40
22 46 42
22 46 42
23 46 42
24 47 43
24 46 42
25 48 44
24 46 42
25 46 42
26 46 42
26 46 42
28 48 44
29 49 44
30 49 45
30 49 44
32 50 46
32 50 45
34 51 46
35 52 47
37 53 48
38 54 48
40 55 49
41 56 50
43 56 50
45 58 52
46 58 52
48 59 52
50 62 55
52 63 55
54 64 56
56 66 58
58 68 59
60 69 61
62 70 61
64 72 62
67 74 64
69 76 66
71 76 66
73 78 68
75 81 70
77 82 70
79 84 72
81 85 73
83 87 75
86 89 77
87 90 78
89 92 79
91 93 80
93 95 81
94 96 82
96 97 83
97 98 84
99 100 85
101 102 87
102 102 87
103 104 89
104 104 89
105 105 90
105 105 90
106 106 91
107 107 91
107 107 92
108 107 92
108 107 92
108 107 92
108 107 91
108 107 92
107 107 92
107 106 91
106 106 91
106 106 90
105 105 90
104 105 89
103 103 88
102 102 87
101 102 87
99 100 85
98 99 85
97 98 84
95 97 83
93 95 82
92 94 81
90 94 81
88 91 78
86 90 77
84 88 76
82 86 74
80 85 73
78 83 72
76 81 70
74 79 69
72 77 67
70 76 66
67 74 64
65 73 64
64 72 63
61 69 60
60 69 61
57 66 58
56 66 58
20 44 41
21 46 42
20 45 42
20 45 41
20 44 41
20 45 41
20 45 42
20 45 41
20 45 41
20 44 41
20 45 41
20 44 40
20 44 41
21 45 41
21 45 41
21 45 42
21 45 41
21 45 41
21 45 41
22 45 41
22 45 41
22 45 41
23 46 42
23 46 42
23 45 41
24 45 41
24 46 42
25 47 43
26 48 44
27 48 44
27 48 43
28 48 43
30 49 45
30 49 44
32 50 45
33 51 46
34 51 46
35 51 46
37 54 48
38 53 47
40 55 49
42 56 50
43 57 51
44 57 50
47 59 53
49 60 53
50 61 54
53 64 56
55 65 57
56 65 57
59 68 60
61 69 61
63 71 62
65 73 64
68 75 65
70 76 66
72 78 68
74 80 69
76 81 70
79 83 72
81 85 73
83 86 74
85 88 76
87 90 78
89 92 79
91 93 80
93 96 82
95 97 83
97 99 85
99 100 85
100 101 87
102 103 88
104 104 89
105 105 90
106 106 91
107 107 91
108 108 92
110 109 93
110 109 93
111 110 94
111 111 94
112 111 95
112 111 95
113 111 95
112 111 95
112 111 95
112 111 95
112 111 95
112 111 94
111 110 94
110 110 94
109 109 93
109 108 92
107 107 91
107 107 91
105 106 90
104 104 89
103 103 88
101 102 87
99 100 86
98 99 85
96 97 84
94 96 83
92 94 80
90 93 80
88 91 78
86 90 77
84 87 75
82 85 73
80 84 72
78 82 71
75 81 70
73 79 68
71 76 66
69 75 65
67 73 64
64 72 62
62 70 61
60 69 60
58 67 59
20 43 40
20 44 40
20 44 41
20 44 41
20 44 41
21 45 42
20 44 40
20 45 42
21 45 42
20 45 41
21 45 42
20 45 41
21 45 41
21 45 41
21 45 41
21 45 42
21 44 40
22 45 42
22 46 42
22 46 42
22 45 41
23 46 43
23 45 41
23 45 42
24 45 41
24 46 42
25 47 43
26 47 43
26 47 43
27 47 43
28 47 43
29 48 44
30 48 44
31 49 44
33 51 46
34 52 47
36 53 48
37 53 48
38 53 48
40 56 50
41 55 49
43 56 50
45 59 52
47 59 52
49 60 53
51 62 55
53 64 56
55 66 58
57 66 58
59 68 59
61 69 60
63 71 62
66 73 63
68 74 64
71 77 67
73 78 68
75 81 70
77 82 71
80 84 72
82 86 74
84 87 75
87 90 77
89 91 78
91 94 80
93 95 81
95 96 82
97 98 84
99 100 85
101 101 86
103 103 88
105 105 90
106 106 91
108 108 92
109 109 93
111 110 93
112 111 95
113 112 95
114 113 96
115 114 97
115 114 97
116 114 97
116 114 97
117 115 98
117 116 99
118 116 99
117 115 98
117 116 98
117 115 98
116 114 97
116 114 97
115 114 97
114 113 96
113 112 95
112 112 95
111 110 94
110 109 93
108 108 92
107 107 92
105 105 90
104 104 89
102 102 87
100 101 87
98 99 85
97 98 84
94 96 82
92 94 81
90 93 80
88 91 79
86 89 76
83 87 75
81 85 73
79 83 71
76 81 70
74 80 69
72 77 67
70 76 66
67 74 64
65 73 64
63 71 62
61 70 61
20 45 42
20 44 41
20 45 41
20 44 40
21 46 43
21 46 42
20 43 40
21 45 42
21 46 42
21 45 41
21 45 42
21 45 42
21 44 41
20 43 40
21 44 40
21 45 41
21 45 41
21 44 40
22 44 41
22 45 41
22 45 41
23 45 41
23 45 41
24 46 42
24 46 42
25 46 42
26 47 43
26 47 43
27 47 43
29 49 44
29 49 45
30 49 44
31 50 45
33 51 46
34 50 45
35 52 47
36 52 47
38 53 48
40 54 48
41 55 49
43 57 51
45 58 51
47 59 52
49 61 54
51 63 56
53 64 56
55 66 58
57 66 57
59 68 60
62 70 61
64 71 62
66 74 64
69 76 66
71 78 67
74 80 69
76 81 70
79 83 72
81 85 73
83 86 74
86 89 77
88 91 78
91 93 80
93 94 81
95 96 82
97 98 84
99 100 86
101 102 87
103 104 89
105 105 90
107 107 92
109 108 92
111 110 94
112 111 95
114 112 96
115 114 97
116 115 98
117 116 99
119 116 99
120 118 100
120 118 100
121 118 101
121 119 102
122 119 101
122 120 102
122 120 102
122 120 102
122 119 102
122 119 101
121 119 101
120 118 100
120 118 100
119 117 100
118 117 99
117 115 98
116 114 98
114 112 96
113 112 95
111 111 94
110 109 93
108 108 92
106 107 91
104 104 88
102 102 87
100 101 86
98 99 85
96 97 83
94 96 82
92 94 81
89 93 80
87 90 77
85 88 76
82 86 74
80 85 73
78 83 72
75 81 70
73 78 68
70 76 66
68 75 65
66 74 64
63 71 61
19 43 40
20 45 41
20 43 40
21 45 42
20 44 40
20 45 41
20 45 41
20 45 41
21 45 42
20 43 40
20 44 41
21 44 41
22 47 43
21 45 41
21 45 41
22 47 43
22 46 42
22 45 41
22 45 42
22 44 41
23 46 42
23 45 41
24 47 43
24 46 42
26 48 44
26 47 43
26 46 42
28 49 44
28 48 44
29 49 45
30 48 43
32 51 46
33 51 46
34 51 46
35 51 46
36 52 47
38 54 48
40 54 49
41 56 50
44 58 51
45 57 51
47 60 53
49 61 54
51 62 55
53 64 56
55 66 58
57 66 58
60 68 59
62 70 61
64 72 63
67 74 64
69 75 66
72 77 67
74 79 69
77 82 70
79 83 72
82 86 74
84 88 76
87 90 77
89 92 79
91 93 80
94 96 82
97 98 84
99 99 85
101 102 87
103 104 89
105 105 90
108 107 91
109 109 93
112 111 94
113 112 95
115 113 96
117 115 98
118 116 99
119 117 100
121 118 100
122 120 102
123 120 103
124 122 104
125 122 104
125 122 104
126 124 105
126 124 105
126 123 105
127 124 105
126 124 105
126 123 105
126 123 105
126 123 105
125 122 103
124 121 103
123 120 102
122 120 102
121 119 101
120 118 101
119 117 99
117 116 99
116 114 97
114 113 96
112 111 95
110 110 93
108 107 92
107 107 91
104 105 90
102 102 87
100 100 86
98 99 85
95 97 83
93 95 81
91 93 80
88 90 78
86 89 77
83 87 75
81 85 73
78 83 72
76 81 70
73 78 67
71 77 67
69 76 66
67 74 64
20 45 41
20 44 41
20 44 40
20 43 40
20 44 41
20 44 41
20 44 41
21 45 41
20 43 40
21 45 42
21 46 42
21 45 41
21 46 42
21 44 41
21 45 41
22 45 42
22 45 41
22 45 41
22 45 42
22 44 40
23 46 42
24 46 42
25 47 43
25 47 43
26 47 43
27 48 44
27 48 44
28 49 44
29 49 45
30 49 45
31 50 45
32 49 44
34 51 46
35 53 47
36 52 47
38 54 48
40 55 49
41 56 50
43 57 51
45 59 52
47 59 52
49 60 53
51 62 55
53 63 56
55 65 57
58 68 59
60 69 60
62 70 62
65 74 64
67 74 64
70 76 66
72 78 67
74 79 68
77 82 71
80 84 72
82 86 74
85 88 76
88 91 78
90 93 80
92 94 80
95 96 83
98 99 85
100 101 87
102 103 88
105 105 89
107 107 91
109 109 93
111 110 94
114 112 95
115 114 97
117 115 98
119 117 100
121 119 101
123 120 103
124 121 103
125 122 104
127 124 105
128 124 106
128 125 106
130 126 107
130 126 108
131 127 108
131 127 108
131 128 109
131 127 108
131 127 108
131 127 108
131 127 108
130 127 108
129 126 107
129 126 107
128 125 106
127 124 105
126 123 104
124 121 103
123 120 103
122 119 101
120 118 100
118 117 99
117 115 98
115 113 97
113 112 95
110 110 94
108 108 92
106 106 91
104 104 89
102 102 88
99 100 85
97 99 85
94 96 83
92 94 80
89 91 78
87 90 77
84 87 75
82 87 75
79 84 72
77 82 71
74 80 69
72 78 67
69 76 66
20 43 40
20 45 41
20 44 40
20 44 40
20 44 40
21 45 41
20 44 40
21 45 41
21 45 41
20 44 41
21 45 42
21 44 41
21 45 42
21 44 41
21 45 41
22 45 41
22 45 41
22 44 41
23 45 42
23 45 41
24 46 42
24 46 42
25 47 43
26 47 43
26 47 42
27 48 44
29 50 45
29 48 44
30 49 44
31 50 45
32 50 46
34 51 46
35 51 46
36 52 47
38 52 47
40 55 49
41 55 49
43 56 50
45 58 52
47 58 52
49 61 54
51 62 54
53 63 55
55 65 57
58 68 59
60 69 60
62 70 61
64 72 62
67 74 65
70 77 67
72 77 67
75 80 69
77 82 71
80 85 73
83 86 74
85 88 76
88 91 78
90 93 80
93 95 82
96 97 83
99 100 85
101 102 87
104 103 88
106 106 90
109 108 93
111 111 94
113 112 95
115 114 97
117 115 98
120 118 100
122 119 101
123 120 102
125 122 104
127 124 105
128 124 106
129 126 107
131 127 108
132 129 109
133 129 109
134 129 110
134 130 111
135 131 111
135 131 111
135 131 111
135 131 111
135 131 111
135 131 112
135 131 111
134 130 111
134 130 110
133 130 110
132 129 110
131 128 109
130 126 107
129 126 107
127 124 106
126 123 105
124 121 103
122 120 102
121 119 101
119 116 99
117 115 98
114 113 97
112 111 95
110 109 93
108 108 92
105 106 91
103 103 88
100 101 86
98 98 84
95 97 83
93 95 82
90 92 79
87 90 78
85 88 76
83 86 75
80 84 72
77 82 71
75 80 70
72 78 68
20 45 42
20 45 41
20 45 41
19 43 39
20 45 41
20 44 40
20 43 40
20 44 41
20 44 41
20 43 40
20 44 40
21 44 41
22 47 43
21 44 41
22 45 41
22 46 42
22 45 41
22 44 41
23 45 41
23 44 40
24 45 42
25 47 43
25 47 43
26 46 42
28 49 45
28 48 44
29 48 44
30 49 44
31 50 45
32 49 44
33 50 45
35 51 46
36 52 46
38 54 48
39 54 48
41 54 49
43 56 50
45 59 52
46 58 51
49 60 54
50 61 54
53 63 56
55 65 57
57 67 59
60 68 60
62 70 62
64 72 62
67 75 66
70 76 66
72 78 68
75 80 69
77 82 71
80 84 72
83 87 74
86 88 76
88 91 78
91 94 80
94 95 82
97 98 84
99 100 86
102 103 88
105 105 90
107 107 91
110 109 93
112 111 95
115 113 97
117 115 98
119 118 100
121 119 101
124 121 103
126 122 104
127 124 106
129 125 107
131 128 108
132 129 110
134 130 110
135 131 111
136 132 112
137 133 113
138 133 113
139 134 114
139 135 115
140 135 115
140 135 115
140 135 115
140 136 115
140 135 115
139 135 115
139 134 114
139 134 114
138 134 114
137 132 112
136 131 111
134 130 110
133 129 110
132 128 109
130 126 107
128 125 106
127 123 105
125 122 103
123 120 103
121 119 101
119 117 99
116 115 98
114 112 96
111 110 94
109 108 92
106 106 90
104 104 89
101 102 87
99 100 85
96 98 84
93 95 82
91 93 80
88 90 78
85 88 76
83 86 74
80 85 73
77 82 71
75 80 70
