P3
120 80
255
22 39 39
21 39 38
15 36 35
22 39 39
15 36 35
27 42 42
22 39 39
15 36 34
15 36 35
27 43 43
15 35 34
22 39 38
15 36 35
16 37 35
22 39 38
15 35 34
22 40 39
15 35 34
16 37 35
15 35 34
15 36 35
22 40 39
21 39 38
15 36 34
15 35 34
15 35 34
15 36 35
22 39 38
22 39 39
21 39 38
16 36 35
15 36 35
15 35 34
15 36 35
15 36 34
15 36 35
22 39 39
15 35 34
15 35 34
15 35 34
22 40 39
15 35 34
27 42 42
15 35 34
15 35 34
26 42 42
15 35 34
15 35 33
15 35 34
15 36 35
22 40 39
15 35 34
27 43 43
22 39 39
22 40 39
21 38 38
22 39 39
15 36 35
15 36 34
15 36 35
22 40 39
22 39 39
15 36 34
15 36 35
15 36 35
22 40 39
15 35 34
15 36 35
15 35 34
16 36 35
22 39 39
15 36 34
22 39 39
16 36 35
27 43 43
15 35 34
21 39 38
15 36 35
15 36 34
22 40 39
22 39 38
15 36 34
15 35 34
15 36 35
15 36 35
27 42 42
22 41 40
26 42 42
15 35 34
15 36 35
22 39 39
15 35 33
15 36 35
15 36 34
22 39 39
15 35 34
15 36 34
15 36 35
15 35 34
15 35 34
15 36 35
22 39 38
22 39 39
15 36 34
15 35 34
15 35 34
15 36 35
16 37 35
31 45 46
15 35 34
22 39 39
21 38 38
15 36 34
22 39 39
22 40 39
15 36 34
15 35 34
22 39 39
15 35 33
22 39 39
15 36 34
15 36 34
15 35 34
16 36 35
15 36 35
15 36 35
15 36 34
15 36 35
15 36 35
15 36 34
15 35 34
16 37 36
16 37 35
15 36 35
15 35 34
15 36 35
15 36 35
15 35 34
16 37 35
15 35 34
15 36 35
15 34 33
15 35 34
15 36 35
15 36 34
16 37 35
15 36 35
15 36 35
15 36 34
15 35 34
16 36 35
15 36 34
15 36 35
16 37 35
15 36 35
15 36 34
16 36 35
15 36 35
15 36 35
15 36 35
15 36 34
15 36 35
16 37 35
16 36 35
15 36 35
15 35 34
15 36 35
15 36 34
15 35 34
15 35 34
15 36 35
15 35 34
16 37 35
15 36 34
15 36 35
15 36 35
15 36 34
15 36 35
15 36 35
15 36 35
15 35 34
15 35 34
15 36 35
15 36 35
15 35 34
15 36 34
15 36 34
16 37 35
15 36 35
15 36 34
16 37 35
15 36 35
15 36 34
15 36 35
15 35 34
15 36 34
16 37 36
15 36 34
15 36 34
16 36 35
15 36 35
15 36 35
15 35 34
15 36 35
15 36 35
15 35 34
15 36 34
15 35 34
15 36 35
15 36 35
15 35 34
15 36 34
15 35 34
16 37 35
15 36 34
15 36 35
15 36 34
15 36 35
15 36 35
15 36 35
15 35 34
15 36 35
15 36 34
15 35 34
15 36 35
15 36 35
15 36 34
15 36 34
15 36 35
15 36 35
15 36 35
15 36 35
15 36 34
16 37 35
15 36 34
16 36 35
15 35 34
15 35 34
15 36 34
15 35 34
16 36 35
15 36 34
15 36 34
15 36 35
15 35 34
16 37 35
15 36 35
15 35 34
15 36 35
15 36 35
16 37 35
15 36 35
16 36 35
16 37 35
16 36 35
15 36 35
16 36 35
16 38 36
15 36 35
15 35 34
15 36 35
15 35 34
15 36 34
15 36 35
15 36 35
16 36 35
15 36 34
15 36 35
16 37 35
15 36 35
15 35 34
15 36 35
15 36 35
15 36 35
15 36 35
15 36 34
16 36 35
15 36 34
15 36 35
16 37 35
15 36 34
15 36 35
15 35 34
15 36 35
16 36 35
15 36 35
15 36 35
16 37 35
16 37 35
15 36 34
16 37 35
15 35 34
15 36 34
15 36 34
16 37 35
15 36 34
16 37 35
16 37 35
15 36 34
15 35 33
15 35 34
15 36 34
16 37 35
16 37 35
16 36 35
15 36 35
15 36 34
16 36 35
16 36 35
15 36 34
16 37 36
15 36 35
15 35 34
16 36 35
16 37 35
15 36 34
16 36 35
15 36 35
15 35 34
15 36 34
15 36 35
15 36 35
15 36 34
15 36 34
15 36 35
16 36 35
15 36 34
15 36 34
15 36 35
15 36 35
15 36 35
15 36 34
15 35 34
15 35 34
16 37 35
15 35 34
16 36 35
15 35 34
15 35 34
15 35 34
16 36 35
15 36 35
15 35 34
16 37 35
15 36 35
15 36 35
15 35 34
16 36 35
16 37 35
15 36 35
15 36 35
15 36 35
15 36 35
16 36 35
15 36 34
15 35 34
16 37 35
15 36 34
15 36 34
16 37 35
15 35 34
15 36 35
15 36 35
15 36 35
16 36 35
16 37 35
16 36 35
16 37 35
15 36 35
15 36 35
15 36 35
15 36 34
16 37 35
15 36 35
16 36 35
16 37 35
16 37 36
15 36 35
16 37 35
15 36 34
15 36 35
16 36 35
16 36 35
16 36 35
16 36 35
16 37 35
16 36 35
15 36 34
16 37 35
16 36 35
15 36 34
16 36 35
16 37 35
15 36 34
15 36 35
16 36 35
15 35 34
16 36 35
15 36 35
15 36 35
16 36 35
15 35 34
15 35 34
16 37 35
15 36 34
16 37 36
15 36 35
16 37 35
16 37 35
16 36 35
15 36 34
16 37 35
16 37 35
15 35 34
16 37 35
16 36 35
16 36 35
16 36 35
15 36 35
16 36 35
15 36 35
15 36 35
16 37 35
16 37 35
16 37 36
16 37 36
16 37 35
16 37 35
16 37 35
16 37 35
16 36 35
15 36 35
15 36 35
16 37 36
15 36 35
16 36 35
16 37 35
16 36 35
15 36 34
16 36 35
16 36 35
15 36 35
16 37 35
15 36 35
15 36 34
15 36 34
15 36 35
16 37 35
15 36 35
15 35 34
16 37 35
16 36 35
15 36 34
15 36 34
15 35 34
16 37 35
16 37 36
15 36 35
16 36 35
16 37 35
16 36 35
15 36 34
15 36 35
15 35 34
16 37 35
15 36 35
16 37 36
16 37 35
15 36 35
15 36 35
16 37 35
15 36 35
15 36 34
16 36 35
15 35 34
16 37 36
16 36 35
16 36 35
16 37 35
15 36 34
16 37 35
16 37 35
16 36 35
16 37 35
16 37 35
16 38 36
16 37 35
16 36 35
15 36 34
16 37 35
16 37 35
16 38 36
16 36 35
15 36 35
16 37 35
16 36 35
16 37 35
16 36 35
15 36 34
15 36 35
16 38 36
15 36 34
16 37 35
15 36 34
16 37 35
16 37 36
16 37 35
16 36 35
16 36 35
16 37 35
16 36 35
15 36 35
16 37 35
16 37 35
16 37 36
16 37 35
16 37 35
16 37 35
16 37 35
16 37 35
16 36 35
16 37 35
16 37 35
16 36 35
15 36 34
16 37 35
16 37 35
15 35 34
15 36 34
16 37 36
16 36 35
16 36 35
16 37 36
15 36 34
16 37 35
15 36 34
16 36 35
16 37 35
16 37 35
16 37 35
16 37 35
16 37 36
15 36 35
16 37 36
15 36 34
15 36 34
16 37 35
16 37 35
16 36 35
15 36 34
15 36 34
16 36 34
16 36 35
16 37 35
16 37 35
16 37 36
16 37 36
16 36 35
16 36 35
16 37 35
16 37 35
16 37 35
16 37 35
15 36 35
16 37 36
15 36 34
16 37 35
16 37 35
15 36 34
15 36 35
16 36 35
16 37 35
16 37 35
16 37 35
16 37 35
16 37 35
15 36 35
16 37 35
16 37 35
16 36 35
15 36 35
16 36 35
16 36 35
16 37 35
16 37 36
16 36 35
15 36 34
16 37 35
16 36 35
16 36 35
16 36 35
16 36 35
15 36 35
16 36 35
15 36 34
15 36 34
15 36 35
16 36 35
16 36 35
15 36 35
16 36 35
16 37 35
16 36 35
15 36 35
16 37 36
15 36 34
16 36 35
16 36 35
16 37 35
16 37 35
16 36 35
16 36 35
16 37 36
16 37 35
16 37 35
16 37 35
16 37 35
16 36 35
15 36 34
16 37 35
15 36 34
16 36 35
16 37 35
16 37 35
16 37 36
16 36 35
16 37 35
16 36 35
16 37 35
16 37 35
16 37 35
15 36 35
16 37 36
16 36 35
16 37 35
16 36 35
16 37 35
16 37 36
16 36 35
16 36 35
16 37 36
16 37 36
16 37 35
16 37 35
15 36 34
16 37 35
16 36 35
16 36 35
16 36 35
16 37 35
16 37 35
16 37 36
15 36 34
16 37 35
16 37 36
16 36 35
16 37 36
16 36 35
16 37 36
16 36 35
16 37 36
16 37 35
15 36 34
16 37 36
16 37 36
16 37 35
16 36 35
16 36 35
16 36 35
16 36 35
15 36 34
16 36 35
15 36 35
16 37 35
16 36 35
16 37 35
16 37 35
16 37 36
16 36 35
15 36 35
16 36 35
16 37 35
16 36 35
16 37 35
15 36 34
16 36 35
16 36 35
16 36 35
16 37 35
16 37 36
16 38 36
16 38 36
16 38 36
16 37 36
16 37 36
15 36 34
15 36 34
15 36 35
16 36 35
16 36 35
16 36 35
16 37 36
16 37 35
16 37 35
16 37 35
15 36 34
16 37 35
16 36 35
16 38 36
16 37 35
15 36 35
16 37 35
15 36 35
16 36 35
16 37 35
16 37 35
16 36 35
16 38 36
16 37 35
16 37 35
16 37 35
16 37 35
16 37 35
16 37 35
16 37 36
16 37 35
15 36 35
16 37 36
16 37 35
16 37 35
16 37 36
16 37 35
16 37 35
16 37 36
16 36 35
16 37 36
16 36 35
16 37 36
16 37 35
16 37 35
15 36 34
16 37 36
16 37 35
16 37 36
16 37 35
16 37 36
16 37 35
16 37 35
16 36 35
16 37 35
16 37 35
16 37 35
16 37 35
16 37 35
16 37 36
16 37 36
16 37 36
16 37 35
16 37 35
16 36 35
16 36 35
16 37 35
16 37 35
16 37 36
16 37 35
16 37 35
16 36 35
16 37 35
16 36 34
16 37 35
16 36 35
16 37 35
16 37 36
16 37 35
16 37 36
16 37 36
16 37 36
16 38 36
16 36 35
16 36 35
16 37 35
16 37 36
16 36 35
16 37 35
16 37 35
16 38 36
16 37 35
16 37 35
16 37 36
16 38 36
16 36 35
16 37 35
16 37 35
16 37 35
16 37 35
16 37 35
16 36 35
16 37 36
16 38 36
16 37 35
16 37 35
16 37 36
16 37 35
16 36 35
16 37 36
16 38 36
16 37 36
16 37 36
16 36 35
16 37 36
16 36 35
16 37 35
15 36 34
16 38 36
16 37 35
16 37 35
16 38 36
16 37 35
16 37 36
16 38 36
16 37 36
16 37 35
16 37 36
16 36 35
16 36 34
16 37 35
16 37 36
16 37 35
16 37 35
16 37 35
16 38 36
16 37 35
16 38 36
16 37 35
16 37 35
15 36 34
16 36 35
16 37 36
16 37 36
16 37 35
16 37 36
16 38 36
16 37 35
16 37 35
16 37 35
16 38 36
16 38 36
16 38 36
16 37 35
16 36 34
16 38 36
16 36 35
16 37 35
16 37 36
16 37 35
16 37 36
16 37 35
16 37 36
16 36 35
16 37 36
16 37 36
16 37 35
16 37 36
16 38 36
16 37 35
16 37 36
16 37 36
16 37 35
16 38 36
16 37 35
16 37 36
16 37 35
16 38 36
16 37 36
16 36 35
16 37 35
16 38 36
16 37 35
16 37 36
16 38 36
16 38 36
16 37 36
16 36 35
16 38 36
16 37 35
16 37 35
16 38 36
16 38 36
16 37 36
16 37 36
16 38 36
16 37 36
16 37 35
16 36 35
16 38 36
16 37 35
16 37 35
16 37 35
16 37 36
16 37 36
16 36 35
16 38 36
16 37 35
16 37 36
16 38 36
16 37 35
16 37 35
16 38 36
16 37 35
16 37 36
16 37 36
16 38 36
16 38 36
16 37 36
16 37 35
16 36 34
16 37 35
16 37 36
16 37 35
16 38 36
17 38 36
16 37 36
16 38 36
16 37 36
16 37 36
17 38 36
16 37 35
16 38 36
16 37 35
16 37 35
16 37 35
16 37 35
16 37 36
16 37 35
16 37 35
16 37 35
16 37 35
16 37 35
16 37 36
16 37 36
16 37 36
16 38 36
16 37 35
16 38 36
16 36 35
16 38 36
16 37 35
16 38 36
16 38 36
16 37 36
16 37 35
16 37 36
16 37 35
16 37 35
16 38 36
16 38 36
16 38 36
16 38 36
16 37 35
16 38 36
16 37 35
16 37 35
16 38 36
16 38 36
16 38 36
17 38 36
16 38 36
16 37 36
16 37 35
16 38 36
16 38 36
16 38 36
16 37 35
16 37 35
16 37 35
16 37 35
17 38 36
16 38 36
16 38 36
16 38 36
16 37 36
16 37 35
16 38 36
16 37 36
16 37 36
16 37 35
16 36 34
16 37 36
16 37 36
16 37 35
16 37 35
16 37 35
16 37 35
16 38 36
16 37 35
16 37 35
16 38 36
17 39 37
16 37 35
16 37 35
16 37 36
16 37 35
16 37 36
16 38 36
16 38 36
16 37 35
16 37 36
16 38 36
16 38 36
16 38 36
16 37 36
16 37 36
16 37 35
16 38 36
16 38 36
16 36 35
17 39 37
16 37 35
16 37 36
16 37 35
16 37 36
16 38 36
16 38 36
16 38 36
16 37 35
17 38 37
16 37 35
16 37 35
16 38 36
16 37 36
15 35 34
16 37 35
16 38 36
16 37 35
16 37 35
16 38 36
16 38 36
16 37 35
16 37 35
16 38 36
16 37 36
16 38 36
16 37 35
16 38 36
16 38 36
16 38 36
16 38 36
16 37 36
16 38 36
16 37 35
16 37 36
16 37 35
16 38 36
16 37 35
17 38 36
16 37 35
16 37 35
16 37 35
16 38 36
16 37 36
16 38 36
16 36 35
16 37 35
16 36 34
16 37 35
16 38 36
16 38 36
16 37 36
16 37 35
16 38 36
16 37 35
16 37 35
16 37 35
16 37 36
16 37 35
16 37 36
16 36 34
16 37 35
16 38 36
16 38 36
16 38 36
16 38 36
16 37 36
16 38 36
16 38 36
16 37 35
16 37 36
16 36 35
16 38 36
16 37 35
16 37 35
16 38 36
16 38 36
16 38 36
16 38 36
16 37 35
17 39 37
16 37 36
17 38 37
16 38 36
16 37 35
17 39 37
16 37 35
16 38 36
17 38 37
16 37 35
16 38 36
16 38 36
16 38 36
16 38 36
16 38 36
16 38 36
16 38 36
16 37 35
16 38 36
17 38 36
16 38 36
17 38 36
16 38 36
16 38 36
16 38 36
16 38 36
17 38 36
16 38 36
16 37 35
16 37 35
16 38 36
16 37 35
16 38 36
16 38 36
16 38 36
16 37 36
17 38 37
16 38 36
16 37 35
16 38 36
16 38 36
16 38 36
17 38 36
17 38 36
16 38 36
16 37 35
17 38 37
16 38 36
16 38 36
16 37 35
16 37 35
16 38 36
16 38 36
17 39 37
16 37 36
17 38 36
16 38 36
16 38 36
16 38 36
16 38 36
16 38 36
16 38 36
16 36 34
16 38 36
16 38 36
16 38 36
16 37 35
16 37 35
16 37 35
16 38 36
16 38 36
16 38 36
17 39 37
16 38 36
17 38 36
16 37 35
17 38 36
17 39 37
16 37 35
16 38 36
16 37 35
17 38 36
17 39 37
16 38 36
17 39 37
16 36 34
17 38 36
16 38 36
16 38 36
16 38 36
16 38 36
16 37 36
16 37 36
16 37 35
16 37 35
16 37 36
16 38 36
16 38 36
16 37 35
17 38 36
16 37 36
17 38 36
16 38 36
17 38 36
16 38 36
16 38 36
17 38 36
17 39 37
17 38 36
16 37 36
16 37 36
16 37 35
17 38 36
16 37 36
16 38 36
16 38 36
17 39 37
17 39 37
16 37 35
16 37 36
16 37 36
16 38 36
16 38 36
16 38 36
16 37 35
17 38 36
17 39 37
16 37 36
16 38 36
17 39 37
16 38 36
16 37 36
17 39 37
17 39 37
16 38 36
17 39 37
16 38 36
17 38 36
16 38 36
16 37 35
17 38 36
16 38 36
16 37 35
16 37 35
16 37 35
17 39 37
17 38 36
16 38 36
16 38 36
16 37 36
16 38 36
16 38 36
16 38 36
16 38 36
16 38 36
16 38 36
16 37 35
16 37 35
16 38 36
16 37 35
17 39 37
17 39 37
16 37 36
16 38 36
16 37 35
17 38 37
17 39 37
17 39 37
17 38 36
17 38 36
17 39 37
17 38 36
17 38 36
16 37 35
16 38 36
17 38 36
17 39 37
16 37 36
17 39 37
17 39 37
17 38 36
16 37 35
17 39 37
17 38 37
17 39 37
17 38 37
16 38 36
17 39 37
17 38 36
17 39 37
16 37 35
17 38 36
16 38 36
17 39 38
16 38 36
16 38 36
16 38 36
16 38 36
16 38 36
16 38 36
16 38 36
17 38 36
16 37 35
17 38 36
17 39 37
17 38 36
17 38 36
16 37 36
16 37 35
16 37 36
17 39 37
16 37 35
17 38 36
17 39 37
16 36 35
17 38 36
16 37 35
16 38 36
16 38 36
16 37 35
16 37 35
17 38 37
17 38 36
16 38 36
16 38 36
16 38 36
16 38 36
17 39 37
16 38 36
17 39 37
16 37 35
16 38 36
17 39 37
16 37 35
16 37 35
17 39 37
16 38 36
17 39 37
16 38 36
16 38 36
16 38 36
16 38 36
17 38 36
16 38 36
17 38 37
16 38 36
16 38 36
17 39 37
17 38 36
17 38 36
16 37 35
16 38 36
17 38 36
17 39 37
17 38 36
17 38 36
17 39 37
17 38 36
16 37 35
16 38 36
16 38 36
17 38 36
17 39 37
17 39 37
16 37 35
17 39 37
17 39 36
17 39 37
17 38 36
16 38 36
17 39 37
17 38 36
17 38 36
17 38 36
16 38 36
17 39 37
16 38 36
16 38 36
16 38 36
17 39 36
17 38 36
17 39 37
16 38 36
17 39 37
17 38 36
17 38 36
17 38 36
17 39 37
17 39 37
17 39 37
17 38 36
16 38 36
17 39 37
17 38 36
17 38 36
17 39 36
17 39 37
17 39 36
17 38 36
17 38 36
17 39 37
17 38 36
16 38 36
17 38 36
17 38 36
17 38 36
16 38 36
16 37 35
16 37 35
16 38 36
17 39 37
17 39 37
17 39 37
17 38 36
16 38 36
16 37 35
17 39 37
17 38 36
17 39 37
17 39 37
16 38 36
16 38 36
17 38 36
17 39 37
17 38 36
16 38 36
17 38 36
17 38 36
16 38 36
17 38 36
16 38 36
16 38 36
17 38 36
16 38 36
17 38 36
17 39 37
17 39 37
17 38 36
16 38 36
17 39 37
17 38 36
16 38 36
17 38 36
17 38 36
17 39 37
17 39 37
16 38 36
17 39 37
16 38 36
17 38 36
17 39 37
17 38 36
17 39 37
17 39 36
17 38 36
16 38 36
17 38 36
17 38 36
17 39 36
16 38 36
17 39 36
17 38 36
16 38 36
17 39 37
17 38 36
17 39 37
17 38 36
17 38 36
17 38 36
17 38 36
17 38 36
17 38 36
16 38 36
17 38 36
17 38 36
17 39 37
17 39 37
17 39 37
17 39 37
17 39 37
17 39 37
17 39 37
17 39 37
17 39 37
16 38 36
17 39 37
17 39 37
17 39 37
17 38 36
17 38 36
17 38 36
17 38 36
17 39 37
17 38 36
17 38 36
17 38 36
16 38 36
17 39 37
17 39 37
17 38 36
17 39 37
17 38 36
16 38 36
17 38 36
17 39 37
17 39 37
17 38 36
17 39 37
17 38 36
17 39 37
17 38 36
17 38 36
17 38 36
17 39 36
17 39 37
17 38 36
17 38 36
17 39 37
17 39 36
17 39 37
17 39 36
17 39 37
17 39 37
17 39 37
17 39 37
17 39 36
17 39 37
17 39 36
17 38 36
17 39 37
17 39 37
17 38 36
17 39 37
17 39 36
16 38 36
17 38 36
16 38 36
17 39 37
17 38 36
17 39 37
17 39 37
17 38 36
17 39 37
17 39 37
17 39 37
17 38 36
17 38 36
17 38 36
17 38 36
17 38 36
17 39 37
17 38 36
17 40 37
17 39 37
17 38 36
17 40 37
17 39 37
17 38 36
17 38 36
16 38 36
17 39 37
17 39 37
17 39 37
17 39 37
16 38 36
17 39 37
17 39 37
17 39 37
17 39 37
17 39 37
17 38 36
17 39 37
17 38 36
17 38 36
17 38 36
17 38 36
17 39 37
17 39 37
17 40 37
17 38 36
17 39 37
17 39 37
17 38 36
17 39 37
17 39 37
17 39 37
17 38 36
16 38 36
17 40 37
17 38 36
17 39 37
17 38 36
16 38 36
17 39 37
17 39 36
17 39 37
17 40 38
17 39 37
17 40 38
17 39 37
17 39 37
17 39 37
17 39 37
17 38 36
17 39 37
17 39 37
17 39 37
17 39 37
17 39 37
17 40 38
17 39 37
17 39 37
17 39 37
17 39 37
16 38 35
17 39 37
17 39 37
17 38 36
17 39 37
17 39 37
17 38 36
17 39 37
17 38 36
17 40 37
17 40 37
17 39 36
16 38 36
17 39 37
18 40 38
17 39 37
17 39 36
17 39 36
17 39 36
17 39 37
17 39 37
17 40 38
17 38 36
17 40 38
17 39 37
17 39 37
17 39 37
16 38 36
17 39 37
17 40 37
17 39 36
17 39 37
17 40 38
17 39 37
17 38 36
17 39 37
17 39 37
17 39 37
17 39 37
17 39 37
17 39 37
17 40 37
17 39 36
17 39 36
17 40 38
17 38 36
17 38 36
17 40 38
17 39 37
17 39 37
18 40 38
17 38 36
17 39 36
17 39 37
17 40 37
17 38 36
17 39 37
17 40 38
17 38 36
17 39 37
17 38 36
17 39 36
17 40 38
17 38 36
17 38 36
17 39 36
17 39 37
17 39 37
17 38 36
17 39 37
17 40 38
17 38 36
17 39 36
17 39 37
17 39 37
17 39 37
17 40 38
17 39 37
17 39 37
17 40 38
17 39 37
17 39 37
17 38 36
17 39 37
17 39 37
17 39 37
17 39 37
17 39 37
17 39 37
17 39 37
17 39 37
17 39 37
17 39 37
17 39 37
17 38 36
17 39 37
17 39 37
17 39 37
17 39 37
17 39 37
17 39 37
17 39 37
17 39 37
17 39 37
17 38 36
17 39 37
17 39 37
17 39 37
17 38 36
17 38 36
17 39 37
17 40 37
17 38 36
17 39 37
17 39 37
17 39 37
17 39 36
17 40 37
17 38 36
17 40 37
17 39 37
17 39 37
17 39 36
17 39 37
17 40 37
17 39 37
17 39 37
17 39 37
17 39 37
17 39 37
17 39 37
17 39 36
17 39 36
17 38 36
17 40 37
17 40 37
18 40 38
17 39 36
17 39 37
17 40 38
17 40 37
17 39 37
17 39 36
17 39 37
17 39 37
17 39 37
17 39 36
17 39 37
17 39 36
17 39 37
17 40 37
17 39 36
17 39 37
18 40 38
17 39 37
18 41 38
17 40 37
17 39 37
17 39 37
17 40 37
17 39 37
17 39 37
18 40 38
17 39 37
17 39 36
17 39 37
17 40 38
17 39 37
17 39 37
17 40 38
17 40 38
17 40 37
18 40 38
17 39 37
17 39 37
17 40 37
18 40 38
17 39 37
17 39 37
17 38 36
17 39 37
17 39 37
17 39 37
17 38 36
17 38 36
17 39 37
17 38 36
18 41 39
17 38 36
17 39 37
17 40 37
18 40 38
17 38 36
17 38 36
17 39 36
17 39 37
17 38 36
17 39 37
17 40 37
17 39 36
17 39 37
17 40 37
18 40 38
17 40 37
17 40 38
17 39 36
17 39 37
18 40 38
17 39 37
17 39 37
18 40 38
17 39 37
17 39 37
17 39 37
17 39 36
17 40 37
17 40 38
17 39 36
17 40 37
17 39 37
17 40 37
18 40 38
17 39 37
17 40 37
17 39 36
17 39 37
18 40 38
17 40 37
17 39 37
17 38 36
18 40 38
17 40 37
17 40 37
18 40 38
17 40 37
17 39 36
17 39 37
18 40 37
17 39 37
17 39 36
18 41 38
17 39 37
17 39 37
17 40 37
17 40 38
17 40 38
18 41 38
18 41 39
17 39 36
18 40 38
17 39 37
17 40 37
17 39 37
18 40 37
18 40 37
17 40 37
17 39 37
17 40 37
18 41 38
17 39 37
17 39 37
18 40 38
18 40 38
17 40 38
17 40 37
17 40 38
18 40 38
18 41 38
17 39 37
18 40 38
18 41 38
18 40 38
18 41 38
18 40 38
17 39 37
18 41 38
18 40 38
17 39 37
18 40 38
17 40 37
17 39 37
17 40 37
18 40 38
17 39 37
17 39 37
17 40 37
17 39 37
17 39 37
18 41 38
17 39 37
18 40 38
18 41 38
18 40 38
17 40 37
18 40 38
17 39 37
17 40 38
18 40 38
17 40 37
18 40 38
18 40 38
17 39 36
17 39 37
17 40 37
17 38 36
17 40 38
17 39 37
17 38 36
17 39 37
17 40 37
17 40 37
17 40 37
17 39 37
17 39 37
17 39 36
17 39 37
17 40 37
17 40 37
18 40 38
17 39 37
17 39 37
17 40 37
17 39 37
17 39 37
18 40 38
18 40 38
18 40 38
17 39 37
18 40 37
18 41 38
17 39 37
18 40 38
18 40 38
17 39 36
18 40 38
17 39 37
17 40 37
18 40 38
17 39 37
17 39 37
18 41 39
17 40 37
17 39 37
18 40 38
17 39 37
18 40 38
17 40 37
18 40 38
18 41 38
18 40 38
18 40 38
18 40 38
17 38 36
17 39 37
18 40 38
18 41 38
18 40 38
18 40 38
17 40 37
18 41 39
18 40 38
17 40 37
17 39 37
17 39 36
18 40 38
17 39 37
17 39 36
17 38 36
18 40 38
18 40 38
18 40 38
18 40 38
18 41 38
18 40 38
18 40 38
17 39 37
17 39 37
17 40 37
18 41 38
17 39 37
18 40 38
18 40 38
17 39 37
18 40 38
18 40 37
18 40 38
17 39 37
18 41 39
17 39 36
17 39 37
18 40 37
18 40 38
18 40 37
17 39 37
18 40 38
18 40 38
17 40 37
17 39 37
18 40 37
18 40 38
18 40 38
18 40 38
18 41 38
17 39 37
18 40 37
18 40 38
18 40 37
18 40 38
18 40 37
17 40 37
17 40 37
18 41 38
18 40 38
18 40 38
17 39 37
17 39 37
18 40 38
18 41 39
18 40 37
18 40 38
18 40 37
18 40 37
17 40 38
17 39 37
18 40 38
17 39 37
18 41 38
18 40 37
18 40 38
17 39 37
17 40 37
18 40 38
17 39 37
18 40 38
17 40 37
17 39 37
17 39 37
18 40 38
17 40 37
18 41 38
18 40 37
17 40 38
18 41 38
18 40 38
17 40 37
18 40 38
18 40 38
18 41 38
18 40 38
17 39 37
18 41 38
18 41 38
18 41 38
17 40 37
18 40 38
18 40 38
18 40 38
18 40 38
18 41 38
18 40 37
18 41 38
17 40 37
18 40 38
18 41 38
18 40 38
18 41 38
18 40 38
18 40 37
18 40 38
18 41 38
18 41 38
17 40 37
17 39 37
18 41 38
18 41 38
18 42 39
18 41 39
18 41 38
18 41 38
18 41 38
18 40 38
17 40 37
17 40 37
17 40 37
18 40 38
18 41 39
18 41 38
18 40 38
18 40 38
18 41 38
18 40 38
18 40 38
18 40 38
18 40 38
18 40 38
18 41 38
17 40 37
18 41 39
17 40 37
18 40 38
18 41 38
18 40 38
18 40 38
18 41 38
18 41 38
18 40 38
18 41 39
18 40 38
18 40 37
18 40 38
18 40 38
18 41 38
17 40 37
18 41 38
18 40 38
18 40 37
18 41 38
18 40 37
18 41 38
18 41 38
18 40 38
18 41 39
18 41 38
18 40 38
18 41 38
18 41 38
18 40 38
18 40 38
18 41 38
18 40 38
17 40 37
18 40 38
18 41 38
17 40 37
18 40 37
18 40 38
18 40 38
17 39 37
18 40 38
18 40 37
18 42 39
18 40 37
18 40 37
18 41 39
18 40 37
18 40 38
18 40 37
18 41 38
18 41 38
18 40 38
17 39 37
18 40 38
17 40 37
17 39 37
18 40 38
17 40 37
18 40 38
18 40 37
17 40 37
18 40 38
18 40 38
18 41 38
18 41 38
18 41 38
18 41 38
18 40 38
17 40 37
17 40 37
18 41 38
18 40 37
18 41 38
18 41 38
18 40 37
18 40 38
18 41 38
18 41 38
17 39 37
18 41 38
18 40 38
18 40 38
18 40 38
18 41 38
18 40 38
18 40 37
18 40 38
18 41 38
18 41 39
18 41 39
18 41 38
18 41 39
18 40 38
18 41 38
18 42 39
18 41 39
18 41 38
19 42 39
19 42 39
18 41 39
17 39 37
18 41 39
18 40 37
18 41 38
18 40 38
18 41 38
18 41 38
18 41 39
18 41 38
18 41 38
18 40 38
18 41 38
18 41 38
18 41 38
18 41 38
17 40 37
18 42 39
18 41 38
18 40 38
18 41 38
18 41 38
18 40 38
18 41 38
18 41 38
18 41 38
18 40 38
18 40 38
18 40 38
18 41 38
18 40 37
18 41 38
18 41 39
18 40 38
18 40 37
18 41 38
18 41 39
19 42 39
18 41 38
18 40 38
18 40 38
18 40 37
18 41 38
18 40 37
18 41 38
18 41 39
18 42 39
18 41 38
18 41 38
18 41 38
18 40 38
18 41 38
18 41 38
18 41 38
18 41 38
18 41 38
18 41 38
18 40 38
18 40 37
18 41 38
18 41 38
18 41 38
18 42 39
18 40 38
18 41 38
18 40 38
18 41 38
18 41 38
18 41 39
18 40 38
18 41 38
18 40 38
18 41 38
18 40 37
18 41 38
17 40 37
18 41 38
18 41 38
18 40 37
18 40 37
18 40 37
18 40 37
18 41 38
18 41 39
18 40 38
18 41 38
18 40 37
18 40 38
18 41 38
18 40 38
18 41 38
18 40 38
18 41 38
18 41 38
18 40 38
17 40 37
18 41 39
18 42 39
18 41 38
18 41 38
18 40 38
18 41 38
18 41 38
18 40 38
18 40 38
18 41 38
18 41 38
18 41 39
18 41 38
18 41 38
18 40 37
18 41 38
18 42 39
18 42 39
18 40 38
18 41 39
18 40 37
18 41 38
18 41 38
18 40 37
18 41 38
18 41 38
18 41 38
18 41 38
18 41 38
18 41 38
18 41 38
18 42 39
18 41 38
18 41 38
19 42 40
18 40 37
18 41 38
19 42 39
18 41 39
18 41 38
18 41 39
18 41 39
19 42 39
18 41 39
19 42 39
19 42 39
19 42 39
18 41 38
18 41 38
18 41 38
18 41 38
19 42 39
18 40 37
18 42 39
18 41 38
18 41 38
18 40 37
18 41 38
18 41 38
18 42 39
18 41 38
18 41 38
18 41 38
18 40 38
18 41 38
18 41 39
18 42 39
18 42 39
18 41 38
19 42 39
18 41 39
19 42 39
18 42 39
19 42 39
18 41 38
18 41 38
19 42 39
19 42 39
18 41 38
18 41 38
18 41 38
18 42 39
18 41 38
19 42 40
19 42 39
19 42 39
18 42 39
19 42 39
18 42 39
18 41 38
18 41 38
19 42 39
18 41 38
18 42 39
18 42 39
18 41 38
18 40 38
18 41 38
18 41 38
18 40 37
18 41 38
18 41 38
18 41 38
18 41 38
18 40 38
17 40 37
18 42 39
18 41 38
18 40 37
18 42 39
18 41 39
18 41 39
18 40 38
18 41 38
18 42 39
18 41 38
18 41 38
18 41 38
18 41 38
18 41 38
19 42 39
18 41 38
18 41 39
18 41 38
18 41 38
18 41 38
18 41 39
18 41 39
18 41 38
18 40 38
19 42 39
18 41 38
18 41 38
18 42 39
18 41 38
18 42 39
19 42 39
19 43 40
18 41 38
19 42 39
19 42 39
19 42 39
18 41 38
18 41 38
18 41 38
19 42 39
18 41 38
18 41 38
19 42 39
19 43 40
19 42 39
19 42 39
19 42 40
19 42 39
19 43 40
18 41 38
19 42 39
18 42 39
18 41 38
18 42 39
19 42 39
18 41 39
18 40 38
18 41 38
19 42 39
18 41 39
18 41 38
18 41 38
18 41 39
19 42 39
19 42 39
19 42 39
18 41 38
19 43 39
19 42 39
19 42 39
19 43 40
18 42 39
19 42 39
19 42 39
18 41 38
19 42 39
18 41 39
19 42 39
19 42 39
18 41 39
19 42 39
19 42 39
19 42 39
19 43 40
18 41 38
19 42 39
19 42 39
18 41 38
19 42 39
19 42 39
18 41 38
19 42 39
19 42 39
19 42 39
19 42 39
18 42 39
19 42 39
18 41 39
19 43 40
19 42 39
19 42 39
18 41 38
18 42 39
19 42 39
18 42 39
18 42 39
18 42 39
19 43 40
18 42 39
18 41 39
19 42 39
18 41 39
18 41 39
18 42 39
18 41 39
18 41 38
18 40 38
18 41 38
18 41 38
19 42 40
18 42 39
18 41 38
18 41 39
18 42 39
18 41 39
19 42 40
18 40 38
18 41 38
18 41 38
19 42 39
18 41 38
18 41 38
19 42 39
18 41 38
19 42 39
18 41 38
18 41 38
19 42 39
19 42 39
19 42 39
19 42 39
18 41 39
19 42 39
19 42 39
18 41 39
19 43 40
19 42 39
18 41 38
19 42 39
19 42 39
18 41 39
18 42 39
18 41 38
18 41 39
19 43 40
18 42 39
18 42 39
18 42 39
19 42 39
18 42 39
19 42 39
18 42 39
19 42 39
19 43 40
18 41 38
19 42 39
18 42 39
18 42 39
19 42 39
19 43 40
18 41 39
19 42 39
19 43 39
19 43 40
18 41 38
19 42 39
19 42 39
19 42 39
19 43 40
19 43 40
19 42 39
19 42 39
19 42 39
19 42 39
18 41 38
19 43 40
19 42 39
19 43 40
19 42 39
19 43 40
19 43 39
19 43 40
19 43 40
19 42 39
19 42 39
19 43 40
19 42 39
19 43 40
19 43 40
19 43 40
19 42 39
19 43 39
20 44 41
19 43 40
19 42 39
19 42 39
19 42 39
19 42 39
19 42 39
19 43 40
19 43 40
19 43 40
19 42 39
19 43 40
19 42 39
19 42 39
19 43 40
19 42 39
18 41 38
19 43 40
19 42 39
19 42 39
19 42 39
19 42 39
19 42 39
19 43 40
19 43 40
19 43 40
19 43 40
18 41 38
19 42 39
18 41 38
18 41 38
18 42 39
18 41 38
19 42 39
19 42 39
19 42 39
19 42 39
18 42 39
19 42 39
19 42 39
18 41 38
18 42 39
18 41 38
18 42 39
18 42 39
19 42 39
18 42 39
18 42 39
18 41 38
19 42 39
18 41 39
18 42 39
19 43 40
18 42 39
19 42 39
18 42 39
19 42 39
19 42 39
19 42 40
19 42 39
19 42 39
18 41 38
19 43 40
18 41 38
19 42 39
18 41 38
19 42 39
18 41 38
19 42 39
19 42 39
18 42 39
19 42 39
18 42 39
19 43 40
19 42 39
19 42 39
19 43 40
18 41 38
19 42 39
18 41 38
19 43 40
19 44 41
18 41 38
18 41 38
19 42 39
19 42 39
19 42 39
19 43 40
19 42 39
19 43 40
18 42 39
19 43 40
19 42 39
19 42 39
19 43 40
19 42 39
19 43 40
19 43 40
19 43 40
19 43 40
20 45 41
19 42 39
19 43 40
19 42 39
19 43 40
19 43 40
19 42 39
19 43 40
19 43 40
19 42 39
19 43 40
20 44 40
19 44 40
19 42 39
19 43 40
19 43 40
19 43 40
19 43 40
19 43 39
19 44 40
20 44 41
19 44 40
19 42 39
19 43 39
19 43 40
19 43 40
19 43 40
19 43 40
19 43 39
19 42 39
19 42 39
19 43 40
19 43 40
19 42 39
19 42 39
19 42 39
19 43 40
19 43 40
19 44 40
19 43 39
19 43 40
19 42 39
19 43 40
19 42 39
19 42 39
19 43 40
19 43 40
19 43 40
19 43 40
19 42 40
18 41 38
18 41 39
18 41 38
18 41 38
18 41 39
19 42 39
18 41 38
19 42 39
19 42 39
18 41 39
18 42 39
18 41 38
19 42 39
19 44 41
19 42 39
18 42 39
18 42 39
19 42 39
19 42 39
19 42 39
19 42 39
19 42 39
19 43 40
19 42 39
18 41 38
19 42 39
19 43 40
19 43 40
19 42 39
19 42 39
18 42 39
19 43 40
19 42 39
19 42 39
19 43 40
19 43 40
18 42 39
19 42 39
19 44 41
19 43 40
19 43 40
19 44 40
19 42 39
19 43 40
19 42 39
19 43 40
19 43 40
19 43 40
19 42 39
20 44 41
19 43 40
19 43 40
19 43 39
19 42 39
19 43 40
19 43 39
19 42 39
19 42 39
19 43 40
19 42 39
19 43 40
19 43 39
19 43 40
19 43 40
19 43 39
20 44 41
19 43 40
19 43 39
19 44 40
19 43 40
20 44 41
19 42 39
19 43 39
19 44 40
19 43 40
20 44 41
19 42 39
19 43 40
20 44 40
19 43 40
19 43 40
19 43 40
20 44 40
19 44 40
20 44 41
19 43 40
19 44 40
19 44 40
20 44 41
19 43 40
20 44 41
20 44 40
20 44 40
20 44 40
19 43 40
20 44 40
20 44 41
19 43 40
20 45 41
19 43 40
19 43 40
20 44 40
19 44 40
19 43 40
19 44 40
19 42 39
19 44 40
19 43 40
19 43 40
19 43 39
19 44 40
19 43 40
20 44 41
20 44 40
19 43 40
19 44 40
19 44 40
20 44 41
20 44 40
19 42 39
19 42 39
18 41 38
18 41 38
19 42 39
18 42 39
19 42 39
19 42 39
19 42 39
19 42 39
19 42 39
19 43 40
18 41 38
19 42 39
19 42 39
19 42 39
19 42 39
18 41 38
18 41 38
19 42 39
19 43 40
19 43 40
19 43 40
19 42 39
19 42 39
19 44 40
19 44 40
19 42 39
19 42 38
19 43 40
19 43 40
19 42 39
19 43 40
19 43 39
19 43 40
19 43 40
19 43 40
19 43 40
19 43 39
19 43 40
19 43 40
20 44 41
19 43 40
19 42 39
19 44 41
19 43 39
19 42 39
20 44 40
19 43 40
19 42 39
19 44 40
20 44 41
19 42 39
19 43 40
19 43 40
20 44 41
19 42 39
20 44 40
20 44 41
20 44 41
19 43 39
19 43 40
20 44 41
19 43 40
20 44 40
20 44 41
19 43 40
20 44 40
19 43 40
20 44 41
20 44 41
20 44 40
20 45 42
20 45 41
20 44 40
19 43 40
20 44 40
20 44 40
20 44 40
20 44 41
20 44 41
20 44 40
20 44 40
20 44 40
19 43 40
20 45 41
19 44 40
20 45 41
20 45 41
20 44 40
20 44 40
20 45 42
20 44 41
20 44 40
19 43 39
19 43 40
20 45 41
20 44 41
20 44 41
19 43 40
19 43 39
20 45 41
20 44 41
20 44 40
20 44 40
20 44 40
20 44 40
20 44 40
20 44 41
20 45 41
20 44 41
20 44 41
20 45 42
19 43 40
20 44 40
20 44 41
20 45 41
20 44 40
20 44 40
20 44 41
19 43 40
18 42 39
19 43 39
19 42 39
19 42 39
19 42 39
19 42 39
18 41 38
19 42 39
18 41 38
19 42 39
19 43 40
19 42 39
19 42 39
19 43 40
19 43 40
19 42 39
19 43 40
19 43 40
19 43 40
19 43 40
19 43 40
19 43 39
19 43 40
19 42 39
19 44 40
19 42 39
19 42 39
19 43 40
19 43 40
19 43 40
19 43 40
19 42 39
20 44 41
19 42 39
19 43 39
20 44 41
19 42 39
19 43 40
19 44 40
19 44 40
19 42 39
19 43 40
19 43 40
19 43 39
19 43 40
19 43 39
20 44 40
19 43 40
20 44 40
19 43 40
20 44 40
20 44 40
20 44 41
20 44 41
19 43 40
20 44 41
20 45 41
20 44 40
19 43 39
20 44 40
20 44 41
19 43 40
19 44 40
20 44 40
19 43 40
20 44 40
20 45 42
20 45 41
20 45 41
20 45 41
20 45 42
20 45 41
20 45 42
20 44 41
20 45 41
20 45 42
20 44 41
19 43 40
20 44 41
20 44 41
20 45 41
20 44 40
20 44 41
20 45 41
20 45 42
20 44 41
20 45 42
20 45 41
20 45 41
20 45 41
20 44 40
20 44 40
20 44 40
20 45 41
20 44 41
20 45 41
20 44 41
20 44 40
20 43 40
20 45 41
20 45 41
20 45 42
21 46 42
20 45 41
20 44 41
21 46 42
20 45 42
20 44 41
20 44 41
20 44 41
20 45 42
20 44 41
20 44 40
20 45 41
20 45 41
20 44 40
20 44 41
20 45 41
20 45 41
19 43 40
19 42 39
19 43 40
19 43 39
19 43 40
19 43 40
18 42 39
19 42 39
18 41 39
19 43 40
19 43 40
19 42 39
19 42 39
19 43 39
19 43 40
20 44 40
19 43 40
19 42 39
19 43 40
20 44 41
19 43 40
19 43 40
19 43 40
19 42 39
19 43 40
20 44 41
19 43 40
19 42 39
20 44 40
19 43 40
19 42 39
19 43 39
19 42 39
19 44 40
19 43 40
20 44 40
19 44 40
20 44 41
19 43 40
19 43 40
19 43 40
20 45 42
19 43 39
19 43 40
19 43 40
19 43 40
19 43 40
19 43 40
19 43 39
20 44 41
19 43 40
20 45 41
20 44 40
20 44 41
20 43 40
20 44 40
20 44 41
20 44 40
20 45 41
20 44 41
20 45 41
20 44 40
20 44 41
20 44 41
20 45 41
20 45 41
20 45 41
20 44 40
20 45 41
20 44 40
20 44 41
20 44 40
21 46 42
20 45 41
20 45 41
20 45 41
20 45 42
20 45 42
20 45 41
20 45 41
20 44 41
20 45 41
20 45 41
20 45 42
20 45 41
20 45 41
21 46 42
20 45 42
20 45 41
21 46 42
20 45 41
21 46 42
20 45 41
21 46 42
20 45 42
20 45 41
21 46 42
20 45 41
20 45 41
20 45 42
20 45 41
20 45 41
21 46 42
21 47 43
21 46 42
20 45 41
20 44 40
20 45 42
21 47 43
21 46 42
20 45 42
20 45 41
21 46 43
20 45 41
21 46 42
20 45 41
20 45 41
20 45 41
20 45 41
21 46 42
19 43 40
19 42 39
19 43 40
19 44 40
20 44 40
19 43 40
19 42 39
19 43 40
19 42 39
20 44 41
19 43 40
19 42 39
19 43 40
20 44 40
19 42 39
19 43 40
19 44 40
19 43 40
19 44 40
19 43 40
19 43 40
19 43 40
20 44 41
20 44 40
19 43 40
20 44 41
20 44 40
19 43 40
19 43 40
19 43 40
20 44 41
20 44 41
20 44 40
20 44 40
19 43 40
20 44 41
20 44 41
20 44 41
20 44 41
20 44 40
20 44 41
20 44 40
19 43 40
20 44 40
20 44 41
20 44 41
20 45 41
20 45 41
20 44 40
20 44 41
20 45 41
20 44 41
19 43 40
20 44 41
20 44 40
20 45 41
20 44 41
20 45 41
20 44 40
20 44 40
20 45 42
20 45 41
20 44 41
20 45 41
20 44 41
20 44 41
20 44 41
20 45 41
21 46 42
20 45 41
20 45 42
20 45 41
21 46 43
20 45 41
20 45 41
20 45 41
20 45 41
21 46 43
21 46 42
21 45 42
21 47 43
21 47 43
20 45 41
21 46 43
21 46 42
21 46 42
20 45 41
21 47 43
20 45 41
20 45 41
20 45 42
21 46 42
20 45 41
21 46 43
21 46 42
20 45 41
20 45 41
20 45 41
21 46 42
20 45 41
21 46 42
21 46 42
21 47 43
20 45 42
21 47 43
21 46 42
20 45 41
21 46 42
21 46 42
21 46 42
20 45 42
21 46 42
20 45 41
21 46 42
21 46 42
20 45 41
21 47 43
21 46 42
21 46 42
21 45 41
20 44 41
19 42 39
19 42 39
19 43 40
19 43 40
19 43 40
19 42 39
19 43 40
19 43 40
19 43 40
19 42 39
20 44 40
20 44 41
19 43 40
19 44 40
19 43 39
19 43 40
20 44 41
19 43 40
19 43 40
19 42 39
19 44 40
20 45 41
20 44 40
20 44 41
20 44 40
19 43 39
19 43 40
19 43 40
20 45 41
20 44 41
20 44 41
20 44 41
20 45 41
19 43 40
20 44 40
19 43 40
20 45 41
20 44 41
20 45 41
20 44 41
20 44 41
20 44 41
20 45 41
20 45 41
20 45 41
20 45 42
20 45 42
20 44 41
21 46 43
20 45 41
20 44 40
21 46 42
20 45 41
20 45 41
20 44 40
20 45 41
20 45 42
20 45 42
21 46 42
20 45 41
21 47 43
21 46 42
21 46 42
20 45 41
20 44 41
21 46 42
21 46 42
21 46 43
20 45 41
21 46 42
20 45 42
21 45 42
21 46 42
21 46 42
21 46 42
21 46 42
21 46 42
21 46 42
21 47 43
21 47 43
21 46 42
21 46 42
21 46 42
20 45 41
21 46 42
21 47 43
21 46 42
21 46 42
21 47 43
21 46 42
20 45 41
21 46 42
21 47 42
21 46 42
20 45 41
21 47 43
21 47 43
21 47 43
21 45 41
21 46 42
21 47 43
21 46 42
21 46 42
21 47 43
22 48 44
21 46 42
21 46 42
21 46 42
21 47 43
21 46 42
21 46 42
21 46 42
21 47 43
21 46 42
21 46 42
20 45 41
22 48 43
21 46 42
21 47 43
20 44 41
19 43 40
19 44 40
19 43 40
19 43 40
19 43 40
19 43 40
19 43 40
19 43 40
19 43 39
19 43 39
20 44 41
19 43 40
20 44 40
20 45 41
20 44 41
19 43 40
19 44 40
20 44 41
20 44 41
20 44 41
20 45 41
20 45 41
20 45 41
20 45 41
20 45 41
19 43 40
20 44 40
20 44 41
20 44 40
20 44 41
19 43 40
20 45 41
20 43 40
20 46 42
21 46 42
19 43 40
20 45 41
19 43 40
20 45 42
20 45 41
20 45 41
20 45 41
20 44 40
20 44 40
21 46 42
20 44 41
20 45 41
20 44 41
20 45 42
21 46 42
20 45 41
20 45 41
20 44 41
20 45 41
20 45 41
20 45 41
20 45 41
21 46 42
21 46 42
20 44 40
21 46 42
21 46 43
21 46 42
21 46 42
21 46 42
21 46 42
20 45 41
20 45 41
21 47 43
21 45 42
21 47 43
20 45 41
21 46 42
21 46 42
21 46 42
21 46 42
21 47 43
21 45 42
21 47 43
21 46 42
21 47 43
21 46 42
21 45 42
21 46 42
21 47 43
21 46 42
21 47 43
21 46 42
21 47 43
21 46 42
21 47 43
21 46 42
21 47 43
22 49 44
21 47 42
22 48 44
21 47 43
21 47 43
21 47 43
22 48 43
21 46 42
21 47 43
21 47 43
22 47 43
21 46 42
22 48 44
21 47 43
21 47 43
21 46 42
21 46 42
21 47 43
21 47 42
22 48 44
21 47 43
21 47 43
21 47 42
22 49 44
21 47 43
21 47 43
19 43 39
20 44 41
19 42 39
19 43 40
19 43 40
19 43 40
20 45 41
20 44 40
20 44 41
19 43 39
20 44 40
19 43 40
20 44 40
20 44 41
20 45 41
20 44 41
19 43 40
20 44 41
20 44 41
20 44 41
19 42 39
20 44 40
20 45 41
20 44 40
20 44 41
20 44 41
20 45 41
20 45 41
20 45 41
20 44 40
20 44 40
20 44 41
20 44 40
20 45 41
20 45 41
20 44 40
21 46 42
21 46 42
20 44 40
20 45 41
20 45 41
20 45 42
20 44 41
21 46 42
20 45 42
20 44 41
20 44 41
21 46 42
21 46 42
20 45 41
21 45 42
21 46 42
20 45 41
21 46 42
21 46 42
21 46 42
20 45 41
20 45 42
21 47 43
20 45 41
20 45 41
21 46 42
21 46 42
20 45 41
21 46 42
21 46 42
21 47 43
21 47 43
20 45 41
21 45 41
21 47 42
21 47 42
21 45 42
21 47 43
21 46 42
21 47 43
21 46 42
21 47 42
21 47 43
22 48 44
85 52 45
165 65 51
163 104 92
72 72 65
21 47 43
21 46 42
21 47 43
21 46 42
21 46 42
21 47 43
21 46 42
22 47 43
22 48 44
21 47 43
21 47 43
22 47 43
21 47 43
21 47 43
21 47 43
22 48 43
22 47 43
22 48 44
21 47 43
22 48 44
22 48 44
22 49 44
22 48 44
21 46 42
22 47 43
22 48 44
22 48 44
22 48 43
22 48 44
22 47 43
21 47 43
21 47 43
22 48 43
21 47 43
21 47 43
22 47 43
19 43 40
19 43 40
19 43 39
20 44 41
20 44 41
20 44 40
19 43 40
19 43 40
19 43 40
20 45 41
20 44 41
19 42 39
20 44 41
20 44 41
20 45 41
20 45 42
20 44 41
20 45 41
19 43 40
20 44 41
20 45 41
20 44 40
20 45 41
20 45 41
20 44 41
20 44 40
20 46 42
20 44 41
20 45 42
20 45 41
20 44 40
20 45 42
21 46 42
21 46 42
20 45 41
20 45 41
20 45 41
20 44 41
21 46 42
20 45 41
21 46 43
21 46 42
21 46 42
21 47 43
21 46 42
20 45 42
20 45 42
21 46 42
21 46 42
21 46 42
21 46 42
20 45 42
21 46 42
20 45 41
21 46 42
21 46 42
21 46 42
21 45 42
21 46 42
21 46 42
20 45 41
21 46 42
21 46 42
21 46 42
21 46 42
21 46 42
21 46 42
22 48 43
22 48 43
21 47 43
20 45 41
21 47 43
21 47 43
21 47 42
21 47 43
21 47 43
21 47 43
22 48 44
21 47 43
100 55 48
203 68 50
227 124 107
249 218 197
218 192 173
65 71 64
21 47 43
21 47 43
21 47 43
22 47 43
22 49 44
22 48 43
21 47 42
21 47 42
22 47 43
22 47 43
22 49 44
22 49 44
22 48 43
22 49 44
22 48 44
22 48 44
21 47 43
22 48 43
22 48 43
22 48 44
22 48 43
22 47 43
22 48 44
22 48 44
22 48 44
22 48 44
22 48 43
22 49 44
22 48 44
22 48 44
22 47 43
22 48 44
22 48 44
22 47 43
22 48 44
20 44 40
19 43 40
20 44 41
20 44 41
19 43 40
20 44 41
19 43 40
20 44 41
20 44 41
20 45 41
20 45 42
20 44 41
19 43 40
20 44 40
21 46 42
20 46 42
20 44 40
20 44 41
20 45 41
20 45 41
20 44 40
20 44 41
20 45 41
20 45 41
20 44 40
20 45 41
20 44 40
20 44 41
21 46 42
21 46 42
20 45 42
20 45 42
21 46 43
21 47 43
20 44 41
20 45 41
21 46 42
21 46 42
20 45 42
21 46 42
21 46 42
21 46 42
20 45 41
20 44 41
21 46 43
21 46 42
21 46 42
20 45 41
21 46 42
21 46 42
21 46 42
21 47 43
21 45 42
21 46 42
21 47 43
21 47 43
21 46 42
21 46 42
21 47 43
20 45 41
21 46 42
22 48 44
21 45 42
21 46 42
21 47 42
21 46 42
21 47 43
21 46 42
21 46 42
21 46 42
21 47 43
22 47 43
21 47 43
22 48 44
22 48 43
22 49 45
21 47 43
22 48 43
22 48 44
128 62 53
177 59 43
203 153 138
224 199 179
223 196 175
140 127 112
22 48 43
22 48 43
22 48 43
22 48 43
22 49 44
22 48 44
22 48 43
21 47 43
22 48 43
22 48 44
21 47 43
22 48 44
22 48 43
22 48 43
22 49 45
22 49 44
22 49 44
22 48 43
21 47 43
22 49 44
22 49 44
22 48 44
22 48 43
23 49 45
21 47 43
22 49 45
22 49 44
22 49 44
22 49 44
23 50 45
22 48 43
22 49 44
22 48 43
22 48 44
22 49 44
20 45 42
19 44 40
20 45 41
20 44 41
20 44 41
20 44 40
20 44 40
20 44 40
20 44 40
20 44 41
20 45 41
20 44 40
20 44 41
20 45 41
20 44 41
20 44 40
20 45 41
20 45 41
20 45 42
20 44 40
20 45 41
20 44 41
20 44 40
20 45 42
20 45 41
20 45 41
20 45 41
20 45 41
20 45 41
20 45 41
20 45 42
20 45 41
21 47 43
21 46 42
20 45 41
20 45 42
20 45 42
20 45 41
21 46 42
21 46 42
21 47 43
20 45 41
20 45 41
21 46 42
21 45 42
21 46 42
21 46 42
21 46 42
21 47 43
20 45 42
21 47 43
21 47 43
21 47 43
21 46 42
21 46 42
22 48 44
22 48 43
21 46 42
21 47 43
23 46 43
21 46 42
22 48 43
21 46 42
21 47 43
22 48 44
21 47 43
21 46 42
21 47 43
21 47 43
22 47 43
22 48 43
21 47 43
21 47 43
22 48 44
22 48 44
21 47 42
22 48 44
22 48 44
22 47 43
113 53 44
123 42 30
151 114 102
166 147 131
177 155 137
130 118 105
22 49 45
21 47 43
22 48 43
22 49 44
22 49 44
23 49 45
22 48 44
22 48 44
22 47 43
22 48 44
21 47 43
22 49 44
22 49 44
22 48 43
22 48 44
22 49 44
22 49 45
22 49 44
23 49 45
22 49 44
23 50 46
22 49 44
22 49 44
22 49 44
23 50 45
22 48 44
23 51 46
22 48 44
22 49 44
23 50 45
22 48 44
23 49 45
23 50 45
22 49 45
22 49 45
19 43 39
19 43 40
20 45 42
20 44 40
20 45 41
20 44 41
20 45 41
20 44 41
20 44 40
20 44 40
21 46 42
20 45 41
20 45 41
20 43 40
20 45 42
20 44 41
20 45 41
20 45 41
20 44 41
20 44 41
20 44 41
20 45 41
20 45 41
20 45 41
20 45 42
20 45 41
21 46 42
21 46 42
20 44 40
21 47 43
21 46 42
20 45 42
20 45 41
20 45 41
20 45 41
20 45 42
21 46 42
21 46 42
21 47 43
21 46 42
21 46 42
21 47 43
21 46 42
21 45 42
21 47 43
21 46 42
21 46 42
21 46 42
21 47 43
21 47 43
21 47 43
21 47 43
21 47 43
21 46 42
21 47 43
21 47 42
21 47 43
32 48 49
70 55 81
154 134 137
192 173 160
127 118 107
21 46 42
21 47 43
21 47 42
22 48 44
22 49 44
22 48 43
21 47 43
22 47 43
21 46 42
22 47 43
21 47 43
22 47 43
22 48 44
22 49 44
22 48 44
21 47 43
21 47 42
56 40 35
65 23 16
71 46 38
93 84 72
97 88 75
58 64 56
22 48 44
22 49 44
22 48 44
22 47 43
22 49 44
22 48 44
34 49 43
133 76 53
175 101 75
168 133 117
69 74 67
22 49 44
22 49 44
22 49 45
22 49 44
23 50 45
22 49 44
23 50 45
23 50 45
23 49 45
22 49 44
22 49 44
23 50 45
22 48 43
23 50 45
23 49 45
23 50 45
23 49 45
22 49 44
23 50 45
23 50 45
22 49 44
22 49 44
23 49 45
23 50 45
20 45 42
19 43 40
20 45 41
20 44 41
20 45 42
20 44 41
19 43 40
20 44 41
20 45 41
20 45 42
20 44 41
20 45 41
20 44 40
20 44 41
20 44 40
20 45 41
20 45 41
20 45 41
20 44 41
20 44 40
20 44 41
20 45 41
21 46 42
20 44 41
20 45 41
20 45 42
20 45 41
21 45 42
20 44 41
20 45 42
20 45 42
20 44 40
20 45 42
21 46 42
21 46 42
21 46 42
21 45 42
21 46 42
20 45 42
21 45 42
21 47 43
21 46 42
20 45 41
21 46 42
21 46 42
21 47 43
21 47 43
21 46 42
21 46 42
21 47 43
20 45 41
21 46 42
21 46 42
21 47 43
21 47 43
21 46 42
22 47 43
62 47 74
111 92 109
206 187 173
237 212 193
249 221 198
131 120 107
21 47 43
21 46 42
22 48 43
21 47 43
22 48 44
22 47 43
22 48 44
22 48 44
22 47 43
22 48 43
21 47 43
22 48 43
21 46 42
20 44 40
19 42 39
17 38 35
15 34 32
13 18 17
33 13 9
37 30 22
26 41 36
22 47 42
21 47 42
22 48 43
21 47 42
22 49 44
22 48 43
22 47 43
156 82 54
224 114 74
221 185 168
250 225 203
221 197 178
85 86 78
22 48 43
22 49 44
23 50 45
22 49 44
23 50 46
22 49 44
22 49 44
23 50 45
23 50 45
22 48 44
22 48 43
23 49 45
23 51 46
23 50 45
22 49 44
22 48 44
23 50 45
23 50 45
23 49 45
23 51 46
22 48 44
23 50 45
23 50 45
20 45 42
20 45 41
20 45 41
20 44 41
20 45 42
20 45 41
20 45 41
20 44 41
20 44 41
20 45 41
21 46 42
20 45 41
20 44 40
20 45 41
21 46 42
20 45 42
20 45 41
20 44 41
21 46 42
20 45 41
20 45 41
20 45 41
20 45 41
20 45 41
20 44 41
20 45 42
20 45 41
20 45 41
21 48 44
20 45 41
21 46 42
20 45 41
21 46 42
20 45 41
21 47 43
21 46 42
21 46 42
21 47 43
21 46 42
20 45 41
21 46 42
21 47 43
21 47 43
21 46 42
21 47 43
21 45 41
21 47 43
21 46 42
21 47 43
21 45 41
21 47 43
21 46 42
21 46 42
21 47 43
22 48 43
21 45 41
42 51 55
60 42 70
107 92 101
180 163 150
197 177 161
215 190 170
173 153 136
22 48 44
22 48 43
22 47 43
22 47 43
21 47 43
21 47 43
22 48 44
21 47 43
22 49 44
22 48 44
22 47 43
22 47 43
22 48 44
21 46 42
22 47 43
22 47 43
20 44 40
20 44 40
19 42 38
20 44 39
22 47 42
21 47 42
22 49 44
22 47 42
22 48 43
23 49 45
23 51 46
78 59 48
169 84 51
190 113 87
193 174 161
204 183 168
213 189 171
163 147 132
22 49 44
23 50 45
23 49 45
22 47 43
22 48 43
23 50 45
23 50 45
22 49 44
23 50 45
23 49 44
23 49 44
23 50 45
22 49 44
22 48 43
23 50 45
23 51 46
23 50 45
23 50 45
23 50 45
23 50 45
23 51 46
23 51 46
23 51 46
20 45 41
21 46 43
20 44 41
20 44 41
20 45 41
20 45 41
20 44 40
20 44 40
20 45 41
20 45 41
20 45 41
20 45 41
20 44 41
20 44 41
20 45 41
20 45 41
20 45 41
21 46 42
21 46 42
21 46 42
20 45 41
20 45 42
21 46 42
21 46 42
20 45 41
21 46 42
21 46 42
20 45 41
21 47 43
21 46 42
21 46 42
20 45 41
20 45 42
21 46 42
21 47 43
21 46 42
20 45 41
21 46 42
21 46 42
21 46 42
21 47 43
21 46 43
21 47 43
21 47 43
21 46 42
21 47 43
22 47 43
21 46 42
21 47 43
22 47 43
21 47 43
21 47 42
22 47 43
21 47 43
22 48 44
22 48 43
40 49 51
53 36 59
66 54 67
127 117 108
146 131 119
169 149 132
146 130 114
21 47 42
22 47 43
22 48 44
21 47 42
21 47 42
22 48 44
21 47 43
22 47 43
21 46 42
22 48 43
22 48 44
22 48 44
22 48 43
22 48 44
22 48 43
22 48 43
22 48 43
22 47 43
22 48 43
22 49 44
22 48 43
22 48 43
22 49 44
22 48 43
22 49 44
22 49 44
23 50 45
95 79 68
181 142 125
198 164 147
183 165 151
156 140 128
168 150 136
149 134 120
23 50 45
23 51 46
22 49 44
23 50 45
22 49 44
23 50 45
23 50 45
23 51 46
23 50 45
23 51 46
22 49 44
23 49 45
23 50 45
23 51 46
23 49 44
23 50 45
23 50 45
22 49 44
23 49 44
23 50 45
23 51 46
23 51 46
23 50 45
20 45 41
20 45 42
20 45 41
20 44 41
20 45 41
20 44 41
20 45 41
20 44 40
20 45 41
20 45 41
20 44 41
20 45 41
21 46 42
20 45 41
21 46 42
20 45 41
20 45 42
20 45 41
21 46 42
21 46 42
20 45 41
20 45 41
21 46 42
20 45 41
21 46 42
20 45 41
20 44 40
21 47 43
21 47 43
21 46 42
20 45 42
20 45 41
22 48 44
20 45 41
21 46 42
21 46 42
21 45 41
21 46 42
21 46 42
21 46 42
21 47 43
21 46 42
21 47 43
21 47 43
20 45 41
21 47 43
21 47 43
22 48 44
21 46 42
21 46 42
21 46 42
22 48 44
22 48 44
21 47 43
21 47 42
22 48 43
25 46 43
32 27 38
31 22 35
66 61 58
75 72 64
108 96 82
78 77 67
22 48 44
21 47 42
22 47 43
22 48 43
22 48 44
22 47 43
22 48 43
22 48 44
22 48 44
22 48 43
22 48 44
22 48 44
22 48 43
22 49 44
22 49 45
22 48 43
22 47 43
22 49 44
22 48 44
23 49 45
22 48 43
23 49 45
22 48 43
22 48 44
22 48 44
22 49 44
60 69 64
181 166 155
202 185 173
215 194 180
248 223 202
178 160 146
103 96 87
93 89 79
23 49 45
23 50 45
22 49 44
23 50 45
22 49 44
23 49 45
23 50 45
23 50 46
22 49 44
23 49 44
23 51 46
23 50 45
23 50 45
23 50 45
22 48 44
23 50 45
23 50 45
23 51 46
23 50 46
24 52 47
23 50 45
23 51 46
23 51 46
20 44 41
20 45 41
20 45 41
20 44 40
20 45 41
20 45 41
20 45 41
20 45 42
20 45 42
20 44 40
20 44 41
21 46 42
20 44 40
20 45 41
20 45 41
20 45 42
20 45 41
21 46 42
21 46 42
21 46 42
21 46 42
21 46 42
20 45 41
20 45 41
20 45 41
21 46 42
20 45 41
21 46 42
21 46 42
20 45 41
21 47 43
21 46 42
21 46 42
21 45 42
21 46 42
21 46 42
21 46 42
21 47 43
21 47 43
21 47 43
21 46 42
21 46 42
21 47 43
21 46 42
21 46 42
21 46 42
21 46 42
21 46 42
22 47 43
21 47 42
21 45 41
21 47 42
21 45 41
20 45 41
19 43 39
18 41 37
18 40 37
17 34 32
6 11 13
10 10 13
25 24 21
28 36 31
23 46 42
21 46 42
21 46 42
22 48 43
22 47 43
22 48 43
21 46 42
21 47 42
21 47 43
23 49 45
22 47 43
22 48 44
22 48 43
22 49 45
22 47 43
22 49 44
23 50 45
22 49 44
22 48 44
22 48 44
22 49 44
22 48 43
22 48 44
22 49 44
22 49 44
23 49 45
23 50 45
130 123 116
160 149 141
176 162 153
191 174 162
201 181 167
198 177 162
79 74 67
34 51 46
22 48 43
23 49 44
23 49 44
23 50 45
22 49 44
23 50 45
22 49 44
24 52 47
23 50 45
23 50 46
23 50 45
23 51 46
23 50 45
23 51 46
23 50 45
23 50 45
23 51 46
23 50 45
23 51 46
24 51 46
23 50 45
23 50 45
23 50 45
20 44 40
20 45 41
20 45 41
20 45 41
20 45 42
20 44 41
20 45 41
21 46 43
20 45 42
21 46 42
20 45 42
20 44 40
20 44 40
20 45 41
20 45 42
21 46 42
21 46 42
20 44 40
20 45 41
20 45 41
21 46 42
21 46 42
21 46 42
21 45 42
20 45 41
21 46 42
21 46 42
21 46 42
21 46 42
21 47 43
20 45 41
21 46 42
21 46 42
21 45 41
21 46 42
21 47 43
21 47 43
20 45 41
21 46 42
22 48 44
20 45 41
21 47 43
21 46 42
21 47 43
21 47 43
21 46 42
21 46 42
21 46 42
21 47 43
21 47 43
22 48 43
21 47 43
21 45 41
20 44 40
18 40 37
17 39 36
16 37 34
15 34 32
15 33 31
16 35 31
17 36 33
20 43 38
20 44 39
21 47 42
21 46 41
22 47 43
22 48 43
21 46 42
22 49 44
22 49 44
22 48 44
21 47 43
21 46 42
22 49 44
22 48 43
22 48 44
22 48 43
22 49 44
23 49 45
22 48 44
22 49 44
22 48 44
22 48 43
22 48 43
22 49 44
22 48 44
22 47 42
22 48 43
21 46 42
122 114 107
131 122 114
150 140 132
145 135 127
164 150 139
141 127 117
130 117 105
21 46 41
21 46 41
23 49 44
22 48 43
22 48 44
23 49 44
23 50 45
23 50 45
22 49 44
22 49 44
23 50 45
23 49 45
23 50 45
22 49 44
23 49 45
24 51 46
23 51 46
24 51 46
23 51 46
23 51 46
23 50 45
24 52 46
22 49 44
24 52 47
20 45 41
20 45 41
20 45 41
20 45 42
20 44 41
20 45 42
20 45 42
20 45 41
20 44 40
20 45 41
21 46 42
21 46 42
20 45 42
20 44 40
19 43 40
21 46 42
21 46 42
21 46 42
21 46 42
21 46 42
20 44 41
21 46 42
21 46 42
21 46 42
21 46 42
20 45 41
20 45 41
20 45 41
20 45 41
21 46 42
21 47 43
21 46 42
20 45 41
21 46 42
21 46 42
21 46 42
21 46 42
21 46 42
21 46 42
21 47 43
21 46 42
21 47 43
21 46 42
21 46 42
21 47 42
21 46 42
21 47 43
21 47 43
21 47 43
21 47 43
21 46 42
22 48 44
21 46 42
21 47 43
21 47 43
21 47 42
21 46 42
21 47 43
21 47 42
21 47 42
21 47 43
21 46 42
21 47 43
22 48 44
22 48 43
22 47 43
22 47 43
22 49 44
22 48 44
22 47 43
22 49 44
21 47 43
22 48 43
21 47 43
22 49 45
22 48 43
22 48 44
22 49 44
22 48 43
22 48 44
22 48 43
22 48 44
22 48 43
23 50 45
22 49 44
23 49 45
22 49 45
22 49 44
22 48 44
61 61 57
108 101 93
111 103 95
112 104 96
107 99 92
41 40 38
95 90 81
22 49 44
22 48 43
23 50 45
22 49 44
23 49 44
22 49 44
23 49 44
23 51 46
23 50 45
23 50 45
23 51 46
23 49 45
22 49 44
23 50 45
23 50 45
23 51 46
23 50 45
22 48 44
23 51 46
23 50 45
24 51 46
24 52 47
22 49 44
23 50 45
20 45 41
20 45 41
20 45 41
21 46 43
20 46 42
20 45 41
20 45 41
20 44 41
20 45 41
20 44 40
20 45 42
21 46 42
20 45 41
20 45 42
21 45 42
20 44 41
21 46 42
20 45 42
20 45 42
20 45 41
20 44 41
21 46 42
20 45 41
21 46 43
21 47 43
20 45 41
21 46 42
21 46 42
21 46 42
20 45 41
21 47 43
21 46 42
21 46 43
21 46 42
21 46 42
21 46 42
21 46 42
21 46 42
21 47 43
21 45 41
21 45 41
21 46 42
21 47 43
21 47 43
21 47 43
21 47 43
21 47 43
21 47 43
21 46 42
21 46 42
21 46 42
22 48 44
21 47 43
22 48 43
22 47 43
21 47 43
22 48 44
22 48 43
21 47 43
21 47 43
22 47 43
21 47 43
21 47 43
22 48 44
22 47 43
22 47 43
22 47 43
22 47 43
21 47 42
22 47 43
22 48 43
22 48 43
21 47 43
22 49 45
22 47 43
21 47 43
22 48 43
21 46 42
22 48 43
22 49 45
23 50 45
22 48 43
22 48 43
22 48 44
22 48 43
22 48 43
22 49 44
22 47 43
22 47 43
19 39 36
33 32 29
48 46 42
49 47 43
24 23 22
22 22 22
33 49 44
23 49 45
22 48 43
22 49 44
22 47 43
22 48 44
22 49 44
23 50 45
23 50 45
23 49 45
23 50 45
23 49 44
23 49 45
22 48 44
23 50 45
23 50 45
23 50 45
23 49 45
23 50 45
23 50 45
23 50 45
23 50 45
23 50 45
23 50 45
23 50 45
20 44 41
20 45 42
20 45 41
20 44 41
20 45 41
21 46 42
20 44 40
20 45 41
21 46 42
21 45 42
21 46 42
20 45 42
20 45 41
20 45 42
20 45 41
21 46 42
20 44 41
21 46 42
20 44 41
21 46 42
20 45 41
20 45 42
21 46 42
21 46 42
21 47 43
21 46 42
21 46 42
20 45 41
21 47 43
20 45 41
21 46 42
20 45 41
21 47 43
21 47 43
21 47 43
21 47 42
21 47 43
21 46 42
21 47 43
21 46 42
21 46 42
21 47 43
21 47 43
21 47 43
22 48 43
21 47 43
21 46 42
21 47 43
21 47 43
21 47 42
21 46 42
22 48 43
21 47 43
22 47 43
22 48 43
21 47 43
21 47 43
21 47 42
22 47 43
21 46 42
21 46 42
21 47 43
22 48 44
22 49 44
22 48 44
22 48 43
22 48 44
21 47 43
22 48 44
22 48 43
22 47 43
22 47 43
22 48 44
22 48 44
22 49 44
22 49 44
22 47 43
22 48 43
23 49 45
22 49 44
22 48 44
22 49 44
22 48 43
22 48 43
22 49 44
21 46 42
21 47 42
20 43 39
18 40 37
18 39 36
9 21 19
3 6 6
2 5 5
6 12 10
16 35 31
22 47 41
22 48 43
22 47 43
22 48 43
22 49 44
22 49 44
22 49 44
22 48 44
22 49 44
22 48 43
23 50 45
23 50 45
23 51 46
22 48 44
22 49 44
23 50 45
23 50 45
23 50 45
23 50 45
22 48 44
23 50 46
23 49 45
23 49 45
23 50 46
23 50 45
20 44 40
20 45 41
21 46 42
20 45 41
20 45 42
20 45 41
20 46 42
20 45 41
20 45 41
21 46 42
21 46 42
20 44 41
21 46 42
20 45 41
20 45 41
21 46 42
20 45 41
21 46 42
20 45 41
21 46 42
20 45 41
20 45 42
21 46 42
20 45 41
21 46 42
21 46 42
21 46 42
20 44 41
20 45 41
21 46 42
21 47 43
20 45 41
21 46 42
21 46 42
21 46 42
21 46 42
21 46 42
21 46 42
21 47 43
21 46 42
21 46 42
22 48 44
21 46 42
21 46 42
21 47 43
21 46 42
21 47 43
21 47 43
21 47 42
21 46 42
21 46 42
21 46 42
21 46 42
22 48 44
21 46 42
22 47 43
22 49 45
22 49 45
22 48 43
21 46 42
22 48 44
22 47 43
22 48 44
21 47 43
22 47 43
22 47 43
22 48 44
22 48 43
21 46 42
22 48 43
22 47 43
22 48 43
22 48 43
22 48 43
22 47 43
22 48 43
22 47 43
22 48 43
22 48 44
22 48 44
22 48 44
22 49 45
22 48 44
22 48 44
21 47 42
21 46 42
20 45 41
19 41 38
17 39 36
15 34 32
15 33 31
12 28 26
13 29 27
15 33 30
19 42 37
21 45 40
22 48 43
22 48 43
22 48 43
22 49 44
22 48 44
23 51 46
22 49 44
23 49 45
23 49 45
22 48 44
23 50 45
22 49 44
23 50 45
23 50 45
23 51 46
22 49 44
23 50 45
23 50 45
23 49 45
23 50 45
22 49 44
23 50 45
23 50 45
22 49 44
20 45 41
20 45 42
20 45 41
20 45 41
20 45 42
21 46 42
20 44 40
20 45 42
20 45 41
21 46 42
20 45 41
20 45 41
21 46 42
21 46 42
21 46 43
21 46 42
20 45 42
20 45 41
20 45 41
20 45 41
20 45 41
20 45 41
21 46 42
20 45 41
20 45 42
21 46 42
20 45 41
20 45 42
20 45 42
20 45 41
21 46 42
21 46 42
21 46 42
20 45 41
21 47 43
21 47 43
21 46 42
21 46 42
21 46 42
21 47 43
21 46 42
21 46 42
21 46 42
21 47 43
21 46 42
21 46 42
21 47 43
21 47 43
21 47 43
21 47 43
22 48 44
21 47 43
21 46 42
21 46 42
21 46 42
21 47 43
21 47 43
21 47 42
22 48 44
22 48 43
21 47 43
21 47 43
21 46 42
21 46 42
22 48 44
22 48 43
21 47 43
22 48 44
21 47 43
22 48 43
22 49 44
21 47 43
22 48 44
22 47 43
22 48 43
22 47 43
21 47 43
22 48 43
21 47 43
21 47 43
22 49 45
22 48 43
22 47 43
22 47 43
22 49 45
22 49 44
21 47 42
22 48 44
22 48 44
21 47 43
23 49 45
22 49 44
22 48 43
22 49 44
22 49 44
22 47 43
22 48 43
22 49 44
22 49 44
22 48 44
23 49 45
22 48 44
22 49 44
22 48 43
22 49 44
22 49 44
22 49 44
22 49 44
22 49 44
23 49 45
23 50 45
23 50 46
23 50 45
23 49 45
23 50 45
22 49 44
23 50 45
23 49 45
23 50 45
22 49 44
20 45 41
20 44 40
20 45 41
20 45 41
21 46 42
21 46 42
20 45 41
20 45 42
21 46 42
20 44 41
20 45 42
21 46 42
20 45 41
20 45 42
20 45 41
21 47 43
20 45 41
21 45 42
21 46 42
21 46 42
21 46 43
20 45 41
20 45 41
21 46 42
21 46 42
20 45 41
21 46 42
20 45 41
21 47 43
21 46 42
21 46 42
21 47 43
21 46 42
20 45 41
20 45 41
21 47 43
21 46 42
20 45 41
21 47 43
21 46 42
21 47 43
21 46 43
21 46 42
21 47 43
21 47 43
21 46 42
21 47 43
21 46 42
21 47 43
21 47 43
21 47 43
21 47 43
21 47 43
22 48 44
22 48 44
21 46 42
21 47 43
22 48 44
22 48 43
21 46 42
21 47 43
21 47 43
21 47 42
21 47 43
22 47 43
21 47 43
22 47 43
21 47 42
22 49 44
21 46 42
22 48 44
22 49 44
22 49 44
22 48 44
22 49 44
22 48 43
22 48 43
22 49 44
21 47 42
22 48 44
22 49 44
22 48 44
22 48 44
22 48 43
22 48 43
21 47 43
22 49 44
22 47 43
22 48 44
21 47 43
22 47 43
22 48 43
22 48 44
22 47 43
22 48 44
22 48 43
22 48 43
22 49 44
22 48 44
22 49 45
22 49 44
23 50 45
22 48 44
22 49 44
22 48 44
22 49 45
22 49 44
23 50 45
23 50 45
23 50 45
22 48 44
22 49 44
22 49 44
22 49 44
23 49 45
23 50 46
22 49 44
22 48 43
22 49 44
23 50 45
20 44 41
20 44 41
20 44 41
20 44 41
20 45 42
20 45 41
21 46 42
21 47 43
21 47 43
20 44 40
20 46 42
20 45 42
20 45 41
20 45 41
21 46 43
21 46 42
21 47 43
21 46 42
21 46 42
21 46 42
20 45 41
21 46 43
21 46 42
20 45 41
20 45 41
21 46 42
21 47 43
21 46 42
21 46 43
21 46 42
21 46 43
21 46 42
21 46 42
21 46 42
21 47 43
21 46 42
21 46 42
21 46 42
20 45 41
21 46 42
21 47 43
21 47 43
21 47 43
20 45 41
21 47 43
21 47 43
21 46 42
21 46 42
21 47 43
21 46 42
21 46 42
21 47 43
21 46 42
22 48 44
21 46 42
21 46 42
21 46 42
22 48 44
21 47 43
21 46 42
21 47 43
22 48 44
21 47 43
22 48 44
22 48 43
21 47 43
22 48 43
22 48 44
21 47 43
22 48 44
22 47 43
22 48 44
21 47 42
22 48 43
22 47 43
21 47 43
22 48 43
22 48 44
22 49 44
22 48 44
22 48 44
21 47 43
22 48 44
22 48 43
22 49 44
22 49 44
22 48 44
22 49 44
21 47 43
22 48 43
22 48 44
22 48 44
22 48 44
22 48 44
22 49 44
22 48 43
22 49 44
22 48 44
22 48 44
22 47 43
22 48 44
22 49 44
22 49 45
22 49 44
22 48 44
22 49 44
23 49 45
23 50 45
23 49 45
22 48 44
22 49 44
23 50 45
22 49 45
23 50 45
23 49 45
22 49 44
22 49 44
22 49 44
23 49 45
22 49 44
20 45 41
20 45 42
20 45 42
20 45 42
20 45 42
20 45 41
21 46 42
20 45 41
21 46 42
20 45 41
21 46 42
20 45 41
21 46 42
20 45 41
21 46 42
21 46 43
21 46 42
20 45 42
20 45 41
20 44 41
20 45 41
21 46 42
21 46 42
21 45 42
20 45 41
21 46 42
20 45 41
21 46 43
21 46 42
21 46 42
21 46 42
21 45 42
21 45 41
21 46 42
21 46 42
20 45 41
21 46 42
21 46 42
21 47 43
21 46 42
21 46 42
21 47 43
21 46 42
21 46 42
21 47 42
21 47 43
21 46 42
21 45 41
21 47 43
21 47 43
21 46 42
21 47 43
21 46 42
21 47 43
21 47 43
22 47 43
21 47 42
21 47 43
21 47 43
22 48 43
22 48 43
21 47 43
21 47 42
22 48 43
21 46 42
22 48 44
22 48 43
22 48 43
22 47 43
22 48 43
22 48 44
22 48 44
21 47 43
22 48 43
21 47 43
22 48 44
21 47 43
22 47 43
22 49 44
21 47 42
21 47 42
22 49 44
22 48 43
21 46 42
22 48 44
22 47 43
22 47 43
21 47 43
22 48 44
22 48 43
22 49 45
22 49 44
22 48 44
22 48 43
22 48 44
22 48 44
21 47 42
22 49 44
23 49 45
21 47 43
22 49 44
22 48 43
23 50 45
22 48 44
22 49 44
22 47 43
22 49 44
22 48 43
22 48 44
22 48 44
22 48 44
22 49 44
22 48 44
23 50 45
23 49 45
23 49 45
22 49 44
22 49 44
22 48 44
23 49 45
20 44 40
20 44 41
20 45 41
20 45 41
20 44 41
20 45 42
20 45 41
20 44 41
21 46 43
20 44 41
20 45 41
20 45 41
21 46 42
20 45 41
20 45 41
20 45 42
20 45 42
20 45 41
21 46 42
21 46 42
21 47 43
20 45 41
21 46 42
21 47 43
21 46 42
20 45 41
21 46 42
21 46 42
21 46 42
21 46 42
21 46 42
20 45 41
21 46 42
21 46 42
21 45 42
21 45 42
21 46 42
21 46 43
21 46 42
21 46 42
21 47 43
21 47 43
21 45 41
20 45 41
21 47 43
21 47 43
21 46 42
21 46 42
21 47 43
21 46 42
21 47 43
21 47 43
21 46 42
21 45 41
21 47 43
21 47 43
21 46 42
21 47 43
22 48 43
22 48 44
21 47 43
21 47 43
22 48 43
21 47 43
21 47 43
21 47 43
22 47 43
22 48 44
22 48 44
22 48 43
22 48 44
21 47 43
21 47 42
22 47 43
21 47 43
22 48 43
22 48 44
21 47 43
21 47 43
22 48 43
22 49 44
22 48 43
22 48 43
21 47 43
21 47 42
22 48 44
22 48 43
21 47 42
21 47 42
22 48 44
22 49 45
23 49 45
22 48 44
22 48 43
22 48 44
22 48 43
22 48 44
22 49 44
22 48 43
22 47 43
22 48 44
23 50 45
22 48 44
22 48 44
22 49 44
22 48 44
22 49 44
22 48 43
22 48 44
23 50 46
22 48 43
22 48 44
22 49 44
22 49 44
22 48 44
22 48 44
22 49 45
22 49 44
22 49 45
22 49 44
20 44 41
20 44 41
21 46 42
20 44 41
20 45 42
20 44 41
20 44 41
20 45 41
20 45 41
20 45 41
20 45 41
21 46 42
20 45 42
20 45 41
21 46 42
20 44 40
20 46 42
20 45 42
21 46 42
20 45 42
21 46 42
21 46 42
20 45 41
20 44 41
21 46 42
21 46 42
20 45 42
20 45 41
21 46 42
20 45 42
20 45 41
21 45 42
21 46 42
21 46 42
21 46 42
21 46 42
21 45 42
21 46 42
21 46 42
21 46 42
21 46 42
21 46 42
21 46 42
21 46 42
20 45 41
21 46 42
21 46 42
21 47 43
21 46 42
21 46 42
21 46 42
21 47 43
21 46 42
21 46 42
21 47 43
21 46 42
22 48 44
21 46 42
21 47 43
21 46 42
21 46 42
21 47 43
22 48 43
21 46 42
21 47 42
21 47 43
21 47 43
21 47 43
21 46 42
21 47 43
22 48 44
21 47 43
21 47 43
22 48 44
21 47 43
22 48 44
21 47 43
21 47 42
22 48 44
21 47 43
21 47 43
21 47 43
22 48 43
21 47 42
22 47 43
22 48 44
22 49 44
22 48 44
22 48 43
22 48 43
21 47 42
22 49 45
23 50 45
22 48 43
22 48 44
22 49 44
22 48 44
23 50 46
22 48 43
22 48 43
22 48 43
22 48 44
22 49 45
22 48 43
22 48 43
22 47 43
22 48 44
22 49 44
22 48 43
22 48 44
22 49 45
22 48 43
22 48 44
22 48 44
22 49 44
22 48 44
22 49 44
22 49 44
22 48 44
22 48 44
20 44 41
20 45 41
20 44 40
20 45 41
21 46 42
20 44 41
20 44 41
20 45 42
20 46 42
20 45 42
20 44 41
20 45 41
21 47 43
20 45 41
20 44 41
20 45 41
21 47 43
21 46 42
20 45 42
21 46 42
20 45 41
21 46 42
20 45 41
20 45 41
20 44 41
20 45 41
20 45 42
20 45 42
20 45 42
21 46 42
21 46 42
21 46 42
21 46 43
21 46 42
20 45 41
20 45 41
21 46 42
21 46 42
21 47 43
20 45 41
21 47 43
21 46 42
20 45 41
20 45 41
21 46 42
21 46 42
21 47 43
21 47 43
21 45 42
21 47 43
21 46 42
21 47 42
21 47 43
20 45 41
21 46 42
21 47 43
21 47 43
21 46 42
21 47 43
21 46 42
21 46 42
21 47 43
21 46 42
21 46 42
21 47 43
21 46 42
21 47 43
21 47 43
21 47 43
22 48 44
21 47 43
21 47 43
21 47 43
21 47 43
21 47 43
22 47 43
21 47 43
21 47 43
22 48 44
22 47 43
22 48 44
22 48 44
22 49 44
22 48 43
22 48 43
22 48 43
21 47 42
22 48 44
22 48 44
22 48 44
22 48 44
22 48 44
22 47 43
22 47 43
21 47 43
22 48 44
21 47 42
22 48 44
22 48 44
22 48 44
22 48 44
22 48 44
22 48 44
22 48 43
22 48 43
22 48 43
22 48 44
21 46 42
22 49 44
22 49 44
22 48 44
22 49 45
22 48 44
22 49 44
23 49 45
22 48 44
22 49 44
22 48 44
22 48 43
22 49 44
20 45 41
20 44 40
20 44 41
20 45 41
20 44 40
20 45 41
20 44 41
20 44 41
20 45 41
20 45 41
21 46 42
20 46 42
20 45 41
21 46 42
21 46 42
21 46 42
20 45 42
20 45 41
20 44 40
21 47 43
21 47 43
20 45 41
20 45 42
20 45 42
21 46 42
20 45 42
20 44 41
21 46 42
21 47 43
20 45 41
20 45 41
20 45 42
20 45 41
20 45 41
21 47 43
20 45 42
20 45 41
21 47 43
21 47 43
21 47 43
21 46 42
21 45 42
21 46 42
21 46 42
21 46 42
20 44 40
21 46 42
21 47 43
21 46 42
21 45 42
21 46 42
21 47 42
21 46 42
21 46 42
21 46 42
21 46 42
21 46 42
21 47 43
21 46 42
20 45 41
21 46 42
21 46 42
21 46 42
21 47 43
21 47 43
22 47 43
22 48 43
21 46 42
21 47 43
21 47 42
21 47 43
22 48 44
21 47 43
21 47 43
22 47 43
21 47 42
22 48 43
21 47 43
21 47 43
22 47 43
22 48 44
22 48 44
21 47 43
22 48 44
22 48 43
21 47 43
22 48 43
21 47 43
22 47 43
21 46 42
21 47 43
21 47 43
22 48 44
22 48 44
22 48 43
22 48 44
21 46 42
22 47 43
21 47 43
21 47 43
22 49 45
22 49 44
22 47 43
22 49 44
22 48 44
22 48 44
22 48 44
22 47 43
22 48 44
22 48 44
22 49 44
22 48 44
22 48 43
22 48 43
22 49 44
22 47 43
22 48 43
22 47 43
23 50 45
22 49 44
21 46 42
20 44 40
20 45 41
20 44 41
20 45 41
20 44 41
20 45 41
20 45 41
20 45 42
20 44 40
20 45 41
20 45 41
20 45 41
20 45 42
20 45 41
20 45 42
20 44 40
20 45 41
21 46 42
20 44 41
20 45 41
20 45 41
20 45 41
20 46 42
20 45 41
21 46 42
21 46 42
21 46 42
20 45 41
20 45 42
20 44 41
21 46 42
21 46 42
20 45 41
20 45 41
21 46 42
21 45 41
21 46 42
21 46 42
21 46 42
21 45 42
20 45 42
20 45 41
21 46 42
21 46 42
20 45 41
21 46 42
21 47 43
21 46 42
20 45 41
21 46 42
20 45 41
21 46 42
21 46 42
21 47 43
20 45 41
21 46 42
21 47 43
21 46 42
21 47 43
21 46 42
21 46 42
21 47 43
21 47 43
22 49 44
21 46 42
22 48 43
21 47 42
21 47 43
21 47 42
21 47 43
22 48 44
21 46 42
21 47 43
21 46 42
21 47 43
21 46 42
21 47 43
21 47 43
20 45 41
21 45 41
22 49 45
22 48 44
21 46 42
22 48 43
22 48 43
21 46 42
22 48 44
22 48 44
21 47 43
22 47 43
22 48 44
21 47 43
21 47 43
21 47 43
22 49 45
21 47 43
22 48 44
22 48 43
22 49 44
21 47 43
22 48 44
22 49 44
22 48 44
21 47 43
22 49 45
22 48 44
22 48 44
22 48 43
22 48 43
21 47 43
21 47 43
22 48 44
22 48 44
22 48 44
22 49 44
21 47 43
22 49 45
22 47 43
22 49 44
20 44 40
20 44 40
20 45 41
20 44 41
20 45 41
21 46 42
20 45 41
20 45 42
20 45 41
20 44 41
20 45 41
20 45 41
20 45 41
20 45 41
21 46 42
20 45 41
20 45 41
20 45 41
20 45 41
21 46 42
20 45 41
20 44 41
20 44 41
20 45 41
20 45 42
20 45 42
21 47 43
20 45 42
21 47 43
21 46 42
20 45 42
20 45 41
20 45 41
21 46 42
21 46 42
21 47 43
20 45 41
21 46 42
20 45 42
20 45 41
20 45 41
21 46 42
21 46 42
21 46 42
21 46 42
20 45 41
21 46 43
21 46 42
21 46 42
21 46 42
21 47 43
21 47 43
21 46 42
21 46 42
20 44 40
21 46 42
21 46 42
22 48 44
21 45 42
21 46 42
21 47 43
21 46 42
21 47 43
21 46 42
21 47 43
21 46 42
21 47 43
22 48 44
21 47 43
21 46 42
21 46 42
22 48 43
21 47 43
21 46 42
21 46 42
21 47 43
21 47 43
21 47 43
21 47 43
21 47 42
22 48 44
22 48 44
22 48 44
21 47 43
21 47 43
21 46 42
22 48 44
21 46 42
21 47 43
21 47 42
21 47 43
21 46 42
21 47 43
21 47 43
21 47 43
21 47 43
22 48 44
22 49 44
22 48 44
22 48 43
21 47 43
21 47 43
22 48 43
22 48 44
21 47 43
22 48 43
21 47 43
22 47 43
22 48 44
21 46 42
22 48 44
22 48 44
22 47 43
22 49 44
22 49 45
22 48 43
21 47 43
23 51 46
21 47 43
22 48 44
20 45 41
20 45 41
20 45 41
20 45 42
20 45 41
21 46 42
20 45 41
20 45 41
20 45 41
20 44 41
20 45 41
20 45 41
20 45 41
20 45 41
21 46 42
20 44 40
20 45 41
20 45 41
21 46 42
20 44 40
20 44 41
20 44 40
21 46 42
20 45 42
21 46 42
20 45 41
20 45 42
20 45 41
20 45 42
21 46 43
20 45 41
20 44 40
21 46 42
21 46 42
20 44 40
21 46 42
21 46 42
21 46 42
21 46 42
21 46 43
21 46 42
21 46 42
21 46 42
21 47 43
21 46 42
21 47 43
20 45 41
21 47 43
21 47 43
21 46 42
21 46 42
21 46 42
20 45 41
21 47 43
21 46 42
21 47 43
21 46 42
21 47 43
21 46 42
21 46 42
21 46 42
21 46 42
21 46 42
21 46 42
21 47 43
21 47 43
21 46 42
21 46 42
21 47 43
21 46 42
21 47 43
22 48 44
21 46 42
21 47 43
21 47 43
21 47 43
21 46 42
21 47 43
21 47 43
21 47 42
22 48 43
21 47 43
21 47 43
22 48 43
21 47 43
21 47 43
21 46 42
21 47 43
21 46 42
21 47 43
21 47 43
21 47 43
22 48 44
21 46 42
22 47 43
21 46 42
22 48 44
22 48 44
21 47 42
21 46 42
21 47 43
22 48 44
21 47 43
22 48 44
22 47 43
21 47 43
22 48 43
22 48 44
22 49 44
21 47 43
22 47 43
21 47 43
22 48 43
22 48 44
22 48 44
22 48 43
22 48 44
22 48 44
22 49 44
22 47 43
20 45 41
20 44 40
20 45 42
20 45 41
20 44 40
20 44 41
20 44 41
20 44 40
20 45 41
20 44 41
20 44 40
20 44 40
20 45 42
21 46 42
20 45 41
20 45 41
20 44 41
20 44 41
20 45 42
20 45 41
21 46 42
20 44 41
21 46 42
20 45 42
20 45 42
21 46 42
21 46 42
20 45 41
20 45 41
20 45 42
21 46 42
20 45 42
21 45 42
20 45 41
21 46 42
21 46 42
20 45 41
20 45 42
21 46 42
21 46 42
21 46 43
20 45 42
21 46 42
21 46 42
21 46 42
21 46 42
21 46 43
21 45 42
21 46 42
20 45 41
21 46 42
20 45 41
21 46 42
21 47 43
20 45 41
21 47 43
21 45 42
21 47 43
21 47 43
21 47 43
21 47 43
21 46 42
21 46 42
21 46 42
21 47 43
21 47 43
21 47 43
21 46 42
21 47 43
21 45 41
21 47 43
21 46 42
21 47 43
21 46 42
21 46 42
21 45 41
21 46 42
21 46 42
21 46 42
22 47 43
22 48 43
22 48 44
21 47 43
21 47 43
21 46 42
21 47 43
21 46 42
21 46 42
21 47 42
21 47 43
21 47 43
21 46 42
21 47 43
22 48 43
21 46 42
21 47 42
22 47 43
21 46 42
21 47 42
21 47 42
21 47 43
22 48 44
22 48 44
22 47 43
22 48 43
22 48 44
21 47 43
22 48 43
22 48 44
22 48 43
22 47 43
22 47 43
22 47 43
22 48 44
22 48 43
22 47 43
22 49 44
22 48 43
22 49 44
22 48 44
20 45 41
20 44 40
20 44 41
20 44 41
20 46 42
20 45 41
20 45 41
20 44 41
20 44 41
20 45 42
20 45 41
20 45 41
20 45 41
21 46 42
20 46 42
20 44 41
20 45 42
20 45 41
20 44 41
20 45 41
20 45 41
20 44 40
21 46 42
21 46 42
21 46 42
20 45 41
20 45 41
20 45 41
20 44 41
20 45 42
20 45 41
20 45 41
21 47 43
21 46 42
21 46 42
20 45 42
21 47 43
21 46 43
20 45 41
20 45 41
21 46 42
20 45 42
21 46 42
21 46 42
20 45 41
21 46 42
21 46 42
21 46 42
20 45 41
21 45 42
20 45 41
20 45 41
21 46 42
21 45 41
20 45 41
20 45 42
20 45 41
20 45 41
21 46 42
20 45 41
21 47 43
21 48 43
21 46 42
21 46 42
21 46 42
21 46 42
21 46 42
20 45 41
21 47 43
21 47 43
22 48 44
21 46 42
21 45 41
21 46 42
21 47 43
21 47 43
21 47 43
21 46 42
21 46 42
21 46 42
21 46 42
21 46 42
21 46 42
21 47 42
22 48 44
21 47 43
21 46 42
21 47 43
21 47 43
20 45 41
21 47 43
21 46 42
22 48 44
21 47 43
21 47 43
21 46 42
21 46 42
21 47 43
21 47 43
21 47 43
21 47 43
22 48 44
21 47 43
21 47 43
21 47 42
21 45 41
22 48 43
21 46 42
22 47 43
22 48 43
21 46 42
21 47 43
22 48 43
22 49 44
21 47 43
22 48 44
22 47 43
22 48 44
22 47 43
22 48 43
20 44 40
20 45 41
20 44 40
20 44 40
20 44 40
20 44 40
20 44 41
20 44 41
20 44 41
20 45 41
20 45 41
20 45 42
20 44 40
20 45 41
20 45 41
20 44 41
20 45 42
20 45 41
20 44 41
21 46 42
20 45 42
20 45 41
20 45 41
20 45 41
20 45 42
21 46 42
20 45 41
20 45 41
20 45 41
21 46 42
20 45 41
21 46 42
21 46 42
20 45 41
20 45 42
20 45 41
20 45 41
20 45 42
21 45 42
20 45 42
21 46 42
21 46 42
20 45 41
21 46 42
20 44 41
20 45 41
22 48 44
21 46 42
20 45 41
21 46 42
21 45 42
20 45 41
20 45 41
21 47 43
21 45 42
21 47 43
21 46 42
21 47 43
21 47 43
21 45 42
21 46 42
21 46 42
20 45 42
21 47 43
21 46 42
20 45 42
21 46 42
21 46 42
21 46 42
21 47 43
21 46 42
21 46 42
20 45 41
21 47 43
20 45 41
21 46 42
22 48 44
21 47 43
21 47 43
22 48 43
21 46 42
21 46 42
21 46 42
21 47 42
21 46 42
21 46 42
21 47 43
21 47 43
22 48 44
21 46 42
22 48 44
21 46 42
21 47 43
21 47 43
21 46 42
21 47 43
21 46 42
21 47 42
21 46 42
22 50 45
21 47 43
21 47 43
21 46 42
22 48 44
22 48 44
21 47 43
21 47 43
21 46 42
21 47 43
21 47 43
21 47 43
21 47 43
21 46 42
21 47 43
21 46 42
21 47 43
22 48 43
21 47 43
22 48 44
22 48 44
21 46 42
20 44 40
20 44 40
20 46 42
20 45 41
20 45 41
20 45 42
20 45 41
20 45 41
20 44 41
20 45 41
20 44 41
20 44 40
20 44 40
20 44 41
20 45 41
20 45 41
20 45 42
20 44 41
21 46 42
20 44 41
20 44 41
20 45 42
20 44 40
20 45 41
20 45 41
20 44 40
21 46 42
21 46 42
20 45 41
21 47 43
20 45 41
21 47 43
20 45 42
21 46 42
20 45 42
21 46 42
20 44 40
20 45 41
20 45 41
20 45 42
20 44 41
21 46 42
21 46 42
21 46 42
20 45 41
20 44 41
20 44 40
21 46 42
20 45 41
20 45 41
21 46 43
20 45 41
20 45 41
21 46 42
20 45 41
21 46 42
21 46 42
21 46 42
21 46 42
20 45 42
21 46 42
21 46 42
20 45 41
21 46 42
21 46 42
21 47 43
21 46 42
21 46 42
21 45 42
21 46 42
21 47 43
21 47 43
21 46 42
21 46 42
21 46 42
21 47 43
21 47 43
21 47 42
21 46 42
21 47 43
21 47 43
21 46 42
21 46 42
21 47 42
21 45 41
21 46 42
21 46 42
21 46 42
21 46 42
21 47 43
21 46 42
21 47 43
21 46 42
21 46 42
21 46 42
21 47 43
21 46 42
21 46 42
21 46 42
22 49 44
21 47 43
21 46 42
22 48 44
21 47 43
21 47 43
21 46 42
21 46 42
21 46 42
21 47 43
22 48 43
21 46 42
21 47 43
21 47 43
21 47 43
21 47 43
21 47 43
21 47 43
22 48 44
21 47 43
19 43 40
20 45 41
20 44 40
20 44 40
20 44 41
20 45 42
20 45 42
20 45 42
20 44 41
20 44 41
20 44 40
20 45 42
20 45 41
20 44 40
20 45 41
20 44 41
21 46 42
20 45 41
21 46 42
20 45 41
20 45 42
20 44 41
20 45 42
20 45 42
20 45 41
21 46 43
20 44 41
20 45 42
21 46 42
20 45 41
20 45 41
20 45 41
20 45 41
20 44 40
21 45 42
21 46 42
20 45 41
20 45 42
20 45 41
20 44 40
21 46 42
20 45 41
21 45 42
20 45 41
20 45 41
20 45 41
20 45 41
20 45 41
21 47 43
21 46 42
21 46 43
21 47 43
20 45 41
21 46 42
21 46 42
20 45 41
20 45 42
20 45 41
21 46 42
21 47 43
21 46 42
21 46 42
21 46 42
20 45 41
21 46 42
21 47 43
21 46 42
21 46 42
21 46 42
21 46 42
21 47 43
21 47 43
20 45 41
21 46 42
21 45 42
20 45 41
20 45 41
21 46 42
21 47 43
21 47 43
20 45 41
21 46 42
22 48 44
21 46 42
21 46 42
21 47 43
21 47 43
21 47 43
21 45 41
21 47 43
21 46 42
21 46 42
21 46 42
21 47 43
21 46 42
21 47 43
21 47 43
21 46 42
21 47 43
21 47 42
21 47 43
21 47 43
21 47 43
21 46 42
21 47 43
21 46 42
21 47 43
21 46 42
21 47 43
21 47 43
21 47 43
21 47 43
21 46 42
21 46 42
22 48 43
21 47 43
21 47 43
21 47 43
21 46 42
22 47 43
20 44 41
21 46 42
19 43 40
21 46 42
20 43 40
20 44 41
20 45 41
20 45 41
20 45 42
20 45 41
20 44 41
20 45 42
20 45 41
21 46 42
20 45 41
20 44 41
21 46 42
20 45 42
20 45 42
20 44 40
20 44 40
20 44 41
20 44 40
21 46 42
20 44 41
20 45 41
21 46 42
20 44 40
20 45 41
20 44 41
20 45 41
20 45 41
20 45 42
20 44 40
20 45 42
20 45 41
20 45 41
20 45 42
20 45 42
20 44 41
20 45 42
20 45 42
21 46 42
21 46 42
21 46 42
20 44 41
21 46 42
20 45 41
21 47 43
20 45 41
21 47 43
21 46 42
20 45 41
20 45 41
21 47 43
20 45 41
21 46 42
21 46 42
20 45 41
21 46 43
20 45 41
21 46 42
21 46 42
21 47 43
21 46 42
21 47 43
20 45 42
21 47 43
21 46 42
20 45 41
20 45 41
21 47 43
21 47 43
21 46 42
21 46 43
21 46 42
21 46 42
21 46 42
20 45 41
21 46 42
21 47 43
21 46 42
21 46 42
22 48 44
21 46 42
21 46 42
21 46 42
21 46 42
21 46 42
21 46 42
21 46 42
21 47 43
21 47 43
21 46 42
21 45 42
21 47 43
21 46 42
22 48 44
21 47 43
22 48 43
21 46 42
21 47 43
21 47 43
21 45 41
21 47 43
22 48 44
21 47 43
21 46 42
21 47 43
21 46 42
21 47 43
21 47 43
22 48 44
22 48 44
22 48 43
22 48 43
21 46 42
21 46 42
22 47 43
22 48 43
19 43 40
20 44 41
20 45 41
20 44 40
20 45 42
21 46 42
20 45 41
20 44 40
19 43 40
20 45 41
20 44 41
20 45 41
20 45 42
20 45 41
20 45 41
20 44 41
20 45 41
20 45 42
19 43 40
20 45 42
20 44 40
20 44 41
20 45 41
20 45 41
20 45 41
20 45 41
20 44 40
20 44 40
20 45 41
20 45 42
20 45 42
20 45 41
20 45 41
21 46 42
20 45 41
20 45 41
20 45 42
20 45 41
20 45 41
20 44 41
20 45 42
20 45 42
21 46 42
20 45 41
20 45 41
20 45 41
20 44 41
20 45 41
21 46 42
20 45 41
21 46 42
20 45 41
20 45 41
20 45 41
21 46 42
20 45 41
20 45 41
21 46 42
20 45 42
21 46 42
20 45 41
20 45 41
21 46 42
21 47 43
21 46 42
21 46 43
21 46 42
20 45 42
21 47 43
21 46 42
20 45 41
20 45 41
21 46 42
20 45 41
20 45 42
22 48 44
21 46 42
20 45 42
21 47 43
21 47 43
21 46 42
21 46 43
21 46 42
20 45 41
21 47 43
21 46 42
22 48 43
21 46 42
20 45 41
21 46 42
21 46 42
21 47 43
22 48 44
21 47 43
21 47 43
21 45 42
21 47 43
21 47 43
21 47 43
21 47 43
21 46 42
21 46 42
22 47 43
21 47 42
21 46 42
21 46 42
21 46 42
22 47 43
21 46 42
21 47 43
21 47 43
21 47 43
21 46 42
22 47 43
21 47 42
21 47 43
22 47 43
22 47 43
21 47 43
22 47 43
20 44 41
19 43 40
20 44 41
20 45 41
20 46 42
20 44 40
20 44 41
20 45 42
20 44 41
20 45 41
20 44 40
20 45 42
20 44 41
19 43 40
20 44 41
20 44 40
20 45 41
21 46 42
20 44 41
20 44 40
20 46 42
20 44 40
21 47 43
20 46 42
20 44 41
21 46 43
20 44 41
20 45 42
20 45 41
20 45 42
20 44 41
20 45 41
20 45 41
20 44 40
20 45 42
20 44 40
21 46 42
20 45 41
20 45 42
21 46 42
20 44 41
20 44 40
20 45 42
20 45 41
21 46 42
20 45 41
20 45 42
20 45 42
20 45 41
21 46 42
21 46 42
21 46 42
21 47 43
20 45 42
21 46 42
20 45 41
21 47 43
21 46 42
20 44 40
21 47 43
21 46 42
20 45 41
20 45 41
20 45 41
21 46 42
21 45 42
20 45 41
21 47 43
21 46 42
20 45 41
21 45 42
21 47 43
21 45 42
21 46 42
20 45 42
20 45 41
21 46 42
21 46 42
21 47 43
20 45 41
20 45 41
21 46 42
21 45 41
21 47 43
21 47 43
21 47 43
21 46 42
21 46 43
21 47 43
21 46 42
21 46 42
21 46 42
20 45 41
21 47 43
21 45 41
22 47 43
21 47 43
21 47 43
21 46 42
21 47 43
21 47 43
21 46 42
21 47 43
21 47 43
22 47 43
21 46 42
22 48 43
22 47 43
21 46 42
22 47 43
21 46 42
21 46 42
21 47 42
22 47 43
21 46 42
22 47 43
22 47 43
21 46 42
22 47 43
22 47 43
20 44 41
20 45 41
20 45 41
20 44 41
20 45 41
20 44 41
20 44 41
20 44 41
20 45 41
20 44 40
20 45 42
20 45 41
20 44 41
20 44 40
20 45 42
21 47 43
20 44 41
21 46 42
20 44 41
20 45 41
20 44 41
20 44 40
20 45 41
21 46 42
20 45 42
19 43 40
21 46 42
20 44 40
20 45 41
21 46 42
20 45 41
20 45 41
20 45 41
20 45 42
20 45 41
20 44 40
20 44 41
20 44 41
20 45 42
20 45 41
20 45 41
20 45 42
20 45 41
20 45 41
20 45 41
21 46 42
20 46 42
21 46 42
20 45 41
20 44 41
20 45 42
20 45 41
21 46 42
21 46 43
21 46 42
20 45 42
20 45 41
20 45 41
20 45 42
20 44 40
20 45 42
20 44 41
21 46 42
21 47 43
20 45 41
20 45 41
20 44 40
21 46 42
20 45 41
21 46 42
20 45 42
21 46 42
21 47 43
21 47 43
21 46 42
20 44 41
21 47 43
21 46 42
21 46 42
20 45 41
21 46 42
21 47 43
21 46 42
21 47 43
21 46 42
21 47 43
21 46 42
21 46 42
21 46 42
21 46 42
20 45 41
21 45 41
21 47 43
21 46 42
21 47 43
21 46 42
21 46 42
21 47 43
21 47 43
22 47 43
21 46 42
22 47 43
22 47 43
21 46 42
21 46 42
21 46 42
21 46 42
21 46 42
21 46 42
22 47 43
21 46 42
22 47 43
23 48 44
22 47 43
22 47 43
22 46 42
22 46 42
22 46 42
22 47 43
22 46 42
20 44 41
20 44 41
20 44 41
20 44 40
20 44 41
19 43 39
20 45 41
20 45 42
20 45 42
20 45 42
20 45 41
20 44 40
20 45 41
20 44 41
20 45 41
20 45 42
20 45 41
20 44 41
20 44 41
20 45 42
20 45 42
20 45 41
20 44 41
20 45 41
20 45 42
20 44 40
20 45 41
20 45 41
20 44 41
20 45 41
20 44 40
20 44 41
21 46 42
20 45 41
20 45 41
20 45 42
20 44 40
20 44 41
20 46 42
20 45 41
20 45 42
20 45 41
20 45 42
21 46 42
21 46 42
20 45 41
20 45 41
20 45 41
21 46 42
20 45 41
20 45 41
21 45 42
21 46 43
20 45 41
20 45 41
21 46 42
21 46 42
21 46 42
20 44 41
20 45 41
20 45 41
21 47 43
20 45 41
21 46 42
21 46 42
21 46 42
20 45 42
21 46 42
20 45 42
20 45 41
20 45 41
20 45 41
21 46 42
20 45 41
20 45 41
20 45 41
21 46 42
20 45 41
21 46 42
21 45 41
21 45 42
21 46 42
21 47 43
21 46 42
21 46 42
21 47 43
21 46 42
21 46 42
21 45 42
21 46 42
21 47 43
21 46 42
22 47 43
21 45 41
21 45 41
22 47 43
21 46 42
21 46 42
21 46 42
21 46 42
22 47 43
21 46 42
21 46 42
22 47 43
22 46 42
22 47 43
21 46 42
22 47 43
22 48 44
22 47 43
22 47 43
22 47 43
23 48 44
22 46 42
22 47 43
22 47 43
22 47 43
22 46 42
22 47 43
23 47 43
20 44 41
20 45 41
20 45 42
20 44 41
20 45 41
20 45 41
20 44 40
20 44 40
20 45 41
20 45 41
20 44 41
20 45 41
20 45 41
20 44 41
20 44 41
21 46 42
20 44 41
20 44 40
20 45 42
20 44 40
20 45 41
20 44 41
20 45 41
20 45 41
20 44 40
20 44 41
20 45 41
20 44 40
20 45 41
20 44 41
20 44 40
20 45 42
20 44 41
20 45 41
20 44 41
20 44 41
20 45 42
20 44 40
20 45 41
21 46 42
21 46 42
20 44 40
20 45 41
20 45 41
21 46 42
20 45 41
20 45 42
20 45 41
20 44 40
21 46 42
20 45 41
20 44 40
20 45 41
21 46 42
20 45 42
20 44 40
20 45 42
20 45 41
20 44 41
20 45 41
20 45 42
21 46 42
20 45 41
20 45 41
20 44 41
21 46 42
20 45 41
20 45 41
21 46 43
20 45 42
21 46 42
21 46 42
20 45 41
21 46 42
20 43 40
20 44 40
20 45 41
21 47 43
21 46 42
21 46 42
21 46 42
21 47 43
21 46 42
21 46 42
21 45 41
21 45 42
21 46 42
21 46 42
21 46 42
21 47 43
21 45 41
22 47 43
21 46 42
22 47 43
21 46 42
21 46 42
22 47 43
21 45 41
22 47 43
21 46 42
22 46 42
21 46 42
22 47 43
22 47 43
22 46 42
22 47 43
22 46 42
22 47 43
23 47 43
23 47 43
22 46 42
23 47 43
23 48 44
23 47 42
23 48 43
23 46 42
23 47 43
23 47 43
23 47 42
24 49 44
20 44 41
20 45 41
20 45 42
20 45 41
20 44 41
20 45 41
20 45 41
20 45 41
20 45 41
20 44 41
21 46 42
20 44 41
20 44 40
20 45 41
20 45 41
21 46 42
20 45 41
20 44 41
20 44 40
20 45 42
20 44 41
20 45 41
20 44 41
20 44 40
20 44 41
20 44 40
20 45 41
20 44 40
21 46 42
21 46 43
20 45 41
20 44 41
20 45 41
20 45 41
20 44 40
20 44 41
20 44 41
20 45 41
20 45 42
20 44 40
20 45 42
20 44 40
20 45 41
20 45 41
20 45 41
20 45 41
20 45 41
20 45 41
20 44 40
20 45 41
20 45 41
20 45 41
20 45 41
20 44 41
20 44 40
21 46 42
20 45 41
21 46 42
20 45 41
21 46 42
21 47 43
21 46 42
20 45 42
21 46 42
20 44 40
20 45 41
20 45 41
21 46 42
20 44 41
20 45 42
20 45 41
21 47 43
21 46 42
21 46 42
20 45 41
21 46 42
20 45 41
20 45 41
21 45 42
20 45 41
21 46 42
20 45 41
20 45 41
21 45 41
21 46 43
20 45 41
20 45 41
20 45 41
21 45 41
21 46 42
21 46 42
21 46 42
22 47 43
21 46 42
22 47 43
21 46 42
22 47 43
22 47 43
22 46 42
22 47 43
22 46 42
22 45 41
22 47 43
22 47 42
23 47 43
23 47 43
23 48 43
23 48 44
24 48 44
23 47 43
23 46 42
23 47 43
24 47 43
24 47 43
23 46 42
24 48 44
24 47 43
24 47 43
24 47 43
25 49 45
19 43 40
20 44 41
19 43 40
20 44 41
20 44 40
20 45 41
20 44 41
20 45 41
20 45 42
20 44 40
20 44 41
20 45 41
20 44 41
20 44 40
20 45 41
20 45 42
19 43 40
19 43 40
20 45 41
20 44 40
20 45 41
20 44 41
20 44 41
20 44 40
20 45 41
20 45 41
20 45 42
20 44 41
20 45 41
20 44 41
20 45 41
20 44 41
20 44 41
20 44 41
21 46 42
20 45 41
21 46 42
20 44 41
20 45 42
20 44 40
20 45 42
21 46 42
20 44 41
20 45 41
20 44 41
20 44 40
20 45 41
21 46 42
20 45 41
20 45 41
20 44 41
20 45 42
20 45 41
21 46 42
20 44 40
20 44 40
20 45 41
20 45 41
21 46 42
20 44 41
20 45 41
20 45 41
21 46 42
20 44 40
20 45 41
20 45 41
21 46 42
21 47 43
21 45 42
20 45 41
21 47 43
20 45 42
20 45 41
21 46 42
21 46 42
21 46 42
20 45 41
20 45 42
21 46 42
20 45 42
20 44 41
21 46 42
21 47 43
21 46 42
21 46 42
21 46 42
21 46 42
21 46 43
21 46 42
21 45 41
21 46 42
21 46 42
22 47 43
22 46 42
21 45 41
22 45 41
22 47 43
22 46 42
22 45 41
22 46 42
22 45 42
23 47 43
23 47 43
23 47 43
23 46 42
23 47 43
24 47 43
23 46 42
24 47 43
24 48 44
24 47 43
24 46 42
24 47 43
25 47 43
25 48 44
25 48 44
25 48 44
25 47 43
25 48 44
26 49 44
19 43 39
20 44 41
20 44 40
20 45 41
20 44 41
19 43 40
20 44 41
20 45 41
20 44 40
21 46 43
20 44 40
20 45 41
20 44 40
20 44 41
20 44 40
20 44 40
20 44 40
20 44 41
20 44 40
20 45 42
19 43 39
20 44 41
20 45 41
20 45 41
20 46 42
20 45 41
20 44 41
20 44 40
20 45 41
20 45 41
20 44 40
20 44 40
19 43 40
20 43 40
20 44 41
20 44 41
20 45 41
20 44 40
21 46 42
20 45 41
20 44 41
20 44 40
20 45 42
20 45 41
20 45 41
20 46 42
20 45 41
20 44 41
20 43 40
21 46 42
20 44 40
20 45 41
20 45 42
20 45 41
20 45 41
20 45 42
20 45 41
21 47 43
20 45 41
20 45 42
20 45 41
21 46 42
20 45 41
20 45 42
21 46 42
20 45 41
20 45 41
20 45 41
20 44 40
21 46 42
21 46 42
21 46 42
20 44 41
20 45 41
20 44 41
21 46 42
21 46 43
21 46 42
21 47 43
20 44 41
21 46 43
21 46 42
21 45 41
20 44 40
21 45 42
21 45 41
21 46 42
20 44 40
22 47 43
22 47 43
21 46 42
22 46 42
22 46 42
22 45 42
22 46 42
22 46 42
23 47 43
22 46 42
23 46 42
23 46 42
23 46 42
24 48 43
24 47 43
24 47 42
24 48 44
24 48 43
25 48 44
25 47 43
25 48 44
25 47 43
25 47 43
26 49 44
26 48 44
26 47 43
26 49 44
26 47 43
26 48 44
27 48 44
26 47 42
26 47 43
20 44 41
20 44 40
19 43 39
20 44 40
20 44 40
20 45 41
20 45 41
19 43 39
20 44 41
20 45 42
20 44 41
20 45 42
20 44 40
20 45 41
19 43 40
20 44 40
20 44 41
20 44 41
20 44 41
20 44 41
20 44 40
20 44 40
20 45 41
20 44 41
20 44 40
20 44 41
20 45 41
20 43 40
20 44 41
20 44 40
20 45 42
20 44 40
20 44 41
20 45 41
20 45 41
20 45 41
20 45 41
20 45 42
20 44 41
21 46 42
21 46 42
20 45 41
20 44 41
20 45 41
20 45 41
20 45 41
20 45 42
20 44 41
20 45 41
20 45 41
20 45 42
20 44 41
20 46 42
20 45 42
20 45 41
21 46 42
20 44 40
20 45 41
20 45 41
20 44 41
20 45 41
20 45 41
20 45 41
21 46 42
21 46 42
20 44 41
20 45 42
20 45 42
20 45 41
20 45 42
20 44 40
20 44 40
20 44 41
20 45 41
20 45 41
20 45 41
21 46 42
21 45 42
21 46 42
21 45 42
21 46 42
21 45 41
21 45 41
21 45 41
21 45 42
21 45 42
21 46 42
21 45 41
22 46 42
22 46 42
22 46 42
22 45 41
22 46 42
23 46 42
23 46 42
23 47 43
23 46 42
24 47 43
24 47 43
24 47 43
24 47 43
25 48 43
25 48 44
25 47 43
25 46 42
25 47 43
26 47 43
26 48 44
26 47 43
27 49 44
27 49 45
27 48 43
27 48 44
28 49 45
27 48 43
28 49 45
28 49 45
28 49 44
28 49 44
28 48 44
20 44 40
20 44 41
20 44 41
20 44 40
20 44 41
20 44 41
20 45 41
20 45 41
20 44 40
19 43 40
19 43 40
20 45 41
20 45 42
20 45 42
20 44 40
19 43 40
19 43 40
20 44 41
20 45 41
20 44 41
20 44 40
20 43 40
19 43 40
20 45 41
20 45 41
20 44 41
20 44 40
20 44 40
20 45 41
20 45 42
20 44 41
20 44 41
20 44 41
20 45 41
20 44 41
20 44 41
20 44 41
20 45 41
20 44 40
20 44 41
20 44 41
20 45 41
20 45 41
20 44 41
20 45 41
20 45 41
20 45 41
20 44 40
20 45 41
20 45 42
20 44 41
20 45 41
21 46 42
20 44 40
20 45 41
20 44 41
20 44 41
20 45 42
20 44 40
20 44 41
20 45 42
20 45 41
20 44 41
21 46 42
21 46 42
20 44 41
20 45 41
20 44 40
21 45 42
21 45 41
21 46 42
22 48 44
21 47 43
21 45 42
20 44 40
21 45 42
20 44 41
21 46 42
21 45 41
21 45 42
21 47 43
22 47 43
20 44 40
21 46 42
22 46 43
22 46 42
22 46 42
22 46 42
22 47 43
22 45 41
22 46 42
22 45 41
23 46 42
23 45 41
23 47 43
23 46 42
24 47 43
24 46 42
25 47 43
25 47 43
26 48 44
25 47 43
26 47 43
26 48 44
26 48 43
27 48 43
28 49 45
28 49 45
28 50 45
28 48 44
29 49 44
29 50 46
30 51 46
30 50 45
30 50 45
30 49 44
31 51 46
31 51 46
31 51 46
31 51 46
20 45 42
20 44 41
20 45 42
19 43 40
20 46 42
20 44 41
20 45 42
19 43 40
19 43 40
20 45 41
19 43 40
20 45 42
19 44 40
20 45 41
20 45 41
20 45 41
20 44 40
19 43 40
19 43 39
20 44 41
20 45 41
20 45 41
21 46 42
20 45 41
20 44 41
20 45 41
20 44 41
20 45 41
20 45 41
20 44 41
20 44 41
20 45 41
20 44 41
20 45 41
20 44 41
20 44 41
20 45 41
21 46 42
20 44 40
20 44 40
20 45 41
20 44 40
20 44 41
20 45 42
20 45 41
20 44 41
20 45 41
20 45 41
20 44 41
20 45 41
21 46 42
20 44 40
20 46 42
19 43 40
20 44 41
21 46 42
20 45 42
20 45 42
20 45 42
20 45 42
20 44 40
20 44 41
20 44 41
20 45 41
21 46 42
20 45 41
21 46 43
21 46 42
21 46 42
20 44 41
21 46 42
20 45 41
21 46 42
20 44 41
20 45 41
21 45 41
20 45 41
20 44 40
21 45 41
21 45 41
21 46 42
21 46 42
21 45 41
21 46 42
21 45 41
22 47 43
22 47 43
22 46 42
23 47 43
22 45 41
23 46 42
23 47 43
23 46 42
24 47 43
24 47 43
25 47 43
25 48 44
25 47 42
26 47 43
25 46 42
26 47 43
27 47 43
27 48 44
28 48 44
28 48 44
29 49 44
29 50 45
29 49 44
30 50 45
30 50 45
31 51 46
31 51 46
32 51 46
32 51 46
32 52 47
32 50 45
33 51 46
33 51 46
33 51 46
33 51 46
19 43 39
19 42 39
20 44 40
20 44 40
20 44 41
20 45 41
20 44 41
20 44 41
19 43 40
20 45 42
20 44 40
20 45 42
20 44 40
20 44 41
20 45 42
20 44 41
20 45 41
20 44 40
20 44 40
20 44 40
20 44 41
20 44 41
20 44 41
20 45 41
20 44 41
20 45 41
20 45 42
20 44 41
20 44 40
19 43 40
20 45 42
20 45 42
20 45 41
20 45 41
20 44 41
20 44 40
19 43 40
20 45 41
20 45 41
20 44 41
20 44 41
20 44 40
20 44 40
20 44 40
20 45 41
20 45 41
20 45 42
20 45 42
20 44 41
20 44 40
20 45 41
20 44 40
20 45 42
20 44 41
20 45 41
21 46 42
20 44 40
20 44 41
20 45 41
20 45 41
20 45 41
20 45 41
20 44 41
21 46 42
20 45 41
20 45 41
21 46 42
21 45 42
21 46 42
20 44 41
20 44 41
20 44 41
21 45 42
20 44 40
21 46 42
21 45 41
21 46 42
21 45 41
21 46 42
21 45 42
21 44 41
22 46 42
22 46 42
22 46 42
21 44 40
22 45 41
22 46 42
23 47 43
23 46 42
23 46 42
24 47 43
24 47 43
24 47 43
25 47 43
25 48 44
26 48 44
27 50 45
27 48 44
27 48 44
27 48 43
28 48 43
28 49 44
29 50 45
30 50 45
30 49 45
31 51 47
31 51 46
31 50 45
32 52 46
33 51 46
33 51 46
33 52 47
34 53 47
34 52 47
35 52 47
35 53 48
35 52 47
36 53 47
36 54 48
36 53 47
19 42 39
20 45 41
19 43 40
19 44 40
21 46 42
20 44 41
20 44 41
20 44 41
20 44 40
20 45 41
20 44 41
19 43 40
20 44 41
20 44 41
20 44 41
20 44 41
20 44 40
20 44 40
20 45 41
20 44 40
20 45 42
20 44 41
20 44 41
20 44 40
19 43 40
20 44 41
19 43 40
20 45 42
20 44 40
20 44 41
20 45 42
20 45 41
20 45 41
20 44 40
20 44 41
20 44 40
20 44 40
20 45 42
20 45 41
20 45 41
20 44 40
20 44 40
20 44 41
20 45 41
20 44 41
20 44 40
20 45 42
20 45 41
20 44 41
20 45 42
21 46 42
20 44 41
20 44 40
20 45 41
20 44 41
20 45 41
20 44 40
20 45 41
20 45 41
20 45 42
20 45 42
20 45 41
20 45 41
20 45 41
20 45 41
21 46 42
20 44 41
20 45 41
20 45 41
20 45 41
20 44 41
21 45 41
21 45 41
21 45 41
21 46 42
21 45 41
21 44 41
21 44 40
21 45 41
22 46 42
21 45 41
22 47 43
22 45 41
22 45 41
23 47 43
23 46 42
23 46 42
23 46 42
24 48 43
24 47 43
24 46 42
25 46 42
25 47 43
26 48 44
26 48 44
27 48 44
27 48 44
28 49 45
29 49 44
29 50 45
30 49 44
31 50 45
31 49 44
32 51 46
32 51 46
33 52 46
34 52 47
34 51 46
34 52 47
35 52 47
36 53 47
36 52 47
36 53 47
37 55 49
38 55 49
38 54 48
38 54 49
39 54 48
39 55 49
39 54 48
20 44 41
20 44 40
20 44 40
20 43 40
19 43 40
19 43 40
20 44 41
20 44 41
20 44 40
20 44 40
20 45 42
20 45 41
20 44 40
20 46 42
20 44 41
20 44 41
20 44 40
20 45 41
19 43 40
20 44 41
20 45 41
20 45 42
20 44 41
20 45 41
20 44 41
20 43 40
21 46 42
19 43 40
20 45 41
19 43 40
20 44 41
19 43 40
20 44 41
20 44 41
20 44 41
20 44 41
20 44 41
20 44 40
20 44 40
20 44 40
20 44 41
20 44 41
20 44 40
20 44 41
19 43 40
20 45 41
20 45 41
20 44 40
20 45 41
20 45 41
19 42 39
20 44 40
20 44 40
20 44 41
20 46 42
20 44 41
20 45 41
20 44 41
20 45 41
20 45 41
20 45 41
20 44 41
20 45 42
20 44 41
20 44 41
21 46 42
20 44 41
20 44 40
20 45 41
20 45 41
21 45 42
21 45 42
20 44 40
21 46 42
21 45 41
21 45 41
21 45 42
22 47 43
22 46 42
22 46 42
22 45 41
22 46 42
22 46 42
23 46 43
23 47 43
24 48 43
24 46 42
24 46 42
25 48 44
25 46 42
25 46 42
26 47 43
27 48 44
28 49 45
28 49 44
28 48 44
29 50 45
30 50 45
30 50 45
31 50 45
32 51 46
33 52 47
33 51 46
34 51 46
35 53 47
35 52 47
36 52 47
37 54 48
37 54 49
38 55 49
38 54 48
39 55 49
39 55 49
40 55 50
41 57 51
41 56 50
41 56 50
42 56 50
42 57 50
43 57 50
20 44 40
20 45 41
20 45 41
19 43 40
20 44 40
20 45 41
20 44 41
20 44 41
20 44 40
20 44 41
20 44 41
20 44 41
19 43 40
20 44 41
20 44 40
20 44 41
20 44 41
19 44 40
20 46 42
20 44 41
20 44 41
20 44 41
20 44 41
20 44 40
20 45 41
19 43 39
20 45 41
20 44 41
20 44 41
20 45 42
20 45 42
20 45 41
20 44 41
20 45 41
20 45 42
20 45 42
20 45 42
20 44 40
20 44 41
20 45 41
20 44 41
20 45 41
20 45 41
20 44 41
20 45 41
20 44 40
20 43 40
20 44 41
20 45 41
20 45 41
20 44 40
20 44 40
20 44 40
20 45 41
21 46 42
20 45 41
20 44 41
20 44 41
20 45 41
20 45 42
20 45 41
20 44 40
20 45 41
20 45 41
20 45 41
21 45 42
20 45 41
20 45 41
20 45 41
20 44 41
21 45 41
21 45 41
21 46 43
21 45 42
21 45 41
21 45 41
22 46 42
21 45 41
22 46 42
22 44 41
22 45 41
23 46 42
22 45 41
24 48 44
24 47 43
25 47 43
24 46 42
25 47 43
26 49 44
26 47 43
27 48 43
27 48 44
28 49 44
29 48 44
30 49 45
31 50 46
31 50 45
32 50 45
32 51 46
33 52 47
34 53 47
35 53 47
36 52 47
37 53 48
37 54 48
38 54 48
39 55 49
40 55 49
40 55 49
41 56 50
42 57 50
42 57 50
43 56 50
43 57 51
44 58 52
45 58 52
45 59 52
45 59 52
46 59 53
46 59 52
20 44 41
19 43 40
20 45 41
20 45 41
20 44 41
20 45 41
20 44 41
19 43 40
20 44 41
20 44 41
19 43 40
20 44 41
20 45 42
20 44 41
20 45 41
20 44 40
20 44 41
20 45 41
20 44 41
19 43 40
20 44 41
19 43 40
20 45 41
20 44 41
20 44 40
20 44 41
20 45 41
20 44 40
19 43 40
19 43 40
20 45 42
20 44 41
20 44 41
20 45 41
21 46 42
20 45 41
20 45 41
20 44 41
21 46 42
20 45 41
20 44 40
20 44 41
20 44 40
20 45 41
20 44 40
20 45 42
20 44 41
20 45 41
20 44 41
20 45 41
20 45 41
20 46 42
20 44 40
20 44 41
20 45 41
20 45 42
20 44 41
20 45 42
20 44 40
20 45 41
20 43 40
20 45 41
20 44 41
20 45 41
20 44 41
21 45 42
21 46 42
21 45 41
21 45 42
20 44 40
21 46 42
21 46 42
21 45 41
21 45 41
22 46 42
22 46 42
22 45 42
22 46 42
23 46 43
23 46 42
23 46 42
23 46 42
24 46 42
25 48 43
25 47 43
25 48 44
26 47 43
26 48 43
27 48 43
28 49 44
28 48 44
29 49 44
30 49 44
30 50 45
31 50 45
32 50 45
33 52 47
34 51 46
35 52 47
35 52 47
36 53 47
37 53 48
38 55 49
39 54 48
40 55 49
41 56 50
42 57 50
43 57 51
43 57 51
44 58 51
45 58 52
46 58 52
46 60 53
47 59 52
48 61 54
48 61 54
49 61 54
49 61 54
50 61 54
50 62 54
20 44 40
20 44 41
20 44 40
20 44 41
20 44 41
20 44 40
20 44 41
19 44 40
19 43 40
19 43 40
20 44 41
20 44 41
20 44 41
20 44 40
19 43 40
20 44 41
20 45 41
20 45 42
19 42 39
20 44 40
20 44 40
20 44 40
20 45 41
20 44 41
20 45 41
19 43 40
20 45 42
20 44 40
20 44 41
20 44 41
20 44 41
20 45 41
20 45 41
20 45 41
21 46 42
20 44 40
20 44 41
20 45 41
20 44 40
20 45 41
20 44 40
20 45 41
20 44 41
20 45 41
20 44 41
19 43 40
20 44 40
20 45 41
20 45 42
20 45 41
20 45 41
20 45 41
20 44 40
20 44 41
21 46 42
20 44 40
20 44 41
20 44 41
20 45 41
20 44 40
21 45 42
20 44 41
20 44 41
20 44 41
20 45 41
20 44 41
20 44 40
21 45 41
21 45 41
21 44 41
21 46 42
21 45 41
21 45 41
21 45 41
22 45 42
22 45 42
22 45 41
22 46 42
23 46 42
23 46 42
24 47 43
24 45 42
24 47 42
25 47 43
25 47 43
27 49 44
27 48 44
27 48 43
29 49 45
29 48 43
30 49 45
31 51 46
31 50 45
33 52 47
33 51 46
34 51 46
35 53 48
36 53 48
37 54 48
38 53 47
39 54 48
40 56 50
41 56 50
42 57 50
43 57 51
44 58 52
45 58 52
46 59 52
47 60 53
48 60 53
49 61 54
49 62 54
50 62 55
51 63 55
52 64 56
52 63 55
53 63 56
53 64 57
54 65 57
54 65 57
20 44 40
20 44 40
20 44 41
19 43 40
20 44 40
19 43 39
20 45 41
19 43 39
20 44 40
19 43 40
19 43 39
19 43 40
19 43 40
20 45 41
19 43 40
20 44 40
20 44 41
20 44 41
20 44 41
19 43 40
20 46 42
20 45 41
20 44 40
20 44 40
20 44 41
20 45 42
20 44 40
20 44 41
20 44 40
19 43 40
20 44 41
20 45 42
20 45 41
19 43 40
20 44 40
19 43 40
20 44 40
20 44 41
20 44 41
20 44 41
20 44 41
20 44 41
20 45 41
20 45 41
20 45 41
20 44 40
21 46 42
20 45 42
20 44 41
20 44 41
20 45 42
20 44 41
20 44 40
20 44 41
20 45 41
20 45 42
20 44 40
20 44 40
20 44 41
20 45 41
20 43 40
20 45 41
21 46 42
20 44 41
21 45 42
20 44 41
21 45 41
20 44 41
21 46 42
21 45 41
22 46 42
21 44 41
22 46 42
22 45 41
21 44 41
22 46 42
23 46 42
23 46 42
24 47 43
24 46 42
24 46 42
25 46 42
25 47 43
26 47 43
26 47 43
27 48 44
28 48 43
29 49 45
29 49 44
30 49 44
31 50 45
32 51 46
33 51 46
34 51 46
35 53 47
36 52 47
38 54 49
38 54 48
39 55 49
41 55 49
42 56 50
43 57 51
44 57 51
45 58 51
46 58 51
47 59 52
48 61 54
49 61 54
50 61 54
51 62 55
52 64 56
53 64 56
54 65 57
55 65 57
56 66 58
56 65 57
57 67 58
57 67 59
58 67 59
58 67 58
