P3
120 80
255
18 40 38
18 41 38
18 40 37
17 40 37
18 41 38
18 41 39
18 41 38
18 41 38
18 41 38
18 41 38
18 41 38
18 40 38
18 41 38
18 41 39
18 41 39
18 41 38
18 41 38
18 41 38
18 41 38
18 40 38
18 41 39
18 40 38
18 41 38
18 41 38
18 40 37
18 41 38
18 41 38
18 41 39
18 41 38
18 41 38
18 41 38
18 41 39
18 40 38
18 41 39
18 41 38
18 42 39
18 41 38
19 42 39
18 41 38
18 41 38
18 41 38
18 41 39
18 41 39
18 41 38
18 41 39
18 41 38
18 42 39
19 42 39
19 42 39
18 41 38
19 43 40
19 42 39
19 42 40
18 41 39
18 41 38
18 41 38
19 42 39
18 41 39
18 41 38
18 42 39
18 42 39
18 42 39
18 41 39
19 42 39
19 42 39
18 41 38
18 41 38
19 43 40
18 41 38
19 42 39
19 42 39
19 43 40
18 41 38
19 42 39
18 41 38
19 42 39
19 42 39
19 42 39
18 41 38
19 42 39
19 42 39
18 42 39
19 43 40
18 41 38
18 41 38
19 42 39
19 43 40
19 42 39
19 42 39
19 43 40
19 43 40
19 42 39
18 42 39
19 43 40
19 42 39
18 41 38
19 42 39
19 42 39
18 41 38
19 42 39
19 42 39
19 42 39
18 41 38
19 42 39
18 41 38
19 42 39
19 42 39
18 42 39
19 42 39
18 42 39
19 42 39
19 42 39
18 42 39
19 43 40
19 42 39
19 42 39
19 42 39
18 42 39
18 41 38
18 41 38
18 40 38
18 41 38
18 41 39
19 42 40
18 41 39
18 41 38
18 41 38
18 41 39
18 41 38
18 40 37
19 42 39
18 41 39
18 40 37
18 41 38
18 41 38
18 41 38
18 41 38
18 41 38
18 41 38
18 41 38
18 41 38
18 41 38
19 42 39
18 42 39
18 40 37
19 42 39
19 42 39
19 42 39
19 42 39
18 41 38
18 41 39
18 42 39
19 42 39
18 42 39
18 42 39
18 41 38
18 41 38
19 42 39
18 41 38
18 41 39
19 42 40
18 41 38
18 42 39
19 42 39
19 42 39
19 42 39
18 42 39
18 42 39
18 41 38
18 42 39
19 43 40
19 42 39
19 42 39
19 43 40
18 42 39
19 42 39
19 42 39
19 43 40
18 41 38
19 43 40
19 42 39
19 42 39
19 42 39
19 43 40
19 42 39
19 42 39
19 43 40
19 42 39
19 43 40
18 41 38
19 43 40
19 42 39
19 42 39
19 42 39
19 42 39
19 43 39
19 42 39
19 43 40
18 41 38
19 43 40
19 42 39
19 42 39
19 43 40
19 42 39
19 43 40
19 42 39
19 42 39
19 42 39
19 42 39
19 42 39
19 43 40
19 43 39
19 43 40
19 42 39
19 42 39
19 42 39
19 42 39
19 43 40
19 42 39
19 42 39
19 43 40
19 42 39
19 43 40
19 42 39
19 42 39
19 42 39
19 42 39
19 43 40
19 43 40
19 42 39
19 43 40
19 43 40
19 43 40
19 42 39
19 43 40
19 42 39
19 43 40
19 43 40
19 43 40
19 42 39
18 40 38
18 41 38
18 41 38
18 41 39
18 40 38
18 41 38
18 41 38
18 41 38
18 41 38
18 40 37
18 42 39
19 42 39
18 41 38
18 41 38
18 41 39
18 41 38
19 42 39
18 41 38
18 41 38
18 42 39
18 41 38
19 43 40
18 41 38
18 42 39
18 41 38
19 42 39
19 42 39
19 43 40
19 42 39
18 41 38
19 42 39
18 42 39
19 42 39
18 42 39
19 42 39
18 41 38
19 42 39
19 42 39
18 41 38
19 42 39
19 43 40
19 42 39
18 41 38
19 42 39
19 42 39
19 42 40
19 42 39
19 42 39
19 42 39
19 42 39
19 42 39
19 42 39
19 42 39
19 42 39
19 42 39
19 42 39
19 43 40
19 43 40
19 42 39
19 43 40
19 43 40
19 44 40
19 42 39
19 43 40
19 42 39
19 42 39
18 41 38
19 43 40
19 42 39
19 42 39
19 43 40
19 43 40
19 44 41
19 43 40
19 44 40
19 42 39
19 44 40
19 43 40
19 42 39
19 42 39
18 41 38
19 43 40
19 44 40
20 44 41
19 42 39
19 43 40
19 43 40
19 43 39
19 42 39
19 42 39
19 42 39
20 44 41
19 43 40
19 42 39
20 44 41
19 43 40
20 44 41
19 43 40
19 43 39
19 43 39
20 44 40
19 43 40
19 44 41
19 43 40
19 42 39
19 43 40
19 43 40
19 43 40
19 43 40
19 43 40
19 43 40
19 43 40
20 44 41
19 43 40
19 42 39
19 43 39
19 43 40
19 44 40
19 43 40
20 44 41
18 40 38
18 41 38
19 42 39
18 41 38
18 41 38
18 41 38
18 41 39
19 42 39
18 41 38
18 41 38
19 42 39
19 42 39
19 42 39
18 41 38
18 41 39
18 41 38
19 42 39
18 42 39
19 42 39
18 42 39
19 43 40
19 43 40
18 41 38
19 42 39
19 42 39
18 42 39
19 42 39
19 44 41
19 43 39
19 42 39
19 43 40
19 42 39
19 43 40
19 42 40
19 42 39
19 43 40
19 43 40
19 42 39
19 43 40
18 41 38
19 42 39
19 42 39
19 42 39
19 42 39
19 43 40
18 41 38
19 42 39
19 42 39
18 42 39
19 42 39
19 42 39
19 43 40
19 43 40
19 42 39
19 43 39
19 43 40
19 42 39
19 42 39
19 42 39
19 42 39
19 42 39
19 42 39
19 42 39
19 42 39
19 42 39
20 44 40
19 43 40
19 43 40
20 44 41
19 43 40
19 44 40
19 43 40
19 43 40
19 42 39
19 43 40
19 42 39
19 43 39
19 43 40
19 44 40
18 41 38
19 43 40
19 43 40
19 42 39
19 43 40
19 43 40
19 43 40
19 42 39
20 44 41
19 44 40
19 43 39
19 43 40
19 43 40
19 43 39
19 43 40
19 43 39
19 43 40
19 43 40
19 42 39
20 44 41
19 43 40
19 43 40
19 43 40
20 44 41
19 43 40
19 43 40
19 43 40
19 42 39
19 43 40
19 43 40
19 43 40
19 43 40
19 43 40
19 43 40
20 45 41
19 43 40
19 43 40
19 44 40
20 44 40
20 44 41
19 43 40
18 41 38
19 42 39
19 42 39
19 42 39
18 41 38
19 42 39
19 43 40
18 41 39
18 41 38
19 42 39
19 43 40
19 42 39
19 42 39
19 42 39
19 42 39
19 43 40
18 41 38
19 42 39
18 41 38
19 43 40
19 43 40
19 42 39
19 42 39
19 43 40
19 42 39
18 41 38
19 43 40
18 41 38
19 43 40
19 43 40
19 42 39
19 43 40
18 41 38
19 42 39
19 42 39
19 42 39
19 42 39
19 42 39
19 42 39
18 40 37
19 43 40
19 43 40
19 43 40
19 42 39
19 43 40
19 42 39
19 44 40
19 42 39
19 42 39
19 44 40
19 43 40
19 43 40
19 43 39
19 42 38
19 43 40
19 43 40
19 42 39
19 42 39
19 42 39
19 43 40
18 41 38
19 42 39
19 43 40
19 43 40
19 43 40
19 43 40
19 42 39
19 43 40
19 43 40
19 43 39
20 44 41
19 43 40
19 43 40
19 43 40
19 44 40
19 42 39
19 43 40
19 42 39
19 42 39
19 43 40
19 43 40
19 43 40
19 43 40
19 43 40
20 44 41
20 44 40
20 44 40
19 43 40
19 43 40
20 45 41
19 43 40
20 44 41
19 44 40
19 43 39
20 44 41
20 44 40
19 42 39
19 44 40
20 44 41
19 43 40
20 44 41
19 43 39
19 43 40
20 44 40
20 44 40
20 44 41
19 43 40
20 44 40
19 43 40
19 43 40
20 44 41
20 44 40
19 42 39
20 45 41
20 44 40
19 43 40
20 44 41
19 42 39
19 44 40
20 44 40
18 41 38
18 41 38
18 41 38
19 42 39
18 41 38
18 41 39
19 42 39
19 42 39
19 42 39
18 41 38
19 43 40
19 43 40
19 43 40
19 42 39
19 42 39
19 43 40
19 43 40
19 42 39
19 42 39
19 42 39
19 43 40
18 41 38
19 43 40
19 43 40
19 42 39
19 43 40
19 42 39
19 43 40
19 42 39
19 42 39
19 42 39
19 42 39
19 43 40
19 42 39
19 43 40
19 43 40
19 43 40
19 42 39
19 43 39
19 43 40
19 43 39
19 42 39
19 43 40
19 43 40
19 43 40
19 42 39
19 43 40
19 44 40
19 43 40
19 43 40
19 43 40
19 43 39
19 43 40
19 43 40
19 43 40
19 42 39
20 44 41
19 43 40
19 43 39
20 44 41
19 42 39
19 43 40
19 43 39
20 44 41
20 44 40
19 44 40
19 43 40
19 43 40
20 44 41
19 43 40
19 43 40
19 44 40
19 43 40
20 44 40
20 44 40
19 43 40
20 44 41
19 43 40
19 43 40
20 44 40
20 44 40
19 43 40
19 43 40
20 44 40
20 44 40
20 45 41
20 44 41
20 44 40
20 44 40
20 44 40
19 43 40
20 45 41
20 45 41
19 43 40
20 44 41
20 44 40
20 44 41
20 44 40
20 44 40
20 44 41
19 43 40
20 44 41
20 44 40
19 43 40
20 44 41
20 44 40
20 44 40
20 44 40
20 44 40
20 43 40
20 45 41
19 43 40
20 44 41
20 44 41
20 44 41
20 44 41
20 44 40
19 43 40
20 44 40
19 43 40
19 43 40
19 43 40
19 43 40
19 42 39
19 42 39
18 41 38
18 41 38
19 42 39
19 43 40
19 42 39
19 43 40
19 42 39
18 41 38
19 43 40
19 42 39
18 42 39
19 42 39
19 42 39
19 43 40
19 43 40
19 42 39
19 42 39
19 42 39
19 43 40
19 42 39
19 43 40
20 44 41
19 42 39
19 43 40
19 43 40
19 42 39
19 43 40
19 44 40
19 43 40
20 44 40
19 43 39
19 44 40
19 43 40
19 43 40
19 43 40
19 43 40
19 43 39
19 43 40
20 45 42
19 43 40
19 43 40
19 42 39
19 43 40
19 43 40
20 44 41
20 44 41
20 44 41
20 44 41
19 43 39
20 44 40
19 44 40
19 43 40
20 44 40
19 43 40
19 43 39
20 44 40
19 43 39
19 44 40
19 44 40
20 44 40
20 44 40
20 44 41
20 44 40
20 44 41
20 45 42
20 44 40
20 44 40
19 43 40
19 43 40
19 43 39
20 45 41
20 44 41
20 44 40
20 43 40
19 43 40
20 44 41
19 43 40
20 44 40
20 44 40
19 43 40
20 44 41
20 45 41
20 44 40
20 44 40
20 45 41
20 44 40
20 44 40
20 44 40
20 45 42
20 45 41
20 45 41
20 44 41
20 45 41
19 43 40
21 46 42
20 44 41
20 45 41
20 44 41
20 45 41
20 44 41
20 44 41
20 44 41
20 45 41
20 44 40
20 44 40
20 45 41
19 43 40
20 44 40
20 44 40
20 44 41
20 45 41
20 44 40
20 44 41
20 44 40
20 44 40
19 43 40
19 43 40
18 41 38
19 42 39
19 42 39
19 43 40
19 43 39
19 43 40
19 42 39
19 43 40
19 43 40
19 42 39
19 43 40
19 42 39
19 43 39
19 43 40
19 42 39
19 43 40
19 42 39
19 43 40
19 42 39
19 43 40
19 43 40
19 44 40
18 41 38
19 42 39
19 43 40
20 44 41
19 43 40
19 42 39
19 44 40
19 42 39
19 43 40
19 43 40
19 43 40
19 42 39
19 43 40
19 42 39
20 44 40
20 44 41
19 43 40
19 43 40
19 44 40
19 44 40
20 45 41
19 44 40
19 43 39
19 43 40
19 43 40
19 42 39
20 44 40
19 43 40
20 44 41
19 43 39
20 44 40
20 44 41
19 43 40
19 43 40
20 44 40
20 44 41
19 43 40
20 44 41
20 44 40
20 44 40
19 43 40
20 44 41
20 44 40
20 44 40
20 44 41
20 44 41
20 45 41
20 44 40
20 45 41
20 44 40
20 44 41
20 45 41
20 44 41
20 46 42
20 44 41
20 44 40
20 45 41
20 44 41
20 44 41
20 45 41
20 45 42
20 44 41
20 45 41
20 45 41
20 45 42
20 44 41
20 44 41
20 44 40
20 45 42
20 44 40
21 46 42
21 46 42
21 46 42
20 44 41
20 44 41
20 44 40
20 44 40
20 45 41
20 45 42
21 45 42
20 45 41
20 45 41
20 45 41
20 45 41
20 45 41
20 45 41
20 44 41
20 45 41
20 45 41
20 45 41
20 44 41
20 44 41
20 44 41
20 44 41
20 45 41
20 45 42
19 43 40
19 43 39
19 42 39
19 42 39
19 42 39
19 43 40
19 42 39
19 42 39
19 43 40
19 44 40
19 44 41
19 43 39
19 44 40
20 44 41
19 43 40
19 43 39
19 43 40
19 43 40
19 43 39
19 42 39
19 43 39
19 42 39
19 43 40
19 43 40
19 42 39
19 43 40
19 43 40
20 44 40
20 44 41
19 43 40
19 43 40
20 44 41
20 44 41
19 42 39
19 43 40
19 43 40
20 44 41
19 42 39
19 42 39
19 43 40
20 44 40
20 44 41
19 43 39
20 44 41
20 44 40
20 44 41
19 43 40
20 44 40
20 44 40
20 44 41
19 44 40
20 44 40
19 43 40
20 45 41
20 45 41
20 45 41
20 45 42
20 44 40
20 44 40
20 44 40
20 44 40
20 44 40
20 44 41
20 44 40
20 44 40
20 44 40
20 44 41
20 45 41
21 46 42
20 45 42
20 45 41
20 44 40
20 44 40
20 45 41
20 45 41
21 46 43
20 45 42
20 45 42
20 44 41
20 44 41
20 45 42
20 44 40
20 45 41
20 45 41
20 44 41
19 43 40
20 45 42
20 45 41
20 44 40
20 45 41
21 46 42
20 44 41
20 44 40
20 45 41
21 46 42
20 45 41
21 46 42
20 45 42
20 45 41
20 45 42
20 44 41
21 46 42
20 45 41
20 45 42
20 45 41
20 44 41
20 45 41
21 46 42
20 45 41
20 45 42
20 45 41
20 45 41
20 44 41
20 44 40
21 46 42
20 45 41
20 45 41
20 45 41
20 45 41
20 45 42
19 42 39
19 42 39
19 43 40
19 43 40
19 42 39
19 42 39
19 43 39
20 44 41
19 43 40
19 42 39
19 42 39
19 43 40
19 42 39
20 44 41
20 44 40
19 43 40
20 44 40
19 43 40
19 44 40
20 44 40
19 43 40
19 43 40
19 43 40
19 43 40
19 43 40
20 44 41
19 43 40
19 43 39
20 44 41
19 43 40
20 44 41
19 43 40
20 44 40
20 44 41
20 44 40
19 43 40
20 44 41
19 43 40
19 43 40
19 44 40
20 44 40
20 44 41
19 43 40
20 44 40
20 44 40
20 45 41
20 44 40
20 44 41
20 44 40
20 44 40
20 44 40
20 44 40
20 45 41
20 45 41
20 45 41
20 45 41
20 44 40
20 44 41
20 44 41
20 45 41
20 44 40
20 44 41
20 45 41
20 45 41
20 45 41
21 46 43
20 45 41
19 43 40
20 45 42
21 46 42
20 45 41
20 45 41
20 45 42
20 45 41
20 45 41
20 44 41
20 43 40
20 45 41
20 44 40
20 45 41
20 45 41
21 46 42
20 45 42
21 46 42
20 45 42
21 46 42
20 45 41
21 45 42
20 45 41
20 45 41
21 46 42
21 46 42
21 46 42
20 45 42
20 45 41
20 45 41
21 46 42
20 45 41
21 46 42
21 46 42
21 46 42
20 45 41
21 46 42
21 46 42
20 45 41
21 46 42
20 45 42
20 45 41
21 46 42
20 45 41
21 46 42
20 45 41
21 45 42
20 45 41
21 46 42
21 46 42
21 46 42
21 46 42
21 47 43
21 46 42
19 44 40
19 43 40
19 43 40
20 44 41
19 43 40
19 42 39
20 44 41
19 43 40
20 45 41
19 43 40
19 43 40
19 43 40
19 43 40
19 43 40
19 43 40
19 43 40
19 43 40
19 43 40
19 43 39
19 42 39
20 45 42
20 45 41
19 43 40
20 45 41
19 43 40
20 44 40
20 44 41
20 44 41
20 44 40
19 43 40
19 43 40
19 43 40
19 43 40
20 44 40
20 44 40
19 43 40
20 45 41
20 44 40
19 43 40
20 44 40
20 45 41
20 44 40
20 44 40
20 44 41
20 44 41
20 45 41
19 43 40
20 44 40
20 45 41
20 44 41
20 45 41
20 45 41
20 45 41
20 44 41
20 44 40
20 44 41
20 45 41
20 45 41
20 45 41
20 44 40
20 44 41
20 44 40
21 46 42
20 45 41
20 44 40
20 45 41
20 45 41
20 45 41
20 45 41
21 46 42
20 45 41
21 46 42
20 45 41
20 45 42
20 45 41
20 45 41
21 46 42
20 44 41
21 46 42
21 46 42
21 46 42
20 45 41
20 45 41
21 47 43
20 45 41
20 45 41
21 46 42
21 45 42
21 47 43
21 46 42
21 46 42
20 45 41
21 47 43
20 45 41
21 46 42
20 45 41
20 45 41
21 47 43
20 45 42
21 46 42
21 46 42
21 46 42
21 46 42
20 45 41
21 46 42
20 45 42
21 47 43
21 47 43
20 45 41
21 46 42
21 45 42
21 47 43
21 46 42
21 45 42
21 46 42
21 46 42
21 45 41
21 47 43
21 46 42
21 46 42
19 42 39
19 42 39
19 43 40
19 42 39
19 43 40
19 43 40
20 44 41
19 44 40
20 44 41
19 43 40
19 44 40
19 42 39
19 43 40
20 44 41
20 44 41
20 44 40
19 43 39
19 44 40
20 44 40
20 44 40
19 43 40
19 44 40
20 44 41
20 44 40
20 44 40
20 45 41
20 44 40
20 45 42
20 44 41
20 44 40
19 42 39
19 43 40
19 43 40
20 45 41
20 44 41
20 44 41
20 44 41
20 44 40
20 45 41
20 44 40
20 44 41
20 45 41
20 45 41
20 44 41
20 44 41
20 44 41
20 44 41
20 45 41
20 44 41
20 45 41
19 43 39
20 45 41
20 45 42
20 45 41
21 46 42
20 45 41
20 44 41
20 45 41
20 44 41
21 46 42
20 45 41
20 45 41
19 43 40
20 45 42
21 46 42
20 45 41
20 45 41
20 44 40
20 45 42
20 45 41
20 45 41
20 45 41
20 45 41
21 46 42
20 45 41
21 46 42
20 45 41
21 46 42
20 45 41
21 45 42
21 46 42
21 45 42
21 46 42
20 45 41
21 46 42
21 46 42
21 46 42
21 46 42
21 46 42
20 45 41
20 45 41
21 47 43
21 47 43
22 48 43
21 46 42
21 46 42
21 46 42
21 46 42
21 46 42
20 45 41
21 45 41
21 46 42
20 45 41
21 46 42
21 47 43
20 45 41
21 46 42
21 46 42
21 47 43
21 47 43
21 47 43
22 47 43
21 47 43
21 47 43
21 46 42
21 46 42
21 46 42
21 46 42
21 46 42
21 47 43
19 43 40
20 44 41
20 44 41
19 43 40
19 43 40
19 44 40
19 43 40
19 44 40
19 44 40
19 42 39
19 43 39
19 43 40
20 45 41
19 43 40
20 44 41
19 44 40
19 43 40
19 43 40
20 45 41
20 44 41
20 44 40
20 45 41
20 44 40
19 43 40
20 44 41
20 44 41
20 44 40
20 44 41
20 45 41
20 44 40
20 44 40
19 43 40
20 44 41
20 45 41
20 45 41
20 44 41
20 45 41
20 45 42
20 44 41
20 45 41
21 46 42
20 45 41
19 43 39
20 45 41
20 44 41
20 45 41
20 44 40
20 45 41
20 45 41
20 45 41
20 45 41
21 46 42
21 46 43
19 43 40
20 45 41
20 45 41
20 45 41
21 46 42
21 46 42
20 45 41
20 45 41
20 45 42
20 45 41
20 45 42
20 45 41
21 46 42
21 46 42
21 46 42
21 46 42
21 46 42
21 46 42
21 46 42
20 45 41
21 46 42
21 46 42
21 46 42
20 45 41
21 46 42
21 46 42
20 45 41
21 46 42
21 45 42
21 47 43
21 47 43
21 46 42
21 47 43
21 46 42
21 46 42
21 46 42
21 46 42
21 47 43
22 47 43
21 46 42
22 48 43
21 47 43
21 46 42
21 46 42
20 45 41
22 48 43
22 48 43
21 46 42
22 48 44
21 46 42
21 47 43
21 47 43
21 47 42
21 47 43
22 47 43
22 48 43
21 47 43
21 47 43
21 47 43
21 46 42
21 46 42
21 47 43
21 47 43
21 46 42
22 48 44
21 47 43
22 48 43
19 43 39
19 43 39
19 43 40
20 44 41
20 44 41
19 43 40
19 43 40
19 43 40
20 44 40
19 43 39
19 43 40
20 45 41
20 44 40
19 43 39
20 44 41
20 44 40
20 44 41
20 44 41
20 44 41
19 43 39
19 43 40
20 44 40
20 44 40
20 45 41
20 44 40
20 44 41
20 45 41
20 44 41
20 44 40
19 43 39
20 44 41
20 45 41
20 44 40
20 44 40
20 45 41
20 44 41
20 44 40
20 44 40
20 44 40
20 45 41
20 45 41
20 45 41
20 45 42
20 44 40
20 45 42
20 45 42
21 46 42
20 45 41
20 45 41
20 44 41
20 45 41
20 45 41
21 46 42
21 46 42
20 46 42
21 45 42
20 45 41
20 45 42
21 46 42
20 44 41
20 45 41
20 45 41
21 46 43
21 46 42
21 46 42
20 45 42
21 46 42
21 47 43
21 47 43
20 45 41
21 47 43
21 47 43
21 46 42
21 46 42
21 47 43
21 46 42
21 46 42
21 46 42
21 46 42
21 46 42
21 47 43
21 46 42
21 46 42
21 45 42
21 47 43
21 46 42
21 46 42
21 47 43
21 46 42
21 47 43
21 47 42
21 46 42
21 46 42
21 47 43
22 48 43
21 47 43
21 47 43
21 47 43
21 46 42
22 48 43
21 47 43
21 47 43
22 48 44
22 48 44
21 46 42
21 47 43
21 46 42
21 46 42
21 47 42
21 47 43
21 46 42
21 46 42
21 47 43
22 48 44
21 47 43
21 46 42
22 47 43
21 47 42
21 47 43
21 47 43
20 44 40
20 44 41
20 44 40
19 43 40
19 43 40
20 44 40
19 43 40
20 44 40
19 43 40
19 43 40
20 44 40
20 44 41
19 44 40
20 44 41
20 45 41
20 44 41
20 44 41
20 44 40
20 44 41
20 44 41
20 44 41
20 44 41
20 45 42
20 44 40
19 43 40
20 44 41
20 45 42
19 43 40
20 46 42
20 44 41
20 44 40
20 44 40
20 44 41
21 46 42
20 45 42
20 45 42
20 45 41
20 44 41
20 44 40
20 45 41
20 45 41
20 44 41
20 45 41
20 45 41
20 44 40
20 45 41
20 45 42
20 45 41
21 46 42
20 45 41
21 46 42
20 44 41
21 46 42
20 45 42
21 46 42
21 45 42
20 45 41
21 46 42
21 46 42
21 46 42
21 45 42
20 45 41
21 47 43
21 46 42
21 46 42
20 45 41
21 46 42
21 46 42
21 46 42
21 46 42
21 45 41
21 46 42
21 47 43
21 47 43
21 45 41
21 47 43
21 47 43
21 47 43
21 47 43
21 46 42
21 47 43
21 47 42
22 48 44
21 47 43
21 47 43
21 47 43
21 45 41
21 47 43
21 47 43
22 48 43
21 47 43
21 47 43
21 46 42
21 46 42
21 46 42
22 48 44
21 47 43
21 47 43
21 47 43
22 48 44
22 48 44
21 47 42
22 48 44
21 47 42
22 48 44
22 48 44
21 47 43
21 47 43
22 48 43
22 48 43
21 47 43
21 47 43
21 47 43
21 47 43
22 47 43
22 47 43
22 49 44
22 48 44
22 49 44
21 47 43
19 43 40
19 43 40
20 44 40
19 43 40
19 43 39
19 43 40
20 45 42
20 43 40
19 43 40
20 44 40
20 45 42
20 44 41
19 43 40
20 45 42
20 44 41
20 44 40
20 44 40
20 45 41
20 44 40
20 44 41
20 44 40
20 44 40
20 44 40
20 44 40
20 45 41
20 44 41
20 44 40
20 44 41
20 44 41
20 44 41
21 46 42
20 45 41
20 45 41
21 46 42
20 44 40
20 44 41
20 45 41
20 45 41
20 45 42
21 46 42
20 44 41
20 45 42
21 46 42
20 45 42
21 46 42
21 46 42
20 45 42
21 47 43
20 45 42
21 46 42
20 45 41
21 46 42
21 46 42
20 45 41
21 46 42
20 45 41
21 46 42
21 46 42
21 46 42
21 47 43
21 46 42
21 46 42
21 46 42
21 46 42
21 47 43
21 47 43
21 47 43
21 46 42
20 45 41
21 46 42
21 47 43
20 45 41
21 46 42
21 47 43
21 46 42
21 47 43
22 48 43
20 45 41
21 46 42
21 47 43
21 46 42
22 48 44
21 46 42
21 47 43
22 49 44
21 47 43
22 48 43
21 47 43
21 47 42
21 47 42
22 47 43
22 48 44
22 48 44
21 47 43
21 47 43
22 47 43
22 47 43
22 48 44
21 47 43
22 48 43
22 47 43
21 47 43
21 47 43
22 48 43
21 47 43
22 47 43
22 48 44
21 47 43
22 48 43
22 48 44
21 47 43
22 49 44
22 48 43
22 48 44
22 47 43
22 48 43
22 47 43
21 47 43
22 48 43
22 48 43
19 43 40
20 44 41
20 45 41
19 43 40
20 44 40
20 44 40
20 44 41
20 43 40
19 43 40
20 44 40
20 44 41
20 44 41
20 45 41
20 44 40
20 44 41
20 44 41
20 44 40
20 44 41
20 45 42
19 43 40
20 45 42
20 45 41
20 45 41
20 44 41
20 45 41
20 44 40
20 45 41
20 45 41
20 45 42
20 45 42
20 45 41
21 46 42
20 44 41
21 46 42
20 45 41
20 45 41
20 45 41
20 44 41
20 44 40
20 45 41
21 46 42
21 46 42
21 46 42
20 45 42
20 45 41
20 45 41
21 46 42
21 46 42
20 45 41
21 46 42
21 46 42
21 46 42
21 46 42
21 46 42
21 46 42
21 47 43
21 46 42
21 46 42
21 46 42
20 45 41
21 47 43
21 47 43
21 46 42
21 46 42
21 47 43
21 46 42
21 45 41
20 45 41
21 47 43
21 47 43
21 46 42
21 47 43
21 46 42
21 47 43
21 47 43
21 47 43
21 47 43
22 47 43
21 46 42
21 47 42
21 47 43
21 46 42
21 46 42
21 47 43
22 48 43
21 46 42
21 47 43
22 48 43
22 47 43
22 48 44
21 47 43
22 48 44
22 49 44
21 47 43
21 47 43
22 47 43
21 47 43
21 47 43
21 47 43
22 48 44
22 48 44
22 48 43
22 48 43
22 48 44
22 48 44
22 48 44
22 48 44
21 47 43
22 48 43
22 49 45
22 48 43
22 48 44
22 48 44
22 49 44
22 48 44
22 48 44
22 49 44
23 50 45
22 48 43
22 48 44
20 45 42
19 43 40
20 44 41
19 43 39
20 44 41
19 43 39
20 44 40
20 44 41
20 45 41
20 44 40
19 43 40
20 45 41
20 45 41
20 44 40
20 44 41
20 44 41
20 45 41
20 45 41
20 45 41
20 45 41
20 44 40
20 44 41
20 45 41
20 44 40
20 45 41
21 46 42
20 45 41
20 45 41
20 45 41
20 44 40
20 45 41
20 44 40
20 45 41
21 46 42
20 44 41
21 46 42
20 44 41
20 45 41
21 47 43
20 45 42
21 46 42
20 45 41
21 46 42
21 46 42
21 46 42
20 45 41
20 45 41
21 46 42
21 46 42
21 46 42
20 45 42
21 47 43
21 46 42
21 46 42
21 46 42
21 46 42
20 45 41
20 45 41
21 46 42
20 45 41
21 46 42
21 46 42
21 46 42
21 46 42
21 46 42
21 46 42
21 46 42
21 46 42
21 47 43
21 46 42
22 48 43
21 46 42
21 47 42
22 49 44
21 47 43
21 46 42
22 48 44
21 47 43
22 48 44
22 48 43
21 46 42
21 47 42
21 47 43
21 47 42
21 47 43
22 48 43
22 48 43
22 47 43
21 47 43
22 49 44
21 47 43
22 48 43
22 48 43
22 49 44
22 48 44
22 48 44
22 47 43
22 48 44
22 47 43
22 47 43
22 48 44
21 47 43
22 49 44
22 49 44
22 48 44
21 47 43
21 47 43
22 48 43
22 48 44
22 48 43
22 48 44
21 47 42
22 49 44
22 48 43
21 47 43
22 48 44
22 48 44
22 49 44
22 49 44
22 48 44
20 44 41
20 44 41
20 44 41
19 43 39
20 45 41
20 44 40
20 44 40
20 45 41
20 45 41
20 44 41
20 45 42
20 45 41
20 45 41
20 44 41
20 45 41
20 44 41
20 45 41
20 45 42
20 44 41
20 45 41
20 44 40
21 46 42
20 45 41
20 44 41
20 45 41
20 45 41
20 46 42
20 45 41
20 45 41
20 45 41
20 45 41
20 45 41
20 45 41
20 45 41
20 45 41
20 45 41
20 45 41
20 45 41
21 46 42
20 45 41
20 45 41
21 46 42
20 45 41
21 46 42
21 46 43
21 46 42
21 45 42
20 45 42
20 45 41
21 45 42
20 45 41
21 46 42
20 45 41
21 46 42
21 46 42
21 46 42
21 46 42
20 45 41
21 46 42
21 47 43
21 46 42
21 46 42
21 46 42
21 45 41
21 47 43
21 45 41
21 46 42
21 47 43
21 47 43
21 46 42
21 47 43
21 46 42
21 46 42
21 46 42
21 47 43
21 45 41
22 48 43
21 46 42
21 47 43
22 48 44
37 54 49
81 83 76
114 94 85
61 52 46
22 47 43
22 48 44
22 48 43
22 48 43
21 47 43
22 48 44
21 47 43
22 49 44
22 48 44
22 49 44
21 47 42
22 48 44
22 48 44
22 49 44
21 46 42
22 48 43
21 47 43
22 48 43
22 48 44
22 48 43
22 48 44
22 48 44
22 47 43
22 49 44
22 48 43
22 48 44
22 48 44
22 49 44
22 48 44
22 49 44
22 48 44
21 47 43
22 49 44
22 47 43
22 49 44
22 49 44
20 44 41
19 44 40
19 43 40
19 43 40
20 44 41
20 44 40
20 44 41
20 44 40
20 45 42
20 44 40
20 44 41
20 44 40
20 44 40
20 44 40
20 45 41
20 45 41
20 44 40
20 45 41
20 44 41
20 44 40
20 44 41
20 45 41
20 45 41
20 45 41
20 44 40
20 45 41
20 45 41
20 45 42
20 45 42
20 45 41
20 45 41
21 45 42
20 44 41
21 46 42
21 46 42
21 46 43
21 46 42
21 46 42
20 45 41
21 46 42
21 46 42
20 45 41
20 45 41
21 46 42
21 46 42
21 46 42
21 46 42
21 46 42
21 46 42
21 46 42
21 47 43
20 45 41
21 46 42
21 47 43
21 47 43
22 48 44
21 47 43
21 46 42
21 47 42
21 46 42
21 46 42
21 46 42
22 48 43
21 46 42
21 46 42
21 47 43
21 47 43
22 48 43
21 47 43
21 46 42
21 46 42
21 46 42
21 47 43
22 49 45
21 47 43
22 48 44
22 48 43
21 47 43
22 48 44
62 66 60
180 113 101
216 96 80
229 79 58
238 86 64
173 66 51
42 50 45
22 47 43
22 48 43
21 47 42
22 48 44
22 48 44
22 49 44
22 48 43
21 47 43
22 49 44
22 48 43
21 47 43
22 48 43
21 47 43
22 48 44
22 48 43
22 49 44
22 49 44
22 49 44
22 49 44
22 49 44
22 49 44
22 48 44
22 48 43
23 49 45
22 49 45
22 49 44
22 48 44
22 49 44
22 48 44
22 48 44
22 47 43
22 49 45
23 50 45
22 48 44
20 44 40
20 45 41
20 45 41
20 44 41
20 44 41
20 45 41
20 45 41
20 45 41
20 45 41
20 44 41
20 44 40
20 45 41
21 46 42
20 45 41
20 45 41
20 44 40
20 45 41
20 45 41
20 45 41
20 45 41
20 45 41
20 45 42
21 46 42
20 44 41
20 45 41
21 46 42
21 46 42
20 44 41
20 44 40
21 46 42
21 46 42
20 45 41
21 46 42
20 45 41
20 45 41
20 45 41
20 45 41
20 45 41
21 46 42
21 46 42
21 47 43
20 45 42
21 46 42
21 46 42
21 46 42
21 46 42
21 46 42
21 46 42
21 47 43
21 47 43
21 47 43
22 48 44
21 46 42
21 47 43
21 47 43
21 46 42
21 47 43
21 47 43
21 46 42
21 47 43
21 46 42
22 47 43
21 47 43
22 47 43
21 47 43
21 47 43
22 48 43
21 47 43
21 46 42
21 47 43
21 47 43
21 47 43
21 46 42
21 47 43
22 49 44
22 48 44
22 48 43
22 48 43
37 49 44
141 68 59
191 65 47
207 69 50
221 74 53
255 129 102
249 95 71
161 64 49
21 47 43
22 48 44
22 48 44
22 49 44
22 48 43
22 49 44
22 48 44
22 48 44
22 48 43
22 49 44
22 49 44
22 48 44
22 48 43
22 48 44
22 48 43
22 48 43
22 49 45
22 48 44
22 48 44
22 48 44
23 50 46
22 48 44
22 49 44
22 49 44
22 49 44
22 49 44
22 48 44
23 50 46
22 48 44
22 48 43
22 49 45
22 49 44
22 49 45
22 49 44
20 44 41
20 44 41
20 44 40
20 45 42
20 45 41
20 45 41
20 44 40
20 45 41
20 44 41
20 45 41
20 44 40
20 44 41
20 45 41
20 45 42
20 45 42
20 45 41
20 45 42
21 46 42
20 45 42
20 45 42
20 45 41
20 45 41
21 46 42
20 45 41
20 45 41
20 45 41
20 45 42
20 45 42
21 47 43
20 44 40
20 45 41
21 46 42
20 45 41
21 46 42
20 45 41
21 46 42
21 46 42
20 44 40
20 45 41
21 47 43
20 45 41
21 47 43
21 46 42
21 47 43
21 46 42
20 45 41
21 46 42
21 46 42
20 45 41
21 46 42
21 47 42
21 46 42
21 47 43
22 48 43
21 46 42
21 47 43
21 47 43
21 47 43
21 46 42
21 47 43
21 47 43
21 47 43
21 47 43
21 47 42
21 47 43
21 47 43
22 48 43
21 47 43
21 47 43
21 46 42
22 48 43
21 47 43
22 47 43
22 47 43
22 47 43
22 47 43
22 48 43
21 47 42
59 60 55
143 86 77
163 56 41
187 63 45
200 84 68
214 114 97
221 114 96
206 84 65
28 48 43
22 48 43
22 48 43
22 48 44
22 48 43
22 48 44
27 50 45
21 47 43
22 48 44
22 48 44
22 49 44
22 47 43
22 48 44
23 50 45
22 48 44
22 48 44
22 49 45
22 49 44
22 49 44
22 48 43
22 49 44
22 48 44
22 48 44
22 47 43
23 49 45
23 50 45
22 49 44
23 50 45
22 49 45
23 50 45
22 49 44
23 51 46
22 49 44
22 49 44
20 44 41
20 44 40
20 44 41
20 44 40
20 45 41
20 44 41
20 45 41
20 44 40
20 44 40
20 45 41
21 46 42
20 44 40
20 45 41
20 45 41
20 44 41
20 45 41
20 45 42
20 45 41
20 45 41
20 44 40
20 45 41
20 44 40
20 45 41
20 45 41
20 45 41
21 46 43
20 45 41
21 46 42
20 44 40
20 45 41
21 47 43
21 46 42
21 46 42
20 45 41
21 46 42
20 45 41
20 45 42
21 47 43
21 46 42
21 45 42
21 46 42
20 45 41
21 46 42
21 46 42
21 46 42
21 47 43
21 46 42
22 48 43
21 46 42
21 46 42
21 46 42
21 46 42
21 46 42
21 46 42
21 46 42
21 47 43
21 46 42
21 45 41
21 46 42
21 47 43
21 47 43
21 46 42
21 46 42
21 47 43
21 46 42
22 48 44
21 47 43
21 47 43
21 47 43
21 47 43
22 48 44
21 46 42
22 48 44
22 49 44
22 48 44
21 47 43
21 47 43
22 48 43
77 78 73
122 95 88
135 54 43
145 107 98
158 138 125
178 158 143
183 161 144
184 141 122
31 48 43
22 47 43
21 47 43
27 50 45
117 111 103
188 171 158
213 192 176
212 190 173
162 148 134
34 54 48
22 48 44
22 49 44
22 48 43
22 49 44
22 49 44
22 48 44
22 49 44
23 49 45
22 48 43
22 48 43
22 48 44
22 49 45
22 49 44
23 49 44
23 50 45
22 49 44
22 48 43
22 48 43
22 49 44
22 49 44
22 49 44
23 50 45
23 50 45
22 49 44
20 44 41
20 44 40
20 45 42
20 44 40
20 45 41
20 45 41
20 44 40
20 44 41
20 44 41
20 44 40
20 44 40
21 46 42
19 43 40
20 44 40
20 45 42
20 44 40
21 46 42
20 45 41
21 47 43
20 45 41
21 46 42
21 46 43
20 45 41
21 46 42
21 45 42
20 44 41
20 45 41
21 46 42
21 46 42
20 45 41
21 46 42
21 46 42
21 47 43
21 47 43
21 46 42
21 47 43
20 45 41
20 45 41
21 46 42
21 46 42
20 45 41
21 45 42
21 46 42
21 46 42
21 46 42
21 46 42
21 47 43
21 46 42
20 45 41
21 47 43
21 46 42
21 46 42
21 47 43
21 47 43
21 46 42
21 48 43
21 47 43
21 47 43
21 47 43
21 46 42
22 48 44
22 48 43
21 47 43
21 46 42
21 46 42
22 48 43
22 48 43
22 48 44
21 47 43
21 47 43
22 47 43
21 47 43
22 48 43
21 47 43
22 47 43
21 46 42
21 47 43
22 48 43
36 51 47
82 63 57
108 86 77
108 100 92
110 101 93
124 109 97
138 121 106
144 128 112
22 47 43
22 49 45
22 48 44
123 117 110
193 176 165
204 185 173
215 194 180
240 216 196
252 225 203
184 165 149
28 51 46
22 48 44
23 50 45
22 48 43
23 49 45
22 49 44
22 49 44
23 49 45
22 49 44
22 49 44
22 49 44
23 49 45
23 50 45
22 47 43
23 50 45
22 49 44
23 49 44
23 50 45
22 49 44
53 53 45
51 53 45
23 50 45
23 50 45
22 49 44
20 45 41
20 45 41
20 44 41
20 45 41
19 43 39
20 44 41
20 45 41
20 45 41
19 43 40
20 44 41
20 45 41
20 45 41
20 46 42
21 46 43
20 45 42
20 45 41
20 44 41
20 45 42
21 46 42
20 45 41
21 46 42
20 45 41
21 46 42
21 46 42
20 44 40
21 46 42
21 46 42
21 46 42
21 46 42
21 46 42
20 45 41
20 44 41
21 47 43
20 45 41
21 46 42
21 46 42
21 46 42
21 46 42
21 46 42
21 46 42
21 46 42
21 46 42
21 46 42
21 47 43
20 45 41
21 47 43
21 47 43
21 47 43
21 46 42
21 47 43
21 46 42
21 47 43
21 47 43
21 47 43
21 46 42
21 47 43
21 46 42
21 46 42
21 47 43
21 46 42
21 47 43
21 47 42
21 47 43
21 46 42
21 46 42
21 47 43
21 47 43
21 47 43
22 48 43
22 48 44
22 47 43
21 47 43
22 47 43
22 48 43
21 47 43
22 48 43
21 46 42
21 47 42
25 47 42
63 42 37
53 53 46
56 57 49
56 56 48
63 59 49
76 69 57
63 66 58
21 46 42
22 49 44
36 49 50
96 83 94
125 109 116
137 120 126
138 119 126
151 129 134
150 125 134
131 104 120
46 52 59
22 48 44
22 48 43
23 50 45
22 49 44
22 49 45
22 49 44
22 49 44
23 50 45
22 48 44
22 49 44
22 48 44
22 48 44
23 50 45
22 49 44
22 48 43
23 50 45
104 92 81
199 108 75
241 116 69
249 121 73
229 112 69
145 79 54
23 49 45
20 45 41
20 45 41
20 44 41
20 45 41
20 45 41
20 44 40
20 45 41
20 44 41
20 45 41
20 44 41
20 45 41
21 46 42
20 44 41
20 44 41
20 44 41
21 46 42
20 45 41
21 46 42
21 46 42
21 46 42
20 45 42
21 46 42
21 46 42
21 46 42
20 45 42
21 47 43
21 46 42
21 46 42
21 46 42
20 45 41
21 45 42
21 47 42
21 46 42
20 45 41
21 46 42
20 45 41
20 45 41
21 46 42
21 46 42
20 45 41
21 47 43
21 47 43
21 46 42
21 46 42
21 45 41
21 47 43
21 46 42
21 46 42
21 46 42
21 46 42
22 48 44
21 46 42
21 47 43
21 46 42
21 46 42
22 48 44
22 48 43
21 46 42
21 47 43
21 47 43
22 47 43
22 48 43
21 46 42
21 47 43
21 46 42
21 46 42
21 47 43
21 47 43
21 47 43
21 47 43
21 47 42
21 47 43
21 47 43
21 46 42
20 45 41
18 40 37
16 37 34
15 34 33
14 32 30
18 28 26
17 21 18
15 24 18
35 36 26
34 36 27
26 42 35
21 45 40
22 47 42
22 47 43
37 42 49
58 40 68
62 42 71
66 45 75
73 49 82
78 52 85
82 54 86
86 57 90
63 52 70
22 49 44
22 48 43
22 48 44
22 48 43
22 48 43
22 49 44
22 48 44
23 50 45
23 51 46
22 49 44
23 49 44
22 48 44
23 50 46
23 50 45
22 49 44
98 98 91
203 136 113
220 107 65
228 111 66
246 130 86
255 172 130
244 183 158
152 134 120
20 45 41
21 46 42
20 45 41
20 45 41
20 45 41
20 44 40
21 46 42
21 46 42
20 44 41
20 45 42
20 45 41
21 46 42
20 44 41
20 44 40
20 44 41
21 46 42
20 45 41
20 45 42
20 45 41
20 45 42
20 45 41
21 46 42
20 45 41
20 45 41
21 46 42
21 45 42
20 44 40
20 45 41
21 47 43
21 46 42
21 46 42
21 46 42
20 45 41
21 46 42
20 45 41
21 47 43
21 46 42
21 46 42
21 45 42
20 45 41
21 46 42
21 46 42
21 47 43
21 46 42
21 46 42
21 46 42
20 45 41
21 46 42
21 46 42
21 47 43
21 47 43
21 47 43
21 46 42
21 47 43
21 46 42
21 47 43
21 48 43
21 45 41
21 47 43
22 48 44
21 47 43
21 46 42
21 46 42
21 47 42
21 47 42
22 47 43
22 48 43
21 47 43
21 46 42
21 45 41
21 47 42
22 47 43
22 47 43
21 47 43
21 46 42
20 43 40
19 41 38
17 37 35
16 36 33
14 32 30
14 32 29
14 31 29
14 30 27
16 34 31
20 42 37
21 45 40
22 47 42
21 46 41
33 41 46
54 37 61
52 36 59
55 38 62
59 40 67
59 40 66
64 42 68
70 46 72
53 48 60
22 47 43
22 49 44
21 47 42
22 47 43
22 49 44
22 49 44
22 48 44
23 49 45
23 49 45
22 49 44
23 49 44
23 50 45
23 49 44
22 48 44
35 54 50
147 126 116
183 92 59
197 97 58
209 102 62
219 109 69
215 175 156
216 193 177
203 180 163
20 44 40
20 45 42
20 44 41
20 43 40
20 44 41
20 44 40
20 45 41
20 45 41
20 45 41
20 45 41
20 45 41
21 46 42
21 46 42
20 45 41
20 45 41
20 45 42
20 45 41
20 45 41
20 45 41
20 45 41
20 45 41
21 46 42
20 45 41
21 46 42
21 46 42
21 46 42
21 46 42
20 45 41
21 46 42
21 46 42
21 47 43
21 47 43
21 46 42
21 45 42
20 45 42
21 46 42
21 47 43
21 46 42
21 47 43
21 45 41
21 47 43
21 46 42
21 46 42
21 46 42
21 47 43
21 47 42
21 47 43
21 47 43
21 47 42
21 47 43
21 47 43
21 47 43
21 46 42
21 47 43
21 47 43
21 47 43
21 46 42
22 49 45
21 47 43
22 47 43
21 47 43
22 48 43
21 47 42
22 47 43
22 48 43
21 47 43
22 48 44
21 47 42
21 47 43
22 49 44
21 46 42
22 48 43
21 47 43
21 47 43
22 47 43
22 48 43
21 46 42
21 46 42
22 47 43
21 47 42
21 47 43
21 46 42
21 46 42
22 47 43
21 46 41
21 46 42
21 46 42
22 48 44
29 45 45
40 27 44
43 29 48
40 28 45
41 28 46
42 29 48
43 30 48
49 33 50
34 45 47
22 49 44
22 47 43
22 48 43
22 48 43
22 49 44
22 48 43
23 50 45
22 47 43
22 49 44
22 48 43
22 49 44
22 49 44
23 50 45
23 50 45
60 68 63
140 105 92
139 107 95
139 107 95
167 88 60
177 122 102
180 161 148
188 167 152
191 170 153
21 46 42
20 45 41
20 45 41
20 44 41
20 45 41
20 45 41
20 45 41
20 45 41
20 44 40
20 45 41
20 45 41
21 46 42
20 45 41
20 44 40
20 45 41
21 46 42
21 46 42
20 45 42
20 45 42
21 46 42
20 45 41
20 44 41
20 45 42
21 46 42
21 45 42
21 47 43
20 45 41
21 47 43
21 46 42
21 46 42
21 46 42
21 46 42
20 44 41
21 47 43
20 45 41
21 47 43
21 46 42
21 46 42
21 46 43
21 47 43
21 46 42
21 46 42
21 45 41
21 47 43
21 47 43
21 47 43
21 46 42
21 47 43
21 47 43
21 47 43
21 47 43
21 46 42
20 45 41
21 47 43
22 48 44
21 46 42
21 47 43
21 47 43
22 48 44
21 47 43
22 48 44
21 47 42
21 45 41
21 46 42
22 48 43
22 48 43
21 46 42
22 48 44
21 47 43
21 46 42
22 47 43
21 47 42
21 47 42
22 48 44
22 48 43
21 47 42
21 47 43
22 48 43
21 46 42
22 49 44
22 48 43
21 46 42
21 47 42
21 46 42
21 47 42
21 46 42
21 46 42
21 46 42
21 47 42
35 43 38
27 29 29
29 32 30
33 35 34
42 41 37
46 45 39
41 47 41
21 47 42
22 49 44
22 48 43
22 48 44
22 47 43
22 47 43
22 48 43
23 50 45
22 47 43
22 48 44
23 49 45
22 49 44
22 49 44
23 50 45
22 48 44
57 66 60
111 84 74
95 89 82
114 106 99
125 86 72
141 113 101
140 129 120
148 134 122
159 143 129
20 45 42
20 45 41
20 45 41
20 44 41
21 46 42
20 45 41
21 46 42
20 45 41
20 44 41
20 44 41
20 45 42
20 45 41
21 46 42
21 46 42
20 45 42
20 45 41
20 45 41
21 46 42
20 44 41
21 45 42
20 45 41
20 45 41
21 46 42
21 46 42
21 46 42
21 46 42
20 45 41
21 47 43
21 46 42
21 46 42
20 45 42
20 44 41
21 46 42
21 46 42
21 46 42
21 47 43
21 46 42
21 46 42
21 46 42
21 45 42
20 45 41
21 46 42
20 45 41
21 46 42
20 45 42
21 46 42
21 46 42
21 47 43
21 46 42
21 47 43
21 46 42
21 46 42
21 46 42
21 47 42
21 46 42
21 46 42
21 46 42
22 48 44
22 47 43
22 48 43
21 47 43
21 47 43
21 47 43
21 47 43
21 47 43
22 48 44
21 47 43
22 48 44
22 48 43
21 47 42
22 48 43
22 49 45
21 47 43
21 47 43
21 47 43
22 48 43
22 47 43
22 48 43
21 46 42
21 47 43
22 48 43
22 47 43
22 47 43
21 47 43
20 45 41
19 43 39
16 37 35
15 34 32
13 30 28
12 27 25
9 19 16
10 20 16
19 25 19
26 29 22
31 39 31
24 45 40
21 46 41
22 47 42
22 47 42
22 48 43
22 47 43
22 48 43
22 49 44
22 48 43
22 48 44
22 48 43
22 48 44
22 49 44
23 49 45
22 49 44
22 48 44
22 49 44
84 60 50
84 77 69
94 88 80
92 64 52
101 92 83
93 87 79
104 97 88
108 101 91
19 43 40
20 45 41
20 45 41
21 47 43
21 46 42
20 44 41
20 45 41
21 46 42
20 45 41
20 45 41
20 45 41
20 45 41
20 45 41
21 46 42
21 46 42
21 46 42
20 44 40
20 44 41
21 46 42
20 45 41
21 46 42
21 46 42
21 46 42
21 46 42
20 45 41
20 43 40
20 45 41
21 47 43
21 46 42
21 47 43
20 45 41
20 45 42
21 46 42
20 45 41
21 46 42
21 45 42
21 46 42
21 46 42
20 45 41
21 47 43
20 45 41
21 45 42
21 47 43
21 47 43
22 48 43
21 47 42
21 46 42
21 46 42
22 48 43
21 45 41
21 47 43
21 47 43
21 46 42
21 46 42
21 46 42
21 46 42
21 46 42
22 47 43
21 47 43
21 46 42
21 47 43
22 48 43
21 46 42
21 46 42
22 48 44
22 48 44
21 47 43
21 46 42
22 48 43
22 48 44
21 47 43
21 45 41
22 47 43
21 47 43
21 47 43
21 47 42
22 47 43
22 48 44
22 47 43
22 48 44
22 47 43
21 46 42
22 47 43
22 47 43
21 45 41
19 43 40
17 39 36
15 35 33
15 33 31
13 31 29
13 29 27
12 27 25
13 28 26
14 30 27
18 38 34
20 44 39
21 45 40
21 46 42
21 47 42
22 47 43
21 47 42
22 47 43
22 49 44
22 47 43
22 48 44
22 48 43
22 48 43
22 47 43
22 47 42
22 48 43
22 47 42
22 47 43
43 41 34
45 27 18
51 34 24
62 35 22
42 45 38
55 55 47
68 65 56
57 64 57
20 45 41
20 44 40
20 45 41
21 46 42
20 46 42
21 46 42
20 45 42
20 45 41
20 45 42
20 45 42
20 44 41
20 45 42
20 45 42
20 44 40
20 45 41
21 46 42
20 44 41
21 46 42
20 45 42
20 45 41
20 45 41
21 46 42
20 44 41
21 46 42
21 47 43
21 46 42
21 45 41
20 45 41
21 46 42
21 46 42
21 46 42
21 45 42
21 46 42
21 47 43
20 45 41
21 47 43
21 47 43
21 47 43
21 46 42
21 47 43
20 45 41
21 46 42
21 47 43
21 47 43
21 46 42
21 47 43
21 47 43
21 46 42
21 46 42
21 46 42
21 47 43
21 47 43
21 47 43
21 46 42
21 47 43
21 47 43
21 47 43
21 47 43
22 48 43
22 48 43
21 47 43
21 47 43
22 48 43
22 48 43
21 47 42
21 47 42
22 48 44
22 48 43
22 47 43
21 47 43
22 49 44
22 48 44
22 48 44
23 50 46
21 46 42
22 47 43
21 47 42
21 47 42
22 48 44
21 47 42
21 47 43
22 47 43
22 48 44
22 48 44
21 47 42
22 49 44
21 47 42
21 47 42
22 47 43
21 46 41
21 46 42
21 47 42
22 47 43
21 46 41
21 47 42
22 47 42
22 47 43
22 47 43
21 47 43
22 47 42
21 47 42
22 48 43
22 49 44
22 47 43
21 47 42
22 47 43
22 48 43
22 48 43
21 46 41
19 43 39
18 40 37
15 35 32
14 31 29
11 21 19
12 11 6
13 13 7
14 24 18
26 32 23
36 46 39
22 47 41
20 44 41
20 44 41
20 45 41
20 45 41
20 45 42
21 46 42
20 45 41
20 45 42
20 45 41
21 46 42
21 46 42
20 45 41
20 45 41
21 46 43
20 45 42
21 46 43
21 46 42
21 47 43
20 45 41
20 45 41
21 46 42
21 47 43
20 45 41
20 45 41
20 45 41
20 45 41
21 45 42
20 45 41
21 46 42
20 45 41
21 45 41
21 46 42
21 46 42
21 47 43
21 46 42
21 46 42
21 45 42
21 45 41
21 46 42
21 46 42
21 47 43
21 46 42
21 46 42
21 47 43
21 47 43
21 46 42
20 45 41
22 48 43
21 47 43
22 47 43
21 47 43
21 46 42
22 48 44
22 48 43
21 47 42
21 46 42
20 45 41
21 46 42
21 47 43
21 47 43
21 47 42
21 47 43
21 47 43
21 47 42
21 47 43
21 46 42
21 47 43
21 47 43
22 48 43
22 48 44
21 47 43
22 48 44
22 48 43
22 48 43
21 47 43
21 47 43
22 48 44
22 47 43
22 47 43
22 48 43
21 47 43
22 48 44
22 48 43
21 46 42
22 48 43
22 48 43
22 48 43
22 49 44
22 48 43
22 48 44
22 47 43
22 47 43
22 48 44
22 48 44
22 48 43
22 48 43
22 47 43
22 48 43
22 47 43
22 48 43
22 47 43
22 49 44
22 49 44
22 48 43
22 49 44
22 48 43
22 49 44
22 48 43
21 46 42
20 44 40
16 37 34
15 33 31
13 29 28
12 26 25
10 22 21
8 17 16
9 20 19
11 25 23
17 37 33
21 46 40
20 45 41
20 45 42
20 44 40
20 45 42
21 46 42
20 45 41
20 45 41
20 45 41
21 45 42
21 46 42
20 45 41
20 45 41
20 44 41
20 44 40
20 45 42
21 46 42
20 45 42
20 45 41
21 46 42
21 46 42
21 46 42
21 46 42
20 45 41
20 45 41
21 46 42
21 46 42
21 46 42
21 46 42
21 47 43
21 46 42
21 46 42
21 46 42
21 46 42
20 45 41
21 47 43
21 47 43
21 46 42
20 45 41
21 47 43
21 47 43
21 46 43
21 46 42
20 45 41
21 47 43
21 46 42
21 47 43
21 47 43
21 46 42
21 47 43
21 47 43
21 47 43
21 47 43
21 47 43
21 47 43
22 48 44
21 46 42
21 47 42
20 45 41
22 48 43
21 46 42
22 48 44
22 47 43
21 47 43
22 48 44
21 47 42
21 47 42
22 48 44
21 47 43
21 47 43
22 48 44
22 47 43
21 47 43
22 48 43
21 47 43
22 48 44
21 47 43
21 47 43
21 47 43
22 48 43
22 48 44
22 47 43
22 48 43
22 48 43
21 47 43
22 48 43
22 47 43
22 48 43
21 46 42
21 47 43
22 48 44
22 47 43
21 46 42
22 47 43
22 49 45
22 48 43
22 47 43
22 49 44
22 49 44
22 48 44
22 48 44
22 47 43
22 48 43
22 48 43
23 49 45
22 48 43
22 48 44
22 48 44
21 47 42
22 47 43
22 49 44
22 47 42
22 47 42
21 45 41
20 44 40
20 45 41
20 44 40
20 44 40
21 46 41
22 47 42
22 47 42
20 44 40
20 45 41
20 44 41
20 44 41
20 44 41
20 45 42
20 45 42
20 45 42
20 45 41
21 46 42
20 45 41
21 46 42
21 45 42
21 46 42
21 46 43
21 46 43
21 46 42
20 45 42
21 46 42
21 46 42
21 46 42
20 44 41
20 45 41
21 47 43
20 45 41
21 46 42
20 45 41
20 45 41
20 45 42
21 47 43
21 46 42
21 46 42
20 45 41
21 46 42
21 46 42
20 45 42
21 46 42
21 47 43
21 46 42
21 46 42
20 44 41
21 46 42
21 47 43
21 46 42
21 47 43
20 45 41
21 47 43
21 46 42
21 46 42
22 48 44
21 46 42
21 47 43
21 47 43
21 46 42
21 47 43
21 46 42
22 48 43
21 46 42
21 47 43
21 47 42
21 47 43
22 47 43
21 47 43
21 47 43
22 48 44
21 47 43
21 47 43
22 48 44
22 47 43
21 46 42
22 48 44
21 47 43
22 48 43
22 49 44
22 49 44
21 47 43
22 48 43
22 48 43
21 47 43
22 48 43
22 48 43
21 47 43
22 48 43
22 48 43
22 48 44
22 48 43
22 49 44
22 48 44
22 48 43
22 48 43
22 48 43
22 48 43
22 48 44
22 49 44
22 48 43
22 48 44
22 49 45
22 49 44
22 49 44
22 49 44
22 48 43
22 48 44
22 49 44
22 48 44
22 47 43
22 48 43
23 50 45
22 47 43
22 47 43
22 47 43
22 48 43
22 48 43
22 48 44
22 48 43
22 48 43
22 48 44
22 48 43
22 48 44
22 47 43
23 51 46
20 45 41
20 44 41
20 44 41
20 45 41
20 45 41
19 43 40
20 45 41
20 45 41
20 44 41
20 44 41
21 46 42
20 44 40
20 44 41
20 45 41
20 44 40
20 45 42
21 46 42
20 45 41
21 46 42
21 46 42
21 46 42
21 46 42
21 46 42
20 45 42
21 47 43
20 45 42
21 45 42
21 47 43
21 46 42
20 45 41
20 45 41
21 46 42
21 47 43
21 46 42
21 46 42
21 46 42
21 46 42
21 46 42
21 46 42
21 47 43
20 45 41
21 46 42
21 46 42
21 46 42
21 46 42
21 45 41
21 47 43
20 45 41
22 48 43
21 46 42
21 47 42
21 47 43
22 48 44
21 47 43
21 47 43
21 47 43
21 47 43
21 47 43
21 47 43
21 47 43
21 46 42
21 46 42
22 48 44
21 46 42
22 48 43
22 48 44
21 47 42
22 48 44
22 48 43
22 48 43
21 46 42
22 48 44
22 49 44
21 47 43
22 47 43
21 46 42
21 47 43
21 47 43
22 47 43
22 47 43
22 49 44
22 48 43
21 47 43
22 48 44
22 47 43
22 48 44
22 48 43
22 49 44
22 49 44
22 48 43
22 48 44
21 46 42
22 48 44
22 48 44
22 48 43
22 47 43
22 48 43
22 47 43
22 48 44
22 48 44
22 47 43
22 48 43
22 49 44
21 47 43
22 49 44
22 49 44
22 48 44
22 49 44
22 48 44
22 48 43
22 48 44
22 48 44
22 49 44
22 48 43
22 48 43
22 48 44
22 48 44
22 48 44
21 46 42
22 48 44
20 45 42
20 45 42
20 45 41
20 44 40
20 45 41
20 45 41
21 46 42
21 46 42
20 45 42
20 45 41
20 45 41
20 45 42
20 45 42
21 46 42
21 46 42
21 46 42
20 45 42
20 44 41
20 44 40
20 45 41
21 46 42
21 46 42
20 45 41
21 47 43
20 45 41
21 46 42
21 46 43
21 46 42
20 45 41
20 44 40
21 46 42
21 46 42
20 45 41
20 45 41
21 46 42
21 46 42
22 48 43
21 47 43
21 46 42
21 46 42
21 46 42
21 45 41
21 46 42
20 45 41
20 45 41
21 47 43
21 46 42
21 46 42
21 46 42
21 46 42
21 47 43
21 46 42
21 46 42
21 47 43
21 47 43
21 46 42
21 47 43
21 46 42
21 46 42
21 47 43
21 46 42
21 46 42
21 47 43
21 46 42
21 47 43
22 48 43
22 48 44
21 47 43
22 49 44
22 48 44
22 47 43
22 48 44
21 47 43
21 46 42
21 46 42
22 48 43
21 46 42
21 47 43
21 47 43
22 47 43
22 48 44
22 48 43
22 48 43
22 49 44
22 48 44
22 49 44
22 48 43
21 47 42
22 49 44
22 48 44
21 46 42
22 49 45
22 47 43
22 47 43
22 48 43
22 48 44
22 48 43
22 48 44
23 49 45
22 48 44
22 49 44
22 47 43
22 48 44
22 48 44
22 48 44
22 47 43
22 48 44
22 48 43
22 48 43
21 47 42
22 48 44
22 48 44
22 49 44
22 48 43
22 47 43
22 48 43
22 48 43
22 47 42
22 48 43
21 47 42
21 46 42
20 45 41
20 45 41
20 45 41
20 45 41
20 45 41
20 45 41
21 46 42
20 44 40
21 46 42
20 45 41
20 45 42
20 45 41
20 45 41
20 44 40
21 45 42
20 45 42
21 46 42
20 45 42
21 46 42
20 45 41
20 45 41
20 45 41
20 45 42
20 45 41
21 46 42
20 45 41
21 47 43
20 45 41
21 46 42
20 45 41
20 45 41
20 45 41
21 45 41
21 46 42
21 46 42
21 46 42
21 46 42
21 46 42
21 47 43
21 47 43
21 47 43
21 45 41
21 46 42
21 47 43
21 46 42
21 46 42
21 47 43
21 47 43
21 47 43
21 46 42
21 47 43
21 47 43
22 48 44
21 46 42
21 47 43
21 46 42
21 46 42
21 47 43
22 48 43
20 45 41
21 46 42
22 48 44
21 47 43
21 47 43
21 46 42
21 47 43
21 47 43
22 48 44
21 47 43
22 48 44
21 47 43
22 49 44
22 48 44
21 47 43
22 48 44
21 47 43
22 48 43
22 48 43
21 47 43
22 48 43
22 47 43
22 48 43
21 47 43
21 47 42
21 47 42
22 48 43
22 49 45
22 48 44
22 47 43
22 48 43
22 49 45
22 49 44
22 48 44
22 48 44
22 48 44
22 48 44
23 50 45
22 48 44
22 48 43
21 47 43
22 48 43
22 49 44
22 48 44
22 47 43
23 49 45
22 47 43
22 49 44
23 49 45
22 48 44
22 49 44
22 48 44
22 47 43
22 48 43
22 48 43
22 48 43
21 47 42
21 46 42
21 46 42
20 44 40
20 44 40
21 46 42
20 46 42
20 44 41
21 46 42
20 45 42
20 45 42
20 45 41
20 45 41
21 46 42
20 45 41
21 46 42
20 45 41
21 46 42
20 45 42
20 45 41
20 45 41
21 46 42
20 45 41
20 46 42
20 45 41
21 46 42
21 45 42
21 46 42
21 46 42
21 46 42
21 45 42
20 45 41
21 46 42
20 44 41
20 45 42
21 46 42
20 45 41
20 45 41
21 46 42
21 46 42
21 46 42
21 46 42
21 46 42
21 46 42
21 46 42
20 45 41
20 45 41
22 48 43
20 45 41
21 46 42
21 47 43
21 46 42
21 47 43
21 46 42
21 47 42
21 46 42
21 46 42
21 46 42
21 46 42
21 47 43
21 46 42
21 47 43
21 47 43
21 47 43
21 47 42
22 48 44
21 47 42
22 47 43
21 46 42
21 47 43
22 48 44
22 47 43
21 46 42
21 45 41
21 47 43
21 47 43
22 48 44
21 47 43
21 46 42
22 48 43
22 48 43
22 48 44
22 48 43
22 48 43
22 48 43
22 48 43
22 48 43
22 48 44
22 49 44
22 48 44
22 48 43
22 48 44
21 47 42
21 47 43
23 49 45
22 48 44
22 48 44
21 47 43
22 48 44
22 47 43
22 48 44
22 48 43
21 46 42
22 48 43
22 48 43
23 50 45
22 48 44
22 49 44
22 47 43
22 49 44
22 49 44
22 47 43
22 48 43
22 49 44
22 48 44
23 50 45
22 48 44
21 47 43
22 48 44
22 49 44
21 47 43
22 47 43
20 44 40
18 40 37
20 45 41
19 43 40
20 44 41
20 45 42
21 46 42
20 45 41
20 45 42
20 45 41
20 45 41
21 46 42
20 45 42
20 45 42
21 47 43
20 45 42
21 46 42
20 45 42
20 44 41
21 46 42
20 45 41
20 45 42
21 46 42
21 46 43
20 45 41
20 44 41
21 46 42
20 45 41
21 46 42
21 47 42
21 46 42
21 47 43
20 44 41
21 47 43
20 45 41
21 46 42
21 46 42
21 46 42
20 45 41
21 46 42
21 46 42
21 46 42
21 46 42
21 47 43
21 46 42
21 45 42
21 46 42
21 46 42
21 47 43
21 47 43
21 46 42
21 46 42
21 47 43
21 46 42
21 46 42
21 47 42
20 45 41
21 47 42
20 45 41
21 46 42
21 46 42
21 46 42
22 48 43
21 47 43
21 46 42
21 46 42
21 47 43
21 46 42
21 47 43
22 47 43
21 47 43
21 46 42
21 47 43
21 46 42
22 48 44
21 47 43
21 47 43
22 48 44
21 46 42
22 48 44
22 47 43
21 47 43
21 46 42
21 47 43
21 47 42
22 48 44
22 49 44
22 48 44
22 48 44
22 48 44
21 47 43
22 48 44
22 49 44
22 48 44
22 49 45
22 48 43
22 48 44
21 47 42
21 47 43
22 48 43
22 48 43
21 47 43
22 48 44
22 49 44
22 47 43
22 48 44
22 49 44
22 48 44
21 47 43
22 48 43
21 47 43
22 49 44
22 49 44
22 48 43
22 48 44
22 48 44
22 48 44
22 48 44
22 48 43
22 48 43
22 47 43
21 47 42
20 45 41
20 45 41
20 45 41
20 44 41
21 46 42
20 44 40
20 45 41
20 45 41
20 44 41
20 44 40
21 46 42
21 46 42
20 45 42
20 44 40
20 44 41
20 44 41
20 45 41
21 46 42
20 45 41
21 46 42
21 46 42
21 45 42
20 45 41
21 46 42
21 46 42
20 45 41
20 45 41
21 46 42
20 45 42
21 45 42
21 47 43
21 46 42
20 45 41
21 46 42
21 47 43
21 46 42
20 45 41
20 45 42
21 46 42
21 46 42
20 44 40
21 47 43
21 46 42
21 46 42
21 46 42
21 46 42
21 46 42
21 46 42
21 46 42
21 47 43
21 47 43
21 47 43
21 47 43
21 46 42
21 46 42
21 47 43
21 47 43
21 47 43
21 47 43
21 47 42
21 46 42
22 48 44
21 46 42
21 46 42
21 47 43
21 46 42
21 47 43
21 47 43
22 48 44
21 47 43
21 46 42
21 47 43
21 45 41
22 48 44
21 46 42
21 47 42
21 46 42
21 47 43
21 47 43
22 48 44
21 46 42
22 49 44
22 48 44
22 48 44
22 47 43
22 48 44
22 48 44
22 48 44
22 48 43
22 48 43
21 46 42
22 48 44
22 49 44
22 48 44
21 47 42
22 47 43
22 48 43
21 47 42
22 48 44
21 47 42
22 48 43
22 48 43
22 49 44
22 48 44
22 48 44
22 48 44
22 48 44
22 48 43
22 48 43
22 49 44
22 48 44
22 49 44
22 48 44
22 49 44
22 49 44
23 50 45
22 49 44
22 48 43
22 48 43
22 48 43
20 45 41
20 45 41
20 45 41
20 45 41
20 45 42
20 45 42
20 45 41
20 45 41
20 45 41
20 45 41
21 46 42
20 45 42
20 45 41
20 45 41
20 44 41
21 46 42
20 45 41
20 45 42
20 45 42
21 46 42
21 47 43
20 45 41
21 46 42
20 45 41
21 46 43
20 45 41
20 45 41
21 46 42
20 45 42
21 46 42
20 44 40
21 47 43
21 47 43
21 46 42
21 47 43
21 46 42
20 45 42
21 46 42
20 45 41
21 46 42
21 46 42
21 46 42
20 45 41
21 46 42
20 45 41
22 48 43
21 47 43
21 46 42
20 45 41
22 48 44
22 47 43
21 47 43
21 47 43
21 47 43
21 46 42
21 47 43
21 46 42
21 47 43
21 47 43
21 46 42
21 46 42
21 47 42
22 48 44
21 47 43
21 47 43
21 47 43
21 47 43
21 47 43
21 46 42
22 48 43
22 48 44
21 47 43
22 48 44
21 47 43
21 47 43
21 47 43
22 48 43
22 47 43
21 47 43
21 47 42
21 47 43
22 48 44
22 49 44
21 47 42
21 47 43
22 47 43
21 47 42
22 48 44
21 46 42
21 47 43
22 48 43
22 48 43
22 48 44
21 47 43
21 47 43
21 47 43
22 48 43
22 48 44
22 49 45
22 47 43
22 48 44
22 48 43
22 48 43
21 46 42
22 49 44
22 48 44
21 47 43
23 49 45
22 48 43
22 49 44
22 48 43
22 48 43
22 48 44
22 47 43
22 49 44
22 48 44
22 49 44
22 48 43
23 50 45
22 48 43
20 45 41
20 45 41
20 44 41
20 44 41
20 45 42
20 44 41
20 45 41
20 45 41
20 43 40
20 45 41
21 46 42
21 46 42
21 46 42
20 45 41
21 46 42
21 46 42
21 46 42
21 46 42
20 45 41
21 46 42
21 46 42
21 47 43
21 46 42
20 45 41
21 46 42
21 46 42
20 45 41
20 45 41
20 45 42
21 46 42
20 45 41
21 46 42
20 45 42
21 45 42
20 45 41
21 46 42
21 46 42
21 46 42
20 45 41
21 46 42
21 45 41
21 47 43
21 47 43
21 46 42
21 46 42
21 47 43
21 47 43
21 46 42
20 45 41
21 46 42
21 47 43
21 46 42
21 46 42
21 46 42
21 45 41
21 47 43
21 46 42
21 45 41
21 47 43
21 45 41
21 46 42
21 46 42
21 47 42
20 45 41
21 47 43
21 46 42
21 47 42
21 47 43
21 46 42
21 46 42
21 46 42
21 47 43
21 47 43
21 47 43
21 47 42
22 48 44
21 47 42
22 49 44
21 46 42
21 47 43
21 46 42
21 46 42
22 48 44
21 46 42
22 48 44
21 47 43
22 49 44
21 47 43
21 47 43
22 47 43
21 47 43
22 49 44
22 48 44
22 48 43
21 47 43
22 48 43
22 49 44
22 48 44
22 49 45
22 48 44
22 49 45
22 48 44
22 49 44
22 48 43
22 48 43
22 48 43
22 48 43
21 47 42
22 48 43
21 47 43
22 48 43
22 49 45
22 48 44
22 49 44
22 49 45
22 48 43
22 48 44
21 47 42
22 49 45
22 47 43
20 43 40
20 45 41
20 45 41
20 44 40
20 45 41
20 45 42
20 45 42
20 45 41
20 44 41
20 45 41
20 45 41
20 44 41
20 45 41
20 45 41
20 45 41
20 45 41
20 45 41
20 45 41
20 45 41
20 45 41
20 45 41
20 45 41
21 46 42
21 46 42
21 47 43
20 45 42
20 45 41
21 47 43
21 47 43
21 47 43
21 46 42
21 46 42
21 46 42
21 46 42
21 46 42
21 46 42
21 46 42
21 46 42
21 47 43
21 47 43
21 47 43
21 46 42
21 45 42
21 46 42
21 46 42
21 45 41
21 46 42
21 46 42
21 46 42
21 47 43
21 46 42
21 46 42
21 47 43
21 46 42
21 47 43
20 45 41
21 46 42
21 47 43
21 47 43
21 47 43
21 47 43
21 46 42
21 47 43
21 46 42
21 47 43
22 48 44
22 48 43
21 46 42
22 48 44
21 47 43
21 46 42
21 46 42
21 47 42
21 46 42
21 46 42
21 47 42
21 46 42
22 47 43
21 46 42
21 47 43
22 47 43
21 46 42
22 48 43
21 46 42
22 47 43
21 47 42
22 48 44
21 47 42
21 46 42
21 46 42
22 48 44
21 47 43
21 47 43
21 47 43
22 47 43
21 47 43
22 48 43
22 49 44
21 47 43
22 48 44
21 47 43
22 48 44
22 48 44
22 48 43
21 47 43
21 47 42
23 50 45
23 50 45
22 48 43
22 48 44
21 47 43
22 49 45
22 48 44
22 48 43
22 48 44
22 47 43
22 49 44
22 48 43
22 48 44
22 48 43
20 44 40
20 45 42
20 44 41
20 45 41
20 45 41
20 45 41
20 44 41
21 46 42
20 45 42
21 46 42
21 46 43
20 45 42
20 45 41
20 45 41
20 45 41
20 45 41
20 45 41
20 45 42
21 47 43
21 46 42
21 46 42
20 45 41
20 45 41
21 47 43
21 46 42
20 45 41
21 46 42
20 45 42
20 45 41
21 45 42
21 46 42
21 46 42
21 47 43
20 45 41
21 46 43
21 46 42
21 46 43
21 46 42
21 47 43
21 46 42
20 45 41
20 45 41
21 46 42
21 46 42
21 46 42
20 45 41
21 46 42
20 45 41
21 47 43
20 45 41
21 46 42
21 46 42
21 47 43
21 46 42
21 46 42
22 48 43
21 47 43
20 45 41
21 46 42
21 47 43
21 46 42
21 46 42
21 47 43
20 45 41
22 48 43
21 47 42
21 46 42
21 46 42
22 48 44
22 48 43
21 47 43
22 48 44
21 46 42
21 47 43
22 48 43
21 46 42
22 48 44
20 45 41
21 46 42
21 47 43
21 47 43
21 47 43
22 48 44
22 48 44
21 47 43
21 46 42
22 47 43
21 47 43
22 48 44
21 47 43
21 46 42
21 47 42
22 48 43
21 47 43
22 48 43
21 47 43
21 47 43
21 47 43
22 47 43
21 47 43
21 47 42
22 48 43
21 46 42
22 48 43
22 49 45
22 48 44
22 48 43
22 48 43
22 48 44
22 49 44
22 49 45
22 48 44
22 47 43
22 49 44
23 50 45
22 48 43
22 48 44
22 49 44
22 47 43
22 48 43
20 45 41
20 44 41
20 45 41
21 46 42
20 45 42
20 45 42
20 44 41
20 45 42
20 45 41
21 46 42
20 44 40
21 46 42
20 45 41
20 44 40
20 45 41
20 45 41
20 44 40
20 45 41
20 45 41
21 47 43
20 45 41
21 47 43
21 46 42
21 47 43
21 46 42
20 45 41
20 44 41
20 45 41
21 46 42
21 46 42
20 45 42
21 46 42
20 45 41
21 46 42
20 45 41
21 46 42
21 46 42
20 45 41
20 45 42
20 45 41
21 47 43
20 45 41
21 47 43
21 47 43
21 46 42
20 45 41
20 45 41
22 48 43
21 46 42
21 46 42
20 45 41
20 44 40
21 45 42
21 46 42
21 46 42
21 46 42
21 46 42
21 47 43
21 47 43
21 47 42
21 47 43
21 47 43
21 47 43
21 46 42
21 47 43
21 46 42
20 45 41
21 46 42
20 45 41
22 48 43
21 47 43
21 47 43
21 46 42
22 48 44
21 47 43
21 46 42
21 46 42
21 47 43
21 47 43
21 47 43
21 47 43
22 48 44
21 47 43
21 47 42
21 47 43
21 46 42
21 47 42
21 47 43
22 48 43
22 47 43
21 47 42
21 47 43
22 48 44
22 49 44
22 47 43
22 49 45
21 47 43
21 47 43
22 47 43
21 47 42
21 46 42
22 49 44
22 49 45
22 48 44
22 47 43
22 48 43
22 48 43
22 48 43
21 47 43
22 49 44
22 48 43
22 47 43
22 48 43
22 48 43
22 47 43
22 48 43
22 48 44
22 48 43
22 48 43
21 47 43
20 45 42
20 44 41
21 46 42
21 46 42
20 45 42
20 45 42
20 45 42
21 46 43
20 45 41
20 43 40
21 45 42
20 45 41
20 45 41
20 45 41
21 46 42
20 45 41
21 46 42
20 45 41
21 47 43
20 45 41
20 44 41
20 45 42
21 46 42
21 46 42
21 46 42
20 44 41
21 46 42
21 46 42
21 46 42
20 45 41
20 45 42
21 46 42
21 46 42
20 45 41
20 45 41
20 45 41
21 46 42
21 45 41
21 46 43
21 46 42
21 46 43
21 46 42
20 44 41
21 46 42
21 46 42
21 46 42
21 46 42
21 46 42
22 48 44
21 46 42
21 47 43
21 46 42
21 46 42
21 46 42
21 45 41
21 47 43
20 45 41
21 46 42
21 46 42
21 46 42
21 47 43
21 46 42
20 45 41
21 46 42
20 45 41
21 47 43
21 47 43
21 47 43
21 45 41
21 46 42
21 47 42
21 47 43
21 47 43
22 48 44
21 46 42
21 47 42
21 47 43
22 48 43
22 47 43
21 47 43
21 47 43
21 46 42
21 47 43
21 47 43
21 47 43
22 48 44
21 47 43
21 46 41
21 46 42
22 47 43
21 47 42
22 48 43
21 47 43
22 48 43
21 47 43
22 47 43
22 48 44
21 46 42
22 48 43
22 47 43
22 49 45
22 48 43
22 48 44
22 48 44
22 48 43
22 48 44
22 48 43
21 46 42
22 48 43
21 47 43
21 47 43
21 47 43
22 48 44
22 48 43
22 49 44
22 47 43
22 48 43
22 48 44
22 49 45
22 47 43
20 44 41
20 45 41
20 45 41
20 44 41
20 44 41
20 45 41
20 45 41
20 45 41
21 45 42
20 45 41
21 46 42
21 46 42
20 44 41
20 44 41
20 44 40
21 46 42
21 46 42
20 45 41
21 46 42
20 45 41
20 45 41
20 45 41
20 45 41
21 46 42
21 46 42
21 47 43
21 46 42
20 45 41
20 45 42
21 46 42
21 47 43
20 45 41
20 45 41
20 45 42
21 46 42
20 45 41
21 47 43
21 46 42
21 47 43
21 46 42
21 46 42
21 47 43
20 45 41
21 46 42
21 46 42
20 45 41
21 46 42
21 46 42
21 47 43
21 46 42
21 47 43
20 44 40
21 46 42
21 46 42
21 47 43
20 45 41
21 46 42
21 46 42
21 47 43
21 46 42
21 46 42
21 47 43
21 46 42
21 47 43
21 46 42
21 46 42
21 47 43
21 46 42
21 47 43
21 47 43
21 46 42
21 47 43
21 47 42
22 48 44
21 46 42
22 48 44
21 46 42
21 46 42
21 46 42
21 47 43
22 48 43
21 46 42
22 48 44
21 47 43
21 47 43
22 48 44
21 47 43
21 47 43
22 48 44
22 48 44
22 48 44
21 46 42
22 48 43
22 48 44
21 47 43
21 47 43
22 47 43
22 47 43
22 47 43
22 48 44
22 48 44
22 49 45
22 48 43
22 48 43
22 48 43
21 46 42
22 48 44
22 48 44
22 48 44
22 48 44
21 47 43
21 46 42
21 47 43
22 48 43
22 48 44
22 47 43
22 48 43
22 49 44
22 48 43
22 48 44
20 45 41
20 45 42
20 45 41
20 44 41
20 45 41
20 45 42
20 45 42
20 44 41
21 46 42
21 46 42
20 45 41
21 46 42
20 45 41
21 46 42
20 45 41
20 44 40
20 45 41
21 46 42
20 44 40
20 45 41
20 46 42
20 45 41
20 44 40
20 44 41
20 45 41
20 45 41
20 45 41
21 46 42
21 46 42
21 46 42
21 46 43
21 46 42
20 45 41
20 45 42
21 47 43
20 45 41
20 44 41
21 47 43
20 45 41
21 47 43
20 45 41
21 47 43
21 46 42
21 46 42
20 45 41
20 45 41
21 47 43
21 47 43
21 46 42
21 45 42
21 47 43
20 45 41
21 46 42
21 46 42
21 46 42
20 45 41
21 46 42
21 46 42
21 46 42
21 46 42
20 45 41
21 47 43
21 47 43
21 46 42
21 47 43
21 45 41
21 46 42
21 47 43
21 46 42
21 47 43
21 47 43
21 47 43
21 46 42
21 46 42
21 47 43
21 47 43
21 47 43
21 47 43
21 46 42
22 48 43
22 48 43
21 47 43
21 47 43
21 47 43
21 47 43
21 47 43
22 48 44
21 46 42
21 46 42
21 47 43
22 48 43
21 46 42
21 47 43
21 46 42
21 47 43
21 46 42
22 48 44
21 47 42
21 47 43
21 46 42
21 46 42
21 47 43
21 47 43
21 46 42
22 47 43
22 48 43
21 47 43
21 47 43
22 48 44
21 47 43
22 47 43
21 47 43
22 48 44
21 47 43
22 48 43
22 48 43
22 48 43
22 47 43
21 47 43
22 48 43
21 46 42
20 44 40
21 46 42
21 46 42
20 45 41
21 47 43
20 44 41
20 45 42
20 45 41
21 46 42
20 45 41
20 45 41
20 45 42
21 46 42
20 44 40
20 44 41
20 45 42
20 43 40
20 45 42
21 46 42
20 45 41
20 45 41
21 46 42
21 46 43
20 45 41
20 45 42
21 46 42
20 45 41
21 46 42
20 45 41
20 45 41
20 45 42
21 46 42
20 44 41
20 45 41
21 47 43
21 47 43
20 45 41
21 46 42
20 45 41
20 45 41
21 46 42
21 46 42
21 46 42
21 46 42
21 46 42
20 45 41
20 45 41
20 45 41
20 45 41
21 47 43
20 45 41
21 46 42
21 47 43
20 45 41
21 46 42
21 47 43
21 47 43
21 46 42
20 45 41
21 47 43
21 46 42
21 46 42
21 46 42
21 46 42
21 46 42
21 46 42
21 47 43
21 47 43
22 48 43
22 48 43
21 46 42
21 46 42
21 46 42
21 46 42
21 47 42
21 46 42
21 47 42
21 46 42
21 46 42
21 46 42
21 47 43
21 46 42
21 46 42
22 48 43
21 47 43
21 47 42
22 48 44
21 46 42
22 47 43
21 47 43
21 46 42
22 48 44
21 47 43
22 48 43
21 47 43
21 47 43
21 46 42
22 48 43
22 48 44
21 46 42
21 47 43
22 49 45
21 47 43
22 48 43
22 48 44
22 49 44
22 47 43
21 46 42
22 49 45
21 47 43
22 48 44
22 48 44
22 48 44
22 48 43
22 48 43
23 50 46
22 48 44
22 48 44
22 48 43
20 44 41
20 45 41
20 45 41
20 44 41
20 45 41
20 45 42
21 46 42
20 45 41
20 45 41
20 44 40
20 45 41
21 46 42
20 45 41
21 46 42
20 45 41
20 44 41
20 44 40
20 44 40
20 45 41
21 46 42
21 46 42
20 45 41
20 44 41
21 46 42
20 45 41
20 45 41
21 46 42
20 45 41
21 45 41
20 44 40
20 45 41
20 45 41
21 46 42
21 46 42
20 45 41
21 46 42
20 45 42
21 46 42
21 46 42
20 45 41
21 46 42
20 45 41
21 46 42
21 46 42
21 46 42
21 47 43
20 45 42
21 46 42
20 45 41
21 46 42
20 45 41
20 45 41
21 46 42
20 45 41
21 47 43
21 46 42
21 47 42
21 46 42
21 47 43
21 47 43
21 46 42
21 46 42
21 46 42
21 47 43
20 45 41
21 46 42
21 46 42
21 47 43
21 47 43
20 45 41
21 46 42
21 46 42
21 46 42
21 47 43
21 46 42
21 46 42
21 46 42
21 47 43
21 47 43
21 47 43
21 47 43
21 47 43
21 46 42
21 47 43
21 46 42
21 47 43
21 47 43
22 48 43
21 47 43
21 46 42
21 47 43
21 47 43
21 47 43
21 47 43
21 47 43
22 48 44
21 45 41
21 47 43
21 47 43
21 47 43
21 47 42
21 47 42
21 46 42
22 48 43
21 46 42
22 48 43
22 47 43
21 47 43
21 46 42
22 48 43
21 46 42
21 47 42
22 49 44
22 48 44
21 47 43
22 47 43
22 48 43
22 47 43
21 47 43
22 49 45
20 44 41
20 44 40
20 45 42
20 45 41
20 45 42
20 45 41
20 45 41
21 46 42
21 46 42
20 45 41
20 45 41
21 46 42
21 46 42
21 46 42
20 45 42
20 45 42
20 44 40
20 45 41
20 45 42
20 44 41
20 45 41
21 46 42
20 44 41
20 45 42
20 45 42
21 46 42
21 46 42
21 46 42
21 47 43
21 46 42
21 46 42
21 46 42
21 46 42
20 45 41
21 45 42
20 45 41
21 46 42
21 46 42
20 45 41
20 45 41
20 45 41
20 44 41
21 46 42
21 47 43
21 47 42
21 45 41
21 46 42
20 45 41
21 47 43
21 46 42
21 46 42
20 45 41
21 46 42
21 46 42
20 45 41
21 46 42
21 46 42
21 46 42
20 45 41
21 47 43
21 46 42
21 47 43
21 46 42
21 46 42
20 45 41
21 47 43
21 46 42
21 46 42
21 47 43
21 47 43
21 47 43
21 47 43
21 46 42
21 47 43
21 47 43
21 45 41
22 49 44
21 46 42
21 47 43
21 47 43
21 45 42
22 48 44
21 47 42
21 47 43
21 46 42
22 48 44
21 46 42
21 47 43
22 48 43
22 47 43
21 47 43
21 46 42
21 47 43
22 47 43
21 47 42
21 47 43
21 46 42
21 45 41
21 47 43
22 48 43
22 48 44
21 47 43
21 47 43
22 48 44
22 48 44
22 47 43
22 48 44
21 46 42
22 48 43
22 48 44
22 48 44
21 47 43
21 47 43
22 48 43
21 47 43
21 47 43
21 47 43
21 47 42
21 46 42
22 48 44
21 46 42
20 45 41
20 44 40
20 45 41
20 45 41
20 45 41
21 46 42
21 46 42
20 44 41
20 45 42
21 46 42
20 45 42
20 45 41
21 46 42
20 45 41
20 46 42
21 46 42
21 46 42
21 46 42
20 45 41
21 46 42
21 46 42
20 45 41
20 45 41
20 45 42
20 45 41
20 45 41
20 45 42
20 45 41
20 45 41
21 47 43
20 45 41
21 46 42
21 46 42
20 45 41
21 47 43
20 45 42
21 46 42
21 46 42
21 47 43
20 45 41
21 46 42
20 45 41
20 45 41
20 44 41
20 45 41
21 47 43
21 47 43
20 45 41
20 45 41
21 46 43
21 47 43
21 46 42
21 46 42
21 46 42
21 47 43
21 47 43
21 46 42
21 47 43
21 47 43
21 46 42
20 45 41
21 46 42
21 46 42
20 45 41
21 47 43
21 46 42
21 46 42
21 47 43
21 46 42
20 45 42
21 47 43
21 46 42
22 48 44
21 47 43
21 47 43
21 46 42
21 47 43
21 46 42
21 46 42
21 47 43
21 46 42
20 45 41
21 47 43
21 47 42
21 46 42
22 48 43
22 48 44
21 47 43
21 47 43
21 46 42
22 48 44
21 46 42
21 47 43
21 47 43
21 47 43
21 46 42
21 47 43
21 46 42
21 46 42
22 48 44
21 47 43
21 47 42
21 47 43
21 46 42
22 48 44
21 47 43
21 47 42
22 48 44
21 46 42
21 47 43
22 48 43
21 46 42
21 47 43
21 47 43
21 47 43
22 48 44
21 47 42
21 47 43
22 48 43
20 46 42
20 44 41
20 44 41
20 45 42
20 45 42
21 46 42
20 45 41
21 46 42
20 45 41
20 45 41
20 45 42
20 45 42
20 45 41
20 45 42
20 44 40
20 45 41
20 45 42
21 46 42
20 45 41
21 46 42
20 44 41
20 44 40
21 46 42
21 46 42
20 45 41
20 45 41
21 47 43
20 45 41
20 45 41
21 46 42
20 45 42
20 45 41
20 44 41
20 45 42
21 46 42
21 47 43
21 45 42
21 46 42
20 45 41
20 45 41
20 45 41
20 44 41
21 46 42
21 46 42
21 46 42
21 46 42
20 44 41
20 45 41
21 46 42
20 45 41
21 47 43
21 46 42
21 46 42
20 45 41
20 45 41
21 46 42
21 47 43
21 47 43
21 45 42
20 45 41
22 48 44
20 45 41
21 46 43
21 46 42
21 46 42
21 46 42
21 47 43
21 46 42
21 46 42
21 47 43
21 47 43
21 46 42
21 46 42
21 47 43
21 46 42
21 46 42
22 48 43
21 47 43
21 47 43
21 46 42
21 46 42
20 45 41
21 47 43
21 46 42
21 46 42
21 47 43
21 46 42
21 47 42
21 46 42
22 48 43
22 48 44
21 47 43
22 48 43
21 47 43
22 48 44
21 46 42
21 46 42
22 48 44
21 47 43
21 46 42
21 47 43
21 47 43
22 48 44
21 47 43
21 47 43
22 48 43
21 47 43
21 47 43
21 47 43
21 46 41
21 47 43
21 47 43
21 47 43
21 47 43
21 47 43
21 46 42
22 48 43
22 49 44
22 48 44
21 47 42
19 43 40
20 45 41
20 45 41
21 46 42
20 44 40
20 44 41
20 45 41
20 44 40
20 45 42
20 45 41
20 45 41
20 45 41
21 46 42
20 45 41
20 45 42
21 46 42
20 44 40
20 44 41
20 45 41
20 44 41
20 45 42
21 46 42
20 45 41
19 43 39
20 45 41
20 45 42
20 45 41
20 45 41
21 46 42
20 45 41
21 46 42
21 46 42
21 46 42
21 46 42
21 47 43
21 46 42
21 46 42
20 45 41
21 46 42
20 45 42
20 45 41
21 46 42
21 46 42
20 45 41
21 46 42
21 46 42
21 46 42
20 45 41
20 45 41
20 45 41
21 46 42
21 46 42
21 46 42
21 46 42
21 46 42
21 46 42
21 47 42
20 45 41
21 46 42
21 46 42
21 46 42
21 46 42
21 46 42
21 46 42
21 46 42
21 46 42
21 47 43
21 46 42
21 47 43
21 46 42
21 46 42
22 48 44
21 47 43
21 46 42
21 45 42
21 46 42
21 46 42
21 46 42
21 46 42
21 47 43
21 46 42
21 46 42
21 46 42
21 47 43
21 47 43
21 47 42
22 48 44
21 47 43
21 47 43
21 46 42
21 47 42
22 48 44
22 47 43
21 47 43
21 47 43
21 47 43
21 46 42
21 47 43
21 47 43
21 47 42
21 47 43
21 47 43
21 47 43
21 46 42
21 47 43
21 47 42
21 47 43
22 48 44
21 47 43
21 46 42
21 46 42
21 46 42
22 48 43
21 47 43
21 47 43
21 47 43
21 47 43
21 46 42
21 47 43
21 47 42
20 45 41
20 44 41
21 46 42
20 44 40
21 47 43
20 45 42
20 45 42
20 45 42
21 46 42
20 44 41
20 44 41
20 45 41
20 45 41
20 44 40
20 44 40
20 44 40
20 45 41
20 45 41
20 44 40
21 46 42
20 44 40
21 46 42
20 45 41
21 46 42
20 46 42
20 45 41
21 46 42
20 45 41
20 45 41
20 45 41
21 45 42
20 44 41
20 44 40
21 46 42
21 46 42
21 46 42
20 45 41
21 46 42
21 46 42
21 46 42
20 45 41
21 47 43
20 45 41
21 46 42
21 46 42
21 46 42
21 46 42
20 45 42
20 45 41
20 45 41
21 45 41
20 45 41
20 44 40
21 46 42
21 47 43
21 46 42
21 47 43
21 46 42
21 47 42
21 46 42
21 46 42
21 46 42
21 45 42
21 48 43
21 46 42
21 45 41
21 46 42
21 45 41
21 46 42
21 46 42
21 47 43
21 46 42
21 46 42
21 47 43
20 45 41
21 46 42
21 47 43
21 46 42
21 45 41
21 46 42
21 46 42
21 47 43
21 47 43
21 47 43
21 46 42
21 46 42
20 45 41
21 47 43
21 46 42
21 47 43
21 46 42
21 46 42
22 48 44
21 47 43
21 46 42
21 47 43
21 47 43
22 48 44
21 47 43
21 46 42
21 46 42
22 49 44
22 47 43
21 46 42
21 46 42
21 47 43
21 47 43
21 47 43
22 48 44
22 49 44
21 47 43
21 47 43
21 47 43
22 48 44
22 48 43
21 46 42
21 47 43
22 47 43
21 47 43
21 47 43
20 45 42
20 45 42
21 46 43
20 45 41
20 45 41
20 45 41
20 45 41
20 45 42
20 45 41
21 46 42
20 44 40
20 44 41
20 45 42
20 45 41
20 45 41
20 45 41
20 45 41
20 45 42
20 45 42
20 45 41
21 46 42
21 46 42
20 45 41
21 46 42
20 45 41
21 46 42
21 45 42
20 45 41
21 46 42
20 44 41
20 45 41
20 45 41
20 45 41
20 45 41
21 46 42
21 47 43
20 45 41
20 44 40
20 45 41
20 44 40
21 46 42
21 46 42
21 46 42
20 44 40
20 44 41
21 46 43
20 45 41
21 46 42
20 45 41
21 46 42
21 46 42
20 45 41
21 45 41
21 45 42
20 45 41
20 45 41
21 46 42
21 47 43
21 46 42
21 46 42
21 46 42
20 45 41
21 45 42
21 46 42
20 45 41
21 47 43
22 48 44
21 46 42
21 46 42
21 46 42
21 47 43
21 46 42
21 46 42
20 45 41
21 46 42
21 46 42
21 46 42
21 46 42
21 46 42
21 46 42
21 46 42
21 46 42
21 47 43
21 47 43
21 47 43
21 46 42
21 47 43
22 47 43
21 47 43
21 46 42
21 46 42
22 48 43
21 47 43
21 45 42
21 46 42
21 47 43
21 46 42
21 47 43
21 47 43
22 48 44
21 45 41
22 47 43
22 48 44
21 47 43
21 46 42
21 47 43
21 46 42
21 47 42
21 47 43
21 46 42
22 48 44
21 47 43
22 48 44
22 48 44
21 46 42
22 48 43
22 48 43
22 49 44
22 47 43
21 46 42
20 44 40
20 45 41
20 45 41
20 43 40
20 44 40
21 46 42
20 44 40
21 46 42
21 46 42
20 45 41
21 46 42
21 46 42
20 45 42
20 45 42
20 45 41
20 45 41
21 46 42
21 46 42
20 45 41
20 44 41
20 44 41
21 46 42
20 44 41
21 46 42
20 45 41
21 46 42
20 45 42
21 46 42
21 46 42
20 45 41
20 45 42
20 45 41
20 45 41
21 46 42
20 45 41
20 45 41
20 45 41
21 46 42
21 46 42
20 45 42
20 45 41
21 45 42
20 45 42
21 46 42
20 45 42
21 46 42
21 46 42
21 46 42
20 45 41
21 46 42
21 46 42
21 48 44
20 45 41
20 45 41
20 45 41
20 45 41
20 45 41
20 45 41
20 45 41
21 46 42
21 47 43
21 46 42
21 46 42
20 44 40
20 45 41
21 46 42
21 46 42
21 46 42
21 46 42
21 46 42
21 46 42
21 47 43
21 46 42
20 45 41
21 46 42
21 47 43
20 45 41
21 46 42
21 47 43
21 46 42
21 46 42
21 47 43
21 46 42
21 47 43
21 46 42
21 45 41
21 46 42
21 46 42
21 47 43
20 45 41
21 47 43
21 46 42
21 47 43
21 46 42
22 48 44
21 46 42
21 47 43
21 47 43
21 47 43
21 46 42
21 46 42
21 47 42
21 46 42
21 47 43
21 46 42
22 48 43
21 47 43
21 47 43
21 47 42
21 46 42
21 47 43
21 47 43
22 48 44
22 48 43
22 48 44
22 47 43
21 47 43
21 46 42
22 48 43
21 47 43
20 45 41
20 44 41
20 44 41
20 44 40
20 44 40
20 44 40
20 43 40
20 45 41
20 45 41
20 44 40
20 45 41
20 45 42
20 45 42
21 46 42
20 44 41
20 45 41
20 45 42
21 46 42
20 44 41
20 46 42
20 45 41
20 44 41
20 45 41
21 46 42
21 47 44
21 46 42
21 46 42
20 44 40
21 47 43
20 45 41
20 44 40
20 44 40
20 45 42
21 46 42
19 43 40
20 45 41
20 45 41
21 46 42
20 45 41
21 46 42
22 48 44
20 45 41
21 46 42
20 45 41
21 46 42
21 46 42
21 46 42
20 45 42
21 46 42
21 46 42
21 46 42
21 46 42
20 45 41
21 46 42
20 45 41
20 45 41
21 46 42
21 46 42
21 47 43
20 45 41
21 47 43
21 47 43
21 46 42
21 46 42
20 45 41
21 47 43
21 46 42
21 46 42
20 45 42
20 45 41
21 46 42
21 47 43
21 46 42
21 45 42
20 45 41
21 47 43
21 47 43
21 46 42
21 46 42
21 46 42
21 45 42
21 47 43
21 47 43
21 46 42
21 47 43
21 47 43
20 45 41
21 46 42
22 49 44
21 45 41
21 46 42
21 45 41
21 46 42
20 45 41
21 47 43
21 47 43
21 45 41
20 45 41
21 47 43
21 46 42
21 47 43
21 46 42
21 46 42
21 46 42
21 47 43
21 45 41
21 47 43
22 48 43
22 47 43
21 47 43
21 47 43
21 46 42
21 46 42
22 49 44
21 46 42
21 46 42
22 47 43
22 48 43
22 48 43
21 47 42
20 44 41
20 44 41
21 46 42
20 44 41
21 46 42
20 45 41
20 45 41
21 46 42
20 45 42
20 44 41
20 45 42
20 45 41
20 44 41
20 44 41
19 43 40
20 45 41
20 44 41
20 45 41
20 45 42
20 44 41
20 44 41
20 45 41
20 44 41
20 44 41
21 46 42
21 46 42
21 46 43
20 45 42
20 45 41
20 44 40
21 46 42
20 44 40
20 44 40
20 44 41
20 45 41
20 45 41
20 45 42
20 44 41
20 45 41
21 47 43
20 45 42
21 46 42
20 45 41
21 46 42
21 46 42
20 45 41
20 45 41
20 45 41
20 45 41
21 46 42
20 45 41
20 45 41
20 44 41
21 46 42
21 46 42
21 46 42
20 45 41
21 46 42
20 45 41
20 45 41
22 48 44
21 47 43
21 46 42
21 46 42
21 46 42
20 45 41
21 45 42
21 46 42
21 46 42
21 46 42
22 48 44
21 45 42
21 46 42
22 48 44
21 47 43
21 47 43
21 47 43
21 46 42
20 45 41
21 46 42
21 46 42
21 46 42
21 46 42
21 46 42
21 46 42
21 47 43
21 46 42
22 48 43
21 46 42
22 48 43
20 45 41
20 45 41
22 47 43
20 45 41
21 46 42
21 46 42
22 48 44
21 47 43
21 46 42
20 45 41
22 47 43
21 46 42
22 48 44
21 46 42
21 47 43
21 47 43
21 47 43
21 47 43
21 47 43
21 45 41
22 48 43
22 47 43
21 47 42
21 47 43
21 45 41
21 47 43
21 46 42
21 47 43
21 46 42
22 48 44
21 46 42
20 45 41
20 45 42
20 44 41
20 45 41
20 44 41
21 46 42
20 45 41
20 45 41
20 44 40
20 45 42
20 43 40
20 45 41
20 45 41
19 43 40
20 44 41
21 46 42
20 45 42
20 44 41
20 45 41
20 44 41
20 45 41
20 45 41
20 45 41
21 46 42
20 45 41
21 46 42
20 45 42
20 45 42
21 46 42
20 45 41
20 45 41
20 45 42
20 45 41
21 46 42
21 46 42
20 44 41
21 47 43
20 45 41
20 44 41
21 46 42
20 45 42
20 45 41
21 46 42
21 46 42
21 46 42
21 45 42
21 47 43
20 45 41
20 45 41
21 46 42
21 46 42
20 45 41
21 45 42
20 45 41
20 45 41
21 47 43
21 46 42
21 46 42
20 44 40
20 45 41
20 45 41
21 47 43
21 47 43
21 47 43
21 47 43
21 47 43
21 46 42
21 46 42
21 46 42
20 45 41
20 45 41
21 46 42
21 46 42
21 47 43
21 46 42
20 45 41
21 47 43
21 47 43
21 46 42
21 46 42
21 46 42
20 45 41
21 45 42
21 46 42
21 46 42
21 47 43
21 46 42
21 46 42
21 46 42
21 47 42
21 46 42
21 47 43
22 47 43
21 46 42
21 46 42
21 46 42
22 47 43
21 46 42
22 48 44
21 47 43
21 46 42
21 46 42
21 46 42
21 47 43
21 47 43
21 47 43
21 47 43
21 46 42
22 47 43
21 47 43
22 47 43
21 46 42
21 47 43
21 46 42
21 46 42
21 47 43
22 47 43
22 47 43
22 47 43
20 44 41
20 45 42
20 44 40
20 44 41
21 46 42
20 45 41
20 45 41
20 44 41
20 44 41
20 45 41
20 44 41
20 45 41
20 45 41
20 45 41
21 47 43
21 46 43
20 45 42
20 45 41
20 45 42
20 45 41
20 45 42
21 46 42
20 45 41
21 46 42
21 46 42
20 44 40
20 45 41
20 44 40
20 45 41
21 46 42
21 46 42
20 45 41
20 45 41
20 45 41
20 45 41
20 45 41
20 44 41
21 46 42
21 46 42
21 47 43
21 46 42
21 46 42
21 47 43
20 45 41
20 45 41
20 45 41
21 45 42
21 46 42
20 44 40
21 46 42
21 46 43
20 45 41
21 46 42
21 47 43
21 46 42
20 45 41
20 45 42
21 46 42
21 46 42
21 46 42
20 45 42
22 48 44
21 46 42
20 45 41
21 46 42
21 46 42
21 45 42
20 44 41
20 45 41
21 46 42
21 46 42
21 47 43
21 46 42
21 45 42
21 46 42
21 46 42
21 46 42
21 46 42
21 46 42
21 46 42
21 46 42
21 46 42
21 47 43
20 45 41
21 46 42
20 45 41
21 46 42
21 46 42
21 46 42
21 46 42
21 46 42
21 46 42
22 48 44
21 47 43
21 46 42
21 45 41
21 47 43
21 47 43
21 46 42
21 46 42
21 46 42
21 47 43
21 46 42
22 48 44
21 46 42
21 46 42
22 47 43
21 46 42
21 47 43
21 46 42
21 45 42
21 47 43
22 47 43
21 47 43
22 47 43
22 48 44
22 47 43
22 47 43
21 45 41
21 46 42
20 45 41
20 44 41
20 45 41
20 45 41
20 44 40
20 45 41
20 45 41
20 44 40
20 45 41
20 45 41
20 45 42
20 45 41
20 45 41
20 44 41
20 44 40
20 45 41
20 45 41
20 45 42
20 45 41
20 45 41
21 46 42
20 45 41
20 45 42
20 45 41
21 47 43
21 46 42
20 44 41
21 46 42
20 45 42
20 45 41
20 44 41
21 46 42
20 45 41
20 45 41
21 46 42
20 45 42
21 47 43
21 46 42
21 46 42
21 46 42
20 45 41
21 46 42
20 45 41
20 45 41
20 45 41
20 45 41
20 45 41
20 45 41
21 46 42
21 46 42
20 45 42
21 46 42
20 45 41
21 46 42
21 46 42
21 46 42
20 45 41
21 46 42
21 46 42
20 45 41
20 45 41
20 45 41
21 46 42
21 46 42
21 47 43
21 46 42
21 46 42
21 46 42
20 45 41
21 46 42
21 46 43
21 46 42
21 46 42
21 47 43
21 45 41
21 46 42
21 46 42
21 46 42
21 47 43
21 45 42
20 45 42
21 47 43
21 46 42
21 46 42
21 47 43
20 45 41
21 46 42
20 45 41
20 45 41
20 44 40
21 46 42
21 46 42
20 45 41
21 46 42
22 48 44
21 46 42
21 47 43
21 46 42
21 45 41
21 47 43
21 47 43
21 47 43
21 47 43
20 45 41
21 47 42
20 45 41
21 47 43
21 46 42
21 46 42
21 45 42
21 47 43
21 46 42
21 46 42
22 47 43
21 46 42
22 47 43
22 47 43
21 46 42
22 47 43
22 47 43
20 45 41
20 44 41
20 44 41
20 44 40
20 45 42
20 45 41
20 44 41
20 45 41
21 46 42
20 44 41
21 46 42
20 44 40
21 46 42
20 45 41
21 46 42
20 44 41
20 45 41
19 43 40
20 45 41
20 44 41
21 46 42
20 45 41
20 45 41
20 45 42
20 45 41
20 45 41
21 46 42
20 44 41
21 45 42
20 45 41
20 44 40
20 45 41
20 45 41
20 45 41
21 46 42
20 45 41
21 46 42
20 45 41
21 46 42
20 44 41
20 45 41
20 44 40
20 45 42
20 45 41
20 45 41
20 44 40
21 46 42
21 46 42
20 45 41
20 45 41
21 46 42
20 44 40
21 46 42
21 46 42
21 46 42
20 45 41
20 45 42
21 46 42
20 45 41
20 45 41
21 46 42
21 46 42
20 45 41
21 46 42
20 45 41
21 46 42
21 46 42
21 46 42
21 46 42
21 46 42
20 45 41
21 46 42
21 46 42
21 46 42
21 47 43
20 45 41
21 46 42
21 46 42
20 45 41
21 47 43
20 45 41
21 46 42
22 48 44
21 47 43
20 45 41
21 46 42
21 46 42
21 46 42
20 45 41
21 46 42
21 46 42
21 47 43
22 47 43
21 46 42
21 46 42
21 47 43
21 47 43
21 46 42
21 47 43
20 45 41
22 48 44
21 46 42
21 46 42
21 46 42
21 46 42
21 46 42
22 47 43
21 46 42
21 46 42
22 47 43
21 46 42
22 47 43
22 47 42
22 47 43
22 48 44
22 47 43
22 48 43
22 46 42
22 46 42
22 48 43
20 45 41
21 46 42
20 45 41
20 45 42
20 44 40
20 45 42
20 44 41
20 43 40
20 44 41
20 44 41
20 45 42
20 45 42
20 44 41
20 45 41
20 45 41
20 45 41
20 45 41
20 45 41
19 43 40
20 45 41
20 45 41
20 45 41
20 45 41
20 44 40
20 45 42
21 46 42
21 46 42
21 46 42
20 45 41
20 45 42
20 45 41
20 44 40
20 45 41
21 46 42
21 46 42
20 44 40
20 44 41
20 45 42
20 45 41
20 46 42
20 45 41
20 45 41
20 45 41
20 44 41
21 46 42
21 46 42
20 44 40
20 45 42
20 45 41
20 45 41
20 45 41
20 45 41
21 46 42
21 46 42
21 46 42
20 45 41
20 45 41
20 45 41
21 46 42
20 45 41
20 45 42
21 45 42
21 46 42
20 45 41
21 46 42
21 46 42
21 46 42
20 45 42
20 45 41
20 45 41
21 46 42
21 46 42
21 46 42
21 46 42
21 46 42
21 46 42
21 46 42
21 46 42
21 46 42
21 46 43
21 45 42
20 44 40
21 47 43
20 45 41
21 47 43
21 47 43
21 47 43
21 47 43
20 45 42
21 46 42
21 47 43
21 47 43
20 45 41
21 46 42
21 47 43
21 47 42
21 46 42
21 45 41
21 46 42
21 47 43
21 46 42
21 46 42
22 48 44
21 46 42
21 46 42
22 47 43
21 46 42
21 46 42
21 46 42
22 47 43
22 47 43
23 49 44
22 47 42
21 45 41
22 46 42
22 47 43
22 46 42
22 46 42
22 46 41
22 47 43
21 46 42
19 43 40
20 44 40
20 44 40
20 44 41
19 43 39
20 45 41
20 44 41
20 44 40
20 44 40
20 44 41
20 44 40
20 45 41
20 44 40
20 45 41
20 44 40
20 45 41
20 44 41
21 46 42
20 45 41
20 45 41
20 45 42
20 45 41
20 45 41
20 45 41
20 44 40
21 46 42
20 45 41
21 47 43
20 45 41
20 45 41
20 44 41
21 46 43
20 45 41
21 47 43
20 45 42
21 46 42
20 45 41
21 46 42
20 45 42
20 45 41
20 45 42
20 45 42
20 45 41
20 45 41
20 45 41
20 44 40
21 47 43
20 45 41
21 46 42
21 46 43
21 46 42
21 45 42
21 46 42
21 46 42
20 45 41
20 45 41
20 45 41
21 45 42
20 44 41
21 46 42
21 46 42
20 45 41
21 46 42
21 46 42
21 46 42
21 46 42
21 47 43
20 44 41
21 47 43
21 46 42
21 46 42
20 45 41
20 45 41
21 46 42
21 46 42
20 45 41
21 47 43
21 46 42
21 46 42
21 46 42
21 45 42
21 47 43
20 45 41
20 45 41
20 45 41
21 47 43
21 47 43
21 46 42
21 46 42
20 45 41
21 45 41
21 45 42
21 46 42
21 45 41
20 45 41
20 45 41
21 46 42
21 46 42
21 47 43
21 46 42
22 47 43
22 47 43
21 46 42
22 47 43
21 46 42
21 46 42
21 46 42
22 48 43
21 46 42
22 46 42
22 48 43
22 47 43
22 47 43
22 47 43
22 47 43
22 47 43
22 46 42
22 47 43
23 47 43
20 45 41
19 43 40
20 44 40
21 46 43
20 45 41
21 46 42
20 46 42
20 44 41
20 45 41
20 44 41
20 45 41
20 45 41
20 45 41
20 44 41
20 45 41
20 45 41
21 46 42
20 45 41
20 45 41
20 45 41
21 46 42
19 43 40
21 46 42
20 45 42
20 44 41
20 44 40
20 45 41
21 47 43
20 44 41
20 44 40
20 44 40
20 44 40
20 45 42
20 44 41
20 45 41
20 45 41
20 45 41
21 46 42
20 45 41
20 45 42
20 45 41
21 46 42
20 45 42
20 45 41
21 46 42
21 46 42
21 46 42
20 45 41
20 45 41
20 45 42
21 46 42
20 45 41
21 46 42
21 46 42
21 46 42
20 45 41
20 44 40
20 45 41
21 47 43
20 45 41
21 46 42
20 45 41
21 46 42
21 46 42
21 46 43
20 45 41
20 45 41
21 46 42
20 45 42
20 45 42
20 45 41
21 46 42
20 45 41
21 47 43
20 45 41
20 45 41
20 44 40
21 46 42
20 45 41
21 47 43
21 46 42
21 46 42
21 46 42
21 47 43
21 46 42
21 46 42
20 45 41
20 45 41
21 46 42
21 46 42
21 46 42
21 46 42
21 46 42
21 45 42
20 45 41
21 47 43
21 47 43
21 47 43
22 47 43
21 45 41
21 46 42
21 46 42
21 46 42
22 48 44
21 46 42
22 47 43
21 46 42
21 46 42
22 47 42
21 46 42
22 47 43
22 47 43
23 48 43
22 47 43
23 48 44
23 47 43
23 47 43
23 47 43
23 47 43
23 47 43
20 44 40
20 45 41
20 45 41
20 45 41
20 45 41
20 45 41
21 46 42
20 45 41
21 46 43
20 44 41
20 44 41
20 45 41
20 44 41
20 45 41
20 45 41
20 44 41
20 45 41
21 46 42
20 44 40
20 44 41
20 45 42
20 45 41
20 45 42
20 45 41
21 46 42
20 45 41
20 45 41
21 46 42
20 44 41
20 45 41
21 46 42
20 44 41
20 44 40
20 44 40
20 45 41
20 44 40
20 45 41
20 45 41
20 44 41
20 44 40
21 45 42
21 45 42
21 46 42
21 46 42
21 46 42
20 45 41
21 46 42
20 45 41
21 46 42
21 46 42
21 46 42
20 45 41
20 45 41
20 44 40
20 46 42
20 45 41
21 46 42
20 45 41
20 45 41
21 46 42
21 46 42
21 47 43
20 44 40
20 44 41
20 45 41
20 45 42
21 46 42
20 45 41
20 45 41
20 45 41
21 46 42
20 45 41
20 45 41
20 45 41
21 46 42
21 46 42
20 44 41
20 45 42
21 46 42
20 45 41
20 45 42
21 46 42
21 46 42
21 46 42
20 45 41
21 46 42
21 46 43
21 46 42
21 46 42
21 47 43
21 45 42
21 46 42
22 47 43
21 46 42
21 46 43
21 46 42
21 45 41
21 46 42
21 46 42
21 46 42
22 47 43
21 45 41
22 47 43
22 46 42
22 47 43
21 46 42
22 47 42
23 48 44
22 47 43
22 47 43
22 47 43
23 48 43
22 45 41
23 47 43
23 46 42
23 46 42
24 48 44
23 46 42
23 47 43
24 48 44
20 45 42
20 44 40
21 46 42
20 45 41
20 44 41
20 45 41
20 44 40
20 44 41
20 44 41
20 45 41
21 46 42
20 44 40
20 44 40
20 44 40
20 45 41
20 45 41
20 44 40
20 44 41
20 45 41
20 44 41
20 45 42
20 45 41
20 44 41
20 45 42
21 46 42
20 44 41
20 45 42
21 46 42
20 45 41
20 45 42
21 46 42
20 45 41
20 45 41
21 46 42
21 45 42
20 45 41
20 45 41
21 46 42
21 46 42
20 43 40
20 45 42
20 45 41
20 45 42
20 45 41
21 46 42
21 46 42
21 46 42
20 45 41
20 45 41
20 45 41
20 44 41
20 43 40
20 45 41
20 45 42
20 45 41
21 46 42
20 44 41
21 46 42
21 46 42
20 45 41
20 45 41
20 45 41
20 45 41
20 44 41
21 47 43
21 46 42
20 44 40
21 47 43
21 46 42
21 46 42
20 45 41
21 45 42
21 46 42
21 46 42
21 46 42
21 47 43
21 47 43
21 46 42
21 46 42
21 46 42
21 46 42
20 44 41
21 46 42
21 47 43
20 45 41
21 46 42
20 45 41
21 46 42
21 45 41
21 46 42
21 46 42
21 46 42
21 46 42
21 46 42
21 46 42
21 45 41
21 46 42
21 46 42
21 46 42
21 46 42
22 47 43
21 46 42
21 45 41
21 46 42
22 46 42
23 48 44
22 46 42
22 47 43
22 47 43
23 47 43
23 48 43
23 47 43
23 46 42
23 47 43
23 47 43
24 49 45
24 49 44
24 48 44
25 48 44
24 48 43
20 44 40
20 44 40
20 44 40
20 44 40
20 44 41
20 44 40
20 44 41
20 44 40
20 45 41
20 44 41
20 45 41
20 44 40
20 44 40
20 45 42
20 46 42
20 44 41
20 45 41
20 45 41
20 44 41
20 45 41
20 45 41
20 45 42
20 44 41
20 44 41
19 43 40
20 45 42
19 43 40
20 45 41
21 46 42
20 45 41
20 45 42
20 45 41
20 45 42
20 45 42
21 46 42
20 45 41
20 45 41
21 46 43
19 43 40
20 44 40
20 45 42
20 45 42
21 46 42
21 45 42
21 46 42
20 45 41
20 44 41
20 45 41
21 46 42
20 44 41
20 45 41
20 45 41
21 46 42
21 46 42
20 45 41
20 45 41
20 45 41
20 45 41
20 45 41
20 45 41
21 46 42
21 46 42
20 45 41
21 46 42
20 45 41
21 45 42
21 46 42
20 45 41
21 46 42
21 47 43
20 44 41
21 46 42
20 45 42
20 45 41
20 45 41
21 46 42
21 46 42
20 45 41
21 46 42
21 46 42
20 44 41
21 47 43
21 46 42
21 46 42
21 47 43
21 46 42
21 47 43
21 46 42
20 45 41
21 46 42
21 45 41
21 46 42
21 46 42
21 47 42
21 46 42
21 45 41
21 46 42
21 46 42
22 47 43
22 47 43
21 46 42
22 47 43
22 46 42
22 47 43
22 46 42
22 47 43
22 47 42
23 47 43
23 47 43
23 47 43
23 48 43
24 48 44
24 48 43
24 48 43
24 47 43
25 49 44
24 47 42
25 47 43
25 48 43
25 48 44
20 44 40
20 45 42
19 43 40
20 45 42
19 43 39
20 44 40
20 44 41
20 44 41
20 45 41
20 44 41
20 45 41
21 46 42
20 45 41
20 45 41
20 45 41
20 45 41
20 44 40
20 45 42
21 46 43
20 44 41
20 45 42
20 45 42
20 44 40
20 46 42
20 44 40
21 46 43
20 44 40
20 45 41
20 45 41
20 45 41
20 45 41
20 44 40
20 44 40
20 44 40
20 45 42
20 44 41
20 45 41
20 45 42
20 44 40
20 44 40
21 46 42
20 44 40
21 46 42
21 46 42
20 45 42
20 45 41
20 45 41
20 45 41
20 45 41
21 46 42
20 45 41
20 44 40
21 46 42
20 44 40
20 46 42
20 44 40
20 45 42
21 46 42
20 45 41
20 44 41
21 47 43
21 46 42
20 45 41
20 45 41
21 46 42
20 45 41
21 45 42
21 46 43
20 44 41
20 45 42
20 45 41
21 46 42
21 46 42
22 48 44
21 46 42
19 43 40
21 47 43
21 46 42
21 46 42
21 46 42
21 46 42
21 46 42
20 45 41
21 47 43
21 46 42
21 46 42
21 46 42
21 45 41
22 48 44
21 45 41
20 44 41
21 46 42
21 46 42
21 45 41
21 46 42
22 47 43
22 47 43
21 45 41
22 46 42
22 46 42
22 47 43
22 47 43
22 46 42
22 47 43
22 47 43
23 47 43
22 46 42
23 47 43
23 47 42
24 48 43
24 47 43
24 48 43
25 48 44
25 48 44
25 47 43
25 48 44
26 48 44
26 48 43
26 48 44
26 48 44
20 45 41
20 45 41
20 44 40
20 45 41
21 46 42
20 45 41
19 43 40
20 44 40
20 45 41
20 45 41
19 43 40
20 46 42
20 44 41
20 44 41
20 45 41
20 44 40
21 46 42
20 45 42
20 44 41
20 45 41
20 45 42
21 46 42
20 45 42
21 45 42
20 44 41
20 44 41
20 45 41
20 45 41
20 44 40
21 46 42
21 46 42
19 43 40
20 45 41
20 44 41
20 45 42
21 45 42
20 45 42
20 45 41
20 45 42
20 45 42
21 46 42
20 44 41
21 46 42
20 45 41
20 46 42
20 44 40
20 45 41
20 45 41
21 47 43
20 45 41
20 45 41
20 44 40
20 44 40
20 44 41
20 45 41
20 45 42
21 46 42
20 44 40
20 45 41
20 45 42
20 45 41
21 46 42
21 46 42
20 45 42
20 45 41
20 45 41
20 45 41
20 45 41
20 45 42
20 45 41
20 45 41
21 45 42
21 46 42
20 44 41
21 46 42
20 45 41
20 45 41
21 45 42
22 48 44
20 45 41
20 44 41
21 46 42
21 46 42
21 46 42
21 46 42
21 46 43
21 46 42
21 46 42
21 45 41
21 45 41
22 47 43
21 45 41
21 45 41
21 46 42
21 46 42
22 46 42
21 45 41
22 46 42
22 46 42
22 46 42
22 47 42
22 45 41
23 47 43
23 47 43
23 46 42
24 48 44
23 46 42
24 48 43
23 46 42
24 48 43
24 47 43
25 48 44
25 48 43
25 48 43
25 47 43
26 48 44
27 49 45
27 49 44
27 49 44
28 50 45
20 44 41
20 44 40
20 44 40
20 44 41
20 44 41
20 44 40
20 45 41
20 44 40
20 44 40
20 44 40
20 45 42
20 44 40
20 45 41
20 45 41
20 44 40
21 46 42
20 45 41
20 45 41
20 45 42
20 44 40
21 46 42
20 45 41
20 45 41
20 44 41
20 45 41
20 44 40
20 44 40
20 44 40
21 46 42
20 44 41
21 46 42
20 45 42
20 44 40
20 44 40
20 46 42
20 44 40
20 44 40
21 46 43
20 45 42
20 44 40
21 46 42
20 44 40
19 43 40
20 45 41
20 45 41
21 46 42
21 46 42
20 44 41
21 47 43
21 47 43
21 46 43
20 45 41
20 44 41
20 44 40
21 46 42
20 45 42
20 44 41
20 44 41
20 45 41
20 45 41
20 45 41
21 46 42
20 44 41
21 46 42
21 46 42
21 47 43
20 45 41
20 45 41
21 46 42
21 46 42
21 46 42
21 46 42
20 44 41
21 47 43
21 46 42
21 45 42
20 44 41
20 45 41
20 44 41
21 46 42
21 46 42
20 45 41
20 45 41
20 43 39
21 47 43
21 45 41
21 46 42
21 46 42
21 46 42
21 46 42
21 46 42
22 47 43
22 47 43
21 46 42
22 47 43
21 45 41
21 46 42
21 45 41
22 47 43
22 46 42
23 47 43
23 47 43
23 46 42
23 47 43
23 46 42
24 47 43
24 48 44
25 48 44
25 47 43
25 48 44
25 47 43
26 49 45
26 47 43
26 48 44
27 48 43
27 49 44
28 50 45
28 49 44
29 50 45
29 51 46
20 45 41
20 44 40
20 45 41
20 45 41
20 45 41
20 45 41
20 44 41
20 44 40
20 44 40
20 44 41
21 46 42
20 45 41
20 44 41
20 44 41
20 45 41
21 46 42
20 44 41
20 45 41
20 44 41
20 44 40
20 45 42
20 44 40
20 45 41
20 45 41
21 46 42
20 45 41
20 45 41
20 44 41
20 44 41
21 46 42
20 45 42
20 44 40
20 45 41
20 44 41
21 46 42
21 46 42
20 45 41
20 44 41
21 46 42
21 46 42
20 45 41
20 45 41
20 45 42
20 45 42
20 45 41
20 45 41
20 45 41
20 45 42
20 45 41
21 46 42
20 45 41
20 45 41
21 46 42
20 45 41
21 46 42
20 45 42
20 44 40
20 44 41
21 46 42
22 48 44
21 46 42
21 46 42
20 45 42
20 45 42
21 46 42
20 45 41
20 44 41
21 46 42
21 45 42
20 45 42
20 45 41
21 46 42
21 47 43
21 46 42
20 45 41
21 46 42
20 45 41
21 46 42
21 45 41
21 46 42
20 45 41
22 47 43
20 45 41
21 47 43
20 45 41
21 47 43
21 46 42
21 45 41
21 47 43
22 47 43
21 45 41
21 45 41
21 46 42
22 46 42
21 45 41
22 46 42
22 47 43
22 46 42
22 47 43
22 46 42
23 47 43
23 47 43
23 47 43
24 48 43
24 47 43
24 46 42
25 47 43
25 48 44
26 49 44
26 48 43
26 47 43
27 49 44
27 48 44
27 48 43
28 49 45
28 49 45
29 50 45
29 50 45
30 49 44
31 51 46
20 44 40
20 44 41
20 45 41
20 44 41
20 44 41
20 45 42
20 45 41
20 44 41
21 46 42
20 44 41
20 44 40
20 45 42
20 45 41
20 45 41
20 46 42
21 46 42
21 46 42
19 43 40
20 45 42
20 44 40
20 44 40
20 45 41
21 46 42
20 44 41
20 44 40
21 46 42
20 45 41
21 46 42
20 45 41
20 45 41
20 45 42
20 45 41
20 45 41
21 46 42
20 44 41
20 45 41
20 45 41
20 44 41
20 45 41
20 44 41
20 44 41
20 44 41
20 45 41
20 44 41
20 43 40
20 44 41
21 46 42
20 45 41
20 44 41
20 45 41
21 46 43
21 46 42
21 46 42
21 46 42
20 45 41
21 46 42
20 45 41
20 45 41
21 47 43
20 45 41
20 44 40
21 46 42
21 46 42
21 46 42
20 45 41
20 44 41
20 44 41
21 46 42
20 44 40
20 45 41
20 45 41
20 45 41
20 45 41
20 45 41
21 46 42
20 45 41
21 47 43
21 45 42
21 46 42
21 46 42
21 47 43
21 46 42
21 45 42
20 44 41
21 46 42
21 46 42
22 47 43
21 45 42
22 47 43
21 46 42
21 45 41
21 45 41
22 47 43
22 46 42
22 47 43
22 46 42
22 47 43
23 48 43
22 46 42
23 47 43
23 47 43
24 48 44
24 47 43
24 47 42
25 47 43
25 47 43
25 46 42
26 49 44
26 48 44
27 49 44
27 48 43
28 49 44
28 49 45
29 49 45
29 50 45
30 49 44
30 51 46
31 50 45
32 51 46
32 52 47
20 44 40
19 43 40
19 43 40
20 44 41
19 43 40
20 44 41
20 45 42
20 45 41
20 44 41
20 43 40
20 45 41
20 44 40
20 43 40
20 45 41
20 45 42
20 45 41
20 45 41
20 44 41
20 44 41
20 43 40
20 45 41
20 44 40
20 45 42
20 44 40
20 45 41
20 44 40
20 44 41
20 45 41
20 45 41
20 45 41
21 46 42
20 45 41
20 45 41
20 45 41
20 45 42
20 45 41
20 45 42
21 46 42
20 44 40
20 45 41
20 45 41
21 46 42
20 44 41
20 45 42
20 45 42
20 45 42
20 45 41
20 45 41
20 45 41
20 45 41
20 44 41
20 45 41
20 45 42
20 45 42
21 46 42
20 44 41
20 45 41
20 45 41
20 44 40
20 44 41
20 45 41
20 44 41
20 45 41
20 45 42
20 45 41
20 45 41
20 44 40
20 43 40
20 44 40
21 46 42
21 46 42
21 46 42
20 45 41
20 44 41
21 45 42
21 46 42
20 45 41
20 45 41
21 46 42
20 45 41
21 46 43
21 45 41
21 46 42
20 45 41
21 45 42
21 45 41
21 45 41
22 47 43
21 46 42
22 47 43
22 47 43
22 46 42
21 45 41
22 46 42
23 47 43
22 45 42
23 48 43
23 47 43
22 45 41
23 46 42
24 47 43
24 46 42
24 47 43
25 47 43
25 47 43
26 48 44
27 49 44
27 49 44
28 49 45
28 50 46
28 49 44
29 49 45
30 51 46
30 49 45
31 50 46
31 51 46
32 51 46
33 51 46
33 51 46
34 53 47
19 43 40
20 45 41
20 45 41
20 45 41
21 46 42
20 45 41
20 44 40
20 45 42
20 45 42
20 44 40
19 43 40
20 44 40
20 45 41
20 44 41
20 44 40
19 43 40
20 45 42
20 44 41
20 44 40
19 43 40
20 44 40
20 45 41
20 45 42
20 45 41
21 46 42
20 45 41
20 45 42
20 45 42
20 45 41
20 44 40
20 45 41
20 45 41
20 44 40
20 45 42
20 44 41
20 44 41
20 44 41
20 44 40
20 44 40
20 45 41
20 45 42
20 44 41
20 45 41
20 45 41
20 44 41
21 46 42
20 45 41
20 44 41
21 47 43
20 44 41
20 44 40
20 44 40
20 45 41
20 45 41
20 45 41
20 45 42
20 44 41
20 44 41
21 46 42
20 45 42
20 45 41
20 45 42
21 46 42
20 44 41
20 45 41
20 45 41
20 45 41
20 44 40
20 45 41
21 47 43
21 47 43
21 46 42
20 44 41
20 44 40
20 45 41
21 46 42
21 45 42
21 46 42
21 46 42
20 44 40
21 46 42
21 45 41
21 46 42
21 45 41
20 44 40
21 46 42
22 47 43
21 44 41
21 46 42
22 47 43
22 46 42
22 47 43
23 47 43
22 46 42
23 47 43
23 47 43
24 48 44
23 46 42
24 47 43
24 48 44
24 47 43
25 48 44
25 48 44
26 49 45
27 49 45
27 48 44
27 48 44
27 47 43
28 49 44
29 50 45
30 51 46
31 51 46
31 52 47
32 51 46
33 52 47
33 51 46
34 53 48
34 52 46
35 53 47
36 54 48
20 44 40
20 44 41
20 44 41
20 44 41
20 45 42
20 44 40
20 44 40
19 43 40
20 45 42
20 44 40
20 44 40
20 44 40
20 44 41
20 45 42
20 45 42
20 44 40
20 44 41
20 45 41
20 45 41
20 44 40
21 46 42
20 45 42
20 45 41
20 45 41
21 46 42
19 43 40
20 45 41
20 44 40
20 45 41
21 46 42
20 43 40
20 45 41
20 46 42
20 45 41
21 46 42
20 45 41
20 45 42
20 44 41
20 44 41
20 44 40
20 45 41
20 44 41
20 44 41
21 46 42
20 45 41
20 45 41
20 44 41
20 45 41
21 46 42
20 44 40
20 45 42
20 45 41
20 45 42
20 45 41
21 47 43
21 46 42
21 46 42
20 45 41
21 46 42
20 44 41
20 45 42
21 45 42
21 46 42
21 45 42
20 45 41
20 45 41
20 45 41
20 45 41
20 45 42
20 45 41
21 46 42
21 46 42
21 45 42
21 46 42
21 46 42
20 45 41
21 46 42
21 45 42
21 47 43
21 46 42
21 45 41
21 45 41
21 44 41
22 47 43
22 47 43
21 46 42
21 45 41
21 45 41
22 47 43
22 46 42
22 46 42
23 47 43
23 47 43
22 46 42
23 47 43
23 47 43
24 47 43
24 48 44
25 50 45
25 47 43
25 48 44
26 48 43
26 48 43
27 49 44
27 49 44
28 48 44
28 49 44
29 50 45
30 50 45
31 51 46
31 50 45
32 51 46
33 51 46
33 52 47
34 52 47
35 53 48
36 53 48
36 53 47
38 55 49
38 54 49
20 44 41
20 44 40
20 45 41
20 44 40
20 45 41
20 45 41
20 44 41
20 45 41
20 44 41
20 45 42
20 44 41
20 44 41
20 44 40
20 45 41
20 45 41
20 45 41
20 44 41
20 43 40
20 45 41
20 45 41
20 44 41
19 43 40
20 45 41
20 45 41
20 45 42
20 44 41
20 45 42
20 44 41
20 46 42
20 44 41
20 45 41
20 44 40
21 46 42
20 45 41
20 44 40
20 45 41
20 44 41
20 45 41
21 46 42
20 46 42
20 45 41
20 45 41
21 46 42
20 45 41
20 44 40
20 45 41
21 46 42
20 45 42
20 45 41
21 46 42
20 44 40
21 46 42
20 45 41
20 44 41
20 45 41
21 46 42
21 46 42
20 45 42
20 45 42
20 45 41
20 45 41
20 44 41
20 45 41
20 44 40
20 45 41
20 43 40
21 46 42
21 46 42
20 45 41
20 45 41
20 44 40
20 45 41
21 45 42
20 45 41
20 45 41
21 45 42
20 45 41
21 46 42
21 46 42
21 45 41
21 47 43
21 46 43
21 45 41
22 47 43
21 46 42
21 45 41
22 46 42
22 46 42
22 46 42
22 47 43
23 47 43
22 45 41
23 47 43
23 47 43
24 47 43
24 47 43
24 47 43
24 46 42
25 46 42
25 46 42
25 47 42
26 48 43
27 49 44
27 48 43
28 49 45
29 50 46
30 50 45
30 49 45
31 51 46
32 50 45
33 51 46
33 51 46
34 51 45
35 53 48
36 53 47
37 55 49
38 54 49
38 54 49
39 55 49
41 56 50
20 45 41
20 44 40
20 44 41
20 45 41
21 46 42
20 44 41
20 44 41
19 43 40
20 45 41
20 44 40
20 45 41
20 44 40
19 42 39
20 44 40
19 43 40
20 45 41
20 44 41
20 44 41
19 43 39
20 44 41
20 45 41
20 44 41
20 44 41
19 43 40
20 45 41
20 44 41
20 44 40
20 44 41
20 45 41
20 45 41
20 45 41
20 44 41
20 44 41
20 45 41
20 44 41
20 45 42
21 46 42
20 45 41
21 46 42
21 46 42
20 45 41
20 45 41
21 46 42
20 45 42
20 45 41
20 44 41
20 44 40
20 45 42
21 46 42
20 45 41
20 45 41
20 44 41
20 44 40
20 46 42
20 45 41
20 45 41
20 44 41
20 44 40
20 45 41
20 45 41
20 44 41
19 43 40
20 45 42
21 46 42
21 46 42
20 44 41
21 45 42
21 46 42
20 45 41
20 44 41
21 45 41
20 45 42
21 46 42
21 45 42
20 45 41
20 45 41
21 46 42
21 45 42
21 45 42
20 44 40
20 44 40
21 46 42
21 45 42
21 46 42
21 46 42
22 47 43
22 46 42
22 46 42
22 46 42
22 45 41
22 46 42
22 45 41
23 46 42
23 47 42
23 46 42
24 47 43
24 46 42
25 46 42
26 48 44
26 47 43
27 49 44
27 48 43
28 50 45
29 49 44
29 49 44
30 51 46
31 51 46
32 51 46
33 52 47
33 51 46
34 52 46
35 53 47
36 53 47
37 53 48
38 54 48
39 54 49
40 55 49
41 57 51
42 57 50
43 58 52
