P3
120 80
255
18 40 38
18 40 38
17 40 37
17 39 36
18 40 38
17 39 37
18 40 38
17 40 37
17 39 37
18 40 37
17 39 36
18 41 38
18 40 38
18 41 38
17 39 36
18 40 38
17 39 37
18 40 38
17 39 37
17 40 37
17 40 37
17 39 37
18 40 37
17 39 37
17 40 37
18 41 38
18 40 38
17 40 37
18 40 38
18 40 37
17 39 37
17 39 37
18 41 38
17 40 38
18 41 39
18 40 38
18 40 38
17 40 37
17 39 37
17 40 37
17 40 37
17 40 37
18 41 38
17 40 37
17 40 37
18 40 38
18 40 37
17 40 37
17 40 37
18 40 38
17 40 37
18 40 38
17 39 37
17 39 37
17 39 37
17 40 37
17 39 37
17 39 37
18 40 38
18 40 38
18 40 38
18 40 38
17 40 37
18 40 37
17 39 37
18 40 37
18 40 38
17 40 37
18 40 38
18 40 38
17 39 37
18 40 38
17 39 37
17 40 37
17 39 37
18 40 38
17 39 37
18 40 38
17 39 37
18 40 38
17 39 37
18 40 38
17 40 37
18 40 38
17 39 37
18 41 38
17 39 37
17 39 37
17 39 37
18 41 39
18 41 38
18 40 38
17 39 37
17 39 36
18 40 38
18 40 38
18 40 38
18 41 38
18 40 37
17 40 38
18 40 38
17 39 37
18 40 38
18 40 38
18 41 38
17 40 37
17 39 37
18 40 38
18 41 39
17 40 37
18 40 38
17 39 37
18 41 38
17 39 37
17 39 37
17 40 37
17 40 37
18 40 37
18 40 38
17 39 37
17 39 37
17 40 37
17 40 38
18 40 37
17 40 37
17 39 37
18 40 37
18 40 38
18 40 37
18 40 38
17 40 37
17 39 37
17 39 37
17 39 37
18 40 37
17 40 37
17 40 37
18 41 38
18 40 37
18 40 38
17 40 37
18 40 38
17 39 37
18 40 37
17 40 37
18 40 38
17 40 37
17 39 37
18 40 37
18 40 37
18 40 38
18 40 37
17 40 37
18 41 38
18 40 38
17 39 37
18 41 38
18 40 38
18 41 39
17 39 37
17 39 37
18 40 37
18 41 38
18 40 38
18 41 38
18 40 38
18 40 37
17 39 37
17 39 37
17 39 36
17 39 37
17 40 37
18 41 38
18 40 38
17 40 37
17 39 37
18 40 38
18 41 38
17 39 37
18 40 38
17 39 37
17 39 37
17 39 36
18 40 38
17 40 37
18 41 38
18 41 39
17 39 37
18 40 38
18 40 38
18 40 37
18 40 38
17 40 37
18 40 38
17 39 37
18 41 38
17 39 37
18 41 39
17 39 37
17 40 37
17 39 37
17 40 37
18 41 38
18 40 38
18 41 39
18 40 38
18 41 38
17 39 37
18 40 38
18 40 38
18 41 38
18 40 37
17 40 37
17 40 37
18 40 38
17 40 37
18 41 38
17 39 37
18 40 38
18 41 38
18 40 37
17 39 37
17 39 37
17 40 37
17 40 37
18 40 38
18 42 39
18 40 38
18 40 38
18 40 38
18 41 38
17 40 38
18 40 38
18 40 37
18 41 38
17 39 37
17 40 37
17 39 37
17 39 36
17 40 37
18 40 38
17 39 37
18 41 38
17 39 37
17 39 37
17 40 37
18 40 38
17 39 37
18 40 38
18 40 38
18 41 38
18 40 38
18 40 38
17 39 37
18 41 38
18 40 38
17 40 37
18 40 37
18 40 38
17 40 37
18 40 37
17 39 36
17 39 37
18 40 38
18 40 37
18 40 38
17 40 37
18 41 38
18 40 38
17 40 37
17 40 37
17 39 36
17 39 37
17 40 37
18 40 37
18 40 37
18 41 39
18 40 37
17 39 37
18 40 38
18 41 38
18 40 37
17 39 37
18 40 38
18 40 37
18 40 37
18 40 38
18 41 38
18 40 38
18 40 38
17 39 37
18 41 38
18 40 38
17 40 37
17 40 37
17 40 37
18 40 38
18 41 38
18 42 39
18 40 37
18 40 38
18 40 38
17 40 37
18 40 38
17 39 37
17 39 37
18 40 38
18 40 38
18 41 38
18 40 38
18 40 37
18 41 38
17 39 37
18 41 39
18 40 38
18 41 38
18 40 37
18 41 39
18 41 38
17 40 37
18 40 38
18 40 38
17 39 37
18 41 38
18 41 38
18 40 38
17 40 37
18 40 37
18 41 38
18 40 38
18 40 37
18 40 38
18 40 38
18 41 38
18 40 37
18 40 37
17 40 37
18 41 38
18 41 38
17 40 37
18 42 39
18 40 38
17 40 37
17 40 37
17 39 37
17 39 37
18 40 38
18 40 38
18 41 38
18 41 39
18 40 38
18 40 38
18 40 38
18 41 38
18 40 38
17 40 37
18 40 38
18 41 38
17 40 37
17 39 36
18 41 39
18 40 38
17 38 36
17 39 37
18 40 37
18 40 38
18 40 38
17 39 37
17 39 37
17 39 37
17 40 37
17 40 37
17 40 37
18 41 38
18 41 39
18 41 38
18 40 38
17 40 37
18 41 38
18 40 37
18 41 38
18 41 38
18 40 38
18 40 38
18 41 38
17 39 37
18 40 38
17 40 37
18 41 38
18 41 38
18 40 38
18 40 37
17 39 37
17 39 37
18 42 39
18 40 38
17 40 37
18 40 38
18 42 39
17 39 37
18 41 39
18 40 38
18 40 37
19 42 40
18 40 38
18 40 38
18 41 38
18 41 38
18 41 38
17 39 37
17 39 37
18 41 38
18 40 38
18 41 38
18 40 38
18 41 39
18 41 39
18 40 38
17 40 37
18 41 38
18 40 38
18 40 38
18 41 38
18 40 38
18 41 38
18 40 38
18 40 38
18 40 38
18 40 37
18 40 37
18 41 39
18 40 38
18 40 38
18 41 38
18 41 39
18 41 38
18 41 38
18 40 37
18 41 38
18 40 38
18 41 38
18 41 38
18 42 39
18 40 38
18 41 38
18 40 38
18 40 38
18 40 37
18 41 38
18 41 38
18 40 38
18 41 38
18 40 38
18 40 38
17 39 36
18 41 38
18 41 39
18 41 38
18 40 38
17 39 37
18 41 39
18 40 38
18 41 38
18 40 38
17 40 37
18 40 38
17 40 37
18 41 38
18 40 37
18 41 38
18 40 38
18 41 38
18 40 38
18 40 38
18 40 37
18 40 38
18 40 37
18 41 38
18 40 37
18 40 38
17 40 37
17 39 37
18 41 38
18 41 38
18 41 38
18 40 38
18 40 38
18 41 38
17 40 37
18 40 37
18 40 38
18 40 38
18 40 38
18 42 39
18 40 38
18 41 39
18 41 38
18 41 39
18 40 37
18 40 38
18 41 38
18 41 39
18 41 39
18 41 39
18 41 38
17 40 37
18 40 38
18 41 38
18 40 38
17 39 37
18 41 39
18 40 38
17 39 37
18 40 38
18 40 37
18 40 38
18 40 37
17 39 37
18 40 38
18 40 38
18 40 37
18 40 37
17 39 37
18 41 38
18 41 38
18 41 38
18 41 38
18 40 37
18 41 38
18 40 38
18 40 38
18 41 38
18 41 38
18 41 39
18 41 38
18 40 37
17 40 37
18 41 38
18 41 38
18 40 38
18 41 38
18 41 38
18 40 37
18 40 38
18 42 39
18 40 37
18 41 38
18 40 37
18 41 38
18 42 39
18 40 38
18 41 39
18 41 38
18 40 38
18 41 39
18 41 38
18 41 38
18 40 37
18 40 37
18 41 38
18 41 39
17 39 37
18 40 38
18 41 38
17 40 37
18 40 37
18 41 38
18 42 39
18 41 38
18 40 37
18 40 38
18 40 38
18 40 38
18 41 39
18 41 38
18 41 38
18 40 37
18 41 38
18 41 38
18 41 38
18 40 38
18 42 39
18 41 38
17 39 37
17 40 37
18 41 38
18 40 37
18 41 38
18 41 38
18 41 38
18 40 38
18 40 37
18 40 38
18 40 38
17 40 37
18 41 39
18 40 38
18 40 37
18 41 38
17 40 37
18 41 39
18 41 38
18 40 37
17 39 37
18 40 38
18 41 38
18 40 37
18 40 38
18 40 37
18 40 37
18 40 38
18 41 38
18 40 38
18 40 37
18 41 39
18 41 38
18 41 38
17 40 37
17 40 37
18 40 37
18 41 38
18 40 38
17 39 37
18 40 38
18 41 38
18 40 38
18 41 39
18 40 37
18 41 38
18 41 38
18 41 39
18 41 38
18 41 38
18 40 38
18 40 38
18 40 37
18 40 38
18 41 39
18 40 37
18 42 39
18 41 38
18 40 38
18 41 38
17 40 37
18 41 38
18 41 38
18 41 39
17 39 37
18 40 38
18 41 38
18 41 38
18 40 38
18 41 39
18 40 37
18 41 39
18 40 38
18 41 38
18 41 39
18 42 39
18 41 38
18 41 38
18 40 38
18 40 38
18 41 38
18 41 39
18 41 38
18 41 38
18 40 37
18 40 38
18 42 39
18 40 38
18 42 39
18 40 38
18 41 39
18 41 39
18 40 37
18 41 39
18 40 38
18 41 38
18 40 38
18 40 37
18 41 39
18 41 38
18 40 38
18 41 38
18 41 38
18 40 37
18 40 37
18 40 37
18 40 37
18 41 38
18 41 38
18 41 38
18 40 37
18 41 38
18 41 38
18 41 38
18 41 38
18 40 38
18 41 39
18 41 38
18 41 38
18 41 38
18 41 38
18 40 38
18 41 38
18 41 38
18 42 39
18 41 39
18 41 38
18 41 38
18 41 38
18 41 38
18 41 39
18 41 38
19 42 39
18 42 39
18 41 38
18 41 38
18 41 38
18 40 38
18 40 38
18 42 39
18 40 38
18 40 37
18 40 38
18 41 38
18 41 38
18 40 38
18 40 37
18 41 38
18 41 38
18 40 38
18 40 38
18 41 38
18 41 38
18 41 38
18 40 37
18 40 38
18 41 39
18 41 38
18 41 38
18 41 38
18 40 38
18 41 38
18 41 38
18 41 39
18 41 39
18 41 39
18 41 38
18 41 39
18 40 37
18 40 38
18 41 39
18 40 38
18 41 38
18 41 38
18 41 38
18 41 38
18 41 38
18 40 38
17 40 37
18 41 39
18 40 38
19 42 39
18 40 38
18 41 39
18 41 38
18 41 38
19 42 39
18 41 38
18 40 37
18 41 38
18 41 38
18 40 37
19 42 39
18 42 39
18 41 38
18 40 38
18 41 38
18 41 39
18 40 38
19 42 39
18 40 38
18 41 38
18 40 37
18 41 39
18 41 39
18 41 38
18 41 38
18 40 38
18 41 39
18 41 38
18 41 39
19 42 40
18 40 37
19 42 39
18 41 39
18 40 37
18 41 38
18 41 38
18 41 38
18 41 38
18 41 38
18 41 38
18 41 38
18 41 39
18 41 39
18 40 38
18 41 38
18 41 39
18 41 38
18 41 39
18 41 38
18 41 38
18 41 38
18 41 39
18 42 39
18 41 38
18 41 38
18 40 37
18 41 38
18 41 39
18 40 38
18 41 38
18 40 37
18 41 38
19 42 40
17 40 37
18 41 38
18 40 37
18 41 39
18 41 39
19 42 39
18 41 38
18 40 37
18 42 39
18 40 38
18 41 39
18 41 38
18 40 38
18 41 38
17 39 37
18 40 38
18 40 37
18 40 38
18 41 39
18 41 39
18 41 38
18 41 38
18 40 38
18 41 38
18 41 39
18 40 37
18 40 38
18 41 38
17 40 37
18 41 38
18 41 39
18 41 39
18 41 39
18 40 37
18 40 37
18 41 38
18 40 37
18 42 39
18 40 38
18 41 38
18 41 38
18 40 38
18 41 39
18 42 39
18 41 38
18 41 39
18 41 38
18 41 39
18 40 37
18 40 38
18 41 38
18 41 38
18 41 38
18 41 38
18 41 38
18 41 38
18 41 39
18 41 38
18 41 38
18 40 37
18 41 39
18 41 39
18 40 38
18 41 38
18 41 39
18 41 39
18 41 38
18 40 37
18 41 38
18 41 38
18 41 38
18 40 38
18 40 38
18 41 38
18 41 39
18 41 38
18 40 38
18 41 38
18 42 39
18 40 38
19 42 39
18 41 38
18 41 38
18 40 38
18 41 38
18 41 38
18 41 38
18 40 37
18 40 38
18 41 39
18 41 38
18 41 38
18 41 38
18 41 39
18 41 38
18 41 38
18 40 38
18 41 38
18 42 39
18 41 38
18 41 38
18 41 38
18 40 38
18 41 38
18 41 38
19 42 39
18 40 37
18 41 38
19 42 39
18 40 37
18 41 38
18 41 38
18 41 38
19 42 39
18 41 38
18 41 38
18 42 39
18 41 38
18 41 39
18 42 39
18 41 38
18 40 37
18 41 38
18 41 38
18 41 38
18 41 38
18 40 38
18 41 38
18 41 38
18 41 38
18 40 38
18 41 39
18 41 38
18 41 39
18 41 39
18 42 39
18 40 37
18 41 38
18 41 38
18 41 38
18 40 38
17 40 37
18 40 37
18 41 38
18 41 38
18 41 39
18 40 37
18 41 38
19 42 39
18 41 38
18 41 38
18 41 38
18 41 39
18 40 37
18 41 38
18 41 39
18 41 38
18 42 39
18 40 37
18 41 38
18 41 38
18 41 39
19 42 39
18 40 38
18 42 39
18 40 38
18 41 38
18 40 38
18 41 38
18 41 39
18 41 38
18 41 38
18 42 39
18 41 38
18 41 38
18 41 38
19 42 40
18 41 38
18 41 39
18 41 38
18 41 39
18 41 38
18 41 38
19 42 39
18 41 38
18 41 38
18 41 38
18 40 37
18 42 39
18 41 39
18 41 38
18 41 38
18 41 39
18 40 38
18 42 39
18 41 38
18 41 38
18 41 39
18 41 39
19 42 39
18 41 39
18 41 38
18 41 38
18 41 39
18 41 39
18 41 39
18 41 38
18 41 38
18 41 38
18 41 38
18 41 38
18 42 39
18 41 39
18 41 38
18 42 39
18 42 39
18 41 38
18 41 38
18 40 38
18 41 38
19 42 39
18 41 38
18 41 38
18 40 37
18 41 39
18 41 38
18 40 37
18 41 38
18 41 39
18 40 38
18 41 38
18 42 39
19 43 40
19 43 40
18 41 39
18 41 38
18 41 38
18 41 39
18 40 38
18 40 38
18 41 39
18 40 38
19 42 39
18 40 38
18 40 38
18 41 38
19 42 39
18 41 38
18 41 38
18 41 38
18 41 38
18 42 39
18 41 38
18 41 38
18 41 38
18 41 39
18 41 38
18 42 39
18 41 38
18 40 37
18 40 37
18 41 39
18 41 38
18 40 38
18 41 38
18 41 38
18 42 39
18 41 38
18 41 38
18 41 38
18 41 38
18 41 38
18 41 38
18 41 39
18 41 38
18 42 39
18 41 38
18 42 39
18 40 38
18 41 38
18 40 37
18 41 39
18 42 39
18 40 38
19 42 39
18 40 38
18 41 39
18 40 38
18 41 38
19 42 40
18 41 38
18 42 39
18 42 39
18 41 38
18 41 39
19 42 40
18 41 38
19 42 39
18 41 38
18 41 38
18 40 38
18 41 38
18 41 38
18 41 38
18 41 38
18 41 38
18 42 39
18 42 39
18 41 38
18 42 39
19 42 39
18 41 38
18 42 39
18 41 38
18 41 39
18 40 37
18 41 38
19 42 39
18 41 38
18 41 38
18 42 39
19 42 39
18 41 38
19 43 40
18 41 38
18 41 38
18 41 38
18 41 39
19 42 39
18 40 38
18 41 38
19 42 39
18 41 38
18 42 39
18 41 38
18 41 38
18 42 39
18 41 38
18 41 38
19 43 40
19 42 39
19 42 39
18 41 38
18 41 38
18 40 38
18 42 39
18 41 38
18 41 38
18 41 38
19 43 40
18 41 38
18 41 38
18 41 39
18 40 38
18 41 38
19 43 40
18 41 38
19 42 39
18 41 38
18 41 38
19 42 39
18 41 38
18 41 38
18 40 37
18 40 37
18 41 38
18 41 38
18 41 38
18 42 39
18 41 39
18 41 38
18 41 38
18 41 38
18 41 38
18 41 38
18 41 38
18 41 38
18 42 39
18 40 37
18 40 38
18 41 39
18 41 38
18 41 38
18 42 39
18 41 38
18 41 38
18 41 38
19 42 39
18 41 38
18 42 39
18 40 38
18 41 38
18 41 38
18 41 39
18 41 38
18 40 38
18 41 38
18 40 38
18 41 38
18 41 39
19 42 39
18 41 38
19 42 39
18 42 39
19 42 39
19 43 40
18 41 39
19 42 39
18 41 38
18 41 38
18 41 38
18 41 38
19 42 39
19 42 39
18 41 38
19 42 39
19 42 39
18 41 38
18 41 38
18 41 39
18 41 39
19 42 39
18 41 38
18 41 38
18 41 38
19 42 39
18 41 38
19 42 39
18 40 38
19 42 39
19 42 39
19 42 39
19 42 39
18 41 38
18 41 39
18 41 38
18 41 38
18 41 38
18 41 38
18 42 39
18 41 38
19 42 39
19 42 39
19 43 40
18 42 39
19 42 39
19 42 39
18 42 39
18 41 38
18 42 39
19 42 39
19 43 40
18 42 39
18 41 39
19 42 39
19 43 40
19 42 39
18 41 38
19 42 39
18 42 39
19 42 39
18 41 38
19 42 39
19 42 39
18 41 39
18 41 39
18 41 38
18 42 39
18 41 38
19 42 39
19 42 39
18 41 38
18 41 38
18 41 39
19 42 39
18 41 39
19 42 39
18 41 39
18 41 38
18 41 38
18 41 38
18 41 38
18 41 38
18 41 38
19 42 39
18 40 37
18 41 38
18 41 38
18 41 39
19 42 39
18 41 38
19 42 39
18 41 38
18 41 38
18 41 39
18 41 38
18 42 39
18 42 39
18 41 38
18 41 38
18 41 38
19 42 39
18 41 38
18 41 39
18 40 38
18 41 38
18 41 38
18 42 39
18 42 39
18 42 39
18 41 38
18 41 38
18 41 38
18 41 38
19 42 39
18 42 39
19 42 39
18 42 39
18 41 38
19 42 39
19 42 39
18 42 39
19 42 39
19 42 39
18 41 38
19 43 40
19 42 39
18 41 39
18 41 38
19 42 39
19 42 39
18 42 39
19 42 39
18 41 38
18 41 38
19 42 39
18 41 38
18 42 39
18 41 38
19 42 39
19 43 40
18 41 38
18 41 39
18 41 39
19 42 39
19 42 39
19 42 39
19 42 39
19 42 39
18 41 38
19 42 39
18 41 38
19 42 39
18 41 38
19 42 39
18 41 38
19 42 39
19 42 39
18 41 38
19 42 39
19 42 39
19 43 40
18 42 39
18 41 38
19 42 39
19 42 39
19 42 39
18 41 39
18 40 38
18 41 39
18 41 38
18 41 38
18 41 39
18 41 38
19 42 39
18 42 39
18 42 39
19 42 39
19 42 39
18 41 38
18 41 39
19 42 39
18 42 39
19 42 39
19 42 39
19 42 39
18 41 38
19 42 39
19 42 39
19 43 40
18 42 39
18 41 38
18 41 38
19 42 39
18 41 38
18 42 39
19 42 39
19 42 39
18 41 38
19 42 39
19 42 39
18 41 38
19 42 39
18 41 38
19 42 39
18 41 38
18 42 39
19 42 39
18 41 39
19 43 40
19 42 39
18 40 38
18 41 38
18 42 39
19 42 39
18 42 39
19 42 39
19 42 39
19 42 39
18 41 38
18 42 39
19 42 39
18 41 39
18 42 39
18 41 38
19 42 39
18 42 39
19 42 39
18 42 39
19 42 39
19 42 39
18 41 38
19 42 39
18 41 38
19 42 39
18 41 38
18 41 39
19 42 39
18 41 39
17 39 37
19 42 39
18 42 39
19 42 39
18 42 39
19 42 39
18 42 39
19 42 39
19 42 39
18 41 38
18 41 39
19 42 39
19 42 39
18 41 39
19 42 39
19 42 39
19 43 39
19 42 39
19 42 39
18 41 38
19 42 39
18 42 39
19 42 39
19 42 39
18 42 39
18 41 38
18 41 38
19 42 39
18 42 39
19 42 39
19 42 39
19 42 39
18 42 39
19 43 40
18 41 39
19 43 40
19 42 39
18 41 38
18 41 38
19 42 39
19 43 40
19 42 39
19 42 39
19 42 39
18 41 38
19 43 40
19 42 39
19 42 39
19 42 39
19 42 39
19 42 39
19 42 39
19 42 39
19 42 39
18 40 38
19 42 39
19 42 39
19 42 39
19 42 39
18 42 39
19 42 39
19 42 39
19 43 40
18 41 38
19 42 39
18 41 39
18 42 39
18 41 38
19 42 39
18 42 39
19 42 39
18 42 39
19 42 39
18 42 39
19 42 39
18 41 38
18 41 39
19 42 40
19 42 39
18 41 38
19 43 40
19 42 39
19 42 39
18 42 39
19 42 39
19 43 40
18 41 38
19 42 39
19 42 39
18 41 38
18 41 38
18 41 38
19 43 40
18 41 38
18 41 38
19 42 39
19 42 39
18 41 38
18 41 38
18 41 38
18 41 39
18 41 39
18 41 39
19 42 39
19 43 40
18 42 39
18 41 39
18 42 39
18 42 39
18 41 38
19 42 39
19 42 39
18 41 38
18 42 39
18 41 38
19 43 40
19 42 39
18 41 39
18 41 39
19 42 39
19 43 40
18 41 38
19 42 39
19 42 39
18 41 38
19 42 39
19 42 39
19 42 39
19 42 39
18 41 38
19 43 40
18 40 38
18 41 38
19 42 39
19 42 39
19 42 39
19 42 39
19 43 40
19 42 39
18 42 39
18 41 38
18 41 39
18 42 39
19 42 39
19 42 39
18 41 38
18 41 38
18 42 39
19 43 40
18 41 38
18 41 39
19 42 39
19 43 40
19 42 39
19 43 40
19 42 39
19 42 39
19 43 40
18 41 39
19 42 39
19 43 40
19 42 39
19 42 39
19 42 39
19 42 39
19 42 39
18 41 38
19 43 40
19 42 39
19 42 39
19 42 39
18 41 39
19 42 39
19 43 40
18 41 39
19 42 40
18 41 38
19 42 39
19 42 39
19 43 39
18 41 38
19 42 39
19 42 39
19 42 39
19 42 39
19 43 40
19 42 39
19 42 39
19 42 39
19 42 39
19 43 39
19 42 39
19 42 39
19 43 40
19 42 39
19 42 39
18 42 39
18 41 38
19 43 39
18 41 38
19 42 39
19 43 40
18 41 38
19 42 39
19 42 39
18 41 38
19 42 39
19 43 39
19 42 39
19 42 39
19 42 39
19 43 40
18 41 38
19 42 39
18 41 38
19 42 39
18 42 39
19 42 39
18 42 39
19 42 39
19 43 40
18 41 39
19 42 39
18 41 38
19 42 39
18 41 38
18 42 39
19 43 40
18 41 38
19 42 39
19 42 39
19 42 39
19 42 39
19 43 40
19 42 39
18 41 39
18 42 39
19 43 40
19 42 39
19 42 39
19 42 39
18 42 39
19 43 40
19 42 39
18 41 38
18 41 38
18 41 38
18 41 39
19 43 40
18 41 38
19 42 39
19 43 40
19 42 39
19 42 39
19 42 39
19 42 39
19 43 40
19 43 39
19 42 39
19 42 39
18 42 39
18 41 39
19 43 40
19 42 39
19 42 39
19 42 39
19 42 39
19 42 39
19 42 39
19 42 39
19 43 40
19 42 39
19 42 39
19 43 40
19 43 40
19 42 39
19 43 40
19 42 39
18 41 38
18 41 39
19 42 39
18 41 38
19 43 40
19 42 39
19 43 40
19 42 39
19 42 39
19 42 39
19 43 40
19 43 40
19 43 40
19 42 39
19 43 40
19 43 40
19 42 39
19 42 39
19 42 39
19 42 39
19 42 39
18 42 39
19 42 39
19 42 39
18 41 38
18 42 39
18 41 38
19 43 40
19 42 39
19 43 40
19 42 39
19 42 39
19 42 39
18 41 38
19 43 40
19 43 40
19 43 39
18 42 39
19 42 39
19 42 39
19 42 39
19 42 39
19 42 39
19 42 39
19 43 40
19 42 39
19 42 39
18 41 38
19 43 40
19 43 39
18 41 38
19 44 40
19 42 39
19 42 40
19 42 39
19 43 40
19 43 40
19 43 39
18 41 38
19 42 39
18 42 39
18 42 39
18 42 39
19 42 39
18 42 39
19 42 39
19 42 39
19 42 39
19 42 39
18 41 38
19 42 39
18 42 39
19 42 39
19 43 40
19 43 40
18 41 38
19 42 39
19 42 39
19 42 39
19 42 39
19 42 39
18 41 38
19 42 39
19 43 40
19 43 40
18 42 38
18 41 38
18 41 38
19 42 39
19 42 39
19 43 40
19 42 39
19 43 39
18 41 38
19 43 40
19 42 39
19 42 39
19 42 39
19 42 39
18 41 38
18 41 38
19 43 40
19 42 39
19 42 39
18 42 39
19 43 40
19 42 39
18 40 37
19 42 38
19 43 39
19 43 40
19 42 39
19 42 39
19 43 40
19 42 39
18 41 38
19 42 39
19 42 39
19 42 39
19 43 40
19 43 40
19 43 39
19 43 39
19 42 39
19 43 40
19 43 40
18 40 38
19 43 40
19 42 39
19 42 39
19 42 39
19 42 39
19 42 39
19 43 39
18 41 38
18 42 38
19 42 39
19 42 39
19 43 40
19 43 40
19 43 40
19 42 39
19 42 39
19 43 40
19 43 40
19 42 39
19 43 40
19 43 40
19 43 40
19 42 39
19 43 40
19 42 39
19 43 40
19 43 40
18 41 38
19 43 40
19 42 39
19 43 40
19 42 39
19 43 40
19 42 39
19 43 40
19 42 39
18 41 38
19 43 39
19 42 39
19 42 39
19 42 39
18 41 38
19 43 40
19 42 39
19 42 39
19 43 40
20 44 41
19 43 40
19 42 39
19 42 39
19 42 39
19 42 39
18 41 38
19 42 39
18 41 38
19 43 40
19 43 40
18 41 38
18 42 39
19 42 39
19 42 39
19 42 39
19 43 40
19 42 39
19 43 40
19 43 40
18 42 39
19 43 40
19 43 40
19 42 39
18 41 38
19 42 39
19 43 40
19 43 40
19 42 39
18 41 38
19 42 39
19 42 39
19 42 39
19 42 39
19 43 40
19 43 40
19 42 39
19 42 39
19 42 39
18 42 39
19 42 39
19 42 39
19 43 40
19 43 40
19 43 40
18 41 38
18 41 38
18 42 39
19 42 39
19 42 39
19 43 40
19 42 39
19 43 40
19 43 39
19 44 41
19 43 40
19 43 40
19 42 39
18 41 39
19 43 40
19 43 40
19 43 40
20 44 41
18 41 38
19 42 39
19 43 40
19 42 39
19 42 39
19 43 40
19 42 39
19 42 39
19 42 39
19 43 39
19 43 40
19 42 39
20 44 41
19 42 39
19 44 40
19 43 40
19 42 39
19 42 39
19 42 39
19 42 39
19 42 39
19 43 39
19 43 40
18 41 38
19 43 40
19 43 40
19 42 39
19 43 40
19 42 39
19 43 40
19 43 40
19 42 39
19 42 39
19 43 40
19 43 39
19 42 39
19 43 40
19 43 39
19 42 39
19 43 40
19 43 40
19 43 40
20 45 41
19 43 40
19 42 39
19 43 40
19 42 39
19 43 40
19 43 40
18 41 38
19 43 39
19 43 39
19 42 39
18 41 38
19 42 39
19 42 39
19 44 40
19 42 39
19 43 40
19 43 40
18 41 38
19 42 39
19 43 40
19 42 39
19 43 40
19 42 39
19 42 39
19 42 39
19 42 39
19 42 39
19 43 40
19 42 39
19 43 40
19 42 40
19 43 40
19 42 39
19 42 39
19 42 39
19 42 39
18 42 39
19 42 39
19 42 39
19 43 40
19 42 39
19 42 39
19 43 40
19 42 39
19 42 39
19 43 40
19 42 39
19 42 39
18 41 38
19 42 39
19 43 40
19 44 40
19 43 40
19 43 40
19 42 39
19 42 39
19 42 39
19 43 40
19 43 40
19 43 40
19 42 39
20 44 41
19 42 39
18 41 38
18 41 38
19 42 39
19 43 40
19 42 39
19 42 39
19 43 40
19 43 40
19 43 40
19 43 40
19 43 40
19 43 40
19 43 40
19 43 40
19 42 39
19 42 39
19 43 40
19 43 39
19 43 40
19 42 39
19 43 40
19 43 40
19 43 40
19 43 40
19 42 39
19 42 39
19 43 39
19 42 39
19 44 40
19 43 39
19 42 39
19 43 40
19 43 40
19 42 39
20 44 40
19 43 39
19 42 39
19 43 40
19 43 40
19 42 39
18 41 37
19 42 39
19 43 40
19 43 40
19 43 40
19 43 40
19 42 39
19 43 40
19 42 39
19 42 39
19 43 40
19 43 40
19 42 39
19 42 39
19 43 40
19 43 40
19 43 40
19 42 39
19 42 39
19 42 39
20 44 41
19 43 40
19 43 39
19 42 39
19 43 40
19 43 40
19 43 40
19 43 40
19 43 40
19 44 40
19 43 40
19 42 39
19 42 39
19 42 39
19 42 39
19 42 39
19 42 39
19 43 40
19 42 39
18 41 38
19 43 40
19 43 40
19 42 39
19 43 40
19 42 39
19 42 39
19 42 39
19 43 40
19 42 39
18 41 38
19 42 39
19 42 39
19 42 39
19 42 39
19 43 40
19 42 39
19 42 39
19 43 40
19 44 40
19 42 39
19 43 40
19 43 40
19 42 39
19 42 39
19 43 40
19 42 39
19 43 40
19 43 40
19 43 40
19 43 40
19 43 40
19 42 39
19 43 40
19 42 39
19 42 39
19 42 39
19 44 40
19 42 39
19 43 40
19 43 40
19 44 40
19 43 39
19 42 39
19 42 39
19 43 40
19 43 40
19 42 39
19 43 40
19 42 39
19 42 39
19 42 39
19 43 39
19 43 40
19 42 39
19 43 40
19 43 40
19 43 40
19 43 40
19 43 40
19 43 39
19 43 40
19 43 40
19 43 40
19 44 40
19 43 40
19 43 39
19 42 39
20 44 40
19 42 39
19 43 40
19 42 39
19 43 40
19 43 40
19 43 40
19 43 40
19 43 40
19 44 40
19 43 40
19 43 39
19 42 39
19 43 40
19 42 39
19 43 40
19 43 40
19 42 39
19 44 40
19 43 40
19 42 39
19 43 39
19 43 40
19 43 40
19 42 39
19 43 40
19 42 39
19 42 39
19 43 40
20 44 40
19 43 39
20 44 40
19 43 40
19 43 40
19 42 39
19 43 40
19 43 40
19 43 40
19 42 39
18 41 38
19 44 40
18 41 38
19 43 40
19 42 39
19 43 40
19 43 40
19 43 40
19 42 39
19 42 39
19 43 40
19 43 40
19 43 40
19 43 39
19 43 39
19 43 40
19 42 39
19 43 40
19 42 39
19 43 40
19 42 39
18 41 38
19 43 40
19 42 39
19 42 39
19 43 40
19 42 39
19 43 40
19 42 39
19 43 40
18 41 38
19 42 39
19 43 40
19 42 39
19 42 39
19 43 39
19 42 39
19 43 40
19 43 40
19 42 39
19 42 39
19 43 39
19 43 39
19 43 40
19 42 39
19 43 40
19 42 39
19 43 39
20 44 40
19 44 40
19 42 39
19 43 40
19 43 40
19 43 40
19 43 40
19 43 40
19 42 39
19 43 40
19 42 39
19 43 40
19 43 40
19 43 40
19 43 39
18 41 38
19 43 40
19 43 39
19 42 39
19 42 39
20 44 41
20 45 41
20 44 40
19 42 39
19 43 40
19 42 39
20 44 40
20 44 40
19 43 40
19 43 40
19 43 40
19 43 40
19 42 39
19 44 40
19 43 40
19 43 40
19 43 40
19 43 40
19 43 40
19 44 40
19 43 40
19 42 39
20 44 40
19 43 40
19 43 40
20 44 40
19 43 40
19 42 39
19 42 39
19 43 40
19 43 40
19 44 40
19 42 39
19 43 40
19 44 40
19 42 39
19 43 40
19 43 40
19 43 40
19 43 39
19 43 40
19 43 40
19 43 40
19 43 40
19 43 40
19 43 40
20 44 41
19 43 40
19 43 40
19 44 40
19 42 39
19 42 39
19 43 39
19 44 40
19 42 39
20 44 41
19 43 40
20 44 41
19 43 40
19 42 39
18 41 38
19 42 39
19 42 39
19 42 39
19 43 40
19 42 39
19 42 39
19 43 40
19 42 39
19 42 39
19 42 39
19 43 40
19 43 40
19 42 39
19 43 40
19 43 40
19 42 39
19 42 39
19 42 39
19 43 40
19 43 40
19 43 40
19 43 39
19 42 39
19 42 39
19 43 40
19 42 39
19 43 40
19 43 39
19 43 40
19 43 40
19 43 40
20 44 40
19 43 40
19 43 40
19 42 39
19 43 40
19 42 38
19 43 40
19 43 39
19 43 40
19 43 40
19 44 40
19 42 39
19 43 40
19 43 40
19 43 40
19 42 39
19 42 39
19 43 40
19 42 39
19 43 40
20 44 41
19 42 39
18 41 38
19 43 40
19 43 39
19 42 39
20 44 41
19 43 39
19 42 39
19 43 40
19 43 40
19 43 40
19 43 40
19 44 40
19 42 39
19 42 39
19 44 40
19 43 39
20 44 41
20 44 40
19 43 40
19 43 40
19 43 40
19 42 39
19 43 40
20 44 41
20 44 41
19 43 40
19 43 40
19 43 39
19 43 40
19 43 40
19 43 39
19 43 40
19 44 40
19 42 39
19 43 39
19 43 40
19 43 40
19 43 40
19 43 40
19 44 40
19 43 40
19 43 40
20 44 41
19 43 40
19 43 40
20 44 41
19 43 39
20 44 41
20 44 40
19 43 40
19 42 39
19 44 40
19 43 39
19 43 40
19 43 39
19 43 40
19 43 40
20 44 40
19 43 40
19 43 40
19 43 40
19 43 39
20 44 41
20 44 40
19 43 40
19 43 40
19 43 40
19 43 40
19 44 40
19 42 39
19 43 40
19 43 40
19 42 39
19 43 40
19 44 40
19 43 40
19 43 40
19 42 39
19 42 39
19 43 40
19 43 40
20 44 40
19 43 40
19 43 40
19 43 40
19 43 40
19 42 39
19 43 40
19 43 40
19 43 39
20 44 41
19 43 40
19 43 40
19 43 40
19 43 40
19 43 40
19 43 40
19 43 40
19 43 40
19 43 40
19 43 40
19 43 39
19 43 40
19 43 40
19 43 39
19 43 40
20 44 41
19 42 39
19 43 40
19 42 39
19 43 40
19 42 39
19 43 40
19 42 39
20 45 42
19 44 40
20 44 41
19 43 40
19 43 40
20 44 41
19 43 40
20 44 40
20 44 40
20 44 41
19 43 40
19 43 40
19 43 40
19 43 40
20 44 41
20 44 41
20 44 40
20 44 41
19 43 39
20 44 41
19 43 39
19 44 40
19 43 40
19 43 40
19 43 40
20 44 40
19 43 40
19 43 40
19 42 39
20 45 42
19 43 40
20 44 41
19 44 40
19 43 40
20 44 40
20 44 41
19 42 39
19 43 40
19 43 40
19 43 39
19 43 40
19 43 40
20 44 41
19 43 40
20 44 40
20 44 40
19 43 39
19 42 39
20 44 40
20 44 40
19 43 40
19 43 40
20 44 40
19 43 40
19 43 40
19 43 40
19 43 40
19 43 39
20 44 41
19 43 40
19 43 40
19 43 40
19 43 40
20 44 40
20 44 40
20 44 40
20 44 40
20 44 41
19 43 40
19 43 39
19 44 40
18 41 38
19 42 39
19 43 40
19 44 40
20 44 40
19 44 40
19 42 39
19 43 40
19 42 39
20 44 41
19 43 40
19 43 40
19 43 40
18 41 38
19 42 39
19 43 40
19 42 39
19 44 40
19 43 40
19 42 39
19 42 39
20 44 40
20 44 40
19 42 38
19 43 39
20 44 41
19 43 40
19 43 40
19 43 40
20 45 41
19 43 40
19 43 40
19 43 40
19 43 40
19 43 40
20 44 40
20 44 41
20 44 41
19 43 40
19 43 40
19 42 39
19 42 39
19 43 40
19 43 39
19 42 39
19 43 40
19 43 40
20 44 41
20 44 41
20 44 40
19 44 40
19 43 40
19 43 40
20 44 41
20 44 40
19 43 40
19 43 40
20 44 40
20 44 40
19 43 40
19 44 40
19 43 40
19 43 40
19 43 40
20 44 41
19 43 40
20 44 41
20 44 41
19 43 39
20 44 40
20 44 40
19 43 40
19 43 40
20 44 41
19 43 39
19 43 40
19 43 40
20 44 40
20 45 42
19 43 40
19 43 40
19 43 40
19 43 40
20 44 41
19 43 39
19 43 40
19 43 40
19 44 40
20 44 41
19 44 40
20 44 40
19 43 40
19 43 40
19 43 40
19 43 40
20 44 41
20 44 41
19 44 40
20 44 41
19 43 39
19 44 40
19 43 39
19 43 39
20 44 40
20 45 41
20 44 40
20 44 41
19 43 39
19 43 39
20 44 40
19 43 40
20 44 41
19 43 40
20 44 41
20 44 41
20 44 40
20 44 41
20 44 41
19 43 40
20 44 40
19 43 40
19 43 40
19 43 40
19 43 40
20 44 41
19 42 39
19 43 40
19 43 40
19 43 40
19 43 40
20 44 40
19 43 40
19 43 40
20 44 41
19 43 39
19 42 39
19 43 40
20 44 41
19 43 40
20 44 41
19 43 40
19 43 40
19 43 40
20 44 40
19 43 39
19 42 39
20 44 40
20 44 41
19 43 40
19 43 39
20 45 41
19 43 40
19 43 40
19 43 40
20 44 40
19 43 40
19 43 40
19 43 40
20 44 41
19 44 40
19 43 40
20 44 40
20 44 41
19 43 40
20 44 41
20 44 41
19 43 40
19 43 40
19 43 40
19 43 40
20 44 41
19 43 40
20 44 40
19 44 40
19 43 40
20 44 40
19 42 39
20 45 41
19 43 40
19 43 40
19 43 40
20 44 41
20 44 41
21 46 42
19 43 40
19 44 40
19 43 40
20 44 41
19 43 40
20 44 41
19 43 40
19 43 40
19 43 40
20 44 41
20 45 41
19 43 40
20 44 41
20 44 40
19 43 40
19 43 40
20 45 41
20 44 40
19 43 40
20 45 41
20 44 41
20 44 41
20 44 40
19 43 40
20 44 40
20 44 40
19 43 40
19 43 40
20 44 41
20 44 40
20 44 40
19 43 40
19 43 40
20 44 41
20 44 41
20 44 41
20 44 41
19 43 39
20 44 41
20 44 41
20 44 41
20 44 40
19 43 40
20 44 41
20 44 40
20 44 40
20 44 41
20 44 41
20 45 41
20 44 41
19 43 40
19 43 39
20 44 41
19 43 40
19 43 40
20 44 41
19 43 40
19 43 40
19 43 39
19 43 40
19 42 39
19 42 39
19 43 40
19 43 39
19 43 40
19 43 39
19 42 39
19 43 40
19 42 39
19 43 39
19 43 40
20 44 41
19 44 40
19 44 40
19 44 40
19 43 40
19 43 40
19 43 40
20 44 40
19 43 40
19 44 40
19 43 39
19 43 39
19 43 39
20 44 40
20 44 40
20 44 40
19 42 39
19 43 40
19 43 40
20 44 40
19 43 40
19 43 40
20 44 40
19 43 40
19 43 40
20 44 40
20 45 41
19 43 40
20 44 41
20 44 41
19 43 40
19 43 39
20 44 40
20 44 41
19 43 40
20 44 41
20 44 40
20 44 40
19 43 40
20 44 41
20 44 40
20 44 41
19 43 40
20 45 41
19 44 40
19 43 40
20 44 41
19 43 40
19 43 40
19 43 40
19 43 40
20 44 41
19 43 40
20 44 40
19 43 40
20 44 40
20 44 40
19 43 40
20 44 40
20 46 42
20 45 41
20 43 40
20 44 41
20 45 41
20 45 41
20 44 41
20 44 41
20 44 40
19 43 40
19 44 40
20 45 41
20 44 41
20 44 40
20 45 41
20 45 41
20 44 41
20 44 41
20 44 41
20 45 42
20 44 40
20 44 41
20 45 42
19 42 39
19 43 39
20 44 40
19 43 40
20 44 41
20 44 41
20 44 41
20 45 41
20 44 41
20 44 41
20 45 41
20 44 40
20 44 40
20 44 41
20 44 40
20 44 40
20 44 41
20 44 40
19 43 40
19 43 40
20 45 42
20 45 41
19 43 39
19 42 38
20 44 40
19 43 40
19 43 40
19 43 40
19 43 40
20 44 41
19 43 40
19 42 39
20 44 41
20 44 41
19 43 40
19 43 40
19 43 40
19 44 40
19 43 40
20 44 41
19 43 39
19 43 40
20 44 40
19 43 40
19 43 40
19 43 40
20 44 41
20 44 40
19 43 40
19 42 39
20 44 40
19 43 40
20 44 41
19 43 40
19 43 40
19 43 40
20 44 40
19 43 40
19 42 39
20 45 41
20 44 40
20 45 41
19 43 40
19 43 39
20 44 41
20 44 41
20 45 41
20 45 41
20 44 40
20 45 42
20 44 41
20 45 41
20 44 41
20 44 40
20 45 41
20 44 40
19 43 40
19 43 39
20 44 40
20 44 41
19 43 40
20 45 41
19 43 40
20 44 40
20 45 42
20 44 41
19 43 40
20 44 40
19 43 39
20 44 40
20 44 40
20 44 40
20 45 41
20 45 41
20 44 40
20 45 41
19 43 40
20 44 41
19 43 40
20 44 40
20 44 40
19 43 40
20 44 40
20 45 41
20 44 40
20 45 42
19 43 40
20 44 41
20 44 40
20 45 41
20 45 41
20 44 41
20 44 41
20 44 40
20 44 40
19 43 40
19 43 40
20 44 40
20 44 41
20 45 42
19 43 39
20 45 42
20 44 41
20 45 41
20 45 41
20 44 41
20 44 40
20 45 42
20 44 41
20 45 41
20 44 40
20 44 41
20 44 41
19 43 39
20 44 41
20 44 40
20 44 40
20 45 42
19 43 39
19 43 40
20 44 41
20 44 41
20 44 40
19 43 40
19 43 40
19 43 40
19 43 40
20 44 41
19 43 40
19 43 40
20 44 41
19 43 40
19 43 40
20 44 41
19 44 40
20 45 41
19 42 39
19 43 40
19 43 40
19 43 40
20 44 40
19 42 39
19 43 40
19 43 40
20 44 41
19 43 40
20 44 40
20 44 40
20 44 41
19 43 40
20 44 41
19 42 39
20 44 41
19 43 40
20 44 41
20 44 41
20 44 40
20 44 40
20 44 40
20 44 40
19 44 40
20 44 40
19 43 40
20 44 40
20 44 40
20 44 40
20 44 40
20 44 41
20 45 41
20 45 41
20 45 41
20 44 41
20 44 40
20 44 41
19 43 40
20 44 40
20 44 41
20 44 41
20 44 40
20 44 41
20 43 40
20 44 41
20 45 41
20 45 41
20 44 41
20 44 40
20 44 40
20 45 41
20 44 40
19 43 39
20 44 41
20 44 41
20 45 41
20 44 40
19 43 40
20 44 41
20 44 41
20 45 41
20 44 41
20 45 41
20 44 41
20 45 41
20 44 41
20 45 41
20 44 41
20 44 40
19 43 40
20 44 40
20 44 41
20 44 41
20 44 41
20 44 40
20 45 41
19 43 40
20 45 41
20 44 41
20 44 41
20 45 41
20 44 40
20 45 41
19 43 40
20 45 41
20 45 41
20 44 40
20 44 41
20 44 41
20 44 41
20 44 40
20 45 41
20 45 41
20 44 41
20 45 41
20 44 41
19 43 39
19 43 40
19 43 40
20 45 41
20 44 41
20 45 41
20 45 41
20 44 41
20 44 41
20 44 41
19 43 39
19 42 39
19 44 40
19 43 40
19 44 40
20 44 41
19 43 40
19 43 39
19 43 40
19 43 40
19 43 40
19 43 40
19 43 39
19 43 40
19 43 40
20 45 42
20 44 41
19 42 39
20 45 42
19 43 40
20 44 40
19 42 39
20 44 41
20 44 41
20 44 41
20 44 41
20 44 41
19 43 40
20 44 40
19 43 40
20 45 41
20 44 40
20 43 40
20 45 41
19 43 40
20 44 41
20 44 41
20 44 40
20 45 42
20 44 41
20 44 41
20 44 41
20 44 41
19 43 40
20 44 41
19 43 40
20 44 41
20 45 41
20 44 40
20 45 41
20 44 40
20 44 41
20 44 41
20 45 41
20 44 41
20 44 40
19 43 40
20 44 41
20 44 40
20 44 40
20 44 41
20 45 41
20 44 40
20 44 40
20 45 41
20 44 41
20 44 41
20 44 41
20 46 42
20 45 41
20 45 42
19 43 39
20 45 42
19 43 40
20 45 41
20 44 40
20 45 41
20 45 41
20 44 41
20 45 41
20 44 40
20 44 41
20 44 40
20 44 41
20 44 40
20 44 40
20 44 40
20 44 41
20 44 41
20 45 42
20 44 40
20 45 41
20 45 41
20 45 41
20 44 41
20 45 41
20 45 42
20 45 41
20 44 40
19 43 39
20 45 42
20 45 41
20 44 41
19 43 40
20 44 41
20 44 41
20 45 41
20 45 42
20 45 42
20 44 40
20 44 41
19 43 40
20 44 40
20 44 41
20 44 40
19 43 39
20 44 40
20 44 41
20 45 41
20 45 41
20 44 40
19 43 40
20 44 40
20 44 40
19 43 39
19 42 39
19 43 39
19 43 40
20 44 40
19 43 40
20 44 40
19 43 40
19 43 40
20 44 41
19 42 39
19 43 40
20 45 42
20 44 41
20 44 41
20 44 41
19 43 39
20 44 40
19 43 40
20 45 41
19 43 40
20 45 41
20 44 41
20 44 40
20 45 41
19 43 40
20 44 40
19 43 40
19 43 39
20 44 41
19 43 40
20 45 41
19 43 40
20 45 41
20 44 40
20 44 40
19 42 39
20 45 41
20 45 41
20 45 41
20 44 40
20 44 41
19 43 39
20 45 41
20 44 40
20 44 40
20 46 42
20 44 41
20 45 42
20 44 41
20 44 40
20 44 41
20 45 42
20 44 41
20 45 42
20 44 40
20 45 41
20 44 40
20 44 40
20 44 41
20 45 41
20 45 41
20 44 40
20 44 40
20 45 41
20 45 41
20 44 40
20 44 40
20 44 41
20 44 40
19 43 40
20 44 40
20 44 40
20 45 42
20 45 41
20 45 41
20 44 41
20 44 41
20 44 40
20 45 41
20 44 41
20 44 40
21 46 42
20 44 41
20 45 41
21 46 42
20 45 42
20 44 41
20 45 41
20 44 41
20 44 41
20 45 41
20 44 41
20 45 42
21 46 42
20 44 40
20 44 41
20 45 41
20 45 41
20 45 41
20 44 41
20 45 41
20 45 41
20 45 41
20 45 42
20 43 40
20 45 42
20 45 41
20 45 41
20 44 40
20 44 41
20 45 41
20 45 41
20 45 41
20 45 41
20 44 41
19 43 40
20 44 40
20 44 41
20 45 42
19 43 40
20 44 41
20 44 40
20 44 40
20 44 41
19 43 40
19 43 40
20 44 40
20 44 40
20 44 40
19 43 40
20 44 40
20 44 41
20 44 40
20 44 41
20 44 41
20 44 41
20 44 40
20 44 41
20 44 41
20 44 41
20 44 41
20 44 41
20 45 42
20 45 42
19 43 39
20 44 41
20 44 41
20 44 41
20 44 40
20 44 41
20 45 41
20 46 42
20 44 40
20 45 41
20 45 41
20 45 41
20 44 41
20 44 41
20 44 41
20 45 41
20 44 41
20 45 41
20 45 41
20 44 40
20 44 41
20 45 41
19 43 39
20 44 40
20 45 41
20 44 41
20 44 41
20 44 40
20 44 40
20 44 41
20 44 41
20 44 41
20 45 41
20 45 42
20 45 41
20 44 41
20 44 41
20 45 41
20 45 42
20 45 41
20 45 41
21 46 43
20 45 41
20 45 42
20 45 41
20 45 41
21 46 42
20 45 41
21 46 42
20 46 42
20 45 41
20 45 41
20 45 41
20 45 41
20 44 41
20 44 41
20 44 41
20 44 40
20 45 41
20 44 41
20 45 42
20 45 41
20 45 41
20 44 40
20 45 41
20 45 41
20 45 41
20 44 41
20 45 41
20 45 41
20 44 41
20 44 40
21 46 42
20 45 41
20 44 40
20 44 41
20 45 42
20 43 40
20 44 41
20 45 42
20 45 41
20 45 41
20 45 42
20 44 40
20 44 40
20 45 41
20 45 41
20 45 41
21 46 42
20 44 40
20 44 41
20 44 40
19 43 40
20 44 41
20 44 40
20 45 41
20 44 40
19 43 40
20 44 41
20 44 41
19 43 40
19 43 40
20 44 40
20 45 41
19 42 39
19 43 40
20 44 41
20 44 41
20 45 41
19 43 40
20 44 41
20 44 40
20 45 42
20 45 41
19 43 40
20 45 42
19 43 40
19 43 40
20 44 41
20 45 42
19 43 40
20 45 41
20 44 41
20 44 40
20 44 41
20 45 42
20 44 41
20 44 41
20 44 41
19 43 40
20 45 41
20 44 41
20 45 41
20 44 40
20 45 41
21 46 42
20 44 41
20 45 41
20 44 40
20 44 40
19 43 40
20 44 40
20 45 42
20 45 41
20 44 41
20 44 41
20 45 41
20 44 41
20 44 41
20 44 41
20 44 41
20 45 41
20 44 41
20 45 41
20 44 41
20 45 42
20 44 41
20 44 41
20 45 41
20 45 41
21 46 42
20 45 41
20 44 40
20 44 41
20 45 41
21 46 42
20 45 41
20 44 41
20 45 42
21 46 42
20 45 42
20 45 41
21 46 42
20 45 41
20 45 41
20 45 41
20 45 41
21 46 42
20 45 41
21 46 42
20 45 41
20 45 42
21 46 42
20 45 41
20 44 41
20 45 41
21 46 42
20 44 40
21 46 42
21 46 42
20 44 41
20 44 41
20 44 41
20 45 42
20 45 41
20 45 42
20 44 41
20 44 41
20 45 41
20 45 42
20 45 41
20 45 42
20 45 41
20 45 42
20 44 40
20 44 40
20 44 40
20 45 41
20 45 41
20 45 41
20 44 40
20 44 41
20 44 40
20 44 41
19 43 40
20 44 41
20 44 41
20 44 40
19 43 40
20 43 40
20 45 42
19 43 40
20 45 42
20 44 41
19 42 39
20 45 42
20 44 40
20 44 41
20 44 41
20 45 41
20 45 42
20 44 41
20 45 41
19 43 40
20 45 41
20 45 41
20 43 40
20 45 41
20 45 41
20 44 41
19 43 40
20 45 41
20 45 41
20 44 40
20 44 41
20 44 41
20 44 41
20 44 40
20 45 41
20 44 41
20 45 41
20 44 41
20 44 40
20 44 40
19 43 40
20 45 41
21 46 42
20 45 41
20 43 40
20 45 42
20 45 41
20 45 41
20 45 41
20 45 41
20 45 41
20 44 40
20 45 41
20 45 41
20 44 41
20 45 41
20 44 40
20 46 42
21 46 42
20 45 42
20 44 41
20 45 41
20 44 41
20 45 41
20 45 42
20 45 41
20 45 41
20 45 41
21 46 42
20 45 41
20 44 40
21 46 42
20 45 41
20 45 41
20 45 41
20 45 41
20 44 41
20 45 41
20 45 41
20 45 42
20 45 42
20 45 41
20 45 41
20 45 41
20 45 41
20 45 41
20 45 41
20 45 42
20 45 41
20 45 41
20 45 42
20 45 42
20 45 41
20 45 41
20 45 41
20 45 41
20 45 42
21 46 42
20 45 41
20 45 41
21 46 42
20 45 42
20 45 41
20 45 41
20 44 41
20 45 41
21 46 43
20 44 41
21 46 42
20 45 41
20 44 40
20 44 41
20 45 41
20 45 41
21 46 42
20 44 41
20 44 41
20 44 40
20 44 40
20 44 40
19 43 40
20 44 40
20 45 41
19 43 40
20 44 40
20 44 41
19 43 40
20 44 40
19 43 40
20 44 40
20 45 41
20 44 41
20 44 41
20 45 41
20 44 41
20 44 41
21 46 42
20 44 40
21 46 42
20 45 41
20 44 40
20 43 40
20 44 41
20 44 41
20 45 41
20 45 42
20 45 41
20 45 41
20 44 41
20 44 41
20 44 41
20 44 41
21 46 42
20 45 42
20 44 41
20 44 40
20 44 41
20 45 42
20 45 41
20 45 41
20 44 40
21 46 42
21 46 42
20 44 40
20 45 41
20 45 42
20 45 42
20 44 41
20 44 41
20 45 41
20 45 41
20 45 42
20 44 41
20 45 42
21 46 42
20 44 40
20 44 41
20 45 42
20 45 42
21 46 43
20 44 40
20 45 41
20 44 41
20 44 40
20 45 42
20 45 42
20 45 41
20 45 41
20 44 41
20 45 41
20 45 41
20 46 42
20 45 41
20 45 41
21 46 42
21 46 42
20 45 41
20 44 40
20 45 41
20 45 41
20 45 41
20 44 40
20 45 41
20 45 42
21 46 42
21 46 42
20 44 41
20 44 40
20 44 41
20 45 42
20 45 42
20 45 41
20 45 41
20 45 41
20 45 41
20 45 42
21 46 43
21 46 42
20 44 41
20 44 40
20 45 41
20 45 41
20 45 42
21 46 42
20 45 42
21 47 43
20 45 41
20 45 41
21 46 42
20 45 41
20 45 41
21 46 42
20 45 41
20 45 41
21 46 42
21 46 42
20 45 42
20 44 41
20 45 41
20 44 41
20 44 40
20 45 42
20 45 41
20 44 41
20 45 41
20 44 41
20 44 40
20 45 41
20 44 40
20 44 40
20 44 41
20 46 42
20 44 41
19 43 40
20 45 41
20 45 41
20 45 41
20 44 41
20 44 41
20 45 41
19 43 40
20 45 41
20 46 42
20 45 41
20 44 41
20 44 41
20 44 41
20 44 41
20 45 41
20 44 41
20 45 42
20 45 41
19 43 40
20 45 41
20 45 41
20 45 41
20 44 41
20 45 41
21 46 42
20 45 41
20 45 41
20 44 41
21 46 42
20 44 41
20 45 41
20 45 41
21 46 42
20 45 41
20 45 41
20 45 42
20 45 41
20 45 41
20 45 41
20 45 41
20 45 41
20 45 41
20 45 41
20 45 41
20 44 40
20 45 41
20 44 40
20 45 41
20 45 41
20 45 42
21 46 42
20 45 41
20 45 41
21 46 42
21 46 42
20 45 41
20 44 41
20 45 41
20 45 41
20 45 41
21 46 42
20 45 41
21 46 42
21 46 42
20 45 41
20 45 41
20 45 41
20 44 40
21 46 42
20 45 41
21 46 42
20 45 41
20 45 41
21 45 42
21 46 42
21 46 43
21 46 42
20 44 41
20 45 41
21 46 42
20 44 40
20 45 41
20 45 41
21 46 42
20 45 41
20 44 41
21 46 42
21 46 42
21 46 42
20 45 41
21 46 42
21 46 42
20 45 41
21 46 42
21 46 42
21 46 42
21 47 43
20 45 41
20 45 41
21 45 42
21 46 42
20 45 42
20 44 41
21 46 43
19 43 40
20 45 41
20 44 40
20 44 40
20 44 41
20 44 40
20 44 40
20 44 41
20 43 40
20 44 40
20 44 40
20 44 40
20 44 41
20 44 41
20 44 40
20 45 41
20 45 41
20 45 41
20 45 41
20 44 40
20 45 41
20 44 41
20 45 41
20 45 41
20 44 41
21 46 42
20 45 41
21 46 42
20 44 41
21 46 42
20 45 41
20 45 41
20 45 41
20 45 41
21 46 42
20 45 42
20 44 41
20 45 41
20 45 41
20 44 40
20 45 42
20 44 41
20 45 41
20 44 40
20 44 41
20 45 42
20 44 40
20 45 42
20 44 40
20 44 41
20 45 41
20 44 41
21 47 43
20 45 41
20 44 40
20 45 41
20 45 41
20 46 42
20 45 41
20 45 41
20 45 41
20 45 41
21 46 42
20 44 41
21 46 42
20 45 41
20 44 40
19 43 39
19 43 40
20 45 41
20 44 41
21 46 42
20 45 41
20 45 41
20 45 41
20 45 41
20 45 42
21 46 42
20 45 41
20 44 41
20 44 41
21 46 42
21 46 42
20 46 42
20 45 41
21 46 42
20 44 41
21 47 42
21 46 42
21 46 42
20 45 41
21 46 42
20 45 41
20 45 41
21 46 42
20 45 41
21 47 43
20 45 41
20 45 41
20 45 41
20 45 41
20 45 41
21 46 42
20 45 41
21 46 42
20 45 41
21 46 42
21 46 42
20 45 42
20 45 41
21 46 42
20 45 41
20 45 42
21 46 42
20 45 41
21 46 42
20 44 41
20 44 41
21 46 42
21 46 42
19 43 40
20 45 41
20 44 41
20 45 42
20 45 41
20 44 41
20 45 41
20 44 41
20 45 42
20 45 41
20 44 41
20 44 41
20 44 41
20 45 41
20 44 41
20 45 41
20 45 41
20 45 41
20 45 41
20 45 42
20 45 41
20 45 42
20 45 42
20 44 40
20 45 41
20 44 41
21 46 42
20 45 41
20 45 41
21 46 42
20 44 41
20 44 40
20 45 42
20 45 41
20 45 41
21 46 42
21 46 42
20 45 41
20 45 41
21 46 42
21 46 42
21 46 42
20 45 41
20 45 41
20 45 41
20 45 41
20 44 41
20 45 41
20 45 41
21 46 42
20 45 41
20 45 41
20 45 41
20 45 41
20 45 41
20 45 41
21 46 42
21 46 42
21 46 42
21 46 42
21 46 42
20 45 41
20 44 41
20 45 41
20 45 41
21 46 42
20 45 42
20 45 41
21 46 42
21 46 42
21 46 42
20 45 41
21 46 42
21 45 42
20 45 42
21 46 42
21 46 42
21 46 42
20 45 41
21 46 42
20 44 40
20 45 41
21 47 43
20 45 41
20 44 41
21 46 42
21 46 42
20 45 41
21 46 42
21 47 43
21 46 42
20 45 42
21 46 43
21 45 42
20 45 41
20 45 42
20 45 41
21 47 43
20 45 41
20 45 41
21 46 42
21 46 42
21 47 43
21 46 42
20 45 41
20 45 41
21 46 42
21 46 42
20 46 42
21 46 42
20 45 42
21 46 42
21 46 42
21 46 42
21 47 43
21 46 42
20 45 41
20 45 41
21 46 42
20 45 42
20 45 41
20 45 42
20 44 40
20 44 41
20 44 41
20 44 41
20 45 41
21 46 42
20 44 40
20 45 42
20 45 41
20 45 41
20 44 41
20 44 41
20 45 42
20 45 41
20 44 40
20 44 41
20 45 41
20 44 40
20 45 41
20 44 40
20 45 41
20 45 41
20 44 40
20 45 41
20 45 41
20 45 41
20 45 41
20 45 41
20 44 40
20 44 40
20 45 41
20 44 41
20 45 41
20 45 41
20 45 41
21 46 42
20 45 41
20 45 41
20 46 42
20 45 41
21 46 42
20 44 41
20 46 42
20 45 41
20 44 40
20 45 42
21 46 42
21 46 42
20 45 42
20 45 41
21 46 42
20 45 41
21 46 42
21 46 42
20 45 41
20 45 41
21 46 42
20 45 41
21 46 42
20 45 42
21 47 43
21 46 42
20 45 41
20 45 41
21 46 42
20 45 41
20 45 41
21 46 42
21 46 42
21 45 42
21 46 43
20 45 41
21 47 43
20 45 41
20 45 41
21 46 42
20 45 41
20 45 41
20 45 41
21 46 42
21 46 42
20 45 41
21 46 42
21 46 42
20 45 42
20 45 42
21 46 42
21 46 42
21 46 42
20 45 42
21 45 42
21 46 42
21 46 42
21 46 42
20 45 41
20 45 41
21 46 42
21 46 42
21 46 42
21 45 41
21 46 42
20 45 42
21 46 42
21 46 42
21 46 42
20 44 41
20 44 41
22 48 44
21 46 42
20 45 42
21 46 42
21 46 42
21 46 43
20 45 42
21 46 42
21 46 42
21 46 42
20 45 41
20 44 41
20 44 40
20 44 40
20 45 41
20 44 41
21 46 42
20 45 41
20 45 41
20 44 40
20 44 40
20 45 42
20 45 41
20 45 42
20 45 41
20 45 41
20 44 40
20 45 41
20 45 41
20 45 41
21 46 42
21 46 42
20 46 42
21 46 42
20 45 41
20 45 41
20 45 41
20 44 40
20 45 41
20 45 41
20 44 41
20 45 41
20 45 41
20 45 41
21 46 42
20 45 41
20 45 41
20 45 41
21 47 43
20 45 42
20 45 42
20 45 41
20 45 41
20 44 41
21 46 42
20 44 41
20 45 41
21 46 42
20 45 41
21 46 42
21 46 42
21 46 42
20 44 40
21 46 42
21 46 42
20 45 41
21 46 42
20 45 42
21 45 42
21 46 42
20 45 41
21 47 43
21 46 42
21 46 42
20 44 40
21 46 42
21 46 43
21 46 42
20 45 41
21 46 42
21 46 42
21 47 43
21 46 42
20 45 41
20 44 41
20 45 41
21 47 43
21 46 42
20 45 41
21 46 42
20 45 41
21 46 42
20 45 41
20 45 41
21 46 42
21 46 42
21 46 42
21 46 42
21 46 42
21 46 42
21 46 42
21 46 42
21 46 42
21 46 42
21 46 42
21 46 42
21 45 41
21 46 43
20 45 41
21 46 42
21 46 42
21 46 42
21 47 43
21 46 42
21 46 42
20 45 41
21 46 42
20 45 41
21 46 42
21 46 42
21 46 42
21 46 42
21 46 42
21 46 42
21 46 42
21 46 42
21 46 42
20 45 41
21 46 43
21 46 42
20 45 41
20 45 41
20 44 40
20 45 42
20 45 42
20 45 41
20 45 41
20 45 41
20 44 40
21 46 42
20 45 41
20 45 41
20 45 42
21 46 42
20 45 41
20 45 41
20 45 41
21 46 42
20 44 40
20 45 42
20 44 41
21 46 42
20 44 41
20 45 41
20 45 41
21 46 42
21 46 42
20 45 41
20 44 41
20 44 41
20 45 41
20 45 41
20 45 41
20 44 41
21 46 42
20 45 41
20 45 41
21 46 42
21 46 42
21 46 42
20 45 41
20 44 41
20 45 41
21 46 42
21 46 42
20 45 41
20 45 41
20 45 41
20 45 41
21 47 43
20 45 41
21 46 42
21 47 43
21 46 42
20 45 41
21 46 42
21 46 42
21 45 42
21 46 43
20 44 41
20 45 42
21 46 42
21 47 43
20 44 40
21 46 42
21 46 42
21 46 42
20 44 41
21 46 42
21 46 42
21 46 42
21 47 43
21 47 43
21 46 42
21 46 42
21 46 42
21 46 42
21 47 43
21 47 43
20 45 41
20 45 41
21 46 42
21 46 42
20 45 41
20 45 41
21 46 42
21 46 42
21 47 43
20 45 41
21 46 42
21 47 43
21 46 42
21 46 42
21 46 42
21 47 43
21 47 43
21 46 42
21 47 43
21 46 42
21 46 42
21 46 42
21 47 43
20 45 41
21 47 43
21 46 42
21 46 42
21 46 42
21 46 42
21 46 42
20 45 41
21 46 42
21 46 42
21 45 41
21 47 43
21 46 42
21 46 42
21 46 42
21 47 43
21 46 42
21 47 43
20 45 41
20 45 41
20 45 41
20 44 40
20 45 41
20 45 42
20 45 41
20 45 42
21 46 42
20 44 40
21 45 42
20 45 41
20 45 42
20 45 41
20 44 40
20 44 41
20 45 42
20 45 42
20 45 41
20 45 41
20 45 42
20 44 41
20 45 41
20 45 41
21 47 43
20 44 41
21 46 42
20 45 41
21 46 42
20 45 42
21 46 42
20 44 41
21 46 42
20 45 42
20 45 41
20 45 41
21 45 42
20 45 42
21 46 42
20 44 41
21 46 42
20 45 41
21 46 43
20 45 41
21 45 42
20 45 41
21 46 42
20 44 41
21 46 42
21 45 42
20 45 41
21 46 42
20 45 41
21 47 43
21 47 43
21 46 42
21 46 42
21 46 42
20 45 41
20 45 41
20 45 41
21 47 43
21 46 42
20 45 41
21 46 42
21 46 42
21 47 43
21 46 42
21 45 41
20 45 41
21 46 42
20 45 41
21 46 42
21 46 42
21 46 42
21 46 42
21 46 42
20 45 41
21 46 42
20 45 41
20 45 41
20 45 42
21 46 42
21 46 42
21 47 43
21 46 42
20 45 41
21 46 42
21 47 43
21 47 43
21 46 42
21 46 42
21 46 42
21 46 42
21 47 42
21 46 42
21 47 43
21 46 42
21 46 42
21 47 43
21 46 42
21 47 43
21 46 42
21 46 42
21 46 42
21 47 43
20 45 41
21 47 43
21 46 42
21 47 43
21 46 42
21 46 42
21 47 43
21 47 43
21 46 42
21 47 43
21 46 42
20 45 41
21 46 42
21 47 43
20 44 41
20 44 41
21 46 42
20 45 42
20 45 42
20 45 42
20 45 41
20 45 41
20 45 41
20 46 42
20 45 41
21 46 42
20 44 40
21 46 42
20 45 42
20 45 41
20 44 41
20 45 41
20 45 41
20 44 41
20 45 42
20 45 41
20 44 40
20 45 42
20 45 41
21 46 42
20 45 41
21 46 42
21 46 42
20 45 41
20 45 41
20 45 41
20 45 41
20 45 41
20 44 41
21 46 42
21 46 42
21 46 42
20 45 41
21 46 42
20 45 41
21 46 42
20 45 42
21 46 42
21 46 42
21 46 42
21 46 42
21 46 42
21 46 42
21 46 42
20 45 41
21 46 42
21 46 42
21 47 43
21 45 42
21 47 43
21 46 42
21 47 43
21 46 42
21 47 43
21 46 42
21 46 42
21 46 42
21 46 42
20 45 41
20 45 41
21 46 42
20 45 41
21 45 41
21 47 42
21 46 42
20 45 41
21 47 43
21 46 42
21 46 42
21 46 42
21 46 42
21 46 42
21 47 43
21 47 43
21 46 42
21 46 42
21 46 42
21 46 42
21 46 42
20 45 41
21 46 42
21 46 42
21 46 42
21 46 42
21 47 43
21 46 42
21 47 43
21 46 42
21 46 42
22 48 43
21 47 42
21 46 42
21 47 43
21 47 43
21 45 41
21 46 42
21 47 43
21 46 42
21 46 42
21 46 42
21 45 41
22 48 43
21 47 43
21 46 42
21 47 43
21 46 42
21 47 43
20 45 41
21 47 43
20 45 41
21 47 43
20 45 41
21 46 42
21 47 43
20 45 41
20 45 42
21 46 42
20 45 41
21 46 42
21 46 42
21 46 42
20 44 40
20 44 41
20 45 41
20 44 41
20 45 41
20 45 41
21 46 42
21 46 42
21 46 42
20 45 41
20 45 41
21 46 42
21 45 42
21 46 42
20 45 42
20 45 41
20 44 41
21 46 42
20 45 41
20 45 41
20 45 41
20 44 41
21 46 43
20 45 41
21 47 43
21 47 43
21 46 42
21 46 42
21 45 42
21 46 42
20 45 41
21 46 42
20 45 41
20 45 41
21 47 43
20 44 41
21 46 42
21 46 42
20 44 41
20 45 41
21 46 42
20 45 41
21 46 42
20 45 41
21 47 43
21 46 42
20 45 41
20 45 41
21 46 42
21 46 42
21 46 42
20 45 41
21 46 42
21 46 43
21 46 42
21 47 43
20 45 41
21 46 42
21 46 42
21 47 43
22 47 43
21 46 42
20 45 41
21 46 42
21 46 42
21 47 43
21 46 42
21 46 42
21 46 42
21 47 43
21 46 42
21 46 42
21 46 42
21 46 42
21 46 42
21 47 43
21 46 42
21 46 42
21 46 42
21 46 42
21 47 43
21 47 43
21 46 42
21 47 43
21 47 43
21 47 43
21 47 43
20 45 41
21 46 42
21 46 42
21 46 42
21 46 42
21 46 42
21 46 42
21 46 42
21 46 42
22 48 44
21 46 42
21 46 42
21 47 43
20 45 41
22 49 44
20 45 41
21 46 42
21 46 42
21 46 42
21 47 43
21 46 42
21 47 43
21 46 42
21 46 42
21 47 43
21 47 43
20 45 42
20 45 41
20 45 41
21 46 42
20 45 41
20 45 42
20 44 41
21 47 43
21 45 42
20 45 41
20 45 41
21 46 42
20 45 41
20 45 41
20 45 41
21 47 43
21 46 43
21 47 43
20 45 41
21 46 42
20 45 41
20 45 41
21 46 42
21 47 43
20 45 42
20 45 41
21 46 42
21 45 42
21 47 43
20 45 41
21 46 42
21 46 42
21 46 42
21 46 42
20 45 41
20 45 41
21 46 42
21 46 42
21 46 42
20 45 42
21 47 43
21 46 42
21 46 42
21 47 43
21 45 42
21 47 43
21 46 42
21 47 43
21 46 42
21 46 43
21 46 42
21 46 42
21 46 42
21 46 42
21 47 43
21 46 42
20 45 41
21 47 43
21 47 43
21 46 42
21 46 42
21 46 42
21 46 42
21 47 43
21 46 42
21 45 41
21 46 42
21 46 42
21 47 43
21 46 42
22 47 43
21 47 43
21 47 43
21 46 42
21 47 43
21 46 42
21 46 42
21 46 42
21 47 43
21 47 43
21 46 42
21 46 42
21 47 43
21 47 43
21 47 43
21 47 43
21 46 42
21 46 42
21 47 42
21 47 43
21 47 43
22 48 43
21 47 42
21 46 42
20 45 41
22 48 43
21 47 43
21 46 42
21 46 42
22 48 44
21 47 43
21 47 43
21 46 42
22 47 43
21 47 43
21 47 43
21 46 42
21 46 42
21 46 42
21 47 43
21 46 42
21 46 42
21 46 42
21 47 43
21 46 42
21 46 42
22 48 43
21 46 42
21 47 43
22 48 44
20 45 42
21 46 42
21 46 42
20 44 41
20 44 40
20 44 40
21 46 42
21 45 42
20 45 42
20 45 41
21 45 42
20 45 41
21 46 42
21 46 42
21 46 42
20 45 42
21 47 43
21 46 42
20 44 40
21 46 42
21 46 42
21 46 42
21 46 42
20 45 42
20 45 41
21 46 42
21 46 42
21 46 42
20 45 41
20 45 41
20 45 41
21 46 42
21 47 43
22 48 43
21 46 42
21 47 43
21 46 42
21 46 42
21 46 42
21 46 42
21 46 42
21 47 43
21 46 42
21 46 42
21 47 43
21 47 43
21 45 42
21 47 43
21 46 42
21 46 42
21 46 42
21 46 42
20 45 41
20 45 41
21 46 42
21 46 42
21 46 42
21 47 42
21 47 43
20 45 41
21 46 42
21 46 42
21 46 42
21 46 42
22 48 44
20 45 41
21 46 42
21 47 43
21 46 42
21 46 42
21 46 42
21 46 42
21 46 42
21 46 42
20 45 41
21 46 42
21 47 43
21 47 43
21 47 43
21 47 43
21 46 42
21 47 43
21 46 42
21 46 42
21 46 42
21 46 42
22 48 43
21 47 43
21 47 43
21 47 43
21 46 42
21 46 42
22 48 44
22 48 43
21 47 43
21 47 43
21 46 42
21 46 42
21 46 42
21 46 42
21 46 42
21 47 43
22 48 44
21 46 42
22 47 43
21 46 42
21 46 42
22 48 43
22 49 44
21 47 43
21 47 42
22 48 43
21 46 42
21 47 43
21 46 42
21 46 42
21 47 43
21 46 42
21 46 42
21 47 43
20 45 41
21 46 42
20 44 41
20 45 41
20 45 41
21 46 43
20 44 40
21 46 42
21 46 42
21 46 42
20 45 41
21 46 42
20 45 41
20 45 41
21 46 42
21 46 42
21 46 42
21 46 42
20 45 41
20 45 42
21 46 42
20 45 41
21 46 42
21 46 42
21 47 42
21 46 42
21 46 42
20 45 41
20 44 40
21 45 42
21 47 43
21 46 42
21 46 42
21 46 42
21 46 42
21 46 42
21 46 42
21 47 43
20 44 40
21 46 42
21 46 42
21 46 42
21 46 42
21 46 42
21 46 42
21 46 42
21 46 42
21 46 42
21 46 42
21 46 42
21 46 42
21 46 42
22 48 43
21 47 43
21 46 42
21 46 42
21 46 42
21 46 42
21 46 42
21 47 42
21 46 42
21 46 42
21 47 42
21 46 42
21 46 42
21 47 43
21 46 42
21 46 42
21 46 42
21 46 42
21 47 43
21 47 43
21 46 42
21 46 42
21 46 42
21 46 42
21 47 43
21 46 42
21 46 42
21 46 42
21 47 43
21 46 42
21 46 42
21 46 42
21 46 42
23 50 45
21 47 43
21 47 43
21 47 43
20 45 41
21 46 42
21 47 42
21 47 43
21 46 42
21 47 43
21 46 42
21 46 42
21 46 42
21 47 43
21 47 43
21 47 43
22 48 43
21 47 43
21 47 43
21 47 43
21 47 43
21 46 42
21 47 43
21 46 42
21 47 43
21 46 42
21 47 43
21 47 43
21 47 43
21 47 43
21 47 43
21 47 43
21 47 42
21 46 42
22 48 43
21 46 42
20 45 41
21 46 42
20 45 41
20 45 42
21 47 43
21 46 42
21 46 42
19 43 40
21 46 42
21 46 43
20 45 41
21 47 43
20 45 42
21 46 42
21 46 42
22 48 44
21 46 42
21 47 43
20 45 41
21 46 42
21 45 41
21 46 42
21 46 42
21 46 42
21 46 42
21 46 42
20 45 41
21 46 42
21 46 42
21 46 42
21 46 42
21 46 42
21 46 42
21 47 43
21 46 42
21 46 42
21 47 43
21 47 43
21 46 42
21 46 42
21 46 42
21 47 43
21 46 42
21 46 42
20 45 41
21 46 42
21 46 42
20 45 41
21 46 42
21 47 42
21 47 43
21 47 43
21 46 42
21 46 42
21 46 42
21 46 42
21 47 43
21 47 42
21 47 43
20 45 41
21 47 43
21 47 43
21 45 41
22 48 43
21 47 43
21 46 42
21 46 42
22 47 43
21 46 42
21 46 42
21 46 42
21 46 42
22 48 44
21 45 41
21 46 42
21 47 43
21 47 43
21 47 43
22 48 43
21 47 43
21 47 42
20 45 41
21 47 43
21 47 42
22 48 44
22 47 43
21 46 42
21 46 42
22 48 43
21 46 42
22 48 44
22 47 43
21 47 43
21 46 42
21 47 43
21 47 43
21 45 41
21 46 42
21 47 43
22 47 43
22 47 43
21 47 43
21 47 43
21 46 42
21 45 42
21 47 43
21 47 43
21 46 42
22 48 43
22 48 44
21 47 42
21 46 42
22 48 44
21 46 42
21 47 43
21 47 43
21 46 42
21 46 42
22 47 43
20 45 41
20 45 41
20 45 41
21 47 43
20 45 41
21 47 43
21 46 42
21 47 43
21 46 42
20 45 41
21 46 42
21 47 43
21 46 42
20 45 41
21 46 42
20 45 41
20 45 41
21 46 42
21 46 42
21 47 43
21 46 42
21 46 42
21 46 42
21 46 42
21 46 42
21 46 42
21 46 42
21 46 42
21 46 42
20 45 41
21 47 43
21 46 42
21 47 43
21 47 43
21 46 42
21 47 43
21 46 42
21 46 42
21 46 42
21 47 43
21 46 42
20 45 41
21 46 42
21 45 41
21 47 43
20 45 41
21 46 42
21 46 42
22 47 43
21 47 43
21 47 43
21 47 43
22 47 43
21 47 43
21 46 42
21 45 41
22 48 44
21 46 42
20 45 41
21 46 42
21 46 42
21 46 42
21 46 42
21 47 43
21 47 43
20 45 41
21 47 43
22 48 44
21 47 43
21 46 42
22 48 44
22 48 44
21 47 42
21 46 42
21 47 43
21 46 42
21 47 43
21 46 42
22 48 44
21 47 43
22 49 45
21 46 41
21 47 43
21 47 43
21 46 42
21 47 43
21 47 43
21 46 42
21 47 43
21 47 43
21 46 42
22 47 43
21 47 43
21 47 43
21 46 42
21 47 42
21 47 43
21 47 43
21 46 42
21 47 43
21 46 42
21 47 43
21 47 43
21 46 42
21 47 43
21 47 43
21 47 43
22 48 44
22 48 44
21 47 42
21 47 43
21 47 43
21 47 42
21 46 42
21 47 43
22 48 43
21 47 43
21 46 42
22 48 43
21 46 42
20 44 40
21 46 42
21 46 42
21 46 42
21 46 42
21 46 42
20 45 41
21 46 42
20 45 42
21 47 43
21 46 42
21 47 43
21 46 42
21 46 42
20 45 41
20 45 41
21 46 42
21 46 42
21 47 43
21 46 42
21 46 43
21 47 43
21 46 42
21 46 42
21 46 42
21 47 43
21 47 43
21 47 42
20 45 41
21 46 42
21 47 43
21 46 42
21 45 42
21 47 43
21 46 42
21 47 43
21 47 43
21 47 43
21 47 43
21 47 43
21 46 42
21 46 42
21 47 43
21 47 43
21 46 42
21 46 42
21 47 43
22 48 44
22 48 44
21 46 42
20 45 41
21 46 42
21 46 42
22 48 43
21 46 42
21 47 43
21 47 43
21 47 43
21 47 43
21 47 43
21 47 42
21 47 43
21 46 42
21 47 43
21 47 43
21 47 43
21 47 43
21 47 43
22 48 44
21 46 42
21 47 43
21 47 42
21 47 43
21 46 42
22 48 44
22 48 43
22 48 44
21 46 42
21 47 43
21 46 42
22 48 44
21 47 43
21 46 42
21 46 42
22 48 44
22 47 43
21 46 42
22 47 43
21 46 42
21 47 43
22 48 43
21 47 43
22 48 43
22 48 43
21 47 43
22 47 43
21 47 43
21 46 42
21 47 43
22 48 43
22 48 43
21 47 43
21 46 42
22 48 43
21 46 42
22 47 43
21 47 43
21 47 43
22 48 44
21 47 43
22 47 43
21 47 43
21 47 43
21 47 43
21 47 42
21 46 42
21 47 43
22 48 44
22 48 44
21 47 43
21 45 42
21 47 43
21 45 42
21 46 42
21 46 42
21 46 42
21 45 42
20 45 41
21 46 42
20 45 41
20 45 41
21 47 43
21 46 42
21 46 42
21 46 42
21 46 42
21 46 42
20 45 41
21 47 43
20 45 41
21 46 42
21 46 42
21 46 42
21 47 43
22 48 44
21 46 42
21 46 42
21 46 42
21 46 42
21 47 43
21 47 43
21 45 42
21 46 42
20 45 41
22 48 44
22 48 44
21 46 42
21 46 42
21 46 42
21 46 42
22 48 44
21 46 42
21 46 42
21 46 42
21 46 42
21 46 42
22 48 43
21 46 42
21 46 42
21 46 42
21 47 43
21 47 43
21 46 42
22 48 44
21 47 43
22 48 43
21 46 42
21 46 42
21 47 43
21 47 43
21 47 43
21 47 43
21 47 42
21 46 42
21 46 42
21 46 42
21 47 43
21 46 42
21 46 42
21 46 42
21 47 43
21 47 42
21 46 42
22 48 43
21 46 42
21 47 43
21 47 43
21 47 43
22 48 43
21 47 42
21 47 42
21 47 43
21 47 43
22 48 44
21 47 43
21 47 43
21 46 42
22 49 44
22 47 43
21 47 43
22 47 43
21 47 43
21 47 43
22 48 44
21 46 42
21 46 42
21 46 42
21 47 42
21 47 43
22 48 44
21 47 43
22 48 43
22 48 43
21 47 43
21 47 43
21 47 43
22 48 43
21 46 42
21 47 43
21 46 42
22 48 43
22 48 44
21 47 42
21 46 42
22 48 43
22 48 43
21 47 43
21 47 43
21 47 43
21 46 42
21 46 42
20 45 41
20 45 41
20 45 41
21 45 41
21 46 42
20 45 41
21 46 42
21 47 43
21 47 43
21 46 42
22 48 44
21 47 43
20 45 41
21 47 43
20 45 41
20 45 41
21 46 42
20 45 41
21 47 43
21 46 42
22 48 43
21 47 43
21 47 43
21 46 42
21 47 43
21 47 43
21 46 42
21 47 43
21 47 43
21 47 43
21 46 42
21 46 42
21 47 43
21 46 42
21 47 43
21 47 43
22 48 44
21 46 42
21 47 43
21 47 43
20 45 41
21 47 43
22 48 44
21 47 43
21 46 42
21 46 42
21 46 42
21 46 42
21 47 43
22 48 44
21 46 42
21 47 43
21 47 42
22 48 43
21 47 43
21 47 43
21 46 42
21 47 43
22 48 44
21 47 43
21 47 43
21 46 42
21 46 42
21 47 43
21 47 43
21 47 43
22 48 43
21 47 43
21 46 42
21 47 43
22 48 44
21 47 43
21 47 43
21 47 42
22 48 44
21 47 43
21 46 42
21 47 43
21 46 42
21 46 42
21 46 42
21 47 43
21 47 43
22 48 44
22 48 43
21 47 43
21 47 43
21 47 43
22 48 43
22 47 43
21 47 43
22 48 44
21 47 43
22 48 44
22 49 44
22 48 44
21 47 43
22 49 45
22 48 44
22 48 43
21 46 42
22 48 44
22 48 44
21 47 43
21 46 42
21 47 43
21 47 43
22 48 44
22 47 43
21 47 43
22 48 43
21 47 43
22 47 43
21 46 42
22 47 43
22 48 44
22 48 44
21 47 43
22 48 44
21 47 43
21 46 42
21 47 43
21 46 42
21 46 42
21 46 42
21 46 42
21 46 42
21 47 42
21 46 42
22 48 44
21 47 43
21 45 41
21 47 42
21 46 42
21 46 42
21 46 42
21 46 42
21 46 42
21 46 42
21 46 42
21 45 42
21 47 42
22 48 44
21 46 42
21 45 41
21 47 43
21 47 43
20 45 41
21 46 42
21 47 43
21 47 43
21 47 43
20 45 41
21 46 42
21 46 42
21 47 43
21 46 42
21 46 42
22 48 44
21 46 42
21 46 42
21 47 42
21 46 42
21 46 42
21 46 42
21 46 42
21 47 43
21 45 41
22 48 44
21 47 43
21 46 42
21 46 42
21 46 42
21 47 42
21 47 42
22 47 43
22 48 43
22 48 44
21 47 43
21 46 42
22 48 43
22 48 44
22 48 44
21 47 43
21 47 43
22 47 43
21 47 43
21 47 43
21 47 42
21 47 42
21 46 42
21 47 43
22 49 44
21 47 43
21 46 42
21 47 43
21 47 43
22 49 44
21 46 42
22 48 43
21 46 42
22 48 44
21 47 43
21 47 42
22 48 44
22 48 44
22 47 43
21 47 42
22 48 43
22 48 44
21 46 42
21 47 43
21 47 43
21 47 43
21 47 43
20 45 41
21 47 43
22 48 43
22 48 44
22 48 43
22 48 44
21 47 43
21 47 42
21 47 43
22 48 44
22 48 43
22 49 45
21 46 42
22 48 43
21 47 43
22 49 44
22 47 43
21 47 42
22 49 44
21 47 43
21 46 42
21 47 43
22 48 44
22 48 43
21 45 41
21 45 41
20 45 41
20 45 41
21 47 43
21 46 42
20 45 41
21 46 42
21 47 43
21 46 42
21 46 42
21 45 41
21 45 41
21 46 42
20 45 41
21 45 42
21 46 42
22 48 44
21 46 42
21 47 43
21 46 42
21 47 43
21 46 42
21 47 43
22 48 44
21 46 42
21 46 42
21 46 42
21 46 42
21 46 42
21 46 42
21 46 42
21 46 42
21 47 43
21 47 43
21 46 42
21 47 43
21 47 43
21 47 43
22 48 44
21 47 43
21 46 42
21 47 43
22 48 43
21 47 43
21 46 42
21 46 42
22 48 44
22 48 44
21 47 43
22 48 43
22 48 44
21 46 42
21 47 43
21 46 42
21 47 43
21 46 42
22 48 44
22 48 43
22 48 43
21 47 43
21 46 42
21 46 42
21 47 43
21 47 43
22 48 43
21 47 43
21 47 43
21 46 42
21 47 43
22 48 44
21 46 42
21 47 43
21 47 42
21 47 43
21 47 43
21 47 43
21 47 43
21 47 43
21 47 43
21 47 43
21 47 43
21 47 43
21 47 43
21 46 42
21 47 43
22 47 43
22 47 43
21 47 43
21 46 42
22 47 43
22 48 44
21 47 43
22 48 44
22 47 43
21 47 42
22 48 43
22 48 44
22 48 44
21 47 43
22 48 43
21 46 42
21 47 43
22 48 43
22 47 43
22 49 44
22 48 44
21 47 43
21 46 42
21 47 43
22 48 43
22 48 44
21 47 43
22 49 44
22 48 43
21 46 42
21 47 43
21 47 43
21 47 42
21 46 42
21 46 42
21 46 42
21 46 42
20 45 41
21 47 43
21 46 43
21 46 42
21 46 42
21 46 42
21 46 42
21 46 42
21 47 43
21 47 43
21 46 42
21 46 42
21 47 43
22 48 44
21 46 42
21 47 43
21 47 43
22 48 44
21 46 42
21 47 43
21 47 42
21 47 43
21 47 43
21 46 42
21 46 42
21 45 41
21 46 42
21 47 43
21 47 43
21 46 42
21 46 42
21 47 43
21 47 43
21 47 42
21 47 43
21 46 42
22 48 44
21 45 41
21 46 42
22 47 43
22 48 44
22 48 43
21 46 42
21 47 43
21 47 43
21 47 43
22 48 44
22 48 44
21 47 43
22 48 44
21 47 42
21 47 42
22 48 44
21 46 42
21 46 42
20 45 41
22 49 44
22 48 44
22 48 43
22 47 43
21 47 43
21 47 43
22 48 44
22 48 43
22 47 43
22 48 43
21 47 43
21 47 43
22 48 43
22 48 43
22 48 44
22 48 44
22 48 44
22 48 44
22 48 44
21 47 43
22 48 44
22 48 44
22 47 43
21 47 42
22 49 44
22 48 44
22 47 43
22 48 44
22 48 43
21 47 43
21 47 43
22 49 44
21 47 43
22 48 43
22 48 43
22 48 44
21 47 43
21 47 43
22 48 43
22 48 44
21 47 43
22 48 43
22 48 44
22 48 44
21 47 43
21 46 42
21 47 43
22 48 43
21 47 43
22 48 44
22 48 43
22 48 44
22 48 43
22 47 43
21 46 42
21 46 42
22 47 43
21 47 43
22 48 44
22 47 43
22 47 43
21 46 42
21 46 42
21 47 42
21 46 42
21 46 42
21 46 42
21 46 42
21 45 42
21 46 42
21 46 42
21 46 42
22 48 43
20 45 41
21 47 43
20 45 41
22 48 44
21 47 42
21 47 43
21 47 43
21 46 42
21 46 42
21 46 42
21 46 42
22 48 43
21 47 43
21 46 42
21 47 43
22 48 44
22 48 44
21 47 43
21 46 42
21 46 42
21 46 42
21 47 43
21 47 43
22 47 43
22 48 43
21 47 43
22 47 43
20 45 41
21 46 42
21 47 43
22 48 43
21 46 42
21 47 43
22 48 44
21 47 43
22 48 43
21 47 42
21 47 43
22 48 44
21 47 43
21 46 42
21 47 43
22 48 44
21 47 43
21 47 42
22 48 44
21 46 42
21 47 43
22 47 43
22 49 44
21 47 43
21 47 43
22 48 44
22 48 44
22 48 44
21 47 43
21 47 43
21 46 42
21 47 43
22 48 43
22 48 44
22 48 44
22 47 43
21 46 42
22 48 44
22 48 44
22 48 44
21 47 43
21 47 43
22 48 43
22 47 43
22 48 43
21 47 43
22 47 43
22 48 43
22 48 44
21 47 42
22 48 43
21 47 43
22 48 43
21 47 43
22 48 44
21 47 43
22 48 44
21 47 43
22 48 43
22 49 44
22 48 44
21 47 42
22 48 43
21 47 43
22 47 43
21 47 43
22 48 44
22 49 44
22 48 44
21 47 42
22 47 43
21 47 42
22 48 44
21 47 43
22 49 44
22 49 44
21 46 42
22 48 43
22 48 43
21 46 42
21 46 42
21 46 42
21 45 41
21 46 43
20 45 41
21 46 42
21 47 43
21 46 42
21 46 42
21 47 42
21 46 42
21 46 42
21 46 42
21 46 42
21 46 42
21 46 42
21 47 43
22 49 44
21 46 42
21 47 43
21 46 42
21 46 42
21 47 43
21 47 42
21 47 42
21 47 43
21 47 43
21 47 43
21 46 42
21 47 43
21 47 43
21 46 42
21 46 42
21 46 42
22 48 43
21 47 42
21 47 43
21 47 43
21 46 42
21 46 42
21 47 43
21 46 42
22 48 44
22 48 44
21 47 43
21 47 43
21 47 43
21 46 42
22 48 43
21 47 42
22 47 43
21 47 43
21 47 43
21 47 43
22 47 43
21 47 42
21 46 42
22 48 44
21 47 42
21 47 43
22 48 43
22 48 43
21 46 42
21 47 43
21 46 42
22 48 44
21 47 43
21 47 43
22 48 44
21 47 43
22 48 44
21 47 43
21 47 43
21 46 42
21 47 43
22 48 43
21 46 42
22 48 43
21 47 43
21 47 42
21 47 43
21 47 43
22 48 44
22 47 43
21 47 43
22 48 44
21 47 43
22 49 44
22 48 44
22 48 43
22 48 43
21 47 43
21 46 42
22 47 43
22 47 43
21 46 42
21 47 43
22 47 43
22 48 44
22 48 44
22 48 44
22 48 43
22 49 44
22 47 43
22 48 44
22 49 44
22 49 44
22 47 43
21 47 42
22 49 44
22 47 43
21 47 42
22 48 43
22 47 43
22 48 43
21 47 42
22 48 44
22 47 43
21 47 42
21 47 42
22 47 43
21 47 43
21 46 42
21 46 42
21 47 43
21 46 42
21 47 43
21 46 42
21 46 42
21 47 43
21 46 42
21 46 42
21 46 42
21 47 43
22 48 44
21 46 42
21 45 42
21 47 43
22 48 44
21 46 42
21 46 42
21 47 43
21 46 42
22 48 44
21 47 43
21 46 42
21 47 43
21 47 43
21 46 42
21 47 43
21 46 42
21 45 41
22 48 44
21 47 43
22 49 44
22 48 43
22 48 44
22 48 43
21 46 42
21 47 43
21 47 43
21 46 42
21 46 42
21 47 42
21 47 43
21 46 42
21 47 42
22 48 44
22 48 44
22 48 44
21 47 43
21 46 42
22 48 44
22 48 44
22 48 43
22 48 44
22 48 43
22 49 44
22 48 43
21 47 42
22 48 44
21 47 43
21 47 42
21 47 43
21 47 43
21 46 41
21 47 43
21 47 43
22 48 43
21 47 43
21 47 42
21 46 42
22 48 44
22 48 43
22 48 44
22 47 43
22 48 43
22 48 43
22 48 44
22 48 44
22 48 43
22 48 44
21 47 43
22 48 43
21 46 42
22 47 43
22 48 44
22 49 44
21 47 43
22 49 45
22 48 43
22 48 44
22 48 43
22 49 44
22 48 44
21 47 42
21 47 43
21 47 43
22 49 44
22 47 43
22 48 44
22 48 43
22 47 43
22 47 43
22 48 43
22 48 43
22 49 45
21 47 43
22 48 44
22 48 43
22 48 44
22 48 43
22 48 43
22 47 43
21 47 43
21 47 42
22 48 44
21 47 43
21 47 43
22 47 43
22 48 43
21 46 42
21 47 42
20 45 41
21 47 43
21 46 42
21 46 42
21 46 42
21 46 42
21 46 42
21 46 42
21 47 42
21 46 42
21 47 43
21 47 43
21 47 43
21 46 42
21 47 43
21 46 42
22 48 43
22 48 44
21 47 42
21 47 43
21 47 43
21 47 43
21 47 43
21 47 43
21 47 43
21 46 42
21 47 43
21 46 42
22 48 44
21 47 43
22 48 43
21 47 43
22 48 44
21 46 42
21 47 43
21 46 42
21 47 43
22 48 44
21 46 42
22 48 43
21 47 43
21 47 42
21 47 43
21 47 43
21 47 43
21 46 42
21 46 42
22 48 43
21 46 42
22 48 43
21 47 43
21 47 43
21 47 43
21 47 43
22 48 43
22 48 43
22 48 43
21 47 43
22 48 44
22 47 43
21 47 43
21 47 43
22 48 44
22 48 44
22 47 43
22 49 44
21 47 43
21 47 43
22 49 44
22 47 43
21 46 42
21 46 42
22 49 44
22 49 44
22 47 43
22 48 44
22 49 44
22 48 43
22 48 43
21 47 43
21 47 43
22 48 44
22 48 44
22 47 43
22 48 44
22 48 44
22 48 43
22 49 44
23 50 45
22 48 44
22 48 44
21 47 43
22 47 43
22 48 43
22 48 44
21 46 42
21 47 43
22 47 43
22 48 43
21 47 42
21 47 42
22 48 44
22 48 43
22 48 43
21 47 42
22 48 43
22 48 44
22 47 43
22 48 44
22 48 44
22 48 43
22 48 43
21 47 43
22 47 43
22 47 43
21 47 42
22 48 43
21 46 42
21 46 42
21 46 42
22 48 43
21 47 43
21 46 42
21 46 42
21 46 42
22 48 44
21 46 42
21 47 43
21 47 42
21 47 43
21 47 43
21 46 42
21 46 42
21 47 43
21 47 42
21 47 43
21 47 43
21 47 43
21 46 42
21 47 42
21 47 43
21 46 42
21 47 43
21 47 43
22 48 43
22 49 44
21 46 41
21 47 43
21 47 43
21 46 42
21 47 43
22 48 43
21 47 43
22 48 43
21 47 43
21 47 43
22 48 44
21 46 42
22 49 44
22 48 44
21 46 42
22 48 43
21 47 43
22 48 43
22 48 44
22 48 43
22 47 43
21 46 42
22 48 44
22 48 43
21 46 42
22 48 43
21 47 42
21 47 43
22 48 43
22 48 44
22 48 43
22 48 44
22 48 43
22 49 45
22 48 43
22 49 44
22 48 44
22 48 43
22 48 44
22 48 44
22 48 44
22 47 43
22 48 44
22 47 43
22 48 43
22 48 44
21 47 42
22 48 44
22 48 44
22 48 43
22 48 44
22 48 44
22 48 44
22 48 44
22 49 44
22 49 44
22 48 43
22 47 43
22 48 44
22 48 43
22 48 44
22 48 44
22 48 43
22 49 45
22 48 44
22 48 43
22 49 44
22 48 43
21 47 43
21 47 42
21 47 42
22 48 44
22 49 44
22 48 43
22 48 44
22 49 44
22 48 44
22 49 44
22 47 43
22 48 43
22 48 44
21 47 43
22 49 44
22 48 43
21 47 43
22 48 44
22 47 43
21 47 42
22 48 43
21 46 41
21 45 41
19 42 38
21 47 43
21 45 41
21 47 43
21 47 43
21 47 43
21 47 43
21 47 43
22 48 44
21 46 42
21 46 42
21 46 42
22 47 43
21 46 42
21 46 42
21 46 42
21 47 43
21 46 41
21 47 43
21 45 42
22 48 44
21 47 43
21 46 42
22 48 44
22 48 44
21 46 42
21 46 42
22 47 43
21 47 42
21 46 42
21 47 43
21 46 42
21 47 43
21 46 42
22 49 44
22 48 44
21 47 43
22 47 43
22 48 43
22 49 44
22 48 44
22 48 43
22 49 44
22 47 43
22 49 44
22 48 44
22 48 43
21 47 43
22 49 44
21 46 42
22 49 45
21 46 42
21 46 42
22 49 44
21 47 43
22 48 43
21 47 43
22 48 44
22 49 44
22 49 44
21 47 42
22 47 43
22 48 43
22 48 44
22 48 43
21 47 43
22 47 43
22 48 44
21 47 43
21 47 43
22 48 44
22 49 44
22 48 44
22 47 43
21 47 43
22 49 44
22 49 44
22 48 43
21 47 43
22 48 44
22 48 43
22 49 44
22 48 44
22 49 44
22 48 43
22 48 43
22 48 43
22 47 43
22 48 44
22 48 44
22 48 44
22 49 45
22 49 44
22 47 43
22 48 43
22 48 43
22 48 44
21 47 43
21 47 43
22 48 43
22 48 43
22 48 43
21 47 42
21 47 42
22 48 44
22 47 43
22 48 43
22 48 44
22 48 44
23 50 45
21 47 42
21 47 42
22 48 44
22 49 44
21 47 42
22 49 44
21 46 42
21 47 42
21 46 42
21 45 40
19 41 38
21 47 43
21 46 42
21 46 42
21 46 42
21 46 42
21 46 42
21 47 43
21 47 43
20 45 41
21 46 42
22 48 43
21 47 43
21 47 43
21 47 43
21 47 43
22 48 44
21 47 43
21 47 43
21 47 43
21 47 43
22 48 43
21 47 43
22 48 43
21 46 42
21 46 42
21 47 42
21 46 42
22 48 43
21 47 43
21 47 43
21 47 42
21 46 42
21 47 43
21 47 43
21 47 43
21 47 42
22 48 44
21 47 43
21 46 42
22 48 44
21 47 43
22 48 43
22 48 44
22 48 44
22 48 43
21 47 43
22 48 44
22 48 43
22 49 44
21 47 42
21 47 43
22 48 43
22 48 44
22 48 44
22 48 44
21 47 43
22 48 44
22 48 44
22 48 44
21 46 42
21 47 43
22 48 43
22 47 43
22 48 44
22 49 44
22 48 44
22 49 44
22 48 43
21 47 43
21 47 43
22 48 43
22 48 44
22 48 44
21 47 43
22 48 43
22 48 44
21 47 43
22 49 44
22 48 44
22 48 43
22 48 44
22 48 44
22 48 44
22 49 44
22 47 43
22 47 43
22 49 44
21 46 42
22 49 45
22 49 44
21 47 43
22 48 44
22 49 45
22 48 43
21 47 42
22 49 44
22 48 43
22 48 44
22 48 44
22 48 44
22 49 44
22 48 43
23 49 45
22 48 44
22 47 43
22 49 44
22 49 44
22 47 43
22 48 44
21 46 42
21 47 43
21 47 42
22 47 43
21 46 42
22 47 43
21 46 42
21 46 42
21 47 42
20 43 39
20 44 40
21 47 43
21 46 42
21 46 42
21 46 42
21 46 42
21 47 43
21 46 42
21 47 43
21 47 42
21 46 42
21 47 43
21 47 43
21 46 42
22 48 43
21 46 42
21 47 43
21 46 42
21 47 43
21 47 43
21 47 43
21 47 42
22 48 44
22 47 43
21 47 43
21 46 42
21 47 42
21 47 42
21 46 42
21 47 43
22 48 44
21 47 42
21 47 43
21 47 43
22 48 43
22 48 44
22 48 44
22 49 45
21 47 43
22 49 44
22 48 43
22 47 43
22 48 44
21 47 43
22 48 43
22 48 43
21 47 43
22 48 43
22 48 43
22 47 43
22 47 43
21 47 43
21 47 43
22 47 43
22 48 44
21 47 43
22 48 44
22 48 43
22 48 44
21 47 43
22 48 43
22 48 44
22 48 44
22 49 45
22 48 44
22 48 44
22 48 44
22 49 44
22 47 43
21 46 42
21 47 43
22 48 43
22 48 44
22 48 43
22 47 43
23 50 45
22 48 44
22 48 43
22 47 43
21 47 43
22 47 43
22 49 44
22 48 43
22 48 44
22 48 44
22 49 44
22 49 44
22 48 43
22 49 45
22 48 44
22 49 44
21 47 43
22 48 43
23 50 45
22 48 44
22 48 43
22 48 44
21 47 43
22 49 44
21 47 43
22 49 44
23 51 46
21 46 42
22 47 43
21 47 43
22 47 43
22 49 44
22 48 43
22 49 44
22 49 45
23 49 45
21 47 42
22 48 43
22 48 43
21 46 42
22 47 43
34 50 45
158 83 54
208 103 64
239 115 69
240 115 69
21 46 42
21 46 42
21 47 43
21 45 41
22 48 44
22 48 44
22 48 44
22 48 44
22 48 44
21 47 43
21 47 42
21 47 43
21 47 43
21 46 42
21 47 42
21 47 43
22 48 44
21 47 43
21 46 42
22 48 43
21 45 41
21 47 43
21 47 43
21 47 43
21 47 43
22 48 44
21 47 43
22 48 43
21 47 42
22 47 43
22 48 44
21 46 42
21 47 42
22 47 43
21 47 43
22 48 43
22 49 44
22 48 44
22 47 43
22 49 44
22 47 43
21 47 42
21 47 43
21 47 43
21 46 42
21 47 43
21 47 43
22 48 44
22 48 44
22 47 43
22 48 44
22 48 44
22 48 44
22 49 44
22 48 43
22 48 43
22 49 44
21 47 43
22 49 44
22 49 44
22 48 44
21 47 43
22 48 43
22 49 44
22 49 44
22 49 45
23 49 45
22 48 44
22 48 44
22 48 44
22 48 44
22 49 44
22 49 45
22 49 44
21 47 43
22 48 43
22 49 44
22 47 43
22 47 43
22 48 44
22 48 43
22 48 44
89 89 82
157 144 132
192 173 157
210 188 171
43 49 49
28 47 45
23 49 44
21 47 42
22 48 44
22 48 44
23 51 46
22 48 43
22 48 44
22 48 44
21 47 42
21 47 42
22 49 44
22 48 44
22 48 43
22 48 44
22 49 44
22 48 43
22 48 44
22 48 43
22 48 44
22 49 45
22 48 44
22 49 44
22 48 44
22 49 44
22 48 44
22 49 44
59 52 43
213 103 63
252 120 71
255 123 73
255 126 74
255 127 75
21 47 43
21 47 43
21 47 42
20 45 41
21 46 42
21 47 43
21 47 43
21 46 42
21 47 42
21 47 42
21 47 42
21 46 42
21 46 42
21 47 42
21 47 43
21 46 42
21 46 42
21 47 43
21 46 42
22 47 43
21 47 42
21 46 42
22 48 44
21 47 43
21 46 42
21 47 43
21 47 43
22 48 43
22 47 43
22 48 44
22 48 44
21 47 43
22 47 43
21 47 42
21 47 42
21 46 42
22 48 44
21 47 42
22 48 43
22 48 44
21 46 42
22 49 44
22 48 44
22 48 43
22 47 43
21 47 43
22 48 44
21 47 43
22 48 44
22 48 44
22 47 43
22 48 43
22 47 43
22 48 44
21 47 43
21 47 43
22 48 44
21 47 43
21 47 43
22 48 43
22 48 43
22 49 44
22 48 44
23 50 45
22 47 43
22 48 43
22 49 44
22 49 45
22 48 43
22 48 44
21 47 42
21 47 42
22 47 43
21 47 43
22 47 43
22 48 43
22 48 44
22 49 44
22 49 44
22 48 44
22 49 44
141 131 120
218 195 179
232 208 190
239 213 195
174 157 144
40 43 47
41 43 47
39 44 46
27 47 44
22 48 43
22 49 44
22 49 44
22 48 44
22 48 44
22 48 43
22 48 44
22 48 44
22 48 44
22 48 44
22 49 44
23 50 45
22 48 44
22 48 44
22 49 45
22 47 43
22 47 43
22 48 44
21 47 42
22 48 43
22 48 44
23 50 45
21 46 42
53 50 42
201 117 88
234 156 128
246 159 129
255 136 94
255 126 74
255 128 75
21 47 43
21 46 42
21 46 42
21 47 42
21 46 42
22 48 44
21 47 43
21 46 42
21 47 43
21 46 42
21 46 42
22 48 43
21 47 43
21 47 43
22 48 43
21 47 43
21 47 43
22 47 43
22 48 43
21 47 43
21 47 43
21 46 42
21 47 43
22 48 43
21 46 42
21 46 42
21 47 42
21 47 43
22 47 43
21 47 43
21 46 42
22 48 44
21 47 43
21 47 43
22 48 43
21 47 42
21 47 43
22 48 44
22 47 43
21 46 42
22 48 43
22 48 44
22 47 43
22 48 44
22 49 44
21 46 42
21 47 42
21 47 43
22 48 44
22 49 44
22 48 44
22 48 43
22 47 43
21 47 43
22 49 45
22 48 43
22 48 44
22 48 44
22 48 43
23 50 45
22 47 43
22 49 44
22 49 44
22 48 44
22 48 44
22 48 44
22 48 44
21 47 43
22 49 44
21 47 43
23 50 45
21 47 43
22 48 43
22 48 43
22 47 43
22 48 43
22 48 44
22 49 44
23 50 45
22 49 44
134 125 115
215 192 176
227 203 186
234 209 191
226 202 184
84 78 75
41 44 47
41 44 47
41 43 47
39 42 45
26 47 44
22 48 44
22 48 43
22 48 43
22 49 44
22 49 44
22 48 43
22 48 44
23 50 45
22 48 44
22 48 43
22 49 45
22 49 44
22 48 44
22 48 44
22 47 43
22 48 44
22 48 44
22 48 43
22 48 43
22 49 44
22 49 44
22 47 43
133 104 91
200 176 160
220 195 177
232 206 188
238 211 192
250 189 163
255 176 131
20 45 41
21 46 42
22 48 44
21 46 42
21 47 43
22 48 43
21 47 42
22 48 43
21 47 43
22 48 43
21 47 43
21 47 43
22 49 45
21 46 42
22 48 43
21 47 42
21 47 42
21 47 43
21 47 43
21 45 41
21 47 42
21 47 43
21 47 43
21 47 43
21 47 43
21 47 43
22 47 43
21 47 43
21 47 43
22 49 45
22 48 44
22 48 43
22 48 43
21 47 43
21 47 43
22 47 43
22 48 44
22 48 44
21 47 43
22 48 44
22 48 44
21 46 42
21 47 42
22 49 44
22 48 44
21 47 43
22 48 44
21 47 43
22 48 44
22 48 44
22 48 44
21 47 43
21 47 43
22 48 44
21 47 43
22 49 44
22 47 43
22 49 44
22 49 44
22 48 44
22 49 44
22 48 43
22 48 44
22 47 43
22 49 44
22 48 44
22 49 44
22 48 43
21 47 42
21 46 42
21 47 43
22 47 43
22 48 43
22 48 44
22 49 45
21 47 43
21 47 43
21 47 43
22 49 44
60 69 63
182 164 151
213 190 174
226 202 184
233 208 190
131 118 110
67 65 62
116 109 96
55 55 55
41 43 47
40 43 46
36 41 42
22 48 44
21 46 42
23 50 45
22 49 44
22 47 43
22 48 43
22 48 44
22 49 44
23 49 45
22 48 44
22 49 44
22 48 43
22 49 44
21 47 42
22 48 43
22 48 43
22 48 44
22 49 44
22 48 44
23 50 45
22 47 43
30 49 45
154 136 124
190 169 153
212 188 170
227 201 183
234 207 188
239 212 193
255 228 201
22 48 43
21 46 42
21 47 42
21 47 43
21 47 43
21 46 42
21 47 43
21 46 42
21 47 43
21 47 43
22 48 43
22 48 43
21 47 43
21 47 43
22 48 43
22 48 43
22 48 43
21 47 43
22 48 43
21 47 43
22 48 44
21 47 43
22 48 43
21 47 42
21 47 43
21 46 42
22 47 43
22 47 43
22 47 43
21 47 43
22 47 43
21 47 43
22 48 44
22 48 44
21 46 42
21 46 42
22 48 44
22 48 43
21 47 43
22 48 44
22 48 44
22 48 43
22 49 44
22 49 44
22 47 43
22 48 44
22 48 44
21 47 42
22 48 44
22 48 43
22 49 44
22 48 43
22 48 44
21 47 43
22 48 44
22 47 43
22 49 44
22 47 43
22 48 43
21 47 43
22 48 44
22 48 43
22 49 44
22 48 43
22 48 44
22 49 44
22 49 44
22 48 44
22 48 43
23 50 45
22 48 43
22 48 44
22 47 43
22 49 45
22 48 44
22 49 44
22 48 43
22 48 44
22 47 43
110 106 99
181 163 149
206 184 168
222 198 181
181 161 148
39 42 45
78 75 69
150 140 121
70 68 64
40 43 46
39 42 45
73 68 65
95 92 83
22 49 45
21 46 42
22 48 44
22 48 44
21 47 42
22 49 44
22 48 43
23 50 45
22 49 44
22 48 43
21 47 42
22 48 44
22 48 44
23 49 45
22 48 44
22 48 43
22 48 43
22 49 44
22 48 43
23 51 46
44 57 52
150 136 125
184 163 148
197 174 156
211 186 167
220 195 176
222 196 176
236 208 188
22 48 44
22 47 43
21 46 42
21 47 43
22 48 43
22 48 44
21 47 43
21 47 43
21 47 43
22 48 43
22 49 44
22 48 43
21 47 43
22 47 43
22 48 44
21 47 43
22 48 44
22 47 43
22 48 43
21 47 42
21 47 43
21 47 43
22 48 44
22 48 44
22 48 43
22 48 44
22 48 44
21 47 43
22 49 44
22 48 44
22 48 44
22 48 43
22 48 44
22 48 43
22 48 43
22 49 45
22 48 44
22 47 43
21 47 43
22 48 43
22 48 44
21 47 42
21 47 43
22 48 44
22 49 45
21 46 42
22 49 45
23 50 46
22 49 44
22 48 43
22 48 44
22 48 43
22 48 44
22 49 44
22 49 44
22 48 43
21 47 43
22 48 43
22 48 44
22 48 43
22 47 43
21 47 42
22 48 43
22 48 44
22 49 44
22 49 44
22 48 44
22 49 44
22 48 43
22 49 44
22 48 44
21 46 42
22 48 44
22 47 43
22 49 44
23 50 45
22 47 43
22 48 43
22 47 43
112 106 98
169 152 139
190 169 153
192 171 155
60 57 56
38 40 43
39 41 44
48 48 49
41 43 46
38 41 44
38 40 43
145 127 114
134 121 107
22 48 43
22 48 43
21 47 43
22 48 44
22 49 44
22 49 44
23 49 45
22 48 44
22 49 44
22 49 44
22 48 43
23 49 45
22 49 44
23 49 45
22 48 44
22 48 43
21 47 42
22 47 42
22 48 44
22 47 42
43 57 52
121 110 101
155 139 125
177 156 140
190 168 150
204 180 160
210 185 165
219 193 173
21 47 43
22 48 44
21 46 42
21 46 42
22 48 44
22 48 43
21 47 43
22 47 43
22 48 44
22 48 43
21 47 43
22 47 43
21 47 43
21 47 43
21 47 43
21 47 43
21 46 42
22 48 44
21 47 43
21 47 43
21 46 42
22 48 43
21 47 43
21 47 43
22 48 44
22 48 44
22 48 43
22 48 43
22 47 43
22 48 43
21 47 43
22 48 44
22 48 44
22 49 45
21 47 42
22 49 44
21 46 42
22 48 44
22 48 43
22 48 44
22 49 45
22 48 44
22 48 43
22 48 44
22 48 44
22 49 45
22 48 43
22 48 44
21 47 43
23 50 45
22 48 44
22 48 44
22 49 44
22 48 44
22 48 43
21 47 43
22 48 44
22 48 44
22 47 43
21 47 43
22 48 43
22 48 44
22 47 43
22 49 44
22 49 44
22 49 44
22 48 44
22 49 45
22 49 44
22 48 43
22 48 43
22 49 44
22 48 44
22 49 44
21 47 43
22 48 44
22 48 43
22 48 44
21 47 42
114 107 99
150 136 125
170 152 138
74 68 64
113 102 93
120 107 97
109 97 89
37 39 41
36 39 41
36 38 41
83 75 71
202 175 155
136 121 107
21 47 42
22 49 44
22 48 43
22 48 44
23 49 45
22 49 44
22 47 43
22 49 44
23 49 45
22 48 43
22 48 43
22 48 43
22 48 43
23 50 45
22 48 44
22 47 43
22 47 43
22 48 43
22 47 43
21 46 41
35 53 48
96 90 82
125 112 100
154 137 122
175 155 138
178 157 140
189 166 148
195 172 153
22 48 43
21 46 42
20 45 41
21 47 43
22 47 43
22 48 43
22 48 43
22 48 44
22 48 43
22 48 43
21 47 42
21 47 43
21 46 42
22 48 44
22 48 43
21 47 42
22 48 43
21 47 43
22 49 44
22 48 44
21 46 42
22 49 44
22 47 43
22 49 45
22 48 44
21 47 43
22 48 44
22 48 44
22 49 45
21 46 42
22 47 43
22 48 44
22 48 43
22 47 43
21 46 42
22 49 44
21 47 42
21 47 43
22 47 43
22 49 44
22 48 44
22 48 44
22 48 44
22 48 44
21 47 43
22 48 43
21 46 42
22 47 43
22 48 43
22 48 43
22 48 43
22 49 44
22 49 44
22 48 43
22 48 43
22 48 43
22 48 44
22 49 44
23 50 45
22 49 45
22 49 44
22 48 44
22 49 44
21 47 43
22 49 44
22 48 43
22 48 44
22 48 43
22 48 43
22 49 44
21 47 42
21 47 42
21 46 42
22 48 44
21 46 42
22 47 43
22 48 43
22 47 43
21 47 43
87 84 77
122 112 103
92 84 77
102 92 84
167 148 132
190 167 149
170 149 133
119 106 95
32 34 36
33 35 37
162 143 126
180 158 139
123 111 98
22 48 43
22 49 44
22 48 44
22 49 44
23 50 45
22 48 44
22 48 43
22 48 43
23 49 45
22 48 44
22 48 43
22 48 44
22 49 44
22 47 43
22 48 43
22 48 43
22 48 43
22 48 44
21 45 41
19 43 39
18 40 36
66 64 58
93 87 78
107 97 87
129 115 101
145 129 114
156 138 122
172 151 134
22 48 43
21 46 42
21 47 43
21 47 43
21 46 42
21 47 43
22 48 43
22 48 44
21 47 43
21 47 43
22 48 43
22 48 44
21 47 43
22 48 44
21 47 43
21 46 42
22 49 44
22 47 43
22 48 43
22 48 44
22 48 44
22 48 44
22 48 43
22 48 43
21 47 42
21 47 43
22 48 44
22 48 44
22 48 43
22 49 44
22 48 44
22 49 44
21 46 42
21 47 43
22 49 44
21 47 43
22 48 43
22 49 44
22 48 44
22 47 43
22 48 44
22 48 44
22 49 44
22 48 44
22 49 44
21 47 43
22 48 44
22 48 44
21 47 42
22 49 44
22 49 44
22 49 44
22 48 44
22 49 44
22 48 44
22 48 43
22 48 44
22 48 43
22 49 44
22 47 43
22 48 44
22 48 43
22 48 44
21 47 42
22 49 45
22 48 44
21 47 43
22 48 44
22 49 44
22 48 44
22 48 43
22 48 44
22 48 43
21 47 42
22 48 43
22 48 44
21 47 42
20 44 40
17 39 36
62 65 59
76 71 66
19 21 23
109 98 88
118 105 94
122 107 95
168 148 131
143 125 111
33 34 35
112 99 89
168 147 129
150 131 114
71 72 63
22 48 43
21 47 42
22 47 43
22 49 44
22 48 44
23 50 45
22 48 43
22 48 43
21 47 42
22 48 43
22 47 43
22 49 44
22 49 44
22 49 44
22 48 43
22 48 43
23 49 44
22 48 43
19 42 38
17 38 35
15 33 31
28 37 34
60 59 51
72 68 58
100 92 82
106 96 84
126 112 98
136 121 106
21 47 43
21 46 42
21 46 42
21 47 42
21 47 42
22 47 43
21 47 43
21 47 42
21 47 43
22 48 43
23 50 45
22 49 44
21 47 43
21 47 42
22 48 43
22 48 44
22 47 43
22 49 45
22 49 45
22 48 44
22 49 45
21 47 43
22 48 44
22 48 43
22 48 44
21 46 42
22 48 44
21 46 42
22 48 43
23 50 45
22 48 43
22 47 43
21 47 43
22 48 44
22 49 45
22 48 44
22 48 44
22 48 44
22 48 43
22 48 44
22 48 44
22 47 43
22 48 43
22 49 44
22 48 43
22 49 44
22 48 43
21 46 42
23 50 45
22 49 45
22 48 44
22 49 45
22 48 43
23 50 45
22 48 44
22 48 43
22 49 44
22 48 43
22 48 43
22 48 43
23 50 45
22 48 43
22 49 44
22 47 43
21 47 43
23 49 45
22 48 43
22 47 43
21 46 42
22 48 43
22 49 44
23 49 45
22 49 44
22 48 43
22 48 43
21 45 41
20 44 40
17 39 36
15 35 33
13 30 28
11 15 16
14 16 17
67 62 56
119 108 96
97 87 76
104 93 82
117 104 91
59 53 48
142 125 109
129 113 97
101 92 79
22 47 43
21 46 42
21 46 42
21 47 42
22 48 43
22 48 43
22 47 43
22 48 44
22 48 43
22 48 44
22 48 43
22 47 43
22 47 42
22 49 44
22 49 44
22 48 43
22 48 43
22 47 42
21 45 40
20 44 39
17 37 34
13 30 28
12 27 26
25 32 27
41 44 34
56 55 46
66 63 53
66 63 51
71 67 55
21 47 43
21 47 43
21 47 42
21 47 43
21 47 43
21 46 42
21 47 43
22 48 43
21 47 43
21 47 43
22 48 43
21 47 43
22 48 43
22 48 44
22 48 43
21 46 42
22 47 43
22 49 45
22 48 43
21 47 42
22 48 43
22 48 43
21 47 43
22 49 44
21 47 42
22 48 43
22 48 43
22 47 43
22 48 43
22 49 44
22 49 44
22 48 44
22 48 44
22 48 44
22 49 45
22 47 43
23 50 45
22 49 44
22 48 44
22 48 44
22 48 43
22 48 43
21 47 43
22 49 45
21 47 43
22 48 44
21 46 42
22 48 44
22 48 44
22 48 43
22 48 44
22 49 45
22 48 43
22 47 43
22 48 44
22 49 45
22 49 45
22 47 43
22 49 44
22 49 44
22 48 44
22 48 44
22 47 43
22 48 44
23 50 45
22 48 44
22 49 44
22 48 44
22 47 43
22 49 44
22 49 44
22 49 44
22 48 43
22 48 43
22 47 43
21 45 41
19 42 38
16 37 34
13 31 29
13 30 29
10 23 22
10 12 12
16 18 17
53 51 45
79 73 64
71 65 56
50 45 40
96 87 74
92 83 69
80 74 62
34 48 42
22 47 42
21 46 42
22 47 42
21 47 42
22 48 43
23 50 45
22 49 44
22 48 44
22 48 43
22 48 44
22 49 44
22 47 42
23 49 45
22 48 43
22 48 43
22 47 43
23 49 45
22 47 42
22 47 42
21 45 40
20 43 39
16 35 32
13 29 27
11 25 23
10 20 18
27 31 23
36 38 28
31 38 28
44 45 33
22 48 43
21 46 42
21 47 43
22 48 43
22 48 44
21 46 42
21 47 43
22 48 43
21 47 43
22 48 44
21 47 43
22 48 44
22 48 44
22 47 43
22 48 43
22 49 44
21 47 42
22 49 45
21 47 43
21 47 43
21 47 43
22 48 44
21 47 43
22 48 44
21 47 43
22 48 43
21 47 43
22 48 43
22 48 43
22 48 43
21 47 43
22 48 43
22 48 44
22 48 43
22 48 43
22 48 43
22 48 44
22 49 44
22 49 45
22 49 44
22 48 43
22 48 43
22 48 44
21 47 43
22 49 44
23 50 45
22 48 44
22 49 44
21 47 42
22 48 44
22 47 43
22 48 44
22 49 44
22 49 44
22 49 44
21 47 43
22 49 44
22 49 44
22 48 44
22 48 44
22 49 44
22 49 44
22 48 43
23 49 44
23 49 45
22 48 43
22 48 44
22 48 43
22 48 44
22 48 43
23 49 45
22 49 44
22 48 43
22 48 43
23 49 44
21 46 42
20 44 39
16 36 33
13 30 29
12 28 27
12 28 27
8 18 17
5 10 9
7 9 8
7 9 8
8 10 9
38 39 28
46 46 35
43 44 33
36 42 36
20 42 38
21 45 40
21 46 41
22 47 42
22 47 42
22 48 44
23 49 44
22 49 44
22 49 44
22 47 43
22 49 44
22 48 44
23 49 44
22 49 44
22 48 44
22 47 42
22 48 43
22 48 43
22 47 42
21 46 42
22 47 42
21 45 40
21 45 40
18 39 35
15 32 29
11 25 22
9 21 20
10 19 17
20 23 18
24 24 18
21 47 42
21 47 43
21 46 42
21 47 43
22 48 44
21 47 43
21 47 43
21 47 43
22 48 44
21 47 42
21 46 42
22 48 43
22 47 43
22 48 44
21 46 42
21 46 42
22 48 44
22 49 44
23 50 46
22 48 43
22 48 43
22 48 44
22 48 44
22 49 44
22 48 43
22 48 44
21 47 43
23 49 45
22 49 44
21 47 43
22 48 44
22 48 44
23 50 45
22 48 44
22 48 44
22 49 44
22 49 44
22 49 44
22 48 43
22 48 43
22 48 44
21 47 42
22 48 43
22 48 44
23 50 45
22 49 44
22 48 44
22 48 44
22 48 44
22 48 43
23 50 45
22 48 43
22 48 44
23 50 46
22 48 44
22 49 44
22 49 44
22 48 44
22 48 43
22 49 44
22 48 44
22 49 44
21 47 42
22 49 44
22 48 44
23 49 45
22 48 43
22 48 43
22 48 43
23 50 45
22 49 44
22 49 44
21 46 42
22 48 43
22 48 43
22 47 42
22 47 43
19 42 38
18 40 36
13 30 28
12 27 26
10 23 22
8 19 18
6 14 13
6 12 11
17 22 17
24 27 20
23 27 21
11 24 22
17 37 33
21 45 40
22 47 42
21 46 41
21 45 40
22 47 42
22 48 44
22 47 43
22 49 44
22 48 43
22 47 42
22 48 43
22 47 43
22 48 43
22 48 44
23 50 45
22 47 43
22 48 43
22 48 43
23 49 44
22 48 43
22 48 43
22 48 43
21 46 41
21 46 41
21 45 40
19 41 36
19 40 36
17 37 33
16 34 30
15 32 29
22 48 44
21 46 42
21 47 43
21 47 43
22 48 43
22 48 43
21 47 43
21 47 43
21 47 43
22 48 44
22 48 44
22 48 43
21 47 43
22 49 44
21 47 42
22 48 44
22 48 44
21 47 43
21 47 43
22 47 43
22 48 44
22 48 44
22 49 44
22 48 43
22 48 44
22 49 45
22 48 44
22 48 43
21 47 43
22 48 44
22 47 43
22 48 44
22 47 43
22 49 44
21 47 43
22 49 44
22 48 44
22 49 44
23 50 45
22 48 43
22 49 45
22 47 43
23 50 45
22 48 43
22 47 43
22 48 43
22 48 44
22 48 44
22 47 43
22 47 43
22 49 44
23 50 45
22 48 43
22 47 43
22 49 44
22 48 43
23 50 45
22 48 44
22 48 44
22 48 43
22 49 44
22 49 44
22 48 43
22 47 43
22 48 44
23 50 45
22 49 44
23 50 45
22 48 44
22 48 44
22 49 44
22 48 44
22 48 43
22 48 44
22 47 42
22 47 43
21 46 42
22 47 42
21 46 41
20 44 39
18 39 35
17 37 33
14 31 28
12 27 25
11 25 23
11 24 22
13 29 26
15 33 29
19 40 35
21 45 39
22 46 41
21 45 40
22 49 44
21 46 42
22 47 42
22 47 42
21 46 42
23 49 44
22 48 43
21 47 42
22 47 42
22 48 43
22 49 44
23 49 44
22 48 43
22 48 43
22 48 43
22 48 43
22 48 43
22 48 44
23 49 44
23 49 44
22 47 43
22 47 42
22 48 43
21 46 41
21 45 40
21 45 39
21 45 40
21 45 40
22 48 44
22 48 43
21 47 43
21 47 43
22 48 43
22 49 44
22 48 44
21 46 42
22 49 44
22 49 45
21 47 43
22 48 44
22 48 43
21 47 42
22 48 43
22 47 43
22 48 44
21 46 42
22 48 43
22 47 43
22 48 43
21 47 43
22 48 43
21 47 43
21 47 42
22 48 44
22 49 44
22 47 43
21 47 43
23 49 45
22 48 44
22 48 44
21 47 43
22 47 43
22 49 44
22 49 44
22 49 44
22 48 44
22 49 44
21 47 43
22 48 43
21 47 43
22 47 43
21 46 42
22 47 43
22 48 44
22 49 44
22 48 44
22 48 44
23 50 46
22 48 43
22 49 44
21 47 43
23 49 45
23 50 45
22 48 43
22 49 44
23 50 45
22 49 44
23 50 45
22 47 43
22 48 44
23 50 45
22 48 44
22 47 43
22 49 45
22 49 44
22 48 44
22 49 44
23 49 45
22 48 44
22 48 43
22 49 44
22 48 44
22 48 43
22 47 43
22 48 43
21 46 41
22 48 43
21 46 42
21 46 41
20 44 39
21 45 40
20 44 39
20 43 38
20 44 39
21 45 39
21 46 40
21 45 40
21 45 40
21 45 40
22 47 42
21 46 42
22 47 42
21 46 41
22 48 43
22 49 44
22 47 43
22 48 43
22 48 44
23 49 44
23 49 44
22 48 43
23 50 45
22 48 43
23 49 45
22 48 44
23 49 44
23 50 45
22 49 44
23 50 45
22 48 43
22 48 43
22 48 43
22 48 43
22 48 43
22 48 43
21 46 41
22 48 43
22 47 42
21 47 43
22 48 44
21 47 43
21 47 43
22 48 44
21 47 43
22 48 44
22 49 44
22 47 43
22 49 44
21 47 43
21 47 43
22 49 44
21 47 43
21 46 42
22 49 45
21 47 43
21 47 43
22 49 44
22 48 44
21 47 42
22 48 44
22 49 44
22 47 43
21 47 42
22 48 43
22 49 44
22 48 43
22 48 43
22 48 44
22 48 44
22 48 43
22 48 44
22 49 45
22 48 43
22 48 44
22 48 43
22 48 43
22 49 44
23 50 45
22 47 43
22 48 44
22 49 44
22 49 44
22 49 45
22 48 43
22 48 43
22 47 43
22 47 43
22 47 43
22 49 44
22 48 44
22 47 43
22 49 44
23 50 45
22 47 43
22 48 43
22 48 43
23 50 45
23 50 45
22 49 44
22 48 44
22 49 44
22 49 44
21 47 42
22 48 44
22 49 44
23 50 45
22 48 44
23 49 45
22 49 44
22 48 43
22 49 44
22 48 43
22 49 44
22 49 44
22 48 43
22 48 43
23 49 44
22 48 43
22 47 42
22 48 43
22 47 43
22 47 42
21 46 41
21 46 41
21 46 41
22 47 42
21 47 42
21 46 41
23 49 44
21 46 41
22 47 43
22 47 42
22 48 43
22 48 43
22 47 42
22 48 43
22 47 42
23 50 45
23 50 45
22 49 44
23 50 45
23 50 45
22 49 44
23 49 44
23 49 45
23 49 44
23 50 45
22 49 44
22 48 43
22 48 43
22 49 44
22 48 43
22 47 42
22 47 43
22 48 43
22 48 43
23 49 44
22 47 42
22 47 43
21 47 43
21 47 43
22 48 43
22 48 44
22 48 44
21 47 43
22 49 44
22 48 44
21 46 42
22 47 43
21 47 43
21 47 43
22 48 43
22 48 43
21 47 43
22 48 44
22 49 44
22 47 43
22 48 43
22 49 44
22 48 43
22 48 44
22 47 43
22 48 44
22 48 44
23 50 45
21 47 43
22 48 44
22 48 43
22 48 44
22 49 44
21 46 42
22 49 44
22 49 44
22 49 44
23 50 45
22 48 44
23 49 45
21 47 43
22 49 44
22 48 44
22 49 45
22 49 45
22 48 44
23 49 45
22 49 45
22 47 43
21 47 43
23 50 45
23 50 45
21 47 43
22 48 43
22 48 44
22 49 44
22 48 44
22 49 44
23 50 45
22 47 43
22 47 43
22 48 43
22 49 44
22 49 44
22 48 43
22 47 43
22 49 44
23 50 45
23 49 45
22 47 43
23 49 45
23 49 44
22 49 44
22 48 44
23 49 45
22 48 43
23 50 45
22 48 43
23 49 44
22 47 42
22 49 44
22 48 43
22 47 43
22 47 42
22 47 42
22 48 43
22 47 43
22 48 43
21 47 42
21 46 42
22 48 44
21 46 42
21 47 42
22 48 44
23 50 45
21 47 42
23 50 45
23 49 44
22 48 44
22 48 44
22 48 44
21 47 43
22 49 44
22 49 44
22 48 44
23 49 44
22 49 44
22 49 44
23 49 44
23 49 44
22 47 42
23 51 46
23 50 45
23 49 45
22 49 44
23 49 44
22 49 44
22 48 43
22 48 44
23 50 45
23 50 45
22 48 43
22 48 43
22 48 44
21 47 42
22 48 43
22 48 44
22 48 43
22 49 44
22 48 43
22 48 44
21 46 42
22 48 43
21 46 42
22 48 43
21 47 43
23 50 45
22 49 44
22 48 44
22 48 44
23 50 45
21 47 43
22 48 43
22 49 44
22 49 45
21 47 43
22 49 44
22 48 43
22 49 44
22 48 43
22 48 44
22 48 44
22 48 43
22 47 43
21 47 43
23 50 45
22 48 44
22 48 44
22 48 43
22 49 44
23 49 45
21 47 43
22 47 43
22 48 43
21 47 43
21 47 43
22 48 44
22 49 45
22 49 45
22 49 45
21 46 42
22 49 44
22 49 44
22 48 44
21 47 43
22 48 43
22 48 43
22 49 45
22 49 44
23 49 45
22 49 44
21 47 42
22 48 43
22 49 44
22 47 43
22 49 44
22 48 44
23 49 45
22 49 44
23 49 44
22 49 44
22 49 44
22 49 44
22 48 44
23 50 45
22 47 43
22 47 43
22 47 42
23 50 45
23 49 44
22 49 44
22 49 44
22 48 43
23 49 44
21 47 42
22 48 43
22 48 43
22 49 44
23 50 45
22 49 44
22 49 44
21 46 41
22 48 43
23 49 45
22 49 44
22 49 44
22 48 43
22 49 44
23 49 45
22 48 43
22 49 44
22 48 44
22 49 44
22 48 43
23 49 45
22 49 44
23 50 45
23 51 46
23 49 44
23 50 45
23 50 45
23 50 45
22 48 43
22 49 44
22 49 44
23 49 44
23 49 45
23 49 45
23 49 44
22 49 44
23 49 44
22 48 44
22 48 44
22 48 44
22 48 43
21 47 43
22 47 43
22 48 43
22 48 44
21 46 42
22 48 44
22 48 43
21 47 43
22 48 44
22 47 43
21 47 43
21 47 43
21 47 42
21 47 43
22 48 44
22 48 43
22 48 43
22 48 43
21 47 43
21 47 42
22 49 44
22 49 44
22 48 44
22 48 44
21 47 43
22 49 45
22 48 43
22 48 43
22 48 44
22 49 45
22 49 45
23 50 45
23 50 45
22 48 43
22 48 44
22 49 44
22 47 43
23 49 45
22 49 44
22 48 44
22 48 43
23 50 45
22 47 43
23 50 45
22 48 43
22 48 44
22 48 43
22 49 44
22 48 44
22 49 45
22 48 43
22 48 44
22 48 44
23 50 45
23 49 45
22 48 44
22 49 44
22 49 45
22 49 45
22 49 44
22 49 44
22 48 44
22 48 44
22 49 44
23 49 45
22 47 43
22 49 44
22 49 44
22 49 44
22 48 43
22 49 44
22 48 43
22 48 44
23 50 45
22 48 43
22 49 44
23 50 45
22 47 43
22 49 44
23 49 44
23 49 44
23 49 44
22 48 44
23 49 45
22 49 44
22 48 43
22 49 44
22 47 43
22 48 44
23 50 45
23 49 45
23 49 45
22 49 44
22 48 44
23 49 45
22 48 43
23 49 45
23 49 44
22 49 44
22 48 44
22 49 44
22 49 44
22 49 44
22 49 44
22 49 44
22 48 43
22 49 44
22 49 44
23 50 45
22 49 44
23 50 45
22 48 43
23 50 45
23 50 45
22 49 44
23 49 44
