P3
120 80
255
18 41 38
17 39 37
18 41 38
18 41 38
18 41 38
18 40 38
18 41 38
18 41 38
18 41 38
18 40 38
18 41 39
19 42 39
18 42 39
18 41 38
18 41 38
18 40 38
18 41 39
19 42 39
18 41 39
18 42 39
19 42 39
18 41 38
18 40 38
18 40 37
18 40 38
18 41 38
18 41 38
18 41 38
18 41 39
18 42 39
18 41 38
19 42 39
18 41 38
18 41 38
18 41 38
18 41 38
18 41 38
19 42 40
17 40 37
18 41 38
19 42 39
19 42 39
18 41 38
18 41 38
18 41 38
18 41 38
18 41 38
18 41 39
18 42 39
18 41 38
18 42 39
18 41 38
18 41 39
18 41 38
18 41 39
19 42 39
19 42 39
18 41 38
18 40 38
18 41 38
18 41 38
19 42 39
18 41 38
18 41 39
18 42 39
18 41 38
18 41 39
18 41 38
18 41 38
18 41 39
18 41 39
19 42 39
19 42 39
18 41 38
18 41 38
18 40 38
18 41 38
18 40 38
19 42 39
18 41 38
18 41 38
18 41 38
18 41 38
19 42 40
18 40 37
19 42 39
18 41 38
18 41 39
18 41 38
18 41 38
19 42 39
18 42 39
18 41 39
18 41 38
18 41 38
18 41 38
19 42 39
18 41 38
18 41 39
18 41 38
18 41 38
19 42 39
18 42 39
18 41 38
19 43 40
18 42 39
18 41 38
18 42 39
19 43 40
19 42 39
19 42 39
19 42 40
19 43 40
18 42 39
18 42 39
18 42 39
18 41 38
18 41 38
18 42 39
19 42 39
18 40 38
18 41 38
18 40 38
18 41 39
18 41 38
18 40 37
19 42 39
18 40 38
18 41 38
18 41 38
19 42 39
18 41 38
18 42 39
18 42 39
18 40 37
18 41 38
19 42 39
18 41 38
18 42 39
18 41 38
18 41 39
19 42 39
19 42 39
18 41 38
18 41 39
18 41 38
18 41 38
18 41 38
18 41 38
18 41 38
18 41 38
18 41 38
19 42 39
18 41 38
18 41 39
19 42 39
18 41 38
18 42 39
18 41 38
18 42 39
18 41 38
18 41 39
18 41 38
19 42 39
19 42 39
18 41 38
18 41 38
19 42 39
19 42 39
19 42 39
19 42 39
19 42 39
19 43 40
19 42 39
19 42 39
18 41 38
18 41 38
19 42 39
18 41 38
19 42 39
19 42 39
19 42 39
18 41 38
19 42 39
18 41 38
19 42 39
18 41 38
19 42 39
19 42 39
19 42 39
19 42 39
18 41 38
19 42 39
19 43 40
19 43 40
19 43 40
19 42 39
18 41 38
19 43 40
19 43 40
18 42 39
19 42 39
18 41 39
19 42 39
19 42 39
18 41 38
19 42 39
18 41 39
19 43 40
19 43 40
18 41 38
19 42 39
19 42 39
19 43 40
19 42 39
19 42 40
18 41 39
19 42 39
19 43 40
19 42 39
19 42 39
19 42 39
19 42 39
18 41 38
18 42 39
19 42 39
19 42 39
19 42 39
19 42 39
19 42 39
19 42 39
18 41 38
19 42 39
18 42 39
18 42 39
19 43 40
19 42 39
18 41 39
18 41 39
18 41 38
18 41 38
18 42 39
19 42 39
18 41 38
18 42 39
19 42 39
18 41 38
19 42 39
18 41 38
18 42 39
18 41 38
18 41 38
19 42 39
19 42 39
18 42 39
19 42 39
18 41 38
19 42 40
18 42 39
19 43 40
18 41 39
19 42 39
19 42 39
19 42 39
18 41 38
19 42 39
19 42 39
18 41 38
19 43 40
19 43 40
18 42 39
19 43 40
19 42 39
19 42 39
18 42 39
19 43 40
19 42 39
19 43 40
19 42 39
19 42 39
19 43 40
19 43 40
19 42 39
19 42 39
18 41 39
19 43 40
19 42 39
19 43 40
19 42 39
19 43 40
19 42 39
18 41 39
18 41 38
19 43 40
19 42 39
19 43 40
19 42 39
18 41 38
19 43 40
19 42 39
19 43 40
19 42 39
19 42 39
19 42 39
19 42 39
19 42 39
19 43 40
19 42 39
19 43 39
19 42 39
19 43 39
19 43 40
19 42 39
19 43 40
19 42 39
19 42 39
19 43 40
19 44 41
19 42 39
19 43 39
18 41 38
19 42 39
19 43 40
18 41 38
19 43 40
19 43 40
19 42 39
19 42 39
19 42 39
19 42 39
19 42 39
19 42 39
19 42 39
20 44 41
18 42 38
19 43 40
19 43 39
19 43 40
19 42 39
19 42 39
19 43 40
19 43 40
19 43 40
19 43 40
19 43 40
19 42 39
19 42 39
19 43 40
19 43 40
18 42 38
19 43 40
19 43 40
19 43 40
19 42 39
19 42 39
19 42 39
19 42 39
19 42 39
19 43 40
19 43 40
18 40 37
19 43 40
19 42 39
18 41 38
18 42 39
19 43 40
19 42 39
19 42 39
18 42 39
19 42 39
19 42 39
18 41 39
19 43 40
19 43 40
19 42 39
19 42 39
19 42 39
19 42 39
19 42 39
19 42 39
19 43 40
19 44 41
19 42 39
19 43 40
19 43 39
19 42 39
19 44 40
19 42 39
19 42 39
19 43 40
19 43 40
19 43 40
19 43 40
19 44 40
19 43 40
19 43 39
19 43 40
19 43 40
19 43 40
19 42 39
20 44 41
20 44 41
19 42 39
19 43 40
20 44 41
19 42 39
18 41 38
19 43 40
19 43 39
19 42 39
19 43 40
19 43 40
19 44 40
19 42 39
19 42 39
19 42 39
20 44 40
19 43 40
19 43 40
19 43 40
19 42 39
20 44 40
19 43 40
19 42 39
19 43 40
19 43 40
20 45 41
19 43 39
19 43 39
19 43 40
19 43 39
19 43 40
19 43 40
19 42 39
20 44 41
20 44 41
19 44 40
19 43 40
19 43 40
19 44 40
19 43 39
19 43 40
19 44 40
19 43 39
19 43 39
19 43 39
19 43 40
20 44 41
20 44 41
19 43 40
20 44 40
20 44 40
19 42 39
19 43 40
19 43 40
19 43 40
19 43 40
19 43 39
20 44 40
19 43 40
19 43 39
19 43 40
19 43 40
19 43 40
19 43 40
19 44 40
19 42 39
19 42 39
19 43 40
19 43 40
19 44 40
19 42 39
19 42 39
19 42 39
19 42 39
19 42 39
20 44 41
19 43 40
19 42 39
19 42 39
19 42 40
19 43 40
19 42 39
19 42 39
19 42 39
19 42 39
19 42 39
18 42 39
19 42 39
19 42 39
19 43 40
18 41 38
20 44 41
19 43 40
19 42 39
19 42 39
19 43 40
19 43 40
19 42 39
19 43 40
19 42 39
19 42 39
19 44 41
19 42 39
19 43 40
19 42 39
19 42 39
19 42 39
19 42 39
19 42 39
20 44 41
19 43 40
19 43 40
19 43 40
19 42 39
19 43 40
20 44 40
19 43 40
19 44 40
19 43 40
19 43 40
19 43 40
19 42 39
19 43 40
19 43 40
20 44 40
20 44 41
19 43 40
19 42 39
20 44 40
19 42 39
20 44 40
20 44 40
19 43 40
20 44 41
19 42 39
20 44 41
19 43 40
19 43 40
19 44 40
19 43 40
20 44 41
19 43 40
20 44 41
19 43 40
20 44 41
19 43 40
19 43 40
20 44 41
19 43 40
20 44 41
20 44 41
19 43 40
19 43 40
20 44 40
19 43 40
19 43 40
20 44 41
20 44 40
19 43 40
20 44 41
20 44 41
20 44 41
20 44 41
20 44 40
20 44 40
20 44 41
19 42 39
20 45 41
20 44 40
19 43 40
19 43 40
19 43 40
19 43 39
20 45 41
19 43 40
19 43 39
20 44 41
19 43 40
20 45 41
20 44 41
19 43 40
20 44 40
19 43 40
20 44 40
20 44 41
19 43 40
19 43 40
19 43 40
19 43 40
19 44 40
19 43 40
19 43 40
19 43 40
19 43 40
20 44 41
20 45 41
19 44 40
20 44 41
19 43 40
19 42 39
19 42 39
19 42 39
19 43 40
19 42 39
19 43 40
19 44 40
18 41 39
19 43 40
19 43 39
19 44 40
19 43 40
19 43 40
19 43 40
19 43 40
20 44 41
19 43 40
19 42 39
19 43 40
19 43 40
19 43 40
19 43 40
20 44 41
19 43 40
19 44 40
19 43 40
19 43 40
19 43 40
20 44 40
19 43 40
19 43 40
20 44 40
19 44 40
19 43 40
19 43 40
20 44 41
20 44 40
19 43 40
20 44 41
19 43 40
20 44 40
19 43 40
20 44 41
19 44 40
19 43 40
20 44 41
20 44 40
20 44 40
20 44 40
19 43 40
20 44 40
20 44 40
19 43 40
20 44 41
20 44 41
20 44 41
19 43 40
20 44 40
20 44 41
20 45 42
19 43 40
20 44 41
20 44 41
20 44 41
19 43 40
20 44 41
20 45 41
19 43 40
20 45 41
20 44 40
20 44 40
20 45 42
20 45 42
20 44 40
20 44 41
19 43 40
20 44 41
20 44 41
20 44 41
20 45 41
20 44 41
20 45 41
20 44 41
20 45 41
20 44 40
20 45 41
19 43 40
20 44 41
20 45 41
20 44 41
20 44 41
20 45 41
20 45 42
19 43 40
20 44 41
19 43 40
20 44 40
20 44 41
20 44 40
20 45 42
20 45 41
20 44 40
20 44 41
20 45 41
19 43 40
20 45 41
20 45 41
19 43 40
19 43 40
20 44 41
19 43 40
19 43 40
20 44 40
20 44 41
20 44 41
19 43 40
20 44 41
20 45 41
20 44 41
19 43 40
19 43 40
19 43 39
20 44 40
20 44 40
19 42 39
19 43 40
19 42 39
19 43 39
19 42 39
19 43 40
19 43 40
19 43 40
20 44 40
19 43 40
20 45 41
19 44 40
19 42 39
20 44 40
19 43 40
20 44 40
20 44 41
20 44 40
20 44 40
19 43 40
20 44 41
19 43 39
20 44 40
19 43 40
20 44 40
20 44 40
20 44 40
19 43 40
20 44 41
19 43 40
20 44 41
20 44 41
20 44 40
20 44 41
19 43 40
20 44 41
20 44 40
20 45 41
20 44 41
19 43 40
19 44 40
20 44 41
20 45 42
20 45 41
20 44 41
20 45 41
20 44 41
20 45 42
20 45 41
20 44 41
20 44 41
20 44 41
20 44 41
20 44 40
20 45 41
20 44 41
20 44 40
20 45 41
20 45 41
20 44 40
20 45 41
20 43 40
20 46 42
20 44 41
20 44 41
21 46 42
20 46 42
20 45 41
20 44 40
20 45 42
20 45 41
20 45 42
20 45 41
20 45 41
21 46 42
20 46 42
20 45 41
20 45 41
20 44 41
20 44 41
20 44 41
20 45 41
20 45 41
20 45 41
21 46 42
20 45 41
20 44 41
20 44 41
21 46 43
20 45 41
20 45 41
20 45 41
20 44 41
21 46 42
20 45 41
20 45 41
21 46 42
20 46 42
20 45 41
20 45 41
20 45 41
20 44 41
20 44 41
20 45 41
20 45 41
20 44 40
20 45 41
20 44 40
20 44 41
20 45 41
20 46 42
20 45 41
20 45 42
20 45 41
20 44 40
20 45 41
19 43 39
19 42 39
19 43 40
19 43 39
19 43 40
19 43 40
19 43 39
19 43 39
19 42 39
19 43 40
19 43 40
19 43 40
19 43 40
20 44 41
20 44 40
19 43 40
19 43 39
20 44 40
20 45 41
20 45 41
20 44 41
20 44 40
20 44 41
20 44 40
19 43 40
20 44 40
20 44 40
19 43 40
20 45 41
20 44 40
20 44 41
20 45 41
20 45 41
20 45 41
20 44 41
20 45 41
20 45 41
20 44 40
20 44 40
20 45 41
20 45 41
20 45 42
20 44 41
20 44 41
20 44 41
21 46 42
20 45 41
20 44 40
20 44 41
20 46 42
20 45 41
21 46 42
20 44 41
20 45 42
20 44 41
20 44 40
20 44 41
21 46 42
21 46 42
21 46 42
20 45 41
21 46 43
20 45 41
20 45 41
20 45 41
21 46 42
20 45 42
20 43 40
20 45 41
21 46 42
20 45 41
20 45 42
21 46 42
20 45 41
20 45 41
20 45 41
20 45 41
20 44 41
20 45 41
20 45 41
21 46 42
21 46 42
20 44 41
20 45 41
21 46 42
20 43 40
21 47 43
21 46 42
21 46 42
20 45 41
20 45 42
20 45 41
21 46 42
20 45 41
20 45 41
21 46 42
21 46 42
21 46 42
20 45 42
20 44 41
20 45 42
20 45 41
21 46 42
21 46 42
21 46 42
20 45 41
21 46 42
20 44 41
20 45 41
21 46 42
21 46 42
20 45 41
21 46 42
21 46 42
20 45 41
20 45 41
20 46 42
21 46 42
20 45 41
20 44 40
20 44 41
20 44 41
19 42 39
20 44 40
19 43 39
20 44 40
20 44 41
19 43 40
20 45 42
19 43 40
20 44 41
19 43 40
20 45 42
20 44 40
20 44 41
20 44 41
20 44 40
20 45 41
20 44 40
20 45 41
20 44 40
20 45 41
20 45 41
20 45 41
20 45 41
20 45 41
20 44 41
20 44 41
20 44 41
20 44 41
20 44 41
21 46 42
20 45 41
20 45 41
21 46 42
20 44 41
20 44 41
20 45 41
20 45 41
20 45 41
20 45 41
20 45 41
21 46 42
20 45 42
21 46 42
20 45 41
20 45 41
20 45 41
21 46 42
20 45 41
21 45 42
21 46 42
21 46 42
20 45 42
20 45 41
20 45 41
21 46 42
21 46 42
21 46 42
21 46 42
21 46 42
21 47 43
20 45 41
20 45 41
20 45 41
20 45 42
21 46 42
21 46 42
20 44 41
21 46 42
20 45 41
21 47 43
21 46 42
21 46 42
21 46 42
21 46 42
20 45 41
21 46 42
21 47 43
21 46 42
21 46 42
21 46 42
21 47 43
20 45 41
21 46 42
20 45 41
21 46 42
21 46 42
20 45 41
21 47 43
21 47 43
21 46 42
20 45 41
21 46 42
20 45 41
20 45 41
21 45 42
21 46 42
20 45 41
20 45 41
21 46 42
20 45 41
21 46 42
20 45 41
20 45 41
20 45 41
21 46 42
21 46 42
21 46 42
21 46 42
21 46 42
21 46 42
21 46 42
21 47 43
21 46 42
20 45 42
21 45 42
20 45 41
21 46 42
20 45 42
20 45 41
20 44 41
20 44 41
20 44 40
20 44 41
20 44 40
20 44 41
20 44 41
20 44 40
20 45 41
20 44 41
20 44 41
20 45 41
20 45 41
20 45 41
20 44 41
20 44 40
20 44 41
20 45 41
20 45 42
21 46 42
20 44 41
20 44 41
20 44 41
20 45 42
20 45 41
20 44 41
20 44 41
20 44 41
20 44 41
20 44 41
20 45 41
21 46 42
20 45 41
20 45 41
20 45 41
21 47 43
20 45 41
21 46 42
20 45 41
21 46 42
21 46 42
21 46 42
20 45 41
21 46 43
20 45 41
20 45 41
21 46 42
20 45 41
21 46 42
21 46 42
21 46 42
21 46 42
21 46 42
21 46 42
21 47 43
21 47 43
21 46 42
21 45 42
21 46 42
21 47 43
21 47 43
21 46 42
21 46 42
21 47 43
20 45 41
21 47 43
22 48 43
21 46 42
21 47 43
21 47 43
21 47 43
21 45 41
21 47 43
21 46 42
21 46 42
20 45 41
21 46 42
21 46 42
21 46 42
21 47 43
21 45 41
21 46 42
21 47 43
22 48 44
21 45 41
21 47 43
21 47 42
21 46 42
21 47 43
21 46 42
21 46 42
21 47 43
21 46 42
20 45 41
21 46 42
21 46 42
21 46 42
21 47 43
21 46 42
21 47 43
21 47 42
21 47 43
21 47 43
21 46 42
21 47 43
21 47 43
21 47 43
21 47 43
21 46 42
21 47 43
21 46 42
21 47 43
21 46 42
21 46 42
21 46 42
21 46 42
21 46 42
20 44 40
21 46 42
20 44 41
20 44 40
20 44 41
20 45 42
19 43 40
20 45 42
20 45 42
20 45 42
20 44 41
20 44 40
20 45 41
20 45 41
20 45 42
20 44 41
20 44 40
21 46 42
20 44 40
20 45 41
20 45 41
20 45 41
20 45 42
20 45 41
21 46 42
20 45 42
21 46 42
21 47 43
21 46 42
20 45 41
21 46 42
20 45 42
21 46 42
21 46 42
21 46 42
21 46 42
20 45 42
21 46 42
21 46 42
21 46 42
21 46 42
21 46 42
21 47 43
20 45 41
21 47 43
21 46 42
21 46 42
21 47 42
21 47 43
21 46 42
21 46 42
21 46 42
21 47 43
20 45 41
21 46 42
21 46 42
21 46 42
21 47 43
21 47 43
21 47 43
21 47 43
21 47 43
21 47 43
21 47 43
21 47 43
21 47 43
21 47 43
21 47 43
21 47 43
21 47 42
21 47 43
22 48 44
21 46 42
21 47 43
22 48 43
21 47 43
20 45 41
21 46 42
22 48 43
21 47 43
21 47 43
21 47 43
21 47 43
21 47 42
21 46 42
21 46 42
22 48 44
22 48 43
22 48 43
22 48 44
21 46 42
21 47 42
21 46 42
21 47 43
21 46 42
21 46 42
22 48 44
21 47 43
21 47 43
22 48 43
21 47 42
21 46 42
21 47 43
21 47 43
21 46 42
21 47 43
21 47 43
22 47 43
22 48 44
22 48 43
21 46 42
22 48 44
21 46 42
21 46 42
21 46 42
21 47 43
21 46 42
21 47 43
21 46 42
21 46 42
21 47 42
21 47 43
20 45 41
20 45 41
20 45 41
21 46 42
20 44 41
20 44 40
20 44 40
20 44 41
20 45 41
20 44 41
20 45 41
20 44 41
20 45 42
21 46 42
20 44 41
21 46 42
20 44 41
20 45 41
20 45 42
21 46 42
21 46 42
21 47 43
20 45 42
21 46 42
20 44 41
20 45 41
21 46 42
21 46 42
20 45 41
20 45 41
21 47 43
20 45 41
20 45 41
21 46 42
21 46 42
21 46 42
21 47 43
21 47 43
21 46 42
20 45 41
21 46 42
21 47 42
21 46 42
21 47 43
21 46 42
21 46 42
21 47 43
21 47 43
21 46 42
21 47 43
21 47 43
21 47 43
21 46 42
22 47 43
21 47 42
22 48 44
22 48 44
22 48 43
22 47 43
22 48 44
22 49 44
21 47 43
21 47 42
22 48 44
21 47 42
22 48 44
21 47 43
22 48 43
21 46 42
21 47 43
21 47 43
22 48 44
21 47 43
21 47 43
22 48 43
21 46 42
21 47 43
21 47 43
21 47 43
21 47 43
22 48 44
22 48 44
21 46 42
22 48 43
21 47 43
22 48 44
22 48 44
22 48 43
22 48 43
21 47 42
22 48 43
22 48 43
22 48 44
22 48 44
21 47 43
22 48 44
21 47 43
22 48 43
22 48 43
22 47 43
21 47 43
22 48 43
21 47 43
21 47 43
22 49 44
22 48 44
22 49 44
22 48 43
22 47 43
21 46 42
22 48 43
21 47 43
21 47 43
21 47 43
21 47 43
21 47 43
21 46 42
22 48 44
22 48 43
21 47 43
20 44 40
20 45 41
20 45 41
20 45 41
21 46 42
21 46 42
20 45 41
20 45 41
20 45 41
20 45 41
21 46 42
20 45 42
20 44 40
20 45 41
20 45 41
21 46 42
20 45 41
20 45 41
20 45 42
21 46 42
20 45 41
20 45 41
20 45 41
21 46 42
21 46 42
21 46 42
21 46 42
21 47 43
21 46 42
21 47 43
21 46 42
21 46 42
21 46 42
21 47 43
21 47 43
20 45 41
21 46 42
22 48 44
21 46 42
21 45 41
21 47 42
21 47 43
21 47 43
21 46 42
21 47 43
21 47 43
21 47 43
21 46 42
22 48 44
21 47 43
22 48 43
21 47 43
21 46 42
21 46 42
22 48 43
21 46 42
22 48 44
21 46 42
22 48 44
21 47 43
21 46 42
22 47 43
22 47 43
22 48 44
22 47 43
22 48 44
21 47 43
22 48 43
21 46 42
22 48 44
22 48 43
22 47 43
22 48 43
22 49 44
22 48 44
22 48 43
22 49 44
22 48 43
22 48 43
22 48 44
22 48 43
22 48 43
22 49 44
22 48 44
22 48 44
22 48 44
22 48 43
22 48 44
22 49 44
22 48 44
22 49 44
22 49 45
22 47 43
21 47 43
23 50 45
22 47 43
22 48 44
22 48 43
21 47 43
22 48 44
22 48 43
22 48 44
21 46 42
21 47 43
22 48 43
22 49 45
22 49 45
21 46 42
21 47 43
22 48 43
22 48 44
22 48 44
21 46 42
22 48 44
22 48 43
22 48 44
22 48 43
23 50 45
22 48 43
22 49 45
20 44 41
20 45 41
20 45 41
20 45 41
20 45 42
20 45 41
20 45 41
20 45 41
20 45 42
21 47 43
21 46 42
20 45 41
20 45 41
21 46 42
21 46 42
20 45 41
21 46 42
21 46 43
21 47 43
21 46 42
20 45 41
21 47 43
21 46 42
21 46 42
21 47 43
21 46 42
21 47 43
21 46 42
21 46 42
21 46 42
21 46 42
21 47 43
21 47 42
21 47 43
21 47 42
21 46 42
21 46 42
22 47 43
22 48 44
21 47 43
21 46 42
21 47 43
22 48 44
22 48 44
21 47 42
22 47 43
22 48 44
22 49 44
21 47 43
21 47 43
22 48 44
22 48 43
22 48 44
22 48 44
21 47 43
22 48 44
22 48 44
22 49 45
22 48 43
21 47 43
22 49 45
22 48 44
22 48 44
22 48 44
22 48 43
22 47 43
22 48 44
22 49 44
22 49 45
22 49 44
22 49 44
22 47 43
22 47 43
22 49 44
22 48 43
22 49 45
22 48 43
22 48 43
22 48 43
22 49 45
22 47 43
22 48 44
22 48 44
22 48 44
22 48 44
22 49 44
22 49 44
22 48 44
22 47 43
22 49 44
22 49 44
23 49 45
22 49 44
22 49 45
23 49 45
22 48 44
22 49 44
21 47 42
22 49 44
23 49 45
22 49 44
22 48 44
23 49 45
22 49 44
23 50 45
22 49 44
22 48 44
22 47 43
22 47 43
22 47 43
22 49 44
23 50 45
22 48 44
23 49 45
22 48 43
22 49 44
21 47 42
22 47 43
22 49 44
22 48 43
21 46 42
20 44 41
21 46 42
21 47 43
21 46 43
21 46 42
21 46 42
20 45 41
20 45 41
21 46 42
21 47 43
20 45 41
21 46 42
21 47 43
21 46 42
20 45 41
21 47 43
21 46 42
21 47 43
21 46 42
21 47 43
21 46 42
21 47 43
21 46 42
21 46 42
22 48 44
21 46 42
21 47 43
21 47 43
21 46 42
21 46 41
21 46 42
21 47 43
21 47 42
21 47 43
21 47 42
21 47 43
22 47 43
22 48 44
22 48 44
21 47 43
21 47 42
21 47 43
21 46 42
22 48 44
21 47 43
22 49 44
22 48 43
21 46 42
22 48 43
22 47 43
22 48 43
22 47 43
21 47 43
22 48 44
22 49 44
22 48 44
22 47 43
22 49 44
21 47 42
22 49 44
22 48 44
22 48 44
22 48 43
22 47 43
22 49 44
22 49 45
22 48 44
22 48 43
22 49 44
23 50 45
23 50 45
22 49 44
22 49 45
23 50 45
22 49 44
22 49 44
23 49 45
22 49 44
22 49 44
22 48 43
22 49 44
23 49 45
22 49 44
23 49 45
22 49 45
22 48 44
22 49 44
23 49 45
22 48 44
22 49 45
22 49 44
22 49 44
22 49 44
23 49 45
22 49 44
22 49 44
22 49 44
22 49 44
22 48 44
23 50 45
22 49 44
22 48 44
23 50 45
22 48 44
22 49 45
22 48 44
22 49 44
23 49 45
22 49 44
22 48 44
23 50 45
22 49 44
22 48 44
22 48 44
22 49 44
22 48 44
22 49 44
23 50 46
22 49 44
21 46 42
20 45 41
21 46 42
21 46 42
21 46 42
21 46 42
21 46 42
21 46 42
20 45 41
21 46 42
21 46 42
20 44 41
21 46 42
20 45 41
21 46 42
21 47 43
21 46 42
21 46 42
21 46 42
21 46 42
21 46 42
21 47 43
21 46 42
21 47 43
21 46 42
22 48 44
21 47 42
20 45 41
21 47 43
22 48 44
21 47 43
21 47 42
22 48 44
22 47 43
21 46 42
21 47 42
22 48 44
21 47 43
21 47 43
22 48 44
22 48 44
21 47 43
22 48 44
22 47 43
22 49 44
22 48 44
22 49 45
21 47 43
22 48 43
22 48 44
22 48 43
22 48 44
22 49 44
22 49 44
21 47 42
22 48 44
21 47 43
22 48 44
23 50 45
22 49 44
23 50 45
22 49 44
22 49 44
22 49 44
22 47 43
22 49 44
23 49 45
22 49 44
22 49 44
23 49 45
22 48 44
23 50 45
23 50 46
23 51 46
23 50 45
22 48 44
22 49 44
22 49 45
22 49 44
22 49 44
22 49 44
23 50 45
22 48 44
22 49 44
23 50 45
23 50 45
22 49 44
23 50 45
22 49 44
23 50 45
22 49 44
23 50 45
23 50 45
23 49 45
22 49 44
22 49 44
22 49 44
23 50 45
23 50 45
22 48 43
22 49 44
23 50 46
23 50 45
23 50 45
22 49 44
23 50 45
22 49 44
23 50 45
22 48 44
22 49 44
23 49 45
22 49 44
22 49 44
23 49 45
22 49 44
22 49 44
22 49 44
22 49 44
23 50 45
22 48 44
21 47 43
21 46 42
20 45 41
20 45 41
20 45 41
21 46 42
21 46 42
21 46 42
21 46 42
21 47 43
21 46 42
21 46 43
21 46 42
22 48 44
21 46 42
22 47 43
21 46 42
21 47 43
21 46 42
21 46 42
21 47 43
21 46 42
21 47 43
21 47 43
21 47 43
21 47 43
21 47 43
22 48 44
21 46 42
22 48 44
21 46 42
21 47 43
22 48 44
21 47 42
22 48 43
22 48 44
22 48 44
22 49 44
22 48 43
22 48 43
22 49 45
22 48 43
22 48 43
22 48 43
22 48 44
22 47 43
22 49 44
22 47 43
22 48 44
23 50 45
22 48 44
22 48 44
22 49 44
22 49 44
22 48 44
22 49 44
22 49 44
22 49 44
23 50 45
23 49 45
22 49 44
22 49 44
23 51 46
22 49 44
22 49 44
23 50 45
22 47 43
23 49 45
22 49 45
23 49 45
23 49 45
22 49 44
23 50 45
22 49 44
23 50 46
22 49 44
22 49 44
23 50 45
23 50 45
23 49 45
22 49 44
23 51 46
23 50 45
22 49 44
23 50 45
23 51 46
23 50 45
23 50 45
23 51 46
23 50 45
23 50 45
23 50 45
23 50 45
23 50 45
22 49 44
23 49 44
23 49 45
22 49 44
23 49 45
23 50 46
22 49 44
23 50 45
22 49 44
22 49 44
23 50 45
23 50 45
23 51 46
23 49 45
23 50 45
22 48 44
22 49 45
22 48 44
23 50 45
23 50 45
23 50 45
22 49 44
23 50 45
23 50 45
22 49 44
23 50 45
20 45 41
21 46 42
21 46 42
21 47 43
20 43 39
21 46 42
21 46 42
21 46 42
20 45 41
21 46 42
21 47 43
21 47 43
21 47 43
21 46 42
21 47 43
21 47 43
22 48 44
21 47 42
21 46 42
22 48 43
21 47 42
21 47 43
21 46 42
22 48 43
21 46 42
22 48 44
22 47 43
21 47 43
21 47 43
22 48 44
22 48 43
21 47 43
22 48 44
22 48 43
22 47 43
22 48 43
22 48 44
22 48 44
22 47 43
22 48 44
21 46 42
22 49 44
22 48 43
22 48 44
22 49 45
22 49 45
22 48 43
22 48 44
22 47 43
22 49 44
22 49 44
23 49 45
22 48 43
22 48 44
22 48 44
22 48 44
22 49 45
22 49 45
22 48 44
23 49 45
23 49 45
22 48 43
22 48 43
23 50 45
23 49 45
22 49 44
22 49 44
23 50 45
22 49 44
23 50 45
23 50 45
23 50 45
22 48 43
22 48 44
22 49 44
23 49 45
23 50 45
22 48 44
23 49 45
23 50 45
22 49 45
23 50 46
23 49 45
23 50 45
23 50 45
23 50 46
23 50 45
23 50 45
22 49 44
23 50 45
23 51 46
23 50 45
23 50 45
23 50 45
23 50 45
23 51 46
23 50 45
23 50 45
23 50 45
23 50 45
23 50 45
23 50 45
23 50 45
22 48 43
23 50 45
23 50 45
23 51 46
22 49 44
23 50 45
23 49 45
23 51 46
22 49 44
22 49 44
22 49 44
23 50 45
23 50 45
22 49 44
23 51 46
23 49 44
23 50 46
21 45 42
21 46 42
21 46 42
21 47 43
21 46 42
21 46 42
21 46 42
21 47 43
21 46 42
21 47 43
21 47 43
21 47 43
21 46 42
21 47 43
21 46 42
21 47 43
21 47 43
21 47 43
21 47 43
21 46 42
21 46 42
21 47 43
22 48 44
21 47 43
22 48 43
22 49 44
22 47 43
21 47 43
22 48 43
22 48 43
22 47 43
21 47 42
21 47 43
21 47 42
22 49 44
21 46 42
22 48 44
22 48 43
22 48 44
21 47 43
22 48 44
22 48 43
22 48 44
22 48 44
22 48 43
23 50 45
22 49 44
22 48 43
22 48 43
22 49 44
22 48 44
22 48 43
22 48 43
23 49 45
22 48 43
22 49 44
22 49 44
22 48 44
23 50 45
22 49 44
23 50 45
22 49 44
22 48 43
22 48 44
23 49 45
23 50 46
22 49 44
22 49 44
23 49 45
23 49 45
22 48 44
22 49 44
22 48 44
23 50 45
23 50 45
23 49 45
23 50 45
23 50 45
23 51 46
23 50 45
23 50 45
23 51 46
23 51 46
22 49 44
24 52 47
23 51 46
22 49 44
22 49 44
23 50 45
23 49 44
23 51 46
23 51 46
23 50 45
23 51 46
23 50 45
23 50 45
23 50 45
23 50 45
23 51 46
23 50 45
23 50 45
24 51 46
23 49 45
23 49 45
23 50 45
23 50 46
23 50 45
23 50 45
23 51 46
23 50 45
23 50 45
23 51 46
23 50 45
23 50 45
23 49 45
23 50 45
23 49 45
23 50 45
23 50 45
23 50 45
21 46 42
21 46 42
21 47 43
21 46 42
21 47 43
21 47 43
21 46 42
20 45 41
21 46 42
21 47 43
21 46 42
21 47 43
21 46 42
21 46 42
21 46 42
21 47 43
22 47 43
21 47 42
21 47 43
21 47 43
21 47 43
21 47 43
22 48 43
22 48 44
22 48 44
21 47 43
21 47 43
22 47 43
22 49 44
22 48 43
22 49 44
22 48 44
22 48 44
22 48 44
22 48 44
22 48 44
21 47 43
38 56 51
54 65 59
44 59 54
23 50 45
22 49 44
22 49 45
23 50 45
22 49 44
22 48 44
22 49 44
22 48 43
22 48 43
22 48 44
22 48 44
22 49 44
22 49 44
22 49 44
23 50 45
23 50 45
23 50 45
23 49 45
22 49 44
23 49 45
22 49 44
23 50 45
23 49 45
22 49 44
22 49 44
23 50 45
23 50 45
22 49 44
23 50 45
22 49 44
23 50 45
23 51 46
24 51 46
22 49 44
23 51 46
23 50 45
23 50 45
23 51 46
23 50 45
23 50 45
23 50 45
23 49 44
22 49 44
23 49 45
23 50 45
24 52 47
23 50 45
23 50 45
23 51 46
23 50 46
23 49 45
23 50 45
24 52 47
23 49 45
23 50 45
23 50 45
23 50 45
23 50 45
23 50 45
23 49 45
23 51 46
23 51 46
23 51 46
23 51 46
23 51 46
23 50 45
23 50 46
23 51 46
23 50 45
23 51 46
23 50 45
24 51 46
23 50 45
23 50 45
23 51 46
23 50 45
23 51 46
24 52 46
23 51 46
23 50 45
21 46 42
21 47 43
21 46 42
21 46 42
21 46 42
22 48 43
22 47 43
21 47 42
21 47 43
21 46 42
22 48 43
21 47 43
22 48 44
21 47 42
21 46 42
21 46 42
22 48 44
21 47 43
22 48 43
21 47 43
21 47 42
21 47 42
22 48 43
21 47 43
22 48 44
21 47 43
22 48 43
22 48 43
22 49 44
22 49 45
22 48 44
22 48 44
22 48 43
21 47 43
22 48 43
34 53 48
140 131 122
197 179 167
220 198 183
220 197 180
172 153 138
42 50 45
22 48 43
21 47 43
23 51 46
22 49 44
22 48 43
22 49 45
23 50 45
22 48 44
23 51 46
23 50 45
22 49 44
22 49 44
22 49 44
29 50 46
49 60 58
25 50 47
22 49 45
23 49 45
23 50 45
23 49 44
23 51 46
23 50 45
23 49 45
23 50 45
22 49 44
23 50 45
23 50 46
23 50 45
23 50 45
23 51 46
23 51 46
23 50 45
23 50 45
23 50 45
23 50 45
23 51 46
23 50 46
22 48 44
23 49 44
23 50 45
23 51 46
23 50 45
22 49 44
23 50 45
22 49 44
24 51 46
23 49 44
23 49 45
23 50 45
24 51 46
23 50 45
23 51 46
24 52 47
23 51 46
23 50 45
23 51 46
23 50 45
23 51 46
23 50 45
23 50 45
24 51 46
23 51 46
22 49 44
23 50 45
22 49 44
23 50 45
23 51 46
23 51 46
23 49 44
23 50 45
23 51 46
22 49 44
23 50 45
23 49 45
23 50 45
23 50 45
23 51 46
23 50 45
21 47 43
21 46 42
21 46 42
21 47 43
22 48 44
21 46 42
21 47 43
21 46 42
21 47 43
21 46 42
22 48 44
21 47 43
21 47 43
21 46 42
22 48 43
21 47 43
21 46 42
21 46 42
22 48 44
22 48 44
21 46 42
22 48 44
22 48 44
21 46 42
21 47 43
21 47 43
22 48 43
21 47 43
22 47 43
22 48 44
22 47 43
21 47 43
22 48 44
22 49 44
22 49 44
119 115 110
178 165 156
191 176 165
204 185 173
234 212 193
248 221 199
181 113 98
22 48 44
23 50 45
23 50 45
22 49 44
22 49 44
22 48 44
22 49 44
22 49 44
22 48 44
22 49 44
23 50 46
27 50 47
72 56 83
93 66 101
100 70 106
116 94 113
66 58 76
23 49 45
22 48 44
23 49 45
23 49 45
22 49 44
23 50 46
23 49 44
22 48 44
23 50 45
23 50 46
23 50 45
23 50 45
22 49 45
23 50 45
22 48 43
33 54 49
44 60 54
23 51 46
23 50 45
23 50 45
23 50 45
23 51 46
23 50 46
24 52 46
23 50 45
23 50 45
23 50 45
23 51 46
22 49 44
24 52 47
24 52 46
23 49 45
22 49 44
24 51 46
23 50 45
23 50 45
23 51 46
23 50 45
23 50 45
23 50 45
23 50 45
24 52 46
23 51 46
23 50 45
23 51 46
23 51 46
23 50 46
23 51 46
22 49 44
23 51 46
23 51 46
23 50 45
23 51 46
24 52 47
23 50 45
23 51 46
23 50 45
23 50 45
22 49 44
23 50 45
23 51 46
21 46 42
21 46 42
21 46 42
22 48 44
21 47 43
21 46 42
21 47 43
21 47 43
21 47 43
21 46 42
21 45 41
21 46 42
21 47 43
21 47 43
21 46 42
22 48 44
21 47 43
21 46 42
21 47 43
22 49 44
22 48 43
21 46 42
22 48 43
22 48 43
21 47 42
21 47 43
21 47 43
22 49 45
22 48 44
22 47 43
22 48 44
22 48 43
22 48 44
21 47 42
49 58 53
150 139 132
162 151 143
168 156 147
181 166 155
192 174 161
200 177 162
202 127 111
65 67 60
22 48 44
22 48 43
22 49 44
22 48 43
22 48 44
22 49 44
23 50 45
22 49 44
22 49 44
24 49 45
65 50 76
80 54 91
82 56 93
90 63 98
131 106 124
105 74 107
60 55 70
22 48 43
23 50 45
23 50 45
22 47 43
23 49 45
23 49 45
23 49 44
22 48 44
23 50 45
23 49 45
23 50 45
23 50 45
110 68 50
190 104 74
217 187 170
240 217 197
201 182 166
99 97 88
23 50 45
23 50 45
23 51 46
23 50 45
23 51 46
23 49 44
23 50 45
23 50 45
23 51 46
23 49 44
23 50 45
23 50 45
23 50 45
24 52 47
23 51 46
23 50 45
23 49 44
23 49 45
24 51 46
24 52 47
23 50 45
23 51 46
23 51 46
23 49 44
23 50 45
23 50 45
24 51 46
23 50 45
23 51 46
23 51 46
23 51 46
23 50 45
23 50 45
23 51 46
23 50 45
24 52 47
23 51 46
23 50 45
23 50 45
24 51 46
23 50 45
23 50 45
21 46 42
21 46 42
21 47 43
21 47 43
21 47 43
21 46 42
21 46 42
21 46 42
21 47 42
21 47 43
21 46 42
21 47 43
22 48 44
21 47 43
21 47 43
22 48 44
21 47 43
21 46 42
22 48 44
21 47 42
22 48 44
22 48 44
22 48 43
21 46 42
22 49 45
21 47 43
22 48 43
21 47 43
21 47 42
21 47 43
22 48 44
22 48 43
23 50 45
22 48 43
68 54 48
130 117 109
144 133 125
147 135 127
147 136 128
153 139 129
174 118 105
155 120 107
89 87 78
22 47 43
22 48 44
22 48 44
22 48 43
22 49 44
22 48 44
22 48 44
22 48 44
22 49 44
40 47 55
69 50 78
113 100 108
145 131 130
157 142 139
137 119 125
97 72 98
89 66 87
27 51 46
22 48 44
23 50 46
23 50 45
23 50 45
23 50 45
22 49 44
23 49 45
23 50 45
22 49 44
23 51 46
74 58 47
200 98 60
203 139 118
196 179 169
210 192 178
219 198 182
210 188 171
96 94 85
23 50 45
23 50 45
22 49 44
22 49 44
23 50 45
22 49 44
23 50 45
24 51 46
23 50 45
23 50 45
22 49 44
23 50 45
23 51 46
28 47 45
36 45 46
86 83 75
123 116 105
124 117 107
51 63 57
22 49 44
23 49 44
23 50 45
24 52 47
23 51 46
23 49 45
23 50 45
23 50 46
23 50 45
23 49 45
23 49 45
23 51 46
23 50 45
23 51 46
23 51 46
22 49 44
23 51 46
23 51 46
23 50 45
23 51 46
23 50 45
23 51 46
21 47 43
21 47 43
21 46 42
21 47 43
21 47 43
21 47 43
21 47 42
20 45 41
21 47 43
21 46 42
21 47 43
22 47 43
22 49 45
21 46 42
21 47 43
21 46 42
22 48 44
21 46 42
22 48 44
22 48 43
22 48 43
22 47 43
22 48 44
22 48 43
22 48 43
22 48 44
21 47 42
21 46 42
22 48 43
22 48 44
22 48 44
22 48 44
22 48 44
21 47 43
41 47 42
117 65 57
122 101 93
118 98 90
113 91 83
119 73 65
114 40 29
123 95 83
54 62 55
22 49 45
22 49 44
22 48 44
22 49 44
22 48 44
22 49 44
22 49 44
22 48 44
23 49 45
42 44 53
112 102 99
143 132 123
144 133 125
149 138 129
146 134 126
149 133 125
100 80 89
56 65 58
22 49 44
23 49 45
23 49 45
23 49 45
22 49 44
23 49 45
22 49 45
22 48 44
22 49 44
22 49 44
142 75 49
176 87 53
178 122 104
173 160 151
178 164 155
182 166 155
191 172 159
160 145 131
23 50 45
23 51 46
23 50 46
23 51 46
22 49 44
22 49 44
23 50 46
23 50 45
23 51 46
23 51 46
23 51 46
23 50 45
42 53 50
33 36 40
33 36 41
121 112 106
208 190 177
209 190 176
190 172 158
43 59 53
23 51 46
23 49 45
23 50 46
23 50 45
23 50 45
23 51 46
24 51 46
23 50 45
23 49 45
23 50 45
23 50 45
23 50 45
23 50 45
23 50 45
23 49 45
23 50 45
23 51 46
23 50 45
22 49 44
23 50 45
23 51 46
21 46 42
21 47 43
21 46 42
21 47 43
21 46 42
22 47 43
21 47 43
21 46 42
21 47 43
21 47 43
21 47 43
22 47 43
21 47 43
21 47 43
21 47 43
21 46 42
22 48 43
22 48 44
22 47 43
22 48 44
22 48 43
21 47 43
21 46 42
21 46 42
21 47 43
22 48 44
21 47 43
21 47 43
22 49 45
22 48 43
21 47 43
21 46 42
22 48 44
22 48 44
22 47 43
75 34 27
70 25 17
83 29 20
73 26 18
65 24 16
72 25 17
68 40 33
23 47 43
22 48 44
22 48 43
22 48 43
22 47 43
22 47 43
21 47 42
22 49 44
22 49 44
22 49 44
54 56 58
116 107 98
116 108 99
116 107 99
120 112 103
120 111 102
111 103 94
90 80 77
42 57 52
23 49 44
22 49 44
22 49 44
22 48 44
22 49 44
23 49 45
23 50 45
22 48 43
23 49 45
26 51 46
140 72 47
153 76 46
161 92 69
149 137 129
152 140 132
152 140 132
151 137 127
152 137 124
28 51 46
23 50 45
23 50 45
23 49 44
23 50 45
23 49 44
23 50 45
23 50 45
22 49 44
23 50 45
23 50 45
50 61 57
46 45 45
31 33 37
31 34 38
162 151 144
181 167 158
184 169 159
185 167 155
129 121 111
23 50 45
23 50 45
23 50 45
22 49 44
22 49 44
23 50 45
23 49 44
23 49 45
23 50 45
23 49 44
23 50 45
23 50 45
23 51 46
23 50 45
23 50 45
23 50 45
23 49 45
23 50 45
22 49 44
23 51 46
23 50 45
21 46 42
21 46 42
21 47 43
21 46 42
21 46 42
21 46 42
21 46 42
21 47 43
21 46 42
22 48 44
21 47 43
22 48 43
22 49 44
21 47 42
21 46 42
21 47 43
21 47 43
21 47 43
21 46 42
21 47 43
22 48 44
22 47 43
22 48 43
22 47 43
21 47 43
22 48 44
22 48 44
21 46 42
22 47 43
21 47 43
22 48 43
21 47 43
22 47 42
21 46 41
20 44 40
26 40 36
29 20 17
13 9 5
20 11 6
22 11 6
36 22 17
26 42 37
21 46 41
21 46 42
22 47 42
22 48 44
22 47 43
22 47 42
22 47 43
22 48 44
22 47 43
22 48 43
30 49 46
77 72 65
71 68 61
79 75 67
76 73 65
77 74 66
78 73 65
61 59 54
22 48 44
22 49 44
23 50 45
23 49 45
23 50 45
22 48 43
22 48 44
22 48 44
22 48 44
22 49 44
29 51 46
107 58 39
132 65 39
130 65 38
135 100 86
130 120 111
120 111 103
120 111 102
109 102 93
22 48 44
23 49 44
23 49 44
23 50 45
23 50 45
23 50 45
22 49 44
23 51 46
23 49 44
23 50 45
23 49 45
66 69 63
103 95 89
114 105 99
68 64 63
155 144 136
156 145 136
154 142 134
150 139 130
127 119 110
22 49 44
22 49 44
23 50 45
23 51 46
23 50 45
23 50 45
22 48 43
23 51 46
23 51 46
23 49 45
23 50 45
23 51 46
23 50 45
23 50 45
23 51 46
22 49 44
23 50 45
23 51 46
22 49 44
23 50 45
23 50 45
20 45 41
21 45 41
21 46 42
21 47 42
21 47 43
21 47 43
22 48 44
21 47 43
21 47 43
21 47 42
21 46 42
21 47 43
21 47 42
21 47 43
21 47 43
21 47 43
22 47 43
21 47 43
21 47 43
22 47 43
22 48 43
22 48 43
21 47 43
22 48 43
21 47 42
21 47 43
22 48 44
22 48 43
22 48 44
21 47 43
21 46 42
20 43 40
17 37 35
14 33 31
13 30 28
12 26 25
11 24 22
8 15 14
8 15 14
9 16 14
16 34 30
20 43 38
20 44 39
21 45 41
21 46 41
22 47 43
22 47 42
21 47 42
22 47 43
22 48 43
22 48 43
21 45 41
22 46 42
26 41 37
18 27 22
23 30 24
19 29 23
23 31 23
39 44 35
23 44 40
22 47 42
22 48 43
22 47 43
22 49 44
22 48 43
23 50 45
22 48 43
22 47 43
22 48 43
23 49 44
23 49 44
71 52 42
102 51 30
94 47 28
97 49 28
93 68 57
83 77 69
85 80 72
70 67 59
23 50 45
23 49 44
22 49 44
22 48 44
23 49 44
22 49 44
23 49 45
22 49 44
23 49 45
23 51 46
23 50 45
54 61 56
91 85 78
102 95 89
80 75 71
129 119 111
137 127 118
123 114 106
123 114 106
104 100 93
23 50 45
23 50 45
23 50 45
23 51 46
22 48 44
23 50 45
22 49 44
23 51 46
23 49 45
23 50 45
22 49 44
23 49 45
23 51 46
23 51 46
23 50 45
23 50 46
22 49 44
23 50 45
23 50 45
22 49 44
23 51 46
21 46 42
21 46 42
21 46 42
21 47 43
22 48 43
21 46 42
21 47 43
21 47 43
22 48 44
21 47 43
21 46 42
21 47 43
22 48 44
21 46 42
21 47 43
21 46 42
22 48 44
21 47 43
21 47 43
22 49 45
22 49 44
22 47 43
21 47 42
21 46 42
22 48 44
21 47 42
22 48 43
22 47 43
22 48 43
22 47 43
21 47 42
20 45 41
19 43 39
18 41 38
19 41 38
18 40 37
19 42 38
18 41 37
20 44 40
20 45 41
21 45 41
21 45 41
22 47 42
22 47 43
21 47 42
21 46 42
22 47 43
21 46 42
22 47 42
21 46 42
19 42 38
16 37 34
13 31 29
12 27 25
10 21 20
8 16 14
8 17 14
8 17 15
16 35 31
21 44 40
21 45 40
21 46 42
22 47 42
22 48 43
22 48 44
22 48 44
22 48 44
21 47 42
22 47 42
23 49 44
22 48 43
23 46 41
34 28 22
45 25 14
43 24 13
41 24 13
41 29 20
47 40 33
36 47 41
22 48 43
22 48 43
23 49 44
22 49 44
23 49 44
23 49 44
23 50 45
23 51 46
22 48 44
22 48 44
22 48 43
46 59 53
69 64 58
84 79 71
46 44 41
97 91 83
96 90 82
103 96 88
97 91 83
70 74 67
22 49 44
22 49 44
23 50 45
22 49 45
22 49 44
23 49 45
22 49 44
22 49 44
22 48 44
23 50 45
23 51 46
23 50 45
23 50 46
23 50 45
23 50 45
22 49 44
23 50 45
23 50 46
23 50 45
22 49 44
23 49 45
21 46 42
20 45 41
21 47 43
21 47 43
21 46 42
21 47 43
21 47 43
21 46 42
21 47 43
22 48 43
22 48 43
21 46 42
21 47 43
21 47 43
21 47 43
21 47 43
22 48 44
21 47 43
22 48 43
21 47 43
21 47 43
21 46 42
22 48 44
21 46 42
22 48 43
22 48 43
21 47 43
21 47 43
21 46 42
21 47 43
22 48 43
21 47 43
21 46 42
22 48 43
22 48 43
21 47 43
22 48 43
21 46 41
22 48 43
22 47 43
22 47 43
21 46 42
22 48 44
22 49 44
21 46 42
21 46 42
21 47 42
22 48 43
21 47 42
21 47 43
19 42 39
18 40 37
16 36 34
16 36 33
15 34 31
16 35 32
17 37 34
19 41 37
20 44 39
21 46 41
21 46 42
22 47 42
22 47 43
22 48 43
22 47 42
22 48 43
21 47 42
22 48 43
21 46 42
21 46 42
18 41 37
16 35 32
13 28 26
9 15 13
9 10 5
10 11 6
11 16 12
17 36 32
22 46 41
21 46 41
21 46 41
22 47 43
23 49 44
22 48 43
22 48 43
23 49 45
23 49 44
22 48 43
22 47 43
22 47 42
22 49 44
19 33 30
23 22 20
7 9 9
41 41 36
46 47 41
44 48 41
73 71 64
38 55 50
23 49 45
23 50 45
22 49 44
22 48 44
23 49 45
22 49 44
22 48 44
22 48 44
23 50 45
23 50 45
23 50 45
22 49 44
23 50 45
23 50 45
23 50 45
22 48 44
22 49 44
22 48 44
22 49 44
22 49 44
23 50 45
21 46 42
21 46 42
21 46 42
21 46 42
21 46 42
21 46 42
21 46 42
21 46 42
22 47 43
22 47 43
21 47 43
21 47 43
21 46 42
21 47 42
21 46 42
21 47 43
21 46 42
21 47 43
21 46 42
21 47 43
21 47 43
22 47 43
21 46 42
21 47 43
21 46 42
22 48 44
22 47 43
22 48 44
22 47 43
22 48 44
22 49 44
21 47 43
22 48 43
22 47 43
21 47 42
22 48 44
22 49 44
22 47 43
21 46 42
21 47 43
21 47 43
21 47 42
22 47 43
22 48 43
21 47 43
22 48 44
22 48 44
22 48 43
22 48 44
22 48 43
22 48 43
22 47 43
21 47 42
22 48 43
22 48 43
22 47 43
21 47 42
22 47 43
22 48 43
22 47 43
22 48 44
21 47 42
22 48 44
22 48 44
21 47 42
22 47 42
22 49 44
22 47 43
22 47 43
19 43 39
17 38 35
14 32 30
13 29 27
12 28 26
12 26 25
12 27 26
13 30 28
17 38 34
21 45 41
21 46 41
21 46 42
22 47 42
22 47 43
21 47 42
22 48 43
22 48 43
21 47 42
21 46 42
21 46 42
21 45 40
20 44 39
18 40 36
9 21 19
2 5 4
3 7 6
9 18 14
18 26 22
19 42 37
22 47 42
21 47 42
22 47 42
22 49 44
22 49 44
22 49 44
22 49 44
22 47 43
23 50 45
22 49 44
23 50 45
23 50 45
22 48 44
23 49 45
23 50 45
23 50 45
22 48 44
23 50 45
22 49 44
22 49 44
22 49 44
23 50 45
21 47 43
21 47 43
21 46 42
21 46 42
21 47 43
21 46 42
21 45 41
21 46 42
22 48 43
21 47 43
21 47 43
21 46 42
21 47 43
21 47 43
21 47 43
21 47 42
21 47 43
21 47 43
21 46 42
22 47 43
22 47 43
21 47 43
21 47 43
21 46 42
21 46 42
21 47 43
21 46 42
21 47 42
22 47 43
21 47 42
22 48 43
21 46 42
22 48 43
22 47 43
22 48 44
22 48 44
21 47 42
22 49 44
22 48 44
22 48 43
21 47 43
21 47 43
21 47 43
22 48 44
22 48 43
21 47 42
22 49 44
22 48 43
22 48 43
21 47 42
22 48 44
22 48 44
22 48 44
22 47 43
21 47 42
22 48 44
22 47 43
22 47 43
22 47 43
22 48 43
22 47 43
22 48 43
22 49 44
22 48 44
22 48 43
22 48 44
21 47 43
22 48 43
22 47 42
22 48 44
22 48 43
21 47 43
21 45 41
20 44 40
22 47 43
22 47 43
22 48 43
22 47 43
22 49 44
22 47 42
22 48 43
22 48 43
22 47 43
22 47 43
22 48 43
22 47 43
22 47 43
21 47 42
22 47 42
20 44 39
15 35 32
12 27 26
10 24 23
9 22 21
8 19 18
9 21 20
10 24 23
14 32 30
18 40 35
21 46 41
21 47 42
22 49 44
22 49 44
22 49 44
22 49 44
22 49 44
22 49 44
23 49 45
23 49 45
23 50 45
22 49 44
22 48 44
22 48 43
22 48 44
22 48 44
22 48 44
22 49 44
22 48 44
22 48 43
23 50 45
21 46 42
21 47 43
21 46 42
21 45 41
21 47 43
21 46 42
21 47 43
21 46 42
21 46 42
21 47 43
21 46 42
21 46 42
21 46 42
21 47 42
21 47 43
21 47 43
21 46 42
21 46 42
21 46 42
21 46 42
21 46 42
21 47 43
21 46 42
21 46 42
21 47 43
21 46 42
21 47 43
22 47 43
21 47 43
21 47 43
21 46 42
22 48 43
21 47 43
21 47 43
22 48 43
21 47 43
22 47 43
21 47 43
22 48 43
21 46 42
21 46 42
22 48 44
22 49 44
21 47 43
21 46 42
22 48 43
21 47 43
22 49 45
22 48 43
22 48 44
22 48 44
22 47 43
22 48 44
22 48 43
22 48 43
22 48 44
22 49 45
21 46 42
22 49 44
22 47 43
22 49 44
22 47 43
22 48 43
22 48 44
22 48 43
22 48 44
22 48 44
22 49 45
22 47 43
21 46 42
22 48 44
22 48 43
22 48 43
21 47 43
22 48 44
22 48 44
22 48 44
22 48 43
22 48 44
22 49 44
22 47 43
22 48 43
22 48 44
22 48 43
22 48 43
22 48 44
22 49 44
22 48 43
22 48 43
22 48 44
21 46 41
20 44 40
19 42 38
18 41 38
18 41 38
18 41 38
18 40 37
21 45 41
22 47 42
21 47 42
22 48 43
22 48 44
22 48 43
21 47 43
22 48 44
22 49 44
23 49 45
22 48 43
22 49 44
22 48 44
22 49 44
22 49 44
22 49 44
22 48 43
22 49 44
23 49 45
23 50 45
23 49 45
22 49 44
23 50 45
21 47 43
21 47 43
21 46 42
21 46 42
21 46 42
20 45 41
21 46 42
21 47 43
21 47 43
20 45 41
21 46 42
21 46 42
21 46 42
21 47 42
21 47 43
21 47 43
21 47 43
21 47 43
21 47 43
21 46 42
21 47 43
22 48 44
21 47 43
21 46 42
21 47 43
22 47 43
21 46 42
21 46 42
21 47 42
22 47 43
21 47 42
21 47 43
21 47 43
21 46 42
21 46 42
21 47 43
21 47 43
21 47 43
22 49 44
21 47 42
21 47 43
22 47 43
21 46 42
21 46 42
22 48 44
21 47 42
21 47 42
22 49 44
21 47 42
22 48 44
22 48 43
22 48 44
21 47 42
21 46 42
22 49 44
21 47 43
22 48 44
22 48 44
21 46 42
22 48 43
21 46 42
21 47 42
22 49 44
22 49 45
22 48 44
22 47 43
22 49 44
22 48 43
22 48 43
21 47 43
22 48 44
22 48 44
22 48 43
22 48 44
22 47 43
22 49 44
22 49 44
22 47 43
22 48 43
22 48 44
22 48 43
23 50 45
22 47 43
22 47 43
22 48 43
21 47 43
23 50 45
22 48 43
22 48 44
22 48 43
22 49 44
22 48 43
22 48 44
22 48 43
22 47 43
22 49 44
22 48 43
22 48 43
22 48 44
22 48 43
22 49 44
22 48 44
22 49 44
22 47 43
22 49 44
22 48 43
22 48 44
22 49 44
22 49 44
22 49 44
22 48 43
22 47 43
22 48 44
23 50 45
22 48 43
23 50 45
22 49 44
22 49 45
22 49 44
22 47 43
21 47 43
22 48 43
21 47 43
21 46 42
21 46 42
21 46 42
20 45 41
21 47 43
21 47 43
21 46 42
21 47 43
21 46 42
21 46 42
21 46 42
21 47 43
21 47 43
21 46 42
21 47 43
21 47 43
21 47 43
21 47 43
22 48 44
21 47 43
22 48 44
22 48 44
21 46 42
21 46 42
21 47 43
22 48 44
21 47 43
21 46 42
21 47 43
21 47 43
21 47 43
21 47 43
22 48 43
22 48 44
22 48 44
22 48 43
22 48 43
22 48 44
21 47 43
21 47 43
22 47 43
22 47 43
22 47 43
21 47 43
22 48 43
22 48 44
22 48 43
21 47 42
22 48 43
22 48 43
21 47 42
21 47 43
21 47 43
22 47 43
22 48 44
22 48 43
22 49 44
21 46 42
22 48 44
22 48 44
22 48 43
22 48 43
22 48 43
22 49 45
22 47 43
22 48 43
22 47 43
22 48 43
22 49 44
22 48 43
22 48 44
22 48 44
22 47 43
22 47 43
21 46 42
22 48 44
22 48 44
22 48 44
22 48 44
22 48 43
22 49 44
22 48 44
22 48 43
22 48 44
22 48 43
21 47 42
22 47 43
23 50 45
22 48 43
22 48 43
21 47 43
22 49 44
22 48 44
22 48 44
22 47 43
22 48 43
22 48 44
22 48 43
22 48 43
22 49 45
22 49 44
22 49 44
22 48 43
22 49 44
22 49 44
22 49 44
22 49 44
22 48 44
22 49 45
22 48 44
22 49 44
22 49 44
21 47 42
22 49 44
22 48 43
22 49 44
22 49 44
21 46 42
21 46 42
21 46 42
21 47 43
21 47 43
21 47 43
21 47 43
21 47 43
20 45 41
21 46 42
21 47 43
21 46 42
21 47 42
21 46 42
21 46 42
21 46 42
21 47 43
22 47 43
21 46 42
21 47 43
21 47 43
21 46 42
21 47 43
21 47 43
21 47 43
21 46 42
21 47 42
21 45 41
22 48 44
21 47 43
21 47 42
22 48 43
22 49 44
22 48 43
21 47 43
21 46 42
21 45 41
21 47 42
21 47 43
21 46 42
21 47 43
21 46 42
21 47 43
22 48 43
22 49 44
22 48 43
21 46 42
21 47 43
21 47 43
21 47 43
21 46 42
22 48 44
21 46 42
21 47 43
22 48 44
21 47 42
22 48 44
21 46 42
21 47 42
21 47 43
22 48 44
22 49 44
22 48 44
22 48 43
21 47 42
21 47 42
22 48 44
22 48 44
22 47 43
21 47 42
22 47 43
22 48 43
22 48 44
22 48 44
22 49 44
21 47 43
22 48 44
22 48 43
22 48 44
22 48 43
22 49 44
22 48 43
22 47 43
22 49 44
22 48 44
22 48 44
22 49 44
22 49 44
22 48 43
21 46 42
21 47 43
21 47 42
22 48 44
22 49 45
22 49 45
22 49 44
21 47 42
22 48 44
22 48 43
22 48 44
22 49 45
22 47 43
22 48 43
22 48 43
22 48 44
22 48 44
22 49 44
22 47 43
22 48 43
21 46 42
21 47 43
23 50 45
22 48 43
22 48 44
22 48 43
22 49 44
22 49 44
22 48 44
22 48 44
22 48 44
21 46 42
21 47 43
21 46 42
20 45 41
20 44 41
20 45 41
21 47 43
21 47 43
20 45 41
21 46 42
21 46 42
21 47 42
21 46 42
21 46 42
21 46 42
21 47 43
21 47 43
21 46 42
21 46 42
21 47 43
21 45 41
21 47 43
21 47 43
21 47 43
22 48 44
21 47 43
21 47 42
22 48 43
21 46 42
21 46 42
21 46 42
21 46 42
22 48 44
21 47 43
22 48 44
21 47 43
21 46 42
22 48 44
21 47 43
21 46 42
21 47 42
22 48 43
22 47 43
22 47 43
21 46 42
22 48 44
22 48 44
22 48 44
22 49 44
21 45 41
21 46 42
22 48 44
21 47 43
21 47 43
21 47 43
21 45 41
22 48 43
22 48 43
22 48 44
21 47 43
21 47 43
21 47 43
22 48 43
22 48 44
22 48 44
22 48 43
22 47 43
22 49 44
22 48 44
22 48 44
22 47 43
22 48 44
22 47 43
22 48 43
22 48 43
22 49 44
22 47 43
22 48 44
22 47 43
23 49 45
21 47 43
22 48 44
22 48 44
22 48 43
22 48 43
22 47 43
22 47 43
22 48 44
22 48 44
22 48 44
22 49 44
22 49 44
22 49 44
22 48 43
22 48 43
22 48 44
22 48 44
22 47 43
22 49 44
22 49 45
22 47 43
22 48 44
22 48 43
22 48 44
22 48 44
22 48 44
22 49 44
22 48 43
22 49 44
22 48 43
22 47 43
22 48 43
22 49 45
21 47 43
22 48 43
21 47 43
22 48 44
22 48 43
22 48 44
22 48 44
21 46 42
21 46 42
20 44 40
21 47 43
20 45 41
21 46 42
21 46 42
21 46 42
21 46 42
21 46 42
21 47 43
21 46 42
21 47 42
21 47 43
21 47 43
21 46 42
22 48 44
20 45 41
21 47 43
21 46 42
21 46 42
21 47 43
21 46 42
21 47 43
21 46 42
21 47 43
22 48 44
21 47 42
22 48 43
21 47 43
21 46 42
21 47 43
22 48 44
21 47 43
21 46 42
21 47 43
22 48 43
21 47 43
21 47 43
21 47 43
21 46 42
22 48 44
21 46 42
21 47 43
21 46 42
21 47 43
21 46 42
21 47 43
22 48 43
22 47 43
21 46 42
21 47 42
21 46 42
21 46 42
22 48 43
22 48 44
22 47 43
22 48 43
21 46 42
21 46 42
21 46 42
21 47 42
22 48 43
22 48 43
21 47 43
22 48 44
22 48 43
22 48 44
22 48 44
22 48 43
22 48 44
21 47 43
22 47 43
21 47 43
21 47 42
21 47 43
22 48 43
22 47 43
22 48 43
22 48 43
22 47 43
22 48 44
22 47 43
22 49 44
22 47 43
21 47 43
21 47 43
21 47 43
22 49 44
22 49 44
22 49 45
22 48 43
21 47 43
22 49 45
21 47 42
22 48 43
22 48 44
23 49 45
22 48 43
22 49 44
22 48 44
22 48 44
22 48 43
22 49 44
22 49 44
22 48 43
22 49 45
22 48 43
22 48 43
22 49 44
22 48 44
22 48 43
22 49 44
22 49 45
22 49 44
22 48 44
22 48 44
22 49 44
22 48 44
21 47 43
20 45 41
21 46 42
21 47 43
21 46 42
21 46 42
20 45 41
21 46 42
21 46 42
21 47 43
21 46 42
21 47 43
21 46 42
21 46 42
21 46 42
20 45 41
21 46 42
22 48 43
21 47 43
21 46 42
21 47 43
21 47 43
21 47 43
21 46 42
21 47 43
21 47 43
21 46 42
21 46 42
21 45 41
21 47 43
21 47 43
21 47 43
21 46 42
22 48 44
21 47 43
21 47 43
21 47 43
21 47 43
21 47 43
22 48 43
21 45 41
21 47 43
21 47 43
21 46 42
21 47 42
22 48 43
22 48 43
21 47 42
22 48 44
21 47 43
22 48 44
21 47 43
21 47 42
21 47 43
21 47 42
21 47 43
22 48 44
21 47 43
22 49 44
21 47 43
21 46 42
21 47 42
21 46 42
21 46 42
21 47 42
22 48 43
22 49 44
21 46 42
22 48 44
21 47 43
22 48 43
22 48 43
22 48 43
21 47 43
21 47 43
22 47 43
21 47 43
21 47 43
21 47 43
22 48 44
22 48 44
21 47 43
21 47 43
22 47 43
21 47 43
21 47 43
22 48 44
21 47 43
22 47 43
23 50 45
22 47 43
22 48 43
22 48 44
22 48 44
22 48 43
22 48 44
21 47 42
22 49 45
22 48 43
22 48 44
22 48 44
22 47 43
22 49 44
22 48 43
21 47 43
22 48 43
22 48 44
22 48 43
21 47 43
21 47 43
22 49 44
22 47 43
22 48 43
22 48 44
21 47 43
22 48 43
22 48 44
22 48 43
22 48 44
22 48 43
22 48 43
20 45 41
21 46 42
21 46 42
21 46 43
21 46 42
21 46 42
21 46 42
21 46 42
20 45 41
21 46 42
20 45 41
21 46 42
22 48 43
21 46 42
21 46 42
21 45 42
21 47 43
21 47 43
20 45 41
21 46 42
21 47 43
21 47 43
21 46 42
22 48 43
21 46 42
21 46 42
21 47 43
21 47 43
21 46 42
21 47 43
21 46 42
21 47 43
21 47 43
21 46 42
21 46 42
21 45 41
21 46 42
21 47 43
21 46 42
21 46 42
21 47 43
21 46 42
22 48 44
21 47 43
21 46 42
22 48 44
21 47 43
21 47 43
22 48 44
21 47 43
22 48 43
22 49 45
22 48 43
21 46 42
21 47 43
22 48 44
21 46 42
21 47 43
22 48 44
21 46 42
22 48 44
21 47 43
21 47 42
21 47 43
21 47 43
22 49 44
22 47 43
21 47 43
22 48 44
22 49 45
22 47 43
22 48 44
21 47 42
22 49 44
21 46 42
22 48 43
21 47 43
21 47 43
22 47 43
21 46 42
21 47 43
21 47 43
22 47 43
22 47 43
22 49 44
22 48 43
21 47 42
22 48 43
22 48 43
22 48 44
21 47 43
22 48 43
22 48 44
22 48 43
21 47 42
22 48 44
21 47 43
22 49 44
22 48 43
21 46 42
21 47 43
22 48 44
21 47 43
22 47 43
22 47 43
21 47 43
22 48 43
21 47 43
21 47 42
22 48 43
21 47 43
22 48 44
21 47 43
22 49 45
22 48 44
22 48 44
22 49 45
21 47 43
21 46 42
22 48 44
21 46 42
20 45 41
21 45 42
21 46 42
21 47 43
21 46 42
20 45 41
21 46 42
20 45 42
21 46 42
20 45 41
22 48 44
21 46 42
21 46 42
21 46 42
21 46 42
21 45 42
21 46 42
21 46 42
21 46 42
21 46 42
21 46 42
21 45 42
21 47 43
21 46 42
21 45 41
21 47 43
21 47 43
21 45 42
21 47 43
21 47 43
21 45 41
21 46 42
21 47 43
21 47 43
20 45 41
21 46 42
21 47 43
21 47 43
21 45 41
21 47 43
21 46 42
21 47 43
21 46 42
21 47 43
22 48 44
21 47 42
22 47 43
21 47 43
21 46 42
21 47 43
21 45 41
21 47 43
21 47 42
21 47 43
21 46 42
21 46 42
22 48 43
21 47 43
21 46 42
22 48 44
22 48 43
21 47 43
21 46 42
22 48 44
21 47 43
22 47 43
21 46 42
21 47 43
21 47 43
21 47 43
22 48 44
22 47 43
21 47 43
22 48 44
22 48 44
21 47 43
21 47 43
22 48 44
21 47 43
22 48 43
22 48 44
22 48 44
21 47 43
21 47 43
22 48 43
21 47 43
22 48 43
22 48 44
22 48 43
21 46 42
21 47 43
22 49 44
22 48 43
22 48 43
21 47 42
21 46 42
22 48 43
21 47 42
22 48 44
21 47 43
21 46 42
22 48 43
22 48 43
22 48 44
21 47 43
22 48 44
22 49 44
22 48 44
21 47 43
21 47 43
22 48 43
22 48 43
21 47 43
21 47 42
22 48 43
21 47 43
22 48 44
21 47 43
22 48 43
21 46 42
21 46 42
20 45 41
20 45 41
21 46 42
20 45 41
20 45 41
20 45 41
21 46 42
20 45 41
21 45 42
21 46 42
21 46 42
20 45 41
21 46 42
21 47 43
21 46 42
21 46 42
21 47 43
21 47 43
21 46 43
21 46 42
21 46 42
21 47 43
21 46 42
21 46 42
21 46 42
21 45 42
21 47 43
21 47 43
21 45 42
21 46 42
21 47 43
21 46 42
21 46 42
21 47 43
21 47 43
21 47 43
21 47 43
21 47 43
21 46 42
21 47 43
21 47 43
21 46 42
21 47 43
21 47 43
22 48 44
21 47 43
21 46 42
21 47 43
22 48 44
21 46 42
21 46 42
21 46 42
21 47 43
22 48 44
21 47 43
21 47 43
21 47 43
21 46 42
21 47 43
21 47 42
21 47 43
21 47 43
21 46 42
21 47 42
21 47 43
21 47 43
22 48 44
22 48 44
21 47 43
22 48 43
21 47 43
21 47 43
22 48 43
21 46 42
21 47 43
21 47 43
21 47 43
22 47 43
21 47 43
21 47 43
21 46 42
21 46 42
22 47 43
21 47 43
21 47 43
21 47 43
22 48 43
21 47 43
22 48 44
21 47 43
21 47 43
21 46 42
21 47 43
22 48 43
21 47 43
21 47 43
21 47 43
22 48 43
22 49 44
21 47 43
21 47 43
21 47 43
21 46 42
21 47 42
22 48 44
21 47 43
21 47 43
22 48 44
22 48 44
21 46 42
22 48 44
22 48 43
21 47 43
22 48 44
21 46 42
21 47 43
22 47 43
22 48 44
21 46 42
20 45 41
21 46 42
21 46 42
21 46 42
21 46 42
21 47 43
21 46 42
21 46 42
21 47 43
21 46 42
21 46 42
21 46 42
20 45 41
21 46 42
20 45 42
21 45 42
21 46 42
21 47 43
21 46 42
21 46 42
21 47 43
20 45 41
21 46 42
20 45 41
21 46 42
21 46 42
21 46 42
21 47 43
21 46 42
21 47 43
21 46 42
21 46 42
21 47 43
21 46 42
21 46 42
21 46 42
20 45 41
21 46 42
20 45 41
21 46 42
21 47 43
21 47 43
21 47 42
21 47 43
21 47 43
22 48 44
21 47 43
22 48 43
21 46 42
21 45 41
21 47 42
21 47 43
21 46 42
21 46 42
21 47 42
21 46 42
21 47 43
21 46 42
21 47 43
21 47 42
21 47 43
21 47 43
21 46 42
21 47 43
21 47 43
21 47 43
22 48 44
21 47 42
21 47 43
22 48 43
22 48 43
22 48 43
21 47 43
22 47 43
21 47 43
21 47 43
21 47 43
21 47 43
22 47 43
21 47 43
21 46 42
21 47 43
21 46 42
21 47 43
21 47 42
21 47 42
21 47 43
21 47 43
22 48 44
21 47 42
21 47 42
21 47 43
22 47 43
22 48 44
21 47 43
21 47 43
21 47 42
21 47 43
21 47 43
22 48 43
21 46 42
22 48 43
22 47 43
21 47 43
22 48 43
21 47 42
21 46 42
22 48 44
21 47 43
22 48 44
21 47 43
22 48 43
21 47 43
22 48 44
22 47 43
21 47 43
21 47 43
22 48 44
21 47 43
20 45 41
20 44 41
21 46 42
21 46 42
21 46 42
20 45 42
20 45 41
20 44 41
21 46 42
21 46 42
21 47 43
21 46 42
21 45 42
21 46 42
20 45 41
21 46 43
21 45 42
20 44 41
20 45 41
21 46 42
21 46 42
20 45 41
21 45 41
21 47 43
21 46 42
21 45 42
21 46 42
21 46 42
21 47 43
21 45 42
21 47 43
21 46 42
21 46 42
22 48 44
21 46 42
21 47 43
21 45 42
21 47 43
21 46 42
21 46 42
21 46 42
21 47 43
20 45 41
21 47 43
21 46 42
21 47 43
21 46 42
21 46 42
21 46 42
21 47 43
21 47 43
21 45 41
21 46 42
22 48 44
21 46 42
21 46 42
21 46 42
21 47 42
21 47 43
21 47 43
21 46 42
20 45 41
21 47 43
21 47 43
21 47 43
21 46 42
21 47 43
21 46 42
21 47 42
21 47 43
21 46 42
21 47 43
21 46 42
21 47 42
22 48 43
22 47 43
21 47 43
21 47 42
21 46 42
21 47 43
22 47 43
21 45 41
22 47 43
22 47 43
22 47 43
22 48 43
22 47 43
22 47 43
21 46 42
21 46 42
21 47 43
21 47 43
22 48 43
21 47 43
22 48 44
21 47 42
22 47 43
23 50 45
21 47 43
21 47 43
22 48 44
21 47 43
21 47 43
22 48 44
21 46 42
22 48 44
21 46 42
22 48 44
21 47 43
22 48 43
21 47 42
22 48 43
21 47 43
21 47 43
21 46 42
22 49 44
21 47 43
22 48 44
21 47 43
21 47 43
20 45 41
21 47 43
20 45 41
21 46 42
21 47 43
21 47 43
21 46 42
21 46 42
21 46 42
20 45 42
21 46 42
21 46 42
21 47 43
21 46 42
21 47 43
20 45 41
21 46 42
21 46 42
21 46 42
20 45 41
21 46 42
21 47 43
20 45 41
21 47 43
21 46 42
21 46 42
21 47 43
21 46 42
21 46 42
21 46 42
21 46 42
21 46 42
20 45 41
21 46 42
21 47 43
21 45 42
21 46 42
21 46 42
21 47 43
20 45 41
21 46 42
21 47 43
21 46 42
21 47 43
21 46 42
21 46 42
21 47 43
21 46 42
20 45 41
21 47 43
21 45 41
21 46 42
21 47 43
22 48 43
21 47 43
21 46 42
21 47 43
20 45 41
21 46 42
21 47 43
21 47 42
21 46 42
21 47 43
21 47 43
21 47 43
21 46 42
21 47 43
21 47 43
21 46 42
21 47 42
21 46 42
21 47 43
21 46 42
21 47 43
22 47 43
21 47 43
21 47 43
21 46 42
21 46 42
21 47 43
21 47 43
22 47 43
21 47 43
21 46 42
22 48 43
21 46 42
21 47 42
21 46 42
21 47 43
22 48 43
22 47 43
22 47 43
21 46 42
22 47 43
21 46 42
21 47 43
21 47 43
21 47 43
22 48 44
22 47 43
22 48 43
22 47 43
22 47 43
22 47 43
22 49 44
22 48 44
21 46 42
21 46 42
22 48 44
22 48 44
22 48 43
21 47 43
22 47 43
21 47 43
21 47 43
21 47 43
21 47 43
21 46 42
22 48 43
21 47 43
20 44 40
20 45 41
21 46 42
21 46 42
21 45 42
21 46 43
20 45 42
20 45 41
21 46 42
20 45 42
21 47 43
20 45 41
20 45 41
20 44 41
20 45 41
21 46 42
20 45 42
21 46 42
21 46 42
21 46 42
20 45 41
21 47 43
21 46 42
21 46 42
21 47 43
21 47 43
21 47 43
21 46 42
21 46 42
21 46 42
21 47 43
20 45 41
21 47 43
21 47 43
21 46 42
21 47 43
21 47 43
21 46 42
22 48 44
21 46 42
21 46 42
21 47 43
20 45 41
21 46 42
21 46 42
20 45 41
21 46 42
21 47 43
21 47 43
21 46 42
21 45 42
21 47 43
21 47 43
21 46 42
21 46 42
22 47 43
21 46 42
21 47 43
20 45 41
21 47 43
21 47 43
21 47 43
21 47 43
21 46 42
21 47 43
21 46 42
21 46 42
21 47 43
21 46 42
21 47 43
21 46 42
21 47 43
22 47 43
21 47 42
22 47 43
22 47 43
21 47 43
21 47 43
21 47 43
21 47 43
22 48 43
21 46 42
21 46 42
21 47 43
21 47 43
22 47 43
22 47 43
22 49 44
21 47 43
21 46 42
21 46 42
22 47 43
22 47 43
21 46 42
21 47 42
21 46 42
21 46 42
22 47 43
22 47 43
21 46 42
22 48 44
21 45 41
22 47 43
21 46 42
21 47 42
21 46 42
21 46 42
22 47 43
21 46 42
22 48 44
21 47 43
21 46 42
22 48 43
21 47 43
22 47 43
21 47 43
22 47 43
21 46 41
21 47 43
22 47 43
21 46 42
20 45 41
20 45 42
20 45 41
21 47 43
21 46 42
20 45 41
21 46 42
20 45 42
21 46 42
21 47 43
20 44 40
20 45 41
21 46 42
21 46 42
20 44 40
21 46 42
21 46 42
21 46 42
21 46 42
21 46 42
21 46 43
21 46 42
21 46 42
21 46 42
21 46 42
21 47 43
21 45 41
21 46 42
21 46 42
21 46 43
21 46 42
21 46 42
21 47 43
20 45 41
21 46 42
21 46 42
21 46 42
21 47 43
21 46 42
21 47 43
21 46 42
21 46 42
21 46 42
21 46 42
20 45 41
21 46 42
21 47 43
21 46 42
21 46 42
21 47 43
21 47 43
21 46 42
21 47 43
21 46 42
21 46 42
21 47 43
21 47 43
21 46 42
21 46 42
21 47 43
21 46 42
21 46 42
21 47 43
21 46 42
21 47 43
21 46 42
21 46 42
21 47 43
21 47 43
21 46 42
21 47 42
22 47 43
22 47 43
21 46 42
21 47 43
21 46 42
21 45 41
21 47 43
21 46 42
21 47 43
21 46 42
22 48 44
21 46 42
22 47 43
22 47 42
22 48 44
22 47 43
21 46 42
21 46 42
22 47 43
22 47 43
22 47 43
22 47 43
22 47 43
21 46 42
22 46 42
21 46 42
21 46 42
21 46 42
22 47 43
22 48 44
21 46 42
22 48 43
22 48 44
21 46 42
22 47 43
22 47 43
22 47 43
22 48 44
22 47 43
21 46 42
22 47 43
21 47 43
21 46 42
21 46 42
22 47 43
21 46 42
22 47 43
22 47 43
20 45 42
20 45 42
21 46 42
21 46 42
20 45 41
20 45 41
21 46 42
21 46 42
21 47 43
21 46 42
21 46 42
21 46 42
21 47 43
21 46 42
21 46 42
21 46 42
21 46 42
21 46 42
21 46 42
20 45 41
20 45 42
20 44 40
21 46 42
21 46 42
21 47 43
20 45 41
20 45 41
21 47 43
21 46 42
21 46 42
21 47 43
21 46 42
21 46 42
21 46 42
21 47 43
21 46 42
21 46 42
20 45 41
21 46 42
21 47 43
20 45 41
21 46 42
21 46 42
21 47 42
21 46 42
21 46 42
20 45 41
21 46 42
21 46 42
20 45 41
21 47 43
20 45 41
21 46 42
21 47 43
21 47 43
21 46 42
22 48 44
20 45 41
20 44 41
21 46 42
21 46 42
21 46 42
21 47 43
21 47 43
21 47 43
21 47 43
21 47 43
21 46 42
21 46 42
21 45 41
21 46 42
21 45 41
22 47 43
22 47 43
21 47 43
22 47 43
22 47 43
22 47 43
21 46 42
21 46 42
22 48 43
22 47 43
22 46 42
21 46 42
22 47 43
22 46 42
22 46 42
22 47 43
22 48 43
22 48 43
22 47 43
23 48 44
22 47 43
22 47 42
22 46 42
22 46 42
22 47 43
22 48 43
22 47 42
22 47 43
22 47 43
22 48 43
22 47 42
22 46 42
22 46 42
22 47 43
22 47 43
22 47 43
21 46 42
21 46 42
22 48 44
22 48 44
21 46 42
22 47 43
21 47 42
22 48 43
21 47 43
22 48 43
22 48 44
22 48 43
21 46 42
20 44 41
21 46 42
20 45 41
21 46 42
21 47 43
21 46 43
20 45 42
20 45 41
20 45 41
20 45 41
21 46 42
20 45 41
20 45 41
20 44 41
20 45 41
20 45 42
20 45 41
20 45 42
20 45 42
21 46 42
20 45 41
20 45 42
20 45 41
21 46 43
20 44 41
21 46 42
21 46 43
21 46 42
21 46 42
21 45 41
21 46 42
21 45 42
21 46 42
20 45 41
21 46 42
21 46 42
20 45 41
21 46 42
21 46 42
20 45 41
21 46 42
21 46 42
21 46 42
21 47 43
21 46 42
21 46 42
21 46 42
20 45 41
21 46 42
21 46 42
21 46 42
20 45 41
21 46 42
22 48 44
20 45 41
21 46 42
21 46 42
21 47 43
21 45 41
21 47 43
21 46 42
21 45 41
21 46 42
21 46 42
22 48 44
22 47 43
21 47 42
21 46 42
21 46 42
21 45 41
22 47 43
22 47 43
21 46 42
22 47 43
21 46 42
22 47 43
21 46 42
22 47 43
22 46 42
22 48 44
22 47 43
22 47 42
22 47 43
21 45 41
22 47 43
23 48 43
22 46 42
22 45 41
22 46 42
22 47 43
23 48 43
22 46 42
22 46 42
22 46 42
22 47 43
23 48 43
23 47 43
23 48 43
23 48 44
22 47 42
22 46 42
22 47 42
22 47 43
22 47 43
22 47 43
22 46 42
22 46 42
22 48 43
22 48 43
22 47 43
22 48 44
22 47 43
22 47 42
22 48 44
21 46 42
22 47 43
21 45 41
21 46 42
22 47 43
21 46 42
20 45 41
20 45 41
21 46 43
20 45 42
20 45 41
20 45 41
20 44 41
21 46 42
20 45 41
21 47 43
20 44 41
21 46 42
21 46 42
21 46 42
21 47 43
20 45 41
21 47 43
21 46 42
20 45 41
21 46 42
20 45 41
20 45 41
20 44 41
20 45 41
21 46 42
20 45 41
20 45 41
20 45 42
21 46 42
21 46 42
21 46 42
21 47 43
20 45 42
21 46 42
21 46 42
21 45 42
21 46 42
21 47 43
21 46 42
21 45 41
21 46 42
21 46 42
20 45 41
21 47 43
21 47 43
21 46 42
21 46 42
21 46 43
20 45 41
20 45 41
21 45 41
21 47 43
20 45 41
21 47 43
21 46 42
21 47 43
21 47 43
21 46 42
21 47 43
21 47 43
21 46 42
22 48 44
21 46 42
21 46 42
21 45 41
21 47 43
22 47 43
21 46 42
21 46 42
22 47 43
21 46 42
22 47 43
21 46 42
22 48 43
21 46 42
22 46 42
22 47 43
22 47 43
22 46 42
23 48 43
22 45 41
23 48 43
22 46 42
23 47 43
22 46 42
23 47 43
23 47 43
23 47 42
23 47 42
23 46 42
23 47 42
23 47 43
23 47 43
23 47 43
23 47 43
23 48 44
23 47 43
23 47 43
23 47 43
22 46 42
22 46 42
23 47 43
23 48 44
22 47 42
22 46 42
22 46 42
22 46 42
23 47 43
22 46 42
23 48 43
22 46 42
22 47 43
23 48 44
22 47 43
22 46 42
22 47 43
22 47 43
22 46 42
22 48 43
20 45 41
20 45 41
20 45 41
20 45 41
20 45 41
20 44 41
20 45 41
20 45 41
20 45 41
20 43 40
20 45 41
21 46 42
21 46 42
20 45 42
20 45 41
20 45 41
21 45 42
20 44 40
20 44 40
21 46 42
21 47 43
20 45 41
20 45 42
21 46 42
21 46 42
20 45 41
21 46 42
21 45 42
21 46 42
21 47 43
21 46 42
20 45 41
21 46 42
21 46 42
20 45 41
20 44 41
20 45 41
20 45 41
21 45 41
20 44 41
20 45 41
21 46 42
21 46 42
21 45 41
21 47 43
21 46 42
21 47 43
20 45 41
20 45 41
20 45 41
21 47 43
20 45 41
21 47 43
21 47 43
21 46 42
21 46 42
21 46 42
21 47 43
21 45 41
21 46 42
21 46 42
21 46 42
21 46 42
21 46 42
21 46 42
21 46 42
22 47 43
22 47 43
22 47 43
22 46 42
22 47 43
22 47 43
22 47 43
22 47 43
22 47 43
22 46 42
23 47 43
23 47 43
22 46 42
23 47 42
23 48 44
23 47 43
23 47 43
23 47 43
23 47 43
23 47 42
23 47 43
24 48 44
24 48 44
23 47 43
23 47 43
24 47 43
24 47 43
24 48 43
24 47 42
24 48 43
24 48 43
24 48 44
24 47 43
23 47 43
23 46 42
24 48 43
24 47 43
23 47 43
23 47 43
24 48 44
24 48 44
23 46 42
23 46 42
22 45 41
23 47 43
23 47 43
23 48 43
23 47 43
22 47 43
22 46 42
23 48 43
22 47 43
23 48 44
22 48 43
20 44 40
21 46 42
21 46 42
21 46 42
20 44 41
21 46 42
20 44 41
20 45 41
20 45 41
20 45 42
21 45 42
21 46 42
20 45 41
20 45 41
20 45 42
20 45 42
20 45 41
20 45 42
20 45 41
21 46 42
20 44 41
21 46 42
20 45 41
20 45 41
20 44 40
20 44 41
21 46 42
20 45 42
20 45 41
20 45 41
21 46 43
21 46 42
20 45 41
21 46 42
21 46 42
21 46 42
21 46 42
21 45 42
20 44 40
21 46 42
21 46 42
21 46 42
20 44 40
20 45 41
21 46 42
21 46 42
20 45 42
21 45 42
21 46 42
21 47 43
21 46 42
21 47 43
21 46 42
21 47 42
21 45 41
21 46 42
21 46 42
22 47 43
21 47 43
21 45 41
21 46 42
21 46 42
21 46 42
21 45 42
21 46 42
22 47 43
21 45 41
21 45 41
22 46 42
22 46 42
22 46 42
22 46 42
23 48 44
23 47 43
23 47 43
23 48 44
23 46 42
23 47 43
23 47 43
23 47 43
23 47 43
23 46 42
24 47 43
24 47 43
24 47 43
25 49 44
24 47 42
25 48 44
25 48 44
25 48 44
25 47 43
25 48 44
25 49 45
25 48 43
25 48 44
25 48 44
25 48 44
25 48 43
25 48 43
25 48 44
24 47 43
25 48 43
24 47 43
24 48 43
25 49 45
24 48 44
24 48 44
25 49 45
24 48 44
23 46 42
24 48 44
24 48 43
23 46 42
23 46 42
23 47 43
23 47 43
23 47 43
23 48 44
23 47 43
23 47 43
21 47 43
21 46 42
20 44 41
20 45 41
20 45 41
21 46 42
20 45 41
21 46 42
20 44 41
21 46 42
20 45 41
20 45 41
21 47 43
21 47 43
20 45 41
20 45 41
21 46 42
21 46 42
20 45 41
20 45 42
20 44 41
21 46 42
20 45 41
20 45 41
20 45 41
20 45 41
20 45 42
20 45 42
21 46 42
20 45 41
21 46 42
20 45 41
21 46 42
20 45 41
21 46 42
20 44 41
21 45 42
21 45 42
20 45 41
21 45 42
20 45 41
21 45 41
21 46 42
21 46 42
21 47 43
21 47 43
21 46 42
21 45 41
21 46 42
21 45 42
21 46 42
20 45 41
22 48 44
21 46 42
21 46 42
21 45 42
21 46 42
20 45 41
21 45 41
21 46 42
21 45 41
21 45 41
22 46 42
21 46 42
22 46 42
22 47 43
22 46 42
22 47 43
23 48 44
22 46 42
22 46 42
23 47 43
23 48 44
23 47 43
23 46 42
24 49 44
23 47 43
24 47 43
24 47 43
24 48 43
24 47 43
24 47 43
25 48 43
25 48 43
25 47 42
25 48 44
26 48 44
26 48 43
26 48 44
25 47 43
26 48 44
26 49 44
26 48 43
26 49 45
26 48 44
26 48 44
27 49 45
26 48 44
26 49 44
26 48 43
26 48 44
26 49 44
26 49 45
26 48 44
26 49 44
25 47 43
25 48 44
25 48 43
25 47 43
25 48 44
24 47 43
24 47 43
24 48 44
23 46 42
24 48 43
24 47 43
24 48 44
23 47 43
24 48 44
23 48 44
20 45 41
20 44 41
20 45 41
21 46 42
20 45 41
20 45 41
20 44 41
20 46 42
20 46 42
20 44 40
21 46 42
21 46 42
21 46 42
20 45 41
21 46 42
20 45 41
20 45 41
21 47 43
21 46 42
20 44 40
21 46 42
20 44 40
21 46 42
20 44 41
21 47 43
20 45 41
21 46 42
21 46 42
20 45 41
20 45 42
21 46 42
20 44 41
20 45 41
20 45 41
20 45 41
21 47 43
21 46 42
21 46 42
21 46 42
21 46 42
21 46 42
21 47 43
21 46 42
21 46 42
21 45 42
21 46 42
20 45 41
21 47 43
21 46 42
21 45 41
21 46 43
21 47 43
21 47 43
21 46 42
21 47 43
21 46 42
21 46 42
21 45 42
22 47 43
21 45 41
22 47 42
21 46 42
22 46 42
22 46 42
22 47 43
22 47 43
23 47 43
22 46 42
23 46 42
23 47 43
23 47 43
23 47 43
24 48 43
24 47 43
24 48 44
25 48 43
25 48 44
25 48 43
25 47 43
25 48 43
26 48 43
25 47 43
26 49 45
26 48 44
26 48 44
27 49 44
27 49 44
27 48 43
27 49 44
28 50 45
28 49 44
28 49 44
28 49 44
27 48 44
28 50 45
28 49 45
27 48 44
28 49 44
29 51 46
28 50 45
28 49 44
28 49 45
28 49 45
28 50 45
27 49 44
27 48 44
27 50 45
26 48 44
26 47 43
26 48 44
26 49 44
25 48 43
26 49 44
25 48 44
25 48 43
25 47 43
25 48 44
24 48 43
24 46 42
24 47 43
21 46 42
20 45 41
21 46 42
20 45 41
20 45 41
20 45 42
20 45 42
20 45 41
20 44 41
20 44 40
20 45 42
20 45 41
20 44 41
20 45 42
20 45 41
21 46 42
21 46 43
21 46 42
21 46 42
20 45 41
20 44 40
20 44 40
21 46 42
20 45 41
20 45 41
21 46 42
20 45 42
20 45 42
20 44 41
21 46 42
21 46 42
21 46 42
21 46 42
21 46 42
21 46 42
20 45 41
20 44 40
21 46 42
21 46 42
21 45 42
21 46 42
21 47 43
20 45 41
21 45 42
21 46 42
21 47 43
21 46 42
21 47 43
21 46 42
20 45 41
21 46 42
21 46 42
21 46 42
21 46 42
21 46 42
22 47 43
21 45 41
21 45 41
22 46 42
22 46 42
22 47 42
23 48 44
23 47 43
22 46 42
23 47 43
23 47 43
22 45 41
23 46 42
24 47 43
24 48 44
24 47 43
24 46 42
25 48 44
25 48 43
26 49 44
26 48 44
26 49 44
26 48 43
27 49 45
27 48 44
27 48 44
27 48 44
28 49 44
28 48 44
28 48 44
28 49 44
28 48 44
28 49 44
29 50 45
29 49 45
29 49 45
29 49 44
30 50 45
30 50 45
30 50 45
30 51 46
30 50 45
30 50 45
30 50 45
30 50 45
29 50 45
30 50 46
29 48 44
29 49 44
29 50 45
29 49 45
29 51 46
28 49 44
28 50 45
28 49 44
28 49 45
27 49 44
27 48 43
27 49 44
27 50 45
26 47 43
26 50 45
26 49 44
25 47 43
25 48 43
20 45 41
20 45 41
20 45 42
20 44 41
21 47 43
21 47 43
20 44 41
21 46 42
20 45 41
20 45 41
20 45 41
21 46 42
20 45 41
20 45 41
20 45 41
20 45 41
20 45 41
20 45 41
21 46 42
20 45 41
20 45 41
20 44 40
20 44 41
20 45 41
20 45 41
20 45 41
21 46 42
20 45 41
20 44 41
20 45 41
21 46 42
20 45 41
21 46 42
21 46 42
20 45 41
21 47 43
21 46 42
20 45 41
20 45 41
20 45 41
22 48 44
20 45 41
20 44 40
21 45 42
21 46 42
20 45 41
21 46 42
21 45 41
21 45 41
22 47 43
21 45 41
21 45 41
21 45 41
21 45 42
21 46 42
21 45 41
21 45 41
22 47 43
22 47 43
22 47 43
22 46 42
22 45 41
22 46 42
23 47 42
23 47 43
23 47 43
24 47 43
24 47 43
24 46 42
25 48 44
24 46 42
25 47 43
25 47 42
26 47 43
26 48 44
28 50 46
27 49 45
28 49 44
28 50 45
28 48 44
29 49 44
29 50 45
29 48 43
30 50 46
30 49 44
30 50 46
30 50 45
31 51 46
31 52 47
31 50 45
32 51 46
32 51 46
32 51 46
32 51 46
32 51 46
32 52 47
32 51 46
32 50 45
32 52 46
32 51 46
32 52 47
32 52 47
31 50 45
31 50 45
31 50 45
31 50 45
31 51 46
30 50 45
30 52 47
30 50 45
29 49 45
29 50 45
29 50 45
28 50 45
28 49 44
27 49 44
27 49 44
26 47 43
26 48 44
26 48 44
20 44 41
21 46 42
20 45 42
20 45 42
20 44 41
20 44 40
20 45 42
20 45 41
20 44 40
20 43 40
20 44 41
21 46 42
20 45 41
21 47 43
20 44 41
21 46 42
21 46 42
20 44 41
21 46 42
20 45 41
21 46 42
21 46 42
20 45 42
20 45 41
21 45 42
20 45 42
21 46 42
21 47 43
20 45 41
21 46 42
20 44 41
21 46 42
21 46 42
21 46 43
21 46 42
21 46 42
20 45 41
21 47 43
20 44 41
20 45 41
21 45 42
21 46 43
20 45 41
21 46 42
21 46 42
21 45 42
21 46 42
20 44 41
20 45 41
21 45 41
21 46 42
21 45 41
21 46 42
21 45 41
21 45 41
22 46 42
22 46 42
22 46 42
23 47 43
22 46 42
23 47 43
23 46 42
23 47 43
24 48 44
23 46 42
24 48 44
25 48 43
25 47 42
26 49 45
25 46 42
26 48 44
26 47 43
27 49 44
27 49 44
28 50 45
28 49 45
29 49 45
29 50 45
30 50 45
30 50 45
30 50 45
31 50 45
31 50 45
32 51 46
32 51 46
33 52 46
33 52 47
33 51 46
34 52 47
34 52 46
34 52 47
34 51 46
34 52 47
35 53 48
34 51 46
35 53 47
35 53 48
34 52 46
35 53 48
34 53 47
34 52 47
34 54 48
34 52 46
34 52 47
33 52 47
33 52 47
33 51 46
32 51 46
32 51 46
32 52 47
31 51 46
31 50 46
31 51 46
30 51 46
29 49 44
29 50 45
29 49 45
28 49 44
28 50 45
27 48 44
20 45 42
20 45 42
20 45 41
20 44 40
20 45 41
20 45 42
21 46 42
20 44 40
20 45 41
20 45 41
20 44 41
20 45 42
20 45 41
20 45 41
20 45 41
20 45 41
20 45 41
20 44 41
20 45 41
20 45 42
20 44 40
21 46 42
20 45 41
21 46 42
21 47 43
21 46 42
20 45 41
21 46 42
21 46 42
20 44 40
20 45 41
21 46 43
20 45 41
20 45 41
21 46 42
20 45 41
20 45 42
20 45 41
20 45 41
21 46 42
21 46 43
21 45 42
20 45 41
21 45 41
21 45 41
21 45 42
21 45 41
21 46 42
20 44 41
21 46 42
21 45 41
21 45 41
22 46 42
22 45 42
22 47 43
22 45 41
22 46 42
23 46 42
23 46 42
23 47 43
23 46 42
23 45 41
24 48 44
25 47 43
25 47 43
25 47 43
26 48 43
26 48 44
27 49 44
27 48 43
28 49 44
28 49 44
29 50 45
29 50 45
30 50 46
30 51 46
31 50 45
31 50 45
32 50 45
32 51 46
33 51 46
33 52 47
34 52 47
34 52 47
35 52 47
35 52 47
35 52 47
36 55 49
36 53 47
36 53 48
37 53 48
37 54 48
37 53 48
37 54 48
37 54 48
37 55 49
37 54 49
37 53 48
37 54 48
37 55 49
37 54 48
37 54 48
37 54 48
36 53 47
36 54 48
36 53 47
36 54 49
35 52 47
34 52 47
34 52 47
34 54 48
33 52 47
32 51 46
32 51 46
32 51 46
31 50 45
30 49 44
30 49 45
29 49 45
29 50 45
19 43 40
20 45 41
20 45 41
20 45 42
21 46 42
20 44 40
20 45 41
20 45 41
20 45 42
20 44 41
20 45 41
20 44 41
20 45 42
20 44 41
21 46 42
20 45 41
20 45 41
20 45 41
21 46 42
20 45 41
20 45 41
20 46 42
20 45 41
20 45 41
20 45 41
20 45 41
20 45 41
20 45 41
20 45 41
21 46 42
21 46 42
20 44 40
20 45 41
20 44 40
21 46 42
20 45 41
21 46 42
20 45 41
20 44 40
21 46 42
21 47 43
21 46 42
21 45 41
20 44 41
21 45 42
21 45 41
21 46 43
21 45 41
20 44 40
21 46 42
21 46 42
21 45 42
21 44 41
22 46 42
22 46 42
22 46 42
23 46 42
23 46 42
23 46 42
23 46 42
24 46 42
25 47 43
25 48 43
25 47 43
26 48 44
26 48 44
27 49 45
28 49 44
28 48 43
29 49 44
29 50 45
30 50 45
30 50 45
31 50 46
32 51 46
32 51 46
33 52 46
34 52 47
34 51 46
34 52 46
35 53 48
36 53 47
36 53 47
37 54 48
37 54 48
38 54 48
38 54 48
38 54 48
39 55 49
39 54 49
39 55 49
39 54 48
40 56 50
40 55 49
40 56 50
40 56 50
40 55 49
40 56 50
40 56 50
40 55 49
40 55 49
40 56 50
39 55 49
39 55 49
39 54 49
38 54 48
38 55 49
38 54 48
37 55 49
37 53 47
36 52 46
36 54 48
35 52 47
35 53 47
34 53 47
33 52 47
32 51 46
32 51 46
31 50 45
31 51 46
20 44 41
20 44 41
20 45 41
20 45 42
20 45 41
20 45 41
20 45 41
19 43 40
20 45 41
20 44 40
20 45 41
20 45 41
21 47 43
20 45 41
20 44 41
21 46 42
20 45 42
20 44 40
19 43 39
20 45 41
20 45 41
20 45 41
20 45 41
20 45 41
20 44 41
21 46 42
20 45 41
20 45 41
20 45 42
20 45 41
21 45 42
21 46 42
21 45 42
20 45 41
20 45 41
20 45 41
21 45 41
20 45 42
20 45 41
20 45 41
21 45 41
21 46 42
21 46 42
21 46 42
21 46 42
21 45 41
21 45 41
21 45 41
22 46 42
21 45 42
21 45 41
22 45 41
22 45 41
23 46 42
23 47 43
23 46 42
23 47 43
24 47 43
24 46 42
25 47 43
25 48 44
25 47 43
26 48 44
26 48 43
27 49 44
28 49 44
28 49 44
29 50 46
29 49 44
30 50 46
31 50 45
32 52 47
32 50 45
33 51 46
33 51 46
34 51 46
35 52 47
36 52 47
37 54 49
37 54 49
38 55 49
39 55 49
39 56 50
40 55 49
40 56 50
41 56 50
41 57 51
42 57 51
42 57 51
42 57 50
43 57 50
43 57 51
43 58 51
44 58 51
43 58 51
43 58 51
44 58 51
43 57 51
44 58 52
44 59 52
43 57 51
43 57 51
43 57 50
43 58 52
42 56 50
41 56 50
41 56 50
41 57 51
40 56 50
40 57 51
39 55 49
39 56 50
38 54 49
37 53 48
37 54 49
36 53 48
35 53 48
34 53 48
34 52 47
33 51 46
21 46 42
20 45 41
20 44 41
20 45 41
20 45 41
20 45 41
20 45 41
20 45 41
20 45 41
20 45 41
20 44 40
20 45 41
20 45 41
21 46 42
19 43 40
20 45 41
20 45 41
20 44 41
20 45 42
20 45 41
20 44 41
20 45 42
21 46 42
21 46 42
20 44 41
19 43 39
20 44 40
20 45 42
20 45 41
20 45 41
21 46 42
20 45 41
21 46 42
21 46 42
21 46 42
21 47 43
20 45 41
20 44 41
21 45 42
21 46 42
20 45 41
21 46 42
21 46 42
21 46 43
22 46 43
22 46 43
22 46 43
22 46 42
22 47 43
22 45 41
22 46 42
22 46 42
22 45 42
23 47 43
23 46 42
24 47 43
24 46 42
24 46 42
25 47 43
25 47 43
26 49 44
27 49 44
27 48 43
28 49 45
29 50 45
29 48 44
30 49 45
31 50 45
31 51 46
32 51 46
33 50 45
34 52 47
34 51 46
35 53 47
36 53 48
37 54 48
38 54 48
39 55 49
39 55 49
40 56 50
41 56 50
41 57 50
42 56 50
43 57 51
44 59 52
44 58 51
45 59 52
45 58 51
46 60 53
46 59 52
46 59 52
47 60 53
47 59 52
47 60 53
47 61 54
47 60 53
47 59 52
47 60 53
47 61 54
47 60 53
46 59 52
46 60 53
46 58 51
46 59 52
45 59 52
45 58 52
44 58 52
44 57 51
43 58 51
43 58 52
42 56 50
41 57 50
41 56 50
40 55 49
40 56 50
38 54 49
37 54 48
37 53 47
36 53 47
35 53 48
20 44 41
20 45 41
20 44 41
20 44 41
21 46 42
20 45 41
20 44 40
20 45 41
20 44 40
20 44 41
20 45 41
20 44 41
21 46 42
20 44 41
20 45 42
20 45 42
21 46 42
21 46 42
21 46 43
20 44 40
20 44 41
20 45 41
20 45 41
20 45 42
20 44 41
21 46 42
20 44 41
20 45 42
20 45 41
21 45 42
21 46 42
21 46 43
20 45 41
20 45 41
20 44 40
20 45 41
21 46 42
20 45 41
21 45 41
21 47 43
21 45 42
21 45 41
20 44 40
21 45 41
22 46 42
21 45 41
21 45 42
22 46 42
22 46 42
22 45 41
23 46 42
23 46 42
23 47 43
23 46 42
24 47 43
25 47 43
25 47 43
25 47 43
26 48 44
27 48 43
28 50 45
28 48 43
29 49 44
29 50 45
30 51 46
31 50 45
31 50 45
32 50 45
33 51 46
34 51 46
35 52 47
36 52 47
36 53 47
38 55 49
38 54 48
39 54 48
41 56 50
41 56 50
42 57 51
43 58 51
44 57 51
45 59 52
45 59 52
46 60 53
47 60 53
47 60 53
48 60 53
49 61 54
49 61 54
50 62 55
50 61 54
50 62 55
51 63 55
51 62 54
51 62 55
51 63 55
51 63 55
51 63 55
51 63 55
51 63 55
50 62 55
50 62 55
50 63 55
49 61 54
49 61 54
48 60 53
48 62 55
47 60 53
47 61 54
46 59 53
45 58 52
44 58 51
44 57 51
43 57 51
42 57 50
41 57 51
40 56 50
39 54 48
39 55 49
38 54 49
20 45 41
21 47 43
20 44 40
20 44 41
20 44 40
21 46 42
20 45 41
20 45 41
21 46 42
20 46 42
20 44 41
20 45 41
20 45 41
20 45 41
21 46 42
21 46 42
20 44 41
20 45 41
20 45 42
20 45 41
20 45 41
20 45 41
20 44 40
20 45 41
20 44 41
20 45 41
21 46 42
20 44 41
21 46 42
21 46 42
20 45 41
20 45 41
21 45 42
20 44 40
21 46 42
20 45 41
21 45 41
21 45 42
21 45 41
21 46 42
21 46 42
21 45 41
22 47 43
21 46 42
22 46 42
21 45 42
22 46 42
22 45 42
22 46 42
23 47 43
23 46 42
24 47 43
24 46 42
24 47 43
25 48 44
25 46 41
26 48 44
26 47 42
27 48 43
28 50 46
28 48 44
29 49 45
30 50 45
31 50 45
32 51 46
32 50 45
33 51 46
34 52 47
36 53 48
36 52 46
37 53 48
39 55 49
39 54 49
41 57 51
42 57 51
42 56 50
43 57 51
44 58 51
45 58 51
46 60 53
47 60 53
48 61 53
49 61 54
49 61 54
50 61 54
51 63 55
51 63 55
52 63 56
53 63 55
53 64 56
54 64 57
54 65 57
54 65 57
55 65 57
55 65 57
55 65 57
55 65 57
55 66 58
55 65 57
55 66 58
54 65 57
54 65 57
54 65 57
54 65 57
53 64 56
52 63 56
52 64 57
51 62 54
50 61 54
50 62 54
49 62 54
48 60 53
47 61 54
47 60 54
45 59 52
45 59 52
43 57 51
42 57 50
42 56 50
41 55 49
21 46 42
20 44 41
20 45 41
20 45 41
20 44 40
19 43 40
19 43 39
20 44 41
20 44 41
19 43 40
20 44 41
19 43 39
20 45 42
20 44 41
20 45 41
20 44 41
20 45 41
21 46 42
21 46 42
20 45 41
20 45 42
20 44 40
20 44 41
20 45 41
20 45 42
20 44 41
20 44 41
20 44 40
20 44 40
21 46 42
20 45 41
20 45 41
20 44 41
21 46 42
20 44 40
20 44 41
21 46 42
21 46 42
21 46 42
21 44 41
21 46 42
22 47 43
21 46 42
21 45 41
22 46 43
22 46 42
22 46 42
22 46 42
23 47 43
23 46 42
24 48 43
24 46 42
24 46 42
25 47 42
26 48 44
26 48 44
27 48 44
27 48 43
28 48 44
29 50 45
29 48 44
31 50 45
31 49 45
33 52 47
33 51 46
34 51 46
35 53 47
37 54 48
37 53 48
39 54 48
40 55 49
41 56 50
42 57 50
43 59 52
45 59 52
45 58 52
46 60 53
48 61 54
48 61 54
49 61 54
51 63 55
51 63 56
52 62 55
53 64 56
54 64 56
55 66 57
55 65 57
56 67 58
57 67 59
57 66 58
58 67 59
58 68 59
59 69 61
59 68 60
59 68 60
59 69 61
59 69 60
59 68 59
59 68 60
59 68 59
58 68 59
58 67 59
58 68 60
57 67 58
57 67 59
56 66 58
56 66 58
55 65 57
54 65 57
53 64 56
52 63 56
52 63 55
51 63 55
49 61 54
49 61 54
48 61 54
47 59 52
46 59 52
45 58 51
44 57 51
20 44 40
20 44 41
20 45 42
21 46 42
20 45 42
20 44 41
21 46 43
19 43 40
21 46 42
20 45 41
21 46 42
20 43 40
19 43 40
20 45 42
20 45 41
20 45 41
20 45 41
20 45 41
19 43 40
21 46 42
20 44 41
19 43 40
20 44 41
21 46 42
20 45 41
20 45 41
21 46 42
21 46 42
21 46 43
20 44 41
20 45 41
21 45 42
20 44 41
21 45 42
20 44 41
21 45 41
21 45 41
21 44 41
21 45 42
21 45 41
22 47 43
21 46 42
22 45 42
22 46 42
21 44 41
22 45 42
23 46 42
23 46 42
23 46 42
23 45 41
24 47 43
25 47 43
25 47 43
26 47 43
27 48 44
27 48 44
28 49 45
29 50 46
30 50 45
31 50 45
31 50 45
33 51 46
34 52 46
35 52 47
36 55 49
37 53 48
38 54 49
39 55 49
40 55 49
41 55 49
43 58 51
44 57 51
45 59 52
46 58 52
47 60 53
48 61 54
50 62 55
51 62 55
52 64 56
53 64 57
54 64 57
55 66 58
56 66 58
57 66 58
58 68 60
58 67 59
59 68 60
60 69 60
61 70 61
62 71 62
62 70 61
62 71 62
63 70 61
63 72 62
63 71 62
63 72 63
63 72 62
63 71 62
63 71 62
63 71 62
63 71 62
62 70 61
62 70 61
62 70 61
61 71 62
60 69 61
60 69 60
59 67 59
58 68 60
57 67 59
56 66 58
55 66 58
54 65 57
54 65 57
52 63 56
51 63 56
50 63 56
49 61 54
48 61 54
47 59 53
20 45 41
20 45 41
20 45 41
20 44 41
19 43 39
20 44 41
19 43 40
20 45 41
20 45 41
20 45 41
20 46 42
20 45 41
20 45 42
20 46 42
20 45 41
20 45 41
21 45 42
20 44 41
19 43 40
21 46 42
20 45 42
19 43 39
20 44 40
20 44 41
20 45 41
20 43 40
20 45 42
21 46 42
20 45 41
20 45 41
20 44 40
20 45 41
21 46 42
20 44 41
20 45 41
21 45 41
20 44 41
21 46 42
21 46 42
21 45 42
22 46 42
22 46 42
22 45 41
22 46 42
23 46 42
23 46 42
23 46 42
24 46 42
24 45 41
25 48 44
25 47 43
26 47 43
26 47 43
27 48 44
28 50 45
28 48 44
30 50 45
30 50 45
31 51 46
32 50 46
33 51 46
34 52 47
35 53 47
37 53 48
38 53 48
39 55 49
40 54 49
41 56 49
43 57 51
44 57 50
45 59 52
46 60 53
48 60 53
49 61 54
50 61 54
52 64 56
53 64 56
54 64 56
55 65 57
57 67 59
58 68 60
59 69 60
60 68 60
61 69 60
62 71 62
63 71 62
64 72 63
64 72 63
65 73 63
66 73 64
66 73 63
67 75 65
67 74 65
67 74 64
68 75 66
68 76 66
68 75 65
68 75 65
67 75 65
67 75 65
67 75 65
67 74 65
66 74 65
66 73 64
65 73 64
64 72 63
64 72 62
63 72 63
62 72 63
61 70 61
61 70 61
59 68 60
58 67 59
57 67 58
56 67 59
55 64 56
54 65 57
52 64 56
51 62 54
50 62 55
20 44 41
20 44 41
20 45 42
20 44 40
20 45 41
20 45 41
20 45 42
20 44 40
20 45 41
20 44 40
20 45 41
20 46 42
20 45 42
20 44 41
20 44 41
20 44 41
20 45 41
20 44 40
20 45 41
20 45 41
20 44 40
20 44 41
20 44 40
20 44 40
20 45 41
20 44 40
20 45 41
20 45 41
21 45 41
20 45 41
20 44 41
21 45 42
20 45 41
20 44 40
21 45 41
21 46 42
21 44 41
21 46 42
21 46 42
21 45 41
22 45 41
21 44 41
22 46 42
23 46 42
23 47 43
23 46 42
24 47 43
24 47 43
24 46 42
25 47 43
26 49 44
26 47 42
27 48 44
29 50 45
29 49 44
30 49 45
31 50 45
32 50 46
33 51 46
34 52 47
35 51 45
37 54 48
37 53 47
38 54 48
40 56 50
41 56 49
43 57 51
44 58 51
45 58 52
47 59 52
48 60 53
50 62 55
51 62 55
52 64 56
54 64 57
55 66 58
56 65 57
58 68 59
59 68 59
60 69 60
62 70 61
63 72 63
64 71 62
65 73 63
66 74 64
67 74 64
68 74 64
69 75 66
69 76 66
70 77 67
71 77 67
71 77 67
71 78 67
72 78 68
72 79 69
72 79 68
72 78 67
72 78 67
72 78 67
72 78 68
72 78 68
71 78 68
71 78 67
70 77 66
70 77 67
69 75 65
68 75 65
67 75 65
66 73 63
65 73 64
64 72 63
63 70 61
62 71 62
61 70 61
60 70 61
59 68 59
57 66 58
56 67 59
55 65 57
53 64 56
20 45 41
20 45 41
20 45 41
20 44 41
20 44 41
20 45 41
20 44 41
20 44 41
20 44 40
20 45 41
20 44 41
20 45 41
20 44 41
21 46 42
20 45 41
20 45 41
20 45 41
20 45 41
20 44 41
20 44 40
20 44 41
19 43 39
20 45 41
20 45 41
20 43 40
20 45 41
21 46 42
20 45 42
20 45 41
20 44 40
20 45 41
20 44 41
21 46 42
21 45 41
21 45 41
21 46 42
21 45 41
21 45 41
21 44 41
22 45 42
22 46 42
22 46 42
22 45 41
23 46 42
23 45 41
24 47 43
24 47 43
25 47 43
26 48 44
26 46 42
27 48 43
28 48 43
29 49 45
29 49 45
30 50 45
31 51 46
32 51 46
33 50 45
34 51 46
36 53 47
37 55 49
39 56 50
39 54 49
41 55 49
42 57 50
43 57 50
45 58 52
47 59 52
48 61 54
50 62 55
51 62 55
53 63 56
54 65 57
56 66 58
57 67 59
59 68 60
60 69 60
61 69 61
63 70 61
64 72 63
65 72 63
67 74 65
68 75 65
69 77 67
70 76 66
71 76 66
72 78 68
73 79 69
74 79 69
74 80 69
75 80 69
76 81 70
76 81 70
76 81 70
76 81 70
77 82 71
77 82 70
77 82 71
77 81 70
76 81 70
76 82 71
76 82 71
75 81 70
75 80 70
74 80 69
73 79 68
73 79 69
72 78 67
71 77 67
70 76 66
69 76 66
67 74 64
67 74 65
65 73 64
64 72 63
62 71 62
61 70 61
59 68 59
58 68 60
57 67 58
20 45 41
20 44 41
20 45 41
20 45 42
20 45 41
19 43 40
19 43 40
20 44 41
20 44 40
19 43 40
20 44 40
20 45 41
20 44 40
20 44 40
20 45 41
20 45 41
20 44 40
20 45 42
20 43 40
21 46 43
20 45 41
20 44 41
20 44 40
20 45 41
20 44 41
20 44 41
20 45 42
20 44 41
20 45 41
21 45 41
21 45 42
21 45 41
20 44 40
21 45 42
21 45 41
21 45 41
21 45 41
22 45 42
22 45 41
22 45 41
22 45 41
22 45 41
23 46 42
24 46 42
24 47 43
24 47 43
25 46 42
26 47 43
26 47 43
27 48 44
28 49 45
29 49 45
30 49 44
30 49 44
32 51 46
32 50 45
34 51 46
35 52 47
36 53 47
38 54 48
39 55 49
41 56 50
42 57 51
43 57 51
45 59 53
46 60 53
48 61 54
49 61 54
51 63 56
53 64 56
54 65 57
56 66 58
57 66 58
59 67 59
61 70 61
62 71 61
64 72 63
65 72 63
67 74 64
68 74 64
70 76 66
71 77 67
72 79 68
73 79 68
74 80 70
76 81 70
77 83 71
77 83 71
78 83 72
79 83 72
80 84 72
80 84 72
81 85 74
81 85 73
81 85 73
82 86 74
81 86 74
81 85 73
82 86 74
81 85 73
81 86 74
80 85 73
80 85 73
80 85 73
79 84 73
78 83 72
77 82 71
76 82 71
75 81 70
74 79 68
73 78 68
72 78 67
71 77 67
69 75 65
68 75 65
66 74 64
65 72 63
63 71 62
62 70 62
61 70 61
20 44 41
20 44 41
20 44 41
20 45 41
20 45 41
20 44 41
20 45 41
19 43 40
20 44 40
20 44 40
20 45 42
20 45 41
21 46 42
20 44 41
21 46 42
20 44 41
20 44 41
20 45 41
20 45 41
20 45 41
21 46 42
20 44 40
20 45 41
20 45 41
20 45 41
20 45 41
20 45 41
20 45 41
21 45 42
21 45 41
21 46 42
20 44 41
21 45 42
21 45 41
21 45 41
21 45 41
22 46 42
22 46 42
22 45 41
23 46 42
23 46 42
23 45 41
23 45 42
24 46 42
24 46 42
25 47 43
26 47 43
26 47 43
27 48 44
28 47 43
29 48 43
30 49 44
31 51 46
32 51 46
33 51 46
34 52 47
36 53 47
37 52 47
38 54 48
39 54 48
41 56 50
42 55 49
44 58 51
46 59 53
48 61 54
49 61 54
51 63 56
52 63 55
54 65 57
56 66 58
58 67 59
59 68 59
61 70 61
63 71 62
64 72 63
66 73 64
68 75 65
69 76 66
70 77 66
72 79 68
73 79 68
75 80 69
76 81 70
77 82 71
79 83 72
80 84 72
81 85 73
82 86 74
83 87 75
84 87 75
84 88 76
85 88 76
85 88 76
86 89 77
86 89 77
86 90 77
86 90 77
86 90 77
86 89 77
86 89 76
86 89 77
85 89 76
85 88 76
84 88 76
83 87 75
83 87 75
82 85 73
81 86 74
80 85 73
78 83 72
77 82 71
76 81 70
75 80 69
73 79 68
72 78 68
70 77 67
69 75 65
67 74 64
66 73 63
64 72 63
20 46 42
20 44 40
20 46 42
20 44 40
20 44 41
20 45 41
20 44 40
20 44 40
20 45 41
20 44 41
20 44 41
20 44 41
20 44 40
20 44 40
20 45 42
19 43 40
20 44 40
20 45 42
19 43 40
20 45 41
20 45 41
20 44 40
20 45 41
20 45 41
20 45 41
20 45 41
20 45 41
21 45 41
21 46 42
20 44 40
21 45 41
21 45 42
21 45 41
21 46 42
21 45 41
21 45 41
22 46 42
22 45 41
22 45 42
23 46 42
23 45 41
24 47 43
24 46 42
24 46 42
26 47 43
26 48 44
27 48 43
28 49 45
28 48 43
30 50 46
30 49 45
31 50 45
32 51 46
33 51 46
35 51 46
36 52 46
37 53 48
39 54 48
40 55 49
42 56 50
43 56 49
45 58 51
47 60 53
48 61 54
50 62 55
52 63 55
54 64 56
55 65 57
57 67 59
59 68 60
61 69 60
62 70 61
64 72 63
66 74 64
68 74 65
70 77 67
71 77 67
73 79 69
74 79 69
76 82 70
78 83 71
79 83 72
80 84 73
82 86 74
83 86 74
84 88 76
86 89 76
87 90 77
87 90 78
88 91 78
89 91 78
89 92 79
90 92 79
91 93 80
91 93 80
91 93 80
91 93 80
91 94 80
91 93 80
91 93 80
90 93 80
90 93 80
89 92 79
89 92 79
88 91 78
87 91 78
86 90 77
85 89 77
84 88 75
83 86 74
82 86 74
81 85 73
79 84 72
78 83 72
76 81 70
75 81 70
73 79 68
71 77 67
70 76 66
68 75 65
20 44 40
20 44 40
20 45 41
19 43 40
20 45 41
20 44 41
20 44 40
20 44 40
20 45 41
20 45 41
20 44 41
20 45 42
20 44 41
20 43 40
20 45 41
20 45 41
20 44 41
19 43 40
20 45 41
20 44 40
20 44 41
20 45 41
20 45 41
20 44 41
20 45 41
20 45 42
20 44 41
21 45 41
21 46 42
20 44 40
20 44 41
21 45 41
21 45 41
21 44 41
22 46 42
22 45 42
22 45 41
22 45 42
23 46 42
23 46 42
24 46 42
24 47 43
25 46 42
26 48 43
26 47 43
27 48 44
27 48 43
29 49 44
30 49 45
31 50 46
32 50 45
33 51 46
33 50 45
35 52 46
36 53 47
38 53 47
39 55 50
41 56 50
43 58 51
44 57 51
46 60 53
48 61 54
49 61 54
51 62 55
53 63 56
55 65 57
56 66 58
58 67 59
60 68 60
62 70 61
64 72 63
66 74 64
68 75 65
70 76 66
72 78 67
73 79 68
75 80 69
77 82 71
79 83 72
80 85 73
82 86 74
83 87 75
85 88 76
86 89 77
88 91 78
89 91 78
90 93 80
91 94 80
92 94 81
93 95 82
94 96 83
94 97 83
95 97 83
95 96 82
96 97 84
96 97 83
96 98 84
96 97 83
96 97 83
95 97 83
95 97 83
95 97 83
94 96 82
94 96 82
93 95 82
92 94 81
91 94 81
90 93 79
89 92 79
87 90 77
86 89 77
85 89 76
83 87 75
82 86 74
80 85 73
79 83 72
77 83 71
75 81 70
74 80 69
72 77 67
21 46 43
20 44 41
20 46 42
20 44 41
20 44 41
20 44 40
20 45 41
20 44 40
20 45 41
20 45 42
20 44 41
20 43 40
20 45 41
20 45 41
19 43 40
20 44 41
20 44 41
20 44 40
20 45 41
20 44 41
20 44 41
20 45 41
20 44 40
20 44 40
21 46 42
20 44 41
20 44 40
21 46 42
21 44 41
21 44 40
21 44 41
21 44 41
21 45 41
22 45 42
22 45 41
22 45 41
22 45 41
22 45 41
23 46 42
24 46 42
24 47 43
25 48 43
25 47 43
26 47 43
27 48 44
28 48 43
28 47 43
29 48 43
30 49 44
32 50 45
33 51 46
34 53 47
36 53 48
37 53 48
38 53 48
40 55 49
41 56 50
43 56 50
44 57 51
46 59 52
48 60 53
50 62 55
52 62 55
53 64 56
55 66 58
57 67 59
59 69 60
61 69 60
63 72 62
65 73 63
67 75 65
69 76 66
71 78 67
73 79 68
75 81 70
77 82 71
79 84 73
81 85 73
83 86 75
84 88 75
86 89 77
88 90 77
89 92 79
91 93 80
92 94 81
93 95 81
95 96 83
96 97 83
97 98 84
98 99 84
99 100 85
99 100 85
99 100 85
100 101 86
100 101 87
101 102 87
101 102 87
101 101 87
101 101 87
101 102 87
100 101 87
100 101 86
99 100 86
98 99 85
98 98 84
96 98 84
96 97 83
95 97 83
93 95 82
92 94 81
91 93 80
89 92 79
88 91 79
86 90 77
85 89 76
83 87 75
81 85 74
79 84 72
77 82 71
75 80 69
20 44 41
19 43 40
20 44 40
20 44 40
20 44 41
19 42 39
20 44 40
20 44 41
20 45 42
19 43 39
20 45 41
20 45 41
20 44 40
20 45 41
20 44 41
20 43 40
21 46 42
20 44 40
21 46 42
21 45 42
20 45 41
20 44 40
20 44 40
20 45 41
20 44 40
20 43 40
20 44 41
21 45 42
21 45 41
21 46 42
21 44 41
22 46 42
21 43 40
22 45 41
22 46 42
22 44 40
23 47 43
23 46 42
24 47 43
24 45 41
25 47 43
26 48 44
26 47 43
26 46 42
27 47 43
28 47 43
29 48 44
31 50 45
31 49 44
33 50 45
34 52 46
35 51 46
37 53 47
39 55 49
40 55 49
41 56 50
43 57 50
45 58 51
47 59 52
48 61 54
50 61 54
52 63 55
54 64 56
56 66 58
58 67 59
60 69 60
62 70 61
65 73 64
66 73 64
69 75 65
71 77 66
73 79 68
75 81 70
77 81 70
79 83 72
81 85 73
83 86 74
85 88 76
87 89 77
88 91 79
90 93 80
92 94 81
94 95 82
95 97 83
97 98 84
98 99 85
99 100 85
100 101 86
101 102 87
102 103 88
103 104 89
104 104 89
104 105 90
105 105 89
105 105 90
105 105 90
106 106 91
106 106 90
105 105 90
105 105 90
105 105 89
104 105 90
104 104 89
103 103 88
102 103 88
101 102 87
100 101 87
99 100 86
98 99 85
97 98 84
95 98 84
94 95 82
92 94 81
90 93 79
89 91 78
87 90 78
85 89 76
83 87 75
82 86 74
80 84 73
20 44 41
20 44 40
20 44 41
20 44 40
20 44 40
20 44 41
20 45 41
20 45 41
20 44 41
19 43 40
20 45 41
20 45 41
20 45 42
20 45 41
20 44 40
19 43 39
19 43 40
20 45 41
20 44 41
20 43 40
20 45 41
21 45 42
20 44 41
20 44 41
21 45 41
20 44 41
21 45 42
21 46 42
21 45 41
21 46 42
21 45 42
21 45 41
22 45 42
22 45 41
22 45 41
22 44 41
23 46 42
23 45 41
24 47 43
25 47 43
25 46 42
26 47 43
27 48 43
28 48 43
28 48 44
29 49 44
31 51 46
32 51 46
33 51 46
34 52 47
36 53 47
37 53 48
39 55 49
40 55 49
42 56 50
43 57 51
45 58 51
47 60 53
49 61 54
51 63 55
52 63 55
54 64 56
57 67 58
59 68 59
61 69 60
63 71 62
65 73 64
68 76 66
70 76 66
72 78 67
74 80 69
76 81 70
78 83 72
81 85 74
83 86 74
85 88 75
87 90 77
89 92 79
91 93 79
93 95 81
95 97 83
96 97 83
98 99 85
99 100 86
101 102 87
102 103 88
104 104 89
105 105 89
106 105 90
107 107 91
108 107 91
109 108 92
109 109 93
110 110 94
110 109 93
110 110 93
111 110 94
110 110 94
110 110 94
110 109 93
110 109 93
109 109 93
108 108 92
108 107 92
107 107 91
106 106 91
105 105 90
104 104 89
103 104 89
101 101 86
100 100 86
98 100 85
96 98 84
95 96 82
93 95 82
91 93 80
89 92 79
87 90 78
85 88 76
83 87 75
20 44 41
20 44 40
20 44 40
19 43 40
20 44 40
19 43 39
21 46 43
20 44 41
19 43 40
20 45 41
21 46 43
21 46 42
20 45 41
20 45 41
20 44 40
20 45 41
20 44 40
20 44 40
20 44 40
20 44 40
20 45 41
20 45 41
20 44 41
20 44 40
20 44 41
20 44 40
21 45 41
21 44 41
21 45 41
21 45 41
22 45 42
22 46 43
23 47 43
21 43 40
23 46 42
23 46 42
23 46 42
25 48 44
25 46 42
25 46 42
26 48 44
27 48 44
28 48 44
29 48 44
30 50 45
31 50 45
31 49 44
33 50 45
34 52 46
36 52 47
37 53 48
38 54 48
40 55 49
42 56 50
44 58 52
45 58 51
47 59 52
49 60 53
51 63 55
53 64 57
55 65 57
57 67 59
59 68 60
62 70 62
64 71 62
66 73 64
68 74 65
70 76 66
73 79 68
75 80 69
78 82 71
79 83 72
82 86 74
84 87 75
86 90 77
89 92 79
91 93 80
93 95 81
95 96 82
97 99 85
99 100 85
100 101 86
102 103 88
104 104 89
105 105 90
107 107 91
108 108 93
109 109 93
111 109 93
112 111 94
113 112 96
113 112 96
114 112 96
114 113 96
115 113 96
115 113 97
115 114 97
115 114 97
115 114 97
115 113 97
114 112 96
114 113 96
113 112 95
113 112 95
112 110 94
111 110 93
110 109 93
108 108 92
107 107 91
105 105 90
104 105 90
103 103 88
101 102 87
99 100 86
97 99 84
95 97 83
93 96 82
92 94 81
89 92 79
87 91 78
20 45 42
20 44 41
20 45 41
20 44 41
21 46 42
20 44 40
19 43 40
20 44 41
20 44 40
20 45 41
20 45 41
20 44 40
20 44 41
20 44 41
19 43 39
20 45 41
20 43 40
20 44 41
21 45 42
20 44 41
21 46 42
21 45 42
20 43 39
20 44 41
20 44 41
21 45 42
22 46 43
22 46 42
21 45 41
22 47 43
22 45 42
23 46 43
22 46 42
22 44 40
23 46 42
23 45 41
24 47 43
24 45 41
25 46 42
26 47 43
27 49 44
28 48 43
28 48 43
30 49 45
30 49 44
31 49 44
33 51 46
34 52 47
35 52 47
37 53 48
39 54 49
40 54 48
41 55 49
44 58 51
45 59 52
47 60 53
49 61 54
51 62 54
53 64 56
55 65 57
57 66 58
60 69 60
62 71 62
64 72 62
67 74 64
69 75 65
71 77 66
74 79 69
76 81 70
79 83 72
81 85 73
83 87 75
85 88 76
88 91 78
90 93 80
92 94 80
95 96 82
97 98 83
99 100 86
101 102 87
103 103 88
105 105 89
106 107 91
108 107 92
110 109 93
111 110 94
113 112 95
114 113 96
115 114 97
116 114 98
117 115 98
118 116 99
118 117 100
119 117 100
119 117 100
120 118 100
120 118 100
120 118 100
120 118 100
119 117 100
119 117 100
118 117 99
118 116 99
117 115 98
116 115 98
115 114 97
114 113 96
113 112 95
111 110 94
110 109 93
108 107 92
107 107 91
105 106 90
103 104 89
101 102 87
100 101 86
98 99 85
95 97 83
94 96 82
91 92 79
20 45 41
21 46 42
20 45 42
20 44 40
19 43 40
20 44 40
20 45 42
20 44 40
20 44 40
20 43 40
20 44 41
20 44 41
19 43 40
20 44 41
20 45 41
20 44 40
20 44 41
20 45 41
20 43 40
19 43 40
20 44 41
21 45 42
20 44 40
21 45 41
21 45 42
20 44 40
21 45 41
21 45 41
21 43 40
22 46 42
22 46 42
22 46 42
22 45 41
23 45 41
23 45 41
24 46 42
24 46 42
25 46 42
26 48 44
27 48 43
28 48 44
28 48 44
30 50 45
31 50 45
31 48 44
33 50 45
34 52 47
36 53 47
37 52 47
38 54 48
40 54 49
42 55 49
43 57 51
45 58 51
47 58 51
49 62 54
51 62 54
53 63 56
56 67 59
58 67 58
60 69 60
62 70 61
64 71 62
67 74 64
70 76 66
72 78 68
74 80 69
77 81 70
79 84 73
82 85 73
84 88 75
87 90 78
89 92 79
92 94 80
94 96 82
96 97 83
98 100 85
101 102 87
103 103 88
105 105 89
107 107 92
109 108 92
111 110 94
113 111 95
114 113 96
116 114 97
117 115 98
118 117 99
120 117 100
120 118 101
122 119 102
123 120 102
123 121 103
124 121 103
124 121 103
124 122 103
125 123 105
124 122 104
124 121 103
124 121 103
124 121 103
123 121 103
122 120 102
122 120 102
121 119 101
120 117 100
119 117 100
118 116 99
116 114 97
115 113 97
113 112 95
111 110 94
110 109 93
108 107 91
106 107 91
104 104 89
102 102 87
100 101 86
98 99 85
95 97 83
19 41 38
19 43 40
20 44 41
20 44 41
20 44 40
20 45 41
20 44 41
20 45 41
20 45 42
20 45 42
20 44 41
21 46 42
20 45 41
19 42 39
20 44 40
20 45 41
20 44 40
20 44 40
20 43 40
20 43 40
21 45 41
20 43 40
21 47 43
21 45 41
20 44 41
21 46 42
21 45 42
21 45 41
21 44 41
21 44 40
22 45 41
22 45 41
22 44 41
24 47 43
23 45 41
24 45 41
25 47 43
26 46 42
27 48 44
27 47 43
28 47 43
29 49 45
30 50 45
31 49 44
33 51 46
34 51 46
35 51 46
37 53 47
39 55 49
40 55 49
42 56 50
43 57 51
45 57 51
47 59 53
49 61 53
51 62 55
53 64 56
56 65 57
58 67 58
60 69 60
62 70 61
65 73 63
67 74 64
70 76 66
72 78 67
75 80 69
77 82 70
80 84 73
83 87 75
85 88 76
88 91 79
90 92 79
93 95 82
95 97 83
97 99 84
100 101 86
102 102 87
104 104 88
107 106 91
109 108 93
111 110 93
113 112 95
115 114 97
116 115 98
118 117 100
120 118 101
121 118 101
123 120 102
124 121 103
125 122 104
126 123 105
127 124 105
128 125 106
128 125 107
129 125 106
129 126 107
129 126 107
129 125 107
129 126 107
129 126 107
128 125 106
128 125 106
127 124 105
126 123 105
125 123 104
124 122 103
123 121 103
122 119 102
120 119 101
119 117 100
117 116 98
115 114 97
114 113 96
112 111 94
110 109 93
108 107 92
106 105 90
103 104 89
101 102 87
99 99 85
20 45 41
20 44 40
20 45 42
20 44 41
20 44 41
19 43 40
20 44 41
20 44 41
20 44 41
20 44 40
20 43 40
20 45 41
20 44 40
20 44 41
20 45 41
20 45 41
20 45 41
21 45 42
20 44 41
20 43 40
20 44 40
20 44 41
20 44 41
21 45 42
21 45 41
21 44 40
22 46 42
21 45 41
22 46 42
22 45 41
22 44 41
23 45 42
23 46 42
24 47 43
25 47 43
25 46 42
25 46 42
27 48 44
28 49 44
28 47 43
29 48 44
30 48 44
31 50 45
32 50 45
34 51 46
35 52 46
37 53 47
38 54 48
40 55 50
41 56 50
43 56 50
45 58 51
47 60 54
49 61 54
51 63 55
53 64 56
56 65 57
58 67 59
60 68 60
62 70 61
65 72 62
67 74 64
70 77 67
73 78 68
75 80 70
78 83 72
80 83 72
83 87 75
86 89 77
88 91 79
91 93 80
94 96 82
96 97 84
98 99 85
101 101 87
104 104 89
106 106 90
108 108 92
111 110 94
113 112 95
115 113 97
117 115 98
119 118 100
121 119 101
122 120 102
124 121 103
126 123 105
127 124 106
128 125 106
129 126 107
130 127 108
131 128 108
132 128 109
133 130 110
133 129 110
133 130 110
134 130 110
134 130 111
134 130 110
133 129 110
133 129 110
132 128 109
131 128 108
131 127 108
130 126 107
129 126 107
127 124 105
126 123 104
125 122 103
123 121 103
122 119 102
120 118 101
118 116 99
116 114 97
114 113 96
112 111 94
110 109 93
107 107 92
105 105 90
103 103 88
