P3
120 80
255
18 40 38
18 40 38
17 39 36
17 39 37
18 40 38
17 40 37
18 41 39
17 39 37
18 40 37
18 40 38
18 41 38
17 39 37
17 40 37
17 39 37
17 39 37
18 40 38
17 39 37
18 40 38
18 40 38
18 40 38
18 40 37
17 40 37
18 40 37
18 40 37
17 39 37
18 40 38
18 40 37
17 40 37
18 40 38
18 40 38
17 39 36
18 41 38
17 40 37
17 39 37
18 41 38
18 40 38
17 40 37
18 41 39
18 40 38
18 41 38
17 40 38
18 40 37
18 41 38
17 39 37
17 40 37
18 40 38
18 40 37
17 39 37
18 40 38
17 39 36
18 40 37
18 41 38
18 41 39
18 41 39
18 40 38
18 40 38
17 39 36
18 40 38
18 40 38
18 40 38
17 40 37
18 40 37
18 40 38
17 39 37
18 40 38
17 39 37
18 40 38
18 41 38
18 40 38
18 40 37
18 40 37
18 41 38
17 40 37
18 41 38
18 40 37
18 40 38
18 41 38
17 40 37
17 39 37
18 40 37
18 41 38
17 40 37
18 41 39
18 40 37
18 41 38
18 41 38
18 40 38
18 40 37
18 40 38
18 41 38
18 40 38
18 41 38
18 40 38
18 40 38
18 40 38
17 40 37
18 40 37
18 41 38
17 40 37
18 41 39
18 41 38
17 39 37
18 41 39
18 40 38
18 41 38
17 40 37
18 40 38
18 41 39
18 40 38
18 41 38
18 41 38
18 40 38
18 40 38
18 41 38
17 39 37
17 40 37
18 41 38
18 40 38
17 40 37
18 40 38
18 40 38
18 41 38
18 40 38
18 40 38
17 40 37
17 40 37
18 40 38
18 40 37
18 40 37
18 40 38
18 40 37
18 40 38
18 41 38
17 39 37
17 40 37
18 40 38
18 40 38
17 39 37
17 39 37
18 40 37
17 39 37
18 41 38
18 40 38
18 40 37
18 41 38
18 40 38
18 40 38
17 39 37
18 40 38
18 41 38
17 39 37
17 40 37
18 41 38
18 41 38
18 40 38
17 39 37
18 41 38
18 41 39
18 41 38
18 41 38
17 39 36
17 39 37
18 40 38
18 41 38
18 40 38
18 40 38
18 40 38
18 40 37
17 39 37
18 40 38
17 40 37
18 40 37
18 40 37
18 41 39
18 40 38
18 41 38
17 40 37
18 40 38
18 40 38
18 41 38
18 41 39
18 40 38
17 40 37
18 41 38
18 40 37
18 41 38
17 39 37
18 41 38
18 40 37
19 42 39
18 40 38
18 40 38
18 40 37
18 40 37
18 40 38
18 40 38
18 41 38
18 40 38
18 40 38
18 40 38
18 41 38
18 41 38
18 41 38
18 40 38
18 40 37
17 40 37
18 41 38
18 40 38
18 40 38
18 41 38
18 40 38
18 42 39
18 40 38
18 41 38
17 40 37
18 41 38
18 41 38
18 40 38
17 40 37
18 40 37
18 40 38
18 40 38
17 40 37
18 41 38
18 41 38
18 40 37
18 40 38
18 41 38
18 40 37
18 41 38
18 40 37
18 40 37
18 41 38
18 41 38
18 40 37
18 41 38
18 40 37
18 40 38
18 40 37
18 40 38
17 39 37
18 41 38
18 41 38
18 40 38
18 40 38
17 39 37
17 39 37
17 40 37
18 40 38
17 40 37
18 40 38
17 40 37
17 40 37
18 41 39
18 42 39
18 41 38
18 40 37
18 41 39
18 40 38
17 39 37
17 39 37
18 40 38
17 39 37
18 40 38
18 41 38
17 39 37
18 40 38
18 40 38
18 40 38
18 40 38
18 40 38
18 40 38
18 41 39
18 41 38
18 40 37
18 41 38
18 40 37
17 39 37
18 40 38
18 41 38
18 41 38
18 40 37
18 40 38
17 40 37
18 42 39
18 40 37
18 40 38
18 41 38
18 40 38
17 40 37
18 41 38
18 41 38
18 40 38
18 40 38
17 39 37
18 40 38
18 41 38
17 40 37
18 41 38
18 40 38
18 40 37
18 41 39
18 40 37
18 40 38
18 40 38
18 40 38
17 40 37
18 40 38
18 40 37
18 40 38
18 41 38
18 40 37
18 41 38
18 40 37
18 40 38
18 40 37
18 41 38
18 40 37
18 41 38
18 41 38
18 41 38
17 40 37
17 39 37
18 41 38
18 41 39
18 40 37
18 41 38
18 40 38
17 40 37
18 40 37
18 41 38
18 40 37
18 40 37
18 41 39
18 40 38
18 40 38
18 40 38
18 40 37
17 40 37
18 41 38
17 39 37
18 41 38
18 40 37
18 41 39
17 40 37
18 40 38
18 41 38
18 40 38
18 41 39
17 39 37
17 39 37
18 41 38
18 40 38
18 41 38
18 40 38
18 40 38
18 41 38
18 40 38
18 41 38
18 40 38
18 41 39
17 39 37
17 39 36
18 41 38
18 40 38
18 41 38
18 41 38
18 41 38
18 41 38
17 40 37
18 40 38
18 41 39
18 40 38
18 40 38
18 41 38
18 41 39
17 39 37
17 40 37
18 40 38
18 40 38
18 40 38
18 41 38
18 40 38
18 40 37
17 40 37
18 41 39
18 40 37
18 41 38
18 40 38
18 40 38
18 41 38
18 41 38
18 40 38
18 40 37
18 41 38
18 41 38
18 40 37
18 40 38
18 40 38
18 41 38
18 40 38
18 42 39
18 41 38
18 41 38
18 41 38
18 41 38
18 41 39
18 41 38
18 40 38
18 41 38
18 40 38
18 40 38
18 40 38
18 40 38
18 41 39
18 41 38
18 40 37
18 40 38
18 41 38
18 41 38
18 42 39
18 41 38
18 41 38
18 41 38
18 41 39
18 41 38
18 41 38
19 42 40
18 40 38
18 40 38
18 42 39
18 40 37
18 41 38
18 40 37
17 39 37
17 39 37
18 41 38
18 41 38
18 40 38
18 40 37
18 40 38
18 41 39
18 40 38
18 40 38
18 41 38
18 41 38
18 41 39
18 41 38
18 41 38
18 41 38
18 41 38
18 40 37
18 40 38
18 41 38
17 40 37
18 41 39
18 41 39
18 40 38
18 40 38
17 39 37
18 40 38
18 40 37
17 40 37
18 40 38
18 41 38
18 41 38
18 41 39
18 42 39
18 41 39
18 40 37
18 40 38
18 41 38
18 41 38
18 41 38
18 41 38
18 40 37
18 41 38
18 40 38
18 41 39
18 41 38
18 41 38
18 41 38
18 42 39
18 40 38
18 40 37
18 40 38
18 40 38
18 41 38
17 39 36
18 40 37
18 41 38
18 40 38
18 40 38
19 42 39
18 41 38
18 41 38
18 40 38
18 40 37
18 40 37
18 40 38
18 42 39
18 40 37
18 41 38
18 41 38
18 41 38
18 40 37
18 41 38
17 40 37
18 41 38
18 40 38
18 41 39
17 40 37
17 40 37
18 40 38
18 42 39
18 41 38
18 40 38
18 41 39
18 41 39
18 40 38
18 41 38
18 41 38
18 40 38
18 42 39
18 41 38
18 40 37
18 41 38
18 40 38
18 40 38
18 41 38
18 40 38
18 41 39
18 41 39
18 40 37
18 40 38
18 41 39
18 41 38
18 41 38
18 41 39
18 40 38
18 41 38
18 40 38
18 40 38
18 40 38
18 41 39
18 41 39
18 41 38
18 41 38
18 41 38
18 41 38
18 40 38
18 40 38
18 40 37
18 42 39
18 41 38
18 41 38
18 41 39
18 41 38
18 41 38
18 41 38
18 41 38
18 40 38
18 41 39
18 41 38
18 41 38
18 41 38
18 40 37
18 41 38
18 40 38
18 40 37
18 40 37
18 40 38
19 42 39
18 40 37
18 41 38
18 41 39
18 41 38
18 40 38
18 42 39
18 41 38
18 40 38
18 40 37
18 41 38
18 40 38
18 41 38
18 41 38
18 41 38
18 40 37
18 41 39
18 41 39
18 40 38
18 41 38
17 40 37
18 40 38
18 41 38
18 40 38
18 41 38
17 39 37
17 39 37
18 41 38
18 40 37
18 40 37
18 40 37
18 41 38
18 40 38
18 41 38
18 41 38
18 41 38
18 41 38
18 41 38
18 41 38
18 40 38
18 41 38
18 41 38
18 40 38
18 40 38
18 41 38
18 41 38
18 40 37
18 40 37
18 41 38
18 41 38
18 41 38
18 40 38
18 41 38
18 40 37
18 41 38
18 41 38
18 40 38
18 41 39
18 41 38
18 41 38
18 40 37
18 41 38
18 40 38
18 41 39
18 40 38
18 40 38
18 41 38
18 41 39
18 41 38
18 40 38
18 41 38
18 42 39
18 41 38
18 41 39
18 41 38
19 42 39
18 40 38
18 40 37
18 41 39
18 40 38
18 41 38
18 40 38
18 41 38
18 42 39
19 42 40
18 40 37
18 42 39
18 41 38
18 42 39
18 41 38
18 41 38
18 40 37
18 41 38
18 41 39
18 42 39
18 41 38
18 41 38
18 42 39
18 41 38
18 41 39
18 41 39
18 41 38
18 41 38
18 41 38
18 41 38
18 41 38
18 40 37
18 41 38
18 41 38
18 41 38
18 41 38
18 40 38
18 40 38
18 40 38
18 41 38
18 41 38
18 41 38
18 41 38
19 42 39
18 41 38
18 41 39
18 41 39
18 41 38
18 41 39
18 41 38
18 42 39
18 41 38
18 41 38
18 41 38
18 41 39
17 40 37
18 41 38
18 42 39
18 41 39
18 41 38
18 41 38
18 40 38
17 40 37
18 42 39
18 40 38
18 40 38
18 41 38
18 41 39
18 41 38
18 40 38
18 41 38
18 41 38
18 41 38
18 40 37
18 42 39
18 41 38
18 41 38
18 41 39
18 40 38
18 41 38
18 42 39
17 40 37
18 40 38
19 42 39
18 41 38
18 41 38
18 41 38
18 41 39
18 42 39
18 41 38
18 41 38
17 40 37
18 42 39
19 42 39
18 40 38
18 40 38
18 41 39
18 42 39
18 41 38
18 41 38
18 40 38
18 40 37
18 40 37
18 41 38
18 41 38
18 41 38
18 42 39
18 40 38
18 41 38
18 41 38
18 41 38
18 41 38
18 40 38
18 40 38
18 40 38
18 41 38
18 41 39
18 40 38
18 41 39
18 41 38
18 40 38
18 40 38
18 41 38
18 41 38
18 41 38
18 41 38
18 41 38
19 42 39
18 41 38
18 41 38
18 41 38
18 40 38
18 41 38
18 41 39
18 42 39
18 42 39
18 41 38
19 42 39
18 40 37
18 42 39
18 41 39
18 41 38
18 41 38
19 42 39
18 41 38
18 42 39
18 41 38
18 41 38
18 41 38
18 41 38
18 41 38
18 40 38
18 40 38
18 41 38
18 41 38
18 40 38
19 42 39
18 41 39
18 41 38
18 41 39
18 40 38
18 42 39
18 41 38
18 41 38
18 41 39
18 41 38
18 41 38
18 41 39
18 41 38
18 40 37
18 40 38
18 41 38
18 40 38
18 41 38
18 41 38
18 40 38
18 41 38
18 41 39
18 40 38
18 41 39
18 41 38
18 41 38
18 41 38
18 41 38
19 42 39
18 42 39
18 41 38
19 42 39
19 42 39
18 41 38
18 40 37
19 42 39
18 40 37
18 40 37
18 40 38
18 41 38
18 41 39
18 41 38
18 41 38
18 40 38
18 40 38
18 41 38
18 40 38
18 41 38
18 40 38
17 39 37
18 40 37
18 41 38
18 41 39
18 40 37
18 41 38
18 41 38
18 40 37
18 40 38
19 42 39
18 41 38
18 41 38
18 42 39
19 42 39
18 41 38
18 41 38
19 42 39
18 41 38
18 40 37
18 41 38
18 42 39
18 41 38
18 42 39
18 41 38
18 41 38
18 41 38
18 41 38
18 42 39
18 40 38
18 42 39
18 40 38
18 42 39
18 41 38
18 40 38
19 42 39
18 41 39
18 41 39
18 41 38
19 42 39
18 41 39
18 41 39
18 41 38
18 41 38
18 41 38
18 41 38
18 41 38
18 41 39
18 40 38
19 42 39
18 41 38
18 42 39
18 42 39
18 41 38
18 41 39
19 42 39
19 42 39
19 42 39
18 42 39
18 40 37
18 41 38
18 41 38
18 41 38
18 41 38
18 41 38
19 42 39
18 42 39
18 42 39
18 41 39
18 41 38
18 41 38
18 41 38
18 41 38
18 41 38
18 41 39
18 42 39
18 41 38
18 41 38
18 41 38
18 41 38
19 42 39
18 41 39
18 41 39
18 41 39
19 43 40
19 42 39
18 41 38
19 42 39
18 42 39
18 40 37
18 41 39
18 41 38
18 41 38
18 42 39
19 42 39
19 42 39
18 42 39
18 41 38
18 41 38
18 42 39
18 41 38
18 42 39
18 41 38
18 41 38
18 41 38
18 40 38
19 42 39
18 41 39
18 42 39
18 41 38
19 42 39
18 41 38
18 40 38
18 42 39
18 42 39
18 41 38
18 40 38
18 41 38
18 42 39
18 40 38
18 41 38
18 42 39
18 41 38
18 41 38
18 41 39
18 41 38
18 41 38
18 41 38
18 42 39
18 41 38
18 41 38
19 42 39
18 42 39
18 41 39
18 41 38
18 42 39
18 41 38
19 42 39
18 41 38
18 41 38
19 42 39
18 41 39
18 41 39
18 41 38
19 42 40
18 41 38
19 42 39
18 41 38
18 42 39
19 42 39
18 40 38
18 41 38
19 42 39
18 40 38
19 42 39
18 41 38
18 41 38
19 42 39
18 41 39
19 42 39
19 42 39
18 41 38
18 41 38
18 41 38
18 41 39
18 41 38
18 41 39
19 42 39
19 42 39
18 42 39
19 42 39
18 41 38
18 42 39
18 41 38
18 42 39
18 41 38
19 42 39
19 43 40
18 42 39
19 42 39
18 42 39
18 40 38
19 43 40
19 42 39
18 42 39
18 40 38
19 42 39
18 40 38
18 41 39
18 42 39
18 41 38
19 42 39
18 41 38
18 42 39
18 41 38
18 41 38
19 43 40
18 41 39
19 42 39
19 42 39
18 42 39
19 43 40
18 41 39
18 41 38
19 42 39
18 41 38
18 41 39
19 42 39
19 42 39
18 42 39
18 42 39
18 41 38
18 42 39
18 40 37
18 42 39
18 40 38
19 42 39
18 42 39
19 42 39
19 42 39
18 41 38
19 42 39
18 41 38
19 42 39
19 42 39
18 41 39
19 42 39
18 41 38
19 42 39
18 41 38
19 42 39
18 41 38
18 40 37
18 40 38
18 41 38
18 41 38
18 42 39
18 41 38
18 42 39
18 41 38
18 42 39
18 42 39
18 42 39
18 41 38
18 41 38
18 42 39
19 42 39
18 41 38
19 42 39
18 42 39
18 42 39
18 41 38
18 41 38
19 42 39
18 41 38
18 40 38
18 42 39
18 40 38
18 42 39
19 42 39
18 41 39
18 41 38
18 41 38
18 41 38
18 42 39
18 41 38
19 42 39
18 41 38
18 41 38
18 41 38
18 42 39
19 42 39
18 41 38
18 41 38
18 41 38
19 42 39
18 41 38
18 41 38
18 41 38
18 41 38
19 42 39
19 42 39
18 41 38
19 42 39
18 42 39
19 42 40
18 41 39
18 41 38
18 42 39
19 43 40
18 41 39
18 42 39
18 41 39
18 41 38
19 42 39
19 43 40
18 41 38
19 42 39
18 41 38
18 41 38
19 42 39
18 42 39
18 41 38
19 42 39
18 42 39
19 42 39
19 42 39
19 42 39
18 41 38
19 43 40
19 42 39
18 41 38
19 42 39
18 42 39
18 41 39
18 41 38
19 43 40
18 41 38
19 42 39
18 41 38
18 41 38
18 41 39
18 41 39
19 42 39
19 43 40
19 42 39
19 42 40
19 42 39
19 42 39
18 42 39
19 42 39
19 43 40
19 42 39
18 41 38
19 42 39
18 41 39
18 41 38
18 41 38
18 40 37
18 42 39
19 42 39
18 42 39
18 41 39
18 42 39
18 42 39
19 42 39
19 42 39
19 42 39
18 42 39
18 41 38
18 41 39
18 42 39
19 42 39
18 41 39
18 40 38
18 40 38
18 42 39
18 41 38
19 42 40
19 42 39
18 41 39
18 41 38
18 41 38
18 41 38
18 42 39
18 42 39
18 40 37
19 42 39
18 42 39
18 41 38
18 42 39
19 42 39
18 41 39
18 41 38
18 41 38
18 41 38
18 41 38
18 42 39
19 42 39
19 42 39
19 42 39
18 41 38
18 41 39
18 42 39
19 42 39
19 43 40
18 41 38
18 41 38
18 41 39
19 42 40
18 41 38
18 42 39
18 41 38
19 42 39
18 42 39
18 41 39
18 42 39
19 42 39
19 43 40
18 41 39
18 41 38
18 42 39
19 42 39
19 42 39
19 42 39
18 42 39
19 42 39
19 42 39
19 43 40
18 41 39
18 41 38
18 41 38
18 41 38
18 40 38
19 42 39
19 42 39
18 41 39
19 42 39
19 42 39
19 42 39
18 42 39
19 42 39
19 42 39
18 41 38
19 42 39
19 42 39
18 42 39
19 42 39
19 42 40
18 42 39
19 42 39
19 42 39
19 42 39
19 42 39
19 42 39
19 42 39
19 43 40
19 42 39
19 43 40
18 41 38
18 41 38
19 43 40
19 43 40
18 41 38
19 43 40
19 42 39
18 41 38
18 41 39
18 41 39
19 42 39
19 42 39
19 42 39
19 42 39
19 42 39
19 42 39
18 41 38
19 42 39
18 41 39
19 43 40
19 42 39
19 42 39
18 41 38
18 41 39
18 42 39
19 42 39
19 42 39
18 42 39
18 41 38
18 41 38
18 41 38
18 41 39
19 42 39
19 42 39
18 41 38
18 42 39
18 41 39
19 42 39
18 41 38
18 41 38
18 42 39
18 42 39
18 41 38
18 41 38
18 41 38
19 42 39
18 41 38
19 42 39
19 43 40
18 41 38
18 42 39
18 41 38
19 43 40
19 42 39
19 42 39
19 42 39
19 43 40
18 41 38
19 42 40
19 42 39
18 41 38
19 42 39
19 42 39
18 40 37
19 42 39
19 42 39
19 42 39
19 42 39
19 42 39
18 41 38
18 42 39
19 42 39
18 40 38
19 42 39
19 42 39
19 42 39
19 42 39
18 41 38
18 41 38
18 41 38
19 43 40
19 42 39
18 41 38
19 42 39
18 41 39
18 41 38
18 42 39
19 42 39
18 41 38
19 42 39
19 42 39
19 42 39
19 43 39
19 42 39
19 42 40
19 42 39
18 42 39
19 42 39
19 42 39
19 42 39
18 41 38
19 43 40
18 41 38
19 43 40
18 42 39
19 43 40
18 41 38
18 41 38
19 42 39
19 42 39
19 42 39
19 42 39
19 43 40
19 42 39
19 42 39
19 42 39
19 43 39
19 43 40
19 43 40
19 42 39
18 41 38
19 42 39
19 43 40
18 41 38
19 42 39
19 43 40
18 41 38
19 42 39
18 41 39
19 42 39
19 42 39
19 42 39
19 43 40
19 42 39
18 41 39
19 42 39
19 42 39
19 42 39
19 43 39
19 42 39
19 42 39
18 41 38
19 43 40
19 42 39
19 43 40
19 42 39
19 44 40
19 42 39
18 41 38
19 42 39
18 40 37
19 42 39
19 42 39
18 41 38
18 41 39
18 41 38
18 42 39
18 42 39
18 41 39
18 41 38
18 42 39
18 41 38
18 42 39
19 42 39
18 41 38
18 41 38
18 41 38
18 42 39
19 42 39
18 41 39
19 42 39
19 42 39
18 42 39
19 42 39
18 42 39
19 42 39
19 42 39
19 43 40
19 43 40
19 42 39
19 42 39
19 42 39
19 42 39
18 42 39
18 41 38
19 42 39
19 42 39
19 42 39
18 42 39
19 42 39
18 41 38
18 42 39
19 43 40
19 43 40
19 42 39
18 42 39
19 42 39
18 42 39
18 41 38
19 42 39
19 43 40
19 42 39
18 41 39
18 42 39
18 41 38
18 41 38
19 43 40
18 42 38
19 43 40
19 42 39
19 42 39
19 42 39
19 42 39
19 43 39
18 41 38
19 43 40
18 41 38
19 42 39
19 42 39
18 41 38
19 43 40
18 41 38
19 42 39
19 42 39
18 41 39
19 42 39
19 43 40
19 42 39
19 43 40
19 43 40
19 42 39
19 43 39
19 42 39
19 42 39
18 41 38
19 42 39
19 42 39
18 41 38
19 43 40
19 43 40
18 41 38
19 43 40
19 42 39
19 43 40
19 42 39
19 43 40
18 41 38
19 42 39
19 42 39
19 43 40
19 43 40
19 42 39
19 43 40
19 42 39
18 41 38
19 43 40
19 42 39
19 43 40
19 42 39
18 41 39
19 43 40
19 42 39
19 42 39
19 43 39
19 42 39
19 42 39
19 42 39
19 42 39
18 42 39
19 43 40
18 41 38
18 42 39
18 41 38
18 41 38
19 43 40
18 42 39
18 41 39
19 43 40
18 41 38
19 42 39
18 42 39
19 42 39
19 43 40
18 40 37
18 41 39
18 41 39
19 43 40
19 42 39
18 41 38
19 42 39
18 41 38
19 42 39
19 42 39
18 41 39
19 42 39
19 42 39
19 43 40
19 42 39
19 43 40
19 42 39
19 42 39
19 42 39
19 42 39
19 42 39
19 42 39
19 43 40
19 43 40
18 41 38
19 42 39
18 42 39
18 42 39
19 42 39
19 42 39
19 43 40
19 42 39
19 43 40
19 43 40
19 43 40
19 42 39
18 41 38
18 41 38
19 42 39
19 42 39
18 41 39
19 43 40
19 42 39
19 42 39
19 42 39
19 42 39
19 42 39
18 42 39
19 43 40
19 42 39
19 42 39
19 42 39
19 42 39
19 43 40
19 42 39
19 43 40
19 43 40
19 42 39
19 42 39
19 43 40
19 42 39
18 41 38
19 42 39
19 43 40
19 42 39
19 42 39
19 43 40
19 42 39
19 42 39
18 41 38
19 43 39
19 42 39
19 43 40
19 42 39
19 42 39
19 43 40
19 42 39
19 42 39
18 41 38
19 42 39
19 43 40
19 43 40
19 42 39
19 43 40
19 42 39
19 43 39
18 40 37
19 42 39
19 43 40
19 42 39
19 42 39
19 42 39
19 42 39
19 42 39
19 43 39
19 42 39
19 43 40
19 43 40
19 44 41
19 43 40
19 43 40
19 42 39
19 42 39
19 43 40
19 43 40
19 42 39
19 42 39
19 42 39
19 42 39
19 42 39
19 42 39
19 42 39
19 42 39
18 41 38
19 42 39
19 43 40
19 42 39
19 42 39
19 42 39
19 42 39
18 41 38
19 43 40
19 42 39
19 42 39
18 41 38
19 42 39
19 42 39
19 42 39
18 41 38
19 42 39
19 42 39
19 42 39
18 41 39
18 42 39
19 42 39
19 42 39
19 42 39
19 43 40
18 41 38
19 42 39
19 42 39
19 42 40
19 42 39
19 43 40
19 42 39
19 43 40
18 41 38
19 42 39
18 41 39
19 43 40
19 42 39
19 43 40
19 43 40
19 42 39
19 43 40
19 42 39
19 42 39
19 43 40
19 43 40
19 42 39
19 42 39
19 42 39
19 43 40
19 43 40
18 42 39
19 44 40
19 42 39
19 43 40
19 43 40
19 42 39
19 42 39
19 43 40
19 43 39
19 42 39
18 41 38
19 43 40
19 43 40
18 41 38
19 42 39
19 43 40
19 43 40
18 41 38
19 43 40
19 43 40
19 43 40
19 42 39
19 42 39
19 42 39
19 42 39
19 43 40
20 44 41
19 43 40
19 42 39
19 43 40
19 42 39
19 43 40
18 42 39
20 44 41
19 43 39
19 42 39
19 43 40
19 43 40
19 44 40
19 42 39
19 43 39
19 42 39
19 43 40
19 42 39
19 43 39
19 42 39
19 43 40
19 43 40
19 42 39
19 44 40
19 43 39
19 43 40
19 42 39
19 42 39
19 42 39
19 43 40
19 43 40
19 42 39
18 41 38
19 43 40
19 43 40
19 43 40
19 43 40
19 42 39
19 42 39
19 42 39
18 41 38
19 42 39
19 42 39
18 41 38
19 42 39
19 43 40
18 41 38
19 42 39
19 43 40
18 41 38
19 43 40
18 41 38
19 42 39
19 42 39
19 42 39
19 42 39
19 42 39
19 43 40
19 42 39
19 42 39
19 42 39
19 42 39
19 42 39
19 42 39
19 42 39
18 41 38
19 43 40
19 43 39
18 41 38
19 43 40
18 42 39
19 42 39
19 42 39
19 42 39
19 43 40
19 42 39
18 41 38
19 43 40
19 42 39
19 43 40
19 43 40
19 43 40
19 42 39
19 44 40
19 42 39
18 41 38
19 42 39
19 42 39
19 43 40
19 42 39
19 43 40
19 43 39
19 42 39
19 42 39
19 43 40
19 43 40
19 42 39
19 42 39
19 42 39
19 42 39
19 42 39
20 44 40
19 42 39
19 42 39
19 42 39
19 42 39
19 42 39
19 42 39
19 43 40
19 42 39
18 41 38
19 43 40
19 42 39
19 43 40
19 43 40
19 42 39
19 43 40
19 43 40
19 43 40
19 44 40
19 43 40
19 42 39
19 43 40
19 42 39
19 42 39
19 42 39
19 42 39
19 43 40
20 44 41
20 44 41
19 43 40
19 43 40
19 42 39
19 42 39
19 42 39
19 43 40
19 43 40
19 43 40
19 42 39
19 42 39
19 43 40
19 42 39
19 43 40
19 43 40
19 43 39
19 42 39
19 42 39
19 43 40
19 43 40
19 43 40
19 42 39
19 43 40
19 43 40
19 43 40
19 43 40
19 43 40
19 43 39
19 42 39
18 41 39
19 42 39
19 43 40
19 42 39
19 42 39
19 42 39
19 42 39
19 43 40
18 41 38
19 43 39
18 41 38
19 42 39
19 43 40
18 41 38
19 42 39
19 43 40
18 42 39
19 42 39
19 43 40
19 42 39
19 42 39
19 42 39
19 43 40
19 43 39
20 44 41
19 42 39
19 43 40
19 43 40
19 42 39
19 43 40
19 43 40
19 43 39
19 43 40
19 43 40
19 42 39
20 44 41
19 43 40
19 43 40
18 42 38
19 43 40
19 43 40
19 43 40
19 42 39
19 42 39
19 43 40
19 43 40
19 43 40
19 43 40
19 42 39
19 42 39
19 43 39
19 42 39
19 42 39
19 43 39
19 43 40
19 42 39
19 43 40
19 42 39
19 43 40
19 43 40
19 42 39
19 43 40
19 42 39
19 43 39
19 42 39
19 44 40
19 43 40
19 43 40
19 43 40
19 43 40
19 42 39
19 43 40
19 42 39
19 43 40
20 44 41
19 44 40
19 43 39
19 42 39
19 42 39
19 43 40
19 43 40
19 43 40
19 43 40
19 43 40
19 43 40
19 42 39
19 43 40
19 43 40
19 43 40
19 43 40
19 43 40
19 42 39
19 43 40
19 43 40
19 43 40
19 43 39
19 42 39
19 42 39
19 43 40
19 42 39
20 44 41
19 42 39
19 43 40
19 44 40
19 43 40
19 42 39
19 43 40
19 43 40
19 42 39
19 43 40
19 43 40
19 42 39
20 44 41
19 43 40
19 43 40
19 43 40
19 43 40
19 43 40
20 44 41
19 43 40
19 43 40
19 42 39
18 41 38
19 42 39
19 42 39
19 42 39
19 42 39
19 43 40
19 43 40
19 43 40
19 42 39
19 42 39
19 42 39
19 43 40
19 42 39
19 43 40
19 43 40
19 42 39
18 41 38
19 43 39
19 43 40
19 43 40
19 43 40
19 43 40
19 42 39
19 42 39
19 42 39
19 43 40
19 43 40
19 43 40
19 42 39
18 41 38
19 43 40
19 43 40
19 42 39
19 42 39
19 43 40
19 43 40
19 43 40
19 42 39
19 42 39
19 43 40
19 42 39
19 43 40
19 42 39
19 43 40
18 41 38
19 43 40
19 43 40
19 42 39
19 42 39
19 42 39
19 43 40
19 43 40
19 42 39
20 44 40
19 42 39
19 42 39
19 43 40
19 43 40
19 43 39
19 42 39
19 43 40
19 43 39
19 44 40
20 44 41
19 43 40
19 43 40
19 42 39
19 42 39
20 44 40
19 43 40
19 42 39
19 44 40
19 43 39
19 43 40
19 43 40
19 44 40
20 44 41
19 42 39
19 43 40
19 43 40
19 42 39
19 42 39
19 43 39
19 43 40
19 43 39
20 44 40
19 43 40
20 44 41
19 43 40
20 44 41
19 42 39
19 43 40
19 42 39
19 43 40
19 42 39
19 43 40
19 43 40
19 42 39
19 43 40
19 43 40
19 43 40
19 43 39
19 43 39
19 44 40
19 43 40
19 43 40
19 43 40
19 42 39
19 43 40
19 43 40
19 43 39
19 43 39
20 44 41
19 43 40
19 42 39
19 44 40
19 43 39
18 41 38
19 44 40
19 43 40
18 41 38
19 42 39
19 43 40
18 41 38
19 43 40
19 42 39
19 42 39
19 43 40
18 41 38
19 42 39
19 43 40
19 43 39
18 41 39
19 43 40
19 42 39
19 43 40
19 43 40
19 43 40
19 42 39
19 42 39
19 42 39
19 43 39
19 43 40
19 42 39
19 43 40
19 42 39
19 43 40
19 43 40
20 44 41
19 43 40
19 43 40
20 45 41
19 43 40
19 44 40
19 42 39
19 43 40
19 42 39
19 43 40
19 42 39
19 43 40
19 43 40
20 44 41
20 44 41
19 43 40
19 43 40
19 43 39
19 43 39
19 42 39
19 42 39
20 44 41
19 43 40
19 43 40
19 42 39
19 43 40
19 43 40
19 43 40
19 43 40
20 44 41
19 42 39
19 43 40
19 43 40
19 43 40
20 44 41
19 43 40
19 44 40
19 43 40
19 42 39
19 43 40
19 42 39
19 44 40
19 43 40
19 43 40
19 43 40
20 44 41
20 44 40
20 45 41
19 43 39
19 43 40
20 44 41
19 43 40
19 43 40
19 43 40
19 43 40
19 43 40
19 42 39
19 42 39
19 42 39
19 43 40
19 43 40
19 43 39
20 44 41
19 43 40
19 43 39
19 43 40
19 43 40
19 43 40
19 43 40
19 43 40
20 44 41
19 43 40
19 44 40
19 43 39
19 43 40
19 43 39
19 43 40
19 43 40
19 43 40
19 43 40
19 43 40
20 44 41
20 44 40
19 43 40
19 43 40
20 44 41
20 44 40
19 43 39
20 44 40
19 42 39
19 43 39
19 43 40
18 41 38
19 42 39
18 41 38
19 43 40
19 43 40
19 43 40
19 43 40
19 42 39
19 42 39
19 42 39
19 43 40
19 43 40
19 43 40
19 43 40
19 43 40
19 43 40
19 43 40
19 42 39
19 42 39
19 42 39
20 44 41
19 43 39
19 42 39
19 42 39
19 42 39
20 45 41
19 43 40
20 44 40
19 43 40
19 44 40
19 43 40
19 42 39
20 44 41
19 43 39
19 42 39
19 43 40
19 43 40
19 42 39
19 43 40
19 43 40
19 43 40
19 43 40
19 42 39
19 43 39
20 44 41
19 43 40
19 42 39
19 43 40
19 43 40
19 42 39
19 43 40
19 44 40
19 43 40
19 43 39
19 42 39
19 43 40
19 43 40
19 43 40
19 43 40
19 44 40
19 44 40
19 43 40
19 43 39
19 43 40
19 43 40
19 43 39
19 43 40
20 44 40
19 43 40
20 44 41
19 43 40
19 43 40
19 43 39
19 43 39
19 43 40
19 44 40
20 44 40
20 44 41
19 43 40
19 43 40
20 44 40
20 44 41
19 42 39
19 43 40
19 43 40
20 44 40
20 44 40
19 43 39
19 43 40
19 42 39
19 43 39
20 45 41
19 43 39
19 42 39
20 45 41
20 44 41
19 43 40
19 43 40
19 43 40
19 43 40
20 45 42
20 45 41
19 44 40
19 43 40
19 43 40
20 44 40
19 43 40
19 43 39
20 44 40
19 43 40
19 43 40
20 44 40
19 43 40
20 44 41
20 44 40
19 43 39
20 44 40
19 43 39
19 42 39
19 42 39
19 42 39
19 42 39
19 42 39
19 43 40
19 42 39
19 43 40
19 42 39
19 42 39
19 42 39
20 44 40
19 43 40
19 42 39
20 44 41
19 43 40
19 43 40
19 43 40
19 42 39
19 43 40
19 42 39
19 42 39
19 43 40
19 43 39
19 43 40
19 44 40
19 43 40
19 43 40
19 43 40
19 43 40
19 43 39
19 43 40
19 43 40
20 44 41
20 44 40
19 43 39
19 41 38
19 43 40
19 43 40
19 43 40
19 43 40
19 43 40
19 43 40
19 43 40
19 43 40
19 43 40
19 43 39
19 43 40
19 42 39
19 43 39
19 42 39
19 43 40
19 43 40
19 43 40
19 43 40
19 44 40
19 43 39
19 43 40
19 43 40
19 42 39
19 43 40
20 44 41
19 43 39
19 43 39
20 44 40
20 44 40
19 43 40
19 42 39
19 42 39
19 43 40
19 43 40
20 44 41
20 44 40
19 43 40
20 45 41
19 43 40
20 44 40
20 44 41
19 42 39
19 42 39
19 43 40
20 44 40
20 44 41
20 44 40
19 43 40
20 44 40
19 43 40
19 43 39
19 43 40
20 45 41
19 43 40
19 43 40
19 43 40
20 44 40
20 44 41
20 44 41
20 44 41
20 44 41
19 43 40
20 44 41
20 44 41
19 43 40
19 43 40
19 43 40
20 44 41
19 42 39
20 44 41
19 43 40
20 45 42
20 44 40
20 44 41
20 44 40
20 44 41
19 44 40
20 44 41
20 44 40
19 43 40
19 43 40
20 44 41
19 43 39
20 44 40
19 42 39
19 42 39
19 43 40
19 42 39
19 43 39
19 43 40
19 44 40
19 43 40
19 43 40
19 43 40
19 43 39
19 43 40
19 43 40
19 43 40
19 43 40
19 42 39
19 43 40
19 43 40
19 43 39
19 43 40
19 43 40
19 43 40
19 43 40
19 43 40
19 43 39
19 44 40
20 45 41
19 43 40
20 44 40
19 43 40
19 43 40
19 43 40
19 43 39
20 44 41
20 45 41
19 43 40
20 45 41
19 43 39
19 43 40
19 42 39
20 44 40
19 43 40
20 44 40
19 43 40
19 43 40
19 43 39
20 44 41
20 44 41
19 43 40
19 43 40
20 44 40
20 44 40
19 43 40
20 44 40
19 43 40
19 43 39
20 45 41
20 44 40
19 43 40
19 43 40
19 43 40
20 44 41
20 44 40
20 44 40
20 44 40
19 43 40
20 44 40
20 44 40
19 43 40
19 43 40
19 43 40
20 44 41
19 43 40
19 43 40
20 45 41
19 43 39
20 44 40
20 44 41
20 44 40
20 44 41
20 44 41
20 44 41
20 44 40
19 44 40
20 44 41
19 43 40
20 44 41
20 44 41
20 44 40
20 44 41
20 44 40
20 44 41
20 45 41
19 43 40
19 43 40
20 44 40
20 44 41
19 43 40
19 43 40
19 43 39
20 44 41
20 44 40
20 44 41
20 44 40
20 44 40
19 43 40
20 44 40
20 44 41
19 43 40
19 43 40
20 44 41
20 44 41
20 44 40
20 44 41
20 44 40
20 44 41
19 42 39
19 44 40
19 44 40
19 42 39
19 43 40
19 42 39
19 43 39
19 43 40
19 42 39
19 43 40
19 43 39
19 43 40
19 43 40
19 43 40
19 43 40
19 43 40
19 43 39
19 42 39
20 44 41
19 43 40
20 44 41
19 43 39
19 43 40
19 43 39
20 44 41
19 43 40
19 43 40
20 44 41
19 44 40
19 43 40
19 43 40
19 42 39
19 43 40
19 43 40
19 43 40
19 43 40
19 43 40
20 44 41
19 42 39
19 42 39
20 44 41
19 43 40
20 44 41
19 43 39
20 44 40
19 43 40
19 43 39
20 44 41
19 43 40
19 43 40
19 43 39
19 43 40
19 43 40
20 44 41
19 43 40
20 44 40
19 43 40
20 44 41
20 44 40
20 44 41
19 43 40
20 44 41
20 44 40
20 44 41
19 43 40
20 45 41
20 45 42
20 44 41
19 43 39
20 44 41
20 45 42
19 43 40
20 44 40
19 43 40
20 45 41
19 43 39
19 43 40
19 43 40
20 44 41
20 44 40
20 44 40
19 43 40
20 45 41
20 44 40
20 44 40
20 44 40
20 44 40
20 44 41
20 44 41
20 44 40
19 43 40
19 43 40
19 43 40
20 44 41
20 44 41
19 43 40
20 45 42
20 45 41
20 44 40
19 43 40
20 44 41
20 44 41
19 43 40
19 43 40
20 44 40
20 44 40
19 43 40
20 45 41
20 44 40
19 42 39
20 44 41
20 45 42
20 44 40
20 44 41
20 44 40
19 43 40
20 44 40
20 44 40
20 44 41
20 44 41
20 44 41
20 44 40
19 42 39
19 43 40
19 44 40
19 43 40
19 43 40
19 43 39
19 42 39
19 44 40
19 43 40
19 43 39
19 43 40
19 43 40
19 43 40
19 43 40
19 43 40
19 43 39
19 43 40
20 44 41
19 43 40
19 43 40
20 44 41
19 43 40
19 43 40
19 42 39
19 43 40
20 44 40
19 42 39
19 43 40
19 43 40
20 44 41
20 44 40
19 43 39
19 43 40
20 44 41
19 43 40
19 43 40
19 43 40
20 44 41
19 43 40
20 44 41
20 44 41
19 44 40
19 43 40
20 44 41
20 45 41
20 44 41
19 43 40
19 43 40
19 43 40
20 44 41
20 44 41
20 44 41
20 44 40
19 43 40
20 44 41
19 44 40
20 44 40
19 43 39
20 44 40
19 43 40
20 44 41
20 44 40
19 43 40
19 43 40
20 44 40
20 44 41
19 43 40
19 44 40
20 44 40
19 43 39
20 44 40
20 44 40
20 44 41
20 44 41
20 44 40
19 43 40
20 44 40
19 43 40
20 44 41
20 44 40
20 44 41
20 44 41
20 44 41
20 44 41
20 45 41
20 44 41
20 44 40
20 45 41
20 44 40
20 44 40
19 43 40
19 43 40
20 44 41
20 44 40
20 45 41
20 45 41
20 45 41
20 44 41
20 45 41
20 44 40
20 45 42
20 45 41
20 45 41
20 44 41
20 45 41
20 45 41
20 44 41
20 45 41
20 44 40
20 45 41
19 43 40
20 44 41
20 45 42
19 44 40
20 44 41
20 44 40
19 43 40
20 45 41
20 44 41
20 44 40
19 43 40
19 44 40
19 42 39
19 43 40
19 43 40
19 43 40
19 43 39
19 42 39
19 43 40
19 43 40
19 43 40
19 43 40
19 43 40
20 44 41
20 44 40
19 43 40
20 44 40
19 43 40
19 43 40
19 42 39
19 43 40
20 44 41
19 44 40
19 44 40
20 44 41
19 43 40
19 44 40
20 44 40
19 43 40
19 43 40
19 43 39
20 44 40
20 44 40
20 44 41
20 44 41
19 43 40
19 43 39
19 43 40
19 43 40
19 43 40
20 44 41
20 44 40
20 44 41
20 44 40
19 43 40
20 44 40
19 43 40
19 43 40
20 44 41
20 44 41
20 45 42
20 45 41
20 44 40
20 44 40
20 45 42
20 45 42
20 43 40
19 43 40
20 44 40
20 45 41
20 44 41
19 43 40
20 44 41
19 43 40
20 44 40
20 44 41
20 44 40
20 44 40
20 44 41
20 44 41
20 45 41
20 44 40
19 43 40
20 44 41
20 45 42
20 44 41
20 45 41
20 44 41
20 44 41
20 45 41
19 43 40
20 44 40
20 44 41
20 44 41
20 45 41
20 45 42
19 43 40
20 44 41
20 44 40
20 44 40
20 44 40
20 44 41
20 44 41
20 44 40
20 44 41
20 44 41
19 43 40
20 45 42
20 45 42
20 44 40
20 44 41
20 45 41
20 45 41
20 44 41
20 44 41
20 44 40
20 44 41
20 44 41
20 45 41
20 44 41
20 44 41
20 44 40
20 44 41
20 45 42
20 44 41
20 44 41
20 45 41
20 45 41
20 45 41
20 44 40
19 43 40
20 44 41
19 42 39
19 42 39
19 43 40
20 44 41
19 43 40
20 44 41
19 43 40
20 44 41
19 42 39
19 44 40
20 44 40
19 43 40
19 42 39
20 44 41
19 43 39
20 44 41
20 44 40
20 44 41
20 44 40
20 44 40
20 44 41
20 44 40
20 44 41
20 44 41
19 43 40
19 43 40
19 43 40
20 44 40
19 43 40
19 42 39
20 44 40
20 44 41
19 43 40
19 44 40
19 43 40
19 43 39
20 44 41
19 43 40
19 43 40
20 44 41
19 43 40
20 44 41
20 44 40
20 44 40
19 43 40
19 43 39
20 45 41
20 45 41
20 44 40
20 44 41
20 44 40
20 44 41
20 45 41
19 43 40
20 44 41
20 44 40
20 44 41
19 43 40
20 44 41
20 44 41
20 45 41
20 45 42
20 45 41
19 43 40
20 45 41
20 44 41
20 45 41
20 44 40
20 44 41
20 44 41
20 44 40
20 44 40
20 44 41
20 44 41
20 44 41
20 45 41
20 44 40
20 44 41
19 43 40
20 44 41
20 44 41
20 44 41
20 45 41
20 44 40
21 46 42
20 45 41
20 43 40
20 44 40
20 44 41
20 43 40
20 45 41
20 44 41
20 45 41
20 45 41
20 45 41
20 45 42
21 46 42
20 45 41
20 45 41
20 44 40
20 45 41
20 44 41
20 44 41
20 44 41
20 45 42
19 43 40
20 45 41
20 45 41
20 45 41
20 44 41
20 44 41
20 44 40
20 44 41
20 44 41
20 45 41
20 45 41
20 45 42
20 45 41
20 44 41
19 43 40
19 43 40
19 43 40
19 43 40
20 44 40
20 44 40
20 44 41
19 43 40
20 44 40
19 42 39
20 44 41
19 43 40
19 43 40
20 44 41
20 44 40
20 44 40
19 43 40
20 44 40
19 43 40
20 44 41
19 43 40
20 45 42
20 44 41
19 43 40
19 43 39
20 44 40
20 45 41
19 43 40
19 43 40
20 45 41
20 44 41
20 45 41
19 43 39
19 43 39
19 42 39
20 44 41
20 45 41
19 43 40
20 44 40
20 44 40
20 44 40
20 44 41
20 44 40
19 43 40
20 44 41
20 44 40
20 44 41
20 44 41
20 44 40
20 44 41
20 44 41
20 44 41
19 42 39
20 45 41
20 45 41
20 45 41
20 45 41
20 44 40
20 45 42
20 44 41
19 43 40
20 44 41
20 44 40
20 45 41
20 44 40
20 45 41
20 45 41
20 44 40
20 45 42
20 45 41
20 44 40
20 44 40
20 44 41
21 46 42
20 44 41
20 44 41
20 45 42
19 43 40
20 44 41
20 44 41
20 44 40
20 44 41
20 45 41
20 45 41
20 44 41
20 44 40
20 44 40
20 45 42
19 43 40
20 44 41
20 45 42
20 45 41
19 43 40
20 45 41
20 44 41
20 44 41
20 45 42
20 44 41
20 45 41
20 45 42
20 44 41
20 44 41
20 44 41
20 44 41
20 45 41
20 44 41
20 45 41
20 45 41
20 45 41
20 45 41
20 44 41
20 45 41
20 44 41
20 45 41
20 44 40
20 45 41
20 45 41
20 44 41
20 44 41
20 44 41
19 43 40
19 42 39
19 42 39
20 45 41
20 44 41
20 44 41
19 43 40
20 44 40
19 43 40
20 44 41
20 44 41
20 44 41
20 44 40
20 44 40
19 43 40
19 43 40
19 43 39
19 43 40
20 44 41
19 43 40
20 44 40
20 45 42
20 45 41
20 44 41
20 44 41
20 44 41
20 44 40
20 44 41
20 44 41
20 44 41
20 44 40
20 44 40
20 44 40
20 45 41
20 44 41
20 44 41
20 44 41
20 45 41
20 45 41
20 45 41
19 43 40
20 45 41
20 44 41
20 45 41
20 44 41
20 44 40
20 44 41
20 44 40
19 43 40
20 44 41
20 45 41
20 44 40
20 44 40
20 44 40
20 44 40
20 44 40
20 45 41
19 43 40
20 44 41
20 45 42
19 43 40
20 45 42
20 44 41
20 45 41
20 44 41
21 46 43
19 43 40
20 44 40
20 44 41
20 45 41
20 44 41
20 45 41
20 44 41
20 45 41
20 45 41
20 44 41
20 46 42
20 44 41
20 45 42
20 44 41
20 45 42
19 43 40
20 45 41
20 45 41
20 44 41
20 45 41
20 44 40
20 45 42
20 45 41
20 45 41
21 46 42
20 45 42
20 45 41
20 44 40
20 44 41
20 44 41
20 45 41
20 45 42
21 46 42
20 45 41
20 45 41
20 44 40
20 45 42
20 45 41
20 44 40
21 46 42
20 45 41
20 45 41
20 45 41
20 45 41
20 44 41
20 44 41
20 44 40
20 44 41
20 45 41
21 46 42
20 45 41
20 45 41
20 44 41
19 43 40
20 44 41
20 44 41
19 43 40
19 44 40
19 43 40
20 45 41
20 44 40
20 44 41
19 43 40
20 45 41
19 44 40
19 43 40
20 44 40
20 44 41
20 44 40
19 44 40
20 45 41
19 43 40
20 45 41
20 45 41
19 43 39
20 44 40
19 44 40
20 44 41
20 44 41
20 44 41
20 44 40
20 44 40
19 43 40
20 44 41
19 43 40
20 44 41
20 45 42
20 44 40
20 44 40
20 44 41
20 45 41
20 44 41
20 45 41
20 44 41
20 44 41
20 44 40
20 45 42
20 44 40
20 45 41
20 44 41
20 44 41
20 45 42
20 44 40
20 43 40
20 44 41
20 45 41
20 45 42
20 44 41
20 45 41
20 44 40
20 45 41
20 45 41
19 43 40
20 44 41
20 45 41
20 45 41
20 44 40
20 44 41
20 44 40
20 44 41
20 45 41
20 45 42
20 45 42
20 44 41
20 44 41
20 45 41
20 44 41
20 45 41
20 44 41
20 44 40
20 44 40
20 45 41
20 45 41
20 45 41
20 45 42
20 44 40
21 46 42
20 44 41
20 45 41
20 45 41
20 44 40
20 45 41
20 45 41
21 46 42
20 44 41
20 45 41
21 46 42
20 44 41
21 46 42
20 44 41
20 45 41
20 45 41
20 45 41
20 44 41
20 45 41
20 45 41
21 47 43
20 45 41
20 45 41
20 45 41
20 45 41
20 44 41
20 45 41
20 44 40
20 44 41
20 45 41
20 45 41
21 46 42
20 45 42
21 46 42
20 45 41
21 46 42
20 44 40
19 43 40
20 44 41
20 44 40
19 43 40
19 43 40
19 43 40
19 43 40
19 43 40
20 45 41
20 45 41
20 44 41
19 43 40
19 42 39
20 44 40
19 43 40
20 44 41
20 44 41
19 43 40
20 44 40
20 45 42
20 44 40
20 44 41
20 44 41
20 45 41
20 45 41
20 44 40
20 44 40
20 45 41
20 44 40
20 45 42
20 44 40
20 45 41
20 44 41
20 45 41
20 45 42
20 44 40
20 45 41
20 45 41
20 44 41
20 44 40
20 45 41
20 44 41
19 43 40
20 45 41
20 44 41
20 44 40
20 45 41
20 44 41
20 45 41
20 45 41
20 45 41
20 44 41
20 44 41
20 45 41
20 45 41
20 45 41
21 46 42
20 44 41
20 44 41
20 44 41
20 44 40
20 44 41
20 45 41
20 44 40
20 45 42
21 46 42
20 45 42
20 44 41
20 45 41
20 45 41
20 44 40
20 45 41
20 44 41
20 45 41
21 46 42
20 45 41
20 45 41
20 45 41
20 45 42
20 45 41
20 45 41
20 45 41
20 45 41
20 45 41
21 46 42
20 45 42
20 45 42
20 45 41
20 45 41
20 45 41
20 44 41
20 45 42
20 45 42
20 45 42
21 46 42
20 45 42
21 46 43
20 45 41
20 45 41
20 45 41
21 46 42
20 44 41
20 45 42
20 45 41
20 45 41
20 45 41
20 45 41
20 45 41
20 45 41
20 44 40
20 45 41
20 44 40
20 45 41
20 45 41
20 44 40
20 45 41
20 45 42
20 45 42
21 46 42
20 45 41
20 44 41
20 44 41
20 44 40
19 43 40
19 43 40
20 44 40
20 45 41
20 44 40
19 43 40
20 44 40
20 44 41
19 43 40
20 45 41
20 45 41
20 45 41
20 44 41
20 44 41
20 44 41
20 44 41
20 45 41
19 43 40
20 44 40
20 44 41
20 45 41
20 45 41
20 45 41
19 43 40
20 44 40
19 43 40
19 43 39
20 45 42
20 45 41
20 44 40
20 45 41
20 44 40
20 45 41
20 44 40
20 44 40
20 45 42
20 45 41
19 43 39
20 45 41
20 44 40
20 45 41
20 45 41
20 44 41
20 44 40
20 44 41
21 46 42
20 44 41
20 45 42
20 45 42
20 44 40
20 44 41
20 45 41
20 45 41
20 45 42
20 45 41
20 45 41
21 46 42
20 44 40
20 45 41
20 45 41
20 45 41
20 44 40
20 45 42
20 45 41
20 45 41
20 44 41
21 45 42
20 45 41
20 45 41
20 45 41
20 44 41
20 45 41
21 46 42
20 45 41
20 45 42
20 45 41
20 45 42
20 45 42
21 46 42
21 46 42
20 45 41
20 45 41
21 46 42
20 45 41
20 44 40
21 46 42
21 46 42
20 45 41
20 44 40
21 47 43
20 44 41
20 44 41
20 45 41
20 45 42
20 45 41
20 45 41
20 45 41
20 45 41
21 46 42
20 45 42
20 45 41
20 44 41
21 46 42
20 45 41
20 45 42
21 46 42
20 45 41
20 44 40
21 46 42
20 44 40
20 45 41
21 46 42
21 46 42
20 45 42
20 45 41
21 46 42
20 45 42
20 44 41
20 44 40
19 43 40
20 44 41
20 44 41
20 44 41
20 45 41
20 45 41
20 45 41
20 44 41
20 44 41
19 43 40
20 44 40
20 44 40
20 45 41
20 45 41
20 45 42
20 44 40
20 45 41
20 44 40
20 44 40
21 46 42
20 44 40
20 44 40
20 45 41
20 45 41
20 46 42
19 44 40
20 45 41
20 46 42
20 44 41
20 44 40
20 44 41
20 45 41
20 44 41
21 46 42
20 45 41
20 44 40
20 44 40
20 45 42
20 45 41
20 44 40
20 44 40
21 46 42
20 44 41
20 44 41
20 44 41
20 45 41
20 45 41
21 46 42
20 45 41
20 45 41
21 46 42
20 45 42
20 44 41
20 45 41
20 45 42
21 46 42
21 46 42
20 45 41
21 46 42
20 45 41
20 45 41
20 45 41
21 46 42
20 45 42
20 45 41
20 45 41
20 45 41
21 46 42
20 45 42
20 45 41
20 45 41
20 45 41
20 44 41
20 45 41
20 45 42
20 45 41
20 45 42
21 45 42
20 44 41
21 46 42
21 46 42
20 45 42
21 46 42
21 46 42
21 47 43
20 45 41
21 46 42
20 45 41
20 45 41
20 45 41
20 45 41
21 46 42
20 45 41
20 45 41
20 45 41
21 46 42
20 44 40
20 45 42
20 44 41
20 45 41
21 47 43
20 45 42
20 45 41
20 45 41
20 45 41
20 45 41
20 45 41
21 46 42
21 46 43
20 45 41
21 46 42
20 45 41
20 44 40
20 45 41
20 45 41
20 45 41
21 46 42
21 46 42
20 44 41
20 45 41
20 44 41
19 43 40
20 45 41
19 43 40
20 45 41
19 43 40
20 44 41
19 43 40
20 44 41
20 45 41
20 45 41
20 44 40
20 45 41
20 44 41
20 44 40
20 44 41
20 45 42
19 44 40
20 45 42
20 44 40
20 44 40
20 44 41
20 45 41
20 45 41
20 43 40
21 46 42
20 45 41
20 44 41
20 45 42
20 45 42
21 46 42
20 45 41
20 44 40
20 44 41
20 45 41
21 46 42
21 46 42
20 44 41
20 44 41
21 46 42
20 44 41
20 45 41
21 46 42
20 44 41
20 45 42
20 45 41
20 45 42
20 44 41
20 46 42
20 46 42
20 45 41
20 45 41
20 45 41
20 45 41
20 45 41
20 45 42
20 45 41
20 45 41
20 45 41
20 45 41
20 45 41
20 45 41
21 46 42
20 45 41
20 45 42
20 44 40
21 46 42
21 46 42
21 46 42
20 45 41
20 45 41
20 44 41
20 45 42
21 46 42
21 46 42
20 45 41
21 46 42
20 45 42
20 45 41
21 46 42
21 47 43
21 46 42
21 46 42
20 45 41
20 45 41
20 44 41
20 45 41
21 45 42
20 45 42
20 45 41
21 45 41
21 46 42
20 45 41
20 45 42
21 46 42
20 45 42
21 46 42
21 46 42
20 44 40
21 46 42
20 45 41
21 46 42
20 45 41
21 46 42
21 46 42
20 45 41
20 45 41
20 45 41
21 47 43
21 46 42
21 47 43
21 46 42
20 45 41
21 46 42
20 45 41
20 45 41
20 45 42
21 46 42
19 43 40
20 45 41
20 45 42
20 45 41
20 44 41
20 44 40
20 46 42
20 45 41
20 44 41
20 44 40
20 44 40
20 44 40
20 44 41
20 45 42
20 45 42
20 45 41
20 44 41
20 45 41
20 44 41
20 44 40
20 44 41
20 45 42
20 45 41
20 44 40
20 45 41
20 45 42
20 44 40
20 45 42
20 45 42
20 45 42
21 46 42
20 45 41
20 44 40
20 44 41
20 45 42
20 45 41
20 44 41
20 44 40
20 45 41
20 45 41
20 45 42
20 45 41
20 45 41
20 44 41
20 44 40
20 44 41
20 45 41
20 45 41
20 45 41
20 44 41
20 45 42
21 46 42
20 45 42
20 44 40
20 45 41
20 45 42
21 46 42
21 46 42
20 45 41
21 46 42
20 44 40
20 45 41
21 45 42
20 45 41
20 45 41
20 44 41
20 45 42
20 45 41
21 46 42
21 47 43
21 46 42
20 45 41
20 45 41
21 47 43
21 46 42
21 46 42
20 45 42
21 47 43
21 45 42
21 46 42
21 46 42
20 45 41
21 45 42
20 45 42
20 45 41
20 45 41
21 46 42
20 44 41
21 46 42
21 46 42
21 46 42
21 46 42
20 44 41
20 45 41
20 45 41
21 46 42
21 45 42
21 46 42
21 46 42
21 46 42
21 46 42
21 46 42
20 45 42
20 45 41
21 46 42
20 45 42
21 46 42
21 46 42
21 45 41
21 46 42
21 46 42
21 46 42
21 46 42
21 47 43
21 46 43
21 46 42
21 47 43
21 47 43
20 45 41
20 45 41
19 43 40
20 44 40
20 45 42
20 45 42
20 44 40
20 44 40
19 43 40
20 44 40
20 44 41
20 45 41
20 44 41
20 44 40
20 45 41
20 45 41
20 45 41
20 45 42
21 46 43
20 45 41
20 45 42
20 45 41
20 46 42
20 45 41
20 44 40
20 45 41
20 45 41
21 46 42
20 45 42
20 44 40
20 44 41
20 45 41
20 44 41
20 46 42
19 43 40
20 45 42
20 44 41
21 46 42
21 46 42
21 46 42
21 46 42
20 44 40
21 46 42
20 44 40
20 44 41
20 44 41
21 46 42
20 45 42
20 45 41
21 46 42
20 45 41
21 46 42
20 45 41
20 45 41
20 45 41
21 46 42
20 45 41
20 45 41
20 45 42
20 45 42
20 45 41
21 46 42
21 46 42
20 44 40
20 45 41
20 45 41
21 46 42
21 46 42
20 45 41
20 45 41
20 45 41
21 46 42
20 45 41
20 45 41
20 45 41
21 46 42
20 45 41
21 46 42
21 46 42
20 45 42
20 45 42
21 45 42
21 46 42
21 46 42
21 47 43
21 45 42
20 45 41
20 45 41
21 47 43
20 45 41
20 45 41
20 44 40
20 45 41
21 46 43
21 46 42
21 46 42
21 47 43
21 47 43
21 46 42
20 44 40
21 46 42
20 45 41
21 46 42
21 46 42
21 46 42
21 46 42
21 46 42
21 46 42
21 46 42
21 46 42
20 45 42
21 46 42
21 46 42
21 47 43
21 46 42
20 45 41
21 46 42
21 46 43
21 46 42
21 47 43
20 45 41
21 47 43
19 43 40
20 44 40
20 44 40
20 44 41
20 44 41
20 45 41
21 46 42
20 44 41
20 44 40
20 44 40
20 44 40
20 44 40
20 45 42
19 43 39
20 45 41
21 46 42
20 45 41
20 45 41
20 44 41
20 44 41
20 44 40
20 44 40
20 44 40
20 45 41
21 46 43
20 44 41
20 45 41
20 45 41
20 45 41
20 45 41
20 45 41
21 46 42
20 45 41
20 44 40
20 45 41
20 45 41
20 44 41
21 46 42
20 45 41
21 46 42
21 46 42
21 46 42
20 45 41
20 45 41
20 45 41
20 45 41
21 46 42
20 44 41
21 46 42
21 46 42
20 45 42
20 45 41
21 46 42
20 45 41
20 44 41
21 46 42
21 46 42
21 46 42
21 46 42
21 46 42
21 46 42
21 46 42
20 44 41
21 46 42
20 45 41
20 45 42
21 47 43
21 46 42
21 47 43
20 45 42
21 47 43
21 46 42
21 46 42
21 46 42
21 46 42
21 45 41
21 45 42
21 46 42
21 46 42
20 45 41
21 46 42
21 46 42
20 45 41
20 45 41
21 46 42
21 47 43
21 47 43
21 46 42
20 45 41
20 45 41
21 46 42
21 46 43
21 46 42
21 47 43
21 46 42
20 45 41
21 46 42
21 47 43
21 46 42
21 46 42
21 46 42
21 46 42
21 47 43
21 45 41
21 46 42
21 47 43
21 46 42
21 46 42
21 46 42
21 46 42
21 46 42
21 46 42
21 46 42
21 46 42
21 46 42
21 46 42
21 46 42
21 47 43
20 44 40
20 45 41
20 44 40
20 45 41
20 45 41
20 45 41
20 44 41
20 44 41
20 44 41
20 45 41
20 45 41
19 43 39
20 44 40
20 45 41
20 45 41
20 45 41
20 44 41
20 45 41
20 45 41
20 45 41
21 46 42
20 44 41
20 44 41
20 45 41
20 45 41
20 45 41
20 44 41
20 44 41
20 44 40
21 46 42
21 46 43
20 45 41
20 44 40
21 46 42
20 45 41
21 46 42
21 46 42
20 45 41
21 46 43
20 45 42
20 45 41
20 45 41
20 44 41
20 45 41
21 45 42
20 44 41
20 45 41
20 45 41
21 46 42
20 45 41
20 46 42
21 46 42
21 46 42
21 46 42
21 46 42
20 45 41
20 45 41
20 45 41
20 45 42
20 45 41
20 45 41
21 46 42
20 45 41
21 46 42
21 46 42
21 46 42
21 47 43
21 46 42
21 46 42
20 45 41
20 44 41
21 46 42
21 46 42
21 46 42
21 45 42
21 46 42
21 47 43
20 45 41
21 46 42
20 44 41
21 45 42
21 46 42
21 45 42
21 46 42
20 45 41
21 46 42
21 46 42
20 45 42
20 45 41
21 46 42
21 47 43
20 45 41
21 47 43
21 46 42
21 46 42
21 47 43
21 46 42
21 46 42
21 46 42
21 47 43
21 46 42
21 46 42
21 46 42
21 46 42
21 46 42
21 46 43
21 46 42
21 47 43
21 47 43
21 46 42
20 44 41
21 46 42
21 46 42
21 46 42
21 47 43
20 45 41
22 48 44
21 46 42
21 46 42
21 46 42
21 46 42
21 46 42
20 45 41
20 44 41
20 45 42
20 45 41
20 45 42
20 45 41
20 45 41
21 46 42
20 45 41
20 44 40
20 45 42
20 44 41
20 45 42
21 46 42
20 45 42
20 44 41
20 44 41
20 44 40
20 45 42
20 44 40
20 45 41
20 45 41
20 44 41
20 45 41
20 45 41
20 45 41
20 44 41
20 45 41
20 45 42
20 45 41
21 46 42
20 45 41
21 46 42
20 44 41
20 45 41
20 45 41
20 45 41
20 45 41
21 46 42
20 44 41
21 46 42
20 45 41
20 45 41
20 45 41
21 46 42
21 47 43
21 46 43
20 44 40
21 46 42
20 45 42
21 45 42
20 45 41
21 46 42
20 45 41
21 46 42
21 46 42
20 45 41
20 45 41
20 45 42
20 45 42
20 44 40
21 46 42
20 45 42
21 46 42
20 45 41
21 46 42
20 45 42
21 46 42
21 46 42
20 45 42
21 46 42
21 46 42
21 46 42
21 46 42
20 45 41
20 45 41
21 45 42
21 47 43
21 47 43
21 46 42
20 45 41
21 46 42
21 46 42
21 46 42
21 47 43
21 47 43
20 45 42
20 45 41
21 46 42
21 47 43
21 46 42
21 46 42
21 46 42
20 45 41
21 46 42
20 45 42
21 46 42
21 46 42
21 46 42
21 46 42
20 45 41
20 44 40
21 47 43
21 47 43
21 46 42
21 46 42
21 46 42
22 47 43
21 47 43
21 46 42
21 46 42
21 46 42
21 47 43
21 46 42
21 47 43
21 46 42
21 45 42
21 46 42
20 45 41
20 45 41
20 45 41
20 45 42
20 44 40
20 45 41
20 45 42
20 44 41
20 45 41
20 45 42
21 46 42
20 45 41
20 45 41
20 44 41
21 47 43
20 45 42
20 44 41
20 44 40
20 44 41
20 45 41
20 45 41
20 44 41
20 44 41
20 45 41
20 44 40
20 45 41
20 45 42
21 46 42
21 46 42
20 45 42
21 46 42
20 45 41
20 45 42
20 45 41
20 45 42
20 45 41
21 46 42
21 46 42
20 45 41
20 45 41
21 46 43
20 45 41
21 46 42
20 44 40
21 46 42
20 45 41
20 45 41
20 45 41
21 46 42
21 47 43
21 46 42
20 45 41
20 45 41
21 45 41
20 44 41
20 44 41
21 46 42
21 46 42
21 46 42
21 46 42
21 46 42
20 45 41
20 45 41
21 47 43
21 46 42
21 46 43
21 46 42
21 46 42
21 46 42
21 48 44
21 46 42
21 45 42
21 46 42
20 45 41
20 45 41
20 45 41
21 46 42
22 48 43
21 46 42
21 47 42
21 46 42
21 46 42
21 46 42
21 46 42
21 46 42
20 45 41
21 46 42
21 46 43
20 45 41
22 48 44
21 46 42
21 46 42
21 46 42
21 46 42
21 47 43
21 46 42
21 46 42
21 47 43
21 47 43
21 46 42
21 46 42
21 45 41
21 46 42
21 47 43
21 46 42
21 47 42
21 47 42
21 47 43
21 47 43
20 45 41
21 47 43
21 46 42
21 47 43
21 46 42
21 47 43
21 47 43
21 47 43
21 46 42
21 46 42
21 47 42
21 46 42
21 46 42
20 45 41
21 46 42
21 46 42
20 44 41
20 45 41
20 45 41
20 44 41
21 46 42
20 45 41
20 44 41
21 46 43
20 45 41
20 45 42
20 45 42
20 45 41
21 46 42
20 45 41
20 44 41
20 45 41
20 45 42
21 46 42
21 46 42
21 46 42
21 46 42
20 45 41
20 44 41
20 44 41
20 44 41
20 44 41
20 45 41
21 46 42
21 46 42
20 45 42
20 45 41
21 46 42
20 45 41
20 45 41
20 45 42
21 46 42
21 46 42
21 45 42
20 45 41
21 46 42
20 45 41
21 47 43
21 46 42
21 47 43
21 46 42
21 46 42
21 46 42
21 46 42
21 46 42
21 46 42
21 46 42
22 48 43
20 45 41
21 47 43
20 45 41
21 46 42
21 46 42
21 46 42
21 46 42
21 47 43
21 46 42
21 46 42
21 47 43
21 46 42
21 46 42
21 45 41
21 46 42
21 46 42
20 45 41
21 46 42
21 46 42
21 45 42
21 47 43
21 46 42
21 46 42
21 46 42
20 45 41
21 47 43
21 46 42
21 46 42
21 47 43
21 46 42
21 46 42
21 45 42
20 45 41
21 47 43
20 45 41
21 46 42
21 47 43
21 47 43
21 46 42
22 48 43
21 47 43
21 47 43
21 46 42
21 46 42
21 46 42
21 46 42
21 46 42
21 46 42
21 47 43
21 46 42
21 46 42
21 47 43
21 46 42
22 48 43
21 47 43
21 46 42
21 47 43
21 46 42
21 47 43
21 46 42
20 45 41
21 47 43
21 47 43
21 46 42
21 47 43
20 45 42
20 44 41
20 45 41
20 44 40
20 43 40
20 45 41
20 45 41
21 46 42
20 45 41
21 46 42
20 44 40
20 45 41
21 46 42
20 45 41
20 45 41
20 44 41
20 45 41
20 45 42
21 45 42
20 45 41
21 46 42
20 44 40
20 45 41
20 45 41
20 45 41
20 45 41
20 44 40
21 46 42
21 46 42
21 46 42
20 45 42
21 46 42
21 47 43
20 45 41
21 47 43
21 46 42
20 44 41
20 45 42
20 45 42
20 45 42
21 46 42
20 45 41
20 45 41
20 45 41
21 46 42
21 46 42
21 46 42
21 46 42
21 46 42
20 45 42
21 46 42
21 47 43
21 46 42
21 46 42
21 46 42
21 47 43
21 46 42
21 46 42
21 46 43
21 46 42
21 47 43
21 46 42
21 46 42
21 46 42
21 46 42
21 46 42
21 47 43
21 46 42
21 45 41
21 47 43
21 46 42
20 45 41
21 46 42
21 46 42
21 46 42
21 46 42
20 45 41
21 46 42
20 45 41
21 47 43
21 46 43
21 46 42
21 46 42
21 46 42
20 45 41
21 46 42
21 47 43
21 46 42
20 45 41
21 47 43
21 46 42
21 45 42
21 47 43
21 47 43
21 47 43
21 46 42
21 46 42
21 46 42
21 47 43
21 47 43
21 47 43
21 47 43
21 47 43
21 45 41
22 47 43
21 46 42
21 47 43
22 48 43
21 46 42
21 47 43
21 47 43
21 46 42
21 47 43
21 47 43
21 46 42
21 46 42
21 46 42
21 46 42
21 47 43
21 46 42
21 46 42
20 45 41
21 46 42
20 45 41
20 44 40
20 45 41
21 46 42
20 45 42
20 45 41
20 45 41
20 44 40
21 46 42
20 44 41
20 45 41
20 45 41
20 45 41
20 45 41
21 46 42
20 45 42
20 45 41
21 47 43
20 45 42
20 45 41
20 45 41
21 46 42
20 45 42
21 47 43
20 45 41
20 45 41
20 45 41
20 45 41
21 46 42
21 46 42
21 46 42
20 45 41
21 47 43
20 45 41
21 46 42
21 47 43
21 47 43
20 45 41
20 44 40
21 46 42
20 45 42
21 46 42
21 46 42
21 46 42
20 45 41
21 46 42
21 46 42
21 47 43
21 46 42
20 45 41
21 46 42
21 46 42
21 45 42
20 45 41
21 47 43
20 45 41
20 45 41
21 46 42
20 45 41
21 46 42
21 46 42
21 47 43
21 46 42
21 46 42
21 47 43
21 46 42
21 47 42
21 47 43
21 46 42
21 47 43
21 47 43
21 47 43
21 47 43
21 47 43
21 47 43
21 45 41
21 47 43
21 47 43
21 46 42
21 46 42
21 46 42
21 46 42
21 46 42
21 47 43
21 47 43
21 47 43
21 47 43
21 46 42
21 45 41
21 46 42
21 47 43
22 48 43
21 46 42
21 47 43
21 47 42
21 47 43
21 47 43
20 45 41
22 48 44
21 46 42
21 46 42
21 47 42
22 47 43
21 46 42
21 47 42
21 47 43
21 47 43
21 46 42
21 47 43
21 47 42
21 47 43
21 46 42
21 46 42
21 47 43
21 47 42
22 48 43
22 48 44
20 44 41
20 44 40
20 45 41
20 45 41
20 45 41
20 45 41
21 46 42
21 46 42
20 45 41
20 45 41
20 45 41
20 45 41
20 45 41
21 46 42
21 46 42
20 44 40
20 45 41
20 44 40
20 45 41
20 45 41
21 46 42
20 45 42
20 45 41
20 45 41
20 44 41
20 45 41
20 45 41
21 46 42
20 45 41
20 45 41
21 46 42
20 45 41
20 45 41
21 46 42
21 46 42
21 47 43
21 47 43
21 46 42
21 46 42
21 46 42
21 46 42
21 46 42
21 46 42
21 47 43
21 46 42
20 45 41
21 46 42
21 46 42
21 46 42
21 46 42
21 47 43
21 46 42
21 46 42
21 46 42
21 46 42
21 46 42
22 48 43
21 47 43
21 46 42
21 46 42
21 46 42
21 47 43
21 47 43
21 46 42
22 48 44
21 47 43
21 46 42
20 45 41
22 48 43
21 47 43
21 46 42
21 46 42
21 47 43
21 46 42
20 45 41
21 46 42
21 46 42
21 46 42
21 47 43
21 47 43
22 48 43
21 47 43
20 45 41
21 47 43
21 47 43
21 47 43
21 47 43
21 46 42
21 46 42
21 46 42
21 46 42
22 47 43
21 46 42
22 48 44
22 48 43
21 46 42
21 46 42
22 48 44
21 47 43
21 47 43
21 46 42
21 46 42
21 46 42
21 46 42
21 46 42
21 47 43
21 47 43
22 48 44
22 49 44
21 46 42
22 48 44
21 47 43
21 47 43
21 47 43
21 47 42
21 46 42
22 48 44
21 47 43
21 47 43
21 47 43
20 45 41
20 45 42
20 45 41
20 45 41
20 45 42
20 45 41
20 46 42
21 47 43
20 45 41
20 45 42
21 46 42
21 46 42
20 44 41
20 44 41
20 44 40
21 46 42
20 45 42
20 45 42
20 44 41
21 46 42
21 46 42
21 46 42
20 44 41
20 45 41
21 45 42
21 46 42
21 47 43
21 46 42
20 45 41
21 46 42
20 45 41
20 45 42
21 46 42
20 45 41
21 46 42
20 45 41
21 46 42
20 45 41
21 46 42
21 46 42
21 46 42
21 46 42
21 46 42
21 46 42
21 46 42
21 46 42
20 45 41
21 46 42
21 46 42
21 46 42
21 46 42
21 47 43
21 45 42
21 46 42
20 45 41
21 46 42
21 47 43
21 47 43
21 46 42
21 46 42
20 45 41
20 45 41
20 45 41
21 47 43
21 46 42
20 45 41
21 46 42
21 47 43
21 46 42
21 47 42
22 48 43
21 46 42
20 45 41
21 46 42
21 47 43
20 45 41
20 45 41
21 46 42
21 46 42
22 47 43
22 48 43
21 46 42
21 46 42
21 46 42
21 46 42
21 47 42
21 47 43
22 49 44
22 48 44
21 47 43
21 47 43
22 48 44
21 47 42
21 46 42
21 47 43
21 46 42
21 46 42
21 46 42
21 47 43
21 46 42
21 46 42
21 47 43
21 46 42
21 47 43
22 48 44
21 47 43
22 47 43
21 47 43
21 47 43
21 47 43
21 46 42
20 45 41
21 47 43
21 47 43
21 47 43
21 47 43
22 49 44
22 48 44
22 49 44
21 47 43
21 47 43
20 44 41
20 45 41
20 45 41
20 45 41
20 45 41
20 45 41
20 45 42
21 46 42
21 46 42
21 46 42
20 45 41
20 45 42
21 46 42
21 47 43
21 46 42
20 45 41
21 45 42
20 45 41
21 46 42
21 46 42
21 45 42
21 46 42
20 44 41
20 45 41
20 45 42
20 45 41
21 46 42
20 45 41
21 47 43
21 46 42
20 45 41
21 46 43
21 47 43
21 46 42
21 46 42
20 45 41
21 45 42
20 45 41
20 45 41
21 46 42
21 46 42
21 46 42
21 47 43
21 47 43
21 46 42
21 46 42
22 48 43
21 47 43
20 45 41
21 47 43
21 46 42
21 46 42
21 46 42
21 47 43
21 47 43
21 47 43
21 47 43
21 45 41
21 47 43
20 45 41
21 46 42
21 46 42
21 47 43
21 47 43
21 47 43
21 47 43
21 47 43
21 45 41
21 46 42
21 46 42
21 46 42
21 46 42
21 47 43
21 47 43
20 45 41
21 47 43
21 47 43
21 46 42
21 46 42
22 48 44
21 45 41
21 47 42
21 46 42
21 47 42
21 46 42
21 46 42
21 47 43
21 46 42
21 47 43
21 47 43
22 48 43
21 47 42
21 47 43
22 48 44
21 46 42
21 46 42
21 47 43
21 47 43
21 47 42
21 45 41
22 48 43
21 47 43
21 47 43
22 48 43
21 47 43
21 47 43
21 47 43
22 48 44
21 47 43
22 48 44
21 47 43
21 47 43
22 47 43
22 48 44
21 47 43
22 48 44
21 47 43
22 48 44
21 47 43
20 45 41
20 44 41
20 45 41
21 46 42
20 44 40
20 44 41
20 45 41
21 46 42
21 46 42
21 46 42
21 46 42
21 46 43
21 47 43
20 45 41
21 46 42
21 46 42
21 47 43
21 46 42
21 46 42
21 46 42
20 45 41
20 44 41
20 44 41
20 45 41
21 46 42
20 45 42
21 45 42
21 46 42
21 46 42
20 45 41
20 45 41
21 47 43
21 46 42
20 45 41
21 46 42
21 47 43
21 47 43
21 46 42
21 46 42
21 46 42
21 46 42
21 46 42
21 47 43
21 47 43
21 46 42
21 46 42
21 46 42
21 45 41
21 47 42
21 45 41
21 46 42
21 48 43
22 47 43
21 47 43
22 48 43
21 47 43
21 46 42
21 47 43
21 47 43
21 47 43
21 46 42
21 46 42
21 46 42
21 46 42
21 47 42
22 48 44
21 47 43
21 46 42
21 47 43
21 46 42
21 46 42
21 46 42
21 46 42
21 47 43
21 46 42
21 47 42
21 47 43
21 47 43
21 47 43
21 46 42
21 47 43
22 48 44
21 46 42
21 47 43
22 47 43
22 48 43
21 46 42
21 47 43
22 47 43
21 47 43
21 46 42
22 47 43
21 47 42
21 47 43
21 46 42
21 46 42
22 48 44
21 46 42
21 47 43
21 46 42
21 46 42
21 47 43
21 47 43
22 48 43
21 47 43
21 47 43
22 48 44
21 47 43
21 47 42
21 46 42
21 47 43
21 47 43
21 47 42
21 46 42
21 47 43
22 48 43
21 46 42
21 46 42
22 47 43
21 46 42
20 44 40
20 45 41
20 45 41
20 45 41
21 47 43
20 44 40
21 46 42
21 46 42
21 46 42
21 46 42
21 47 43
20 45 41
21 46 42
20 45 41
21 46 42
21 46 42
20 45 41
21 46 42
21 46 42
21 46 42
20 45 41
21 45 42
21 46 42
20 45 42
21 47 43
21 46 42
21 46 42
20 45 41
21 46 42
21 46 42
21 46 42
21 46 42
21 46 42
21 46 42
21 46 42
21 45 41
21 46 42
21 46 42
21 46 42
21 46 42
21 46 42
21 46 42
21 46 42
21 45 42
20 45 41
21 46 42
21 47 43
21 46 42
21 47 43
21 46 42
21 46 42
21 47 43
21 46 42
21 46 42
21 46 42
21 47 43
21 46 42
21 46 42
21 47 43
21 47 43
21 46 42
21 46 42
21 47 43
21 47 42
21 46 42
21 46 42
21 47 43
21 47 42
22 48 44
21 47 43
22 47 43
22 48 44
21 46 42
21 46 42
21 47 43
21 47 43
21 46 42
21 47 42
21 47 43
21 47 43
21 47 43
21 46 42
21 47 43
21 46 42
21 47 43
21 47 43
21 46 42
22 48 43
21 47 43
21 47 43
22 48 44
22 48 44
21 46 42
21 47 43
21 47 43
21 47 43
21 46 42
22 48 44
21 47 43
21 47 43
22 48 44
22 47 43
22 47 43
21 47 43
21 47 43
22 48 43
21 47 42
22 48 43
22 48 43
21 46 42
21 47 43
22 48 43
22 48 43
22 49 44
21 46 42
22 48 44
21 47 43
21 47 43
22 48 43
21 47 43
21 46 42
20 45 41
20 44 40
21 46 42
21 47 43
21 45 42
21 46 42
21 46 42
20 44 40
21 46 42
21 46 42
21 46 42
21 46 42
21 46 42
21 47 43
21 46 42
21 47 43
20 45 41
20 45 41
20 44 40
21 46 42
22 48 44
21 46 42
21 46 42
20 45 41
20 45 41
21 46 42
21 47 43
21 46 42
21 47 43
21 46 42
21 46 42
21 46 42
21 46 42
21 46 42
21 47 43
21 45 42
20 45 41
20 45 41
21 47 42
21 46 42
21 46 42
21 46 42
21 45 41
21 47 43
21 47 43
21 46 42
21 46 42
21 47 43
22 48 44
21 47 43
21 47 43
22 48 44
21 47 43
21 45 42
21 47 43
21 46 42
21 46 42
21 47 43
22 48 43
21 46 42
22 48 43
22 47 43
22 47 43
22 47 43
22 48 44
21 46 42
21 47 43
22 47 43
22 48 44
21 46 42
21 47 43
22 48 43
21 47 43
21 47 43
21 46 42
21 47 43
21 47 43
22 48 44
20 45 41
21 47 43
21 47 43
21 46 42
22 47 43
21 47 43
21 47 43
22 48 44
22 48 44
21 47 43
21 46 42
21 47 43
21 47 43
21 46 42
22 47 43
22 48 43
21 46 42
22 48 44
21 47 43
21 47 43
21 47 43
21 47 43
22 49 44
22 49 44
21 47 42
21 47 43
22 48 44
21 47 43
22 47 43
22 48 44
22 47 43
21 47 43
21 46 42
21 47 43
21 46 42
21 47 43
22 48 43
21 47 42
22 48 43
22 48 43
21 46 42
20 44 41
20 44 40
21 46 42
21 46 42
21 46 42
20 45 41
20 45 41
21 46 42
21 46 42
20 45 41
20 45 41
20 45 42
20 45 41
20 45 41
21 46 43
21 46 42
21 46 42
21 46 42
20 45 41
21 46 42
21 47 42
21 46 42
21 45 42
20 45 41
21 46 42
21 47 43
21 45 42
21 46 42
21 46 42
21 46 42
20 45 41
21 46 42
21 46 42
21 46 42
21 46 42
21 47 43
21 47 43
21 45 42
21 46 42
21 46 42
21 46 42
21 46 42
21 47 43
21 47 43
22 48 44
21 47 43
21 46 42
21 47 43
22 48 44
21 46 42
21 47 43
21 47 43
21 46 42
21 47 43
21 46 42
21 47 43
21 47 43
21 47 42
21 47 43
21 46 42
21 46 42
21 47 43
21 47 43
21 47 43
21 47 43
21 46 42
21 46 42
21 46 42
21 47 43
22 48 43
21 46 42
22 48 44
22 48 44
21 47 43
22 48 44
21 46 42
22 48 44
21 47 43
21 47 43
21 46 42
22 48 43
21 47 42
21 47 43
21 47 43
21 47 43
22 48 43
21 46 42
22 48 44
21 47 43
22 48 44
22 48 44
22 47 43
22 48 43
22 48 44
21 47 42
21 47 43
22 48 43
22 48 43
21 47 43
21 47 43
21 46 42
21 47 43
22 47 43
22 48 43
21 47 43
22 48 44
21 47 43
22 48 44
22 48 43
22 48 43
21 47 43
21 47 43
22 48 44
21 46 42
21 47 43
22 49 45
21 47 43
22 49 44
21 47 43
21 47 43
20 45 41
21 46 42
20 44 40
20 45 42
20 45 42
21 47 43
21 46 42
20 45 41
20 45 41
21 46 42
21 46 42
20 45 41
21 47 43
21 46 42
21 46 42
21 46 42
21 46 42
21 46 42
20 45 42
21 45 42
21 47 43
21 46 42
21 46 42
20 45 41
21 46 43
21 46 42
21 46 42
21 47 43
20 45 41
21 46 42
20 45 41
21 45 42
20 45 41
21 46 42
21 46 42
21 46 42
21 46 42
21 46 42
21 47 43
21 47 43
21 47 43
20 45 41
21 46 42
21 46 42
21 46 42
21 47 43
21 47 43
21 46 42
21 46 42
21 46 42
22 48 44
21 47 43
21 47 43
21 47 43
21 47 43
21 46 42
22 48 44
21 47 42
21 46 42
21 47 43
22 48 43
21 47 43
21 46 42
21 46 42
20 45 41
21 47 43
21 47 43
21 47 43
21 46 42
21 47 43
21 47 43
21 46 42
22 48 43
22 48 44
21 47 43
22 48 44
22 48 44
21 47 43
21 47 42
22 48 43
21 47 43
21 47 43
22 48 43
22 49 44
21 47 42
22 48 43
22 48 44
21 47 43
21 46 42
21 47 42
22 48 44
22 48 44
22 48 43
22 48 44
21 47 43
21 47 43
22 48 43
22 48 44
22 48 43
22 49 44
22 48 44
22 49 45
22 47 43
22 48 43
21 46 42
21 46 42
21 47 43
22 48 43
22 47 43
22 48 44
22 48 44
21 47 43
22 49 45
21 47 43
22 48 43
22 48 44
22 48 44
22 47 43
22 48 43
22 48 43
21 46 42
21 46 42
21 46 42
21 47 43
21 46 42
20 45 41
21 46 42
20 45 41
20 45 42
21 47 43
21 46 42
21 47 43
21 47 43
20 45 42
21 46 42
20 45 41
21 46 42
21 46 42
21 46 42
21 45 41
21 46 42
20 45 41
21 47 43
20 45 41
21 45 41
21 46 42
21 47 43
21 45 41
20 45 41
21 47 43
21 46 42
21 47 43
21 46 42
20 45 41
21 46 42
21 46 42
21 46 42
21 46 42
21 46 42
21 47 43
21 47 43
22 48 44
22 48 43
21 47 43
21 47 43
22 48 44
21 47 43
22 47 43
21 46 42
21 45 41
21 46 42
21 47 43
21 47 42
22 48 43
21 46 42
21 45 41
21 47 43
21 47 43
21 47 43
21 46 42
21 47 42
21 47 43
21 47 43
21 47 43
21 46 42
21 45 41
22 48 43
22 48 43
21 46 42
21 46 42
21 47 43
22 47 43
22 47 43
21 47 43
21 47 43
21 46 42
21 47 43
21 47 43
22 47 43
22 48 44
21 46 42
21 47 43
21 47 43
22 49 44
22 47 43
21 47 43
21 47 43
21 47 43
22 48 43
21 46 42
21 47 43
22 48 44
22 48 43
22 49 44
22 47 43
22 48 44
22 48 43
21 47 43
21 47 43
22 49 45
21 47 43
22 49 44
22 48 44
21 47 43
22 48 44
22 48 43
22 48 44
22 48 44
22 48 44
22 49 45
22 48 44
22 47 43
22 49 44
22 47 43
21 47 43
22 48 44
22 47 43
22 48 43
22 48 43
21 47 43
20 45 41
20 45 42
20 45 41
20 45 41
20 45 41
20 45 41
21 46 42
21 46 42
21 46 42
20 45 41
20 45 41
21 46 42
20 45 41
22 48 44
21 46 43
22 48 44
21 47 43
20 45 41
20 45 41
21 45 42
21 46 42
21 47 43
21 47 43
21 46 42
22 48 44
21 46 42
22 48 43
21 47 43
21 46 42
21 47 42
21 47 42
21 46 42
21 46 42
21 47 43
21 46 42
21 47 43
21 47 43
21 46 42
21 47 43
21 46 42
21 47 43
21 47 43
21 47 43
22 48 43
22 49 44
21 47 43
21 47 43
21 46 42
21 47 43
22 48 44
21 46 42
21 46 42
21 47 42
21 47 43
21 47 43
22 47 43
22 48 43
21 46 42
21 47 42
21 46 42
21 46 42
22 49 44
22 48 44
21 47 43
21 47 43
21 47 43
21 47 43
22 47 43
22 48 43
21 46 42
22 47 43
22 48 44
21 46 42
22 48 43
21 47 43
22 48 43
21 47 43
22 48 43
21 47 43
22 48 43
21 47 42
21 47 43
21 47 43
22 48 44
21 47 43
21 47 42
22 49 44
21 47 42
22 48 43
21 47 43
21 46 42
22 48 43
21 47 43
21 47 42
22 48 44
21 47 43
22 48 43
22 47 43
22 48 44
21 47 43
21 47 43
22 48 43
22 48 44
22 48 43
21 47 43
22 48 44
21 46 42
22 48 43
21 47 43
22 48 43
22 49 44
22 48 43
21 47 43
21 47 43
22 47 43
22 48 44
22 48 44
22 48 44
21 47 42
22 48 44
21 47 43
21 46 42
21 46 42
21 46 42
21 46 42
21 46 42
21 46 42
21 46 42
21 46 42
21 47 43
20 45 41
21 46 42
21 47 43
21 47 43
21 47 43
21 46 42
21 46 42
21 46 42
20 45 41
21 46 42
21 46 42
21 47 43
21 46 42
21 47 43
21 47 43
21 46 42
21 47 42
21 47 43
21 47 43
21 47 43
21 47 43
21 47 43
21 47 42
21 47 43
21 47 43
21 47 43
21 47 43
21 47 43
21 46 42
22 48 43
21 47 43
21 46 42
21 46 42
21 47 43
22 48 43
22 47 43
22 48 44
21 46 41
22 47 43
21 47 43
22 48 44
21 47 43
21 47 43
21 46 42
21 47 43
22 47 43
22 48 43
21 47 43
21 47 43
21 47 43
21 47 43
21 46 42
21 47 43
21 47 43
21 46 42
22 48 44
21 46 42
21 47 43
21 47 43
22 48 44
21 47 43
22 48 43
22 49 45
22 48 44
22 48 44
22 48 44
22 48 43
21 46 42
22 48 44
22 48 44
22 47 43
21 47 43
22 48 43
22 48 43
21 47 42
22 48 44
22 48 44
22 48 43
21 46 42
21 47 43
22 47 43
22 48 43
22 48 44
22 47 43
22 47 43
22 48 43
22 49 44
22 48 43
22 48 43
22 48 44
21 46 42
21 46 42
21 46 42
22 49 45
22 48 44
22 47 43
21 47 43
22 48 44
22 48 44
22 49 44
22 48 44
21 47 43
21 47 43
21 47 42
21 46 42
21 46 42
21 47 43
22 47 43
21 47 43
21 47 43
21 45 42
21 46 42
21 46 42
21 46 42
21 47 43
22 48 44
21 45 42
21 46 42
21 46 42
21 47 43
21 46 42
21 47 43
21 46 42
21 46 42
21 46 42
21 47 43
21 47 43
21 47 43
21 46 42
21 46 42
21 46 42
21 46 42
21 46 42
20 45 41
21 47 43
21 47 43
22 48 44
21 46 42
21 47 43
21 46 42
21 46 42
21 46 42
21 47 43
21 47 43
21 46 42
21 46 42
21 46 42
21 46 42
21 46 42
22 48 44
22 48 43
21 47 43
21 47 43
22 48 43
22 48 44
22 49 44
21 46 42
21 47 43
21 46 42
22 48 43
21 46 42
22 47 43
21 47 42
21 46 42
21 47 43
21 47 43
21 47 43
21 47 43
21 47 42
21 47 43
21 47 43
21 46 42
22 48 43
21 47 43
21 47 43
22 48 43
21 47 43
21 47 43
22 48 43
22 48 44
21 47 43
22 49 45
22 47 43
21 47 43
21 47 43
22 48 43
22 48 44
22 48 44
22 48 44
22 48 43
21 47 43
22 49 44
22 48 44
21 47 43
21 47 43
21 47 42
23 50 45
22 48 44
21 47 43
21 47 43
22 47 43
22 48 44
22 48 43
22 49 44
23 50 45
22 47 43
22 47 43
22 47 43
22 47 43
22 48 44
21 47 43
22 48 43
21 47 43
21 47 43
21 46 42
22 49 44
22 49 44
21 46 42
22 48 44
22 48 44
21 47 43
22 48 44
22 47 43
22 48 44
22 49 44
22 48 44
22 48 43
22 48 43
21 47 43
22 47 43
21 46 42
21 46 42
21 45 42
21 46 43
21 46 42
20 45 41
21 47 42
21 45 42
21 46 42
21 46 42
21 47 43
21 47 43
21 47 43
21 46 42
21 46 42
21 46 42
21 47 43
21 46 42
22 48 44
21 47 43
21 46 42
21 47 43
21 46 42
21 47 43
21 45 42
21 46 42
22 48 43
21 47 42
21 47 42
21 46 42
21 46 42
21 47 43
21 47 43
21 47 43
21 47 43
21 46 42
21 47 43
21 47 43
21 47 43
21 47 43
21 47 43
22 47 43
21 46 42
22 49 44
21 46 42
21 47 43
21 46 42
21 46 42
21 47 42
21 47 43
22 48 43
21 47 42
22 48 43
21 47 43
22 48 44
22 47 43
22 48 43
21 46 42
22 48 43
22 48 43
22 48 44
21 47 43
21 46 42
21 47 43
21 47 43
22 48 43
22 48 44
21 47 42
21 47 43
22 48 43
22 48 44
21 47 43
22 48 44
21 47 42
22 48 44
22 49 44
22 48 43
22 48 44
22 48 44
21 47 43
22 48 43
21 47 43
22 47 43
22 48 43
22 48 44
21 47 43
22 48 44
22 48 44
22 48 43
21 47 43
22 49 44
22 48 44
21 46 42
22 48 43
22 48 44
22 47 43
21 46 42
22 48 43
22 49 44
22 48 43
22 48 44
22 49 45
22 48 43
22 48 44
22 48 43
22 48 43
22 48 44
22 48 43
22 48 44
22 47 43
22 48 43
22 49 44
21 47 43
22 48 44
22 48 44
22 48 44
22 48 43
21 47 43
21 47 42
22 47 43
21 46 43
21 46 43
21 46 42
21 46 42
20 45 41
20 45 41
21 46 42
21 46 42
21 46 42
21 47 43
21 46 42
21 46 42
21 46 42
21 47 43
21 46 42
21 46 42
21 45 41
21 46 42
21 47 43
21 46 42
21 46 42
21 46 42
21 46 42
21 47 43
21 46 42
21 47 43
22 48 44
21 46 42
21 46 42
21 46 42
21 46 42
21 47 43
21 46 42
21 46 42
21 46 42
21 46 42
21 46 42
22 48 44
21 47 43
21 47 43
21 47 43
21 47 43
21 46 42
21 46 42
22 48 44
21 46 42
22 48 44
22 48 44
21 46 42
22 48 44
21 46 42
21 47 43
22 49 45
22 48 44
22 48 43
22 48 44
21 47 43
21 47 43
21 47 43
21 47 42
21 47 43
22 49 45
22 48 44
22 48 44
22 48 43
21 47 43
21 46 42
22 48 43
22 48 44
22 48 44
21 47 43
21 47 43
22 48 44
21 47 43
22 48 43
22 47 43
22 47 43
21 47 43
22 49 45
22 48 43
21 47 42
21 47 43
22 48 44
22 48 44
22 48 43
21 47 43
22 49 45
22 48 43
22 48 44
22 48 43
22 49 44
22 47 43
21 47 43
22 48 43
22 48 44
22 47 43
22 48 44
22 49 44
22 48 44
22 48 44
22 47 43
22 48 43
22 48 43
22 48 43
22 49 44
22 48 43
22 48 43
22 47 43
21 47 42
22 47 43
22 48 44
22 48 43
21 47 42
22 48 44
22 48 43
22 47 43
21 47 43
22 48 44
22 47 43
22 49 44
21 47 43
20 45 41
21 46 42
21 46 42
21 45 42
21 47 43
21 47 42
20 45 41
20 45 41
20 45 41
21 47 42
21 47 43
21 46 42
21 47 43
21 46 42
21 45 41
21 45 41
21 47 43
22 47 43
21 47 43
21 47 43
21 46 42
20 45 41
21 46 42
21 46 42
21 46 42
20 45 41
22 48 43
21 46 42
21 47 43
21 47 43
21 47 43
21 47 42
21 47 43
21 47 43
21 46 42
21 47 42
21 46 42
21 46 42
21 46 42
22 48 43
21 46 42
21 46 42
22 48 43
21 46 42
21 47 43
22 47 43
22 48 44
21 46 42
21 47 43
21 47 43
22 49 44
22 48 44
21 46 42
22 48 44
22 48 44
22 48 43
22 48 44
22 48 44
22 48 43
22 47 43
21 47 43
22 49 44
21 47 43
22 47 43
21 46 42
21 47 43
21 46 42
22 48 44
22 47 43
22 48 43
22 48 44
21 47 43
22 47 43
22 48 44
21 47 43
22 48 43
22 48 43
21 47 43
22 48 43
22 48 43
22 48 43
22 47 43
21 47 43
22 48 44
22 48 43
22 49 44
22 48 44
22 48 43
22 49 44
22 48 44
22 48 44
22 48 44
22 47 43
22 48 44
22 47 43
22 49 44
22 48 44
22 48 43
22 48 44
22 48 43
22 47 43
22 48 44
22 48 43
22 48 43
22 49 45
22 47 43
22 49 45
22 47 43
22 48 43
22 47 43
21 47 42
22 48 44
22 49 44
22 48 44
21 47 43
22 49 44
22 48 44
22 48 43
22 47 43
21 46 42
20 45 41
21 46 42
21 46 42
21 46 42
21 46 42
20 45 41
21 46 42
21 46 42
21 47 43
21 46 42
20 45 41
21 46 42
21 47 43
21 46 42
21 47 42
20 45 41
21 47 43
21 46 42
22 48 43
21 47 43
21 47 43
21 46 42
21 47 43
21 47 43
21 47 43
21 46 42
21 46 42
21 46 42
21 46 42
21 47 43
21 47 43
21 46 42
21 47 43
21 46 42
21 46 42
21 47 43
21 46 42
22 48 44
22 47 43
21 47 43
22 47 43
21 46 42
21 47 43
21 47 43
21 47 42
21 47 42
21 47 42
21 46 42
21 47 42
21 47 43
21 46 42
21 47 43
21 47 43
21 47 42
21 46 42
22 48 44
21 46 42
21 47 43
21 47 42
22 48 44
22 47 43
21 47 43
22 48 43
22 48 44
21 46 42
22 49 44
22 47 43
22 48 43
21 47 43
22 48 43
22 48 43
21 47 43
22 48 43
22 49 45
22 49 44
21 47 43
22 48 44
22 47 43
22 48 44
22 47 43
21 47 42
21 47 43
22 49 44
22 48 43
22 47 43
21 47 43
22 48 44
21 47 43
22 48 43
22 48 44
22 48 44
22 48 44
22 49 44
22 49 45
21 47 42
22 49 45
22 48 44
22 48 44
22 49 44
22 48 44
22 47 43
22 48 43
21 47 43
22 48 44
22 49 44
22 49 44
22 49 44
21 46 42
22 48 43
22 48 44
22 48 43
22 47 43
22 48 44
23 50 45
22 49 44
22 48 43
22 47 43
22 48 43
22 48 43
21 46 42
21 47 43
21 46 42
21 47 43
21 46 42
21 47 42
21 46 42
21 46 42
22 48 44
21 46 42
22 47 43
21 46 42
21 46 42
21 47 43
21 46 42
21 46 42
20 45 41
21 47 43
21 47 42
22 48 44
21 46 42
21 47 43
22 48 44
21 46 42
21 46 42
22 48 43
21 47 43
21 47 42
21 47 43
21 45 41
21 47 43
21 47 43
21 46 42
21 47 43
21 46 42
21 47 43
21 47 43
22 48 44
22 48 44
22 48 44
23 50 46
21 46 42
22 47 43
21 46 42
22 48 43
21 46 42
22 48 43
22 48 43
21 46 42
22 48 44
21 47 43
21 47 43
21 47 43
21 47 43
22 48 43
21 47 43
21 47 43
22 48 44
22 48 44
21 46 42
21 47 43
21 47 43
22 49 44
21 47 43
22 48 44
22 48 44
21 47 42
22 48 43
22 49 44
21 47 42
21 47 43
21 47 43
21 47 43
22 48 44
22 49 44
22 47 43
22 48 44
22 48 44
23 50 46
22 48 43
22 48 44
22 48 44
22 48 44
21 47 43
22 49 44
22 48 44
21 47 43
22 48 43
21 47 42
21 47 43
21 47 43
22 49 44
22 48 44
22 48 43
22 47 43
21 47 43
23 50 45
22 49 44
22 48 43
22 49 44
22 49 44
22 48 43
22 48 44
22 48 44
22 48 44
22 48 44
21 47 43
22 48 44
23 49 45
21 47 43
22 48 44
21 47 43
22 48 44
22 49 44
22 47 43
22 48 44
22 49 44
22 48 43
22 49 44
22 48 44
20 45 41
21 46 42
21 46 42
21 46 42
21 47 43
21 46 42
21 47 43
21 47 43
21 47 43
21 46 42
21 47 43
22 48 44
21 46 42
21 46 42
21 46 42
21 45 41
21 47 43
21 47 43
21 47 43
21 47 43
22 48 44
21 47 42
22 48 43
21 46 42
21 46 42
21 46 42
21 47 43
21 47 43
21 46 42
21 47 43
22 48 44
21 46 42
22 48 44
21 46 42
22 48 43
21 47 43
21 47 43
21 47 43
21 46 42
22 48 43
22 48 43
21 47 43
21 47 43
21 47 43
21 47 43
21 47 43
21 47 43
21 47 43
21 47 43
22 48 43
21 47 43
22 48 43
21 47 42
21 46 42
22 47 43
21 46 42
21 47 42
21 46 42
21 47 42
21 45 41
22 48 43
22 48 44
22 48 43
22 48 44
22 48 44
22 48 44
22 49 44
22 48 44
21 47 43
21 47 43
22 48 44
22 47 43
22 48 44
22 48 43
22 48 44
22 48 43
22 47 43
21 47 43
21 47 43
22 48 43
22 48 44
22 48 43
21 47 43
22 48 44
22 48 44
22 49 44
22 49 44
22 48 43
22 47 43
22 48 44
22 49 45
22 48 43
21 47 43
21 47 43
22 49 44
22 48 43
21 46 42
22 48 43
21 47 43
22 48 43
23 50 45
22 48 43
22 48 44
22 48 44
22 48 44
21 47 42
22 48 44
22 48 44
22 48 44
23 50 45
22 48 43
22 49 44
22 49 44
22 48 43
22 48 44
22 48 44
22 48 44
22 47 43
22 48 43
22 47 43
21 47 43
22 48 44
21 46 42
21 47 43
21 47 42
22 48 43
21 47 43
21 46 42
21 46 42
21 46 42
21 47 43
20 45 41
21 46 42
21 46 42
21 47 43
21 47 42
22 48 44
21 46 42
21 46 42
21 46 42
21 47 42
21 47 43
21 46 42
21 47 43
21 47 42
21 47 43
21 46 42
21 46 42
21 46 42
21 47 43
21 47 43
22 48 43
22 48 44
21 45 41
21 46 42
21 47 43
21 46 42
21 47 43
21 47 42
21 46 42
21 47 43
21 46 42
21 47 43
22 48 43
21 47 43
22 49 44
22 48 44
21 47 43
22 48 44
21 47 42
21 47 43
21 46 42
21 47 43
21 47 43
22 48 43
22 48 44
21 47 43
22 47 43
22 47 43
22 48 44
22 48 44
22 49 44
22 49 44
22 48 44
21 47 43
22 49 44
22 48 43
23 50 45
22 48 43
22 48 44
22 48 44
22 49 44
22 49 44
22 49 44
21 47 43
22 49 44
22 48 43
21 47 43
22 48 44
22 48 43
22 48 43
22 48 44
22 48 44
22 48 44
22 48 43
22 48 44
22 49 44
21 47 43
22 48 44
22 49 44
22 48 43
22 48 43
22 48 43
22 48 44
22 47 43
22 48 44
23 50 45
21 47 43
51 63 57
139 129 118
185 167 152
198 178 163
95 90 84
29 46 44
23 49 45
22 48 43
23 49 45
22 48 43
22 48 44
22 48 43
22 49 44
22 47 43
22 49 45
22 48 43
22 48 43
22 48 43
21 47 43
22 48 44
22 47 43
21 47 42
21 46 42
21 46 42
21 47 43
21 46 42
20 45 41
21 46 42
21 47 43
20 45 41
21 45 41
21 46 42
21 47 43
22 48 44
21 47 43
21 47 43
21 46 42
21 47 42
21 47 43
22 48 44
22 48 43
21 47 43
21 47 42
21 47 43
21 46 42
21 47 43
22 47 43
21 46 42
21 46 42
21 46 42
21 47 43
21 47 43
21 47 43
21 46 42
22 48 43
21 46 42
21 46 42
21 46 42
21 47 43
21 46 42
21 46 42
22 48 44
21 47 43
22 47 43
22 48 43
21 47 43
21 47 43
21 47 42
21 47 43
21 47 43
22 48 43
22 48 44
22 48 44
22 48 43
22 48 44
22 48 43
22 49 45
22 49 44
21 47 43
22 48 44
21 47 42
22 47 43
22 48 44
22 49 45
22 48 43
21 47 43
22 48 44
21 47 43
23 50 46
22 48 43
22 49 44
22 48 44
22 48 43
22 48 43
22 49 45
22 49 44
22 48 44
22 47 43
22 48 44
22 47 43
22 49 44
22 49 44
22 48 43
22 49 45
22 48 44
22 48 44
22 47 43
22 49 44
22 48 44
22 48 43
22 49 44
22 48 43
22 48 43
22 49 45
22 48 43
22 48 43
22 49 44
22 48 44
22 47 43
114 108 99
208 187 171
228 204 187
234 209 192
239 214 195
116 106 99
41 43 47
39 44 47
28 47 45
23 50 45
22 48 44
22 49 44
22 48 43
22 49 44
22 49 45
23 50 45
22 49 44
22 49 44
22 47 43
22 49 44
22 48 44
22 48 44
22 48 44
21 47 43
21 47 43
20 45 41
21 46 42
21 46 42
21 46 42
21 46 42
21 46 42
20 45 41
21 47 43
21 47 42
21 47 42
21 46 42
22 48 44
21 46 42
22 48 44
21 47 43
21 46 42
21 46 42
21 46 42
21 47 43
21 46 42
21 47 43
21 47 43
20 45 41
21 46 42
22 48 43
21 46 42
22 48 43
22 48 43
21 47 42
21 47 43
21 47 42
21 47 42
21 46 42
22 48 44
22 48 43
22 48 43
21 47 43
21 46 42
21 47 43
22 48 44
21 46 42
22 48 43
22 48 44
21 47 43
22 49 44
22 48 43
21 47 43
21 47 43
21 47 42
22 48 44
21 47 43
22 48 43
21 47 43
22 48 43
21 47 43
21 46 42
21 47 43
21 46 42
22 48 44
22 49 44
22 49 44
22 48 43
22 49 44
22 47 43
22 49 45
22 48 44
21 46 42
22 49 44
22 49 44
22 47 43
22 48 43
22 47 43
22 48 43
22 48 44
22 48 44
22 48 43
22 48 44
22 49 44
22 48 43
22 48 43
22 48 44
21 47 43
22 47 43
22 49 44
21 47 43
22 49 44
22 48 44
23 50 45
22 49 44
22 48 43
22 49 44
22 48 43
22 48 43
22 47 43
104 100 92
199 179 165
220 197 181
227 204 187
234 209 192
237 212 194
69 66 65
41 44 47
41 44 47
41 43 46
29 45 43
22 49 45
23 50 45
22 49 44
22 48 43
22 48 43
23 50 45
22 47 43
22 49 44
21 47 42
22 48 43
22 47 43
22 48 44
22 48 44
21 46 42
21 47 42
21 47 43
21 46 42
21 47 43
21 46 42
21 46 42
21 46 42
21 45 41
21 47 43
21 46 42
22 48 43
22 48 43
21 47 43
21 47 43
21 47 43
21 46 42
21 47 43
21 47 43
21 47 42
21 47 43
22 48 44
21 47 43
22 48 44
22 48 44
21 47 42
22 48 44
21 47 43
21 46 42
22 48 44
21 47 43
21 47 43
21 46 42
21 46 42
21 47 43
21 47 42
21 47 43
23 50 46
21 47 43
21 47 43
21 47 43
22 48 43
21 47 43
22 48 43
21 47 43
21 47 43
22 48 43
22 49 44
22 47 43
21 47 43
21 47 43
22 48 43
21 47 43
22 49 44
22 48 43
22 48 44
22 48 43
22 48 43
22 48 44
22 48 43
21 47 42
22 48 44
22 48 44
22 48 44
21 47 42
22 48 43
21 47 43
22 48 43
22 48 44
22 47 43
22 48 44
22 48 43
22 48 44
22 48 44
22 48 44
23 51 46
22 48 43
22 48 44
22 47 43
22 47 43
21 47 42
22 48 43
22 48 43
21 47 42
22 48 44
22 48 44
22 48 44
22 48 44
22 47 43
22 48 44
22 48 43
22 48 44
22 48 44
22 47 43
22 48 44
52 63 58
168 153 142
206 185 170
220 197 181
226 202 186
232 207 190
199 178 163
103 97 87
88 84 76
42 44 48
41 43 47
39 42 44
24 47 44
22 48 44
22 48 43
22 48 44
22 47 43
22 48 43
22 48 43
22 47 43
22 48 44
23 50 45
22 48 44
23 49 44
22 47 43
20 45 41
21 47 43
22 48 43
21 46 42
21 46 42
21 46 42
21 46 42
21 47 43
21 46 42
21 46 42
21 47 42
21 46 42
21 47 43
20 45 41
21 46 42
21 46 42
21 46 42
21 47 43
21 46 42
21 46 42
21 47 43
21 47 43
20 45 41
21 47 43
21 46 42
21 46 42
22 49 44
22 48 43
22 47 43
22 48 44
21 47 43
21 47 43
22 47 43
21 47 43
21 47 43
21 47 42
21 47 43
21 47 43
22 49 44
22 47 43
21 46 42
21 46 42
22 48 44
21 45 41
21 47 43
22 48 44
22 48 43
22 49 44
22 48 43
22 48 44
22 48 43
21 47 43
22 47 43
22 48 43
22 47 43
21 46 41
21 47 43
21 47 43
21 46 42
22 49 45
22 47 43
21 46 42
22 48 43
21 47 43
22 48 44
21 47 42
21 47 42
22 48 43
21 47 42
22 48 44
22 49 45
22 48 43
22 49 45
21 47 43
22 49 44
22 49 44
22 48 44
22 47 43
22 47 43
21 46 42
21 47 43
21 47 43
22 48 43
22 48 44
22 47 43
22 49 44
21 46 42
22 49 44
22 48 43
22 48 44
22 47 43
23 49 45
22 49 44
23 49 45
22 48 44
107 103 95
173 157 145
201 181 167
212 190 174
224 200 183
229 204 186
102 93 87
123 115 101
131 123 107
47 49 50
40 42 45
39 41 44
71 70 65
22 48 44
22 49 45
23 50 45
22 48 43
22 49 44
22 48 44
22 48 44
22 49 44
22 49 44
22 47 43
22 48 43
21 47 42
21 46 42
21 47 43
21 47 43
21 46 42
21 46 42
21 47 43
21 47 43
21 47 42
21 46 42
21 47 43
21 46 42
22 48 43
21 46 42
21 47 43
21 47 43
21 47 43
21 47 43
22 48 44
21 47 43
21 47 42
21 47 43
21 47 43
21 47 43
22 47 43
21 47 43
22 47 43
21 47 43
21 47 43
21 47 43
21 47 43
21 47 43
22 48 44
22 48 43
21 46 42
22 49 44
21 47 42
22 48 43
21 47 43
22 48 43
22 48 43
22 49 44
21 46 42
22 49 45
21 46 42
21 47 43
21 47 43
22 48 44
22 48 43
22 47 43
22 48 44
22 48 44
22 48 43
22 48 43
22 48 43
22 49 44
22 47 43
21 47 43
21 47 43
22 47 43
22 49 44
22 49 44
21 47 43
22 47 43
22 48 43
22 48 44
22 49 45
22 48 44
22 48 44
22 48 44
22 48 43
22 48 44
22 49 45
22 48 44
22 49 45
22 48 43
22 49 44
21 47 43
22 49 44
22 49 45
22 49 44
22 47 43
21 47 43
22 49 44
22 49 44
22 47 43
22 49 44
22 48 43
22 48 43
21 47 42
22 48 44
22 49 44
22 48 43
22 48 44
22 49 45
22 49 44
112 106 99
154 141 130
188 169 155
199 178 163
214 191 174
175 157 143
38 40 44
44 45 47
49 49 50
40 42 45
39 41 44
37 39 42
149 131 117
22 48 44
22 47 43
22 48 43
22 48 44
22 49 44
22 48 43
22 48 43
22 49 44
22 47 43
22 48 43
22 48 44
23 49 44
21 47 42
21 46 42
21 47 43
21 46 42
21 46 42
21 47 43
21 47 43
21 47 43
21 46 42
21 47 42
21 47 43
22 48 44
21 47 43
21 47 43
22 48 44
21 46 42
21 47 43
22 47 43
21 47 43
21 47 43
21 46 41
21 47 43
21 47 43
21 47 43
22 48 44
22 48 44
21 47 42
21 46 42
22 48 43
22 48 44
22 48 44
21 47 43
22 47 43
21 47 43
21 47 43
22 47 43
21 47 43
22 47 43
22 48 43
21 47 43
22 48 44
22 48 43
21 46 42
22 48 44
21 47 42
21 46 42
21 47 43
22 47 43
22 47 43
21 47 43
22 48 44
22 47 43
22 47 43
22 48 44
22 48 44
22 48 44
22 49 45
22 48 43
22 48 43
21 47 42
21 47 43
22 49 44
22 47 43
21 47 43
21 45 41
22 48 43
22 48 44
21 47 43
22 48 43
22 48 44
22 48 43
22 48 43
22 48 43
22 48 43
22 48 44
22 48 44
23 49 45
22 48 43
22 49 44
22 48 44
22 47 43
21 46 42
23 49 45
21 47 43
22 48 44
22 49 44
21 47 43
23 50 45
21 47 42
22 48 43
22 48 44
22 49 44
22 47 43
22 49 44
22 48 43
113 106 98
140 128 119
161 145 133
186 167 153
181 162 146
63 59 58
102 93 86
110 98 90
57 55 54
36 38 41
36 38 41
35 37 39
180 157 138
26 49 45
22 48 44
22 47 43
22 47 43
22 48 43
22 48 43
22 47 43
22 47 43
22 47 43
22 48 43
22 47 43
22 48 44
21 46 42
21 47 43
21 47 43
21 46 42
21 46 42
22 47 43
21 47 43
22 48 43
21 47 43
21 46 42
21 47 43
21 47 43
21 47 43
22 48 43
21 47 42
21 47 43
21 47 43
21 47 43
21 47 43
21 47 42
21 47 43
21 47 43
22 48 43
22 47 43
21 46 42
21 47 43
22 47 43
22 48 44
22 47 43
21 46 42
22 47 43
21 47 43
22 48 44
22 48 44
22 48 44
22 48 44
22 48 44
22 48 44
21 47 43
22 49 45
22 48 43
22 48 44
21 47 43
22 47 43
22 48 43
22 47 43
22 48 44
22 48 43
22 48 44
22 48 43
22 48 44
22 49 45
21 47 43
21 46 42
22 49 44
22 48 43
21 47 42
22 49 44
22 47 43
21 47 43
22 49 45
22 49 45
22 48 44
22 48 43
22 49 44
22 48 43
23 50 45
22 48 44
22 48 44
22 48 43
22 48 43
22 47 43
22 48 44
22 48 44
22 48 43
21 47 43
22 48 43
22 48 43
22 49 44
22 48 44
22 49 44
22 48 43
22 49 44
22 49 44
22 48 44
22 49 44
22 48 43
22 48 43
22 49 44
22 47 43
22 48 44
22 49 45
22 48 44
22 48 44
21 45 41
95 91 84
107 100 92
135 123 113
163 147 134
81 74 68
132 118 106
161 143 129
156 137 122
149 131 117
70 64 60
32 34 36
114 101 91
177 153 135
22 48 43
22 49 44
22 49 44
22 48 43
22 49 44
22 47 42
22 48 43
22 48 43
22 48 43
22 48 43
22 48 43
22 48 44
21 46 42
21 47 43
21 47 43
22 48 44
21 47 43
21 47 43
21 46 42
22 47 43
21 46 42
21 46 42
21 47 43
21 46 42
21 45 41
21 47 43
21 46 42
21 46 42
22 47 43
21 47 43
21 47 43
21 46 42
21 47 43
22 47 43
22 47 43
22 48 44
21 47 43
21 46 42
21 47 43
22 49 44
21 47 43
22 48 43
22 47 43
21 47 43
22 48 44
22 48 44
22 48 43
21 47 42
22 48 44
22 48 44
22 49 44
21 47 43
22 48 43
22 48 43
22 48 44
21 47 43
21 47 43
22 48 43
22 48 43
23 50 45
21 47 42
22 49 44
22 48 43
21 47 43
22 47 43
21 47 43
22 48 43
22 48 44
22 48 43
22 48 44
22 48 44
22 48 44
23 50 45
22 48 43
22 49 44
22 49 44
22 48 43
22 49 44
22 48 44
22 48 44
22 47 43
22 49 44
22 48 44
22 49 44
22 48 44
22 49 44
21 47 43
22 48 43
22 48 44
22 48 44
22 49 45
22 48 44
22 48 43
22 48 44
22 48 43
21 47 42
22 49 44
22 47 43
22 47 43
22 49 44
22 48 43
21 47 42
22 48 43
21 46 42
20 44 40
20 43 39
18 41 37
68 69 63
99 93 85
105 98 90
64 60 56
77 70 64
140 125 112
127 113 101
167 147 131
180 159 142
107 95 85
36 36 36
153 135 118
140 124 109
21 46 41
22 48 43
22 48 43
22 47 43
22 48 43
22 48 43
22 49 44
22 48 43
22 48 43
22 47 43
22 48 43
23 49 45
21 46 42
21 47 43
21 47 42
21 46 42
21 47 43
22 48 44
21 47 43
21 46 42
21 46 42
21 47 43
21 46 42
21 47 43
21 46 42
21 46 42
21 47 43
21 47 43
21 47 43
21 47 43
21 47 43
21 47 42
22 48 43
22 48 44
21 46 42
21 46 42
21 47 43
21 47 42
22 48 44
22 48 44
21 47 43
22 48 43
22 49 44
22 48 44
22 48 43
21 47 42
22 48 44
22 48 44
22 48 44
22 49 44
21 47 42
22 48 44
22 48 43
22 49 44
21 47 43
21 47 43
21 47 43
22 49 45
22 49 44
22 48 44
21 47 43
22 48 43
21 47 42
22 48 44
22 48 43
21 47 43
22 48 44
22 48 43
21 46 42
22 49 45
22 48 44
22 48 44
22 49 44
22 48 44
23 50 45
22 48 44
22 49 45
22 48 43
22 48 43
22 48 44
21 47 43
22 49 44
22 49 44
22 48 44
22 49 44
22 49 44
22 48 44
21 47 43
22 49 44
22 48 43
22 48 44
22 49 45
22 49 44
22 48 44
22 49 44
22 48 43
22 47 43
22 47 43
22 48 43
22 49 44
21 47 42
22 47 43
22 48 43
20 45 41
18 40 37
16 37 35
15 34 33
23 36 34
62 60 54
26 27 26
15 18 19
58 53 49
117 106 95
119 107 95
83 74 65
142 126 111
103 92 82
99 87 76
134 118 103
82 80 70
21 47 42
22 47 43
22 47 43
22 49 44
22 49 44
21 46 42
22 49 44
22 48 43
23 49 45
23 49 45
22 48 44
23 49 44
21 47 43
22 48 44
21 47 43
21 47 43
21 46 42
21 46 42
21 47 43
21 47 43
21 46 42
21 46 42
21 46 42
22 48 44
22 47 43
21 47 43
22 49 44
21 47 43
21 46 42
21 47 42
22 47 43
21 47 43
21 47 43
21 47 43
22 48 43
21 47 43
21 46 42
22 49 44
21 47 43
22 48 44
22 48 44
21 47 43
21 47 43
21 47 43
22 48 44
21 46 42
22 49 44
22 48 43
22 48 43
22 48 43
22 49 45
21 47 43
22 48 43
22 47 43
22 47 43
22 49 44
22 48 44
22 48 43
22 48 44
22 47 43
22 47 43
22 48 44
21 47 43
21 47 43
22 48 43
23 50 46
23 49 45
22 48 44
22 49 44
22 48 44
22 48 44
21 47 43
21 46 42
22 48 44
22 48 44
22 48 44
22 49 44
22 48 44
22 48 43
22 49 45
22 47 43
22 48 43
22 48 44
22 48 44
22 48 44
21 47 43
22 48 44
22 47 43
22 48 44
22 49 44
22 48 43
22 48 43
21 47 42
22 49 44
22 48 43
22 49 44
21 47 42
22 49 44
22 47 43
22 48 43
21 47 42
22 48 43
21 46 42
19 42 39
17 38 36
14 33 32
13 30 28
13 30 29
11 22 22
10 12 13
11 13 14
23 23 23
70 66 59
88 81 71
96 87 75
82 74 64
72 65 56
104 93 80
73 70 59
25 48 43
21 46 41
22 47 42
21 46 41
23 50 45
22 48 43
22 49 44
22 49 44
22 48 43
22 48 44
22 48 43
23 50 45
22 48 43
21 47 43
21 46 42
21 46 42
21 47 43
21 47 42
21 47 43
21 47 43
21 46 42
21 47 43
21 47 42
21 47 43
21 46 42
22 48 44
21 47 42
21 47 43
22 48 44
21 46 42
22 48 44
22 48 44
21 47 43
22 48 44
21 47 43
21 47 43
21 47 43
21 47 43
21 47 43
21 46 42
22 48 43
21 47 43
21 46 42
22 48 43
21 47 43
21 47 43
21 46 42
21 47 43
22 49 44
21 47 43
22 48 44
22 48 44
22 48 44
22 48 44
22 47 43
22 48 44
21 47 43
22 48 44
21 47 43
22 48 43
21 46 42
22 48 44
22 48 43
22 47 43
22 48 44
22 49 45
22 49 45
22 49 44
21 47 43
22 48 43
22 49 45
22 48 43
22 47 43
22 48 44
21 46 42
21 47 42
22 48 44
23 50 45
22 48 44
22 49 44
23 49 45
22 48 44
22 49 44
22 48 44
22 48 43
23 49 45
22 49 45
22 48 44
22 49 44
23 50 45
22 48 43
22 49 44
22 48 44
22 48 43
22 47 43
22 49 44
22 48 43
22 47 43
22 49 44
22 49 44
22 48 44
22 48 43
21 46 42
21 46 42
20 44 40
16 37 35
14 31 30
12 28 27
12 27 26
11 26 25
7 17 16
5 7 7
7 9 8
9 11 10
24 25 21
34 32 27
23 24 19
58 55 43
50 52 43
21 43 38
21 46 41
21 46 41
22 48 43
21 46 42
23 49 44
22 47 42
22 47 43
23 51 46
22 48 44
22 47 43
22 48 43
22 48 43
23 49 44
21 47 43
21 47 43
21 47 42
21 47 43
21 46 42
21 46 42
21 47 43
22 47 43
21 47 43
21 47 43
21 46 41
21 46 42
22 48 44
21 46 42
21 46 42
21 47 43
22 47 43
21 46 42
21 47 43
22 48 43
21 46 42
22 49 44
22 48 43
21 47 42
22 48 44
21 46 42
21 46 42
22 48 43
22 48 43
22 48 44
22 49 44
22 48 43
21 46 41
22 49 45
22 49 44
21 47 43
22 48 44
22 48 43
21 47 43
22 48 43
21 47 42
22 48 43
22 48 44
22 47 43
22 48 44
21 47 43
22 48 44
22 48 44
22 47 43
22 47 43
22 49 45
23 49 45
23 49 45
22 48 43
22 48 44
21 47 43
22 48 44
21 47 43
22 49 44
22 48 43
22 47 43
22 49 44
22 49 44
22 48 44
22 48 43
22 48 43
22 48 44
22 48 44
22 48 44
22 48 43
22 48 44
22 49 44
22 49 44
22 48 44
22 49 44
23 50 45
22 48 44
22 48 44
22 48 43
23 50 45
22 48 44
22 48 43
23 49 45
22 48 44
22 48 43
22 47 43
22 47 43
22 48 43
22 48 43
22 48 43
22 47 42
21 46 41
20 44 40
17 37 34
14 31 29
12 28 27
11 26 25
9 21 20
8 19 18
4 8 8
5 8 7
6 8 7
19 20 15
32 34 25
22 29 24
18 36 32
20 43 38
21 46 40
21 46 41
21 46 41
21 45 41
23 49 44
22 48 43
22 48 44
23 49 44
22 47 43
22 48 43
23 49 44
22 47 43
22 48 43
21 47 43
21 46 42
21 47 42
21 46 42
21 47 43
22 48 44
22 48 44
22 48 44
21 47 42
22 48 44
21 46 42
21 47 43
21 46 42
21 46 42
21 47 42
21 47 43
22 49 45
22 48 43
21 47 43
21 47 42
22 48 44
21 46 42
22 48 44
21 46 42
22 48 44
21 47 43
22 48 44
21 47 43
21 46 42
21 47 43
22 48 43
22 49 44
21 47 43
22 48 43
21 47 43
22 49 44
22 48 43
22 48 44
22 47 43
21 47 43
22 48 44
22 48 43
22 48 43
22 48 43
22 47 43
21 47 43
22 48 43
22 48 44
22 48 44
21 47 43
22 48 44
22 49 44
22 48 44
22 48 44
22 49 44
22 47 43
22 49 44
22 48 43
22 48 44
22 48 44
22 48 44
22 48 44
22 48 43
22 47 43
22 49 44
22 48 44
22 49 44
22 48 44
22 48 43
22 49 44
22 48 44
21 47 43
22 48 44
22 48 44
22 49 44
21 47 43
22 49 44
22 49 44
22 48 44
23 49 45
23 50 45
22 49 44
22 49 44
22 48 43
22 49 44
22 48 43
22 49 44
22 48 44
22 47 43
21 47 42
22 48 43
22 47 43
21 46 41
21 46 42
20 43 39
17 38 35
14 32 30
13 29 27
10 24 22
9 20 19
7 17 16
8 17 16
9 20 18
11 24 21
15 33 29
20 42 37
21 45 40
21 45 40
21 46 41
22 47 42
22 47 42
22 48 43
21 47 42
22 48 43
22 48 43
21 46 41
23 50 45
23 50 45
22 49 44
22 49 44
22 48 44
21 47 43
21 47 43
21 47 43
21 47 43
22 47 43
21 46 42
21 46 42
22 47 43
21 47 43
21 47 43
21 47 43
21 46 42
22 48 43
21 47 43
21 47 43
21 47 43
21 47 43
22 48 44
22 48 43
22 47 43
22 48 44
21 47 43
22 49 44
21 47 43
21 47 43
22 48 44
22 48 44
21 46 42
21 47 43
22 47 43
22 48 43
22 47 43
22 47 43
21 47 43
22 48 43
22 48 43
22 47 43
22 47 43
22 49 44
21 47 43
22 48 44
22 49 44
22 49 44
22 48 44
22 48 44
22 48 43
22 48 43
22 49 44
22 47 43
22 48 44
22 48 43
22 48 43
21 47 43
21 47 42
22 48 43
22 49 44
21 46 42
22 48 43
22 49 44
22 48 43
22 48 43
21 47 43
21 47 43
22 48 43
22 49 45
22 48 43
22 48 43
22 49 45
22 49 45
23 50 45
22 49 44
22 49 44
22 48 44
22 49 44
22 48 44
23 50 45
22 49 44
22 49 44
22 48 43
22 48 44
23 50 45
22 48 43
22 49 44
21 47 42
22 48 43
23 49 45
22 48 43
22 48 44
22 48 43
22 48 43
22 48 43
21 46 41
21 46 42
22 48 43
21 46 41
20 44 39
20 43 38
18 40 36
18 40 35
18 39 35
17 38 34
19 40 35
20 42 37
21 44 39
21 46 41
21 44 39
21 45 40
22 47 42
21 46 41
21 46 42
22 48 42
22 49 44
22 47 42
22 48 43
22 48 44
22 49 44
22 48 43
22 49 44
23 50 45
21 46 42
21 46 42
21 46 42
21 46 42
21 47 43
21 46 42
22 48 43
22 48 44
21 47 43
22 49 44
21 46 42
21 47 43
22 48 44
21 47 43
22 47 43
21 46 42
22 48 43
21 47 43
22 48 43
21 47 43
21 47 43
22 47 43
22 48 43
22 48 44
22 48 44
21 46 42
22 48 43
22 48 43
21 47 43
22 49 44
21 47 43
22 49 44
21 46 42
22 47 43
21 47 43
21 46 42
22 48 43
22 47 43
22 49 44
22 49 44
22 48 44
22 49 45
22 48 44
22 48 44
22 48 43
22 48 44
21 47 43
22 48 43
22 48 44
21 47 43
22 48 44
22 48 44
22 48 44
22 48 44
22 48 43
22 48 44
21 47 42
21 47 42
22 48 44
22 49 44
22 49 44
22 48 44
22 48 44
21 47 43
21 47 43
22 49 44
22 49 44
22 48 43
23 50 46
22 49 44
22 49 44
22 48 43
22 49 44
22 49 44
22 48 44
22 48 43
22 49 44
22 48 44
22 48 43
23 50 45
22 48 43
22 47 43
22 48 44
22 48 43
23 49 44
22 48 43
22 49 44
22 49 44
22 48 43
22 48 44
22 48 43
22 48 44
22 47 42
21 46 41
22 47 43
22 48 43
22 47 42
21 46 41
21 46 41
22 47 42
22 47 42
20 44 39
20 44 39
21 46 41
22 47 41
22 47 42
22 47 42
22 47 42
22 48 43
21 46 42
22 47 42
22 48 43
23 49 44
22 48 43
22 47 43
22 48 43
23 49 44
22 47 43
22 49 44
22 49 44
22 47 43
22 47 43
21 47 43
20 44 40
21 46 42
21 47 43
21 46 42
21 47 42
22 48 43
21 47 43
22 48 44
22 47 43
21 47 43
21 47 43
21 47 42
22 47 43
21 46 42
21 47 43
21 47 43
22 48 43
21 47 42
22 48 44
21 47 42
22 48 44
21 46 41
22 48 44
21 47 43
21 47 43
21 47 43
21 47 43
21 46 42
21 47 43
22 49 44
22 48 44
21 47 43
21 47 43
22 48 43
21 47 43
22 48 44
22 48 44
21 46 42
22 49 44
22 48 44
22 49 45
21 46 41
21 46 42
22 49 44
21 47 42
22 48 43
22 49 44
22 48 43
22 47 43
22 48 43
23 50 45
22 48 43
22 49 44
22 49 44
22 48 43
22 48 43
22 48 44
22 47 43
22 48 43
23 49 45
22 49 44
22 48 43
23 49 45
22 48 43
22 48 44
22 49 44
22 49 44
22 48 43
22 49 44
23 50 45
22 47 43
23 49 45
22 48 43
23 50 45
22 49 45
23 50 45
22 48 43
22 48 43
23 50 45
23 49 45
22 47 43
22 48 43
22 49 44
22 48 44
22 49 44
22 49 44
22 49 44
22 48 43
22 47 43
22 48 43
22 49 44
22 48 43
22 47 43
22 47 42
23 49 44
23 49 44
21 46 41
22 47 42
21 46 42
22 48 43
22 48 43
22 48 43
22 47 42
21 46 41
22 48 43
21 46 42
22 48 43
22 48 43
22 48 43
22 48 43
22 48 43
22 47 43
23 50 45
22 48 44
23 49 44
23 50 45
22 48 44
21 47 42
21 47 43
21 47 43
21 46 42
21 47 43
21 47 43
21 46 42
22 48 43
22 48 44
22 49 45
22 48 44
21 47 43
21 47 43
21 47 43
22 48 44
22 47 43
21 47 42
22 48 44
22 47 43
22 48 43
22 49 44
21 47 43
21 47 43
21 47 43
21 47 43
21 47 43
22 49 44
21 47 43
21 47 42
21 47 43
21 46 42
22 48 44
21 47 43
22 47 43
22 48 44
22 48 43
22 48 44
22 48 43
21 47 42
22 49 44
21 46 42
22 49 45
21 47 43
21 47 43
22 48 44
22 49 45
22 48 44
22 49 45
22 48 44
22 49 44
22 47 43
22 48 44
22 48 44
22 48 44
22 49 44
22 48 44
22 48 44
22 49 45
21 47 42
22 49 44
22 48 43
23 50 45
22 48 44
22 49 44
22 49 44
22 48 44
22 49 44
22 48 44
22 49 44
23 49 45
23 50 45
23 50 45
22 49 44
22 48 43
22 49 44
22 49 44
22 49 44
22 48 44
22 49 44
22 48 43
22 49 44
22 48 43
22 48 43
22 49 45
22 48 43
23 50 45
22 49 44
22 48 44
23 50 45
22 49 44
22 48 43
22 48 44
22 49 44
22 47 43
22 49 44
21 47 42
22 48 43
23 49 44
21 47 42
22 48 43
23 49 44
22 48 43
22 48 43
22 48 43
22 49 44
22 48 43
23 49 44
23 49 44
22 48 43
22 47 43
23 49 44
22 49 44
23 49 44
23 50 45
22 48 43
23 50 45
23 50 45
23 50 45
22 48 43
22 49 44
21 46 42
22 49 45
21 46 42
21 47 43
21 46 42
22 48 43
21 47 43
21 47 43
21 46 42
22 48 44
22 48 44
22 48 44
21 46 42
21 47 42
21 47 43
21 46 42
21 47 43
22 48 44
21 46 42
22 48 43
21 47 42
22 48 43
22 48 43
22 48 43
21 47 43
22 49 44
22 48 44
22 48 44
22 48 43
21 47 43
21 47 43
23 51 46
22 48 44
22 47 43
22 48 43
21 47 42
21 47 43
22 48 44
22 48 43
22 49 44
22 48 44
22 48 43
22 48 43
22 48 44
21 47 43
22 49 45
22 48 43
21 47 43
22 48 43
21 47 42
22 49 45
23 50 45
22 48 43
22 48 44
22 48 44
22 48 43
22 48 43
21 47 43
22 48 43
21 47 43
22 49 44
22 49 44
22 48 43
22 49 45
22 48 44
22 49 44
22 48 43
22 48 44
22 48 44
22 47 43
22 48 44
22 47 43
22 48 43
22 48 44
22 48 43
21 47 43
22 49 45
22 49 44
22 48 44
23 50 45
22 49 44
22 49 44
22 49 44
22 48 43
22 48 43
22 49 44
23 50 45
23 50 45
22 49 44
22 49 44
22 47 43
22 49 44
23 50 45
22 47 43
21 47 42
22 48 43
22 48 43
23 50 45
22 49 44
22 48 44
22 48 43
22 48 43
22 48 43
23 51 46
22 48 44
22 48 43
23 49 44
23 49 44
22 49 44
23 50 45
22 49 44
23 49 44
22 48 43
22 49 44
23 49 45
23 49 44
23 51 46
23 50 45
22 49 44
23 50 45
21 46 42
21 46 42
21 46 42
22 49 44
21 47 43
22 48 43
21 47 43
22 48 44
21 47 43
22 48 43
22 48 44
22 48 44
20 45 41
21 47 43
21 46 42
22 48 44
21 47 43
22 48 44
21 47 43
21 47 43
21 47 43
22 49 44
21 47 43
22 48 43
21 46 42
22 48 44
21 47 43
21 47 42
21 47 43
22 48 44
21 47 43
23 51 46
22 48 44
22 48 44
22 48 44
21 47 43
21 47 43
22 48 44
22 48 43
22 48 43
22 48 43
21 46 42
22 48 44
21 47 42
23 50 46
22 49 44
22 47 43
22 48 43
22 48 43
22 49 44
21 47 43
22 48 44
22 49 45
23 49 45
21 47 42
22 49 44
22 49 44
22 49 44
22 48 44
22 49 44
21 47 42
22 48 43
22 47 43
22 48 44
22 48 44
22 49 44
22 48 43
22 48 44
22 48 43
22 49 45
22 48 44
22 48 44
22 48 44
22 49 44
22 48 44
22 49 44
22 48 44
21 47 42
22 49 45
22 47 43
23 49 45
23 50 45
22 49 44
23 50 45
22 49 45
22 48 43
22 48 44
22 49 44
22 49 44
21 47 43
22 48 43
22 49 44
22 48 43
23 50 45
23 49 45
22 48 43
22 49 44
22 48 43
22 48 44
23 49 44
22 49 44
22 48 43
23 49 44
22 49 44
23 50 45
23 49 45
22 48 44
22 48 44
23 50 45
23 50 45
23 49 44
22 48 43
22 48 43
23 50 45
22 49 44
22 49 44
23 49 45
22 48 44
22 49 44
23 50 45
