P3
120 80
255
16 38 36
17 40 37
16 37 36
17 38 36
17 39 37
17 39 37
17 38 36
17 38 37
17 38 36
16 37 35
17 39 37
17 39 37
17 39 37
16 38 36
17 39 37
17 38 36
17 39 37
17 39 37
17 38 36
16 38 36
16 38 36
16 38 36
17 40 38
17 39 37
17 39 37
17 38 36
17 40 38
17 38 36
17 38 36
17 40 37
17 38 36
17 39 37
17 39 36
17 39 37
17 38 36
16 37 35
16 37 35
17 38 36
17 39 37
16 37 35
17 39 37
16 37 35
16 38 36
17 39 37
17 38 36
17 39 37
16 37 35
17 39 37
17 38 36
16 38 36
17 39 37
17 39 36
17 38 36
17 38 36
17 39 37
17 39 36
17 39 36
17 38 36
16 37 35
17 39 37
17 39 37
17 38 36
17 38 36
17 39 37
16 37 35
17 39 37
17 39 36
17 38 36
17 39 37
17 38 36
16 38 36
17 39 37
16 37 35
17 39 37
16 38 36
17 38 36
17 39 36
17 40 37
17 38 36
17 38 36
17 38 36
17 38 36
17 38 36
17 39 37
17 38 36
16 37 36
17 39 37
17 39 37
17 38 36
17 38 36
17 39 36
17 38 36
17 39 37
17 39 37
17 38 36
17 38 36
17 39 37
17 39 37
17 40 38
17 39 37
17 39 37
17 38 36
17 38 36
17 38 36
17 38 36
17 38 36
16 38 36
17 38 36
17 39 37
17 38 36
17 39 37
17 38 36
17 38 36
16 37 36
16 38 36
17 38 36
16 38 36
16 37 36
16 37 36
17 39 37
17 38 36
17 39 37
17 39 37
17 39 37
17 39 37
17 38 36
17 39 36
17 39 37
17 38 36
17 38 36
16 37 35
17 39 37
16 38 36
17 39 37
17 38 36
17 38 36
17 39 36
16 38 36
17 39 37
17 38 36
16 38 35
16 38 36
17 39 37
17 38 36
17 39 37
17 39 37
17 38 36
17 39 37
17 38 36
17 38 36
17 38 36
17 39 37
17 39 37
17 39 37
17 39 36
17 39 37
17 38 36
17 39 37
17 39 37
17 38 36
17 38 36
17 39 37
17 39 37
17 39 36
17 38 36
17 38 36
17 39 37
17 38 36
17 39 37
17 39 37
17 39 37
17 38 36
17 39 37
17 38 36
17 39 37
17 39 37
17 39 37
17 38 36
17 38 36
16 38 36
17 38 36
16 38 36
17 38 36
17 38 36
17 38 36
17 38 36
17 38 36
17 38 36
17 38 37
17 38 36
17 39 37
17 39 37
17 39 36
17 38 36
17 39 37
17 39 36
17 38 36
17 38 36
17 39 37
17 39 37
17 39 37
17 38 36
17 39 37
16 38 36
17 39 37
17 38 36
17 39 37
17 39 37
17 40 38
17 38 36
17 40 37
17 38 36
17 39 36
17 39 37
17 38 36
17 39 37
17 38 36
17 38 36
16 38 36
17 38 36
17 38 36
17 38 36
17 39 36
17 38 36
17 39 37
16 38 36
17 39 37
17 39 37
17 39 37
17 39 37
17 38 36
17 38 36
17 39 37
16 38 36
17 39 37
17 39 37
17 39 37
16 38 36
17 39 37
17 38 36
17 38 36
17 39 37
16 38 36
17 39 37
17 39 36
17 38 36
17 38 36
17 39 37
17 38 36
17 39 36
17 40 37
17 38 36
18 40 38
17 40 37
17 38 36
17 38 36
17 38 36
17 39 37
16 38 36
17 39 37
17 39 37
17 39 37
17 38 36
17 40 38
17 39 37
17 40 38
17 38 36
17 38 36
17 39 37
17 39 36
17 38 36
17 38 36
17 39 37
17 38 36
17 38 36
17 38 36
17 38 36
17 39 37
17 39 37
17 38 36
17 39 37
17 39 37
17 40 38
16 38 36
17 39 37
17 38 36
17 39 37
17 39 37
17 39 37
17 38 36
17 39 37
17 39 37
17 39 37
17 39 37
17 40 37
18 40 38
17 39 37
17 39 37
17 38 36
17 40 37
17 38 36
16 38 36
16 38 36
17 39 37
16 38 36
17 39 37
17 39 36
17 39 37
17 39 37
17 39 36
17 38 36
17 39 37
17 39 37
17 39 36
17 40 38
17 39 37
17 38 36
17 40 37
17 38 36
17 40 37
17 38 36
17 39 37
17 39 37
17 39 36
17 38 36
17 39 37
17 38 36
17 39 37
17 39 37
17 38 36
17 38 36
17 39 37
17 39 37
17 39 36
17 40 37
17 38 36
17 38 36
16 38 35
17 39 37
17 39 37
16 38 36
17 39 36
17 39 37
17 39 37
17 39 37
17 39 37
17 38 36
17 39 37
17 38 36
17 38 36
17 39 37
17 38 36
17 39 37
17 38 36
17 39 37
17 38 36
17 38 36
17 38 36
17 38 36
17 38 36
17 39 36
17 38 36
17 39 37
17 39 37
17 38 36
17 39 36
17 39 37
17 39 37
17 39 37
17 39 37
16 38 36
17 38 36
17 39 36
17 38 36
17 38 36
17 39 37
17 39 37
17 40 37
17 39 37
17 39 37
17 39 37
17 39 36
17 40 38
17 39 37
17 38 36
17 39 37
17 39 37
17 39 37
17 40 38
17 39 36
17 39 37
17 39 37
17 39 36
17 39 37
17 39 37
17 39 37
17 40 37
17 40 37
17 39 37
17 39 37
17 39 37
17 39 36
17 38 36
17 40 38
17 38 36
17 39 37
17 39 37
17 39 37
17 39 36
17 38 36
17 39 37
17 39 36
17 39 37
17 39 36
17 38 36
17 38 36
17 39 36
17 39 37
17 39 36
17 38 36
17 39 37
17 39 37
17 39 37
17 39 36
17 39 37
17 39 37
17 39 37
17 39 37
17 39 37
17 38 36
17 39 37
17 38 36
17 39 37
17 40 37
17 40 37
17 40 37
17 39 37
17 39 37
17 39 37
17 38 36
17 39 37
17 39 37
18 40 38
17 39 37
17 40 37
17 39 37
17 39 36
17 40 38
17 39 37
17 39 37
17 39 37
17 38 36
17 40 37
17 38 36
17 39 37
17 39 37
17 39 37
17 39 36
17 38 36
16 38 36
17 40 37
17 38 36
17 39 37
17 38 36
17 39 36
17 38 36
17 39 37
17 39 37
17 38 36
17 39 37
17 39 37
17 39 37
17 39 37
17 38 36
17 39 36
17 38 36
17 39 36
17 39 37
17 39 36
17 39 36
17 38 36
17 39 36
17 38 36
17 39 36
17 40 38
17 39 37
17 38 36
17 39 37
17 39 37
17 39 37
17 38 36
17 40 38
17 38 36
17 38 36
17 38 36
17 39 37
17 39 37
17 38 36
18 40 38
17 40 37
17 39 37
17 40 37
17 39 37
17 39 37
17 39 37
17 39 37
17 40 38
17 39 37
17 39 37
17 40 38
17 40 37
17 39 37
17 39 37
17 39 36
17 39 37
17 39 37
17 39 37
17 38 36
18 40 38
17 39 37
17 39 37
17 39 37
17 39 37
17 39 37
17 39 37
17 39 36
17 39 37
17 39 37
17 39 37
17 39 37
17 40 38
17 40 38
18 40 38
17 39 37
17 39 37
17 39 37
17 39 37
17 39 37
17 39 37
17 39 37
17 40 37
17 40 38
17 38 36
17 40 37
17 40 37
17 39 37
17 38 36
17 39 37
17 38 36
17 39 37
17 38 36
17 39 37
17 38 36
17 39 37
17 40 37
17 39 37
17 39 37
18 40 38
17 39 37
17 39 37
17 40 37
17 39 37
17 38 36
17 39 36
16 38 36
17 40 37
17 39 36
17 40 37
17 38 36
17 39 37
17 40 38
17 39 37
17 39 37
17 39 37
17 38 36
17 39 37
17 39 37
17 38 36
17 39 37
17 39 37
17 39 37
17 39 37
17 39 37
17 38 36
17 39 37
17 39 37
17 39 37
17 39 37
17 40 38
17 39 37
17 39 37
17 39 37
17 39 36
17 39 37
17 38 36
17 39 37
17 39 37
17 39 37
17 39 37
17 38 36
17 40 38
17 39 37
17 39 37
17 39 37
18 40 38
18 41 38
17 40 38
17 39 37
17 39 37
17 38 36
17 39 36
17 39 37
17 39 37
17 40 38
17 39 37
17 40 37
17 39 37
17 38 36
17 39 37
17 40 37
17 39 37
18 40 38
17 39 37
17 39 37
17 40 38
17 40 37
17 39 36
17 39 37
17 39 37
17 39 37
17 40 37
17 38 36
17 39 37
17 39 37
17 39 37
17 39 37
17 39 37
17 39 37
17 39 37
18 40 38
17 39 37
17 39 36
17 40 37
17 39 37
16 38 35
17 39 37
17 39 37
17 39 37
17 40 37
17 38 36
17 39 36
18 40 38
17 39 37
17 38 36
17 39 37
17 39 37
18 40 38
18 40 38
17 39 37
17 39 36
17 39 37
17 40 38
17 39 37
17 40 37
17 39 36
17 39 37
18 40 38
17 39 37
17 40 37
17 39 37
17 39 37
17 39 37
17 40 37
17 39 37
17 39 37
17 39 36
17 39 37
17 39 37
17 39 37
17 38 36
17 39 37
17 39 37
17 39 36
17 38 36
17 39 37
17 38 36
17 39 37
17 39 37
17 39 37
17 39 37
17 39 37
17 39 37
17 39 37
17 39 37
17 40 37
17 39 37
18 40 38
17 39 37
17 38 36
18 40 38
17 39 37
17 39 37
17 39 36
17 39 37
17 39 37
17 38 36
17 39 37
17 39 37
17 39 37
17 39 36
17 38 36
17 39 37
17 38 36
17 39 37
17 39 37
17 39 37
18 40 38
17 39 37
17 40 37
17 39 37
18 41 38
17 40 37
17 40 37
17 39 37
18 40 38
18 40 38
17 39 37
17 39 36
17 40 38
17 40 37
18 40 38
17 39 37
18 40 38
17 39 37
17 40 37
17 39 37
17 38 36
17 39 36
17 40 37
17 39 37
18 40 38
17 39 37
17 40 37
17 40 37
18 40 38
17 39 37
17 40 37
18 40 38
18 40 38
17 39 36
17 39 36
18 40 38
17 39 36
17 39 37
17 40 37
17 40 37
17 40 38
17 39 37
17 40 38
18 41 38
17 39 37
17 39 37
17 39 37
18 40 38
17 39 37
17 39 37
17 40 38
17 39 37
17 39 37
17 39 37
18 40 37
17 39 37
18 40 38
17 40 37
17 39 37
18 40 38
17 39 36
17 40 37
17 39 36
17 39 36
18 40 38
17 40 37
18 40 38
17 40 37
17 39 37
17 39 37
17 40 37
17 39 36
17 40 37
17 40 37
17 39 37
17 39 37
17 39 37
17 39 37
17 40 37
17 39 37
17 40 37
17 39 37
18 40 38
17 40 37
17 39 36
17 39 36
17 39 37
17 40 37
17 39 37
17 40 37
17 39 36
17 40 37
17 39 37
17 39 37
17 40 37
17 38 36
17 40 37
18 40 38
17 38 36
18 40 38
17 40 37
18 40 38
17 39 37
17 39 37
17 38 36
17 40 37
17 39 37
18 40 38
17 40 37
18 40 38
17 39 37
17 38 36
17 40 37
17 39 37
17 40 37
17 39 36
17 39 37
17 40 38
17 40 37
17 39 37
17 39 37
17 40 38
17 39 36
17 39 37
18 40 38
17 40 37
18 41 39
17 40 37
18 40 38
17 40 37
18 40 37
17 39 37
18 40 38
17 39 37
17 39 37
17 40 37
17 40 37
17 40 37
17 40 37
17 39 36
17 40 37
17 39 37
18 41 38
17 39 37
17 40 37
18 40 38
18 40 37
17 40 38
17 40 37
18 40 38
17 39 36
17 40 37
17 40 37
17 40 38
17 40 37
18 40 38
18 40 38
17 39 37
17 39 37
17 40 37
17 39 37
17 40 37
17 40 37
18 40 38
17 40 37
18 41 38
18 40 38
18 40 38
17 39 37
17 39 37
18 40 37
17 40 37
17 40 37
18 40 38
18 40 38
17 40 37
17 40 37
18 41 39
17 40 37
18 40 38
18 40 38
17 40 37
18 40 38
17 40 37
17 39 37
18 40 38
17 40 37
17 39 37
18 40 38
17 40 37
17 40 37
18 40 38
18 41 38
18 40 38
17 39 36
17 39 37
17 39 36
18 40 38
17 40 37
17 39 36
17 39 36
18 40 38
17 39 37
17 39 37
17 39 37
18 40 38
18 41 38
17 39 37
18 40 38
17 39 37
17 40 38
17 39 36
17 39 37
18 40 38
17 40 37
17 40 37
17 39 37
17 40 37
17 40 37
17 40 38
17 40 37
18 40 38
17 39 37
17 40 37
17 40 37
17 40 37
17 39 37
17 39 37
17 39 36
17 39 37
17 40 37
18 40 38
17 39 37
17 39 37
17 40 37
17 40 37
17 39 37
17 39 36
17 39 36
17 39 37
17 40 37
17 38 36
17 39 37
17 39 37
17 40 37
17 40 37
17 40 37
17 39 37
17 39 37
18 40 38
18 41 38
17 39 37
18 40 38
18 40 38
17 39 37
18 40 38
17 39 36
18 40 37
18 41 38
17 39 37
18 40 38
17 40 37
18 40 38
18 40 37
17 39 37
17 39 37
18 40 38
17 39 37
17 40 37
17 39 37
17 40 37
18 41 38
18 40 37
18 40 38
18 41 38
17 39 37
17 39 37
17 40 37
18 40 38
18 40 38
17 40 37
17 40 37
17 39 37
18 40 38
17 40 37
18 40 38
17 39 37
18 40 38
18 40 38
18 40 38
18 41 38
18 40 38
18 40 37
18 40 38
17 40 37
17 39 37
17 39 37
18 40 37
18 40 37
18 40 38
17 40 37
17 39 37
17 40 37
17 40 37
18 41 38
18 40 38
17 40 37
18 40 38
17 40 37
17 39 37
17 40 37
17 40 37
17 39 36
18 40 38
18 41 38
17 40 37
17 40 37
18 40 38
17 40 37
17 40 37
17 39 37
18 40 38
17 39 37
18 40 38
17 40 37
18 41 38
17 39 36
17 39 37
17 39 36
17 39 37
18 40 38
17 39 37
17 40 37
17 40 37
18 40 38
17 39 37
17 39 37
17 38 36
18 40 37
17 39 37
18 40 38
18 40 38
18 40 38
17 40 37
18 40 38
18 40 38
18 40 38
18 40 38
18 40 38
17 39 37
18 40 38
17 39 37
17 40 37
18 40 37
18 40 38
17 39 37
17 39 36
17 39 37
18 40 38
17 39 37
17 40 37
17 40 37
17 39 37
18 40 38
18 40 38
18 41 39
18 41 38
18 40 38
18 40 37
18 41 38
18 41 38
18 41 38
17 40 37
18 40 38
17 40 37
18 40 38
17 40 37
17 39 37
18 41 38
18 40 38
17 40 37
17 39 37
17 39 37
17 39 37
17 39 37
18 40 38
18 40 38
17 40 37
18 40 38
18 40 38
18 41 38
17 39 37
18 40 38
17 40 37
17 39 37
18 41 38
18 40 37
18 41 38
18 40 38
18 41 38
18 41 38
18 41 38
18 40 37
18 40 38
18 40 37
18 40 38
17 39 37
18 40 38
18 40 38
18 40 38
18 40 38
18 41 38
18 40 38
18 40 37
17 39 37
18 41 38
18 40 38
18 40 38
18 40 38
18 40 38
18 40 38
18 40 38
18 40 38
17 40 37
18 40 37
17 39 37
17 39 37
18 41 39
17 40 37
17 40 37
18 40 38
18 40 38
18 40 38
17 39 37
18 40 38
18 41 38
18 41 38
17 39 37
17 39 37
17 39 37
17 40 37
17 39 37
17 40 37
18 40 38
18 40 38
17 40 37
18 40 38
18 41 38
18 40 37
17 39 37
17 40 37
18 40 38
18 40 38
18 40 38
18 40 38
18 40 38
17 40 37
17 40 37
18 40 38
18 40 38
18 40 37
18 40 38
18 40 38
17 39 37
18 40 38
18 40 37
18 40 38
18 41 38
18 40 38
17 39 37
17 39 37
17 39 37
17 39 37
18 40 38
17 39 36
17 39 37
18 40 38
18 40 38
17 40 38
17 39 37
18 40 38
17 40 37
17 40 38
18 40 38
17 40 37
18 40 37
18 41 38
18 40 38
18 40 38
18 41 38
18 40 38
18 40 38
17 39 37
18 40 37
18 40 37
18 40 38
18 41 38
18 40 38
18 40 38
17 39 37
18 40 38
18 40 38
18 40 37
18 40 38
17 40 37
18 40 37
18 41 38
18 40 37
18 41 38
18 40 37
17 39 37
18 40 38
17 40 37
18 41 38
18 40 38
18 41 38
17 39 37
17 40 37
18 40 38
18 41 39
18 40 38
17 40 37
17 39 37
18 40 38
18 40 38
18 40 37
18 41 39
18 40 37
17 39 37
17 40 37
18 41 38
18 40 37
18 40 38
18 41 38
18 41 38
18 41 38
17 40 37
18 40 38
18 40 37
18 40 38
17 40 37
17 39 37
18 41 38
18 40 37
18 40 37
18 41 38
17 39 37
17 39 37
18 40 38
18 40 37
18 41 38
18 41 39
18 41 38
17 39 37
18 40 38
18 41 38
18 40 38
18 40 38
18 40 37
18 40 38
17 40 37
18 40 38
18 40 38
17 39 37
18 40 37
18 40 38
18 40 38
18 40 38
17 40 37
18 41 38
18 41 38
18 40 38
18 40 38
18 40 37
18 40 37
18 40 38
17 39 37
18 40 37
17 40 37
18 40 38
18 41 38
17 40 37
18 41 38
18 40 38
17 40 37
17 40 37
18 41 39
18 41 38
17 40 37
18 40 37
18 40 38
18 40 38
18 40 38
18 40 38
17 40 37
18 40 38
18 41 38
18 40 38
17 40 37
18 40 38
18 40 38
17 39 37
18 40 38
18 40 38
18 40 37
18 40 38
18 41 38
18 40 38
18 41 38
18 40 37
18 41 38
18 40 38
18 41 38
18 40 37
17 40 37
18 40 37
18 41 39
17 39 37
17 39 37
18 40 37
17 40 37
18 40 38
18 41 39
17 40 37
18 41 38
18 41 38
18 40 37
18 41 38
18 40 38
18 41 38
18 41 38
18 40 38
18 41 38
18 40 37
18 40 38
18 40 37
18 40 37
18 40 38
18 40 37
18 40 37
18 41 38
18 41 38
18 42 39
17 39 37
17 39 37
18 41 38
18 40 38
18 40 38
18 41 38
18 41 38
17 40 37
18 41 38
18 41 38
17 39 36
18 41 38
18 41 39
18 40 38
18 40 37
18 41 38
17 40 37
18 40 38
18 41 38
18 40 37
18 41 38
18 40 37
18 40 37
18 41 38
17 39 37
18 41 38
18 40 37
17 39 37
18 41 38
18 40 38
18 41 39
18 40 38
18 41 39
17 40 37
18 41 38
18 40 37
18 41 38
18 40 38
18 40 38
18 41 38
18 40 38
17 39 37
18 40 37
18 40 38
18 40 38
18 40 38
18 40 38
18 41 38
18 40 38
18 40 38
18 40 38
18 40 38
18 40 38
18 40 38
18 40 38
18 40 37
18 41 38
18 41 38
18 40 38
18 40 38
18 41 38
18 41 38
17 39 37
18 41 38
18 40 38
17 39 37
17 39 37
18 41 38
17 39 37
18 40 38
18 40 37
17 39 36
17 39 37
17 40 37
18 40 38
18 40 37
18 40 38
18 41 38
17 39 37
18 40 37
18 41 39
18 40 38
18 41 39
18 41 38
18 40 38
18 41 38
18 41 38
17 39 37
18 41 38
18 41 38
18 40 38
18 40 37
18 41 38
18 41 39
18 41 38
18 40 38
18 40 37
18 40 38
18 40 38
18 41 38
18 40 38
18 41 38
18 40 38
18 41 39
18 41 39
18 40 38
18 40 38
18 41 38
18 41 38
18 42 39
19 42 39
17 39 37
18 41 38
18 41 38
18 41 38
19 42 39
18 41 38
18 41 39
18 41 38
18 41 38
18 41 38
18 41 39
18 40 38
18 41 38
18 40 38
17 40 37
18 40 37
18 40 37
18 41 38
18 40 37
18 41 38
18 42 39
18 41 38
18 40 37
18 41 38
18 41 39
19 42 39
18 41 39
18 41 39
18 41 38
18 40 38
18 41 38
18 41 39
17 39 37
18 40 38
18 42 39
18 40 37
18 40 38
18 41 38
18 40 37
18 41 38
18 40 37
18 40 38
18 41 38
18 41 38
18 41 38
18 40 38
18 40 38
18 40 37
18 40 38
18 41 38
18 41 38
18 40 38
18 40 37
18 41 38
18 41 38
18 40 38
18 41 38
18 40 38
18 41 38
18 41 38
18 40 38
18 41 38
18 41 38
18 40 38
18 40 37
18 41 38
18 40 37
18 41 38
18 40 38
18 40 37
18 40 37
18 41 38
17 40 37
17 40 37
18 41 38
18 40 38
18 41 38
18 40 37
17 39 37
18 40 38
18 40 38
18 41 38
18 41 38
18 40 37
18 40 37
18 41 38
18 41 38
18 41 38
18 40 38
18 40 38
18 41 38
18 40 38
18 41 38
18 40 37
18 40 38
18 40 37
18 41 39
18 40 37
18 41 39
18 42 39
18 41 38
18 40 37
18 41 38
18 41 38
18 41 38
18 41 38
18 41 39
18 41 38
19 42 39
18 41 38
18 41 38
18 41 38
18 40 38
18 42 39
18 41 39
18 42 39
18 40 38
18 42 39
18 41 38
18 41 38
18 41 38
18 41 38
18 41 38
18 41 38
18 41 38
18 40 37
18 41 38
18 41 38
18 40 38
18 41 38
18 41 38
18 42 39
18 40 38
19 42 39
18 41 38
18 41 39
18 41 38
18 41 38
18 41 38
18 40 37
18 41 38
18 41 38
18 41 38
18 41 38
19 42 39
18 41 38
18 41 39
18 41 38
18 42 39
18 41 38
18 40 37
18 41 38
18 41 38
18 41 38
18 41 38
18 41 38
18 41 38
18 41 38
18 41 38
18 40 37
18 40 37
18 40 38
18 41 38
18 41 38
18 42 39
18 40 38
18 41 39
18 41 38
18 40 38
18 41 38
18 40 37
18 40 38
17 40 37
18 40 38
18 41 38
18 41 38
18 40 37
18 40 37
18 40 38
18 40 38
18 41 38
18 41 38
18 41 38
18 41 38
18 40 38
18 41 38
17 40 37
18 40 37
18 40 37
18 40 38
18 41 39
18 41 39
17 39 37
18 41 38
18 40 38
18 41 38
18 40 38
18 40 37
18 41 38
18 41 38
18 41 38
18 40 38
18 41 38
18 40 38
18 40 37
18 40 37
18 41 38
17 39 37
18 40 38
17 39 37
18 41 38
18 41 38
18 41 38
18 41 38
18 41 38
18 42 39
18 41 38
18 42 39
18 41 38
18 40 38
18 42 39
18 41 38
18 41 38
18 40 38
18 41 38
18 40 38
18 41 38
18 40 38
18 42 39
18 42 39
18 41 38
19 42 39
18 41 38
18 41 38
18 41 39
18 41 38
18 41 38
18 41 38
18 41 38
18 41 39
18 41 38
18 41 38
18 41 38
18 41 38
18 42 39
18 40 37
18 41 38
18 41 38
18 41 39
18 41 39
18 42 39
18 41 38
19 42 39
18 41 39
18 41 38
19 43 40
18 41 38
18 41 38
18 41 39
18 41 38
19 42 39
18 41 38
18 41 38
19 42 39
18 40 37
18 41 38
18 41 38
19 42 39
18 41 39
17 40 37
18 41 39
18 42 39
18 41 38
18 41 38
18 41 38
18 41 38
18 41 39
18 40 38
18 41 38
18 41 38
18 40 38
18 41 38
18 40 38
18 40 38
19 42 39
18 41 38
19 42 39
18 41 38
18 41 38
18 41 38
18 41 38
18 40 37
18 41 38
18 41 38
18 42 39
18 41 38
18 40 37
18 40 38
18 42 39
18 41 38
18 40 37
18 41 38
18 41 38
18 41 38
17 40 37
18 41 38
18 40 38
18 42 39
18 40 38
18 41 39
18 41 38
18 41 38
18 40 38
18 41 38
18 41 38
18 41 39
18 41 38
18 41 38
19 42 39
18 41 38
18 41 38
18 41 38
18 40 38
18 41 38
18 40 37
18 40 37
18 41 39
18 40 38
18 41 38
18 40 38
19 42 39
18 41 39
18 41 39
19 43 40
18 41 38
18 41 38
18 41 38
18 42 39
18 41 38
18 41 38
18 42 39
19 42 39
18 40 38
19 43 40
18 41 38
18 41 38
18 40 38
18 41 38
19 42 39
18 41 39
18 41 39
18 40 38
18 41 39
18 41 39
19 42 39
18 41 38
18 41 38
18 41 38
19 42 39
18 40 38
18 41 39
18 41 39
18 40 38
18 41 39
18 42 39
18 42 39
18 41 38
18 42 39
18 41 39
19 42 39
19 42 39
18 41 38
18 41 38
19 42 39
19 42 39
18 41 38
19 42 39
18 40 38
18 40 38
18 42 39
18 42 39
18 41 38
18 41 38
18 41 38
18 42 39
18 41 39
18 40 38
18 40 38
18 41 38
18 41 38
18 41 38
18 41 38
18 41 38
18 41 38
18 42 39
18 41 38
18 41 38
18 41 38
18 41 39
18 41 38
18 40 38
18 41 38
18 40 38
18 41 38
18 41 38
19 42 39
18 41 38
18 41 39
18 41 38
19 42 39
19 42 39
19 42 39
18 42 39
18 41 38
18 40 37
18 41 38
18 41 38
18 42 39
18 41 38
18 41 38
18 40 37
18 41 38
18 40 37
18 40 38
18 42 39
18 41 38
18 41 38
18 40 37
18 40 38
18 41 38
18 41 38
18 40 37
18 40 38
18 41 39
18 41 39
18 41 38
18 41 38
18 41 38
18 41 38
17 39 37
18 41 38
18 41 38
18 40 38
18 41 38
18 41 39
18 41 38
18 41 38
18 40 38
18 41 38
18 41 38
18 41 39
18 41 38
19 42 39
19 43 40
18 41 39
18 41 38
18 41 38
18 41 38
18 41 38
18 41 38
18 42 39
18 41 39
19 42 39
18 42 39
18 40 38
18 41 38
18 41 38
19 42 39
19 42 39
18 41 38
18 41 38
18 42 39
18 41 39
18 41 38
18 41 38
18 41 39
18 41 38
18 41 38
18 41 38
18 41 39
18 41 38
18 40 37
19 42 39
19 42 39
18 41 38
19 42 39
18 41 38
19 42 39
19 42 39
18 41 38
18 41 38
19 42 39
18 41 39
18 41 39
18 41 38
18 41 38
18 41 38
18 41 38
18 41 39
19 42 39
18 41 38
19 42 39
18 41 38
18 42 39
18 41 38
18 41 38
18 41 38
18 41 39
18 42 39
18 41 39
18 41 39
18 41 39
18 42 39
18 42 39
18 42 39
18 41 38
19 42 39
19 42 39
18 41 38
18 41 38
18 42 39
18 41 38
19 42 39
18 41 38
18 41 38
18 41 38
18 42 39
18 42 39
18 41 38
18 42 39
18 42 39
18 41 38
18 41 38
18 41 39
18 41 38
18 41 39
18 40 38
19 42 39
18 41 38
18 41 38
18 41 38
18 41 38
18 41 38
18 42 39
18 41 38
18 41 38
18 41 38
18 41 38
18 42 39
18 41 39
18 40 37
18 41 39
18 41 38
18 41 38
19 42 39
18 40 37
18 41 38
18 41 38
18 41 38
18 41 38
18 41 38
18 40 38
18 41 38
18 41 38
19 42 39
18 41 39
18 42 39
18 41 38
18 40 38
18 40 37
18 41 38
18 42 39
18 41 39
19 42 39
18 42 39
18 41 38
19 42 39
19 43 40
18 42 39
18 41 38
19 42 39
18 41 38
19 42 39
19 42 39
19 42 39
18 41 38
19 42 39
18 41 39
18 41 38
18 41 39
19 42 39
18 41 38
19 42 39
19 42 39
18 41 38
18 41 38
19 42 39
19 42 39
19 42 39
18 42 39
19 42 39
19 42 39
19 43 40
19 42 39
19 42 39
19 42 39
18 41 38
19 42 39
19 42 39
18 42 39
18 41 38
18 41 38
19 42 39
19 43 40
18 42 39
19 42 39
19 42 39
19 42 39
18 41 38
19 43 40
19 42 39
18 41 38
19 42 39
19 42 39
18 42 39
19 42 39
18 42 39
18 41 38
19 42 39
18 41 39
19 42 39
18 41 38
19 42 39
18 42 39
18 42 39
18 41 38
19 42 39
19 42 39
18 40 38
18 41 38
18 41 38
19 42 39
19 42 39
19 42 39
19 42 39
18 41 39
18 41 38
18 42 39
18 42 39
18 42 39
18 41 39
18 41 38
19 43 40
18 41 39
19 42 39
18 42 39
18 42 39
18 41 38
18 40 38
18 41 38
18 42 39
18 41 38
18 41 38
18 41 38
18 41 38
19 42 40
18 41 39
19 42 39
18 41 38
18 41 38
18 41 38
19 43 40
18 41 39
18 41 39
18 41 38
18 41 39
18 41 38
18 41 38
18 40 38
18 40 37
18 41 39
18 41 38
18 40 37
18 40 38
17 39 37
18 41 38
19 42 39
18 42 39
18 41 38
18 41 38
19 43 40
19 42 39
19 42 39
18 42 39
19 42 39
19 42 39
18 41 39
19 42 39
18 41 38
19 42 39
19 42 39
19 43 40
19 42 39
19 43 40
19 42 39
18 41 39
18 41 38
19 42 39
18 41 38
18 41 38
19 42 39
18 41 39
18 41 39
19 43 40
18 41 38
19 43 39
19 42 39
18 41 38
18 41 38
19 43 40
19 42 39
18 41 38
19 42 39
19 42 40
19 42 39
19 42 39
19 42 39
18 42 39
18 42 39
19 43 40
19 42 39
18 41 38
18 41 38
18 41 38
19 42 39
19 43 40
19 42 39
19 42 39
19 42 39
19 42 39
19 42 39
19 42 39
19 43 40
18 41 38
19 42 39
19 42 39
18 41 38
19 42 39
18 41 39
18 42 39
19 42 39
19 42 39
18 41 38
19 42 39
18 41 38
18 41 39
19 42 39
18 42 39
18 41 38
19 42 39
18 40 37
18 41 39
18 41 38
18 41 38
19 43 40
19 42 39
19 42 39
18 41 38
19 42 39
19 42 39
18 41 39
18 41 39
19 42 39
18 42 39
19 42 39
18 41 38
19 42 39
18 41 38
19 42 39
18 42 39
19 42 39
19 42 39
19 42 39
18 41 38
19 42 39
18 40 37
18 41 38
18 42 39
18 41 38
18 42 39
19 43 40
18 42 39
19 42 39
18 41 38
18 41 39
19 42 39
18 41 38
18 41 38
18 41 39
18 41 38
18 42 39
18 42 39
18 41 38
19 42 39
18 41 38
19 42 40
18 41 38
18 41 38
18 42 39
19 42 39
19 42 39
19 42 39
18 42 39
19 42 39
19 42 39
19 42 39
19 43 40
19 43 40
19 42 39
19 42 39
19 42 39
18 42 39
18 42 39
18 42 39
19 42 39
19 43 40
18 42 39
18 41 38
19 43 40
19 42 39
19 42 39
19 43 40
19 42 39
19 43 40
18 41 38
18 42 39
19 42 39
19 43 40
19 42 39
19 43 40
19 42 39
19 42 39
18 42 39
19 42 39
18 41 38
19 42 39
19 43 40
19 42 39
19 43 40
18 41 38
18 41 38
19 42 39
19 42 39
19 42 40
19 42 39
19 42 39
19 42 39
19 42 39
19 42 40
19 43 39
19 44 40
19 42 39
19 42 39
18 41 38
18 42 39
18 41 38
19 43 40
19 43 40
18 41 38
18 41 38
19 42 39
19 43 40
19 44 40
19 42 39
19 42 39
19 43 40
19 42 39
19 42 39
19 42 39
18 41 38
18 41 38
19 42 39
19 42 39
19 42 39
19 42 39
19 42 39
19 42 39
18 41 38
18 41 38
19 42 40
19 42 39
19 42 39
18 41 38
18 42 39
18 41 38
19 42 39
19 42 39
18 42 39
18 40 38
19 42 39
18 42 39
19 42 39
18 41 38
18 41 38
18 41 38
18 41 38
18 41 38
19 42 39
19 42 39
18 41 38
18 40 37
18 41 38
18 41 38
18 41 38
18 41 38
18 41 38
18 40 37
19 42 39
18 41 38
18 41 38
18 41 38
18 41 39
19 42 39
18 40 38
19 42 39
18 41 38
19 42 40
18 41 39
19 42 39
19 42 39
19 43 40
19 42 39
19 42 39
19 42 39
19 43 40
19 42 39
19 42 39
19 43 39
18 41 38
19 42 39
19 42 39
19 42 39
19 42 39
19 43 40
19 42 39
19 42 39
19 42 39
19 42 39
18 41 38
19 43 40
19 42 39
19 42 39
19 44 40
19 42 39
19 42 39
19 42 39
19 42 39
20 44 41
19 42 39
19 43 40
18 42 39
19 42 39
19 43 40
19 42 39
19 43 40
19 42 39
19 43 40
19 42 40
19 42 39
19 42 39
19 42 39
19 42 39
19 42 39
19 42 39
19 43 40
19 42 39
19 43 40
19 42 39
18 42 39
19 43 39
19 42 39
19 43 40
19 43 40
19 42 39
19 43 40
19 43 40
19 42 39
19 43 40
19 43 40
19 43 40
19 43 40
18 42 39
19 43 40
19 42 39
19 42 39
18 41 38
19 44 40
18 42 39
19 43 40
19 42 39
19 42 39
19 42 39
19 42 39
19 42 39
19 42 39
19 43 39
19 42 39
19 42 39
19 42 39
19 43 40
18 41 39
19 43 40
19 42 39
19 42 39
19 42 39
18 41 38
19 42 39
19 42 39
18 41 38
18 42 39
19 42 39
19 42 39
19 42 39
18 42 39
19 42 39
19 42 39
19 42 39
19 42 39
19 42 39
19 42 39
19 42 39
18 42 39
19 42 39
18 41 39
18 41 39
19 42 39
18 41 38
18 42 39
18 41 38
18 41 38
18 41 39
18 41 38
19 42 39
19 42 39
19 42 39
18 40 38
18 41 38
18 41 38
18 41 39
18 40 37
19 43 40
18 41 38
19 43 40
20 44 41
19 42 39
19 43 40
18 41 38
19 43 40
19 42 39
19 43 40
19 43 40
19 44 40
18 41 38
19 43 40
19 42 39
19 43 40
19 42 39
19 44 41
19 43 39
19 43 40
19 43 40
19 43 39
19 43 40
19 43 40
19 43 40
19 43 40
19 42 39
19 43 40
19 43 40
19 43 40
19 43 40
19 43 40
19 43 39
19 42 39
19 43 40
18 42 39
19 42 39
19 43 40
19 43 40
18 41 38
19 42 39
19 42 39
19 42 39
19 42 39
19 43 40
19 43 40
19 42 39
19 43 40
19 43 40
19 43 39
19 43 40
19 42 39
19 42 39
19 42 39
18 41 38
19 44 40
18 41 38
19 43 40
19 43 40
19 42 39
19 42 39
19 42 39
19 42 39
19 43 40
19 42 39
19 42 39
19 43 40
19 43 40
19 43 40
19 42 39
19 42 39
19 42 39
19 42 39
19 42 39
18 41 39
19 43 40
18 41 38
18 41 39
19 42 39
19 42 39
19 42 39
19 42 39
18 41 38
19 42 39
19 43 40
18 42 39
18 41 38
19 42 39
18 41 38
18 41 39
19 42 39
18 42 39
19 42 39
19 42 39
18 41 38
19 42 39
18 41 38
19 42 39
19 42 39
19 42 39
19 42 39
19 42 39
18 41 38
19 42 39
19 42 39
19 42 39
19 42 39
18 42 39
19 42 39
19 42 39
18 41 38
18 42 39
19 42 39
19 42 39
19 43 40
18 42 39
19 42 39
18 42 39
18 42 39
18 41 38
19 43 40
19 43 39
19 42 39
19 43 40
19 43 40
19 43 40
19 42 39
19 42 39
19 42 39
19 42 39
19 43 40
19 44 40
19 43 39
19 43 40
19 42 39
19 43 39
19 42 39
19 43 40
19 42 39
19 42 39
19 42 39
19 43 39
19 42 39
19 43 40
19 43 40
20 44 40
19 43 39
19 43 40
20 44 41
19 43 39
19 42 39
19 43 40
19 43 40
19 43 40
19 43 40
19 43 40
20 44 41
19 42 39
19 43 39
19 43 40
19 43 40
19 43 40
19 43 40
19 43 40
19 43 40
19 42 39
19 43 40
18 41 38
19 43 40
19 43 40
19 43 40
19 42 39
19 42 39
19 43 40
19 43 40
19 44 40
18 42 39
19 43 40
20 44 41
19 42 39
19 42 39
19 43 40
19 44 40
19 43 40
19 43 40
19 42 39
19 43 40
19 42 39
19 42 39
19 43 40
19 43 40
19 43 40
19 43 40
19 43 40
19 42 39
18 41 38
19 43 40
19 43 40
19 43 39
19 42 39
19 43 39
19 43 40
19 42 39
19 43 40
19 42 39
19 42 39
19 42 39
19 42 39
19 42 39
19 42 39
19 43 40
19 42 39
19 42 39
19 43 40
19 42 39
18 42 39
19 43 40
19 43 40
19 42 39
19 43 40
19 42 39
18 41 39
18 41 38
19 42 39
19 42 39
19 42 39
19 42 39
19 42 39
18 41 38
19 42 39
19 42 39
18 40 37
19 43 40
18 40 38
19 42 39
19 42 39
19 42 39
18 41 39
19 42 39
18 41 39
19 43 40
19 43 39
19 43 40
20 44 41
19 43 39
20 44 41
19 43 40
19 43 40
19 43 40
19 44 40
19 43 40
19 43 40
19 43 40
19 43 40
19 43 40
19 43 39
19 42 39
19 43 40
19 43 40
19 43 40
19 42 39
19 43 40
19 43 40
19 43 40
19 43 40
19 43 40
19 42 39
20 44 40
19 42 39
19 43 40
19 42 39
19 44 40
19 43 40
19 43 40
19 43 40
19 42 39
19 43 40
20 44 41
20 44 40
19 43 40
19 42 39
19 42 39
19 43 40
19 43 40
19 43 40
19 43 40
19 42 39
19 43 40
19 42 39
19 43 40
19 43 40
19 43 40
20 44 41
19 43 40
19 43 39
19 43 40
19 43 39
19 42 39
19 43 40
19 44 40
19 43 40
19 43 39
19 42 39
19 42 39
19 43 39
19 42 39
19 43 40
19 43 40
19 43 39
19 43 40
18 41 38
19 43 40
19 42 39
19 43 40
19 43 40
19 42 39
19 42 39
19 43 40
19 42 39
19 42 39
18 41 38
19 43 40
19 42 39
19 43 40
20 44 41
19 42 39
19 43 40
19 42 39
19 42 39
19 42 39
18 41 38
19 42 39
19 43 40
19 43 40
19 42 39
19 43 40
19 43 40
19 42 39
19 43 40
19 43 40
19 42 39
19 42 39
19 43 40
19 42 39
18 41 38
19 43 39
19 42 39
19 42 39
18 41 38
19 42 39
18 42 39
19 42 39
19 42 39
19 42 39
19 43 40
19 42 39
19 43 40
19 42 39
18 41 38
19 42 39
20 44 40
19 42 39
19 43 40
19 43 40
19 42 39
19 42 39
19 43 40
19 42 39
19 42 39
20 44 40
19 43 40
19 43 40
19 43 40
19 43 40
19 43 40
19 44 40
19 43 40
19 43 40
19 43 40
19 43 40
19 42 39
19 42 39
19 43 40
19 43 40
19 43 40
19 44 40
19 43 39
19 43 40
19 43 40
19 42 39
19 43 40
19 43 39
20 44 41
19 42 39
19 42 39
19 43 40
19 43 40
19 43 40
19 43 40
19 43 39
19 43 39
20 44 40
19 42 39
19 43 40
19 43 40
19 43 39
19 43 40
20 44 41
20 44 40
19 42 39
19 43 40
19 43 39
19 43 40
19 43 39
19 43 39
20 44 41
19 44 40
19 43 40
19 43 39
19 43 40
19 42 39
19 43 40
19 42 39
19 43 40
19 43 40
19 43 40
19 43 40
20 44 41
19 44 40
19 43 39
19 42 39
19 43 40
19 43 39
19 42 39
19 43 40
19 42 39
19 43 40
19 43 40
19 43 39
20 44 41
19 43 40
19 42 39
19 43 40
19 43 40
19 44 40
19 43 40
19 42 39
19 42 39
19 43 40
19 43 40
19 42 39
18 41 38
19 43 40
19 43 39
19 43 40
19 43 40
19 43 40
19 43 40
19 43 40
19 42 39
19 43 40
19 42 39
19 43 40
19 42 39
19 43 40
19 43 40
19 42 39
19 42 39
19 43 40
19 42 39
19 42 39
19 43 40
19 42 39
19 43 39
19 42 39
19 42 39
19 42 39
19 42 39
19 42 39
19 43 40
20 44 40
19 43 40
19 42 39
19 44 40
19 43 39
20 44 41
20 44 40
19 44 40
19 43 40
19 43 40
19 43 40
19 43 40
19 43 40
20 44 41
20 44 40
19 43 40
20 44 40
19 43 40
19 43 40
19 43 39
19 43 40
19 43 40
20 44 41
19 43 40
19 43 39
19 43 40
19 43 40
19 43 40
20 44 41
19 43 40
19 43 40
19 43 40
20 44 41
19 43 40
19 43 40
19 43 39
19 43 40
19 43 40
19 42 39
19 43 40
20 44 41
20 44 40
20 44 40
20 44 41
20 44 40
19 43 40
19 43 40
19 43 40
20 44 40
19 43 40
19 43 39
19 43 39
19 43 40
20 44 40
19 43 40
19 43 40
19 44 40
20 44 41
19 42 39
20 44 40
19 43 40
20 44 40
19 43 40
19 43 40
19 43 40
19 43 40
19 43 40
19 43 39
20 44 41
20 44 41
19 43 39
19 43 40
19 43 40
19 42 39
19 43 40
19 43 40
19 43 40
19 43 40
19 43 40
19 43 39
19 43 39
19 42 39
19 42 39
20 44 41
19 43 40
19 43 40
20 44 40
19 43 40
19 43 40
19 42 39
19 43 40
19 43 40
19 43 40
18 42 39
19 43 40
20 44 41
19 44 40
18 41 38
19 43 39
19 42 39
19 43 40
19 42 39
19 42 39
19 43 39
19 42 39
19 44 40
19 43 40
19 42 39
19 43 40
19 42 39
19 43 39
19 42 39
19 42 39
19 42 39
19 42 39
19 42 39
19 42 39
18 41 38
18 41 39
19 42 39
19 43 40
19 42 39
19 43 39
19 43 40
19 43 39
19 42 39
19 43 40
20 44 41
18 41 38
20 44 41
19 43 40
19 43 40
19 43 40
19 43 39
19 43 40
20 45 41
20 44 40
20 44 40
19 43 40
19 44 40
19 42 39
19 42 39
19 43 40
19 43 40
19 44 40
20 44 41
19 44 40
19 43 40
20 44 40
20 44 41
20 44 41
20 44 41
19 43 40
19 43 40
19 43 40
19 43 40
20 44 40
20 44 41
20 44 40
20 44 41
20 44 41
19 43 40
19 43 40
20 44 41
20 44 41
20 44 41
20 44 41
19 42 39
20 44 41
19 43 40
20 44 40
19 43 40
19 43 40
19 43 40
19 43 40
20 44 40
19 43 40
20 44 40
19 43 40
19 43 40
20 44 41
19 42 39
19 42 39
19 43 40
19 42 39
19 42 39
19 43 40
19 43 40
19 43 40
19 43 40
19 43 39
19 42 39
19 42 39
19 43 40
20 44 41
19 43 40
19 43 40
20 44 41
20 44 40
19 43 39
19 43 40
19 41 38
19 43 40
19 44 40
19 43 40
19 42 39
19 42 39
19 43 40
19 42 39
19 43 40
20 44 41
19 43 40
18 41 38
19 43 40
19 42 39
19 43 40
19 43 40
19 43 40
19 43 40
19 43 40
20 44 41
19 43 40
19 43 40
19 43 39
19 43 40
19 42 39
19 43 40
19 43 40
19 43 40
19 43 40
19 44 40
19 42 39
19 42 39
19 43 40
19 42 39
19 43 40
19 43 39
19 42 39
19 42 39
19 43 40
19 43 40
19 43 40
20 44 40
20 44 40
20 44 40
20 44 40
20 44 40
19 43 40
20 44 41
19 44 40
20 44 41
20 44 40
20 44 41
20 44 40
20 44 41
20 44 41
20 44 41
19 43 40
20 44 40
19 43 40
19 43 40
20 44 41
20 44 40
19 43 40
20 44 40
20 44 41
20 44 40
20 44 40
20 45 41
19 43 40
20 44 40
20 44 41
19 43 40
20 45 41
19 43 40
20 44 41
19 43 39
19 43 40
19 43 40
19 44 40
20 44 41
20 44 41
19 43 40
20 44 40
20 44 41
20 44 41
20 44 40
20 44 40
20 44 41
20 44 40
20 44 40
19 43 40
20 44 40
20 44 40
19 43 40
20 44 40
20 45 41
19 43 40
20 44 40
20 44 40
20 45 41
20 44 40
19 43 40
19 43 40
20 44 40
20 44 41
20 44 40
20 45 41
20 45 42
19 43 40
19 43 40
19 43 39
19 43 40
19 43 40
19 43 40
19 43 40
20 44 41
19 43 40
19 43 40
19 43 40
19 44 40
19 43 40
19 43 40
19 43 40
19 43 40
19 42 39
19 43 40
19 43 40
19 43 40
20 44 40
19 42 39
20 44 41
20 44 40
20 44 40
19 42 39
20 44 41
19 43 39
19 43 40
19 43 40
19 43 39
20 44 41
20 44 41
19 43 40
19 43 40
19 42 39
19 42 39
19 43 40
20 44 41
19 43 39
19 43 40
19 42 39
19 42 39
20 44 41
18 41 38
19 43 40
19 42 39
19 44 40
19 42 39
19 43 39
19 42 39
19 43 40
20 44 41
20 44 41
20 44 40
20 44 41
20 44 40
19 43 40
20 44 41
20 44 40
20 44 41
20 45 42
20 44 40
20 44 40
20 43 40
19 43 39
20 45 41
20 44 41
19 44 40
20 44 40
20 44 41
19 43 40
20 44 40
20 44 40
20 44 41
20 44 40
20 44 40
19 43 39
19 43 40
19 43 39
20 44 41
20 45 41
20 44 40
20 44 41
20 44 41
20 44 41
19 43 40
20 44 41
19 43 40
20 44 40
20 44 41
20 44 41
20 44 40
19 43 40
20 44 40
20 44 41
20 44 41
20 44 40
19 43 40
20 44 41
20 44 41
19 43 40
20 44 40
19 43 40
19 43 40
20 45 41
20 44 40
20 44 40
20 45 41
19 44 40
20 44 40
20 45 41
20 44 40
20 45 41
20 44 41
20 44 41
20 44 40
20 44 40
19 43 40
19 43 40
20 44 41
19 43 39
19 43 40
20 44 41
19 43 40
20 44 41
20 44 40
19 42 39
19 43 40
20 44 41
19 44 40
19 43 40
20 44 41
20 44 41
20 44 40
19 42 39
19 43 40
19 43 40
19 43 40
19 42 39
19 43 40
20 44 41
19 42 39
20 44 40
19 43 39
19 44 40
19 43 40
19 43 39
19 43 39
20 44 40
19 43 40
19 43 40
19 43 40
19 43 40
19 42 39
19 43 40
20 44 41
19 43 40
19 42 39
19 42 39
19 43 40
19 42 39
19 43 40
19 42 39
19 42 39
19 43 39
19 43 40
19 42 39
19 43 40
19 43 40
19 43 40
19 44 40
20 44 41
19 44 40
20 44 41
20 44 40
20 44 40
20 45 41
20 44 41
20 44 40
20 44 40
19 43 39
20 44 41
20 45 41
19 43 40
20 44 40
20 44 40
20 44 41
20 44 41
20 44 41
19 43 40
20 44 40
20 44 41
20 44 41
20 44 41
20 45 41
20 44 40
20 45 41
20 45 41
19 43 40
20 45 41
20 44 41
20 45 41
20 45 41
20 44 41
20 45 41
20 45 41
20 44 41
20 44 41
20 44 40
20 44 40
20 44 40
20 45 42
20 44 41
20 44 41
20 44 41
19 43 40
20 44 40
19 43 40
19 43 40
20 44 41
19 43 40
20 44 41
19 43 39
20 44 40
20 45 41
20 44 40
20 45 41
20 44 40
20 45 41
20 44 41
19 43 40
19 43 40
20 44 40
20 45 41
19 43 39
20 44 41
19 44 40
20 44 40
19 43 40
20 43 40
19 43 40
20 44 40
20 44 40
20 44 40
20 44 41
20 44 41
19 43 40
20 44 41
20 44 40
20 44 40
20 44 41
19 43 39
20 44 41
20 45 41
19 43 40
19 43 39
20 44 40
19 43 40
20 44 41
20 44 41
20 45 41
20 44 41
19 43 40
20 44 41
19 43 40
19 43 40
20 44 41
19 43 40
20 44 41
19 43 40
19 43 40
19 43 40
20 44 40
19 43 40
19 43 40
19 43 40
20 44 41
19 43 40
19 42 39
19 43 40
19 43 40
19 43 40
19 43 40
19 42 39
19 43 40
19 44 40
19 42 39
19 42 39
19 42 39
19 42 39
20 44 40
20 44 41
20 45 41
20 45 42
20 45 41
20 44 41
20 44 41
20 44 41
19 43 40
20 45 41
20 44 41
21 46 42
20 45 41
20 45 41
20 45 41
20 44 41
20 44 41
19 43 40
20 45 41
20 45 42
19 43 40
20 45 41
20 45 41
20 44 40
20 44 41
20 45 41
20 43 40
20 44 40
20 44 40
20 45 41
20 44 41
20 44 41
20 45 41
20 44 41
20 44 41
20 44 40
20 45 41
20 45 42
20 44 40
20 44 40
20 45 41
20 45 41
20 44 40
20 44 41
20 45 41
20 44 41
20 44 41
20 44 40
20 45 41
20 44 40
20 44 41
20 44 40
20 45 41
19 43 40
20 44 41
20 44 41
20 44 41
19 43 40
20 44 40
20 46 42
20 44 40
20 44 40
20 45 41
20 44 40
19 43 40
20 44 40
20 44 40
20 44 41
19 43 40
20 44 40
19 43 40
20 44 41
20 44 40
20 44 41
20 44 40
20 44 41
20 44 41
20 44 41
19 43 40
20 45 41
19 43 40
20 44 41
19 43 40
19 43 39
19 43 40
19 43 40
20 44 40
19 43 40
20 44 40
20 44 40
20 45 41
19 43 39
19 43 40
20 45 42
20 44 40
19 43 39
20 44 41
19 43 40
20 44 41
19 43 40
19 43 40
20 44 40
19 43 40
20 44 40
20 44 41
20 44 41
19 43 40
19 43 40
19 43 40
19 43 39
20 45 42
19 43 40
19 44 40
19 43 40
19 44 40
19 43 39
19 43 40
20 44 40
19 43 40
19 42 39
20 44 41
20 45 42
20 45 41
20 45 41
20 45 42
19 43 40
20 45 41
20 44 40
21 46 42
20 45 41
20 45 41
20 44 40
20 45 42
20 45 42
20 45 41
20 44 41
20 44 41
21 46 42
20 45 42
20 44 41
20 44 41
20 44 40
20 44 41
21 46 42
20 45 41
20 44 40
20 45 41
20 45 41
20 44 40
20 44 41
20 44 40
20 44 40
20 45 42
20 44 41
20 44 41
20 45 41
20 46 42
20 44 40
20 44 40
20 45 41
20 45 42
20 44 41
20 44 40
20 45 41
20 44 41
19 43 40
20 44 40
20 45 41
20 45 41
20 44 40
20 44 40
20 44 40
20 44 41
20 45 41
20 45 41
19 43 40
20 45 41
20 44 40
20 45 41
20 45 41
20 44 40
19 43 40
20 44 41
20 44 41
20 45 41
20 44 41
20 44 41
20 45 42
20 44 41
20 44 41
20 44 40
20 44 41
20 43 40
20 44 41
20 44 41
20 45 41
20 45 41
20 44 41
20 44 41
20 45 41
20 44 40
20 44 41
20 44 40
20 44 41
19 43 40
20 44 40
19 43 40
19 43 40
19 43 40
20 44 40
20 44 41
19 43 40
19 43 40
19 43 40
19 43 39
19 42 39
19 43 40
19 43 40
19 43 40
19 43 40
19 43 40
20 44 40
19 42 39
19 44 40
20 44 41
20 45 41
19 43 39
20 44 41
19 44 40
19 43 40
19 43 40
20 44 40
20 44 40
20 44 40
19 44 40
19 43 39
19 43 39
19 43 39
20 44 41
19 43 40
20 46 42
20 44 40
20 44 41
20 45 41
20 44 41
20 45 41
20 44 41
20 45 41
20 45 42
20 45 41
20 45 41
20 45 41
20 44 40
20 45 41
20 45 41
20 45 41
21 46 42
20 44 40
20 45 42
20 45 41
20 45 41
20 44 41
20 44 41
20 44 41
20 44 40
20 45 41
20 45 41
20 44 40
20 44 41
20 44 41
20 44 41
21 46 42
21 46 42
20 44 40
20 45 42
20 45 41
20 45 41
21 46 42
21 46 42
20 45 41
20 45 42
20 45 42
20 44 41
20 44 41
20 44 40
20 44 41
20 45 41
20 44 41
21 46 42
20 44 41
20 44 41
20 45 41
20 44 41
20 45 41
20 45 41
20 44 41
20 44 41
20 45 42
21 46 42
20 44 40
19 43 40
20 44 41
20 44 41
20 44 41
20 44 41
20 45 41
20 44 40
20 44 41
20 45 41
21 46 42
20 44 41
20 44 41
20 44 41
20 44 41
20 45 41
20 44 40
20 45 41
20 45 41
20 44 40
20 44 40
20 44 40
20 44 41
20 44 41
20 45 41
20 45 41
20 44 41
20 44 41
20 44 40
20 44 41
20 45 41
20 45 41
20 45 41
20 44 40
19 43 40
20 45 42
20 44 41
20 44 40
19 43 40
20 44 40
20 44 41
19 42 39
20 45 41
20 44 40
19 43 40
20 44 41
20 44 40
19 43 40
20 44 41
19 43 40
19 43 40
20 45 41
19 43 40
19 43 40
19 43 40
19 43 39
20 44 41
19 43 40
20 44 41
19 43 40
20 44 40
20 44 41
20 45 41
20 45 41
20 45 41
20 45 41
20 45 41
20 45 41
20 45 41
20 44 41
20 44 41
20 45 41
21 47 43
20 45 41
20 45 41
21 46 42
20 44 40
20 45 41
20 45 41
20 45 42
20 45 41
20 44 41
20 45 41
20 45 41
21 47 43
20 45 41
20 45 41
20 45 41
21 46 43
20 45 42
20 46 42
20 45 41
20 45 41
20 46 42
20 44 41
20 45 41
20 44 40
20 45 41
20 45 41
20 44 41
20 45 42
20 44 41
20 44 41
20 45 42
20 45 41
20 44 41
20 45 42
20 45 41
20 45 41
20 45 41
20 45 41
20 44 41
20 45 42
20 44 41
20 45 41
20 44 40
20 45 41
20 44 40
20 45 41
20 45 42
20 43 40
21 46 43
20 44 41
20 45 41
20 44 41
20 44 40
20 44 41
20 44 40
20 44 40
20 44 40
20 44 40
20 44 41
20 44 41
20 45 41
20 44 40
20 45 41
19 43 40
20 44 41
20 44 41
20 44 41
20 44 41
21 46 42
20 45 41
20 44 40
20 45 41
19 43 40
20 44 41
20 45 41
20 44 41
19 43 40
19 43 40
20 44 41
20 44 40
20 45 41
20 44 41
19 43 40
19 43 40
20 44 41
20 44 41
20 44 41
20 44 41
20 44 41
20 44 40
19 43 40
20 44 41
20 44 40
19 43 40
20 44 41
20 44 41
19 43 40
19 43 40
19 43 39
19 43 40
20 45 41
19 43 40
19 43 40
20 44 40
20 44 40
19 43 40
19 43 39
20 44 40
20 45 41
20 45 41
21 46 42
20 44 40
20 45 41
20 45 41
21 47 43
20 45 41
20 44 41
20 46 42
20 44 40
20 45 41
20 45 41
20 45 41
21 46 42
20 44 41
21 46 42
20 45 41
20 44 41
21 46 42
20 44 41
21 46 42
20 44 40
21 46 42
20 44 41
20 45 41
20 45 41
20 45 42
20 45 41
20 44 41
20 45 41
20 45 41
20 45 42
20 44 41
20 44 41
20 45 41
20 45 41
20 45 42
20 45 41
21 46 42
20 45 41
20 45 41
20 45 41
20 45 41
20 45 41
20 44 41
20 45 41
20 45 41
20 45 42
20 44 41
20 44 41
20 45 42
21 46 42
20 45 42
20 45 41
20 44 40
20 44 40
21 46 42
20 44 41
20 44 41
20 45 41
20 44 40
20 44 40
20 45 41
20 45 41
20 45 41
20 44 40
21 46 42
20 44 40
20 45 41
20 44 41
20 45 41
20 44 41
20 44 40
20 44 40
20 45 41
19 43 40
20 45 41
20 44 40
20 45 42
20 45 41
20 44 41
20 44 40
20 45 41
20 44 41
20 44 40
20 45 42
20 45 41
20 45 41
19 43 40
20 44 40
20 44 40
20 45 41
20 44 41
19 43 40
20 45 41
20 45 41
19 44 40
20 44 40
20 44 41
20 44 41
19 43 40
20 44 40
20 45 41
20 44 41
19 43 40
19 43 40
20 44 41
20 44 40
19 43 40
20 44 41
19 43 40
20 45 41
19 43 40
20 44 40
20 44 41
20 44 40
20 44 41
19 43 40
19 43 40
20 45 41
20 45 41
20 45 41
20 45 41
20 45 42
21 47 43
21 46 42
21 46 42
20 45 41
21 46 42
20 44 41
21 46 42
21 46 42
20 45 41
20 45 41
21 47 43
20 44 41
20 45 42
20 45 41
21 46 42
20 45 41
21 46 42
21 46 42
21 46 42
20 45 42
20 45 41
20 45 41
20 45 41
20 44 40
20 45 41
21 46 42
21 45 42
20 44 41
21 46 42
21 46 42
20 44 40
20 44 41
21 46 42
21 46 42
21 45 42
20 45 42
20 45 41
20 45 42
20 44 40
21 46 42
20 46 42
20 44 41
20 45 41
20 45 42
20 45 41
21 46 42
20 45 41
20 45 41
20 45 42
20 45 41
21 46 42
20 45 41
20 45 41
20 46 42
20 45 41
21 46 42
20 45 41
20 45 41
20 44 40
20 45 41
20 45 41
20 44 41
20 45 42
20 45 41
20 44 41
20 45 41
21 46 42
20 45 42
20 45 41
20 45 42
20 45 41
20 46 42
20 45 41
20 44 40
20 44 41
20 45 42
20 45 41
20 45 42
21 46 42
20 44 41
20 44 40
21 46 42
20 44 40
19 43 40
20 44 41
20 44 40
20 44 41
19 43 39
20 45 42
20 45 42
20 44 41
20 44 41
20 43 40
20 44 40
20 45 42
19 43 40
19 43 40
20 45 41
19 43 40
20 44 41
20 45 41
19 43 40
20 44 41
20 44 41
20 44 41
20 44 41
20 45 42
19 43 40
20 45 42
20 44 41
19 43 40
20 44 40
20 44 41
19 43 40
20 44 41
21 46 42
21 46 42
20 45 41
20 45 41
21 46 42
21 46 42
21 47 43
21 46 43
21 46 42
21 46 42
21 46 42
21 46 43
21 46 42
21 46 42
21 46 42
21 46 42
21 46 42
21 46 42
20 44 41
21 47 43
21 47 43
21 46 42
20 44 40
21 46 42
20 45 41
21 46 42
20 45 41
21 46 42
20 45 42
21 45 41
21 46 42
21 46 42
21 46 42
21 46 42
20 45 41
20 45 41
21 46 42
20 45 41
20 44 40
20 44 40
21 46 42
20 45 41
21 45 42
20 45 41
21 46 42
21 46 42
20 45 41
20 45 41
20 45 41
20 45 41
20 44 41
21 45 42
21 46 42
21 46 42
20 45 41
21 46 42
22 48 44
20 45 41
20 44 41
20 44 40
20 45 41
21 46 42
20 45 41
20 45 42
20 45 41
20 45 41
21 46 42
20 44 41
20 45 41
20 44 40
20 44 40
20 44 40
20 45 41
20 45 41
20 45 42
20 44 41
20 45 41
20 45 41
21 46 42
20 45 41
20 44 41
20 44 41
20 45 41
20 45 41
20 45 41
20 44 41
20 45 42
21 46 42
20 44 41
20 44 41
21 46 42
20 45 41
20 44 41
20 44 41
20 44 41
20 45 41
20 45 41
19 43 40
20 44 40
20 44 41
19 43 40
20 45 41
20 44 40
20 44 41
20 44 40
19 43 40
20 44 40
19 43 39
19 43 40
20 45 41
20 45 41
20 44 40
20 44 41
20 44 40
20 44 40
20 44 40
19 43 40
20 45 41
20 44 40
20 44 40
20 44 41
21 46 42
21 46 42
20 45 41
21 45 42
20 45 42
21 46 42
21 46 42
21 46 42
20 45 41
21 47 43
20 45 41
21 46 42
21 46 42
21 46 42
21 46 42
21 47 43
21 46 42
20 45 41
20 45 41
21 46 42
21 46 43
21 46 42
21 46 42
21 46 42
21 46 42
21 46 42
20 45 41
21 46 42
20 45 41
21 46 42
21 46 42
20 45 41
20 45 42
21 46 42
21 46 42
20 44 41
20 45 41
21 46 42
20 45 41
21 46 42
21 46 42
21 46 42
21 46 43
20 45 41
21 47 43
20 45 41
21 46 42
20 45 41
20 45 41
20 44 41
21 46 42
20 45 41
21 47 43
20 45 41
20 45 42
20 45 41
20 45 41
21 46 42
20 44 41
20 45 41
21 46 42
20 45 41
20 44 40
20 45 41
20 45 41
20 45 41
20 45 41
20 45 41
21 46 42
20 45 42
20 45 41
20 44 40
21 46 42
21 46 42
20 45 41
20 44 41
21 46 42
20 44 40
20 45 42
20 45 41
21 46 42
21 46 42
21 46 42
20 44 41
19 43 39
20 45 41
20 45 41
20 44 41
20 44 40
20 45 41
20 45 41
20 44 41
20 45 41
20 45 41
19 43 40
20 44 41
20 44 41
20 44 41
20 44 41
20 45 41
20 45 41
20 45 41
20 44 41
20 44 40
20 44 40
19 43 40
20 44 40
20 45 41
20 45 41
20 44 40
20 45 41
20 45 41
20 44 41
20 44 40
20 44 41
20 44 41
20 45 41
20 45 42
20 44 40
21 46 42
21 47 43
21 47 43
21 46 42
21 46 42
21 46 42
21 47 43
20 45 41
21 46 42
21 46 42
21 46 42
21 46 42
21 46 42
21 46 42
21 46 42
20 45 41
20 45 41
21 45 42
21 47 43
20 45 41
20 45 41
21 46 42
22 48 44
21 46 42
21 46 42
21 46 42
21 46 42
21 47 43
21 46 42
21 46 42
21 46 42
21 46 42
21 47 43
21 46 42
20 45 41
21 47 43
21 46 42
20 45 41
21 46 42
21 46 42
21 47 43
21 46 42
20 45 41
21 46 42
21 46 42
21 46 42
21 47 43
21 45 42
21 46 43
20 45 42
20 45 41
20 45 41
20 45 41
21 46 42
21 46 42
21 46 42
21 46 42
21 46 42
21 46 42
20 45 41
20 45 41
21 46 42
21 45 42
21 46 42
20 45 42
20 45 42
20 45 41
21 46 42
20 45 42
20 45 42
20 44 41
20 44 41
21 45 42
20 45 42
20 45 41
21 47 43
20 45 41
20 45 42
20 45 41
20 45 41
20 45 41
21 46 42
20 45 41
20 45 41
20 45 41
20 45 41
21 46 42
20 45 42
20 45 41
20 45 41
20 44 41
20 45 41
20 44 40
20 45 41
20 44 41
20 45 41
20 45 41
20 45 41
20 44 41
20 45 41
20 44 41
20 44 41
21 46 42
20 44 40
20 45 41
20 45 41
20 44 40
20 45 41
20 44 41
19 43 40
21 46 42
20 44 40
20 44 41
20 45 41
19 43 40
20 45 41
19 43 40
20 44 40
20 45 41
20 44 40
21 46 42
21 46 42
21 47 43
21 46 42
21 46 42
20 45 41
21 47 43
21 45 42
21 47 43
21 47 43
21 46 42
21 47 43
21 46 42
20 45 41
21 47 43
21 46 42
21 46 42
21 47 43
21 46 42
21 46 42
20 45 41
21 46 42
21 46 42
21 47 43
21 46 42
21 46 42
21 47 43
21 47 43
21 46 42
20 45 41
21 46 42
21 46 42
21 46 42
21 46 42
21 47 43
21 47 43
20 45 41
21 47 43
20 45 41
20 45 41
21 46 42
20 45 41
21 46 42
20 45 41
21 47 43
21 46 42
21 47 43
21 46 42
21 45 42
21 45 41
21 46 42
20 45 41
21 46 42
21 47 43
20 45 41
21 46 42
21 46 42
21 47 43
20 45 41
21 46 42
21 46 42
20 45 41
20 45 41
20 45 41
21 46 42
20 45 41
21 46 42
20 44 41
20 45 41
21 46 42
20 45 41
21 46 42
20 45 41
20 45 41
20 45 41
20 44 41
21 46 42
20 45 41
21 46 42
20 44 40
20 45 41
20 44 41
20 45 41
21 46 42
21 46 42
20 45 41
20 45 41
20 45 41
21 46 42
20 46 42
20 44 41
20 45 41
20 45 41
20 45 41
20 45 42
20 45 41
20 45 41
20 45 41
21 46 42
20 45 41
20 45 41
20 45 41
19 43 40
20 45 41
20 45 41
20 45 42
20 46 42
20 44 40
20 45 42
20 45 41
20 44 41
20 44 40
20 45 41
20 44 41
20 45 41
20 45 42
20 45 42
20 45 41
20 44 41
20 44 41
21 46 42
21 46 42
21 46 42
21 47 43
21 47 43
21 46 42
21 46 42
21 47 43
21 47 43
22 48 43
21 46 42
21 47 43
21 46 42
20 45 41
21 46 42
21 47 43
21 46 42
21 47 43
21 46 42
21 46 42
21 47 42
21 46 41
20 45 41
21 46 42
21 46 42
21 47 43
21 46 42
21 46 42
21 46 42
22 48 44
21 46 42
21 46 42
21 47 43
21 47 43
21 46 42
20 45 41
21 47 43
20 45 41
21 46 42
21 46 42
20 45 41
21 46 42
21 46 42
21 46 42
21 46 42
21 46 42
21 46 42
20 45 41
21 47 43
21 46 42
21 46 42
21 46 42
21 46 42
21 46 42
20 45 41
21 46 42
21 47 43
21 46 42
21 47 43
21 47 43
21 47 43
21 46 42
21 46 42
20 45 41
20 44 41
21 47 43
21 46 42
20 44 40
21 46 42
20 45 41
20 45 41
20 45 41
21 46 42
21 46 42
20 45 42
20 45 41
21 46 42
20 45 41
20 45 42
21 46 42
20 45 41
20 45 41
20 46 42
20 45 41
20 45 41
20 45 41
20 45 41
20 45 41
21 46 42
20 45 41
20 45 41
20 45 41
20 45 41
20 45 41
21 46 42
20 45 41
20 44 40
20 45 41
20 45 42
20 45 42
20 45 42
20 45 41
20 45 41
20 46 42
20 44 40
20 45 41
20 44 41
20 45 41
20 44 41
20 44 41
21 46 42
20 45 41
20 45 41
20 45 41
20 45 42
20 45 42
19 43 40
20 44 40
20 44 41
20 44 41
22 48 44
21 47 43
22 48 44
21 46 42
21 47 43
21 46 42
21 47 43
21 47 43
21 46 42
21 47 43
21 47 43
21 45 41
21 45 41
21 47 43
21 47 43
22 48 43
21 46 42
21 46 42
21 45 42
21 46 42
21 46 42
20 45 41
21 46 42
21 47 43
21 46 42
20 45 41
21 46 42
21 47 43
22 48 44
21 46 42
21 47 43
21 46 42
21 47 43
21 45 41
21 47 43
21 47 43
21 46 42
22 48 44
21 47 43
21 46 42
21 45 41
21 46 42
21 47 43
21 46 42
21 46 42
21 47 43
21 46 42
21 46 42
21 46 42
21 46 42
21 46 42
21 46 42
21 46 42
21 46 42
21 47 43
21 46 42
21 46 42
21 46 42
21 46 43
21 46 42
21 46 42
21 47 43
21 46 42
20 45 41
21 47 43
20 45 41
21 46 42
20 45 41
20 45 41
20 45 41
20 45 41
21 46 42
21 46 42
21 46 42
21 45 42
21 47 43
20 45 41
21 47 43
20 45 41
20 45 41
20 45 41
21 46 42
20 45 41
21 46 42
20 45 41
21 46 42
20 45 41
21 46 42
20 45 41
20 45 42
21 46 42
20 45 41
20 44 41
21 46 42
20 45 41
21 46 42
21 46 42
21 46 42
20 44 41
20 45 41
20 44 41
21 46 42
21 46 42
20 44 41
20 45 42
20 45 42
20 45 41
20 45 41
21 46 42
20 45 41
20 44 41
20 45 42
20 44 40
20 45 42
20 44 40
20 44 41
19 43 40
20 45 41
20 45 41
20 45 41
21 47 43
21 46 42
21 47 43
22 48 44
21 47 42
21 47 42
22 48 44
22 47 43
21 47 43
22 47 43
21 46 42
21 46 42
21 47 43
21 47 43
22 48 44
21 46 42
21 47 42
21 47 43
21 47 43
21 47 43
21 46 42
21 47 43
21 47 43
20 45 41
21 47 43
21 46 42
21 47 42
21 46 42
21 47 43
21 47 43
21 46 42
21 46 42
21 46 42
21 47 43
21 46 42
22 48 44
21 47 43
21 46 42
22 48 43
21 46 42
21 46 42
21 46 42
21 46 42
21 46 42
22 48 44
21 46 42
21 47 42
21 46 42
21 46 42
21 46 42
21 47 43
21 47 42
21 46 42
21 46 42
21 47 43
21 47 43
21 45 41
21 46 42
21 47 43
21 46 42
20 45 41
21 46 42
20 45 41
21 46 42
21 46 42
21 46 42
21 45 41
20 45 41
21 45 42
21 46 42
21 45 42
21 46 42
21 46 42
21 46 42
20 45 41
21 47 43
21 45 41
21 46 42
20 45 41
21 46 42
21 46 42
21 46 42
21 46 42
21 46 42
21 46 42
21 46 42
21 46 42
20 45 41
21 46 42
20 45 41
21 46 42
21 46 42
20 45 41
20 44 41
20 45 41
20 45 42
20 45 41
20 45 42
21 46 42
21 47 43
20 45 41
21 46 42
21 46 42
21 46 42
20 44 41
20 44 41
20 44 41
20 45 41
20 44 40
20 44 41
20 44 41
20 45 41
20 45 41
20 44 41
20 45 42
20 44 41
20 45 42
20 44 41
20 45 41
20 44 41
22 47 43
21 46 42
22 48 44
21 47 43
22 47 43
21 47 43
21 47 43
21 47 43
21 46 42
21 47 42
21 47 43
21 47 43
21 46 42
21 47 43
21 46 42
21 46 42
21 46 42
22 48 43
21 47 42
21 47 43
21 47 42
22 48 44
21 47 43
21 46 42
21 47 43
21 46 42
21 47 43
21 46 42
21 46 42
21 47 43
21 46 42
21 46 42
21 46 42
22 48 43
21 47 43
21 47 43
21 46 42
21 47 43
21 47 43
21 47 43
21 46 42
21 46 42
21 46 42
21 47 43
22 48 44
21 47 42
21 47 43
21 47 43
20 45 41
21 47 43
21 46 42
21 46 42
21 46 42
21 46 42
21 46 42
21 46 42
21 46 42
21 47 43
21 45 41
21 46 42
21 45 41
21 47 43
21 46 42
21 46 42
21 47 43
20 45 41
21 45 41
21 47 42
20 45 41
21 46 42
21 46 42
21 46 42
20 45 42
72 76 69
93 92 85
52 63 57
21 46 42
21 47 43
21 47 43
21 45 42
21 46 42
21 46 42
20 45 41
21 46 42
21 46 42
21 46 42
21 47 43
21 45 42
21 46 42
21 46 42
20 45 41
21 47 43
21 46 42
20 45 41
20 44 41
20 45 41
20 45 42
21 46 42
20 45 42
21 46 42
20 45 41
20 45 41
20 45 41
20 45 41
20 45 41
20 44 41
20 45 41
20 45 41
21 46 42
20 45 41
20 44 41
20 45 41
20 45 42
20 45 41
20 45 41
20 44 40
20 45 41
20 45 41
20 45 42
20 45 41
22 48 44
21 46 42
21 47 43
21 47 43
21 47 43
21 46 42
21 47 43
21 46 42
22 48 44
22 48 43
21 47 42
21 47 43
21 47 43
22 48 44
22 47 43
21 46 42
21 46 42
21 47 42
22 48 44
21 47 42
21 47 43
22 48 43
21 47 42
21 46 42
21 47 43
21 47 43
21 47 43
21 46 42
22 47 43
22 48 44
21 47 42
21 47 43
21 46 42
21 46 42
21 46 42
21 46 42
21 47 43
22 48 44
21 47 43
22 48 43
21 47 43
21 46 42
21 47 43
21 47 42
21 46 42
21 47 43
21 46 42
21 46 42
22 48 44
22 47 43
21 45 41
21 47 43
21 46 42
21 45 41
21 47 43
21 46 42
21 47 42
21 46 42
21 46 42
21 47 43
21 46 42
21 46 42
21 46 42
21 46 42
21 46 42
21 46 42
22 48 44
21 46 42
21 46 42
21 47 43
21 46 42
80 81 73
203 182 165
239 213 194
235 210 193
219 196 181
86 73 89
24 46 43
21 46 42
21 45 42
21 45 41
20 45 41
21 46 42
21 45 42
21 46 42
21 47 43
21 46 42
21 46 42
21 46 42
21 47 43
21 46 42
21 47 43
20 45 42
21 46 42
20 45 41
20 45 41
21 46 42
21 46 42
20 45 42
21 46 42
21 46 42
20 45 41
21 46 42
20 45 41
21 46 42
20 45 41
21 46 42
21 45 42
21 46 42
21 46 42
20 45 42
20 45 41
20 44 41
20 45 41
20 45 41
21 46 42
20 45 41
20 45 41
21 46 42
20 45 41
22 48 44
22 48 44
22 48 43
21 47 43
22 48 44
21 47 43
21 46 42
22 48 43
21 46 42
22 49 44
22 48 43
21 46 42
21 47 42
22 48 43
21 47 43
22 48 44
21 46 42
21 46 42
21 47 43
21 47 43
22 48 44
20 45 41
21 46 42
21 47 43
22 47 43
21 47 42
22 48 44
21 47 43
21 47 43
22 48 43
22 48 44
21 46 42
21 47 42
21 46 42
21 47 43
21 46 42
22 48 43
21 47 43
21 47 43
22 48 43
21 47 43
22 48 43
21 47 43
22 47 43
21 47 42
21 47 43
21 47 43
21 47 43
21 47 43
22 48 43
22 48 44
21 46 42
22 48 43
21 47 42
21 47 43
21 47 43
21 47 43
22 47 43
21 47 43
21 46 42
21 46 42
21 45 41
21 47 43
21 46 42
21 46 42
21 47 42
21 47 42
21 46 42
21 47 42
21 46 42
49 60 54
210 187 168
249 220 199
247 219 199
236 209 192
146 120 133
92 61 100
66 50 76
21 46 42
21 46 42
21 46 42
20 45 41
20 45 41
20 45 41
21 46 42
20 45 41
21 46 42
20 45 41
21 46 42
21 45 42
21 46 42
20 45 41
20 45 41
21 45 42
21 46 42
20 45 41
21 46 42
21 46 42
20 45 41
21 46 42
21 47 43
21 46 42
20 45 41
21 46 42
21 47 43
20 45 41
21 45 42
21 46 42
21 46 43
21 46 42
20 44 41
20 45 41
20 45 41
20 45 41
20 45 41
20 44 41
21 46 42
20 45 41
20 45 41
20 45 41
21 47 43
21 47 43
22 48 44
22 48 44
22 48 44
22 48 43
21 47 43
22 48 44
22 48 44
22 48 43
21 47 43
21 47 43
22 48 44
22 48 43
21 47 43
22 47 43
21 47 43
21 47 43
22 48 43
21 47 43
21 46 42
21 46 42
22 48 44
22 48 43
21 47 43
22 48 43
21 46 42
21 47 43
21 46 42
21 47 43
21 47 42
22 49 44
21 46 42
22 48 44
21 47 43
22 48 43
21 46 42
21 47 43
22 47 43
21 47 43
21 47 43
21 47 43
21 47 43
21 47 43
22 48 43
22 47 43
21 46 42
21 46 42
21 47 43
21 47 43
22 48 43
21 47 43
21 47 43
21 46 42
21 46 42
21 47 43
21 47 43
21 47 43
21 47 43
21 47 43
21 47 43
22 48 44
20 45 41
21 46 42
21 46 42
21 46 42
21 46 42
21 46 42
21 45 41
21 47 43
132 120 107
236 207 185
247 217 195
255 231 208
143 115 131
98 64 104
92 61 99
76 51 84
30 43 46
21 46 42
21 45 42
21 46 42
21 47 42
21 47 43
21 46 42
21 46 42
20 44 41
20 45 41
21 46 42
21 46 42
21 47 43
21 45 42
21 47 43
21 47 43
21 46 42
21 46 42
21 46 42
21 47 43
20 45 41
21 46 42
21 46 42
20 45 41
20 45 41
20 45 41
20 45 41
21 46 42
21 46 42
20 44 40
20 45 41
20 45 41
21 46 42
20 45 42
21 46 42
21 46 42
20 45 41
21 45 41
21 46 42
20 45 41
21 46 42
20 45 42
22 48 43
22 47 43
22 47 43
21 47 43
22 49 44
22 49 44
22 48 43
21 46 42
21 47 43
22 48 44
21 47 43
22 48 43
21 47 42
21 47 43
22 47 43
22 47 43
22 47 43
22 48 44
22 48 43
21 47 43
21 47 43
21 47 42
22 47 43
22 48 44
22 47 43
22 48 44
22 48 43
22 48 44
21 47 42
21 47 43
21 47 42
21 46 42
21 47 42
22 47 43
21 47 43
21 47 42
21 47 43
21 47 42
21 46 42
21 47 43
22 48 43
21 46 42
21 46 42
21 47 43
22 47 43
21 46 42
22 48 44
21 47 43
22 48 43
21 46 42
21 47 43
21 47 43
21 47 43
21 46 42
22 48 43
21 45 41
22 48 43
22 48 44
21 47 43
21 47 43
21 47 42
22 48 44
21 46 42
21 46 42
21 47 43
22 48 44
21 47 43
21 45 41
21 46 42
21 46 42
168 150 134
216 187 167
181 153 147
149 125 125
150 126 127
100 71 100
83 55 88
66 45 73
44 48 55
20 45 41
21 46 42
21 46 42
21 47 43
21 46 42
20 45 41
21 46 42
21 46 42
21 45 41
20 45 41
21 45 41
21 47 43
21 46 42
21 46 42
21 46 42
21 46 42
21 46 42
21 46 42
21 46 43
21 47 43
20 45 41
21 46 42
20 45 42
21 46 42
21 46 42
21 46 42
20 44 40
21 46 42
20 45 42
20 45 41
20 45 41
21 46 42
20 45 41
21 46 42
21 46 42
20 45 42
20 45 42
21 46 42
20 45 42
20 45 41
20 45 41
21 47 43
21 47 43
21 47 43
22 48 43
22 48 43
22 47 43
22 48 44
22 48 44
22 48 43
21 47 43
22 49 44
22 49 44
22 48 44
21 47 43
22 48 43
22 49 44
22 48 43
22 48 44
21 47 43
22 48 43
22 47 43
22 48 44
22 48 43
21 47 43
22 48 44
21 47 43
21 47 43
21 46 42
22 48 44
21 47 43
21 47 43
22 48 44
22 49 45
21 47 43
21 47 43
21 47 43
22 48 43
22 48 44
22 48 44
21 47 43
22 47 43
21 47 43
22 47 43
21 47 43
22 47 43
21 46 41
22 48 43
22 49 45
21 47 43
21 47 42
21 47 42
22 48 43
22 48 43
21 47 43
21 47 43
21 47 43
21 46 42
21 46 42
22 48 43
21 47 43
21 47 43
21 47 43
22 48 44
21 46 42
21 47 43
21 46 42
21 47 43
21 47 43
21 47 43
21 46 42
98 85 83
93 66 88
122 99 103
179 156 137
186 163 144
141 121 115
71 47 75
68 55 69
69 72 67
21 46 42
21 46 42
20 44 41
21 46 42
21 45 41
21 46 42
21 45 41
21 46 42
21 47 42
21 46 42
20 45 41
21 46 42
21 46 42
21 46 42
21 46 42
20 45 41
21 46 42
21 46 42
20 44 40
21 46 42
21 45 42
21 47 43
21 46 42
21 46 42
20 45 41
21 46 42
21 46 42
21 46 42
20 45 41
21 46 42
20 45 41
20 44 41
20 45 41
20 44 40
21 46 42
20 45 41
20 44 41
20 45 41
20 45 41
21 47 43
20 45 41
22 48 44
21 47 43
22 47 43
22 48 44
21 47 43
22 48 44
22 48 44
22 48 44
22 49 44
22 48 44
22 47 43
22 47 43
22 48 43
22 48 43
21 47 42
22 49 44
22 48 44
22 48 44
22 47 43
22 48 44
22 48 44
22 48 43
22 48 43
22 48 43
21 46 42
21 47 43
21 47 43
21 47 42
22 48 44
21 47 43
22 49 44
21 47 43
22 48 43
21 47 43
23 50 45
22 47 43
22 48 43
22 48 43
21 47 42
21 47 43
21 47 42
21 46 42
21 47 43
22 48 43
21 47 43
22 48 44
22 48 44
22 48 43
22 48 43
21 47 43
22 48 44
21 46 42
21 46 42
22 48 44
21 47 43
21 46 42
21 46 42
21 46 42
21 46 42
21 47 43
21 46 42
21 46 42
21 46 42
21 46 42
21 46 42
21 46 42
21 46 42
21 46 42
21 46 42
21 45 41
36 43 46
64 41 61
97 77 81
158 136 117
131 114 98
108 93 87
63 52 60
87 82 75
45 53 49
18 41 38
19 43 39
20 45 41
21 45 41
20 45 41
21 46 42
21 47 43
21 46 42
21 47 43
20 45 41
21 47 43
20 45 41
21 46 42
21 46 42
21 46 42
20 45 41
21 46 42
21 46 42
21 46 42
21 45 42
20 44 41
21 46 42
21 46 42
21 46 42
21 46 42
21 46 42
21 46 42
21 46 43
20 45 41
21 46 42
21 46 42
20 45 41
20 45 41
21 46 43
21 46 42
21 46 42
20 45 41
20 45 41
20 45 41
20 45 41
21 46 42
22 48 44
22 48 44
22 48 43
22 48 44
22 48 43
21 47 43
22 48 44
22 48 43
21 47 42
22 49 44
22 47 43
22 48 43
22 49 45
22 48 44
22 48 43
22 49 44
22 49 44
22 47 43
22 47 43
24 46 43
23 47 43
22 47 43
21 47 42
22 48 44
21 47 43
22 47 43
21 47 43
22 49 44
22 48 43
22 49 44
22 48 43
22 49 44
22 48 44
22 48 44
22 47 43
22 48 44
21 47 43
22 48 44
22 48 44
21 47 43
22 47 43
22 48 44
22 48 43
22 48 44
22 48 44
22 48 44
22 48 43
21 47 43
22 49 45
21 46 42
21 46 42
22 48 43
22 48 44
22 48 44
21 46 42
22 48 44
22 48 43
22 48 43
21 46 42
21 47 43
21 47 42
21 47 43
21 47 43
21 46 42
21 45 41
21 47 42
21 46 42
21 46 42
21 45 41
20 45 40
19 43 39
33 34 39
43 28 41
64 51 50
61 52 47
54 50 45
57 57 50
47 50 45
13 31 30
14 33 31
16 37 35
18 41 38
21 47 43
21 46 42
21 45 41
21 47 43
21 47 43
21 46 42
20 45 41
21 46 42
21 47 43
21 45 42
22 48 44
21 46 42
21 46 42
20 45 41
21 45 41
21 46 42
21 46 42
21 46 42
20 45 41
21 47 43
21 46 42
21 45 42
21 47 43
20 45 41
21 46 42
20 45 41
21 46 42
21 46 42
21 46 42
20 45 41
20 45 42
20 45 41
21 45 42
21 47 43
21 46 42
20 45 41
20 45 41
21 46 42
21 47 42
22 48 44
22 48 43
22 48 43
22 48 43
22 48 43
22 49 44
22 48 44
21 47 42
22 47 43
21 47 43
22 49 44
22 48 44
22 48 44
21 47 43
21 47 43
30 51 47
32 46 45
39 43 46
40 43 47
42 45 48
132 121 112
107 103 94
22 49 44
21 47 43
22 48 44
22 49 44
22 47 43
22 49 45
22 48 44
22 48 43
22 48 44
21 47 43
22 47 43
22 49 44
22 49 44
22 48 44
22 48 43
22 48 43
22 48 43
21 47 43
21 47 42
21 47 42
22 47 43
21 46 42
22 48 43
22 47 43
22 48 43
22 49 44
22 48 43
22 48 44
21 47 43
22 48 43
22 47 43
21 47 42
22 48 43
21 47 43
22 48 43
21 46 42
21 46 42
22 48 44
21 46 42
21 46 41
21 46 42
21 45 41
21 46 42
21 46 42
21 46 42
20 45 40
20 44 39
20 43 38
18 38 34
15 21 21
26 25 21
42 39 28
30 32 24
13 23 20
12 28 26
12 29 27
15 35 32
18 41 38
20 44 40
21 45 41
21 46 42
20 45 41
21 46 42
21 46 42
21 45 41
21 45 41
21 46 42
21 46 42
21 46 42
22 48 44
21 47 43
21 46 42
21 46 42
21 46 42
21 46 42
21 47 43
21 46 42
21 46 42
21 46 42
21 46 42
21 46 42
21 46 42
21 46 42
21 46 42
21 45 41
21 47 43
22 48 44
20 45 41
20 44 41
20 44 40
21 47 43
20 45 41
21 47 43
21 47 43
20 45 41
21 46 42
21 45 41
22 48 44
22 47 43
22 48 43
22 48 44
22 48 43
22 49 45
22 47 43
22 48 44
22 48 44
23 49 45
22 49 44
22 49 44
22 49 44
22 48 44
22 48 44
22 48 44
109 100 92
41 43 47
42 44 48
44 46 49
157 141 130
233 208 190
216 193 176
108 103 94
22 48 44
22 48 43
22 48 43
21 47 43
22 49 44
22 48 44
22 48 44
22 48 44
22 48 44
22 49 44
22 48 43
22 48 44
22 48 43
21 47 43
21 47 43
21 47 43
22 47 43
22 47 43
22 48 44
21 47 42
22 49 44
22 48 43
22 48 44
22 48 44
21 47 43
22 48 44
21 47 43
21 47 43
22 47 43
22 48 44
22 48 43
22 48 43
22 48 43
21 47 43
22 49 44
22 47 43
21 47 43
21 47 43
21 46 42
22 47 43
22 48 43
21 47 43
21 47 43
22 47 43
21 45 41
20 44 40
20 43 38
19 41 37
18 38 33
16 35 31
16 35 31
15 33 29
17 37 34
18 40 36
19 42 38
20 45 40
21 45 41
21 47 42
21 46 42
21 47 43
21 46 41
21 47 42
21 47 43
21 46 42
21 46 42
21 46 42
22 48 44
21 46 42
21 46 42
21 46 42
21 46 42
21 47 43
21 46 42
21 46 42
21 47 43
21 47 43
21 46 42
21 47 42
20 45 41
21 46 42
21 46 42
21 46 42
21 47 43
21 46 42
20 45 41
21 46 42
21 47 43
21 46 42
20 45 41
20 45 41
21 47 43
21 47 43
20 45 41
20 45 41
21 47 43
20 45 41
22 48 44
22 49 44
22 48 44
22 49 44
22 48 43
22 48 44
22 48 43
22 49 45
22 48 43
22 48 43
22 49 44
22 48 43
22 49 44
22 48 44
21 47 43
136 125 112
79 73 70
41 43 46
100 94 84
126 118 104
226 201 182
231 205 186
218 193 176
164 148 135
32 52 48
22 47 43
22 48 43
23 50 45
21 47 42
22 48 43
22 48 43
22 49 44
22 48 43
22 47 43
22 48 44
22 48 44
22 47 43
22 49 44
22 48 43
22 47 43
22 48 43
22 48 43
22 48 44
21 47 43
22 48 44
22 47 43
22 48 44
22 48 43
22 48 44
22 49 44
22 48 44
22 47 43
22 47 43
22 48 43
21 47 43
21 47 43
22 47 43
22 47 43
21 46 42
22 47 43
22 48 43
21 47 42
21 46 42
22 48 43
22 48 43
22 47 43
21 47 42
22 48 43
21 47 42
21 46 41
20 44 40
21 46 41
21 45 41
20 44 40
20 44 40
20 44 40
21 45 41
21 46 41
21 46 41
21 46 42
21 46 42
21 46 42
21 46 41
21 46 41
21 46 42
22 47 43
21 47 43
21 47 42
21 46 42
21 45 41
21 46 42
21 47 43
21 46 42
21 47 42
21 47 43
21 46 42
21 46 42
21 47 43
21 47 43
21 46 42
21 47 43
21 46 42
21 47 43
21 46 42
21 46 42
21 46 42
21 47 43
21 45 41
21 46 42
21 47 42
21 46 42
21 46 42
21 46 42
21 46 42
20 45 41
21 46 42
21 46 42
21 46 42
21 46 42
21 46 42
22 48 43
22 48 43
22 49 44
22 49 45
22 48 43
22 49 44
22 48 43
22 48 43
22 48 43
22 48 44
22 48 43
22 48 44
22 49 44
22 48 43
22 47 43
153 137 123
36 38 41
39 41 44
51 52 51
98 89 82
227 199 179
218 191 172
197 174 158
170 151 137
62 69 64
22 48 43
22 49 44
22 48 43
22 48 44
22 48 43
22 49 44
22 49 44
22 49 44
22 48 44
22 49 44
22 49 44
21 47 43
21 47 43
22 48 43
22 49 44
22 49 44
22 49 45
22 48 44
22 48 43
22 48 43
22 49 44
22 48 43
22 48 44
22 49 44
22 48 43
22 49 44
23 50 45
22 47 43
22 48 44
21 47 43
22 47 43
22 49 44
22 48 44
21 47 42
21 47 43
22 47 43
22 48 43
22 48 43
22 48 44
22 48 44
21 47 42
21 46 42
21 46 42
21 47 42
21 47 42
21 47 43
21 47 42
22 48 43
21 46 42
21 47 42
22 48 43
21 46 42
21 47 42
21 47 43
21 46 42
21 47 43
21 46 42
21 46 42
21 45 41
20 45 41
21 46 42
22 48 43
21 46 42
21 47 43
21 46 42
21 46 42
21 47 43
22 47 43
22 48 44
21 46 42
21 46 42
21 46 42
21 47 43
21 46 42
21 46 42
21 47 43
21 47 43
21 46 42
21 46 42
21 47 43
21 46 42
20 45 41
21 46 42
21 46 42
21 47 43
20 45 41
20 44 41
21 47 43
21 46 42
21 46 42
21 46 42
20 45 41
21 46 42
21 46 42
21 47 43
23 50 46
22 48 43
22 49 44
22 48 44
22 49 44
22 48 44
22 49 44
22 48 43
22 49 44
22 48 44
22 48 43
22 47 43
22 48 43
22 49 44
22 48 43
137 123 111
33 35 38
35 37 39
35 37 40
106 95 87
205 178 159
190 167 150
172 149 133
142 128 117
67 72 66
22 48 43
22 48 44
22 48 43
22 48 43
22 49 44
22 49 44
22 49 44
22 48 44
22 48 43
21 47 43
22 48 44
22 47 43
22 48 44
22 48 43
22 48 43
22 47 43
22 49 44
22 49 44
22 49 45
22 48 44
22 48 43
22 48 43
22 48 44
22 47 43
22 49 44
22 49 44
22 47 43
22 49 44
22 48 43
22 48 44
21 47 43
21 47 43
22 48 44
22 48 43
21 47 43
22 47 43
22 47 43
22 48 43
22 48 43
22 48 43
21 47 43
21 47 43
22 48 43
21 46 42
22 48 44
22 48 44
22 47 43
21 47 43
22 48 43
22 48 43
22 49 44
22 48 43
21 47 43
21 47 42
21 46 42
22 48 43
21 46 42
21 47 43
21 46 41
21 46 42
21 47 43
21 47 43
21 46 42
21 47 43
21 47 43
21 47 43
21 47 43
21 47 43
21 47 43
21 47 43
21 46 42
21 47 43
21 47 43
21 47 43
21 47 43
21 47 43
21 47 43
21 47 43
21 46 42
22 48 43
21 46 42
21 46 42
21 47 43
21 46 42
21 47 43
21 46 42
21 45 41
21 47 43
20 45 41
21 46 42
21 46 42
21 46 42
20 45 41
21 47 43
21 47 43
21 47 42
23 50 45
22 48 43
23 50 45
22 48 44
22 49 44
23 50 45
22 48 44
23 50 45
23 50 45
23 50 45
22 47 43
22 48 43
22 47 43
23 50 45
104 96 86
28 30 31
30 32 34
30 32 34
92 81 73
167 145 127
156 136 120
136 121 108
107 97 88
49 60 55
22 48 43
21 47 42
22 48 43
22 48 43
21 47 43
22 48 44
22 49 44
22 48 43
29 49 44
94 62 47
135 75 52
110 69 52
42 58 53
22 48 43
22 48 44
22 48 44
22 48 43
22 48 43
22 47 43
21 47 43
22 48 44
22 48 44
22 49 44
22 49 45
22 47 43
22 48 44
22 48 44
22 48 43
22 49 44
21 47 43
22 49 45
22 49 44
22 49 44
22 48 44
22 48 43
21 47 43
22 48 44
22 48 43
22 48 43
22 47 43
21 47 42
21 47 43
22 48 43
21 47 43
21 46 42
22 48 44
21 47 43
21 47 43
22 49 44
22 48 43
22 48 43
22 48 43
22 47 43
21 46 42
21 46 42
22 48 44
21 47 43
21 47 42
22 48 43
21 47 43
21 47 42
21 46 42
21 47 43
21 47 42
21 47 43
21 47 43
21 47 43
21 47 43
21 47 42
22 48 43
21 47 43
21 45 41
21 47 43
21 46 42
21 46 42
21 46 42
20 45 41
21 46 42
21 46 42
21 45 41
20 45 41
21 47 43
21 47 43
21 46 42
21 46 42
21 46 42
21 46 42
21 46 42
21 47 43
21 45 41
21 46 42
21 46 42
21 47 43
21 46 42
21 47 43
22 49 44
22 49 44
22 48 43
22 49 45
23 49 45
22 48 44
22 49 44
22 49 44
22 49 44
22 49 44
22 49 44
22 48 43
22 48 43
22 48 43
22 47 43
57 63 57
25 27 27
22 23 24
23 24 25
30 29 28
109 97 83
108 93 81
82 73 64
61 61 55
18 39 36
20 44 40
21 46 42
22 48 43
22 48 43
22 48 43
22 48 44
22 48 43
121 71 51
229 112 68
255 127 75
255 126 74
255 131 87
218 192 175
135 126 115
22 49 44
22 47 43
23 49 45
22 48 44
22 49 44
22 49 44
22 48 43
22 49 45
22 47 43
22 49 44
22 48 43
22 48 44
22 48 43
22 49 44
22 48 43
22 48 43
22 48 44
22 48 43
22 48 44
22 48 44
22 48 44
22 48 44
22 48 43
22 48 43
21 47 42
22 48 44
22 49 44
21 47 43
21 47 43
22 47 43
21 47 43
22 48 43
22 47 43
22 48 43
21 46 42
21 47 43
21 47 43
21 46 42
22 48 43
22 48 43
21 47 43
22 48 44
22 47 43
22 48 43
22 48 43
21 47 42
21 46 42
21 46 42
21 46 42
22 47 43
22 47 43
22 48 43
21 46 42
21 46 42
22 48 44
21 47 43
22 48 44
21 46 42
21 47 43
21 47 43
21 47 43
21 47 43
21 47 43
22 48 44
21 46 42
20 45 41
21 47 43
21 47 42
21 46 42
21 46 42
21 46 42
21 46 42
21 47 43
21 46 42
21 47 43
21 47 42
21 47 42
21 46 42
22 48 43
21 47 43
21 46 42
22 49 44
22 49 45
22 49 44
22 48 44
22 49 44
22 49 44
22 49 44
22 48 44
22 49 44
22 49 44
22 48 43
22 48 43
22 48 43
22 47 42
21 46 42
22 48 43
25 35 31
11 13 12
12 13 13
11 13 12
47 46 37
52 50 39
32 38 31
12 28 26
14 32 30
17 38 35
21 46 41
22 47 42
22 47 43
21 47 43
22 47 43
100 96 86
255 132 89
255 128 75
255 129 77
255 126 75
255 123 73
235 180 159
215 192 176
119 112 102
22 48 43
22 49 44
22 49 44
21 47 43
22 48 44
22 48 43
22 48 44
22 49 44
21 47 43
22 48 44
22 49 44
22 47 43
22 48 43
21 47 42
22 48 44
22 48 44
21 47 42
21 47 43
22 49 44
21 46 42
22 47 43
22 47 43
22 48 43
21 47 42
22 47 43
22 49 44
22 48 43
21 46 42
21 47 43
21 47 43
22 49 44
22 48 43
21 46 42
21 47 43
22 48 43
22 47 43
21 47 43
22 48 44
22 48 43
22 49 45
22 48 44
21 47 42
21 47 43
22 48 44
51 61 56
78 80 72
46 60 55
21 47 43
22 49 44
21 47 42
22 48 43
22 48 44
21 47 42
21 46 42
21 47 42
21 47 43
21 47 43
21 46 42
21 47 43
21 47 43
21 47 43
21 47 43
20 45 41
21 47 43
21 46 42
21 47 43
21 45 41
21 47 43
21 46 42
21 47 43
21 46 42
21 46 42
21 46 42
21 47 43
21 46 42
21 46 42
21 47 43
21 47 42
22 48 43
22 47 43
23 50 46
22 49 44
22 48 43
22 49 44
22 49 44
22 48 44
23 50 45
22 48 43
22 49 44
22 47 43
22 48 44
22 48 43
22 47 43
22 47 42
22 47 42
21 45 40
16 34 31
8 18 17
5 8 8
4 7 6
14 13 10
21 25 19
9 20 18
12 28 27
15 33 30
19 42 38
21 46 42
22 47 42
22 48 43
22 47 42
22 49 44
199 176 158
254 166 135
255 128 76
255 177 128
255 141 93
253 121 71
238 148 117
211 189 173
173 157 144
49 62 57
22 49 44
21 47 42
22 49 45
22 48 43
22 49 44
22 47 43
22 47 43
22 49 44
22 48 43
22 49 44
22 49 44
22 49 44
22 48 43
22 47 43
22 48 43
22 48 43
22 49 44
22 48 43
22 49 45
23 49 45
22 48 43
22 48 43
22 49 44
22 48 43
22 48 44
22 48 43
23 50 45
22 47 43
21 47 43
23 50 45
22 49 44
21 47 43
21 47 43
21 46 41
21 47 43
22 49 44
21 46 42
21 47 43
22 47 43
21 47 43
21 47 43
98 94 85
203 181 164
238 199 181
238 164 147
228 122 106
188 76 61
93 52 44
21 47 43
21 47 42
21 47 43
22 47 43
21 47 43
21 47 43
22 47 43
21 47 43
21 47 42
22 48 43
21 47 43
21 46 42
21 46 42
21 47 43
22 48 43
22 47 43
22 48 43
21 47 43
22 47 43
21 47 42
21 46 42
21 46 42
21 46 42
21 47 43
21 46 42
21 47 43
21 46 42
21 47 43
22 47 43
20 45 41
21 46 42
22 48 44
22 49 44
23 50 45
22 48 43
23 49 44
23 50 45
22 48 43
22 48 43
23 49 45
22 49 44
22 48 44
22 48 43
22 47 42
22 47 42
21 46 41
21 46 41
20 43 38
17 37 33
15 33 29
13 29 26
14 30 27
16 35 31
19 40 36
19 42 38
21 45 40
22 47 42
22 48 43
22 47 43
22 47 42
22 47 43
60 66 59
210 184 163
234 184 160
254 120 71
255 125 76
250 120 71
241 115 67
233 117 75
198 174 158
169 153 141
84 84 78
22 48 43
22 49 44
22 48 44
23 50 45
23 50 45
22 49 44
22 49 44
22 49 44
22 48 43
22 49 45
22 48 44
22 49 44
21 47 42
22 48 43
22 48 43
22 48 43
22 48 43
22 49 44
22 49 44
21 47 43
22 48 43
22 49 44
22 49 44
22 47 43
22 48 43
22 47 43
22 48 43
22 48 43
22 47 43
22 49 44
21 47 43
22 49 44
22 48 44
22 48 43
22 48 44
22 49 44
21 47 42
22 48 43
22 48 44
22 48 43
86 85 76
239 203 182
250 162 142
247 91 69
240 79 57
232 77 55
221 74 53
205 69 50
110 53 44
21 47 43
22 49 44
21 47 43
21 47 43
21 46 42
22 48 43
21 46 42
21 47 42
22 48 44
21 46 42
21 47 43
21 47 43
22 48 44
22 47 43
21 47 43
21 47 43
21 47 43
21 47 43
22 47 43
21 47 42
21 47 43
21 47 43
21 47 42
21 47 43
21 45 41
21 46 42
21 47 43
21 46 42
21 47 43
21 46 42
23 49 45
23 50 45
23 50 45
23 50 45
22 49 44
23 49 44
22 49 44
23 51 46
23 49 44
22 48 43
22 48 43
22 48 44
22 47 43
21 46 42
22 48 43
22 47 42
22 47 42
21 45 40
21 46 41
21 46 41
21 46 41
21 46 41
22 48 43
22 47 42
22 47 42
22 48 43
22 48 43
22 47 42
22 49 44
22 48 44
90 88 79
198 174 154
209 183 163
232 115 73
234 114 70
209 131 104
181 129 109
200 109 78
175 132 115
145 132 121
90 89 82
22 48 44
22 48 43
22 48 44
22 48 44
22 47 43
22 48 44
22 48 44
22 48 44
22 48 43
22 48 43
22 48 43
22 49 44
22 48 44
22 48 44
22 48 44
22 48 44
22 48 44
22 48 43
22 48 44
22 48 43
23 50 45
22 48 44
22 47 43
22 49 44
22 48 43
22 47 43
22 49 44
22 48 44
21 46 42
21 47 43
22 47 43
21 47 43
21 47 43
22 47 43
21 47 43
21 47 43
22 48 44
22 47 43
23 50 45
21 47 43
201 163 144
250 118 97
253 92 68
255 132 105
239 81 59
230 76 54
220 73 53
208 69 50
174 60 44
49 48 43
22 48 43
21 47 42
21 46 42
22 48 43
21 47 43
21 47 42
22 47 43
22 47 43
21 46 42
21 47 43
21 46 42
21 47 43
21 46 42
21 47 42
21 47 43
21 46 42
21 47 43
21 47 43
21 46 42
21 47 43
21 46 42
21 47 43
21 46 42
21 47 43
21 46 42
21 46 42
20 45 41
21 46 42
21 47 43
23 49 45
22 49 44
23 50 46
23 50 45
23 50 45
22 48 44
22 48 43
22 49 44
22 49 44
22 49 44
22 49 44
22 48 43
22 48 43
23 50 45
22 49 44
21 47 42
22 47 42
22 48 43
22 48 43
22 48 43
23 49 44
22 48 43
22 48 44
22 48 44
23 50 45
22 49 44
22 47 43
22 48 43
22 47 42
22 48 43
69 72 64
173 152 135
183 161 143
198 128 102
170 109 86
172 153 137
170 151 136
122 105 94
142 93 75
118 109 100
70 74 68
23 49 44
21 46 42
22 48 44
21 47 43
22 49 44
22 47 43
22 49 45
22 49 45
22 48 43
22 48 43
22 49 44
22 48 43
22 48 43
23 50 45
22 49 44
22 49 44
22 48 44
22 49 44
22 49 44
22 48 43
21 47 42
22 48 44
22 49 44
22 48 43
22 47 43
22 49 45
22 48 44
22 49 44
21 47 43
22 48 44
22 48 44
21 47 43
22 48 44
22 48 43
21 47 43
21 47 43
21 46 42
21 47 43
22 48 43
98 84 74
227 99 79
239 78 54
251 100 75
255 121 95
235 79 57
225 74 53
216 71 51
199 66 48
171 58 42
97 48 39
22 47 43
22 47 43
21 46 42
22 48 44
21 46 42
21 46 42
21 47 43
21 47 43
21 47 43
21 47 43
21 47 43
21 47 43
21 47 43
21 46 42
21 46 42
21 46 42
21 47 43
20 45 41
21 47 43
21 47 43
21 47 43
21 47 42
21 47 43
22 47 43
22 48 44
21 46 42
21 46 42
21 47 43
22 48 44
22 49 44
23 50 45
23 49 44
23 50 45
23 50 45
22 48 44
23 51 46
22 48 43
22 49 44
22 48 44
22 48 43
22 47 43
22 48 43
22 49 44
22 48 44
22 49 44
22 48 43
22 48 44
22 48 44
22 48 43
22 48 43
22 49 44
23 50 45
22 48 43
23 50 45
23 49 44
22 48 44
22 49 44
22 49 44
22 48 43
27 50 44
124 112 99
145 128 113
150 117 99
132 96 80
114 102 90
94 85 77
98 89 80
110 63 45
91 86 77
37 51 47
21 46 42
22 47 42
22 47 43
22 48 44
22 48 43
22 48 43
22 48 44
23 49 45
22 49 44
22 48 44
22 48 44
22 49 44
22 48 43
22 48 44
21 47 43
23 50 45
22 48 44
22 49 44
23 50 45
23 49 45
22 48 44
22 48 44
22 48 43
22 48 44
22 48 44
22 47 43
22 48 43
22 47 43
22 48 43
22 49 44
22 49 44
22 48 44
21 47 42
21 47 43
22 48 44
22 47 43
21 47 43
22 47 43
22 48 43
119 58 47
211 68 47
222 72 50
226 74 51
225 73 52
216 71 50
210 71 52
193 108 94
184 132 119
155 123 113
116 87 80
22 47 43
22 47 43
21 47 43
21 47 43
21 46 42
21 47 43
21 47 43
22 48 44
21 46 42
21 46 42
21 47 43
21 47 43
22 48 44
21 46 42
23 50 45
22 48 44
21 46 42
21 45 41
21 47 43
21 47 43
22 48 43
21 47 43
21 47 42
21 47 43
21 46 42
22 48 44
21 47 43
21 46 42
21 47 43
23 49 44
22 49 44
23 50 45
22 49 44
22 48 43
23 49 44
23 49 45
23 49 45
22 48 44
22 48 43
23 50 45
22 49 44
22 49 44
22 49 44
23 49 45
22 49 44
23 49 44
22 47 43
22 49 44
23 50 45
23 50 45
22 49 44
22 49 44
22 48 43
22 48 43
23 50 45
22 47 43
22 49 44
21 46 41
22 48 43
22 47 42
55 61 54
94 86 73
92 82 69
89 53 37
79 70 61
75 71 63
56 38 27
76 39 22
54 49 43
14 33 31
17 38 35
19 42 38
21 45 40
22 47 42
22 47 43
22 49 44
22 49 44
22 49 44
22 48 43
22 49 44
22 48 43
22 48 43
22 49 44
23 50 45
22 49 44
22 49 44
22 48 44
22 48 43
21 47 43
22 48 44
22 48 44
22 48 44
22 49 45
23 50 46
22 48 44
22 48 44
22 49 44
23 51 46
22 49 44
22 48 43
22 48 43
22 49 44
22 49 44
22 48 43
21 46 42
22 48 43
22 48 43
21 47 42
22 47 43
103 50 41
193 62 43
197 64 44
200 65 45
200 65 45
195 103 87
185 149 133
168 151 137
146 133 122
132 122 114
88 87 80
21 46 42
21 47 43
22 48 44
21 46 42
21 47 43
21 46 42
21 47 42
21 47 43
21 47 42
21 46 41
22 48 44
21 47 43
21 47 43
21 46 42
22 49 44
21 47 43
21 47 43
22 47 43
21 47 43
21 46 42
21 47 42
21 46 42
21 46 42
21 46 42
21 47 43
21 46 42
21 46 42
21 47 42
21 47 43
22 49 44
23 49 45
22 49 44
22 49 44
22 49 44
22 48 44
23 50 45
23 51 46
22 48 44
22 49 44
23 49 44
23 51 46
23 50 46
22 49 44
23 49 45
22 49 44
22 49 44
22 49 44
22 49 44
22 48 43
23 50 45
22 49 44
22 48 43
22 47 43
23 50 45
23 49 44
22 49 44
22 49 44
22 47 42
22 47 42
21 45 40
21 44 39
46 48 41
47 47 36
46 33 21
53 28 14
55 29 14
34 21 10
29 23 17
12 26 25
13 30 29
14 32 30
19 41 38
21 46 41
21 47 42
22 48 43
22 47 43
22 48 43
22 48 44
22 48 43
22 47 43
22 48 43
22 49 44
22 48 44
22 49 45
22 48 43
22 49 44
22 48 44
22 49 44
22 49 44
22 48 43
22 48 44
23 49 45
22 48 44
22 48 43
21 47 43
22 48 43
22 49 45
22 48 44
22 47 43
22 48 44
22 49 44
22 49 44
22 47 43
21 47 43
21 47 43
22 48 43
22 48 44
22 48 43
22 48 43
54 48 42
158 51 35
166 54 36
172 56 38
166 103 88
165 146 130
151 135 121
138 125 114
123 114 105
103 96 88
71 73 66
20 44 40
21 47 42
21 46 42
21 46 42
21 47 42
21 47 42
22 48 43
21 47 42
21 45 41
21 47 43
21 47 43
22 47 43
22 48 43
21 47 43
21 47 43
21 47 42
22 48 44
21 46 42
21 47 43
22 48 44
21 47 43
21 47 43
22 48 44
21 46 42
21 47 43
22 48 44
21 46 42
21 47 43
21 46 42
23 49 44
23 50 45
23 50 45
22 49 44
22 49 44
23 50 45
23 50 45
22 49 44
23 50 45
22 49 44
23 49 45
23 50 45
23 50 45
23 50 46
23 49 45
23 50 45
22 49 44
22 49 44
23 50 45
22 49 44
22 49 44
23 50 45
23 49 44
23 50 45
22 48 43
22 48 44
22 47 43
23 49 44
22 49 43
21 46 41
22 47 41
20 42 37
15 33 29
11 23 21
22 22 17
19 15 10
18 15 11
10 19 17
10 21 20
12 27 26
15 33 30
19 41 37
21 46 42
22 48 43
22 48 43
22 49 44
22 47 42
22 48 44
22 48 43
23 50 45
23 50 45
22 47 43
23 50 45
23 49 44
23 50 45
22 48 44
22 48 43
23 49 45
22 48 43
22 48 43
22 49 45
22 48 43
22 49 44
22 49 44
22 48 44
22 49 44
22 48 43
22 49 44
23 49 45
22 48 44
22 48 43
22 48 43
21 46 42
22 47 42
22 48 43
22 49 44
22 47 43
21 47 42
21 47 42
21 47 42
21 45 40
94 41 32
127 41 27
137 89 75
133 118 103
115 104 91
91 85 75
94 88 80
82 78 70
78 75 68
32 43 40
17 38 36
18 39 37
19 42 39
20 44 40
21 46 42
21 47 43
22 48 43
21 47 42
22 47 43
21 46 42
21 47 43
21 46 42
21 46 42
22 48 44
21 46 42
21 46 42
21 47 43
21 47 43
21 47 42
21 47 43
21 47 43
21 47 43
21 46 42
21 47 43
22 48 43
21 47 43
21 46 42
21 47 42
21 46 42
23 49 45
23 50 45
22 49 44
23 50 45
23 50 46
22 48 44
22 49 44
23 51 46
23 50 45
23 50 45
22 49 44
23 50 45
22 49 44
23 50 45
22 48 44
23 49 45
22 49 44
22 49 44
23 50 45
23 50 45
22 48 44
23 50 45
23 50 45
22 48 43
22 49 44
23 49 44
22 49 44
23 49 44
22 48 43
22 48 43
22 47 42
21 46 41
21 45 40
20 43 38
17 37 33
17 36 32
17 36 32
17 37 34
19 41 37
20 43 38
21 46 41
21 45 40
23 49 44
22 47 42
22 49 44
22 48 43
22 48 43
22 48 43
22 48 44
23 49 45
22 49 44
22 48 44
22 49 44
22 49 44
22 49 44
22 49 44
23 50 45
22 49 44
22 49 44
23 49 45
22 48 43
22 49 45
22 48 44
22 48 43
23 50 45
22 49 44
22 48 43
22 48 43
22 48 44
22 49 44
22 49 44
22 48 44
22 49 44
22 49 44
23 49 45
21 46 41
21 47 42
21 46 41
21 46 41
21 45 41
21 44 40
27 42 37
58 30 23
57 53 42
70 65 53
58 56 46
50 52 44
46 49 42
38 43 36
26 36 32
14 31 30
14 33 31
14 34 32
16 37 35
19 42 39
20 44 41
21 47 42
22 47 43
22 49 44
21 46 42
22 48 44
21 47 43
21 46 42
22 48 43
21 46 42
21 47 43
21 47 43
21 47 43
21 47 43
21 47 43
22 48 44
21 46 42
21 47 43
21 47 43
22 48 44
21 47 43
21 47 43
21 46 42
21 47 43
21 47 42
23 50 45
23 51 46
23 50 46
23 50 45
23 50 45
23 50 45
23 49 44
21 47 42
23 50 45
22 49 44
23 50 45
22 49 44
22 49 44
23 50 45
22 49 44
22 48 44
23 50 45
22 49 44
23 50 45
23 50 45
22 49 44
22 49 44
22 49 44
23 50 45
23 49 44
22 49 44
22 48 43
23 49 44
22 49 44
22 49 44
21 46 41
23 49 44
22 48 43
21 46 41
21 46 42
22 47 42
21 46 41
21 46 41
21 47 42
22 48 43
22 47 43
22 47 42
22 49 44
22 48 43
22 48 44
22 48 43
22 49 44
22 48 43
22 48 43
22 49 44
22 48 44
22 49 44
22 48 44
22 49 44
22 49 44
22 47 43
23 49 45
23 50 45
22 48 44
22 48 43
22 49 44
22 48 44
22 49 44
22 48 43
22 49 44
22 49 44
22 48 43
22 48 43
22 48 44
22 47 43
22 47 43
22 48 43
22 48 44
22 49 44
21 47 42
22 47 43
22 48 43
21 46 41
21 46 41
21 44 39
20 43 39
20 41 37
19 36 31
28 31 24
36 36 26
31 34 25
26 30 22
14 23 18
10 22 20
12 27 26
13 30 29
14 31 30
14 33 32
17 38 36
19 42 39
20 43 39
22 48 44
21 46 42
21 47 43
21 46 42
21 46 42
22 48 44
21 46 42
21 46 42
21 47 43
22 48 44
22 47 43
22 47 43
21 47 42
22 48 44
22 48 43
21 46 42
21 46 41
21 47 43
21 47 43
21 46 42
21 46 42
21 47 43
21 47 43
21 46 42
23 50 45
23 50 45
23 50 45
23 49 45
22 49 44
23 51 46
23 50 45
23 50 45
22 49 44
22 49 44
23 49 45
23 50 45
23 50 46
23 49 45
23 49 45
22 48 43
23 50 45
23 50 45
23 50 46
22 49 44
23 50 45
23 50 45
23 49 44
22 47 43
23 49 44
22 49 44
23 49 44
22 48 44
22 48 43
22 49 44
22 48 43
23 49 44
22 49 44
22 47 43
22 47 42
22 47 42
22 48 43
22 48 43
22 47 42
22 48 44
22 47 43
22 47 42
22 47 43
22 48 43
22 49 44
22 47 43
23 49 45
22 48 43
22 48 44
22 48 44
22 48 43
23 50 45
22 49 44
23 49 45
23 49 45
22 49 44
22 48 43
22 49 44
22 49 44
22 48 43
23 50 45
22 49 44
22 48 43
22 49 44
22 48 44
22 49 44
22 49 44
21 47 42
22 48 43
22 49 44
22 47 43
22 48 43
22 48 43
22 48 43
22 48 44
21 47 42
22 48 43
22 47 43
21 46 41
21 44 40
21 45 41
20 43 38
20 42 37
18 39 34
15 32 28
11 25 22
10 23 20
11 25 23
12 27 25
13 29 27
15 33 31
16 36 34
19 41 38
20 44 40
21 46 42
22 47 43
21 46 42
22 47 43
21 47 42
21 46 41
21 47 42
22 47 43
21 46 42
22 48 44
21 47 43
22 48 44
21 46 42
22 48 43
22 48 43
22 48 43
21 47 43
21 47 43
22 48 44
20 45 41
21 46 42
21 46 42
21 47 43
21 46 42
22 48 43
22 48 43
23 49 45
23 51 46
23 51 46
23 50 45
23 51 46
23 50 45
23 50 45
23 50 45
23 50 45
23 50 45
23 50 45
22 49 44
23 50 45
23 51 46
23 49 44
23 49 45
23 49 45
22 49 44
23 51 46
23 50 45
22 48 44
23 49 45
22 49 44
22 48 44
22 49 44
22 48 44
22 48 44
23 49 45
22 49 44
22 48 44
23 49 44
22 48 44
22 49 44
23 49 44
22 49 44
22 48 43
22 49 44
22 48 44
22 49 44
23 49 44
22 48 43
23 49 44
22 48 44
22 48 44
22 49 44
22 49 44
23 49 45
23 50 45
22 49 44
22 48 44
22 48 44
22 48 44
23 50 45
23 50 45
22 49 44
22 47 43
23 50 45
23 50 45
22 47 43
22 48 43
22 48 43
22 48 43
22 48 43
22 48 44
22 49 44
22 47 43
22 48 44
22 49 44
22 48 43
22 47 43
22 47 43
22 49 44
23 49 45
22 49 44
22 49 44
22 47 43
22 48 44
22 48 43
22 47 42
21 45 40
22 47 42
21 45 40
21 45 40
21 46 41
20 44 39
21 45 40
20 43 38
20 43 39
20 44 39
21 45 40
20 43 39
21 46 41
21 47 42
21 46 42
22 48 43
21 45 41
21 46 42
22 48 44
22 47 43
22 47 43
21 46 42
22 48 44
21 47 42
21 47 42
21 47 43
22 48 44
22 47 43
22 47 43
22 48 43
21 47 43
22 48 44
21 47 42
21 47 43
21 47 43
22 49 44
21 47 43
22 48 44
21 47 43
21 47 43
21 47 43
23 51 46
23 51 46
24 51 46
23 50 45
23 51 46
22 49 44
23 51 46
23 49 45
23 50 45
23 50 45
23 50 45
22 49 44
23 49 44
22 49 44
23 50 45
23 50 45
23 50 45
22 49 44
22 48 43
22 49 44
22 49 44
23 49 44
23 51 46
22 49 44
23 50 45
24 51 46
23 49 45
23 50 45
22 48 43
23 50 46
23 49 44
22 48 43
23 49 44
22 49 44
23 50 45
23 49 44
23 50 45
22 49 44
22 49 44
24 52 47
22 47 43
23 50 45
22 49 44
22 48 44
22 49 44
23 49 45
22 49 44
22 48 44
22 49 44
22 49 44
23 50 45
23 50 45
22 49 44
23 50 45
23 49 45
22 48 43
22 48 43
23 49 45
22 48 44
22 49 44
23 50 45
22 49 45
23 50 45
22 48 43
22 49 44
22 49 44
23 50 45
22 48 43
22 48 43
22 49 45
23 49 45
23 49 44
22 48 44
22 48 43
22 47 43
22 47 43
22 48 43
22 47 42
22 47 42
22 47 42
21 46 42
21 46 41
22 47 43
22 47 42
21 46 42
21 46 42
21 46 41
21 45 41
20 44 40
21 45 41
21 46 42
21 46 41
21 46 41
22 48 43
21 47 43
21 47 42
22 47 43
21 46 41
22 49 44
21 47 42
21 46 42
22 48 44
22 48 43
21 47 42
21 46 42
22 47 43
21 46 42
22 48 44
21 47 43
21 47 43
21 46 42
21 47 43
22 49 44
21 47 43
21 47 43
21 46 42
21 47 43
21 47 43
21 47 43
21 46 42
22 49 44
22 49 44
22 49 44
23 50 45
23 51 46
23 50 45
23 50 45
23 51 46
23 50 45
23 51 46
23 49 45
23 50 45
23 50 45
22 49 44
24 51 46
23 50 45
23 50 45
23 50 45
23 50 45
22 49 44
23 51 46
22 48 43
23 49 44
23 49 44
23 50 45
23 50 45
23 50 45
22 49 44
22 48 44
23 49 45
22 48 43
23 51 46
22 49 44
23 49 45
23 51 46
22 48 44
23 50 45
22 48 43
23 50 45
22 48 43
23 49 45
22 49 44
22 49 44
22 48 43
22 49 44
23 49 45
23 49 44
23 50 45
23 49 45
23 49 45
23 49 45
22 49 45
22 49 44
22 48 43
22 49 44
22 49 44
23 50 45
22 48 44
22 49 44
23 50 45
22 48 44
23 50 45
22 49 44
22 49 44
22 48 43
22 49 44
22 49 44
22 48 44
22 49 44
22 48 43
22 47 43
22 49 45
22 48 43
23 49 44
22 49 44
22 48 44
22 49 44
22 47 42
22 48 43
22 47 43
21 46 42
22 48 43
21 47 42
22 48 43
22 47 43
22 47 42
22 48 43
22 48 43
21 46 42
22 48 43
21 46 42
22 48 44
22 48 44
22 48 43
22 47 43
21 47 43
22 48 44
22 47 43
21 45 41
21 46 42
22 48 43
22 48 43
21 47 43
21 46 42
22 48 44
22 48 43
21 47 43
22 48 43
21 46 42
22 49 45
21 47 43
22 48 43
21 47 43
21 46 42
21 47 42
21 47 43
21 47 42
21 46 42
21 47 42
22 48 44
22 49 44
23 50 45
23 50 45
23 49 45
22 49 44
23 50 45
22 49 44
23 51 46
23 50 45
23 50 45
23 49 45
22 49 44
23 51 46
23 50 45
23 50 45
23 50 45
23 50 45
23 50 45
22 48 43
23 51 46
22 49 44
23 50 45
23 50 45
23 51 46
23 51 46
22 49 44
23 51 46
22 49 44
23 50 45
23 50 45
22 48 43
23 50 46
23 50 45
23 49 44
22 48 44
22 49 44
22 49 44
23 50 45
23 50 45
22 49 44
22 49 44
23 50 45
23 51 46
22 49 44
22 48 43
23 50 45
23 49 45
23 51 46
22 49 44
22 49 44
22 49 44
22 48 44
22 49 44
22 49 44
22 48 44
22 47 43
23 50 45
22 49 44
23 49 45
22 48 44
22 49 44
22 49 44
22 48 44
23 49 45
22 48 43
22 48 43
22 48 44
23 49 45
22 48 43
22 48 44
22 48 43
21 47 42
22 49 45
22 48 44
22 48 44
22 48 43
22 48 44
22 49 44
22 48 43
22 49 44
21 47 42
22 49 44
22 47 43
21 47 42
22 47 43
21 46 42
23 49 44
22 49 44
21 46 42
22 49 44
22 48 43
22 47 43
21 47 42
22 47 43
21 45 41
22 47 43
22 48 43
22 47 43
22 48 44
21 47 42
22 47 43
21 47 43
22 48 43
21 47 43
21 47 43
22 48 43
22 48 44
22 47 43
22 47 43
22 48 43
21 47 43
22 47 43
21 47 43
21 47 43
22 48 43
22 47 43
22 48 43
22 47 43
21 47 43
21 46 42
22 49 44
23 50 45
23 50 45
23 50 45
22 48 44
23 50 45
23 50 45
23 49 45
22 49 44
23 51 46
23 51 46
23 50 45
23 51 46
22 49 44
22 49 44
23 50 45
23 50 45
23 51 46
23 50 45
23 50 45
23 50 45
23 50 45
23 50 45
23 50 45
23 50 45
23 50 45
23 50 45
23 50 45
22 48 43
23 50 45
23 50 45
22 49 44
22 48 44
23 49 45
23 50 45
23 50 45
23 49 45
23 49 45
23 50 45
23 50 45
23 50 45
23 50 45
22 49 44
22 49 44
22 49 44
23 49 44
23 50 45
22 49 44
23 51 46
22 49 44
22 49 44
23 49 45
22 48 43
22 49 44
23 50 45
22 48 44
23 49 45
23 50 45
22 49 45
22 48 44
22 49 44
23 50 45
23 50 45
22 49 44
22 48 44
22 49 44
22 48 43
21 47 42
21 47 43
22 49 44
22 49 44
22 49 44
22 48 44
22 48 43
22 49 44
22 48 43
22 49 44
22 49 44
22 48 44
22 48 44
22 49 44
22 49 44
23 49 45
21 46 42
21 47 42
22 48 43
22 48 43
22 49 44
22 48 43
22 48 44
22 47 43
22 47 43
21 47 42
22 47 43
22 47 43
22 49 44
21 46 42
22 48 44
22 48 44
22 48 43
22 49 44
22 48 44
22 47 43
22 47 43
22 48 44
21 47 42
22 48 43
22 48 43
22 48 44
22 48 44
22 47 43
21 46 42
22 48 43
22 48 43
22 48 44
22 47 43
22 48 44
21 46 42
21 47 42
22 48 44
22 48 44
23 51 46
23 49 45
23 50 46
23 51 46
22 49 44
23 50 45
23 49 45
23 51 46
23 50 45
23 51 46
23 50 45
23 51 46
23 50 45
23 50 45
22 49 44
23 50 45
23 50 45
23 50 45
23 51 46
24 52 47
22 49 44
23 50 45
23 49 45
22 49 44
23 50 45
22 48 44
22 48 43
22 49 44
22 49 44
23 49 45
23 51 46
22 49 44
22 47 43
23 50 45
23 51 46
23 49 45
22 49 44
22 48 44
23 50 45
22 48 43
22 48 44
22 49 44
23 50 45
22 49 44
23 50 45
22 48 44
23 50 45
23 49 45
22 48 43
22 49 44
23 50 45
22 48 44
22 49 44
22 49 44
23 50 45
22 49 45
23 49 45
23 50 45
22 49 44
22 49 44
22 48 44
22 48 44
22 48 43
22 49 45
22 48 44
22 49 44
23 50 45
22 49 44
22 48 44
22 48 44
22 49 45
22 49 44
22 47 43
22 48 44
22 49 44
22 49 44
22 49 44
22 48 43
22 48 44
22 48 44
22 49 44
22 48 43
22 48 44
22 47 43
22 48 44
22 49 44
22 49 44
21 47 42
22 48 44
21 47 42
22 49 44
21 46 42
22 47 43
22 48 43
22 48 44
21 47 43
21 47 43
21 47 43
22 48 44
22 47 43
21 47 43
22 48 43
22 47 43
22 48 43
22 47 43
21 47 43
22 48 43
22 48 44
22 48 44
21 47 43
22 48 43
21 46 42
22 48 43
22 48 44
21 47 43
21 47 43
21 47 43
22 48 43
21 47 43
23 51 46
23 49 45
23 50 45
23 51 46
22 49 44
23 50 45
23 50 45
22 49 44
23 50 45
23 49 45
23 50 45
23 50 45
23 50 45
23 49 44
23 49 45
23 50 45
23 51 46
23 50 45
22 48 43
22 49 44
23 50 45
22 49 44
23 50 45
23 51 46
23 50 45
24 51 46
22 49 44
22 48 43
23 50 45
23 50 45
23 50 45
23 50 45
23 50 45
23 51 46
23 50 45
23 50 45
23 51 46
22 49 44
23 50 45
22 48 44
23 50 45
22 48 44
23 50 45
23 49 45
23 50 45
23 50 45
22 49 44
22 49 44
22 49 44
22 48 44
23 50 45
23 50 45
23 49 45
22 49 45
22 49 44
22 49 44
22 48 44
23 51 46
22 47 43
22 49 44
22 48 44
23 50 45
22 49 45
22 49 44
23 50 45
23 49 45
21 47 42
21 47 42
22 48 43
22 49 44
22 49 44
22 48 43
22 48 44
22 48 44
22 48 44
22 49 44
23 50 45
22 48 44
22 49 44
22 49 44
22 48 44
22 48 44
21 46 42
22 47 43
22 48 43
22 48 44
22 48 44
22 47 43
22 49 44
22 48 43
22 47 43
22 48 44
22 47 43
22 48 43
22 48 44
21 47 42
21 47 43
21 47 42
22 48 43
22 47 43
22 47 43
22 48 44
22 48 43
21 47 43
22 47 43
21 47 42
21 46 42
21 47 43
22 48 44
22 49 44
21 47 43
21 46 42
22 49 45
22 48 44
21 47 43
22 48 43
21 46 42
21 47 43
22 48 43
21 47 43
22 49 44
23 50 45
23 49 45
23 50 45
23 50 45
23 50 45
23 49 44
23 50 45
23 51 46
23 50 45
23 51 46
22 49 44
24 52 47
23 50 45
22 49 44
23 50 45
23 51 46
23 50 45
23 49 45
22 49 44
23 50 45
23 50 45
23 50 45
23 50 45
23 50 45
23 49 45
23 50 45
22 49 44
23 50 46
23 50 45
22 49 44
23 49 45
23 49 45
22 49 44
23 51 46
22 49 44
23 51 46
22 48 44
22 48 43
23 50 45
22 48 44
22 49 45
22 49 45
23 50 45
23 50 46
22 49 44
22 48 43
23 49 45
22 49 45
23 51 46
23 49 45
22 49 44
23 50 45
22 49 44
23 49 45
23 50 45
22 49 44
23 50 45
22 49 44
23 50 45
22 49 44
23 50 45
22 48 44
22 49 44
23 50 45
22 48 44
22 48 43
22 49 44
22 49 44
22 47 43
22 48 44
23 50 45
22 49 44
22 49 44
23 50 45
22 49 44
22 49 44
22 48 43
22 49 44
22 48 44
22 49 44
21 46 42
23 50 46
22 49 45
22 48 44
22 48 43
22 48 43
22 48 43
21 46 42
22 48 43
22 49 44
21 47 43
22 49 44
22 48 43
22 48 44
22 48 43
22 49 45
21 47 42
21 47 42
22 49 44
22 48 43
21 46 42
22 49 44
21 46 42
21 47 43
22 49 44
22 48 44
21 47 43
22 48 43
21 47 42
21 46 42
22 47 43
22 48 44
22 48 44
22 47 43
21 47 43
22 47 43
22 47 43
21 46 42
20 45 41
23 51 46
23 50 45
23 51 46
23 50 45
23 51 46
23 50 45
23 50 45
23 50 45
23 50 45
23 50 45
23 50 45
23 50 45
23 50 45
23 50 45
23 49 45
23 50 45
23 51 46
23 50 45
23 50 45
23 50 45
23 51 46
23 49 44
23 50 45
23 49 45
23 50 45
22 48 44
23 49 45
22 49 44
22 49 44
23 50 45
23 50 45
23 50 46
23 49 44
22 49 44
22 49 44
22 49 44
22 49 44
23 51 46
22 49 44
23 51 46
22 49 44
23 49 45
23 51 46
23 50 45
22 49 44
23 49 44
23 50 45
22 49 44
23 50 45
22 49 44
23 49 45
22 49 44
22 49 44
22 49 44
23 50 45
22 48 43
23 50 45
23 51 46
23 50 45
22 48 43
22 49 44
23 51 46
23 50 46
23 50 45
22 49 45
22 49 44
22 49 44
22 48 44
22 49 44
22 49 44
22 48 44
22 49 44
23 49 45
22 47 43
22 49 44
22 48 44
22 48 44
22 49 44
22 48 44
22 48 44
22 48 43
22 48 43
22 48 43
22 48 43
22 48 44
22 48 43
22 48 44
23 50 45
22 48 43
22 47 43
23 50 45
22 47 43
22 48 44
22 48 44
21 47 43
22 48 43
22 48 43
22 48 44
21 46 42
22 48 43
22 48 44
21 47 42
22 48 44
22 48 44
22 48 43
21 47 43
22 48 44
22 48 43
22 48 44
22 48 44
21 47 43
22 48 43
21 47 43
22 48 44
22 47 43
21 47 42
21 47 43
21 46 42
21 47 43
22 48 44
23 50 45
24 52 47
23 51 46
23 50 45
23 50 45
23 50 45
23 51 46
23 50 45
23 51 46
23 51 46
24 52 46
23 50 45
23 51 46
22 49 44
23 50 45
23 50 45
23 50 45
23 49 45
23 51 46
22 48 44
23 50 45
23 51 46
23 50 45
23 50 45
22 49 44
23 50 45
22 49 44
22 49 44
23 49 45
23 50 45
23 50 45
23 50 45
22 49 44
23 50 45
23 49 45
23 50 45
23 50 45
23 50 45
23 51 46
23 50 45
23 50 45
23 50 45
23 50 45
22 49 44
23 51 46
23 49 45
22 49 44
23 51 46
23 50 46
23 50 45
23 49 45
22 49 44
23 50 45
22 48 43
22 48 44
22 49 44
22 48 44
22 49 44
22 49 44
22 49 45
22 49 44
22 49 44
23 49 45
23 49 45
22 49 44
23 50 45
22 48 44
22 48 44
22 48 44
22 49 45
22 49 44
22 49 44
22 49 44
22 48 44
22 48 44
22 48 44
22 48 44
22 48 44
22 49 44
21 46 42
22 49 44
22 48 44
22 48 43
22 48 43
22 48 44
22 49 44
22 48 44
22 49 44
22 48 43
21 47 43
22 48 43
22 49 44
23 50 45
22 48 43
22 49 45
22 48 44
22 48 44
22 48 44
22 49 44
22 48 43
22 48 44
22 48 43
22 48 44
22 48 44
22 49 44
22 48 43
22 48 43
22 47 43
21 47 43
21 47 43
22 47 43
21 47 43
22 47 43
22 49 44
21 47 43
22 47 43
22 48 43
21 47 42
21 47 43
22 48 44
