P3
120 80
255
15 36 35
15 35 34
15 35 34
16 36 35
16 36 35
15 36 35
16 37 35
16 36 35
15 36 34
15 36 34
15 36 35
15 36 35
16 36 35
15 36 35
15 35 34
15 36 35
16 37 36
15 35 34
16 36 35
15 36 35
15 36 35
15 36 35
15 36 35
15 36 35
15 36 34
15 35 34
16 37 36
15 36 35
15 36 34
16 37 36
16 37 35
15 36 34
15 36 35
16 37 35
15 36 35
16 36 35
15 36 34
16 36 35
15 36 34
15 36 35
16 37 35
16 36 35
15 36 35
16 36 35
15 35 34
16 37 35
15 36 35
15 36 35
15 36 34
15 36 35
15 36 34
16 36 35
15 36 34
15 35 34
15 36 34
15 36 34
15 36 35
16 36 35
15 35 34
15 36 34
15 36 35
15 36 35
16 36 35
15 36 34
15 36 35
15 36 34
16 36 35
15 36 35
15 36 34
16 37 35
15 35 34
16 37 35
16 37 35
15 36 35
16 37 35
16 37 36
15 36 35
16 36 35
15 36 35
16 36 35
15 36 34
15 36 34
15 36 34
15 36 35
15 36 35
15 36 34
15 36 34
15 36 34
15 35 34
15 36 35
16 37 36
15 36 35
16 36 35
16 36 35
15 36 34
15 36 35
15 36 35
15 36 35
15 36 34
15 36 34
15 36 34
15 35 34
15 36 35
16 37 35
16 37 36
15 36 35
16 36 35
16 36 35
15 36 34
16 37 36
15 36 35
16 36 35
16 37 36
16 36 35
16 36 35
16 36 35
16 37 36
15 36 34
15 36 34
16 38 36
16 36 35
16 37 36
16 38 36
16 37 35
15 36 34
15 36 35
15 36 34
15 36 35
16 36 35
16 37 36
15 36 34
16 36 35
16 37 35
15 35 34
15 35 34
16 36 35
15 36 35
16 36 35
16 36 35
16 37 35
16 37 36
15 35 34
16 36 35
15 35 33
15 36 35
16 37 35
15 36 34
16 36 35
16 36 35
16 36 35
16 36 35
16 36 35
16 36 35
15 36 34
15 36 34
15 35 34
15 36 35
16 37 35
15 36 34
16 36 35
16 36 35
15 36 34
16 36 35
15 36 35
15 36 34
15 36 35
16 37 35
16 36 35
16 36 35
15 36 35
16 36 35
15 36 34
15 36 35
16 37 35
16 36 35
16 37 35
15 36 34
15 36 35
16 36 35
16 37 36
16 36 35
16 36 35
15 36 35
15 36 34
16 36 35
16 37 35
16 37 35
15 36 34
16 37 35
16 38 36
15 35 34
15 36 34
16 37 35
16 37 35
15 35 34
15 36 35
16 37 35
16 37 35
16 37 35
16 36 35
16 37 35
16 37 35
15 36 34
16 36 35
16 36 35
16 36 35
15 36 34
16 37 35
15 36 35
16 37 35
16 38 36
16 36 35
16 36 35
16 36 35
16 36 35
15 36 34
15 36 35
15 36 34
16 37 36
15 35 34
16 36 35
15 36 35
16 37 35
16 36 35
16 38 36
16 36 35
16 37 35
15 36 34
16 36 35
16 37 35
16 37 35
16 36 35
15 36 34
16 36 35
16 36 35
16 37 35
16 37 35
15 36 34
16 36 35
16 37 36
15 36 34
16 37 35
16 37 36
16 37 36
15 36 34
15 36 34
16 37 36
16 37 35
16 38 36
16 37 35
16 37 35
16 37 36
16 36 35
16 36 35
16 37 36
16 36 35
16 36 35
16 37 35
15 36 35
15 36 35
16 37 35
16 37 35
15 36 34
16 37 35
16 37 36
16 37 35
15 36 34
15 36 34
16 37 36
16 37 35
15 36 34
16 37 35
16 38 36
16 37 35
15 36 34
16 37 35
16 37 35
15 35 34
15 36 35
16 37 36
16 37 35
16 36 35
16 36 35
16 37 35
15 36 35
16 37 35
16 36 35
16 37 35
15 35 33
15 35 34
16 37 36
16 37 35
15 36 35
16 36 35
15 36 34
15 36 34
16 36 35
15 36 35
15 35 34
15 36 35
16 36 35
15 36 34
16 36 35
16 36 35
16 37 35
16 37 35
16 37 35
16 36 35
16 37 35
16 36 35
15 36 35
16 37 35
16 36 35
16 36 35
16 36 35
16 37 35
16 36 35
15 36 34
15 36 35
16 36 35
16 36 35
16 37 35
15 36 35
16 38 36
16 37 35
15 36 34
16 36 35
16 37 35
15 36 35
15 36 34
15 36 35
16 37 36
15 36 34
15 36 34
16 36 35
16 37 35
16 37 35
16 37 35
15 36 35
16 37 35
16 37 35
16 37 35
15 36 34
16 36 35
16 36 35
15 36 35
16 37 35
15 36 35
16 37 36
16 38 36
15 36 35
16 36 35
16 37 35
16 36 35
16 37 35
16 37 36
16 37 35
15 36 34
16 37 35
15 36 34
16 37 35
16 37 35
15 36 34
16 37 35
16 37 35
16 37 35
16 37 35
16 36 35
16 37 36
16 36 35
16 37 36
16 37 35
16 36 35
16 36 35
16 36 35
15 36 35
16 37 35
16 37 35
16 37 35
16 36 34
16 36 35
16 38 36
16 37 35
16 37 35
16 37 35
16 37 36
16 37 35
16 37 36
15 36 34
15 36 34
16 37 35
15 36 34
16 36 35
16 37 35
16 36 35
16 37 36
16 37 35
16 37 36
16 36 35
16 36 35
16 37 35
15 35 34
16 37 35
16 36 35
15 36 34
15 36 34
16 37 35
16 36 35
16 36 35
16 36 35
15 36 34
15 36 34
16 36 35
16 36 35
15 36 35
16 37 35
16 37 35
16 37 35
16 36 35
16 37 35
15 36 34
16 37 35
16 37 35
16 37 35
16 37 35
16 36 35
16 37 35
16 37 36
15 36 34
16 36 35
15 36 35
15 36 34
16 37 35
16 37 35
16 36 35
16 37 35
16 37 35
16 36 35
16 36 35
16 36 35
16 37 35
15 36 34
16 37 35
16 37 35
16 37 36
16 37 35
16 37 36
15 36 34
16 37 36
16 37 36
16 36 35
16 37 35
15 36 34
16 37 35
16 36 35
16 36 35
16 37 35
16 37 35
16 37 35
15 36 34
16 36 35
16 37 35
16 37 35
16 37 36
16 37 35
16 36 35
16 36 35
16 36 35
16 37 35
16 37 35
16 36 35
16 37 35
16 37 36
16 37 36
15 36 34
16 37 35
16 37 35
16 37 35
16 38 36
15 36 34
16 37 35
16 37 35
16 36 35
17 38 37
16 36 35
16 37 35
16 37 36
16 37 35
16 37 35
16 37 35
16 36 35
16 36 35
16 37 35
15 36 34
16 37 35
16 37 35
16 37 35
16 37 36
16 36 35
16 37 35
16 37 35
16 36 35
16 37 35
16 37 36
16 37 36
16 37 35
16 37 36
16 37 35
16 37 35
16 37 36
16 38 36
16 38 36
16 37 35
16 37 35
16 37 35
15 36 34
16 37 35
16 37 35
16 36 35
16 37 36
16 38 36
16 37 35
16 37 36
16 37 35
16 37 36
16 37 35
16 37 36
16 37 35
16 36 35
16 36 35
16 37 35
15 36 34
16 37 35
16 36 35
16 38 36
16 37 36
16 37 35
15 36 34
16 37 35
16 36 34
16 38 36
16 37 35
15 36 34
16 37 36
16 37 35
16 37 35
16 38 36
16 37 35
16 36 35
16 37 35
16 37 35
16 36 35
16 37 35
15 36 34
16 37 36
16 37 36
16 38 36
16 37 35
16 38 36
16 37 36
16 37 35
16 37 36
16 37 35
16 37 35
16 38 36
16 37 36
16 37 35
16 37 35
16 37 35
15 36 34
16 37 35
16 37 35
16 36 35
16 37 35
16 36 35
16 37 35
16 38 36
16 37 36
16 37 35
15 36 34
16 37 35
16 37 36
16 37 35
16 37 35
16 37 35
16 37 35
15 36 34
16 36 35
16 36 35
16 37 35
16 37 36
16 37 35
16 37 35
16 38 36
16 36 34
16 37 36
15 36 34
16 36 35
16 38 36
16 37 35
16 36 35
16 37 35
16 36 35
16 36 35
16 37 35
16 37 35
16 37 35
16 37 35
16 38 36
16 38 36
16 37 36
16 38 36
16 37 35
16 37 35
16 36 35
16 37 35
16 37 35
16 37 36
16 37 35
16 37 36
16 37 35
16 37 35
16 37 36
16 37 35
16 37 35
16 37 35
16 37 36
16 37 35
16 38 36
16 38 36
16 37 35
16 37 35
16 37 36
16 37 35
16 37 36
16 37 35
16 38 36
16 37 35
16 37 35
16 38 36
16 37 35
16 37 36
16 37 36
16 37 36
16 36 35
16 38 36
16 38 36
16 37 35
16 37 36
16 37 35
16 37 35
16 36 35
16 37 36
16 37 35
16 37 35
16 37 35
16 37 36
16 37 35
16 37 35
16 37 36
16 37 35
16 37 35
16 38 36
16 37 36
16 37 35
16 37 36
16 37 35
16 38 36
16 37 35
16 37 35
15 36 34
16 37 35
16 37 35
16 37 35
16 36 35
16 36 35
16 37 35
16 37 36
16 37 35
16 37 35
16 37 35
16 38 36
16 38 36
16 37 35
16 37 35
16 38 36
16 37 36
16 37 35
16 37 35
16 37 35
16 38 36
16 37 35
16 37 35
16 37 36
16 38 36
16 37 35
16 37 36
16 37 35
16 37 36
16 36 35
16 38 36
16 36 35
16 37 36
16 37 35
16 37 36
16 37 35
16 37 35
16 38 36
16 38 36
16 36 35
16 38 36
16 37 35
16 37 36
16 38 36
16 37 36
16 37 36
16 38 36
16 37 36
16 38 36
16 38 36
16 37 36
16 38 36
16 37 36
16 38 36
16 37 35
16 36 35
16 37 36
16 37 35
16 37 35
16 37 35
16 37 35
16 37 36
16 37 35
16 37 36
16 38 36
16 37 36
16 37 35
17 38 37
16 38 36
16 38 36
17 38 36
17 38 37
16 37 35
16 38 36
17 38 36
16 37 36
16 38 36
16 38 36
16 36 35
16 37 36
16 37 35
16 37 35
16 37 35
16 38 36
17 39 37
17 38 37
16 37 36
16 38 36
16 38 36
16 38 36
16 36 35
16 37 35
16 38 36
16 37 35
16 37 35
16 37 35
16 38 36
16 37 35
16 37 35
16 37 35
16 37 35
17 38 37
16 37 35
16 38 36
16 38 36
16 37 35
16 37 35
16 38 36
16 38 36
16 37 35
16 37 35
16 37 36
16 37 35
16 38 36
16 37 36
16 38 36
17 38 37
16 37 35
16 37 35
16 37 35
16 37 36
16 38 36
16 37 35
17 38 36
16 37 36
16 38 36
16 37 35
16 37 36
16 37 35
16 37 36
16 37 36
16 37 35
16 38 36
16 37 35
16 37 35
16 38 36
16 38 36
16 37 36
16 38 36
16 37 35
16 37 35
16 37 36
16 37 35
16 37 35
16 37 35
16 38 36
16 38 36
16 38 36
16 37 35
16 38 36
16 37 35
16 38 36
16 38 36
16 36 35
16 37 35
16 38 36
16 38 36
16 37 35
16 38 36
16 38 36
16 38 36
16 38 36
16 38 36
16 38 36
16 38 36
16 37 35
16 37 35
16 38 36
16 36 35
16 38 36
16 38 36
16 37 35
16 37 35
16 38 36
16 38 36
17 38 37
17 38 36
16 38 36
17 39 37
16 38 36
16 38 36
16 37 36
17 39 37
16 37 35
16 37 36
16 38 36
16 37 36
16 37 35
16 37 35
16 37 36
16 37 35
16 38 36
16 38 36
16 37 35
16 37 35
16 37 36
16 38 36
17 38 36
16 37 35
16 37 36
16 37 36
17 38 37
16 37 35
16 37 35
17 38 37
16 37 35
16 38 36
16 37 35
16 37 36
16 37 36
17 38 36
16 38 36
16 37 35
16 37 36
16 38 36
17 38 36
16 38 36
16 37 35
16 37 36
16 37 35
16 38 36
16 37 36
16 38 36
16 37 35
16 38 36
16 38 36
16 37 35
16 38 36
16 37 35
17 39 37
17 38 36
16 38 36
17 38 36
16 37 36
16 37 36
17 38 36
16 38 36
16 37 35
16 38 36
16 37 35
17 39 37
16 38 36
16 38 36
16 37 35
16 38 36
16 37 36
16 37 35
16 38 36
16 38 36
16 37 36
16 36 35
16 36 34
16 38 36
16 37 35
16 38 36
16 38 36
16 37 35
16 37 35
16 38 36
16 38 36
16 38 36
16 37 36
17 38 37
16 38 36
16 37 35
16 37 35
16 38 36
16 37 35
16 38 36
16 38 36
16 37 36
17 38 36
16 37 35
16 36 35
16 38 36
16 37 36
16 37 35
16 38 36
16 38 36
16 38 36
16 37 36
17 39 38
16 37 35
16 37 35
16 38 36
16 37 36
16 38 36
16 38 36
16 38 36
16 38 36
16 37 35
16 37 36
17 39 37
16 38 36
16 38 36
16 38 36
16 37 35
17 38 36
17 39 37
16 37 36
16 38 36
16 38 36
16 38 36
17 39 37
17 38 36
16 38 36
16 38 36
16 38 36
16 37 35
17 38 36
16 38 36
16 38 36
16 38 36
17 38 36
16 38 36
16 38 36
16 38 36
17 38 36
17 38 37
16 37 35
16 38 36
16 38 36
16 37 35
16 37 36
17 38 36
16 37 35
16 38 36
17 38 36
16 38 36
16 37 35
16 37 35
16 38 36
17 38 36
17 38 37
16 38 36
16 38 36
16 38 36
17 39 37
16 37 35
17 38 37
16 36 35
16 37 36
16 37 35
16 38 36
16 37 36
16 38 36
17 38 36
16 37 36
17 39 37
16 37 35
16 37 35
16 37 36
17 39 37
16 37 35
17 38 37
16 38 36
16 37 35
16 37 36
16 38 36
17 39 37
16 37 36
16 37 35
17 38 36
16 38 36
17 39 37
16 38 36
17 38 36
17 38 37
16 37 35
17 39 37
17 38 36
17 38 36
17 39 37
16 37 35
16 37 35
16 38 36
16 37 35
16 38 36
16 38 36
16 37 36
16 38 36
16 38 36
16 38 36
17 39 37
16 38 36
16 37 35
16 38 36
16 38 36
16 38 36
17 39 37
16 37 36
17 39 37
16 38 36
16 37 35
16 38 36
16 37 35
16 38 36
17 38 36
17 38 36
16 37 35
17 39 37
16 38 36
16 38 36
16 38 36
17 38 36
17 38 36
16 37 35
16 38 36
17 38 36
16 37 35
16 38 36
16 38 36
17 39 37
16 37 35
16 37 35
17 38 37
17 38 36
16 38 36
16 38 36
17 38 36
17 39 37
17 38 36
17 39 37
17 39 37
17 39 37
16 38 36
16 38 36
16 38 36
17 38 36
16 38 36
17 38 36
17 39 36
17 38 36
17 38 36
17 39 37
16 38 36
17 38 36
16 38 36
16 38 36
17 38 36
16 38 36
16 38 36
17 38 36
16 37 35
16 38 36
16 38 36
16 37 35
17 38 36
16 38 36
16 38 36
16 38 36
16 37 35
17 38 36
16 37 35
17 39 37
17 39 37
16 38 36
17 38 36
17 39 37
17 38 36
17 38 37
16 38 36
17 39 37
17 38 36
17 38 36
16 38 36
16 38 36
17 38 36
16 38 36
17 38 36
16 37 36
16 38 36
17 38 36
16 37 35
17 39 37
16 38 36
16 37 35
17 38 36
16 38 36
17 38 36
16 38 36
17 38 36
17 39 37
16 38 36
16 38 36
16 37 35
16 37 35
16 38 36
17 38 36
17 39 37
16 37 36
16 38 36
17 38 36
17 39 37
17 39 37
16 37 35
16 38 36
16 38 36
17 38 37
17 38 36
16 38 36
16 38 36
16 38 36
16 38 36
17 38 36
17 38 36
16 37 35
16 38 36
17 38 37
17 38 36
17 39 37
17 38 36
17 38 36
16 38 36
17 38 36
17 38 36
17 38 36
16 38 36
16 38 36
17 38 36
17 38 36
16 38 36
17 38 36
17 38 36
16 37 35
17 38 36
16 38 36
17 38 36
16 38 36
17 38 36
17 39 37
17 38 36
17 38 36
16 38 36
17 38 36
17 38 36
16 37 35
17 39 37
16 38 36
16 38 36
17 38 36
16 38 36
16 38 36
16 38 36
17 40 37
17 38 36
17 38 36
17 39 37
17 38 36
17 38 36
16 37 36
17 38 36
17 39 37
17 39 37
17 39 37
17 38 36
17 38 36
17 38 36
17 39 37
17 39 37
17 39 37
17 39 37
17 39 37
16 38 36
17 38 36
17 39 37
16 38 36
17 39 37
17 38 36
16 38 36
17 39 37
17 39 37
17 39 37
16 38 36
17 39 37
17 39 37
16 38 36
17 38 36
17 38 36
17 39 37
16 38 36
16 38 36
17 38 36
17 39 37
17 38 36
16 38 36
16 38 36
17 39 37
16 38 36
16 37 35
17 38 36
17 39 36
17 38 36
16 38 36
16 37 36
17 38 36
17 38 36
17 39 37
17 38 36
17 39 36
16 37 36
17 39 37
16 38 36
16 38 35
17 38 36
17 39 37
17 38 36
17 38 36
16 37 35
16 38 36
17 38 36
17 39 37
17 38 36
17 39 37
17 39 37
16 38 36
17 39 37
16 37 36
16 38 36
17 38 36
17 39 36
17 40 38
17 38 36
17 38 36
17 38 36
17 38 36
16 38 36
17 38 36
17 38 36
16 37 35
17 39 37
17 39 37
17 39 37
17 39 37
17 39 37
16 38 36
16 37 35
17 39 37
16 38 36
17 39 37
17 38 36
17 39 37
16 38 36
17 38 36
16 38 36
17 39 37
16 38 36
17 38 36
17 39 37
17 39 37
17 40 38
17 39 37
16 38 36
16 38 36
17 38 36
17 38 36
17 39 37
17 38 36
17 38 36
16 38 36
17 39 37
17 38 36
17 38 36
17 38 36
17 39 37
17 38 36
17 38 36
16 38 36
17 38 36
16 38 36
17 38 36
17 38 36
16 37 35
17 39 37
17 38 36
17 39 37
17 38 36
16 38 36
17 38 36
17 39 37
16 38 36
17 39 37
17 39 37
17 39 37
17 38 36
17 38 36
17 38 36
17 39 37
17 39 37
17 38 36
17 38 36
17 40 38
17 39 37
16 38 36
17 38 36
17 39 37
17 39 37
17 39 37
17 39 37
17 38 36
17 38 36
16 38 36
17 40 37
16 38 36
17 38 36
17 39 36
17 39 37
17 39 37
17 39 37
17 39 37
17 39 37
17 39 37
17 38 36
17 39 37
16 38 36
17 39 37
17 39 37
17 39 37
17 39 37
17 39 37
16 38 36
17 38 36
16 38 36
17 39 37
16 38 36
17 38 36
17 38 36
17 38 36
17 39 37
17 39 37
17 38 36
17 39 37
17 39 36
17 39 37
17 39 37
17 39 37
17 39 37
17 38 36
16 37 36
17 39 37
17 39 36
17 39 37
17 39 37
17 38 36
17 39 37
17 38 36
17 39 37
17 39 36
17 39 36
17 39 37
17 39 37
17 39 37
17 40 37
17 39 37
17 38 36
17 39 37
17 39 37
17 40 37
17 39 36
17 39 37
17 39 36
17 38 36
16 38 36
17 39 37
17 40 38
17 38 36
17 39 37
17 39 37
17 39 37
17 39 37
17 39 37
17 39 37
17 39 37
17 38 36
17 39 37
17 39 36
17 39 37
16 38 36
16 37 35
17 39 37
17 39 37
16 37 35
17 38 36
17 39 37
17 38 36
17 38 36
16 38 36
17 39 37
17 39 37
17 38 36
17 39 36
16 38 36
17 39 37
17 39 37
18 40 38
17 39 37
17 39 36
17 39 37
17 38 36
17 39 37
17 39 37
17 39 37
17 39 37
17 40 37
17 39 36
17 39 37
17 38 36
17 39 37
17 39 37
17 40 37
17 38 36
17 39 37
17 38 36
17 38 36
17 38 36
17 38 36
17 39 36
17 38 36
17 39 37
17 39 37
17 40 37
17 39 37
17 39 37
17 39 37
17 39 37
17 40 37
17 39 37
17 38 36
17 40 38
17 39 37
17 39 37
17 39 36
17 39 37
17 40 37
17 39 36
17 39 37
17 39 37
17 39 37
17 39 37
17 39 37
17 39 37
17 39 37
17 38 36
17 39 36
17 39 36
17 39 37
17 39 37
17 39 37
17 38 36
17 40 37
17 39 36
17 38 36
17 39 37
17 40 38
17 39 37
17 40 37
17 39 37
17 40 37
17 39 37
16 38 36
17 39 37
17 39 37
17 40 38
17 38 36
17 39 37
17 39 37
17 38 36
17 39 37
17 39 37
17 39 37
17 39 37
17 39 37
17 39 36
17 39 36
17 40 38
17 39 37
16 38 36
17 39 37
17 39 37
17 38 36
17 38 36
17 40 37
17 39 37
17 39 37
17 39 37
17 39 37
17 39 37
17 39 37
17 38 36
17 39 37
17 39 37
17 39 37
17 39 37
17 39 37
17 39 37
17 38 36
17 39 37
17 38 36
17 39 37
17 39 37
17 39 37
17 39 37
17 39 37
17 39 37
17 39 37
17 40 37
17 39 37
17 39 37
17 40 38
17 38 36
17 39 37
17 39 37
17 39 37
17 39 37
17 39 36
17 40 37
17 39 37
17 39 37
17 38 36
17 39 36
17 40 37
17 38 36
17 39 37
17 39 37
17 39 37
17 39 37
17 39 37
17 40 37
17 38 36
17 39 37
17 40 37
17 40 37
17 39 37
17 39 37
17 40 37
17 40 37
17 38 36
17 40 37
17 39 36
17 38 36
17 40 38
17 39 37
17 39 36
17 39 36
17 39 37
17 39 37
17 40 37
17 40 37
17 39 37
17 39 37
17 39 37
17 39 37
17 39 37
17 39 37
17 39 37
17 40 37
17 40 37
17 39 36
18 40 38
17 39 37
17 40 38
17 40 38
17 40 37
17 40 37
17 38 36
17 40 37
17 40 38
17 38 36
17 39 37
17 39 37
18 40 38
17 40 37
17 39 37
17 39 37
17 40 37
17 40 37
17 40 37
17 40 37
17 39 37
17 39 37
17 40 38
17 39 37
17 39 37
17 39 36
18 40 38
17 39 37
17 39 37
17 39 37
17 39 37
17 40 37
17 40 37
17 39 37
17 39 37
17 40 37
17 39 37
17 39 36
17 39 37
17 39 36
17 40 38
17 39 37
17 39 36
17 40 37
17 39 37
17 38 36
17 39 37
17 38 36
17 40 37
17 39 37
17 40 37
17 39 37
17 40 38
17 39 37
17 40 37
17 39 37
17 39 37
17 38 36
17 40 38
17 39 37
18 40 38
17 39 37
17 39 37
17 39 37
17 39 37
17 39 37
17 39 37
17 40 37
17 38 36
17 38 36
17 39 37
17 39 37
18 41 38
17 39 37
17 39 37
17 39 37
18 41 39
17 38 36
17 39 37
17 39 37
17 40 37
18 40 38
17 39 37
17 39 36
18 40 38
17 39 37
17 39 37
17 40 38
17 39 37
17 39 37
17 39 37
17 39 37
17 40 37
17 39 37
17 40 37
17 40 37
17 40 37
17 39 37
17 40 38
17 40 37
17 39 37
17 40 37
18 40 38
17 39 37
18 40 38
18 40 38
17 39 37
17 39 37
17 40 37
17 39 37
18 40 38
17 40 37
17 39 37
18 40 38
17 39 37
18 40 38
18 40 37
17 40 38
17 39 37
18 40 38
17 39 37
17 40 37
17 40 37
17 39 37
18 40 38
18 40 38
17 39 37
17 40 37
17 39 37
17 39 36
17 39 37
17 39 36
17 40 37
17 39 37
18 40 38
17 40 37
17 39 37
18 40 38
17 39 37
17 40 37
18 40 38
18 40 38
17 39 37
17 40 37
18 41 38
18 40 38
18 40 38
18 40 38
17 40 37
17 39 37
17 40 37
18 40 38
17 39 37
17 39 37
17 40 37
17 39 37
18 40 38
17 40 37
17 39 37
17 39 37
17 39 37
17 39 37
17 38 36
17 40 37
17 40 37
17 39 37
18 40 38
17 40 37
17 39 37
18 40 38
17 40 37
17 40 37
18 41 38
17 39 37
17 39 37
18 40 38
17 40 37
17 40 37
17 39 37
17 39 36
17 40 37
17 39 37
17 39 37
18 40 38
17 40 38
17 39 37
17 40 37
17 40 37
18 40 38
18 40 38
17 39 37
17 39 37
17 40 37
17 39 36
17 39 37
17 40 37
18 40 38
17 39 37
17 39 36
18 40 38
17 38 36
17 40 37
18 41 39
18 40 38
18 40 38
18 40 38
18 40 38
17 40 37
17 39 37
17 39 37
18 40 38
18 41 39
17 40 37
17 39 37
17 40 37
17 40 37
17 39 37
18 40 38
17 40 37
18 40 38
18 40 38
18 40 37
17 39 37
17 39 37
18 40 37
17 39 36
18 41 38
17 39 37
17 40 37
17 40 38
18 40 38
17 39 37
17 40 37
17 39 37
17 40 37
18 40 38
17 40 37
17 39 37
17 40 37
17 40 37
17 40 37
17 39 37
18 40 37
17 40 38
17 39 37
18 40 38
17 40 37
18 40 38
17 40 37
18 41 38
17 40 37
18 41 39
18 40 38
18 41 38
17 39 37
18 40 38
17 39 37
17 39 37
18 40 38
17 39 37
18 40 38
18 40 38
18 40 37
18 40 38
17 39 37
18 41 38
17 39 37
18 40 38
18 40 38
18 41 39
17 40 37
18 40 38
18 40 38
18 40 38
17 39 37
17 40 37
18 40 38
17 39 37
18 40 38
18 40 38
17 40 37
18 40 38
18 41 38
18 40 38
18 41 38
17 39 37
18 41 38
17 39 37
17 39 37
18 40 38
17 40 37
18 40 38
17 39 37
17 40 37
17 39 37
17 39 37
17 40 37
17 40 38
17 40 37
17 40 37
17 39 36
18 40 38
17 40 37
17 40 38
18 41 39
17 39 37
18 40 38
18 40 38
17 39 37
17 39 36
18 40 37
17 40 37
17 39 37
17 40 38
17 40 37
17 40 38
18 40 38
17 39 37
18 40 38
17 40 37
17 39 36
18 40 38
18 40 38
17 39 37
17 40 37
18 40 38
17 39 37
18 40 38
17 40 37
17 39 37
17 40 37
18 41 38
18 40 37
18 40 37
18 41 38
18 40 37
18 40 38
18 41 38
18 40 38
18 40 38
18 40 38
18 40 37
18 40 38
18 40 38
17 40 37
18 41 38
18 40 38
18 41 39
17 40 37
18 40 37
18 40 38
18 40 37
18 41 38
18 40 38
17 40 37
17 40 37
17 40 37
17 40 37
17 40 37
18 41 38
18 40 38
18 40 37
18 40 38
18 41 38
17 39 37
18 41 38
18 40 38
18 40 38
17 40 37
18 41 38
18 40 37
17 39 37
18 41 38
18 40 38
18 40 37
17 40 37
17 39 37
17 39 37
18 40 38
18 40 38
17 39 37
18 40 38
18 40 37
17 40 37
18 40 38
18 40 38
18 40 38
18 41 38
18 41 38
18 40 38
18 41 39
18 40 38
18 40 38
18 41 38
18 41 38
18 40 38
18 40 38
18 41 39
18 40 38
18 40 38
17 40 37
17 40 37
18 41 39
18 40 38
17 40 37
17 40 37
17 39 37
18 41 38
18 40 38
18 40 38
17 39 37
18 41 38
17 40 37
18 41 38
17 39 37
18 40 38
18 41 38
17 40 37
18 41 38
18 40 37
17 40 37
17 40 37
17 40 37
18 41 38
18 40 38
18 40 38
17 39 37
18 40 38
18 40 37
18 41 38
18 40 38
18 41 38
17 39 37
17 39 37
17 39 37
18 41 39
18 41 38
17 39 37
18 41 38
18 41 39
18 41 38
17 40 37
18 41 38
17 39 37
18 41 39
17 39 37
17 39 37
18 41 38
18 41 38
18 40 38
18 41 38
17 40 37
18 40 38
18 40 38
18 40 37
18 40 37
18 40 38
18 41 38
17 40 37
18 42 39
18 41 38
18 42 39
18 41 38
18 41 38
18 40 38
18 41 38
18 41 38
18 41 39
17 40 37
18 41 38
18 41 38
18 40 38
18 41 39
18 41 38
18 40 38
18 40 37
18 41 38
18 40 38
18 40 38
18 40 38
18 41 38
18 41 39
18 40 38
17 40 37
18 41 38
18 41 39
18 41 38
18 41 38
18 41 39
18 41 38
18 41 38
18 41 38
18 40 38
18 41 38
18 41 39
18 40 38
18 40 38
18 40 38
18 41 39
18 41 38
18 40 38
18 41 39
18 41 38
18 41 39
18 41 39
18 41 38
18 41 38
18 40 38
18 41 38
18 41 39
18 40 38
18 41 38
18 40 37
18 41 38
17 40 37
18 40 38
18 41 39
18 41 38
18 41 38
18 40 38
18 40 37
18 41 39
18 41 38
18 41 38
18 40 38
18 41 38
18 41 38
18 40 38
18 40 37
18 41 38
17 40 37
18 40 37
17 40 37
18 40 38
17 40 37
18 41 38
17 40 37
18 40 38
18 41 38
18 40 38
18 41 38
18 40 37
17 40 37
18 40 38
17 40 37
18 41 39
17 40 37
18 40 38
18 40 38
18 41 38
18 40 38
18 41 39
18 41 39
17 40 37
18 40 38
17 40 37
18 41 38
18 41 38
18 40 37
18 40 37
18 41 38
18 40 38
18 41 38
18 41 38
18 41 38
18 41 39
18 40 38
18 41 39
18 41 38
18 40 38
18 41 38
18 40 37
18 40 38
18 41 38
18 40 38
18 40 37
18 40 37
18 41 39
18 40 38
18 40 38
18 42 39
18 41 38
18 41 38
18 40 38
18 42 39
18 41 38
18 41 38
18 40 37
18 40 38
18 42 39
18 40 38
18 40 38
18 41 38
18 41 39
18 40 38
18 40 38
18 41 38
18 41 39
18 41 39
18 40 37
18 41 38
18 41 38
18 41 39
18 41 38
18 40 37
18 40 37
18 42 39
18 41 38
18 41 38
18 41 38
18 42 39
18 41 38
18 42 39
18 41 38
18 41 38
18 41 38
18 41 39
18 41 38
18 41 38
18 41 39
18 41 38
18 40 38
18 41 38
18 41 39
18 40 37
18 41 39
18 41 39
18 41 39
18 41 38
19 42 39
18 41 38
18 42 39
18 40 38
18 40 38
18 41 39
18 41 39
18 41 39
18 40 38
18 42 39
18 40 38
18 41 39
18 41 38
18 41 38
18 41 39
18 41 39
18 41 38
18 41 39
18 41 38
18 41 38
18 40 37
18 41 38
18 41 39
18 41 39
18 40 37
18 40 38
17 39 37
17 40 37
18 41 38
17 39 37
18 40 38
17 40 37
17 40 37
18 40 38
18 40 37
18 41 38
18 41 38
18 40 37
18 40 38
18 41 38
18 41 39
18 40 37
18 41 38
18 40 37
18 41 38
18 41 38
18 40 37
18 40 38
18 41 39
18 40 38
18 41 38
18 41 38
18 41 38
18 42 39
18 41 38
18 41 38
18 41 38
18 41 38
17 39 37
18 41 38
18 40 38
18 41 39
18 41 38
18 40 37
18 41 38
18 41 38
18 41 38
18 41 38
18 41 39
18 40 38
18 41 38
18 40 38
18 41 38
18 41 39
18 40 37
18 41 38
18 41 38
18 41 38
18 42 39
18 42 39
18 40 37
18 42 39
18 42 39
18 40 38
18 41 39
18 41 39
18 41 38
18 41 38
18 42 39
18 41 38
18 40 37
19 42 39
18 41 38
19 42 39
18 41 38
18 41 38
18 41 38
18 41 38
18 41 39
18 41 38
18 41 38
18 40 38
18 41 38
19 42 39
18 41 38
19 42 39
18 40 38
19 42 39
18 41 38
19 42 39
18 42 39
18 41 39
18 41 38
18 42 39
19 42 39
19 42 39
18 41 39
19 42 39
19 42 39
18 41 38
18 41 38
18 41 38
18 41 38
18 42 39
18 42 39
18 41 38
19 42 39
18 41 38
18 41 38
18 41 38
19 42 39
18 42 39
18 41 38
18 41 39
18 40 38
18 41 38
18 40 38
18 41 38
18 41 39
18 41 38
18 42 39
18 41 38
19 43 40
18 41 39
18 41 38
18 40 38
18 41 38
18 40 38
18 42 39
18 41 38
18 40 38
18 41 38
18 41 38
18 41 38
18 41 38
18 41 38
18 42 39
18 41 38
18 41 39
18 41 38
18 40 37
18 41 38
18 41 38
18 41 38
18 40 38
18 41 39
18 41 38
18 41 38
18 41 39
18 41 39
18 40 38
18 40 38
18 41 38
18 41 38
18 40 38
18 41 38
18 41 38
18 41 38
19 42 39
18 41 38
18 41 38
18 41 38
18 41 38
18 41 39
18 42 39
18 42 39
18 41 38
18 41 39
18 40 37
18 41 38
18 41 38
19 42 39
19 42 39
18 41 39
18 41 38
19 42 39
18 41 38
18 42 39
19 43 40
18 41 39
18 42 39
18 42 39
18 41 38
18 42 39
18 41 39
18 41 38
19 42 39
18 41 38
19 42 39
18 41 38
18 41 38
18 41 38
18 41 38
19 43 40
19 42 39
18 41 38
18 41 38
18 41 38
18 41 38
18 41 38
18 41 38
18 41 38
18 41 39
18 42 39
18 41 38
18 41 38
19 43 40
18 41 38
19 42 39
19 43 40
18 41 38
18 41 38
18 41 38
18 41 38
19 42 39
18 41 39
19 43 40
18 42 39
19 42 39
19 43 40
19 43 40
19 43 40
19 42 39
18 41 39
19 42 39
19 42 39
18 41 38
19 42 39
19 42 39
18 41 38
19 42 39
19 42 40
19 42 39
18 42 39
18 42 39
19 42 39
19 42 39
19 42 39
19 43 40
19 42 39
18 41 38
19 42 39
18 42 39
18 41 39
18 41 38
18 41 38
18 41 39
18 41 38
18 41 39
18 40 37
18 41 38
18 41 38
18 41 38
18 41 38
18 41 38
18 42 39
18 41 38
18 41 38
18 41 38
18 42 39
18 41 38
18 40 37
18 41 38
18 41 38
18 40 38
19 42 39
18 41 38
18 41 38
18 41 38
18 41 38
18 41 38
18 40 38
18 41 39
19 42 39
18 41 38
18 42 39
18 41 38
18 40 38
18 42 39
18 40 38
19 42 39
18 41 38
18 41 38
18 41 38
19 42 39
19 43 40
18 41 38
18 41 38
18 41 39
19 42 39
18 41 38
18 41 39
18 42 39
19 43 40
18 42 39
18 42 39
18 41 38
18 41 38
18 41 39
18 41 38
18 41 39
18 42 39
19 42 39
19 43 40
19 42 39
19 42 39
19 42 39
19 42 39
19 42 39
19 42 39
19 42 39
19 42 39
19 42 39
19 43 40
19 42 39
19 42 39
19 43 40
19 42 39
19 43 40
19 42 39
19 42 39
18 41 39
19 42 39
18 40 38
19 43 40
19 43 39
19 42 39
19 42 39
19 42 39
19 42 39
18 41 38
18 42 39
19 42 39
19 42 39
19 43 40
19 42 39
18 42 39
18 41 38
19 43 40
19 42 39
19 43 40
19 42 39
19 43 40
19 43 40
18 41 39
19 43 40
19 43 40
19 42 39
19 42 39
19 42 39
19 42 39
19 43 39
19 42 39
19 42 39
19 43 40
19 43 40
18 41 38
18 42 39
19 43 40
19 43 40
18 41 38
18 41 39
19 42 39
18 42 39
18 42 39
18 41 38
18 42 39
18 42 39
19 43 40
18 40 38
18 40 38
18 41 39
18 42 39
18 41 38
18 41 38
18 42 39
19 42 39
19 42 39
18 41 38
19 42 39
19 43 40
19 42 39
18 41 38
18 42 39
19 42 39
18 41 38
19 43 40
18 41 39
19 42 39
19 42 39
19 42 39
18 41 38
18 41 39
19 42 39
19 42 39
18 41 39
18 42 39
19 42 39
19 43 40
18 41 38
19 42 39
19 43 40
18 41 38
19 42 39
19 42 39
19 42 39
19 42 39
19 43 40
19 42 39
19 42 39
19 42 39
19 42 39
19 42 39
19 42 39
19 42 39
18 41 38
19 42 39
19 42 39
19 42 39
19 42 39
19 42 39
19 42 39
18 41 38
18 42 39
18 41 38
19 43 40
19 42 39
19 42 39
19 43 40
19 43 40
19 42 39
19 42 39
19 42 39
19 42 39
19 42 39
19 42 39
19 42 39
19 43 40
18 41 38
19 42 39
19 43 40
19 42 39
18 41 38
18 41 38
19 42 39
19 43 40
19 42 39
19 43 40
19 43 40
19 43 40
19 42 39
19 43 40
19 43 40
19 42 39
19 43 40
19 43 40
19 44 40
19 42 39
19 42 39
19 43 40
19 43 40
19 43 40
19 42 39
19 42 39
19 43 39
19 43 40
19 43 40
19 43 40
19 42 39
19 43 39
19 42 39
19 42 39
18 41 38
19 42 39
20 44 40
19 42 39
19 43 39
19 42 39
18 41 38
19 43 40
19 43 39
19 42 39
19 43 40
19 42 39
18 40 38
18 42 39
19 42 39
19 43 40
18 41 38
18 41 39
19 42 39
18 41 38
18 42 39
18 41 38
19 43 40
18 41 38
18 41 39
19 42 39
18 41 38
19 42 39
19 42 39
18 42 39
18 41 38
18 41 38
19 42 39
19 42 39
18 41 38
19 43 40
19 42 39
19 42 39
18 41 38
19 42 39
19 42 39
18 42 39
19 43 40
19 42 39
18 42 39
18 41 39
18 41 39
19 42 39
18 41 39
18 41 38
19 42 39
19 42 39
19 42 39
19 42 39
19 43 40
19 42 39
19 43 40
19 42 39
19 43 40
19 43 40
19 43 39
19 43 40
19 42 39
19 42 39
18 41 38
19 42 39
19 42 39
20 44 41
19 43 39
19 43 39
19 43 39
19 42 39
19 43 40
19 43 40
19 42 39
19 43 40
19 43 40
18 42 39
19 43 40
19 43 39
19 43 40
19 43 40
19 44 40
19 43 40
19 43 40
19 42 39
19 43 40
20 44 41
19 42 39
19 43 40
19 42 39
19 43 40
19 43 40
20 44 41
19 42 39
19 42 39
19 44 41
19 44 40
19 42 39
19 43 40
19 43 40
19 42 39
19 42 39
19 43 40
19 42 39
19 42 39
19 43 40
19 43 40
19 44 40
19 43 39
19 43 40
19 43 40
19 42 39
19 43 39
20 44 41
19 43 40
19 43 40
19 43 40
19 44 40
19 42 39
19 43 39
19 43 40
19 43 40
19 43 40
19 44 40
19 42 39
19 43 40
19 42 39
19 42 39
19 43 40
19 43 40
18 40 38
18 41 39
18 41 38
19 42 39
18 41 38
19 42 39
19 42 39
18 41 38
18 41 39
18 41 38
19 42 39
18 41 39
18 42 39
19 43 40
19 42 39
19 43 40
19 42 39
18 41 38
19 43 40
19 42 39
19 42 39
19 42 39
19 42 39
18 41 38
18 41 38
18 42 39
19 42 39
19 43 40
19 42 39
18 41 38
19 42 39
19 42 39
18 42 39
19 43 40
19 42 39
19 43 40
19 42 39
19 42 39
19 43 40
19 42 39
19 43 40
19 43 39
19 42 39
19 42 39
19 43 39
19 43 40
19 42 39
19 42 39
19 43 40
19 42 39
19 43 40
19 42 39
19 42 39
19 44 40
19 43 40
18 42 39
19 43 40
19 43 40
19 43 40
19 43 40
19 43 40
20 44 40
19 43 40
20 44 40
19 43 40
19 43 40
19 43 40
19 43 40
19 43 40
19 43 40
20 44 40
19 43 40
19 43 40
19 43 40
19 43 40
19 42 39
19 43 40
19 43 40
19 44 40
20 44 40
19 43 40
19 44 40
19 43 40
19 43 40
19 43 40
19 43 40
20 44 41
20 44 40
19 42 39
19 44 40
19 42 39
19 43 40
19 42 39
20 44 41
19 43 39
19 43 40
20 44 40
19 44 40
20 44 41
19 43 40
20 44 40
19 43 40
20 44 41
19 43 39
19 43 40
19 44 40
20 44 41
19 43 40
19 43 40
19 43 40
19 43 39
19 42 39
20 44 41
19 43 40
19 43 40
20 44 41
19 43 40
19 44 40
19 43 40
19 44 40
19 42 39
18 41 39
18 41 39
19 42 39
18 42 39
19 42 39
19 43 40
19 42 39
19 43 40
19 43 40
18 41 39
19 42 39
18 42 39
18 41 38
19 42 39
19 42 39
19 43 40
19 42 39
18 42 39
19 43 40
19 42 39
18 41 38
19 42 39
20 44 41
19 42 39
19 42 40
19 43 40
19 43 40
19 42 39
18 41 38
19 43 40
19 42 39
19 43 40
19 43 39
19 42 39
19 43 40
19 43 39
19 43 40
19 43 39
19 43 40
19 43 40
19 43 40
19 43 40
20 44 40
19 43 40
19 43 39
19 42 39
19 42 39
19 43 40
19 43 40
19 43 39
20 44 41
19 42 39
19 42 39
19 43 40
19 43 39
20 44 40
19 43 40
19 42 39
19 43 40
19 44 40
19 43 40
19 43 40
19 43 39
20 44 41
20 44 40
20 44 41
19 43 40
19 43 40
20 44 40
19 43 40
19 43 40
19 43 40
19 43 40
20 44 40
20 45 42
20 44 41
19 43 40
19 43 40
20 44 40
20 44 40
19 43 40
19 43 40
20 44 41
19 43 40
19 43 40
20 44 40
19 43 39
20 44 41
20 45 41
20 44 41
19 43 40
20 44 41
20 44 41
20 44 41
20 44 41
20 44 41
20 45 41
19 43 40
20 44 41
20 45 42
19 43 40
20 44 41
20 45 41
19 43 39
20 45 41
20 45 42
19 43 40
20 44 40
19 43 40
20 45 41
19 44 40
19 43 40
20 44 40
20 44 41
20 44 40
20 44 40
20 44 40
19 43 40
20 44 41
19 42 39
19 42 39
19 42 39
19 42 39
18 41 38
19 42 39
19 42 39
19 43 40
19 43 40
19 42 39
18 42 39
18 41 38
19 42 39
19 42 39
18 41 38
19 43 40
18 41 38
19 42 39
19 43 40
19 42 39
19 42 39
19 43 40
18 41 38
19 43 40
19 43 39
19 43 40
19 43 40
19 43 39
19 43 40
19 43 40
19 42 39
19 43 39
19 42 39
19 42 39
19 43 40
19 43 40
19 43 40
19 43 40
19 43 40
19 43 40
19 43 40
19 42 39
19 43 40
19 43 40
19 43 40
19 44 40
19 43 40
19 43 40
19 42 39
20 45 41
20 44 40
19 43 39
19 44 40
19 43 40
19 42 39
20 44 41
19 42 39
20 44 40
19 43 40
20 44 40
20 44 40
19 43 40
20 44 40
19 43 40
19 43 40
20 44 41
20 44 40
20 44 40
20 44 41
20 44 40
19 43 40
20 44 41
19 43 40
20 45 41
19 43 40
20 44 41
20 44 40
19 43 40
20 45 41
20 45 41
20 44 40
20 44 41
20 44 40
20 44 41
20 44 41
20 44 41
20 45 41
20 45 41
20 46 42
20 44 41
20 44 41
20 44 41
20 45 41
20 44 40
20 45 41
20 45 41
19 43 40
19 43 40
20 45 41
20 44 41
20 44 40
20 44 41
20 44 41
19 43 40
20 44 41
20 44 40
20 44 41
20 45 41
20 44 41
20 44 41
20 44 41
20 44 40
20 45 42
20 44 41
20 44 41
20 45 41
20 45 41
20 44 40
20 44 40
20 44 40
18 41 38
18 41 38
19 42 39
19 43 40
19 42 39
19 43 40
19 43 40
19 42 39
19 42 39
19 42 39
19 43 40
19 43 40
19 43 40
19 42 39
19 43 39
19 42 39
19 43 40
19 42 39
19 42 39
19 43 39
19 43 40
19 42 39
20 44 41
19 42 39
19 43 39
19 43 40
20 44 40
19 43 40
20 44 40
19 43 40
18 41 38
19 43 40
20 44 40
19 43 40
19 43 40
19 44 40
19 43 40
19 43 40
20 44 41
19 44 40
20 44 40
19 42 39
19 43 40
20 44 41
19 43 39
19 43 40
19 44 40
20 44 40
20 44 40
19 43 40
19 43 40
19 43 40
19 44 40
20 44 41
19 43 40
20 45 41
19 43 40
20 44 41
20 44 40
20 44 40
20 45 41
20 44 41
20 45 41
20 44 40
20 44 40
20 44 41
20 44 40
20 44 40
20 45 42
19 43 39
20 44 40
19 43 39
20 45 41
20 45 41
20 45 41
20 45 42
20 45 41
20 44 40
20 45 41
20 44 41
20 44 41
20 45 41
20 45 41
20 44 41
20 44 41
20 45 42
20 44 40
20 44 41
20 44 40
20 44 40
20 44 41
20 45 41
21 46 42
20 44 41
20 45 41
20 45 42
20 44 40
20 45 41
20 44 40
20 44 41
20 45 42
20 45 41
20 45 41
20 44 41
20 45 41
21 46 42
20 45 41
20 44 41
20 45 41
20 44 40
20 45 41
20 44 40
20 45 42
20 44 40
20 45 41
20 45 41
20 45 41
20 44 41
20 45 42
20 45 41
18 41 38
19 43 40
18 41 38
19 43 39
19 42 39
18 41 38
19 42 39
19 43 40
19 42 39
19 42 39
19 43 40
19 42 39
19 43 40
19 43 40
19 43 40
19 43 40
19 43 40
19 43 40
19 43 40
20 44 40
19 43 40
19 42 39
19 43 40
19 44 40
20 44 41
19 43 40
20 44 41
20 44 40
19 43 40
20 44 40
20 44 41
19 43 39
19 43 40
20 44 41
19 43 40
20 44 41
20 44 40
19 43 40
19 43 39
20 44 40
19 43 39
19 43 40
20 44 40
19 43 40
20 44 40
20 44 41
20 44 40
20 44 41
20 44 40
19 43 40
20 44 41
20 44 40
20 44 41
20 45 41
20 45 42
20 44 41
20 44 41
19 43 40
19 43 39
19 44 40
20 44 41
20 45 41
20 45 41
20 45 41
20 44 41
20 45 41
20 46 42
20 45 41
20 44 41
19 43 40
20 44 41
20 46 42
20 45 41
20 44 40
20 45 41
19 43 40
20 45 41
20 45 41
20 45 42
20 44 40
20 45 41
20 45 41
20 44 41
20 44 40
20 45 41
20 45 41
20 45 41
20 45 41
20 45 41
20 44 41
20 45 41
20 45 41
20 45 42
20 45 41
20 44 41
20 45 41
20 45 41
21 46 42
20 45 42
21 46 42
20 45 42
21 46 42
20 45 41
20 45 41
20 45 41
21 47 43
20 45 41
20 44 41
20 45 41
20 45 41
20 44 41
21 46 42
20 45 41
20 44 41
21 46 42
20 45 41
21 46 42
21 46 42
20 44 40
21 46 42
19 43 40
19 43 40
18 42 39
19 43 40
19 44 40
19 43 40
19 43 40
19 43 40
19 43 40
19 42 39
19 43 40
19 42 39
20 45 41
20 44 41
19 42 39
19 43 40
19 42 39
19 43 39
20 44 40
20 44 40
20 44 40
19 42 39
19 43 40
19 43 40
19 43 40
20 44 40
19 43 40
19 43 40
19 43 40
19 43 40
19 43 40
20 44 40
20 44 41
20 44 41
20 44 40
19 43 39
20 44 41
20 44 41
20 44 40
20 45 42
20 44 41
20 45 41
20 44 40
20 44 41
20 44 41
20 44 40
20 44 41
20 44 40
20 44 40
20 44 40
20 45 41
20 44 41
20 44 41
20 44 40
20 44 41
20 45 42
20 45 41
20 44 40
20 44 41
20 44 41
20 45 41
20 45 42
20 45 41
20 44 40
20 45 41
20 45 41
20 45 41
20 45 41
20 45 41
20 44 40
21 46 42
20 44 41
20 45 41
21 46 42
20 44 41
20 45 41
21 46 42
20 44 41
20 45 41
21 46 42
20 45 41
20 45 41
21 47 43
20 45 42
20 45 41
21 46 42
20 45 41
20 45 42
20 45 41
20 45 41
21 46 42
21 46 42
21 46 42
20 45 41
20 45 41
21 46 42
20 45 41
21 46 42
20 45 41
21 46 42
21 46 42
20 45 42
21 46 43
21 46 42
21 46 42
21 46 42
21 45 42
20 45 41
21 46 42
21 45 42
21 46 42
21 46 42
20 45 41
21 46 42
21 46 43
20 44 40
21 46 42
21 46 42
20 45 42
21 46 42
19 43 40
19 42 39
20 44 41
19 43 39
19 43 40
19 43 40
20 44 41
19 43 40
20 44 40
19 43 40
19 43 40
19 44 41
20 44 40
19 43 40
20 44 41
19 43 40
19 43 40
19 44 40
19 43 40
19 43 40
20 44 41
19 44 40
19 43 40
20 44 40
20 44 40
20 44 41
20 44 41
19 42 39
20 44 41
20 44 41
19 43 40
20 45 41
20 44 40
19 43 40
20 45 41
20 45 41
20 44 41
20 44 41
20 44 40
20 44 40
20 44 41
20 44 41
20 44 41
20 45 42
20 45 41
20 44 41
20 44 41
20 44 40
20 44 41
20 44 41
20 44 41
20 44 40
21 46 42
20 45 42
20 45 42
21 46 42
20 45 41
20 45 41
20 45 41
20 45 41
20 44 40
20 45 42
20 44 41
20 45 41
21 46 42
21 46 42
21 46 42
21 46 42
20 45 41
20 45 41
20 45 41
20 45 42
20 44 41
21 46 42
21 46 42
20 45 42
20 45 42
21 47 43
21 45 42
21 47 43
20 45 41
20 45 42
20 44 40
21 46 42
21 45 42
21 46 42
20 45 41
21 46 42
20 45 41
20 45 41
21 46 42
21 46 42
21 47 43
21 46 42
20 45 42
21 46 42
21 46 42
21 46 42
21 47 43
20 45 41
21 46 42
21 47 43
21 45 42
21 47 43
21 46 42
21 47 43
20 45 42
21 47 43
21 47 43
21 46 42
20 45 41
21 46 42
21 47 43
21 46 42
21 46 42
21 47 43
20 45 41
21 46 42
21 47 43
21 46 42
19 42 39
19 43 40
19 43 40
20 44 41
20 45 41
20 44 40
19 43 39
20 44 41
19 43 40
19 43 40
19 42 39
20 44 40
19 43 40
19 43 40
19 43 40
20 44 40
20 44 41
19 42 39
19 43 40
19 43 40
21 46 42
20 44 40
20 44 41
20 44 41
20 45 41
20 44 40
20 45 41
20 45 41
19 44 40
20 45 41
20 44 40
20 44 40
20 44 40
20 44 41
20 44 40
20 44 40
20 45 41
20 44 41
20 44 41
20 44 40
20 44 41
21 46 43
20 44 40
20 44 40
20 45 42
20 44 40
20 45 42
20 44 40
20 45 41
20 45 42
21 46 42
21 46 42
21 46 42
20 45 41
20 45 41
20 45 41
21 46 42
20 45 41
20 45 41
21 47 43
20 45 42
20 45 42
20 44 41
20 45 41
21 46 42
20 45 41
20 45 42
21 47 43
20 44 41
21 46 42
21 46 42
21 46 42
20 45 41
21 46 42
21 47 43
20 45 41
21 46 42
21 46 42
21 46 42
21 46 42
21 46 42
20 45 41
21 46 42
21 45 42
21 45 41
21 46 42
21 46 42
20 45 41
21 47 43
21 45 42
21 47 43
21 46 42
21 46 42
21 46 42
21 46 42
21 46 42
22 48 43
21 47 43
21 46 42
27 48 43
21 46 42
20 45 41
20 45 41
21 47 43
21 46 42
21 47 42
22 48 44
21 47 43
21 47 43
21 46 42
21 46 42
21 46 42
21 46 42
21 46 42
21 47 43
21 47 42
21 47 43
21 47 43
21 46 42
20 45 41
20 44 41
19 43 40
19 43 40
20 44 41
19 44 40
19 43 40
20 44 40
19 43 40
20 44 40
19 43 40
20 44 41
19 43 40
19 43 40
20 45 42
20 45 41
19 42 39
20 44 41
20 44 41
20 45 41
20 44 41
19 43 40
20 44 40
20 44 41
20 44 40
20 44 41
20 44 40
20 45 41
20 44 41
20 44 40
20 44 41
20 45 42
20 44 41
20 44 41
20 44 41
20 44 41
20 44 41
20 44 40
20 45 41
20 45 42
20 45 41
21 46 42
20 44 40
20 45 42
20 45 41
20 45 41
20 45 41
20 45 41
20 44 41
20 44 41
20 45 41
20 45 42
20 45 42
20 45 42
21 46 42
20 45 41
20 45 41
20 45 42
20 45 41
20 44 41
21 46 42
20 45 41
21 46 42
21 47 43
21 45 42
21 46 42
21 46 42
21 46 42
21 46 42
21 47 43
21 46 42
20 45 41
20 45 41
21 46 42
21 46 42
21 46 42
21 46 42
21 47 43
21 47 43
21 46 42
21 46 42
21 47 43
21 47 43
21 46 42
21 45 42
22 47 43
22 48 44
21 47 43
21 46 42
21 46 42
21 46 42
21 46 42
21 46 42
21 47 43
21 47 43
21 46 42
22 48 44
21 46 42
101 53 45
190 77 61
224 144 127
193 146 130
70 67 61
21 46 42
21 46 42
21 46 42
21 46 42
21 47 42
21 47 43
21 47 43
21 47 43
22 48 43
21 47 42
21 47 43
21 46 42
21 47 42
21 47 43
22 47 43
21 47 43
21 47 43
22 48 43
19 43 40
20 44 40
20 44 41
19 43 40
19 43 40
20 44 40
19 43 40
20 44 40
20 44 40
20 44 41
19 43 40
20 44 41
20 44 41
20 45 41
20 44 41
20 45 41
20 44 40
19 43 40
20 44 41
20 44 41
20 44 41
20 44 41
19 43 40
20 44 41
20 45 42
20 45 41
20 44 40
20 45 42
20 44 41
20 44 41
20 45 41
20 44 41
21 46 43
20 44 41
20 45 41
20 45 41
20 45 41
20 44 41
20 45 41
20 45 41
21 46 42
20 45 42
20 45 41
20 44 40
20 45 41
20 45 41
21 47 43
20 45 41
20 45 41
20 45 41
21 47 43
21 46 42
21 47 43
20 45 41
21 46 42
20 45 41
21 46 43
21 46 43
21 46 42
21 46 42
20 45 41
20 45 41
21 46 42
20 45 41
21 46 42
20 45 41
21 47 43
20 45 41
21 47 43
21 46 42
21 46 42
21 46 42
21 46 42
21 46 42
22 48 44
22 48 44
21 46 42
21 46 42
21 46 42
21 47 43
21 47 43
21 47 43
21 46 42
21 47 43
21 47 43
21 46 42
21 46 42
21 47 43
22 48 43
21 45 41
21 47 43
21 47 43
21 47 43
22 48 44
21 46 42
22 48 44
69 50 44
199 66 48
227 170 153
248 221 199
255 226 203
211 184 165
39 55 50
21 46 42
21 47 43
22 48 44
21 47 42
22 48 44
22 47 43
22 47 43
21 46 42
22 48 43
22 48 43
21 47 43
21 46 42
21 47 43
22 47 43
22 48 44
21 47 42
22 47 43
20 44 40
19 43 40
20 44 40
20 44 41
19 43 40
20 44 40
20 44 41
20 44 41
20 44 41
19 43 40
20 44 41
20 44 41
20 44 41
20 44 41
19 43 40
20 44 41
19 43 40
20 45 42
20 45 42
20 44 40
20 45 41
20 45 41
20 46 42
19 43 40
21 46 42
20 45 41
20 45 41
20 45 41
20 44 41
20 45 41
20 44 40
20 45 41
20 45 42
20 45 41
20 45 41
20 45 41
21 46 42
21 46 42
20 45 41
20 45 42
20 45 41
20 45 41
20 45 41
20 45 42
20 45 42
20 46 42
20 45 41
20 45 41
21 46 42
20 45 41
20 45 41
20 45 41
21 46 42
21 46 42
21 46 42
20 44 40
21 46 42
21 47 43
21 46 42
21 46 42
21 47 43
21 46 42
20 45 41
21 47 43
21 47 43
27 47 46
76 71 79
167 147 144
173 155 145
109 102 95
21 47 43
21 46 42
21 46 42
21 47 43
21 47 43
21 46 42
21 47 43
21 47 42
21 47 43
21 46 42
22 48 43
22 48 43
21 46 42
21 46 42
22 48 43
21 46 42
22 48 44
21 47 43
22 48 44
22 47 43
22 48 44
22 48 44
22 48 44
21 47 43
22 47 43
21 47 43
103 47 38
172 80 66
200 177 160
215 190 170
226 198 177
215 189 168
85 84 75
22 48 43
22 49 45
21 47 43
22 49 44
22 48 44
22 48 43
22 47 43
21 47 43
22 48 43
22 49 45
22 47 43
22 48 43
21 47 43
22 47 43
22 48 44
22 48 44
22 48 44
20 44 41
20 45 41
19 43 40
20 44 41
20 44 40
20 44 40
19 43 39
20 45 41
20 44 41
20 44 41
20 45 41
20 44 40
20 44 41
20 44 41
20 45 42
20 44 40
20 44 40
20 44 41
20 45 41
20 44 41
20 45 41
20 44 41
20 45 41
20 44 41
20 44 41
20 45 41
20 45 41
20 44 41
21 46 42
20 44 40
21 46 42
20 45 41
20 44 40
20 45 41
21 46 42
20 45 42
20 45 41
20 45 41
20 44 41
21 46 42
20 44 41
21 46 42
21 47 43
21 46 42
20 45 41
21 46 42
21 46 42
21 47 43
21 46 42
21 46 42
21 46 42
20 45 41
21 46 42
21 46 42
21 46 42
21 46 42
21 45 41
21 47 43
21 47 43
21 47 42
20 45 41
21 47 43
21 46 42
22 48 43
21 46 42
62 53 73
181 162 156
224 201 184
245 219 198
245 217 195
113 105 95
21 47 43
21 45 41
21 47 43
21 47 43
21 47 43
21 47 43
22 48 43
21 47 43
21 47 42
21 46 42
21 47 42
21 47 43
21 46 42
22 48 43
22 48 44
22 48 44
21 47 42
21 46 42
21 46 42
22 47 43
22 48 44
21 47 43
22 49 44
22 48 43
22 48 44
80 43 37
116 58 48
140 125 112
173 152 135
173 152 133
171 150 132
65 69 61
22 49 44
22 47 43
22 48 43
22 47 43
22 47 43
22 49 44
22 47 43
22 48 43
22 49 44
22 49 44
22 48 44
22 49 44
22 48 44
21 46 42
22 48 43
22 48 43
22 48 43
20 44 41
19 42 39
20 44 40
19 43 40
20 44 41
20 45 41
19 43 40
20 44 40
20 45 41
20 44 40
20 45 41
19 43 40
20 43 40
20 44 41
20 45 41
20 45 42
21 46 42
20 44 41
20 45 41
20 45 41
20 44 40
20 45 41
20 45 41
20 44 41
20 45 41
20 45 41
21 46 42
20 45 41
20 45 42
20 45 41
20 45 41
20 45 41
20 45 41
20 44 41
21 46 42
20 45 42
20 45 41
20 45 42
20 45 41
20 45 42
21 46 42
21 45 42
21 47 43
21 46 42
21 47 43
21 47 43
20 45 42
21 46 42
21 46 42
20 45 41
21 46 42
21 46 42
21 47 43
21 46 42
21 47 42
21 47 43
21 47 43
21 47 42
21 46 43
21 45 41
21 46 42
21 46 42
20 45 42
21 46 42
28 46 46
92 76 90
181 164 153
205 183 167
230 204 183
236 207 185
179 158 142
21 47 43
22 48 43
21 46 42
21 47 43
22 48 43
21 47 42
22 47 43
22 48 44
21 47 43
21 47 43
22 48 44
22 47 43
22 48 44
22 49 45
22 48 44
22 48 44
21 47 43
22 48 44
22 48 43
22 48 43
21 47 43
22 49 44
21 47 43
22 47 43
21 47 42
44 44 39
55 24 18
67 62 53
80 74 62
100 86 72
88 81 69
26 50 45
22 48 43
22 47 43
22 48 44
21 47 43
22 48 44
22 48 43
22 49 44
22 48 44
22 48 44
22 49 44
22 48 43
23 49 45
22 49 44
22 48 44
22 49 45
22 48 44
22 49 44
20 44 41
20 44 40
19 43 40
20 45 41
20 45 41
20 44 41
20 45 41
20 45 41
20 44 40
20 45 41
20 44 40
20 44 41
20 45 41
20 45 41
21 47 43
20 45 41
20 44 41
21 46 42
20 45 41
21 46 42
20 44 41
20 45 41
20 45 41
20 44 41
20 43 40
21 46 42
20 45 41
21 46 43
20 45 42
20 44 41
20 45 41
20 45 41
21 46 42
21 45 42
20 45 41
20 45 41
20 45 41
20 45 42
20 45 42
21 47 43
21 46 42
20 45 41
21 46 42
21 46 42
21 47 43
21 47 43
20 45 41
21 46 42
21 47 43
21 47 43
21 46 42
22 48 44
21 47 43
21 46 42
21 47 43
21 46 42
21 46 42
21 47 43
21 47 43
21 47 43
21 47 43
21 47 43
21 47 43
21 46 42
29 44 45
61 49 64
136 124 115
159 142 128
180 159 142
192 167 147
167 146 130
21 46 42
21 47 42
21 47 43
21 47 42
21 47 43
22 49 44
21 47 43
22 48 44
22 48 44
21 47 43
22 48 44
22 47 43
22 48 43
22 49 44
21 46 42
21 47 43
22 47 43
22 48 43
22 47 43
21 46 42
22 49 44
22 49 45
21 47 42
20 45 41
17 37 34
14 32 30
18 25 23
128 62 38
213 135 108
235 176 153
210 171 152
123 98 85
21 46 42
22 47 43
22 47 43
22 47 43
22 47 43
22 48 44
22 48 44
22 49 44
22 48 44
22 49 44
22 48 43
23 50 45
22 49 44
22 49 45
22 49 44
22 48 44
23 50 45
20 44 41
20 44 40
20 44 40
20 44 40
20 44 41
20 45 42
20 45 41
20 44 41
21 47 43
20 45 41
20 44 41
20 46 42
20 45 41
20 44 41
20 45 42
20 45 41
21 46 42
21 46 43
20 45 41
20 45 41
20 44 41
20 45 42
21 46 42
20 45 41
20 45 41
20 45 41
21 46 42
21 46 42
21 46 43
21 46 42
20 45 42
21 46 42
21 46 42
21 46 42
21 46 42
20 45 41
21 46 42
21 46 42
21 46 42
21 48 43
21 47 43
21 46 42
21 47 43
21 46 42
20 45 41
21 47 43
21 47 43
20 45 41
21 47 43
21 47 43
21 46 42
21 47 43
21 47 43
21 46 42
21 46 42
21 46 42
21 47 42
22 48 44
21 47 43
21 46 42
21 46 42
21 47 43
21 46 42
21 46 42
23 45 43
43 35 45
70 66 61
89 83 74
118 105 91
138 120 102
97 89 79
21 47 42
21 46 42
21 47 42
22 48 43
22 48 44
22 48 44
22 48 44
22 49 44
22 48 44
22 49 44
22 48 44
22 48 44
22 47 43
22 49 44
22 48 43
22 47 43
21 47 42
22 48 44
22 48 44
22 49 44
21 47 43
22 48 44
22 47 43
22 47 43
22 47 42
22 47 43
100 61 45
209 131 104
215 192 177
230 206 189
254 228 205
237 207 186
117 97 84
22 49 44
22 48 43
23 50 45
22 49 44
22 47 42
22 48 43
22 49 44
23 50 45
22 49 44
22 49 45
22 49 45
22 49 44
23 49 45
23 49 45
22 48 43
22 48 44
20 45 41
20 45 42
20 44 40
20 44 41
20 44 41
20 45 41
20 44 41
20 45 41
20 44 40
20 45 41
20 44 41
20 45 42
21 46 42
20 44 41
20 44 41
20 45 41
20 45 41
20 45 42
20 44 41
21 46 42
20 45 41
20 44 41
20 45 42
21 47 43
20 45 42
20 45 41
21 46 42
21 46 42
20 45 41
20 45 41
20 45 42
20 45 42
21 46 42
21 46 42
21 46 42
20 44 40
21 46 43
21 46 42
21 45 42
21 47 43
21 46 42
21 47 43
21 45 42
20 45 41
21 46 42
21 47 43
21 46 42
20 45 41
21 46 42
21 47 43
21 46 42
21 46 42
21 46 42
21 45 41
21 47 43
21 47 43
21 46 42
21 47 42
21 47 42
21 47 43
22 48 44
20 44 40
18 41 38
18 40 37
18 41 38
16 29 29
17 18 19
28 28 24
40 39 32
46 45 39
25 46 43
21 47 42
21 47 42
22 48 44
21 46 42
21 47 42
22 47 43
21 47 43
22 48 44
22 48 44
21 47 43
22 49 44
22 48 44
22 48 44
22 47 43
22 48 43
22 49 45
23 49 45
22 48 44
28 50 45
37 55 50
22 49 44
22 48 44
22 49 44
22 48 44
23 50 45
23 49 45
132 70 45
174 136 120
192 173 159
205 183 167
217 193 175
216 190 171
169 146 130
23 49 45
22 49 44
23 49 44
23 50 45
23 50 45
22 48 44
22 47 43
23 49 45
23 49 45
24 51 46
22 49 44
23 50 45
22 49 44
22 48 44
23 49 45
22 49 44
20 45 41
20 45 42
20 44 41
20 45 41
20 45 41
20 45 41
20 45 41
20 45 41
19 43 40
19 43 40
20 45 41
20 45 41
20 45 41
20 44 41
20 44 40
20 45 42
20 46 42
20 44 41
20 45 41
20 45 41
21 46 42
21 46 42
20 45 42
21 46 42
21 46 42
21 46 42
20 45 42
21 46 42
21 46 42
21 46 42
20 45 41
21 46 42
21 46 42
21 46 42
21 46 42
21 46 42
21 46 42
20 46 42
21 47 43
21 45 42
21 47 43
20 45 41
21 47 42
21 47 43
22 48 44
21 46 42
21 47 42
21 47 43
21 46 42
22 48 43
21 46 42
21 47 43
21 47 43
21 46 42
21 46 42
22 48 43
21 46 42
21 46 42
21 46 42
21 47 43
21 46 42
20 45 41
19 43 40
18 40 37
17 39 36
15 34 31
14 32 29
13 29 26
14 28 25
19 42 37
21 44 40
21 45 40
22 48 43
22 47 43
21 47 43
22 47 43
21 47 42
22 47 43
22 48 43
21 47 43
22 49 44
22 48 44
22 48 44
22 48 43
21 47 42
22 48 43
22 49 44
23 48 44
117 112 103
198 179 165
224 201 184
206 185 169
44 56 53
22 49 44
23 49 44
22 48 44
26 50 45
114 59 38
130 106 95
146 132 121
153 138 125
171 153 138
178 158 141
157 138 123
22 49 44
23 50 46
23 49 45
22 48 44
22 49 44
22 49 44
23 51 46
23 50 45
22 48 44
23 50 45
22 49 44
23 49 45
23 49 45
22 48 44
23 50 45
23 49 44
20 44 40
21 46 42
19 43 40
20 44 41
20 46 42
20 45 41
20 44 40
20 44 41
20 44 41
20 45 41
20 45 42
20 44 40
20 44 41
21 46 42
20 45 41
20 45 42
20 44 40
20 44 40
20 45 41
20 44 40
20 44 41
20 45 41
20 45 41
20 45 41
21 46 42
21 46 42
20 45 42
20 45 41
21 46 42
21 46 42
21 47 43
21 46 42
20 45 41
21 46 42
21 46 42
21 46 42
21 46 42
21 47 43
21 46 42
21 46 42
21 46 42
21 47 43
20 45 42
21 46 42
21 47 43
21 46 42
21 45 41
21 46 42
21 47 43
21 46 42
21 46 42
21 47 43
21 47 42
22 48 44
21 46 42
21 47 43
21 47 42
21 47 42
21 46 42
22 48 43
21 47 43
21 47 43
21 46 42
22 47 43
21 46 42
21 46 42
21 46 42
21 46 41
22 49 44
21 46 42
22 47 43
22 48 44
21 47 43
22 48 43
22 47 43
22 48 43
22 48 44
22 49 44
22 49 44
22 48 44
22 47 43
21 47 43
22 48 43
22 48 44
22 48 44
22 48 44
22 49 44
91 92 86
189 173 161
205 186 174
218 196 181
252 227 205
132 120 109
29 46 44
22 48 44
22 48 44
22 49 44
82 49 35
97 69 58
93 87 79
106 98 89
114 104 94
116 104 92
92 83 73
22 49 44
22 49 44
23 50 45
23 50 45
23 49 45
23 50 45
23 50 45
23 50 45
23 50 45
23 49 45
23 50 45
23 50 45
22 49 44
23 50 45
24 52 47
22 49 44
19 43 39
20 44 41
20 44 41
20 45 41
20 44 40
20 45 42
20 45 41
20 44 40
21 46 42
20 45 41
20 45 41
20 45 42
20 45 42
20 45 41
21 47 43
21 46 42
21 46 42
21 46 42
21 46 42
21 46 42
20 45 42
21 46 42
20 45 41
20 45 41
21 46 42
20 45 41
21 47 43
21 46 42
21 46 42
21 47 43
21 47 43
20 45 41
20 45 41
20 45 41
21 46 42
21 46 42
21 46 42
21 46 42
21 47 43
21 47 43
21 47 43
21 46 42
21 46 42
21 46 42
21 46 42
21 46 42
21 47 43
21 47 43
21 46 42
21 47 43
21 46 42
21 46 42
21 46 42
21 47 43
21 46 42
22 48 43
21 47 43
21 47 43
21 47 43
22 48 43
22 48 43
21 47 43
22 48 43
22 47 43
21 47 43
22 48 43
21 46 42
22 48 44
22 49 45
21 46 42
22 48 44
21 47 43
22 47 43
22 48 44
22 47 43
22 49 44
22 47 43
22 48 44
22 49 45
22 49 44
22 48 44
22 48 44
22 48 43
22 49 44
22 48 44
22 49 44
28 50 46
135 127 119
162 150 141
180 164 154
197 178 164
211 189 173
98 89 83
68 64 60
22 47 42
21 46 42
21 46 42
24 41 37
41 27 18
30 30 21
48 48 39
57 54 44
64 59 50
29 50 45
22 49 44
22 49 44
23 50 45
23 49 44
22 48 43
23 50 45
23 49 45
23 50 45
22 49 44
23 50 45
23 50 45
23 50 45
23 50 45
23 50 45
23 50 45
23 50 45
20 44 40
20 45 41
20 44 40
20 46 42
20 44 40
20 46 42
20 45 41
20 44 40
20 44 41
21 46 42
20 45 41
20 44 40
21 46 42
20 45 41
21 46 42
20 45 41
21 46 42
20 45 41
21 46 42
20 44 41
20 44 41
20 45 41
20 46 42
21 46 42
21 46 42
21 46 42
20 45 41
20 45 41
21 46 42
21 46 42
21 46 42
21 46 42
20 45 41
20 45 41
21 47 43
21 46 42
21 45 41
21 47 43
20 45 41
21 47 43
21 45 41
21 47 43
21 47 42
21 46 42
21 47 43
21 47 43
21 46 42
21 46 42
22 47 43
21 47 43
21 47 42
21 47 43
21 47 43
21 47 43
21 46 42
21 46 42
21 46 42
21 47 43
22 48 44
21 46 42
21 47 43
22 48 44
22 48 43
22 48 43
21 47 42
21 47 43
21 47 43
22 49 44
22 48 43
22 49 44
22 47 43
22 48 44
22 48 44
22 48 44
22 48 44
22 48 44
22 48 44
21 47 43
22 48 44
22 48 44
22 49 44
22 49 44
22 48 44
22 47 43
23 49 45
22 48 43
30 51 46
127 118 110
138 127 119
146 135 126
160 145 134
135 122 112
140 124 112
142 126 112
23 46 42
19 42 38
15 33 31
14 31 29
11 24 22
9 16 13
15 16 13
20 21 17
21 39 35
21 45 40
22 48 43
22 48 43
22 48 43
23 50 45
23 49 45
22 49 44
22 49 44
22 48 43
22 49 44
22 49 44
23 49 45
22 49 44
23 50 45
23 49 44
23 51 46
23 49 45
20 45 41
20 44 41
21 46 42
20 44 41
20 44 40
20 45 41
20 45 42
20 45 42
20 44 41
20 45 41
20 45 41
20 45 41
20 45 41
20 45 41
21 46 42
21 47 43
20 45 41
21 46 42
21 46 42
20 45 41
20 45 41
21 46 42
21 46 43
20 45 41
20 45 42
20 45 41
20 45 41
21 46 42
21 46 42
21 47 43
21 46 42
21 46 42
21 47 43
20 45 41
21 46 42
21 46 42
21 47 43
21 46 42
20 45 41
21 47 43
21 46 42
21 47 43
21 46 42
20 45 41
22 48 43
21 47 43
21 47 43
21 47 43
21 47 43
21 47 43
21 47 43
22 47 43
21 47 43
22 48 43
22 48 44
22 48 44
22 48 44
21 47 43
21 47 42
22 48 43
22 48 44
21 47 43
22 48 43
21 47 43
22 48 44
22 48 43
22 48 44
21 47 43
22 48 44
22 48 43
21 47 42
22 48 43
22 48 43
22 48 43
22 48 44
23 49 45
22 49 44
22 48 44
22 48 44
22 48 43
22 49 44
22 48 44
22 49 44
22 49 44
22 47 43
22 48 44
22 49 44
90 86 79
109 101 92
107 99 91
95 87 81
38 36 36
115 104 94
102 92 81
22 48 43
22 49 44
23 49 45
21 47 42
21 45 40
21 46 41
21 46 41
21 46 41
23 49 44
22 48 44
23 49 44
22 49 44
23 49 44
23 50 45
22 49 44
23 49 45
23 51 46
23 50 45
23 49 44
23 50 45
23 49 45
23 50 45
23 51 46
23 49 45
23 50 45
23 50 45
20 45 41
20 45 41
20 44 40
20 45 41
21 46 43
20 45 42
20 44 40
20 45 42
20 45 42
21 46 42
20 45 41
20 44 40
20 45 42
21 46 42
21 46 42
20 44 41
20 45 41
20 44 40
20 45 41
21 46 42
21 46 42
20 44 41
20 45 42
21 46 42
21 46 42
21 46 42
21 46 42
21 46 42
21 47 43
21 46 42
21 46 42
21 46 42
21 47 43
21 46 42
21 46 42
21 46 42
21 46 42
21 46 42
21 46 42
21 46 42
21 46 42
21 47 42
21 46 42
21 47 43
21 47 43
22 48 43
21 47 43
22 48 43
22 48 44
21 46 42
21 46 42
22 48 43
21 47 43
21 46 42
21 47 43
21 47 43
22 48 44
21 47 43
22 48 43
21 47 43
22 48 44
21 47 43
22 47 43
22 48 44
21 47 43
21 46 42
21 47 43
22 48 44
22 48 43
21 47 43
22 48 44
22 48 44
22 49 44
22 48 44
22 48 43
22 48 44
22 48 44
22 49 45
22 48 44
22 49 44
22 48 43
22 48 43
22 49 44
22 49 44
22 48 43
22 49 44
22 48 44
18 38 35
35 34 31
35 33 31
10 12 12
11 13 14
35 32 28
38 49 43
22 49 44
22 49 44
23 50 45
22 48 44
22 49 44
22 48 43
22 49 44
22 48 44
22 49 44
23 50 45
22 49 44
23 49 45
22 48 44
23 49 44
23 50 45
23 51 46
22 49 44
23 50 45
23 50 46
23 51 46
23 50 45
22 49 44
23 50 45
22 48 43
22 49 44
23 50 45
20 44 40
20 44 41
20 45 41
20 45 41
20 44 40
20 45 41
20 45 41
20 45 41
21 46 42
20 44 41
20 45 41
20 44 41
21 45 42
20 45 41
21 46 42
21 46 42
21 47 43
21 47 43
21 46 42
20 45 41
21 46 42
21 47 43
21 47 43
20 44 41
20 45 41
21 46 42
20 45 41
21 46 42
20 45 41
20 45 41
20 45 41
20 45 42
21 45 41
21 45 42
21 46 42
20 45 41
21 47 43
21 47 43
21 47 43
21 45 41
21 47 43
21 46 42
21 46 42
21 47 43
22 48 43
21 46 42
21 47 43
22 47 43
21 47 43
21 46 42
21 47 42
21 47 42
21 47 43
21 47 43
21 47 43
22 48 44
22 48 44
21 47 42
21 47 43
21 47 42
21 47 43
21 47 43
21 47 43
22 49 44
22 48 43
21 47 42
21 47 42
22 48 43
22 48 43
22 48 44
22 48 44
22 48 44
22 48 44
22 48 43
21 47 43
22 48 43
22 48 44
22 48 44
22 49 44
23 49 45
22 48 44
22 48 44
22 48 43
21 46 42
19 42 38
17 39 36
15 33 31
14 32 30
9 20 19
2 4 4
3 5 4
6 10 8
22 32 27
21 45 40
22 48 43
22 48 43
22 48 43
22 49 44
22 49 44
22 49 44
23 51 46
23 51 46
22 49 44
23 50 45
23 49 45
23 49 44
23 50 45
22 48 44
22 49 44
23 51 46
22 48 44
22 49 44
23 50 45
22 49 44
23 51 46
23 51 46
23 50 45
23 49 44
23 50 45
23 50 45
21 46 42
20 45 41
21 46 42
21 46 42
20 44 41
20 45 41
20 45 41
20 45 41
20 44 40
21 46 42
21 47 43
20 44 41
20 45 41
21 46 42
20 45 41
20 45 41
20 45 41
21 46 42
21 46 42
21 47 43
20 45 41
20 45 41
21 46 42
21 46 42
21 46 42
21 47 43
21 46 42
21 46 42
21 45 41
21 46 42
21 46 42
21 46 43
21 47 43
21 46 42
21 46 42
22 47 43
21 46 42
21 46 42
21 47 43
21 46 42
21 47 43
21 46 42
21 46 42
21 46 42
21 46 42
21 46 42
21 46 42
22 48 43
21 47 42
21 46 42
21 45 41
22 48 43
21 47 43
22 48 44
22 47 43
22 48 44
21 46 42
21 47 43
21 47 43
22 48 44
21 47 43
21 47 43
21 47 43
22 48 44
22 47 43
22 47 43
21 47 43
22 48 44
22 48 44
22 48 44
22 48 43
22 48 43
22 48 44
22 48 43
22 49 44
22 48 43
21 47 43
22 48 44
21 47 43
22 48 43
22 48 43
22 48 43
21 47 42
21 46 42
21 46 42
18 41 37
16 37 34
16 36 33
15 34 31
14 31 28
14 32 29
15 33 30
19 41 36
21 46 41
21 46 41
21 47 42
22 48 44
22 48 44
22 48 44
22 49 44
22 49 44
22 49 44
22 49 44
23 50 45
23 49 45
23 49 44
23 50 45
23 49 44
23 50 45
23 50 45
23 50 45
22 48 43
23 50 45
23 50 45
23 50 45
23 50 45
23 51 46
23 50 45
23 50 45
23 50 45
20 44 41
20 45 41
21 46 42
21 46 42
20 44 40
20 44 40
20 45 41
21 46 42
21 46 42
21 47 43
21 46 42
21 46 42
20 45 42
20 45 42
21 46 42
21 47 43
21 46 42
21 47 43
21 47 43
20 45 42
20 45 41
21 46 42
21 47 43
20 45 41
20 45 41
21 46 42
21 46 42
21 46 42
21 47 43
21 46 42
21 46 42
21 46 42
21 47 43
21 46 42
21 46 42
21 47 43
21 46 42
20 45 41
21 47 43
21 47 43
21 46 42
21 46 42
21 46 42
21 47 43
21 46 42
21 47 43
22 48 43
22 48 44
22 48 44
21 47 43
21 47 43
21 47 43
22 48 43
22 48 43
21 46 42
22 48 44
22 49 44
22 47 43
21 47 43
21 47 43
22 48 44
22 49 44
22 48 44
22 48 44
22 48 44
22 48 44
22 48 44
22 48 43
22 48 44
21 47 43
22 48 44
22 48 44
22 48 44
22 48 44
22 49 45
22 48 44
22 47 43
22 48 44
22 48 43
23 50 45
23 49 45
23 49 45
22 48 43
22 47 43
22 48 43
22 49 45
22 49 44
22 47 43
22 47 43
22 48 43
22 48 43
22 47 42
22 47 42
22 48 43
22 47 42
22 49 44
22 48 43
22 49 44
22 48 44
22 48 44
23 50 45
22 48 44
22 48 44
23 50 45
22 47 43
23 51 46
23 51 46
23 50 45
23 50 45
22 49 44
23 49 44
23 50 45
22 49 44
23 49 45
23 49 45
22 49 44
22 49 44
23 50 45
23 49 44
23 50 45
21 46 43
21 46 42
20 45 41
20 45 41
20 44 40
20 45 41
20 44 40
20 45 41
20 45 42
21 46 42
20 45 41
21 46 42
21 46 42
21 46 42
21 46 42
20 45 41
21 47 43
21 46 42
21 46 42
21 46 42
21 46 42
21 47 43
21 47 43
20 45 41
21 46 42
21 47 43
21 46 42
21 46 42
21 46 42
21 46 42
21 46 42
21 47 43
21 45 41
21 47 43
21 46 42
21 46 42
21 46 42
21 47 43
21 46 42
21 46 42
21 46 42
21 47 43
20 45 41
21 46 42
21 47 43
22 48 44
21 47 43
21 46 42
22 48 44
21 47 43
21 47 43
22 48 44
21 46 42
21 46 42
21 47 43
21 47 43
22 48 43
22 48 44
22 48 44
22 49 44
21 47 43
22 48 43
22 48 43
21 47 43
22 47 43
22 48 44
21 47 43
22 48 43
21 47 43
21 47 43
22 48 44
22 49 44
22 48 44
22 48 44
22 48 43
22 48 44
22 48 44
23 50 45
22 48 43
22 49 44
22 48 43
22 48 43
22 48 43
22 49 44
23 50 45
22 48 43
22 48 43
22 48 43
22 49 44
22 49 44
22 48 44
22 48 43
22 49 44
23 50 45
22 49 44
22 48 44
22 49 44
22 48 43
22 49 44
23 50 45
23 50 45
23 50 45
23 50 45
22 49 44
23 49 44
22 49 44
23 50 45
23 50 45
23 50 45
23 51 46
23 50 45
23 50 45
23 49 44
22 49 44
23 51 46
23 50 45
23 50 45
22 48 43
22 49 44
23 51 46
21 46 42
20 45 41
20 45 41
20 44 40
20 45 41
20 45 41
20 45 41
20 45 41
21 45 42
21 47 43
21 47 43
20 45 41
21 46 42
21 46 42
20 45 41
20 45 42
21 46 42
21 46 42
21 46 42
20 44 41
21 47 43
21 47 43
21 46 42
21 46 42
20 45 41
21 46 42
21 46 42
21 46 42
21 47 43
21 46 42
21 46 42
21 46 42
21 47 43
21 47 43
21 46 42
21 47 43
22 48 43
21 47 43
21 46 42
20 45 41
21 46 42
21 47 43
21 47 43
22 48 43
21 47 43
22 48 44
21 47 42
22 48 43
22 48 43
21 47 43
21 47 42
21 46 42
22 48 43
22 48 44
22 48 44
21 47 43
22 48 44
22 48 44
22 48 44
21 46 42
21 46 42
21 47 43
22 47 43
22 48 44
21 47 42
21 47 43
22 48 44
21 47 43
22 48 44
22 47 43
22 48 44
22 47 43
22 49 44
21 46 42
22 48 44
22 48 44
22 48 43
22 48 44
22 48 44
22 48 44
22 47 43
22 48 43
22 49 44
22 49 44
22 49 44
22 48 44
22 49 45
22 48 43
22 48 44
22 48 44
22 49 44
23 49 45
23 50 45
22 48 44
23 50 45
22 49 44
22 49 44
22 49 45
22 49 44
22 49 44
23 50 45
22 48 44
22 49 44
22 49 44
23 50 45
23 50 45
22 49 44
22 49 45
23 50 45
23 51 46
23 50 46
23 50 45
23 51 46
22 49 44
22 49 44
23 49 45
23 50 45
23 49 45
22 49 44
23 50 46
20 44 40
20 45 41
20 44 41
21 46 42
21 46 42
20 45 41
20 45 41
20 45 41
20 45 41
20 45 41
21 47 43
21 46 42
20 44 41
21 45 42
21 45 42
20 45 41
20 44 41
21 46 42
21 47 43
20 45 41
21 47 43
20 45 41
21 46 42
21 46 42
21 46 42
21 46 42
20 45 41
20 45 41
21 46 42
21 47 43
21 46 42
21 46 42
20 45 41
21 47 43
21 47 43
21 46 42
21 47 43
21 46 42
22 48 43
21 46 42
21 46 42
21 47 43
21 47 43
21 47 42
21 46 42
21 47 43
21 46 42
21 47 43
21 47 43
21 47 43
21 47 43
22 48 44
21 47 43
21 47 43
21 47 43
22 48 44
21 47 43
22 48 44
22 48 44
22 48 44
22 48 44
21 47 43
22 48 43
21 47 42
22 48 43
22 48 44
22 48 44
22 48 43
21 47 42
22 48 44
22 48 43
21 47 43
22 48 44
22 48 43
22 49 45
22 49 45
22 49 44
22 48 43
22 49 44
22 48 43
22 49 44
21 47 43
22 48 44
22 48 43
22 48 43
23 50 45
22 48 44
22 48 44
22 49 45
22 48 44
22 48 44
22 49 44
22 48 44
22 48 43
22 49 44
22 48 44
22 49 44
23 50 45
23 50 45
23 49 45
22 49 44
23 50 45
22 48 44
23 50 45
22 49 44
23 50 45
23 50 45
23 49 45
23 50 45
23 50 45
23 50 45
22 48 44
22 49 44
23 50 45
22 49 44
23 50 45
23 49 44
23 50 45
23 50 45
23 49 45
20 45 41
20 44 41
20 44 41
20 45 41
20 45 41
20 45 41
20 44 41
21 46 42
21 46 42
21 46 42
21 46 42
20 44 40
20 45 42
20 45 42
20 45 41
21 46 42
21 46 42
20 45 41
21 47 43
21 46 42
21 46 42
21 46 42
21 46 42
21 46 42
21 46 42
21 46 42
21 46 42
21 46 42
21 46 42
21 46 42
21 46 42
21 46 42
21 46 42
21 46 42
21 47 43
21 46 42
21 47 43
21 46 42
22 48 44
21 46 42
22 48 43
21 47 43
21 47 43
21 46 42
21 47 43
21 46 42
21 46 42
21 47 43
21 47 43
21 47 43
21 47 43
21 46 42
21 47 43
21 46 42
21 47 43
21 47 43
22 47 43
21 47 43
21 47 43
21 47 43
22 48 43
22 48 43
22 48 43
22 48 44
22 47 43
22 49 44
21 46 42
22 48 44
22 48 43
22 48 44
22 48 44
21 47 43
22 49 44
22 48 43
22 49 44
22 48 43
22 49 44
21 47 43
22 48 43
22 48 44
22 49 44
22 48 44
22 49 45
22 48 44
22 48 44
22 49 44
22 49 44
22 48 44
23 50 45
22 49 45
22 48 44
22 49 44
22 49 45
22 49 45
23 50 45
22 48 43
23 49 45
23 49 45
22 49 44
22 49 44
23 49 44
23 50 45
22 49 44
22 49 44
22 49 45
22 48 44
22 49 44
23 50 45
22 48 44
22 49 44
22 49 45
23 50 45
22 49 44
22 49 44
23 50 45
23 50 45
23 51 46
23 50 45
22 49 44
22 49 44
20 45 42
20 44 40
20 45 41
20 45 41
21 46 42
20 45 41
20 45 41
21 46 42
21 46 42
20 45 41
20 45 41
20 45 41
21 46 42
20 45 41
21 46 43
21 46 42
21 47 43
21 46 42
20 45 41
21 46 42
21 46 42
20 45 41
21 46 42
21 47 43
21 47 43
21 45 42
21 47 43
21 46 42
20 44 41
22 48 43
21 46 42
21 46 42
20 45 41
21 46 42
21 46 42
21 47 43
21 46 42
22 48 44
22 48 44
21 47 43
21 47 43
21 47 43
21 46 42
21 46 42
21 47 43
21 46 42
22 47 43
21 46 42
21 46 42
21 47 43
21 46 42
22 48 43
21 47 42
21 47 43
22 47 43
21 46 42
21 47 43
22 48 44
21 47 43
21 46 42
21 47 43
21 47 43
22 48 44
22 48 44
21 47 43
22 48 43
22 48 44
21 47 43
21 47 43
22 48 43
22 48 44
22 48 44
21 47 43
22 48 44
22 49 44
22 48 43
22 48 43
21 47 43
22 48 44
21 47 43
22 48 43
22 49 44
22 49 44
22 49 44
22 49 44
22 48 44
22 48 44
22 48 43
22 47 43
23 50 45
21 47 43
22 48 43
22 48 44
23 50 45
22 48 44
22 49 45
22 48 44
22 49 45
22 49 44
22 48 44
23 49 45
23 50 45
23 50 45
23 50 45
22 49 44
22 49 45
22 48 43
22 49 44
23 49 45
22 49 44
22 49 45
23 50 45
22 49 44
23 50 45
23 50 45
23 49 45
23 49 45
23 51 46
22 49 44
23 50 45
19 43 40
20 45 41
20 44 41
20 45 41
20 44 41
21 46 43
21 46 43
20 44 40
20 45 41
20 46 42
20 45 41
20 45 41
20 45 41
20 45 41
21 46 42
20 45 41
21 47 43
21 46 42
21 46 42
21 46 42
20 45 42
21 47 43
21 46 42
20 45 41
21 46 42
20 45 41
21 46 42
20 45 41
20 45 41
20 45 41
21 47 43
20 45 41
21 46 43
21 48 43
22 48 44
20 45 41
21 46 42
21 47 43
21 46 42
21 46 42
21 46 42
21 47 43
21 46 42
21 47 42
21 47 43
22 48 44
21 46 42
21 47 43
21 46 42
21 46 42
22 48 43
22 48 44
21 46 42
22 48 43
21 47 43
22 47 43
22 49 44
22 48 44
22 48 44
21 47 43
21 47 43
21 46 42
22 48 44
21 47 43
21 47 42
22 47 43
22 48 44
21 47 43
22 48 44
21 47 43
22 47 43
21 46 42
21 47 43
22 48 44
22 49 44
22 49 44
21 47 43
22 48 44
22 48 43
22 48 44
22 48 43
21 47 43
22 48 44
22 49 44
22 48 44
22 49 44
22 49 44
22 49 44
22 48 43
22 48 44
22 48 44
22 48 44
23 50 45
22 48 44
22 49 44
22 48 43
22 48 43
23 49 45
22 49 44
22 49 44
22 49 44
22 49 44
22 49 44
22 49 44
22 49 44
22 48 43
22 49 44
22 48 44
22 48 44
22 48 44
23 50 45
23 50 46
23 50 46
22 49 44
22 49 44
23 50 46
23 49 45
23 50 45
23 50 45
23 49 45
20 44 40
21 46 42
21 47 43
21 46 42
21 46 42
20 45 41
20 45 42
20 44 41
20 45 41
21 46 42
21 46 42
20 45 41
20 45 41
20 45 41
20 45 41
21 47 43
21 46 42
21 46 42
21 46 42
21 46 42
21 46 42
21 46 42
20 45 41
21 47 43
21 46 42
20 45 41
21 46 42
21 46 42
21 46 42
21 46 42
21 46 42
21 46 42
20 45 41
21 47 43
21 46 42
21 47 43
21 46 42
21 47 43
21 47 43
21 45 41
21 46 42
21 46 42
21 47 43
21 46 42
21 46 42
21 46 42
21 45 41
21 46 42
22 47 43
21 46 42
22 48 43
21 47 43
22 47 43
22 48 44
22 48 44
21 47 43
22 48 43
21 46 42
21 47 43
21 46 42
21 47 42
21 47 42
21 47 43
22 48 44
22 47 43
21 47 43
22 48 43
22 47 43
21 47 43
21 47 43
21 47 43
22 48 44
22 49 44
22 48 44
22 47 43
22 48 43
22 48 44
21 47 42
22 48 44
22 48 44
22 49 44
22 49 45
22 48 44
21 47 43
21 47 43
21 47 43
22 48 43
22 49 45
21 47 43
22 48 43
22 49 44
22 48 43
22 49 45
21 47 43
22 47 43
22 49 44
22 49 44
22 48 44
22 49 44
22 48 43
22 47 43
22 49 44
22 48 43
22 49 44
23 50 45
22 49 44
23 50 45
22 48 44
22 49 44
22 49 44
22 48 44
23 49 45
22 48 44
22 49 44
22 49 44
22 48 44
22 49 44
23 50 46
23 49 45
22 49 44
20 44 40
20 45 41
20 44 40
20 44 41
20 45 41
21 46 42
21 46 43
20 45 41
20 45 41
21 46 42
20 45 41
20 45 41
21 46 42
21 46 42
20 45 41
21 46 42
20 45 41
20 45 41
20 45 41
21 47 43
21 46 42
21 47 43
21 46 42
21 47 43
21 46 42
20 45 41
21 46 42
21 46 42
21 46 42
22 48 43
21 46 42
21 47 43
21 46 42
21 46 42
21 46 42
20 45 41
21 47 43
21 47 43
21 46 42
21 45 41
21 47 43
21 47 43
21 47 42
21 47 43
21 46 42
21 46 42
21 47 43
21 47 43
21 46 42
21 46 42
21 47 43
21 46 42
22 49 45
21 47 43
21 46 42
21 46 42
21 46 42
21 47 43
21 47 43
21 46 42
21 46 42
22 48 44
22 48 44
22 48 43
22 47 43
22 47 43
22 48 44
22 48 44
21 47 43
22 47 43
21 47 43
22 47 43
21 47 43
22 48 44
22 48 43
21 46 42
21 47 43
21 47 42
22 49 45
21 47 43
22 48 44
22 48 43
21 47 43
21 47 43
21 47 43
22 47 43
22 48 43
22 49 44
23 50 45
22 49 44
22 48 43
22 48 44
22 48 44
22 49 45
22 49 44
21 47 43
22 48 44
22 48 44
22 49 44
22 48 43
22 48 43
22 48 44
22 49 44
22 49 44
23 50 45
23 49 45
22 49 45
22 49 44
23 49 45
23 50 45
22 49 44
22 48 44
22 49 44
23 49 45
22 49 44
22 49 44
22 48 44
22 49 44
23 50 45
22 48 44
20 45 41
20 45 41
20 45 41
20 44 40
20 44 40
20 45 41
20 45 41
20 44 40
20 44 41
20 44 41
20 45 41
20 45 41
21 46 42
20 44 41
21 47 43
20 45 41
21 46 42
20 45 41
21 46 42
20 45 41
21 46 42
21 46 42
20 45 42
21 47 43
21 46 42
21 46 42
21 47 43
21 46 42
20 45 41
21 47 43
21 46 42
21 46 42
21 45 42
21 46 42
21 46 42
21 46 42
21 47 43
21 46 42
21 45 41
21 45 41
21 46 42
21 47 43
21 47 43
22 48 44
21 47 43
21 46 42
21 46 42
21 46 42
22 48 43
21 47 43
21 47 42
21 46 42
21 47 43
21 46 42
21 47 43
21 47 43
22 48 43
22 48 44
21 47 43
21 47 42
21 46 42
21 46 42
22 48 44
21 47 43
22 49 44
22 47 43
21 47 43
22 48 43
21 46 42
22 48 44
22 48 43
21 47 43
21 47 43
21 47 43
21 47 43
22 48 43
22 48 43
21 47 43
22 48 44
21 47 43
22 48 43
22 48 44
22 48 44
22 48 43
22 48 44
22 48 43
22 49 44
22 47 43
22 48 44
22 49 44
22 48 44
22 49 45
22 49 45
22 48 44
22 48 44
22 48 44
22 49 44
22 49 45
22 47 43
22 49 44
22 47 43
21 47 43
22 49 45
22 48 44
22 48 44
21 47 43
22 49 44
22 49 44
22 49 44
22 49 45
22 49 44
23 50 45
22 49 45
22 49 44
22 49 44
22 49 44
23 50 45
22 49 44
22 48 44
22 49 44
20 45 41
20 44 41
20 44 40
20 45 41
20 45 41
20 44 41
20 45 41
20 45 42
21 47 43
20 45 42
20 45 42
21 45 42
21 46 42
20 45 42
21 47 43
20 45 41
21 46 42
20 45 41
21 47 43
21 46 42
21 46 42
20 45 41
22 48 44
21 46 42
21 46 42
21 47 43
20 45 41
21 46 42
20 45 41
21 46 43
20 44 41
20 44 41
21 46 42
20 44 40
21 47 43
21 47 43
21 47 43
21 46 42
21 47 43
21 46 42
21 47 43
21 46 42
21 47 43
21 46 42
21 46 42
21 46 42
22 48 43
21 47 43
21 47 42
21 47 43
21 47 43
21 46 42
21 47 43
21 46 42
21 47 43
21 47 43
21 46 42
21 45 41
22 48 43
21 47 43
21 46 42
22 49 44
22 48 44
21 46 42
22 48 44
21 47 43
22 48 44
22 48 44
22 49 44
22 48 43
21 47 43
21 47 43
21 47 43
22 48 44
22 48 43
22 49 44
21 47 43
21 47 43
22 47 43
22 47 43
22 48 44
22 49 45
21 47 43
22 48 44
22 48 43
22 47 43
22 48 44
22 48 43
22 49 45
22 48 44
22 49 44
22 48 44
22 48 44
22 49 44
21 47 43
22 48 44
22 48 44
22 48 44
22 48 44
22 48 44
22 48 44
22 48 44
22 48 43
22 49 44
22 49 44
23 50 45
22 49 44
22 48 44
23 50 45
22 48 44
22 48 44
22 48 43
22 48 44
23 49 45
22 48 44
23 49 45
23 49 45
22 48 44
22 49 44
22 49 44
20 45 42
20 45 41
20 45 42
20 45 41
20 45 42
20 45 41
21 46 42
21 47 43
20 45 41
21 47 43
21 46 43
21 47 43
20 45 41
20 45 41
20 45 41
21 46 42
21 46 43
21 46 42
20 45 41
21 46 42
21 47 43
21 46 42
21 46 42
21 46 42
21 46 42
21 46 42
20 45 41
21 45 41
21 46 42
21 46 42
21 47 43
21 47 43
21 46 43
22 48 44
21 46 42
21 46 42
21 47 43
21 47 43
21 46 42
21 46 42
21 46 42
21 46 42
21 47 43
21 46 42
21 47 43
21 47 43
21 47 43
21 46 42
20 45 41
21 46 42
21 46 42
21 46 42
21 46 42
21 46 42
21 46 42
21 47 43
21 47 43
21 46 42
22 48 44
21 47 43
21 47 43
21 47 43
21 47 43
21 47 42
22 48 44
21 47 43
21 46 42
21 47 43
21 47 43
21 46 42
22 48 43
21 47 43
22 47 43
21 47 43
21 47 43
21 47 42
22 48 43
21 47 42
22 48 43
22 49 44
21 47 43
21 47 43
21 47 43
21 47 43
22 48 44
22 48 44
21 47 42
22 49 44
22 48 44
22 49 44
22 48 44
22 49 44
22 48 43
22 47 43
21 47 42
22 47 43
23 50 45
22 48 43
22 47 43
21 47 43
22 49 45
22 48 43
22 49 44
21 47 42
22 49 44
22 49 44
22 49 44
22 48 43
22 48 44
22 48 44
23 50 45
22 49 44
22 48 43
23 50 45
23 49 45
22 49 45
23 50 45
22 48 44
22 49 45
22 49 45
20 44 41
21 46 42
21 46 42
20 45 41
20 45 42
20 45 41
21 46 42
21 47 43
20 44 41
20 45 42
20 45 41
20 44 41
21 46 42
21 46 42
21 46 42
20 45 41
20 45 41
20 45 41
20 45 41
20 45 41
21 46 42
20 45 41
21 46 42
21 45 42
21 46 42
21 46 42
21 47 43
21 46 42
21 46 42
20 45 41
21 46 42
21 45 42
21 46 42
21 47 43
21 47 43
21 46 42
20 45 41
21 46 42
21 46 42
21 46 42
21 46 42
21 46 42
21 46 42
21 46 42
21 46 42
21 46 42
21 46 42
21 47 43
21 47 42
21 46 42
21 47 43
21 47 43
21 47 43
21 47 43
22 48 43
22 48 44
21 46 42
22 48 43
21 47 43
21 47 43
21 47 43
21 47 43
22 48 44
21 46 42
21 47 43
22 48 44
21 47 43
22 48 44
21 47 43
21 47 43
22 48 44
21 47 42
22 47 43
21 46 42
22 49 44
21 47 43
22 48 44
22 47 43
21 47 43
21 47 43
21 47 43
21 47 43
21 47 43
22 49 44
22 48 44
22 48 44
21 47 43
21 47 42
22 48 44
21 47 43
21 47 42
22 48 44
22 48 44
22 48 44
23 50 45
21 47 43
23 50 45
22 49 44
22 48 44
22 48 44
22 49 44
23 49 45
23 49 45
22 48 43
23 49 45
22 48 43
22 47 43
23 50 45
22 49 44
22 48 44
22 48 44
22 49 44
22 48 43
22 48 43
22 49 44
22 48 43
22 49 45
22 48 44
22 48 43
23 50 45
20 44 40
20 45 41
20 45 41
20 45 41
20 46 42
20 44 41
20 45 41
20 44 41
21 46 42
20 45 41
20 45 41
20 45 41
21 46 42
21 46 42
20 45 41
21 46 43
21 45 42
20 45 41
21 46 42
20 45 41
21 46 42
21 46 42
21 46 42
21 47 43
21 46 42
21 46 42
20 45 41
21 46 42
20 45 42
21 46 42
21 46 42
21 46 42
21 46 42
20 45 41
21 48 44
21 46 42
22 48 43
21 45 42
21 46 42
21 46 42
21 46 42
21 46 42
21 46 42
21 47 43
21 47 43
21 46 42
21 47 43
21 46 42
21 45 42
21 46 42
21 46 42
22 48 44
21 47 43
22 48 44
21 46 42
21 47 43
21 47 43
22 48 44
21 47 43
21 46 42
21 47 43
22 48 44
21 47 43
21 47 43
21 46 42
22 48 44
22 47 43
22 48 43
22 48 44
21 47 43
22 48 43
22 47 43
21 47 42
21 46 42
21 47 43
21 47 43
22 48 44
22 48 43
22 48 43
22 48 43
21 47 43
22 49 45
22 48 43
22 48 43
22 49 45
22 47 43
22 48 44
22 49 44
21 47 43
22 48 44
22 48 43
22 48 44
22 48 43
22 48 44
22 47 43
22 49 45
22 48 43
22 48 44
22 49 44
21 47 43
22 48 44
22 49 45
21 47 43
22 49 44
22 49 44
22 48 44
22 49 44
22 48 44
22 49 45
21 47 43
22 49 44
22 49 44
21 47 43
22 48 44
22 49 44
22 49 44
22 49 44
23 50 45
22 48 43
22 49 44
20 45 42
21 46 42
20 45 41
20 45 42
21 46 43
20 45 41
21 46 42
20 45 41
21 46 42
20 45 41
20 45 42
21 45 42
20 45 41
20 44 41
21 46 42
20 45 41
20 45 41
21 46 42
21 46 42
21 46 42
20 45 41
21 46 42
20 45 41
20 45 42
21 46 42
21 47 43
21 46 42
21 45 42
21 46 42
21 46 42
21 46 42
20 45 42
20 45 41
21 46 42
21 46 42
21 46 42
21 46 42
21 47 43
21 46 42
21 47 43
21 46 42
21 47 43
21 47 43
21 47 43
21 46 42
21 47 43
21 46 42
20 45 41
20 45 41
21 46 42
21 47 43
21 47 43
21 47 43
21 47 43
21 46 42
21 46 42
21 46 42
21 47 43
21 47 43
21 47 43
21 47 43
21 46 42
22 49 44
21 46 42
21 47 43
21 47 43
21 47 43
21 46 42
21 46 42
21 47 43
22 48 44
21 47 43
22 48 44
21 47 43
22 48 43
21 47 42
21 46 42
21 46 42
21 47 43
22 48 44
22 49 44
22 48 44
22 48 43
21 47 43
22 49 44
22 48 43
21 46 42
22 48 44
21 47 43
22 48 44
22 48 43
22 47 43
21 46 42
22 48 43
22 48 44
22 48 43
21 47 43
22 48 44
22 48 44
22 48 44
22 49 45
21 47 43
22 48 43
22 48 43
21 47 42
21 47 42
22 49 44
22 47 43
21 47 43
22 48 43
22 48 44
21 47 43
22 49 45
22 48 44
22 48 44
22 48 44
22 49 44
23 50 45
22 49 44
22 48 43
21 46 42
20 45 41
20 44 40
20 45 41
21 46 42
21 46 42
21 46 42
20 44 40
20 45 41
21 46 42
20 44 40
21 46 42
20 44 40
20 45 41
21 46 42
20 45 41
21 47 43
21 46 42
20 45 41
21 46 42
21 46 42
20 44 40
21 46 42
21 46 42
20 45 41
20 45 41
21 46 42
21 46 42
21 46 42
21 46 42
20 45 42
20 45 41
20 45 42
21 47 43
20 45 41
21 46 42
21 46 42
20 45 41
21 46 42
21 46 42
21 47 43
20 45 41
21 46 42
22 48 44
21 47 43
21 46 42
21 46 42
21 47 43
21 46 42
21 46 42
20 45 41
21 46 42
21 46 42
21 46 42
21 46 42
21 46 42
21 46 42
21 45 41
21 46 42
21 47 43
21 47 43
21 47 43
22 47 43
21 46 42
21 46 42
21 47 43
21 47 43
21 46 42
22 48 44
21 47 43
22 48 44
21 46 42
21 46 42
21 47 43
21 46 42
21 47 43
21 46 42
21 46 42
22 48 43
22 48 44
22 48 43
22 48 44
21 47 42
21 47 43
22 48 44
22 48 44
22 48 43
21 47 43
22 48 43
22 49 44
22 48 44
21 47 43
21 47 42
21 47 43
22 47 43
21 47 43
22 49 44
22 48 44
22 48 44
22 48 43
21 47 43
22 48 44
22 48 44
22 47 43
22 48 44
22 48 43
21 47 43
22 48 43
22 49 45
22 49 45
22 49 44
22 48 44
22 49 44
22 49 44
22 49 44
21 47 43
22 48 43
21 47 43
22 49 44
22 48 44
20 44 41
21 46 42
20 45 42
20 45 42
20 45 41
21 46 42
20 45 41
20 44 40
20 45 41
21 46 43
21 46 42
21 47 43
20 44 41
20 45 41
21 46 42
20 45 42
20 45 41
21 46 42
22 48 44
20 46 42
20 45 41
20 45 41
21 46 42
20 45 42
21 46 42
21 45 42
21 46 42
20 45 41
20 45 42
21 46 42
21 46 42
21 46 42
21 46 42
21 46 42
21 46 42
20 45 42
21 46 43
21 46 43
21 46 42
21 46 42
21 46 42
21 46 42
20 45 41
20 45 41
21 47 42
21 46 42
21 46 42
21 46 42
21 46 42
21 47 43
21 46 42
21 47 43
22 48 43
21 47 43
20 45 41
21 47 43
21 47 43
21 47 43
22 48 43
21 46 42
21 47 43
20 45 41
21 46 42
21 46 42
21 47 43
21 47 43
21 47 43
21 47 42
21 47 43
21 46 42
21 47 43
21 47 43
22 48 44
21 46 42
21 46 42
21 46 42
21 46 42
21 47 43
21 47 43
21 47 43
21 46 42
22 49 44
21 46 42
22 48 44
22 48 44
21 47 43
21 47 42
21 47 43
21 46 42
22 47 43
22 47 43
21 46 42
22 47 43
22 48 44
22 48 44
21 47 43
22 48 44
22 48 44
21 47 43
22 48 44
22 48 43
21 47 43
22 48 44
22 48 43
22 48 44
22 48 43
22 49 44
21 46 42
21 47 43
22 48 44
22 49 44
22 47 43
22 49 44
21 47 43
22 49 44
22 48 44
22 48 43
22 48 44
22 48 44
22 48 44
20 44 41
21 46 42
20 45 41
20 45 41
21 46 42
21 46 42
20 45 42
20 45 41
20 45 42
20 46 42
21 46 42
20 44 40
21 46 42
21 46 42
20 45 41
20 45 41
21 46 42
21 45 42
21 46 42
20 45 41
21 47 43
20 45 41
20 44 41
20 45 42
20 44 41
21 46 42
21 46 42
20 45 42
20 45 42
20 44 40
20 45 41
21 46 42
20 45 41
21 47 43
21 46 42
21 47 43
21 46 42
20 45 41
21 46 42
22 48 44
20 45 41
21 47 43
21 45 42
21 47 43
21 47 43
21 46 42
21 46 42
21 47 43
21 46 42
21 46 42
21 46 42
21 47 43
21 45 42
21 47 43
21 46 42
21 47 43
21 46 42
21 46 42
21 46 42
21 46 42
21 47 43
21 47 43
21 47 42
21 47 43
21 46 42
21 46 42
21 47 42
21 47 42
21 47 43
21 46 42
21 46 42
21 46 42
21 46 42
21 47 43
21 46 42
21 47 43
22 49 44
21 47 42
21 47 43
22 48 44
21 47 43
21 47 43
21 47 43
21 46 42
21 46 42
21 47 43
21 47 43
21 47 43
22 48 43
21 47 43
22 47 43
22 48 43
22 47 43
21 47 43
21 47 43
22 47 43
22 49 44
22 48 44
22 48 43
22 48 44
21 47 43
22 48 44
22 48 43
22 47 43
21 46 42
22 48 44
22 49 44
22 48 44
22 48 44
22 49 44
22 49 44
22 48 44
22 48 43
22 48 44
22 48 44
22 48 44
22 48 44
22 49 44
22 49 44
22 48 44
20 44 40
20 45 41
20 45 41
20 44 41
20 45 41
20 45 42
21 46 42
21 46 42
20 45 41
21 46 42
20 44 41
21 46 42
21 46 42
20 45 41
20 45 41
20 46 42
21 46 42
21 46 42
21 45 42
21 46 42
21 46 42
20 45 41
21 46 42
20 45 41
20 45 42
20 44 41
21 46 42
21 46 42
21 46 42
21 47 43
21 46 42
21 47 43
20 45 42
21 46 42
21 46 42
20 45 41
21 47 43
21 46 42
21 47 43
21 46 42
21 46 42
21 46 42
21 47 43
21 46 42
21 46 42
21 46 42
21 46 42
21 46 42
21 47 43
21 46 42
21 47 43
21 46 42
21 46 42
21 46 42
20 45 41
20 45 41
21 47 43
21 47 43
21 46 42
21 47 43
21 47 43
21 47 43
21 46 42
21 47 43
21 47 43
21 47 43
21 47 43
21 46 42
21 47 43
22 48 43
21 47 43
21 46 42
22 48 43
21 47 42
21 47 43
21 45 41
21 47 43
21 47 43
22 48 43
21 45 41
21 46 42
21 46 42
22 48 43
21 47 43
22 48 44
21 47 43
22 48 43
22 48 44
21 46 42
21 47 42
22 49 44
21 47 43
21 46 42
21 47 43
22 48 44
21 46 42
21 47 42
22 48 43
22 47 43
22 48 44
22 48 43
21 47 43
22 48 44
22 48 43
21 47 43
22 48 43
22 48 44
22 48 44
22 48 44
22 48 43
22 48 44
22 49 44
22 48 44
22 49 44
22 48 43
21 47 43
22 47 43
21 47 43
22 48 43
22 47 43
20 45 41
20 45 41
20 45 41
20 45 41
21 46 42
21 46 42
20 44 41
21 46 43
20 45 41
20 45 41
20 45 41
20 45 41
20 45 41
21 46 42
20 45 41
21 46 42
20 45 41
21 46 42
20 44 40
20 45 41
20 45 42
21 46 42
21 46 42
21 46 42
21 47 43
20 45 41
21 46 42
20 45 41
20 45 41
21 47 43
21 47 43
21 46 42
21 46 42
21 47 43
21 47 43
21 46 42
21 46 42
20 45 41
21 46 42
21 46 42
21 46 42
21 46 42
20 45 41
21 46 42
21 47 43
21 46 42
21 46 42
21 47 43
20 45 41
21 46 42
21 46 42
20 45 41
21 45 41
21 46 42
21 47 43
21 47 43
21 46 43
21 47 43
21 46 42
21 47 43
21 47 42
21 46 42
21 47 43
21 47 43
21 47 43
21 46 42
21 47 43
21 46 42
21 47 42
21 46 42
21 46 42
21 47 43
21 47 43
21 46 42
21 47 43
21 46 42
21 47 43
22 47 43
21 47 43
21 46 42
22 48 43
21 46 42
22 48 43
22 47 43
21 47 43
21 47 43
21 47 43
22 48 44
21 47 43
22 48 44
21 46 42
22 48 44
22 48 43
22 47 43
21 47 43
21 46 42
22 48 44
22 48 44
22 48 44
22 48 44
21 47 43
21 47 43
21 47 43
22 48 44
22 47 43
22 48 44
22 48 44
22 48 44
22 48 43
21 47 43
22 48 44
22 48 43
21 47 43
22 47 43
21 47 43
21 47 43
22 48 43
22 48 43
22 49 44
22 49 44
20 45 41
20 45 42
20 45 42
20 45 41
20 45 41
20 45 41
20 45 41
20 45 41
20 45 41
20 44 40
21 46 43
21 46 42
20 45 41
20 44 41
20 45 41
20 45 42
20 45 41
21 45 42
20 45 42
21 46 42
21 46 42
20 45 41
20 45 41
20 45 41
21 46 42
20 45 42
20 45 41
21 46 42
20 45 42
21 46 42
21 46 42
20 45 41
20 44 40
21 47 43
20 45 41
20 45 42
21 46 42
21 46 42
21 47 43
21 46 42
21 45 42
21 46 42
21 46 42
21 46 42
21 47 43
21 46 42
21 46 42
21 46 42
20 45 41
21 45 42
21 46 42
21 46 43
21 46 42
21 47 43
21 46 42
21 46 42
21 47 43
21 46 43
21 45 42
21 47 43
22 48 43
21 47 43
21 46 42
21 46 42
21 46 42
22 48 44
21 46 42
22 48 44
21 46 42
21 46 42
21 47 42
21 47 42
21 47 43
21 46 42
22 48 44
21 46 42
22 47 43
21 47 43
21 47 43
21 46 42
21 47 43
22 48 43
21 46 42
20 45 41
21 47 43
21 46 42
21 46 42
21 47 43
22 48 44
22 48 44
22 47 43
22 48 44
22 49 44
21 47 43
21 46 42
22 48 43
21 47 43
21 47 43
21 47 43
22 48 44
21 47 43
22 48 44
22 48 44
21 46 42
22 48 43
22 47 43
22 48 44
21 47 43
22 48 43
21 47 43
22 48 43
22 48 44
22 48 44
21 47 43
22 47 43
22 48 44
22 48 44
22 48 44
22 49 44
22 48 43
20 45 42
20 44 40
20 45 41
20 45 41
20 45 41
20 45 42
20 44 41
20 45 41
20 45 41
20 45 41
20 45 41
20 45 41
21 46 42
20 45 41
20 45 41
20 44 41
20 45 41
20 44 40
21 46 42
21 46 42
21 46 42
20 45 41
20 45 41
21 45 42
21 47 43
20 45 41
20 45 41
20 45 42
20 45 41
20 45 42
20 45 41
21 46 42
21 46 42
21 47 43
21 47 43
20 45 41
21 45 42
20 45 41
21 46 42
20 44 40
21 46 42
21 45 42
20 45 41
20 45 41
20 45 41
20 45 41
21 46 42
20 45 41
21 46 42
21 46 42
21 46 42
21 47 43
21 46 42
21 46 42
21 46 42
21 46 42
21 47 43
21 46 42
21 47 43
21 47 43
21 46 42
21 47 43
21 45 41
21 47 43
21 47 43
21 47 43
21 46 42
22 48 44
21 46 42
20 45 41
21 47 42
21 47 43
21 47 43
21 45 41
21 46 42
21 47 43
21 45 41
22 48 44
21 46 42
22 49 45
21 46 42
21 47 43
21 47 43
21 46 42
22 48 44
22 48 43
21 46 42
21 47 43
21 46 42
22 48 44
22 48 43
21 47 43
22 49 44
21 47 43
22 48 44
21 47 43
21 46 42
21 46 42
22 48 44
22 47 43
21 47 43
22 48 44
22 48 44
22 47 43
21 47 43
21 47 42
22 48 44
22 48 44
22 48 44
22 48 44
22 48 43
22 49 44
22 47 43
22 48 43
22 47 43
22 48 44
22 48 43
22 48 44
22 48 43
22 48 43
20 44 41
21 46 43
20 44 40
20 45 41
21 46 42
20 45 42
20 45 42
20 45 42
20 45 42
21 46 42
20 45 41
20 45 41
20 45 41
20 45 41
20 45 41
20 45 41
20 45 41
20 45 41
21 46 42
20 44 41
21 46 42
21 46 42
21 46 42
20 45 41
21 47 43
20 45 42
20 45 41
21 47 43
21 46 42
21 46 42
21 47 43
20 45 42
20 45 41
21 46 42
20 45 41
21 46 42
20 45 42
21 47 43
21 46 42
21 47 43
21 47 43
21 46 42
21 46 42
21 46 42
21 45 42
20 45 42
21 47 43
21 47 43
21 47 43
21 47 43
20 45 41
21 46 42
21 47 43
20 45 42
21 47 43
21 47 43
21 47 43
21 47 43
21 46 42
21 47 43
21 46 42
21 47 43
22 48 44
21 47 43
21 47 43
21 46 42
21 47 43
21 47 43
21 47 43
21 46 42
21 46 42
22 48 44
21 47 43
21 47 43
21 47 43
21 46 42
21 47 42
21 47 43
21 47 42
21 47 43
21 46 42
21 47 43
22 48 44
22 48 43
22 48 43
21 47 43
22 48 44
21 47 43
22 47 43
21 46 42
21 47 43
21 47 43
21 47 43
22 48 44
21 47 43
21 47 43
21 46 42
22 47 43
21 47 43
21 47 43
21 46 42
21 47 43
22 48 44
22 48 44
22 48 44
20 45 41
21 47 43
21 47 43
21 47 43
21 47 42
22 48 44
21 47 43
22 48 44
21 46 42
22 48 44
22 48 43
21 47 43
22 48 44
22 47 43
22 48 43
20 44 41
20 44 41
21 46 42
21 46 42
20 45 42
20 46 42
20 45 42
21 46 42
20 44 41
21 46 42
20 45 41
21 46 42
20 45 42
20 45 41
20 45 42
20 44 41
20 45 42
21 46 42
20 45 41
20 45 41
20 44 40
22 48 44
21 46 42
21 46 42
21 46 42
20 45 42
20 44 40
21 46 42
21 46 42
21 46 42
20 45 41
20 45 41
21 46 42
20 45 42
21 47 43
21 46 42
21 46 42
20 45 41
20 45 41
21 46 42
21 47 43
20 45 41
20 45 41
21 47 43
21 47 43
20 45 41
20 45 41
20 45 41
21 47 43
21 47 43
21 46 42
21 46 42
21 46 42
21 47 43
21 46 42
21 46 42
21 46 42
21 46 42
21 46 42
21 47 43
21 47 43
21 47 43
21 46 42
21 47 43
21 47 43
22 48 44
20 45 41
21 47 43
21 47 43
21 47 43
20 45 41
21 47 43
21 47 43
21 48 43
22 48 44
21 47 43
21 46 42
21 46 42
20 45 41
21 47 43
21 46 42
22 48 44
21 46 42
21 47 43
21 47 43
22 48 43
21 47 43
21 47 43
21 46 42
21 47 43
21 47 43
22 48 44
21 46 42
21 47 43
21 47 43
21 46 42
21 47 43
22 48 44
21 47 43
22 48 43
21 47 43
22 49 44
22 48 44
21 47 43
21 46 42
21 47 43
21 47 43
21 47 43
22 48 43
22 47 43
22 48 44
21 46 42
21 47 43
22 48 43
22 48 43
22 48 44
22 48 43
22 47 43
21 47 43
21 46 42
20 45 41
20 44 40
20 45 42
20 44 41
20 44 41
20 45 41
20 45 41
21 46 42
20 44 41
20 45 42
20 45 41
20 45 41
20 44 41
20 46 42
20 44 41
20 45 42
20 45 41
21 46 42
21 46 42
20 45 41
20 45 41
21 46 42
21 46 42
20 45 41
20 45 41
20 44 40
21 46 42
20 44 40
21 46 42
20 45 42
20 45 42
20 45 42
20 45 41
20 45 41
20 45 41
20 45 41
21 47 43
20 45 42
21 45 42
21 46 42
20 44 41
20 45 41
20 44 40
21 47 43
21 46 42
21 46 42
21 46 43
21 47 43
21 46 42
21 46 42
21 46 42
20 45 41
21 47 43
21 47 43
21 47 43
21 46 42
21 46 42
21 45 42
21 45 42
21 46 42
21 46 42
21 46 42
21 46 42
21 47 43
21 46 42
21 45 42
20 45 41
21 47 43
21 46 42
21 47 43
20 45 41
21 47 43
21 47 43
21 47 43
21 47 43
21 45 42
21 47 43
21 47 43
21 46 42
20 45 41
21 47 43
21 47 43
21 46 42
21 47 43
21 47 43
22 48 43
21 47 43
21 45 41
21 46 42
21 47 43
21 46 42
21 47 43
22 48 44
21 47 43
21 46 42
21 46 42
21 46 42
22 48 44
22 49 44
21 47 43
21 47 43
21 47 43
21 47 43
21 47 42
22 48 44
21 47 43
21 47 43
21 47 43
22 48 44
21 47 43
21 47 42
21 47 42
21 47 42
21 47 43
21 47 43
21 47 43
22 48 44
21 47 43
21 47 43
21 46 42
20 45 42
20 44 41
20 44 40
20 44 40
20 44 40
20 44 41
20 45 42
20 45 41
20 44 41
20 44 40
20 45 42
20 45 42
20 45 41
20 45 42
21 46 42
21 46 43
21 46 42
20 45 42
20 45 41
21 46 42
21 46 42
21 46 42
20 45 41
21 46 42
21 46 42
20 45 42
20 44 40
21 46 42
20 45 41
20 44 41
20 45 41
20 45 41
20 45 41
21 46 42
20 45 41
20 45 41
21 46 42
21 46 42
20 45 41
20 45 41
21 46 42
20 45 41
20 45 41
20 45 41
21 46 42
21 46 42
21 46 42
21 46 42
21 46 42
21 46 42
21 46 42
21 46 42
20 45 41
20 44 41
21 46 42
21 47 43
21 47 43
21 46 42
20 45 41
20 45 41
21 46 42
21 46 42
21 46 42
21 46 42
21 47 43
20 45 41
21 47 43
21 46 42
21 47 42
21 46 42
21 46 42
21 46 42
20 45 41
21 46 42
21 47 43
21 47 43
21 46 42
21 46 42
21 47 43
21 47 43
21 47 43
21 47 43
21 46 42
21 47 43
21 47 43
21 47 43
22 48 44
21 46 42
21 47 43
21 46 42
21 45 41
21 47 43
21 47 43
21 47 43
22 48 43
21 47 43
22 48 44
22 48 44
22 48 44
21 47 42
21 47 43
21 47 42
21 46 42
21 46 42
21 47 43
21 46 42
21 46 42
22 47 43
22 48 44
22 47 43
21 47 42
21 47 43
22 47 43
21 47 43
21 47 43
21 46 42
22 49 44
21 47 43
22 48 43
22 49 44
20 45 42
20 44 40
20 45 42
20 45 42
20 44 40
20 44 41
20 44 40
21 46 42
20 45 42
20 45 42
21 46 42
21 46 42
20 45 42
20 44 40
20 44 41
20 45 41
20 44 41
20 44 41
21 46 42
20 44 40
20 44 41
20 45 41
20 44 41
20 45 41
20 45 41
20 44 40
21 46 42
20 45 41
21 46 42
21 46 42
20 45 41
20 44 41
20 45 41
20 45 41
20 45 41
21 46 42
21 46 42
21 46 42
21 46 42
21 46 43
21 47 43
21 46 42
21 46 42
21 46 42
21 46 43
21 46 43
21 47 43
21 46 42
21 46 42
20 45 41
21 45 42
20 45 42
21 46 42
21 46 42
20 45 41
20 45 41
21 47 42
20 45 41
22 47 43
20 45 41
21 46 42
20 45 41
21 46 42
20 45 41
21 46 42
21 46 42
21 46 42
21 46 42
21 46 42
21 46 42
21 47 43
21 47 43
21 46 42
20 45 42
21 46 42
21 46 42
21 46 42
21 47 43
21 47 43
22 48 44
21 47 43
21 47 43
21 46 42
21 45 42
21 47 42
22 48 44
21 47 43
21 47 43
21 47 43
21 46 42
21 46 42
21 47 42
21 45 42
21 47 43
21 46 42
21 47 43
22 48 43
21 46 42
21 46 42
21 47 43
21 47 43
22 48 43
21 46 42
21 46 42
22 48 43
21 47 42
21 46 42
22 47 43
21 45 41
21 47 43
22 47 43
21 47 43
22 48 43
21 47 43
22 48 43
22 48 43
22 48 43
22 48 43
22 47 43
21 47 42
20 44 40
21 46 43
20 44 41
20 45 41
20 45 42
20 45 42
20 44 41
20 45 41
20 45 41
20 45 41
21 46 42
21 46 42
21 46 42
20 45 41
21 46 42
20 45 42
21 46 42
20 45 41
19 43 39
20 44 41
20 45 41
20 45 41
20 44 41
20 44 41
20 44 41
20 44 41
21 46 42
21 46 42
21 46 42
20 45 41
20 45 42
20 45 41
21 46 42
20 45 41
20 45 41
21 46 42
20 44 40
20 45 41
21 46 42
20 44 40
20 45 41
21 46 42
21 46 42
21 46 42
20 45 41
21 46 42
20 45 41
21 47 43
21 46 42
20 45 41
21 46 42
21 45 42
21 46 42
20 45 41
20 45 41
20 45 41
20 45 41
20 45 41
20 45 41
21 47 43
21 47 43
21 46 42
21 46 42
21 47 43
21 46 42
21 46 42
21 46 42
21 46 42
21 45 42
21 47 43
21 46 42
21 46 42
21 46 42
21 46 42
21 47 43
21 46 42
21 46 42
21 46 42
21 46 42
22 48 44
22 48 44
21 46 42
21 46 42
21 46 42
21 47 43
21 47 43
21 47 43
21 47 43
21 47 43
21 45 42
22 48 44
21 46 42
21 46 42
21 46 42
21 46 41
22 47 43
21 46 42
21 47 43
21 47 43
22 49 44
21 45 41
22 47 43
22 47 43
21 47 42
22 47 43
21 47 43
21 46 42
21 46 42
22 49 45
22 48 43
22 47 43
22 47 43
21 47 43
22 47 43
22 47 43
22 47 43
22 48 43
22 48 43
22 48 44
21 47 42
21 47 43
20 45 41
20 45 41
20 45 42
20 44 40
20 45 41
20 44 41
21 46 42
21 46 42
20 44 41
21 46 42
20 45 41
20 45 41
20 45 41
21 46 42
20 45 41
20 45 42
20 45 41
21 46 42
21 46 42
21 46 42
20 45 42
20 45 41
20 45 41
21 46 42
20 45 42
20 45 42
21 46 42
20 45 41
21 46 42
21 46 42
21 46 42
21 46 42
20 45 41
21 46 42
20 44 40
21 46 42
20 45 41
20 45 41
21 46 42
21 46 42
21 46 42
21 46 42
20 44 40
20 45 42
21 46 42
21 46 42
21 46 42
21 46 42
20 45 41
21 46 42
20 45 41
21 46 42
20 45 41
21 46 42
21 45 42
21 46 42
21 46 42
21 47 43
21 46 42
21 46 42
21 46 43
21 46 42
20 45 41
21 46 42
21 47 43
21 46 43
21 45 42
21 46 42
21 46 42
21 46 42
21 47 42
21 46 42
21 47 43
21 46 42
21 46 42
20 45 41
21 47 43
21 46 42
21 47 43
21 46 42
21 46 42
21 46 42
21 47 43
21 46 42
21 47 43
21 47 43
21 46 42
21 47 43
21 47 43
21 46 42
20 45 41
21 46 42
21 47 43
21 47 43
22 48 43
21 46 42
21 46 42
21 45 41
22 48 44
21 47 43
22 48 43
22 47 43
22 48 44
22 47 43
21 45 41
21 46 42
22 47 43
21 46 42
21 46 42
21 46 42
22 47 43
22 47 43
22 48 44
22 48 43
22 47 43
22 48 44
22 48 44
22 47 42
21 46 42
20 45 41
21 46 42
20 44 41
20 45 41
20 45 41
20 45 41
20 44 41
20 45 41
20 44 41
20 45 42
20 45 42
20 44 41
20 45 41
20 45 41
20 44 40
20 44 40
20 44 40
20 45 41
20 44 41
21 46 42
21 45 42
21 46 43
21 46 42
20 45 41
20 45 42
21 46 42
20 45 41
20 45 41
20 45 41
20 45 41
21 47 43
20 45 41
21 46 42
20 45 41
20 45 41
21 46 42
21 46 42
21 46 42
21 46 42
20 45 41
21 46 42
20 45 41
20 45 41
21 46 42
21 46 42
21 45 42
21 46 42
21 46 42
21 46 42
21 46 42
20 45 42
21 46 42
21 46 42
21 46 42
20 45 42
21 46 42
20 45 41
21 46 42
21 46 42
21 46 42
21 47 43
20 45 41
20 45 41
21 47 43
21 46 42
20 45 41
21 46 42
21 46 42
21 47 43
21 46 42
21 47 43
21 46 42
22 47 43
21 46 43
21 46 42
21 47 43
21 47 43
21 47 43
21 46 42
21 46 42
21 46 42
21 47 43
21 47 43
21 47 43
21 46 42
21 45 41
21 47 43
21 47 43
21 46 42
21 47 43
21 47 43
21 46 42
21 46 42
21 46 42
22 47 43
21 46 42
22 48 44
21 46 42
21 47 43
21 47 43
21 47 43
21 46 42
21 47 43
21 47 43
21 47 43
22 48 44
21 46 42
22 47 43
22 48 44
21 46 42
22 47 43
22 47 43
21 45 41
22 48 44
23 49 45
22 47 43
22 47 43
22 48 44
22 48 44
22 46 42
20 44 41
20 45 41
20 44 41
20 44 41
20 45 41
20 45 41
20 45 41
21 46 42
20 44 40
20 46 42
20 44 40
20 45 41
20 45 41
20 45 41
20 45 41
20 45 41
20 45 41
20 45 41
20 44 41
20 45 41
21 46 42
20 44 40
20 45 42
21 47 43
21 46 42
20 44 40
21 46 42
20 45 42
20 45 41
20 45 41
20 44 40
21 46 42
20 45 41
21 46 42
21 46 42
21 46 42
21 46 42
20 45 41
20 44 41
21 46 42
20 44 40
20 45 41
20 45 41
21 46 42
21 46 42
21 47 43
20 45 41
20 45 41
20 45 41
20 45 41
20 44 41
21 46 42
20 45 41
20 45 41
21 46 42
21 46 42
20 45 41
21 46 42
20 45 42
21 47 43
21 47 43
21 46 42
21 46 42
20 45 41
21 46 42
20 45 41
20 45 41
21 47 43
21 46 42
21 46 42
21 46 42
21 46 42
21 46 42
20 45 41
21 46 42
21 46 42
20 45 41
21 46 42
21 46 42
21 47 43
21 46 42
21 46 42
20 44 40
21 45 42
21 47 43
21 46 42
21 46 42
20 45 41
21 47 43
21 46 42
20 45 41
21 47 43
21 47 43
21 47 43
21 47 43
21 46 42
22 47 43
22 48 43
22 47 43
21 47 43
21 46 42
21 46 42
21 46 42
22 47 43
21 47 42
22 47 43
22 47 43
22 47 43
22 47 43
21 46 42
22 47 42
22 48 44
22 46 42
22 48 43
22 48 44
22 47 43
22 47 43
22 47 43
22 48 44
22 47 43
20 44 40
19 43 40
20 45 41
20 44 41
21 46 42
20 44 40
20 45 42
20 45 41
20 44 40
20 44 40
21 46 42
20 45 41
21 46 42
21 46 42
21 46 42
20 44 41
20 44 40
21 46 42
20 45 41
20 45 41
20 44 40
20 45 42
20 45 42
21 46 42
21 46 42
20 44 41
21 46 42
20 45 41
20 45 41
21 46 42
21 46 42
21 46 42
21 46 42
20 45 41
21 46 42
20 44 41
20 45 41
21 46 42
20 45 41
20 45 41
21 46 42
20 45 41
20 45 42
20 45 42
21 47 43
21 46 42
21 47 43
21 46 42
20 45 41
21 46 42
21 46 42
20 45 42
21 47 43
20 45 41
21 47 43
20 45 41
20 45 42
21 45 42
21 46 42
20 45 41
21 46 42
21 46 42
20 45 41
20 45 41
20 45 41
21 46 42
21 46 42
21 47 42
21 46 42
21 46 42
20 45 42
21 46 42
21 46 42
20 45 41
21 47 43
21 47 43
21 46 42
21 47 43
21 46 42
20 45 41
21 46 42
21 46 42
21 46 42
21 46 42
21 47 43
21 46 42
21 47 43
21 46 42
21 45 41
21 46 42
22 48 44
21 47 43
21 45 41
21 46 42
22 48 44
21 47 43
21 46 42
21 47 42
21 47 43
22 47 43
22 47 43
22 48 43
22 47 43
21 47 42
21 46 42
22 47 42
22 47 42
22 46 42
22 48 43
21 46 41
22 46 42
22 47 42
22 47 43
23 48 44
22 47 43
22 46 42
23 47 43
22 47 43
23 48 44
23 48 44
