P3
120 80
255
17 39 36
17 40 37
17 40 37
18 40 37
18 40 38
17 40 37
18 41 38
17 40 37
18 40 38
17 40 37
17 39 37
18 40 38
18 41 38
18 40 38
18 41 38
18 42 39
18 41 38
18 40 37
18 40 38
18 41 38
18 40 38
18 41 38
18 40 38
18 41 38
18 40 38
18 40 38
18 41 38
18 40 38
18 40 38
18 40 38
18 41 38
17 40 37
18 40 37
18 40 38
18 40 37
17 40 37
18 40 38
18 41 38
17 39 37
18 40 38
18 41 38
18 40 38
18 40 38
18 40 37
18 41 38
18 40 37
18 40 37
18 42 39
18 41 38
18 41 38
18 41 38
18 40 38
18 40 38
18 41 38
18 41 38
18 41 38
18 41 38
18 42 39
18 40 38
18 40 38
17 40 37
18 41 38
18 40 37
18 41 38
18 41 38
17 40 37
18 40 38
18 40 37
17 39 37
17 39 37
18 42 39
18 41 38
18 40 38
18 41 38
18 40 38
18 40 37
18 40 38
18 40 37
18 41 38
17 40 37
18 40 37
17 39 36
18 41 38
18 40 38
18 41 38
18 41 39
18 40 38
18 41 38
18 41 38
18 41 38
18 40 38
18 41 38
18 40 38
18 40 38
18 40 38
18 41 38
18 41 39
18 40 38
18 40 38
18 42 39
18 41 38
18 40 37
18 41 38
18 40 38
18 40 38
18 41 38
18 42 39
18 40 38
18 40 37
18 40 38
18 41 39
17 40 37
18 41 38
18 40 37
18 41 38
18 41 38
18 41 39
18 40 38
18 41 38
18 40 38
18 40 37
18 40 37
18 40 38
18 40 38
17 39 37
18 40 38
18 41 38
17 40 37
18 40 38
17 40 37
18 40 38
18 40 38
18 40 38
18 40 38
18 40 38
18 40 38
17 39 37
17 40 37
18 41 38
18 41 38
18 41 38
18 41 38
18 41 38
18 40 37
18 41 38
18 41 39
17 40 37
18 40 38
17 40 37
18 41 38
18 40 37
18 40 38
18 41 38
17 40 37
17 39 36
18 41 38
18 40 37
18 41 38
18 41 38
18 41 38
18 41 38
18 41 38
18 40 37
18 40 38
18 40 38
18 40 37
18 41 38
17 39 37
18 40 37
18 40 38
18 40 38
18 40 37
18 40 37
18 41 39
18 40 38
18 41 38
18 41 38
18 41 38
18 41 38
18 41 39
18 41 38
18 40 38
18 41 38
18 41 39
18 41 38
18 40 38
18 41 38
18 41 39
18 40 38
18 41 38
18 41 39
18 40 38
18 40 37
18 41 38
19 42 39
18 41 39
18 40 38
17 40 37
18 41 38
17 39 37
18 41 38
18 41 39
17 39 37
18 41 38
18 41 38
18 41 38
18 41 38
18 41 38
18 41 39
18 41 38
18 41 38
18 41 38
18 41 38
18 41 38
18 41 38
18 42 39
18 40 38
18 41 39
18 42 39
19 42 40
19 42 39
18 40 37
18 42 39
18 40 37
18 40 37
18 40 38
18 41 38
18 41 39
19 42 39
18 41 38
18 40 38
18 41 38
18 40 38
18 41 38
18 40 38
18 41 38
18 41 38
18 41 38
18 41 38
18 42 39
18 40 37
18 41 38
18 40 38
18 40 37
18 41 38
18 40 38
18 41 39
18 40 38
17 39 37
18 40 37
18 41 38
18 40 38
17 39 37
18 40 37
18 40 38
18 40 38
18 40 38
17 40 37
18 42 39
18 40 37
17 39 37
18 41 38
18 40 37
18 41 38
18 41 38
18 40 37
18 41 38
18 41 38
18 41 38
18 41 38
18 41 38
18 40 38
18 41 38
18 40 38
18 40 37
18 40 38
18 41 38
18 41 39
18 41 38
18 42 39
18 42 39
18 41 39
18 41 39
18 40 38
18 41 38
18 40 38
18 41 38
18 41 38
18 41 38
18 41 38
17 39 37
18 41 38
18 41 39
18 41 38
18 40 38
18 41 38
18 41 38
18 40 38
18 41 38
18 42 39
18 41 38
18 41 38
18 41 38
18 41 38
18 40 38
18 41 39
18 40 38
18 42 39
18 41 38
18 40 37
18 40 37
18 40 38
18 40 37
18 40 38
19 42 39
18 40 38
18 41 39
18 41 38
18 40 37
18 42 39
18 41 38
18 41 38
18 41 39
18 40 38
18 40 37
18 41 39
18 41 38
18 41 38
18 42 39
17 40 37
18 40 37
18 40 38
18 41 39
18 41 38
18 41 38
18 41 38
18 42 39
18 42 39
18 41 38
18 40 38
18 41 39
18 41 38
18 41 39
18 41 38
18 40 38
18 41 39
18 41 39
18 41 38
19 42 39
19 42 39
18 42 39
18 41 39
18 41 38
18 41 39
18 40 38
18 41 38
18 41 38
18 40 37
18 41 38
18 41 38
18 41 38
18 41 38
18 40 38
18 41 38
18 41 39
18 40 37
17 40 37
18 41 38
18 40 38
18 41 38
18 41 38
18 40 38
18 40 37
18 41 38
18 42 39
18 41 39
18 41 38
18 41 39
18 41 38
18 40 38
18 40 37
18 41 38
18 41 38
18 40 37
18 40 38
18 40 37
18 40 37
18 41 38
18 42 39
18 41 38
18 41 38
18 41 38
18 40 38
18 41 39
19 43 40
18 41 38
18 41 38
18 41 39
18 40 38
18 41 38
18 41 38
18 41 38
18 41 38
18 41 38
18 40 37
18 40 37
18 41 38
18 41 38
17 39 37
18 41 38
18 41 39
18 42 39
18 41 38
18 41 38
18 40 37
19 43 40
19 42 39
18 41 39
18 41 38
18 41 38
18 41 38
19 42 39
18 41 38
18 41 38
18 41 38
18 41 39
19 42 39
18 41 39
18 41 39
18 40 38
18 41 38
19 42 39
18 41 38
18 41 39
19 42 39
18 42 39
18 41 38
18 41 38
19 42 39
18 42 39
18 40 38
18 41 38
18 41 38
18 41 38
18 41 38
18 41 39
18 41 38
18 41 38
18 41 38
18 41 38
18 40 38
18 41 38
18 42 39
18 41 38
18 41 38
18 41 38
19 42 39
18 42 39
18 41 39
18 41 38
18 41 38
18 40 38
18 41 38
18 41 38
18 41 38
19 42 39
18 40 37
18 40 38
19 42 39
18 40 37
18 40 38
18 41 38
19 42 39
18 40 38
18 41 38
18 41 38
19 42 39
18 41 38
18 41 38
18 40 37
18 41 38
18 41 39
18 40 37
18 40 38
18 40 38
18 41 39
18 42 39
18 40 37
18 41 38
18 41 38
18 40 37
18 40 37
19 42 39
18 40 38
18 40 38
18 40 38
18 41 38
17 39 37
18 41 39
18 41 38
18 40 38
18 42 39
18 40 38
18 41 38
18 41 39
18 42 39
18 42 39
18 40 37
18 41 39
18 41 39
18 41 39
18 40 38
18 42 39
18 40 38
18 41 39
18 41 38
18 41 39
18 41 39
18 40 38
19 42 39
18 41 38
18 41 38
18 42 39
18 40 37
18 41 38
18 41 38
18 41 38
18 42 39
18 42 39
18 41 38
18 40 38
18 40 38
18 40 37
18 41 38
18 41 38
18 41 38
18 41 39
18 41 38
19 42 39
18 41 38
18 41 39
18 42 39
18 41 38
18 41 39
18 41 38
18 41 38
18 41 38
18 42 39
18 40 37
18 42 39
19 42 39
19 42 39
18 41 38
18 42 39
18 41 38
19 43 40
18 42 39
18 40 38
18 40 37
19 42 39
18 42 39
19 42 39
18 41 38
18 41 38
18 41 38
18 40 38
18 41 38
19 43 40
18 42 39
18 40 38
18 41 39
18 41 38
19 42 39
18 42 39
18 41 38
18 41 38
18 41 39
18 41 39
18 42 39
18 41 39
18 41 38
18 41 39
18 41 38
18 42 39
18 41 38
18 41 39
19 42 39
18 41 38
18 41 38
19 42 39
18 41 39
19 42 39
19 42 39
18 41 38
18 41 39
18 41 38
18 41 38
18 41 39
19 42 39
19 42 39
18 41 38
18 41 38
18 40 37
18 40 38
18 41 39
18 40 38
18 42 39
18 41 39
18 41 38
18 41 39
18 41 38
18 41 38
18 41 38
18 40 38
18 42 39
18 42 39
19 42 39
18 41 38
18 41 38
18 41 38
18 40 38
18 41 38
18 41 39
18 42 39
18 41 38
18 42 39
18 42 39
18 41 38
18 41 38
18 41 38
18 41 39
19 42 39
18 41 38
19 42 39
18 41 39
18 41 38
18 41 38
18 41 38
18 41 38
19 42 39
18 41 38
18 41 38
18 41 39
19 42 39
18 42 39
18 41 39
18 41 38
18 40 38
19 42 39
18 41 38
18 42 39
18 41 39
18 41 38
18 41 38
18 41 38
19 42 39
19 42 39
17 39 37
18 41 38
18 41 39
18 41 38
18 41 38
19 42 39
19 42 39
18 41 38
19 42 39
18 41 38
18 41 38
18 41 38
18 42 39
18 42 39
18 41 38
18 41 38
18 42 39
18 41 38
18 41 38
19 42 39
18 41 38
19 42 39
18 41 38
18 41 38
18 42 39
18 41 38
18 42 39
19 42 39
19 42 39
19 42 39
19 42 39
18 42 39
19 42 39
18 41 39
18 42 39
19 42 39
18 41 39
19 42 39
19 42 39
18 41 38
19 42 39
18 42 39
19 43 40
19 42 39
18 42 39
19 42 39
18 41 38
19 42 39
18 41 38
18 41 39
19 43 40
18 42 39
18 40 37
18 41 39
19 42 39
18 41 38
18 41 38
19 42 39
18 41 39
18 41 38
19 42 39
19 42 39
19 42 39
18 42 39
18 41 39
18 40 38
18 41 38
18 41 38
18 42 39
18 41 38
18 41 38
18 41 38
18 41 38
18 41 38
19 42 39
18 41 38
18 42 39
18 41 38
18 42 39
18 40 38
19 42 39
18 41 38
18 41 38
18 41 38
18 41 38
18 41 38
18 42 39
18 41 38
18 41 38
18 41 38
18 41 38
19 42 40
19 42 39
18 41 39
18 41 38
19 42 39
18 41 38
19 42 39
18 40 37
18 41 38
18 41 38
18 41 38
18 41 38
18 42 39
18 41 38
18 41 38
18 42 39
18 41 38
18 41 38
19 42 39
18 41 39
18 41 38
19 42 39
18 41 38
18 41 38
19 42 39
18 41 38
18 41 38
18 41 38
18 40 38
18 42 39
18 42 39
19 42 39
19 42 39
18 41 39
19 42 39
18 41 38
19 42 39
19 42 40
19 42 39
19 42 39
18 41 38
19 42 39
19 42 39
18 41 38
18 42 39
18 41 38
18 41 39
19 42 39
19 42 39
18 41 38
18 41 39
18 41 39
19 42 39
18 41 38
18 41 38
19 42 39
18 42 39
18 41 38
19 42 39
19 43 40
19 42 39
18 41 38
18 41 38
18 41 38
18 42 39
18 41 38
19 42 39
18 41 38
19 43 40
18 41 39
18 41 38
19 42 39
18 41 39
19 42 39
18 41 38
18 41 38
19 42 39
18 41 39
19 42 39
19 42 39
19 42 39
18 41 38
19 42 39
18 41 38
19 42 39
19 42 39
18 41 38
19 42 39
18 41 38
18 41 39
19 42 39
18 42 39
18 42 39
18 41 38
18 42 39
18 40 38
19 43 40
18 41 39
18 41 39
19 42 39
18 40 38
18 42 39
18 41 38
18 40 38
18 40 37
18 41 39
18 40 38
18 41 38
18 41 38
18 41 39
19 42 39
19 42 39
18 40 38
18 41 38
18 41 39
18 41 38
19 42 39
18 41 38
19 42 39
18 40 37
18 41 38
19 42 39
18 41 38
19 42 39
19 42 39
18 41 38
19 42 39
19 42 39
18 42 39
18 41 38
18 41 38
18 41 38
19 42 40
19 42 39
18 41 39
18 41 38
19 42 39
18 42 39
18 42 39
19 42 39
18 41 39
18 41 38
19 42 39
19 42 39
18 41 38
19 42 39
18 42 39
19 42 39
19 42 39
19 42 39
18 41 38
18 42 39
19 42 40
18 41 38
19 42 39
18 41 38
19 43 40
18 41 38
19 42 39
18 42 39
18 42 39
18 41 38
19 42 39
19 42 39
19 42 39
19 42 39
19 42 39
19 43 40
18 41 38
19 43 40
19 42 39
18 41 38
19 42 39
19 42 39
19 42 39
18 42 39
19 42 39
19 43 40
18 41 39
18 41 38
19 43 40
19 42 39
18 41 38
19 42 39
19 42 39
18 41 39
19 42 39
19 42 39
18 41 38
19 43 40
18 42 39
19 42 39
18 41 38
19 42 39
18 42 39
19 43 40
18 41 38
19 42 39
18 41 38
19 42 39
18 42 39
18 42 39
19 42 39
19 42 39
19 42 39
19 42 39
18 42 39
18 41 38
19 42 39
19 43 40
18 41 39
19 42 39
18 41 39
18 41 38
18 41 38
18 42 39
18 40 38
19 43 40
18 41 38
19 42 39
18 41 38
18 40 38
18 41 39
19 42 39
18 42 39
18 41 39
18 41 38
19 42 39
18 41 38
18 41 39
19 42 39
18 42 39
18 41 39
18 41 39
18 41 38
18 41 38
19 42 40
19 42 39
19 42 39
18 42 39
19 42 39
18 41 38
18 41 38
18 42 39
19 42 39
19 42 39
19 42 39
19 42 39
18 41 38
18 42 39
18 41 38
19 43 40
19 42 39
18 41 38
19 42 39
19 43 40
18 41 38
18 41 39
19 42 39
18 41 38
18 41 39
18 41 38
18 41 38
18 41 38
18 41 39
19 42 39
19 42 39
19 43 40
19 42 39
18 41 38
19 43 40
19 42 39
19 42 39
19 43 40
18 41 38
18 41 38
19 42 39
19 43 40
19 42 39
19 42 39
19 42 39
19 43 40
18 41 38
19 42 39
18 40 37
18 41 38
19 42 39
19 43 40
19 42 39
19 42 39
19 42 39
19 43 40
18 41 38
18 41 38
19 42 39
19 43 40
18 41 38
18 41 38
18 41 38
19 43 40
19 42 39
19 42 39
19 43 40
19 43 39
19 43 40
19 42 39
19 43 40
19 43 40
19 42 39
19 42 39
19 43 40
19 42 39
19 43 40
19 42 39
19 42 39
19 43 40
18 41 38
19 42 39
19 42 39
19 43 40
19 42 39
18 41 39
19 42 39
19 43 40
19 42 39
19 42 39
19 43 40
19 43 39
18 41 38
19 42 39
18 41 38
19 43 39
18 41 38
18 42 39
18 41 38
18 41 39
18 42 39
18 41 38
18 41 38
18 42 39
18 41 39
19 42 39
19 42 39
19 42 39
18 41 38
19 42 39
18 41 38
18 41 38
18 42 39
18 41 38
19 42 39
18 41 38
18 42 39
18 41 39
18 42 39
19 42 39
19 42 39
19 42 39
18 42 39
19 42 39
19 42 39
18 41 38
19 42 39
19 42 39
18 41 38
18 42 39
18 41 38
19 42 39
18 41 38
19 42 39
19 43 40
18 41 38
19 42 39
19 42 39
18 41 38
19 42 39
19 42 40
19 43 40
19 43 40
19 42 39
19 42 39
18 42 39
18 41 38
19 42 39
18 42 39
18 41 38
18 41 38
18 41 39
19 42 39
18 41 38
18 42 39
19 42 39
19 42 39
18 42 39
18 41 38
19 42 39
19 43 40
18 41 38
19 43 40
19 43 40
19 42 39
19 42 39
19 43 40
19 42 39
19 42 39
19 43 40
19 42 39
19 42 39
19 42 39
19 42 39
19 42 39
19 42 39
19 43 40
19 43 40
19 43 39
19 42 39
19 42 39
19 42 39
19 42 39
19 42 39
19 43 40
19 43 40
19 43 40
19 42 39
19 42 39
19 42 39
19 43 40
18 41 38
19 42 39
18 41 39
19 42 39
19 42 39
19 43 40
19 42 39
19 42 39
19 43 40
19 42 39
19 42 39
19 42 39
19 43 40
19 42 39
19 42 39
19 42 39
19 42 39
19 42 39
18 41 38
19 44 40
19 42 39
19 42 39
19 43 40
19 42 39
19 43 40
18 41 39
18 41 39
18 41 38
18 41 38
19 43 40
18 41 39
19 42 39
19 42 39
19 43 40
19 42 40
18 41 38
19 42 39
18 40 38
19 42 39
19 42 39
18 41 38
19 42 39
18 41 38
18 41 38
18 42 39
18 41 39
19 42 39
19 42 39
19 42 39
19 43 40
18 41 38
18 42 39
19 42 39
18 41 38
19 43 40
18 41 38
18 42 39
19 42 39
19 43 40
19 42 39
19 43 39
19 42 39
18 41 38
19 42 39
19 43 40
18 41 38
19 42 39
19 42 39
19 43 40
19 42 39
18 41 38
19 42 39
19 42 39
19 42 39
19 42 39
18 41 38
19 43 40
19 43 40
19 42 39
19 42 39
19 42 39
19 42 39
19 42 39
19 42 39
18 42 39
19 43 40
19 42 39
19 43 40
19 42 39
18 42 39
19 43 40
19 42 39
19 42 39
19 43 40
19 42 39
19 42 39
19 42 39
19 42 39
19 42 39
19 42 39
19 43 40
19 43 40
19 42 39
19 44 40
19 43 40
19 42 39
19 42 39
19 42 39
19 42 39
20 44 41
19 43 40
19 43 40
19 42 39
19 42 39
19 42 39
19 43 40
19 43 40
19 42 39
19 42 39
19 43 39
20 44 41
19 43 40
19 42 39
19 44 40
19 42 39
19 42 39
19 43 40
19 42 39
18 41 39
19 43 40
19 42 39
19 43 40
19 43 40
19 42 39
19 43 40
19 42 39
19 42 39
19 43 40
19 42 39
19 42 39
19 42 39
19 42 39
19 43 39
18 41 38
19 42 39
18 41 38
19 42 39
18 41 38
18 41 38
18 42 39
18 42 39
18 41 38
18 41 38
18 41 39
19 42 39
18 41 38
19 42 39
18 41 38
18 41 39
19 42 39
19 42 39
18 41 38
18 42 39
19 43 40
19 42 39
19 43 40
18 41 38
18 41 38
18 41 38
19 42 39
18 41 38
19 42 39
19 42 39
19 43 40
18 41 38
19 42 39
18 42 39
19 42 39
19 43 40
19 43 40
19 42 39
19 42 39
19 43 40
19 42 39
19 42 39
19 43 40
19 43 40
19 42 39
19 43 40
19 42 39
19 42 39
19 42 39
18 41 39
19 42 39
19 42 39
19 42 39
19 42 39
19 42 39
19 43 40
18 41 38
18 41 38
19 42 39
19 42 39
19 42 39
19 42 39
18 41 38
19 42 39
19 42 39
19 42 39
19 42 39
19 43 40
18 41 38
19 42 39
19 43 40
19 42 39
19 42 39
19 42 39
19 44 41
19 43 40
19 42 39
19 43 40
19 43 40
19 42 39
19 42 39
19 42 39
19 42 39
19 43 39
19 42 39
19 43 40
19 43 39
19 42 39
19 43 40
19 42 39
19 42 39
19 42 39
19 44 40
19 42 39
19 42 39
19 43 39
19 43 40
19 43 40
19 42 39
19 43 40
19 43 40
19 43 40
19 42 39
19 43 40
19 42 39
19 43 40
19 43 39
19 42 39
19 43 40
19 42 39
19 43 40
20 44 41
19 43 39
19 43 40
19 42 39
19 43 40
19 43 40
19 42 39
20 44 41
19 42 39
19 43 40
19 43 40
19 42 39
18 42 39
18 41 39
18 41 38
18 41 39
19 42 39
18 41 38
19 43 40
18 41 38
18 41 38
19 42 39
19 43 40
19 42 39
19 43 40
19 42 39
19 43 40
19 42 39
19 42 40
19 42 39
19 42 39
19 43 40
19 43 40
19 42 39
19 42 39
19 42 39
19 42 39
18 41 38
19 42 39
19 43 39
19 43 40
19 42 39
19 42 39
19 42 39
19 42 39
19 42 39
19 42 39
19 42 39
19 43 40
19 42 39
18 42 38
19 42 39
19 42 39
19 42 39
19 42 39
19 43 40
19 42 39
19 43 40
19 43 40
19 43 40
19 43 40
19 42 39
19 42 39
18 41 38
19 43 40
19 42 39
19 43 39
19 42 39
19 42 39
19 43 40
19 42 39
19 43 40
19 43 40
20 44 40
19 43 40
19 42 39
19 43 39
19 42 39
20 44 41
19 43 40
18 42 39
18 41 38
19 43 40
19 43 39
19 43 40
19 42 39
19 43 39
19 43 40
19 43 40
19 43 40
19 43 40
19 42 39
19 42 39
19 42 39
19 42 39
19 42 39
19 43 40
19 43 40
19 42 39
19 43 40
19 43 40
19 43 40
19 43 40
19 43 39
19 42 39
19 43 40
20 44 40
19 43 40
19 43 40
19 43 40
19 43 40
20 44 41
19 43 40
19 44 40
19 43 40
19 42 38
19 42 39
20 44 41
19 42 39
19 42 39
19 43 40
19 43 40
19 43 40
19 42 39
19 43 40
19 43 40
19 43 39
19 43 40
19 43 40
19 43 40
19 43 40
18 41 38
19 42 39
19 42 39
19 42 39
19 42 39
19 42 39
19 43 40
19 42 39
19 42 39
19 43 40
18 41 38
19 43 40
18 41 38
19 42 39
19 42 39
18 40 38
19 42 39
19 42 39
19 43 40
19 42 39
19 43 40
18 41 38
19 42 39
19 43 40
19 43 40
19 42 39
19 43 40
19 43 40
19 42 39
19 42 39
18 41 38
19 42 39
18 42 39
19 42 39
19 43 39
19 43 40
19 43 39
19 42 39
19 42 39
19 42 39
19 43 39
19 42 39
19 43 40
19 43 39
19 43 40
19 43 39
19 43 40
19 42 39
18 41 38
19 44 40
19 42 39
19 43 40
19 42 39
19 42 39
19 43 40
18 41 38
19 43 40
19 43 39
19 43 40
18 41 38
18 42 39
19 44 40
19 42 39
19 43 40
19 43 40
19 43 39
19 42 39
19 42 39
19 43 39
19 43 40
19 43 39
19 42 39
19 43 40
19 42 39
19 43 39
19 42 39
19 43 39
19 42 39
20 44 41
19 44 40
20 44 40
20 44 41
20 44 41
19 42 39
19 43 40
19 43 40
18 41 38
19 43 39
19 43 40
19 42 38
19 43 40
20 44 41
19 43 40
19 43 39
20 44 41
20 44 40
20 44 41
20 44 40
19 42 39
19 43 40
19 42 39
19 43 40
19 43 40
19 43 40
19 43 40
20 44 41
19 44 40
19 42 39
20 44 40
19 42 39
19 43 40
19 43 40
19 44 40
19 44 40
19 43 40
19 43 40
19 43 40
19 43 40
19 44 40
19 42 39
19 42 39
18 42 39
18 41 38
19 42 39
18 42 39
19 43 40
19 42 39
19 42 39
19 42 39
19 42 39
19 42 39
19 42 39
19 42 39
18 41 38
18 41 38
18 41 38
19 44 41
18 41 38
19 42 39
19 43 40
19 42 39
19 42 39
19 42 39
19 43 40
19 42 39
19 42 39
19 43 39
19 43 40
19 43 40
19 42 39
19 42 39
19 42 39
19 43 40
19 43 40
19 43 40
19 42 39
18 41 38
19 42 39
19 42 39
19 43 40
19 42 39
19 43 40
19 43 40
19 43 40
19 43 39
19 42 39
19 43 40
19 42 39
19 43 40
19 43 39
19 42 39
19 43 40
19 43 40
19 42 39
19 43 40
19 42 39
19 43 40
19 43 39
19 43 40
19 43 40
19 43 40
19 43 39
19 42 39
19 43 40
20 44 41
20 44 40
19 43 40
19 42 39
19 43 40
19 43 40
19 43 40
19 42 39
20 44 41
19 43 39
19 44 40
19 43 40
20 44 40
19 44 40
20 44 41
19 43 40
19 42 39
19 44 40
19 43 40
19 43 40
19 43 40
19 43 39
19 43 39
20 44 41
19 43 39
19 42 39
19 42 39
19 43 40
20 44 40
19 42 39
20 44 41
20 44 40
19 43 40
19 44 40
19 42 39
19 43 40
20 44 41
19 42 39
19 43 40
19 43 40
19 43 39
20 44 41
19 43 40
19 43 40
20 44 40
19 42 39
20 44 41
19 44 40
19 43 40
19 43 40
19 43 40
20 44 41
19 42 39
19 43 40
19 43 40
19 42 39
19 42 39
18 41 38
19 43 40
19 42 39
18 42 39
19 42 39
18 41 39
19 42 39
19 43 40
19 43 40
19 42 39
19 42 39
19 42 39
19 42 39
19 43 39
19 43 40
19 42 39
19 42 39
19 43 40
18 41 38
19 42 39
19 43 40
19 42 39
19 42 39
19 43 40
18 41 38
19 43 40
19 42 39
19 43 40
19 44 40
19 42 39
19 43 39
19 42 39
19 42 39
19 42 39
19 43 40
18 42 39
19 43 40
19 43 40
19 43 40
19 42 39
20 44 41
19 42 39
19 43 40
19 43 40
19 42 39
19 43 40
19 43 40
19 42 39
19 43 40
19 42 39
19 42 39
19 43 40
19 43 39
19 43 40
19 43 40
19 43 40
19 43 40
19 43 40
19 43 40
19 43 40
19 43 39
19 43 40
20 44 40
19 44 40
19 43 40
19 43 40
19 43 40
19 44 40
19 42 39
19 43 40
19 43 40
19 43 40
20 44 41
19 42 39
19 43 40
19 43 40
19 44 40
20 44 41
19 43 40
19 42 39
19 43 40
20 44 40
19 43 40
19 44 40
19 43 40
19 43 40
19 43 40
19 43 40
19 43 39
19 44 40
19 44 40
19 43 40
19 43 39
19 43 40
19 43 40
19 43 40
19 43 40
19 43 40
19 44 40
20 44 40
19 43 40
19 43 40
19 44 40
19 43 40
19 43 40
19 43 40
20 44 40
19 43 40
19 43 40
19 43 40
19 43 40
20 45 41
20 44 41
19 43 40
19 43 40
20 44 40
19 43 40
19 43 40
20 44 41
19 42 39
19 42 39
19 44 41
19 42 39
19 42 39
19 43 40
19 42 39
19 43 39
19 44 41
19 42 39
19 42 39
19 42 39
19 42 39
19 43 40
19 42 39
19 43 40
19 43 40
19 43 40
19 43 40
19 42 39
19 43 40
19 43 40
19 42 39
19 43 39
19 43 40
19 43 39
19 42 39
19 43 40
20 44 41
19 43 40
19 43 40
19 42 39
19 43 40
19 43 39
19 44 41
19 43 40
19 43 40
19 43 40
19 43 40
20 44 40
19 42 39
19 42 39
19 43 40
20 44 41
19 44 40
20 44 41
19 42 39
19 43 40
19 43 40
19 43 40
19 43 40
19 42 39
19 43 39
19 43 40
19 43 40
19 43 40
20 44 41
19 43 39
19 44 40
19 43 40
20 44 41
19 43 40
19 43 40
20 44 40
20 44 41
19 44 40
19 43 40
19 43 40
19 43 40
19 42 39
19 43 39
20 46 42
20 45 41
20 44 41
20 44 40
19 43 40
19 43 40
19 42 39
19 43 40
19 43 39
19 44 40
19 42 38
19 43 39
20 44 41
20 44 40
20 44 40
19 43 40
19 43 40
20 44 41
19 43 40
19 43 40
19 43 40
20 45 41
19 42 39
20 44 40
19 43 40
20 44 40
20 44 40
20 44 41
19 44 40
19 43 40
20 44 41
19 43 40
20 44 41
20 44 41
20 44 40
20 44 41
19 42 39
20 44 40
19 43 40
20 44 40
20 44 41
19 43 40
19 42 39
19 43 39
20 44 41
20 44 40
20 44 41
19 43 40
19 43 40
19 43 40
19 42 39
18 41 38
19 42 39
19 42 39
19 42 39
19 43 40
19 42 39
19 42 39
19 42 39
19 42 38
19 42 39
19 42 39
18 41 38
19 42 39
19 42 39
19 43 40
19 42 39
19 42 39
19 43 40
19 43 40
19 43 40
19 43 40
19 43 40
19 43 40
19 43 40
19 42 39
19 43 39
20 44 41
19 42 39
20 44 40
19 43 40
20 44 41
19 43 40
19 44 40
19 43 40
19 43 40
19 43 40
20 44 41
19 43 40
19 43 40
19 43 40
19 43 40
19 43 40
19 42 39
19 43 40
19 43 40
19 43 40
19 43 39
19 42 39
19 43 40
20 44 41
20 45 41
19 43 40
19 43 40
19 43 40
20 44 41
19 43 40
19 43 39
20 44 40
20 44 41
19 43 40
19 43 40
19 43 40
20 44 41
19 43 40
19 43 40
20 44 41
19 43 40
20 44 41
20 44 41
20 44 41
19 43 40
19 43 40
20 44 41
20 44 40
19 43 40
19 43 40
19 43 39
20 44 40
20 44 41
20 44 40
20 44 40
20 44 41
19 43 40
19 42 39
20 44 41
20 44 40
20 44 41
20 44 41
19 43 40
20 44 40
20 44 41
20 44 40
19 43 40
19 42 39
20 44 41
20 44 41
20 45 41
19 43 40
20 44 41
20 44 41
20 45 41
20 44 41
20 45 41
20 44 40
19 43 40
20 44 40
19 44 40
19 43 40
19 42 39
20 44 40
20 44 40
19 43 40
20 44 41
20 45 41
19 43 40
20 44 41
20 44 40
19 43 40
19 43 40
19 42 39
19 42 39
19 43 40
19 43 40
19 42 39
19 42 39
19 42 39
19 42 39
19 43 39
19 43 40
19 43 39
19 42 39
19 42 39
19 42 39
19 43 39
19 43 40
19 43 40
19 42 39
19 43 39
19 42 39
19 42 39
19 43 40
19 43 40
19 43 40
19 43 40
19 43 39
19 42 39
19 42 39
19 42 39
19 42 39
19 44 40
19 43 40
19 43 40
19 43 40
19 42 39
19 43 40
19 43 39
20 44 41
19 43 39
19 43 39
19 43 40
19 43 40
19 42 39
19 43 40
19 42 39
20 44 40
19 42 39
19 43 39
19 43 39
19 43 40
20 44 40
20 44 40
19 43 39
19 43 40
20 44 40
20 44 41
19 43 40
19 43 40
20 45 41
20 44 40
20 44 41
20 45 41
20 44 40
19 43 40
20 44 41
20 44 40
19 44 40
19 43 40
20 44 40
19 43 40
20 44 41
19 43 40
19 43 39
19 43 40
20 44 40
19 43 40
19 43 40
19 43 40
20 44 40
20 44 40
20 44 40
19 43 40
20 45 41
20 44 41
19 43 40
20 44 41
19 43 40
20 44 40
20 44 41
19 43 40
20 45 41
20 44 40
20 44 40
19 43 40
19 43 40
20 44 41
20 44 41
20 44 40
20 45 42
19 43 39
20 45 41
20 45 41
20 44 41
20 44 41
19 43 40
20 44 41
19 43 40
20 44 41
20 44 40
20 44 41
20 44 41
20 45 42
20 45 41
20 44 41
19 42 39
20 44 41
20 44 40
20 45 41
19 43 39
19 43 40
19 43 40
19 43 39
19 42 39
19 43 40
19 42 39
20 44 41
19 43 39
19 42 39
19 44 40
19 43 40
19 43 39
19 43 40
19 42 39
19 43 40
19 42 39
19 43 40
19 43 40
19 42 39
18 42 38
20 44 41
19 43 40
19 43 39
19 43 40
19 43 40
19 43 40
19 42 39
20 44 41
19 43 40
20 45 41
19 43 40
19 43 39
19 42 39
20 44 40
19 43 40
19 43 40
19 43 40
19 42 39
19 43 40
20 44 41
19 43 39
20 44 41
19 43 40
20 45 41
19 42 39
19 43 40
19 43 40
19 43 40
19 44 40
20 45 41
20 45 41
20 44 41
20 45 42
19 43 40
19 43 40
20 45 41
20 44 40
20 44 40
19 43 40
20 44 41
19 44 40
20 44 40
19 43 40
20 43 40
19 43 40
20 44 41
19 43 40
19 43 40
19 43 40
20 44 41
20 44 41
20 44 40
19 44 40
19 43 40
20 44 41
20 44 41
20 45 41
20 44 41
20 44 41
20 45 42
20 45 41
20 44 40
20 44 40
20 44 41
19 43 40
20 44 40
20 44 40
19 43 39
20 44 40
20 44 40
20 44 41
20 45 41
20 44 41
20 44 40
20 44 40
20 44 40
20 45 41
20 45 41
20 44 41
20 44 41
20 45 42
19 44 40
20 44 40
20 45 41
20 44 41
20 45 41
20 45 41
20 44 41
20 44 40
20 44 40
19 43 40
20 44 40
20 45 41
20 45 41
20 45 41
20 44 41
20 44 40
20 45 41
20 45 41
20 44 41
19 43 40
19 43 40
19 42 39
19 43 40
19 42 39
19 42 39
19 42 39
20 44 41
19 44 40
19 42 39
19 43 39
19 43 40
19 44 40
19 42 39
19 42 39
19 43 40
19 43 39
19 43 40
19 44 40
19 42 39
19 43 40
19 44 40
19 43 40
19 43 40
19 43 40
19 43 40
19 43 39
19 43 40
20 44 41
19 43 40
20 44 41
19 43 40
20 44 41
20 44 41
19 43 40
19 43 40
19 43 40
19 43 39
20 44 40
20 44 41
19 43 40
19 44 40
19 42 39
20 44 41
19 42 39
19 43 40
20 44 40
19 44 40
20 44 41
20 44 40
20 45 41
20 44 40
20 44 40
20 44 41
20 45 41
20 44 40
20 44 40
19 43 40
19 43 40
20 44 40
20 44 41
20 44 41
20 44 40
19 43 39
20 44 41
20 44 40
19 43 40
20 44 41
19 43 40
19 43 40
20 45 42
19 43 40
19 43 40
20 44 41
20 43 40
20 44 41
20 45 42
20 44 40
20 44 41
20 44 40
20 44 40
20 45 41
20 44 41
19 42 39
20 45 41
19 44 40
20 44 40
20 44 41
20 44 41
20 45 41
20 45 41
19 43 40
21 46 42
20 44 41
20 44 41
20 45 41
20 45 42
20 44 41
20 44 41
20 44 40
20 44 40
20 45 41
20 45 41
20 44 40
20 44 41
20 44 40
20 44 41
20 44 41
20 44 40
20 44 41
20 44 40
20 44 41
20 44 41
20 44 41
20 44 41
20 44 40
19 43 39
19 43 40
20 44 40
19 43 40
19 42 39
19 43 40
19 43 40
19 43 39
19 43 40
20 44 40
19 42 39
19 43 40
19 43 39
19 43 40
19 43 40
19 43 40
20 44 40
20 44 41
19 42 39
19 43 40
19 43 40
20 44 41
19 42 39
19 43 40
19 43 40
20 44 41
19 42 39
19 43 39
20 44 40
20 44 41
19 43 40
19 43 40
19 44 40
19 43 40
19 43 40
19 43 40
19 43 40
19 43 39
19 43 40
20 44 41
19 43 40
19 43 40
19 42 39
19 43 40
19 43 40
19 43 40
19 43 40
20 45 41
19 43 40
20 44 40
19 43 40
19 42 39
19 43 40
19 43 40
20 45 42
20 44 40
19 43 40
20 44 40
20 44 41
20 44 41
20 44 40
19 43 40
20 44 41
20 44 41
19 43 40
19 43 40
20 44 41
20 44 40
20 44 40
19 44 40
20 45 42
20 45 41
19 43 40
20 44 41
20 44 41
20 44 41
20 45 41
20 44 41
20 44 41
20 45 41
19 43 40
20 44 40
20 45 41
20 44 40
19 43 40
20 44 40
20 44 41
20 45 41
20 45 42
20 45 42
20 45 41
20 44 41
20 45 41
20 44 40
20 45 42
20 44 40
20 44 40
20 44 40
20 43 40
20 45 41
20 45 41
20 45 41
20 45 41
20 45 41
20 45 41
20 44 40
20 44 40
19 43 40
20 45 41
20 44 40
20 45 41
20 45 41
20 45 41
20 44 41
20 44 40
20 45 41
21 46 42
20 44 40
20 45 41
20 45 42
20 44 41
20 45 41
20 44 41
20 46 42
19 43 40
19 42 39
19 43 40
19 43 40
19 42 39
19 43 40
19 43 39
19 43 40
19 43 40
19 43 40
19 43 40
19 43 39
19 43 40
20 44 41
20 44 40
19 43 39
20 44 41
19 43 40
19 43 40
19 43 40
19 44 40
20 44 41
19 43 40
19 43 40
19 43 40
19 43 40
20 44 40
20 44 41
19 43 40
20 44 40
19 43 40
19 43 40
20 44 41
20 44 40
19 43 39
20 44 41
19 43 40
20 44 41
19 43 39
20 44 41
20 44 41
20 44 40
20 44 40
19 43 40
20 45 41
19 42 39
19 43 40
20 44 40
20 45 41
20 44 40
19 43 40
20 44 40
20 44 40
20 44 41
19 43 40
20 45 41
20 44 41
20 44 41
19 43 40
20 45 42
19 43 40
20 45 42
20 45 41
20 44 41
20 45 41
20 44 40
20 44 40
20 45 42
19 43 40
20 44 41
20 44 40
20 45 41
20 44 40
20 44 41
20 44 41
20 44 40
20 44 40
20 45 41
20 45 41
20 45 41
20 44 41
20 45 41
20 44 41
20 44 41
20 45 41
20 44 40
20 44 41
20 45 41
20 45 41
20 44 41
20 45 41
20 45 42
20 44 41
20 45 41
20 44 41
20 44 41
21 46 42
20 44 40
21 46 42
20 44 40
20 45 41
20 44 41
20 44 41
20 44 40
20 45 41
20 44 40
20 44 40
20 45 41
21 46 42
20 45 41
20 44 40
20 45 41
20 45 41
20 45 41
20 45 41
20 45 41
20 45 41
20 45 41
20 45 42
20 45 41
19 43 40
20 44 40
20 44 41
19 43 39
19 43 40
19 43 40
19 43 39
19 43 40
19 43 40
19 43 40
19 43 40
19 43 40
19 43 40
19 43 40
20 44 40
19 43 40
20 45 41
19 43 40
19 43 40
19 43 40
19 43 40
19 43 40
19 43 39
19 43 40
19 44 40
19 43 40
19 43 40
20 44 41
20 44 41
20 45 41
20 44 40
20 44 40
20 44 41
20 44 41
20 45 41
20 44 41
20 44 40
20 44 41
19 43 40
20 45 41
20 44 41
19 43 40
20 44 41
20 45 41
20 45 41
20 44 41
20 44 40
20 44 40
20 45 42
20 44 41
19 43 40
20 44 40
20 45 41
19 43 40
20 45 41
20 44 40
20 44 41
20 44 41
20 44 40
20 44 41
20 44 41
20 45 41
20 44 41
20 45 41
20 44 40
20 45 42
20 44 41
20 44 40
20 44 41
20 45 42
20 44 41
20 45 41
20 44 41
20 44 40
20 44 41
20 44 41
20 43 40
20 45 42
20 44 40
20 45 41
20 44 41
20 44 40
20 45 41
20 44 40
20 44 41
20 44 41
20 45 41
20 45 41
20 45 41
20 45 41
20 44 40
20 45 42
20 45 42
20 45 42
20 45 42
20 45 42
20 45 42
20 45 41
20 45 42
20 44 40
20 45 41
20 45 41
20 44 40
20 45 41
20 45 41
20 44 41
20 44 40
20 45 41
20 45 41
20 45 41
21 46 42
20 44 40
20 44 41
20 46 42
21 46 42
20 45 42
20 45 41
20 45 41
20 45 42
20 44 40
19 42 39
19 43 39
19 43 40
20 44 41
19 43 40
19 43 40
19 43 39
19 43 39
19 43 40
20 44 40
20 44 41
19 43 39
20 44 40
20 44 40
19 44 40
20 44 40
20 44 41
20 44 40
20 44 40
19 43 40
19 43 40
19 42 39
20 44 41
20 45 41
20 44 41
20 44 41
20 44 40
20 45 41
20 45 41
20 45 42
20 44 40
19 43 40
19 43 40
20 44 41
20 45 42
20 44 41
20 44 41
20 44 40
20 44 41
20 44 41
19 43 40
19 43 40
20 45 41
20 45 41
20 44 40
20 44 40
20 45 41
20 44 41
19 43 40
19 43 39
20 45 41
20 44 40
20 45 42
20 44 41
20 45 41
20 44 41
20 44 40
20 44 40
19 43 40
20 45 41
20 44 41
20 45 42
20 44 41
20 44 40
20 44 41
20 44 40
20 44 41
20 45 41
20 44 40
20 44 41
20 45 41
20 45 41
20 45 41
20 45 41
20 45 41
20 44 41
20 45 41
20 44 40
20 44 41
20 45 41
20 44 40
20 44 40
20 45 41
20 45 41
20 45 41
20 44 41
20 44 40
20 45 41
20 45 41
20 44 40
20 44 41
20 44 40
20 44 41
20 45 41
21 46 43
20 44 40
20 44 41
21 46 42
20 45 41
20 44 40
20 45 41
21 46 42
20 44 40
20 45 41
20 44 40
20 45 41
20 45 41
20 45 41
21 46 42
21 46 42
20 45 42
20 45 41
20 44 41
21 46 42
20 45 41
20 44 41
20 45 41
20 45 41
20 45 41
20 44 41
19 43 40
20 44 41
20 44 41
20 44 41
20 44 41
19 43 39
19 42 39
20 44 40
20 44 41
20 44 40
19 43 40
19 43 40
19 43 40
20 44 41
19 43 40
19 43 40
20 44 41
20 44 40
20 44 40
20 44 40
19 44 40
20 44 41
19 43 40
20 44 40
20 44 40
19 43 40
20 45 42
19 43 40
19 43 40
20 45 41
20 44 40
20 45 42
20 45 41
20 44 40
19 43 40
20 44 41
19 43 40
20 46 42
20 45 41
21 46 42
19 43 40
20 44 40
20 44 41
19 43 40
20 44 41
20 45 41
20 44 40
20 44 40
19 43 40
20 44 40
20 45 41
20 44 41
20 45 41
20 45 42
20 44 41
20 44 41
20 44 40
20 44 41
21 46 42
19 43 39
20 44 41
20 44 41
20 44 40
20 44 41
20 44 40
20 45 42
20 45 41
20 44 41
20 44 41
20 45 41
20 44 41
20 44 41
20 44 41
20 45 41
20 44 40
20 45 41
20 44 41
20 45 42
20 45 41
20 44 41
20 45 42
20 45 41
21 46 42
20 45 41
20 44 41
20 45 41
20 43 40
20 45 41
21 46 42
20 45 41
20 45 41
20 45 41
20 45 41
20 44 41
20 45 41
20 44 40
21 46 42
20 44 41
20 45 41
20 45 41
20 45 41
20 45 41
20 45 41
20 45 42
21 46 42
20 45 41
20 45 41
21 46 42
20 44 41
20 44 41
20 44 41
20 45 42
20 45 42
21 46 42
21 46 42
20 45 41
20 45 42
20 45 41
20 45 41
20 45 41
20 44 41
20 44 41
19 43 40
20 44 40
20 44 40
19 43 40
20 44 40
20 44 40
20 44 40
20 44 40
20 44 41
20 44 40
20 44 41
20 44 41
19 44 40
19 43 40
19 43 40
19 43 40
19 43 40
20 44 41
19 43 39
20 44 41
19 43 39
19 44 40
20 44 40
19 43 40
20 44 40
19 43 40
20 44 41
20 45 41
20 44 41
20 44 40
20 44 41
20 45 41
20 45 41
20 44 40
19 43 40
20 45 41
20 44 41
20 43 40
20 44 41
19 43 39
20 44 41
20 44 41
20 44 40
20 45 42
19 43 40
19 43 40
20 44 41
20 45 41
20 44 41
20 44 40
20 44 41
20 44 41
20 44 41
20 44 40
20 45 41
20 45 41
19 43 40
20 45 41
20 45 42
20 44 40
20 45 41
20 44 41
20 44 41
20 44 40
20 45 41
20 44 41
21 46 43
20 43 40
20 44 41
20 44 41
20 45 41
20 45 41
21 46 42
20 45 41
20 45 41
20 45 41
21 46 43
20 45 41
20 45 42
20 45 42
21 46 42
20 45 41
20 45 41
20 45 41
20 44 40
20 45 41
21 46 42
20 44 40
20 45 41
20 45 41
20 45 41
20 45 41
21 46 42
20 45 41
21 47 43
20 45 41
21 46 43
21 46 42
20 45 41
21 46 42
20 44 41
21 46 42
20 45 41
20 45 41
21 46 42
21 47 43
21 46 42
20 45 41
20 45 41
21 46 42
20 45 42
21 46 42
20 44 41
20 45 41
20 45 41
20 44 41
20 45 41
21 46 42
19 43 40
19 43 40
19 43 40
19 42 39
20 44 40
20 44 40
19 43 40
19 42 39
20 44 40
20 44 41
19 43 40
20 44 40
19 43 40
20 45 41
20 44 40
20 44 40
19 43 39
20 44 40
20 44 40
20 44 41
20 44 41
20 43 40
20 44 40
20 45 41
20 44 40
20 45 41
20 44 40
20 44 41
19 43 40
20 45 41
19 43 40
19 43 40
20 44 41
20 45 41
20 45 41
20 44 41
20 44 40
20 45 41
20 45 41
20 45 42
20 45 41
20 44 40
20 45 41
20 44 40
20 45 41
20 46 42
20 44 41
20 44 41
20 45 41
19 43 39
21 46 42
20 45 41
20 45 41
20 44 41
20 45 41
20 45 41
20 44 41
20 45 41
20 45 42
21 46 42
21 46 42
20 45 41
19 43 40
20 44 41
20 44 41
20 45 42
20 44 41
20 45 41
21 46 42
20 45 41
20 44 41
20 45 41
20 44 41
20 45 41
21 46 42
20 45 41
21 46 42
20 45 41
20 45 41
20 45 42
20 45 41
21 46 42
20 45 41
20 45 41
20 45 41
21 46 42
20 45 41
20 45 42
20 45 41
20 44 40
20 45 41
20 44 40
20 45 42
20 45 42
21 45 41
20 45 41
21 46 43
20 45 41
20 45 41
20 45 41
20 45 41
20 44 41
20 44 40
20 44 41
20 45 41
21 46 42
20 45 41
20 45 41
21 45 42
21 46 42
20 45 41
21 46 42
21 46 42
21 46 42
21 46 42
21 46 42
21 46 42
20 45 41
21 46 42
21 46 42
19 43 40
19 43 40
19 43 40
20 44 40
19 43 40
19 43 39
19 43 40
19 43 40
20 45 41
20 45 41
20 44 40
20 45 41
19 43 40
19 43 40
20 44 41
20 44 40
19 44 40
20 44 40
20 45 42
19 43 40
20 45 42
20 44 41
20 44 40
20 44 40
20 44 41
20 44 41
20 44 40
20 44 41
20 45 41
20 45 41
20 44 40
20 45 41
20 45 42
20 44 41
19 43 40
20 45 41
20 44 41
20 45 41
20 45 41
20 45 41
20 45 41
20 45 41
20 44 41
20 45 41
20 45 41
20 45 41
21 46 42
20 44 41
20 45 41
20 45 42
20 44 40
20 45 42
20 44 41
20 44 40
20 45 41
20 46 42
20 44 41
20 44 41
20 45 41
20 45 41
21 46 42
20 45 41
20 44 41
20 45 41
20 46 42
20 45 41
20 45 41
20 44 40
20 44 40
20 46 42
21 46 42
20 44 40
21 46 42
21 46 42
21 46 42
20 44 41
21 46 42
21 46 42
20 44 41
20 45 41
20 45 41
20 45 42
20 45 41
21 45 42
20 45 42
20 44 41
21 45 42
20 45 42
21 46 42
21 45 42
21 46 42
20 44 40
21 46 42
21 46 42
20 45 41
20 45 41
20 45 41
20 45 41
21 46 42
21 46 42
21 46 42
21 45 42
21 45 42
21 46 42
21 46 42
20 45 41
20 45 41
20 45 41
21 45 42
21 46 42
21 46 42
21 46 42
21 46 42
21 46 42
20 44 40
21 46 42
21 46 42
21 47 43
20 45 41
21 46 42
20 45 41
19 43 40
20 44 40
20 44 41
20 44 41
20 44 40
20 44 41
19 43 40
20 44 40
19 43 40
20 44 41
20 45 42
20 44 40
20 44 40
19 43 40
20 45 41
20 44 40
20 45 41
20 45 42
20 44 40
20 45 41
19 43 40
19 43 40
20 44 41
20 44 40
20 44 41
20 44 41
20 44 41
20 45 41
20 45 41
20 44 40
20 45 41
20 44 40
20 44 40
20 44 41
20 44 41
20 44 41
20 45 41
20 44 40
20 45 41
20 44 40
20 44 40
20 45 41
20 44 41
20 45 41
20 45 41
20 44 41
20 44 41
20 44 41
20 44 40
20 44 41
20 44 40
20 45 41
20 45 41
20 45 41
20 45 41
20 44 41
20 45 41
20 44 40
20 44 41
20 44 41
20 44 40
20 45 42
20 44 41
20 45 41
20 45 41
20 45 42
21 46 42
20 45 42
20 45 42
20 45 41
20 45 41
20 45 41
20 44 41
21 46 42
21 46 42
21 46 42
21 46 42
20 45 41
20 45 41
20 44 41
21 46 42
21 46 42
21 46 42
20 45 41
21 46 42
21 46 42
21 46 42
20 45 42
21 45 42
21 46 42
21 45 42
21 46 42
21 46 42
21 47 43
20 45 41
20 44 40
21 46 42
20 45 41
20 45 41
20 45 41
21 46 42
20 45 41
20 45 42
21 46 42
21 46 42
20 45 41
20 44 41
21 46 43
20 45 41
20 45 41
20 45 41
21 45 42
21 46 42
20 44 41
21 47 43
21 46 42
21 46 42
21 46 42
21 46 42
20 44 40
20 44 40
20 45 41
20 44 41
19 43 39
20 44 41
20 44 41
20 44 41
20 44 41
19 43 40
20 44 41
20 45 41
20 44 41
20 44 40
20 44 41
20 44 40
20 44 40
20 45 41
19 43 40
20 44 41
20 45 41
20 44 41
20 45 41
20 44 40
20 45 41
20 44 41
19 43 40
20 44 41
20 44 41
20 44 40
20 44 40
20 45 41
20 44 40
19 43 40
20 44 41
20 44 41
20 44 41
21 46 42
20 45 41
20 45 41
20 45 41
20 44 40
20 45 41
20 44 40
20 45 41
20 44 40
20 44 41
20 45 41
21 46 42
20 44 40
21 46 42
19 43 40
20 45 41
20 45 41
21 46 42
21 46 42
20 44 40
20 44 41
20 45 41
21 47 43
20 45 41
20 44 41
20 45 41
20 45 42
20 45 41
20 45 41
20 45 41
20 45 41
21 46 42
21 46 42
20 45 41
20 45 41
20 45 41
20 45 42
21 46 42
20 45 41
21 46 42
21 46 42
21 46 42
20 45 41
21 46 42
21 46 42
20 45 41
20 45 41
21 46 42
21 46 42
21 46 42
21 46 42
20 45 41
20 45 41
20 45 41
21 46 42
20 45 41
21 46 42
21 46 42
21 47 43
21 46 42
21 46 42
21 46 42
21 46 42
21 46 42
21 46 42
20 45 41
21 46 42
21 47 43
21 46 42
20 45 42
20 45 42
21 46 42
21 46 42
20 45 41
21 47 43
20 45 41
21 45 41
20 45 41
21 46 42
21 46 42
21 46 42
21 46 42
21 46 42
19 43 40
19 43 40
19 43 40
20 44 40
20 44 41
20 44 41
20 45 41
20 44 41
20 44 41
20 44 40
19 43 39
20 45 41
20 44 41
20 44 41
20 45 42
20 44 41
20 45 42
20 45 41
20 44 41
20 46 42
20 45 41
20 44 41
20 44 40
20 45 41
20 44 41
20 43 40
20 45 41
20 45 41
20 44 41
20 44 41
20 45 42
19 43 40
20 45 41
20 44 40
20 45 41
20 45 41
20 45 41
20 44 41
20 45 42
20 44 40
20 45 41
20 45 41
20 45 41
20 45 42
20 44 41
20 44 40
21 46 42
20 44 41
20 44 41
20 44 41
20 45 41
20 44 41
21 46 42
21 46 42
20 43 40
20 45 42
21 46 42
20 45 41
20 44 40
20 45 41
21 46 42
20 44 40
20 45 41
21 46 42
20 44 40
21 46 42
20 45 42
20 44 41
21 47 43
20 44 41
21 46 42
20 44 41
21 46 42
21 46 42
21 46 43
20 44 41
21 46 42
20 45 41
21 46 42
21 46 42
21 46 42
21 46 42
21 46 43
20 45 41
20 45 42
21 46 42
21 46 42
21 45 42
20 45 42
21 46 42
20 45 41
21 46 42
21 46 42
21 46 42
21 47 43
21 47 43
21 46 42
21 46 42
21 45 42
20 45 41
21 45 41
21 46 42
20 45 41
21 46 42
21 46 42
21 46 42
21 47 43
21 46 42
20 45 41
21 47 43
21 47 43
21 46 42
21 47 43
21 46 42
21 46 42
21 46 42
20 45 41
21 46 42
21 46 42
21 46 42
20 44 41
19 43 40
20 44 41
19 43 40
20 44 41
20 45 42
20 44 40
20 44 41
20 44 40
20 44 41
20 44 41
20 44 41
20 45 42
20 45 41
21 46 42
20 44 41
20 44 40
20 44 41
20 46 42
20 45 41
20 44 40
20 45 42
21 46 42
20 44 41
20 44 40
20 45 41
20 44 41
20 44 41
20 45 41
20 44 40
20 44 41
20 45 41
20 45 41
20 45 42
21 46 43
20 45 41
21 46 42
20 45 42
20 44 40
20 45 41
20 45 41
20 45 42
21 46 43
21 46 42
20 45 41
20 45 41
21 46 42
21 46 42
20 45 41
20 44 41
20 45 41
21 46 42
20 45 41
20 45 42
20 45 41
21 46 42
20 44 41
20 45 41
20 45 41
21 46 42
20 45 41
20 45 41
20 45 41
20 45 41
20 44 41
21 46 42
21 46 42
20 45 41
21 46 42
20 45 41
21 46 42
20 45 41
20 45 42
20 45 41
21 46 42
21 46 42
20 45 41
21 46 42
21 46 42
21 47 43
20 45 41
20 45 41
21 46 42
21 46 42
21 46 42
21 46 42
21 47 43
21 47 43
21 47 43
21 47 43
21 46 42
20 45 42
21 46 42
20 45 41
21 45 41
21 46 42
21 45 41
20 45 41
21 46 42
21 46 42
21 46 42
20 45 41
21 46 42
21 47 43
21 46 42
21 47 43
21 46 42
20 45 41
21 47 43
21 46 42
21 46 42
22 48 43
20 45 41
21 47 43
21 46 42
21 47 43
21 47 43
21 46 42
21 46 42
21 46 42
20 44 40
20 45 41
20 44 41
19 43 40
20 45 41
20 45 42
20 45 41
20 45 41
20 45 41
20 44 40
20 44 41
20 44 40
20 45 41
19 43 40
20 44 40
20 45 41
20 45 41
20 44 40
20 45 41
20 45 41
20 44 40
19 43 40
20 44 40
20 44 41
20 45 41
20 45 41
20 44 41
20 45 41
20 44 41
20 45 41
20 44 41
20 44 41
20 45 41
20 45 42
20 45 41
20 45 41
20 45 42
20 44 40
20 45 41
20 44 41
20 45 41
20 44 40
20 45 41
20 44 41
20 45 41
20 45 41
21 46 42
20 45 41
21 46 42
21 46 42
21 46 42
20 45 41
20 45 41
20 45 42
20 45 41
21 46 42
20 44 40
20 45 42
20 45 41
20 45 41
21 46 42
21 46 42
21 46 42
20 45 42
20 44 41
21 46 42
21 45 42
21 46 42
20 45 42
20 45 41
21 46 42
21 46 42
20 45 42
20 45 41
21 46 42
20 45 41
21 46 42
21 46 42
21 46 43
20 45 42
21 46 42
21 46 42
21 46 42
21 47 43
21 45 42
20 45 41
21 46 42
21 46 42
20 45 42
21 46 42
21 47 43
20 45 41
21 47 43
20 45 41
21 46 42
22 48 44
21 46 42
21 46 42
21 47 43
20 45 41
22 48 44
21 46 42
21 46 42
20 45 41
21 45 41
21 46 42
21 47 43
21 46 42
21 46 42
21 47 43
21 47 43
21 47 43
21 47 43
21 46 42
21 46 42
21 47 42
21 46 42
21 46 42
21 46 42
20 45 41
20 45 41
20 44 40
20 44 41
19 43 40
20 45 41
20 44 41
20 44 41
20 45 41
20 45 42
20 45 42
20 44 40
20 45 41
20 44 41
20 45 41
20 45 42
20 45 41
20 44 40
20 45 42
20 44 41
20 45 41
20 45 42
20 45 41
20 45 41
20 44 41
20 45 41
20 45 41
20 45 41
20 45 41
20 45 41
20 45 41
20 45 41
20 44 40
20 45 42
20 45 41
20 45 42
20 45 41
21 46 42
20 45 41
20 44 41
20 45 41
20 45 41
20 45 41
20 45 41
20 45 41
20 45 41
21 46 42
20 45 41
20 45 41
20 45 42
20 45 41
21 45 42
21 45 42
20 45 41
21 46 42
20 45 42
21 46 42
21 46 42
20 45 41
21 46 42
20 45 41
21 46 42
21 46 42
21 47 43
21 46 42
20 45 41
21 46 42
21 46 42
21 47 43
20 45 41
21 47 43
20 45 41
21 46 42
20 45 41
20 45 41
21 46 42
21 46 42
21 46 42
20 45 41
21 46 42
21 46 42
20 45 41
21 46 42
20 45 42
21 47 43
21 46 42
21 45 42
21 46 42
21 46 42
21 46 42
21 46 42
21 47 43
21 47 43
21 46 42
21 46 42
21 47 43
21 46 42
21 47 43
20 45 41
21 47 43
21 47 43
21 46 42
20 44 40
21 47 43
20 45 41
21 47 43
21 45 41
21 46 42
21 46 42
21 47 43
21 46 42
21 47 43
21 46 42
21 46 42
21 46 42
21 47 43
21 47 43
22 47 43
21 47 43
21 47 43
21 46 42
20 45 41
20 44 41
20 44 40
20 44 41
20 45 41
20 45 41
20 44 41
20 45 41
20 45 41
20 45 41
20 45 41
20 44 41
20 44 41
20 44 41
20 44 41
20 44 41
20 45 42
20 45 41
20 43 40
20 45 41
20 44 40
20 45 41
20 45 41
20 44 40
20 45 41
20 44 40
20 45 41
20 45 41
20 45 41
20 45 41
20 45 41
20 45 41
20 45 41
21 46 42
21 46 42
21 46 42
20 45 41
19 43 40
20 44 41
20 45 41
20 45 41
20 45 41
20 45 42
20 44 41
20 45 41
21 46 42
21 46 42
20 45 42
21 46 42
20 45 41
21 46 42
20 44 41
20 45 41
21 46 42
21 46 42
20 45 41
20 45 41
21 46 42
20 45 42
20 45 41
21 47 43
21 46 42
20 45 41
21 46 42
20 45 42
21 46 42
21 46 43
21 46 42
20 45 41
20 45 41
21 45 41
20 45 42
21 46 42
21 46 42
21 47 43
21 47 43
21 46 42
20 45 41
21 46 42
21 46 42
21 46 42
21 46 42
21 47 43
21 46 42
21 46 42
21 46 42
21 46 42
21 47 43
22 48 43
21 46 42
21 47 43
21 46 42
21 45 41
21 46 42
21 47 43
21 46 42
22 48 43
21 45 41
21 47 43
21 46 42
21 47 43
21 47 43
21 47 42
21 47 43
21 47 43
21 46 42
21 46 41
21 47 43
21 47 43
21 46 42
21 46 42
21 46 42
22 48 44
21 46 42
21 47 43
21 47 43
21 46 42
21 45 41
22 47 43
21 46 42
19 43 40
20 45 41
20 44 41
20 45 42
20 45 41
20 44 40
20 44 41
19 43 40
21 46 42
20 45 41
20 45 42
20 45 41
20 44 41
20 45 41
20 45 42
20 45 41
20 45 41
20 44 41
20 45 41
20 44 41
20 45 41
20 45 41
20 45 41
20 45 41
20 45 41
21 46 42
20 45 41
21 46 42
21 46 42
20 45 41
20 45 41
20 44 41
20 43 40
20 45 41
20 45 41
20 45 41
20 45 41
20 45 41
20 44 41
20 45 42
20 44 40
21 46 42
20 44 41
20 45 41
20 45 41
20 45 41
20 45 41
20 45 41
21 46 42
21 46 42
21 46 42
21 47 43
20 45 41
21 46 42
21 46 42
21 47 43
21 47 43
21 46 42
20 45 41
20 45 42
20 45 41
21 46 42
21 47 43
21 46 42
21 47 43
20 45 41
21 47 43
21 46 42
21 46 42
21 45 41
20 45 41
21 46 42
21 46 42
21 46 42
21 46 42
22 48 44
20 45 41
21 46 42
21 46 42
20 45 41
21 46 42
21 47 43
21 46 42
21 47 43
21 46 42
21 47 43
21 46 42
21 46 42
21 46 42
21 46 42
21 46 42
21 47 43
20 45 41
21 47 43
21 46 42
21 46 42
21 46 42
21 47 43
21 46 42
21 47 43
21 46 42
21 46 42
21 46 42
21 46 42
21 46 42
21 46 42
21 46 42
22 48 43
21 46 42
20 45 41
21 47 43
21 47 43
21 47 43
21 47 43
21 46 42
21 47 43
21 46 42
21 46 42
21 46 42
21 46 42
20 44 41
19 43 40
19 43 39
20 44 40
20 44 41
20 45 41
20 45 41
20 45 42
20 44 41
20 44 40
20 45 41
20 44 41
20 45 41
20 44 40
20 45 41
20 44 41
21 46 42
20 45 42
20 44 41
20 45 42
20 44 40
20 44 41
20 44 41
20 45 41
20 45 41
20 45 42
20 45 41
20 45 41
20 44 40
21 46 42
20 45 41
20 45 42
20 45 41
20 45 41
20 45 41
20 44 40
20 45 41
21 46 42
21 45 42
20 45 41
20 45 42
21 46 42
20 45 41
20 44 40
21 46 42
20 45 41
20 45 42
20 46 42
20 45 41
21 46 42
20 45 41
21 46 43
20 45 41
21 46 42
21 46 42
20 45 41
20 45 41
20 45 41
20 45 41
21 45 42
21 46 42
21 46 42
20 45 42
21 47 43
20 44 40
21 46 42
20 45 41
20 45 41
21 46 42
21 46 42
21 46 42
21 45 41
21 46 42
21 45 42
20 45 41
21 46 42
22 48 44
20 45 41
21 46 42
21 46 42
21 46 42
21 46 42
21 46 42
21 46 42
20 45 41
21 47 43
22 48 43
21 46 42
21 47 43
21 47 43
21 47 43
21 46 42
22 48 43
21 47 43
21 47 43
21 47 43
21 46 42
21 46 42
21 46 42
22 48 44
21 46 42
21 46 42
22 48 44
21 47 43
21 46 42
21 46 42
22 48 43
21 47 43
22 48 44
21 46 42
21 46 42
21 46 42
21 46 42
21 47 43
21 47 43
21 47 42
21 46 42
21 47 43
21 47 43
22 48 43
20 44 41
20 44 41
20 44 40
20 44 41
20 45 41
20 45 42
20 44 40
20 44 40
20 45 41
20 45 41
21 46 42
20 44 41
20 44 41
20 45 41
20 45 41
20 44 41
20 44 40
21 46 42
20 45 41
21 46 42
20 45 42
20 45 42
20 45 42
21 46 42
21 45 42
21 46 42
20 45 41
20 45 41
20 45 41
20 45 41
21 46 42
20 45 41
20 44 40
21 46 42
20 45 41
20 45 42
20 45 41
21 46 42
21 46 42
20 45 41
21 46 42
20 45 41
20 45 42
20 45 41
21 46 42
21 46 42
20 45 41
21 46 43
20 44 41
21 46 42
21 46 42
20 45 41
21 46 42
21 46 42
20 45 41
21 45 42
21 46 42
20 44 41
20 45 41
21 46 42
20 45 41
21 47 43
21 46 42
21 46 42
21 46 42
21 46 42
21 46 42
21 46 42
21 46 42
21 46 42
21 47 42
21 46 42
21 46 42
21 47 43
21 46 42
21 47 43
21 46 42
21 46 42
21 47 43
21 46 42
21 47 43
21 46 42
20 45 42
21 46 42
21 46 42
21 47 43
21 46 42
21 46 42
21 47 42
21 46 42
21 46 42
22 48 44
21 46 42
21 46 42
20 44 40
21 47 43
22 48 44
21 46 42
21 47 43
21 47 43
21 47 43
21 46 42
22 47 43
21 47 43
21 47 43
21 47 43
21 47 43
21 47 42
21 47 42
21 46 42
21 46 42
21 47 43
22 48 43
22 48 44
21 46 42
21 46 42
21 47 43
21 47 43
21 47 43
22 48 43
20 44 41
20 45 41
20 45 41
20 45 41
20 45 41
20 45 41
20 44 40
20 44 41
20 45 41
20 45 41
20 45 41
20 45 41
20 45 41
20 45 41
20 44 40
20 45 41
20 44 41
20 44 40
20 44 41
20 45 42
21 46 42
20 45 42
20 44 41
20 46 42
20 45 41
20 45 41
20 45 41
20 45 41
21 46 42
20 45 41
20 45 41
20 45 41
20 45 41
21 46 42
20 45 41
20 45 42
20 45 41
21 46 42
20 44 40
20 45 42
21 46 42
21 46 42
21 46 42
20 45 41
21 46 42
21 46 42
21 46 42
20 45 42
21 46 42
21 47 43
21 46 42
21 46 42
21 45 42
21 46 42
21 47 43
21 46 42
20 45 41
21 46 42
21 46 42
21 46 42
20 45 41
21 46 42
21 46 42
21 46 42
21 46 42
21 46 43
22 48 44
21 47 43
21 46 42
21 47 43
21 46 42
21 46 42
21 46 42
21 47 43
21 46 42
20 45 41
21 46 42
21 47 43
22 47 43
21 46 42
21 47 43
21 46 42
21 46 42
21 47 43
22 48 43
21 47 43
21 46 42
21 47 43
21 47 43
21 47 43
21 47 42
21 45 42
21 47 43
21 47 43
21 47 43
21 47 43
21 47 43
21 47 43
21 46 42
22 48 43
21 47 42
22 48 44
21 47 43
21 47 42
21 47 43
21 47 43
21 47 43
22 48 43
21 47 42
21 47 43
22 47 43
21 47 43
22 48 44
22 47 43
21 47 43
21 47 43
22 48 43
21 47 43
21 46 42
21 47 43
20 44 40
20 44 41
20 44 40
20 44 40
20 44 41
20 45 41
20 45 41
20 44 41
20 45 41
20 44 41
20 45 42
20 45 42
20 44 41
20 45 41
20 45 41
21 46 42
20 45 41
20 44 41
20 45 42
20 45 41
20 45 41
20 45 42
21 46 42
20 45 41
20 45 41
20 45 42
20 45 41
20 45 41
21 46 42
21 46 42
21 47 43
21 46 42
21 46 42
20 45 41
20 45 42
20 44 41
21 46 42
21 47 43
20 45 41
20 45 41
21 46 42
21 46 42
21 45 42
21 46 42
21 47 43
20 45 41
20 45 41
21 46 42
20 45 41
21 46 42
21 46 42
21 46 42
21 47 43
21 46 42
21 46 42
21 47 43
20 45 41
21 46 42
20 45 41
20 45 41
20 45 41
21 47 43
21 46 42
21 46 42
21 45 41
21 47 43
21 47 43
21 47 43
21 46 42
21 47 43
21 47 43
21 46 42
21 46 42
21 46 42
21 46 42
21 46 42
21 47 42
21 47 43
21 46 42
21 47 43
22 48 44
21 47 43
21 46 42
21 46 42
21 46 42
21 47 43
21 46 42
21 47 43
22 48 44
21 47 43
22 47 43
21 47 43
21 47 43
21 46 42
21 47 43
21 46 42
22 47 43
21 47 43
21 47 43
21 47 43
22 47 43
21 47 43
22 48 44
21 47 43
21 47 43
21 46 42
21 46 42
21 46 42
22 47 43
22 48 44
21 47 42
21 47 43
21 47 43
21 47 43
21 47 43
21 47 43
22 47 43
22 48 44
22 48 44
21 46 42
20 45 41
20 44 41
20 44 40
20 44 41
20 45 42
21 46 42
20 45 41
20 45 41
20 44 41
21 46 42
20 45 42
20 45 41
20 45 41
20 45 41
20 45 41
20 44 41
20 45 41
20 45 41
21 46 42
20 45 41
21 46 43
21 46 42
20 45 41
20 45 41
20 44 41
21 46 42
20 45 41
20 45 41
21 46 42
21 47 43
21 46 42
20 45 41
21 46 42
20 45 41
21 46 43
22 48 44
21 46 42
21 46 43
20 45 41
21 46 42
20 45 41
21 47 43
21 47 43
21 46 42
20 45 42
21 46 42
21 46 42
20 45 42
21 46 42
20 45 41
22 48 44
21 46 42
21 47 43
21 47 43
21 46 42
21 46 42
21 46 42
21 45 41
21 47 43
21 46 42
20 45 41
21 45 42
21 46 42
21 47 43
21 47 43
21 47 42
21 47 43
21 47 43
21 46 42
21 47 43
20 45 41
21 46 42
21 47 42
21 46 42
21 47 43
21 47 43
21 47 43
21 47 43
22 48 43
21 46 42
21 47 43
21 47 43
21 47 43
21 46 42
22 48 44
21 46 42
21 46 42
21 46 42
21 46 42
22 48 43
21 47 43
21 47 43
22 48 44
22 48 43
22 48 44
21 46 42
21 47 43
21 46 42
21 46 42
21 47 42
22 48 43
21 47 43
22 48 43
22 48 43
22 48 43
22 47 43
22 48 44
21 46 42
22 48 43
22 48 44
21 46 42
21 46 42
22 48 44
21 47 43
22 48 43
22 48 43
21 46 42
22 47 43
21 47 42
21 47 43
20 44 41
20 45 41
20 45 41
20 45 41
20 45 41
21 46 42
20 45 41
20 45 41
21 46 42
20 45 42
20 44 41
21 46 42
20 45 41
20 43 40
21 46 42
21 46 43
21 46 42
20 44 41
20 45 41
20 44 40
20 45 41
20 45 42
20 45 41
21 46 42
20 45 42
21 46 42
20 45 41
20 44 40
21 46 42
20 45 41
21 46 42
21 47 43
20 45 41
20 45 41
21 45 42
21 46 42
21 46 42
21 46 42
21 47 43
21 46 42
21 46 42
21 46 42
21 47 43
22 48 44
20 45 41
21 46 42
20 45 41
21 47 43
21 47 43
21 47 43
21 46 42
21 46 42
21 46 42
21 46 42
21 46 42
20 45 41
21 46 42
20 45 41
21 47 43
21 46 42
21 46 42
22 48 44
21 46 42
21 47 43
21 47 43
21 46 42
21 47 43
21 47 43
21 46 42
21 46 42
21 47 43
21 47 43
21 46 42
21 46 42
21 47 43
21 47 43
21 46 42
21 46 42
21 47 43
21 46 42
21 46 42
21 47 43
21 46 42
21 46 42
21 47 42
22 48 44
21 47 42
21 47 43
22 47 43
22 48 43
21 47 43
21 47 43
21 47 43
21 47 43
22 48 44
22 49 44
21 47 43
22 48 43
21 46 42
21 45 41
21 47 43
21 47 43
22 49 44
22 48 44
22 47 43
22 48 44
21 46 42
21 47 43
21 47 43
22 48 44
22 47 43
21 47 43
21 47 43
21 47 42
21 47 42
22 49 44
21 47 43
22 48 43
22 49 44
22 48 43
20 44 41
20 44 41
21 46 42
20 44 40
20 44 41
20 44 41
20 44 41
20 45 42
21 46 42
20 45 41
20 44 40
20 45 41
21 46 42
21 46 42
21 46 42
20 45 41
21 46 42
20 45 41
20 45 41
21 46 42
20 45 41
21 46 42
21 45 42
20 45 41
20 45 41
21 46 42
21 45 41
20 45 41
21 46 43
21 46 42
20 44 41
21 46 42
21 46 42
21 46 42
20 45 41
21 46 42
21 46 42
21 46 42
20 45 41
21 47 43
21 47 43
21 46 42
21 47 43
21 47 43
21 46 42
21 46 42
21 47 43
21 47 43
21 46 42
21 45 41
21 45 42
20 45 41
21 46 43
21 46 42
22 48 43
21 47 43
21 47 43
21 46 42
21 46 42
21 46 42
21 46 42
21 46 42
21 46 42
22 48 44
21 46 42
21 47 43
21 46 42
21 46 42
21 46 42
21 47 43
22 49 44
21 47 43
21 47 43
21 47 43
21 46 42
22 47 43
21 47 43
21 47 43
21 47 42
21 46 42
21 47 43
21 47 43
21 47 43
21 47 43
21 47 43
21 47 43
21 47 42
22 47 43
21 46 42
21 46 42
22 48 44
22 48 43
21 47 42
21 47 43
21 45 41
22 49 45
21 46 42
21 46 42
22 48 44
21 46 42
22 49 44
21 47 43
21 47 43
21 47 42
22 48 44
22 48 43
22 48 44
21 46 42
21 47 43
21 47 43
21 47 43
22 47 43
22 48 44
21 47 43
22 48 44
22 48 44
22 48 44
21 47 43
22 48 43
21 46 42
20 44 41
20 44 41
21 46 42
20 44 40
20 45 41
20 45 41
20 44 41
20 45 42
21 46 42
20 45 42
20 45 41
20 45 42
21 46 42
21 47 43
20 44 41
20 45 42
21 46 43
21 46 43
20 45 42
21 46 42
20 45 41
21 46 42
21 46 42
20 45 41
21 47 43
21 46 42
20 45 42
20 45 41
20 45 42
20 45 41
21 46 42
21 46 42
21 46 42
21 46 42
20 45 41
20 44 40
21 46 42
21 46 42
20 45 41
21 46 42
21 47 43
21 46 42
21 46 42
20 45 41
21 46 42
21 46 42
21 46 42
21 46 42
20 45 41
21 46 42
20 45 41
21 47 43
21 46 42
21 47 43
20 45 41
21 46 42
21 45 42
21 46 42
21 46 42
21 47 43
21 46 42
21 46 42
21 47 43
22 47 43
21 46 42
21 47 43
21 46 42
21 46 42
21 46 42
21 46 42
20 45 41
21 47 43
21 47 42
21 47 43
21 47 43
21 46 42
21 46 42
21 46 42
21 47 43
21 47 43
21 46 42
21 46 42
21 47 43
21 46 42
21 47 43
21 47 43
21 46 42
22 48 44
21 46 42
21 47 42
21 46 42
22 49 44
21 46 42
21 47 43
21 47 43
21 46 42
22 47 43
22 48 43
22 48 44
21 47 43
21 46 42
22 48 44
22 48 43
21 47 43
22 48 44
22 48 44
21 47 43
21 47 43
21 47 43
22 48 44
22 48 43
21 47 43
22 48 44
21 47 43
21 47 43
22 48 44
22 48 43
21 47 42
22 48 43
21 46 42
21 46 42
20 44 40
20 45 41
20 45 41
20 45 41
20 45 42
20 45 41
20 44 41
20 44 41
20 45 41
20 45 41
20 45 42
20 44 41
20 45 41
20 45 41
21 46 42
20 45 41
20 45 41
20 45 41
21 46 42
20 44 41
20 45 41
21 46 42
21 46 42
20 44 40
21 46 42
20 45 41
21 46 42
20 45 41
20 45 41
21 46 42
20 45 41
21 46 42
21 45 42
20 45 41
20 45 41
21 46 42
21 47 43
21 46 43
21 46 42
21 47 43
21 47 43
21 46 42
21 47 43
20 45 41
21 46 42
21 46 42
21 47 43
22 48 44
21 47 43
20 45 41
21 47 43
21 47 43
21 46 42
21 46 42
21 47 43
20 45 41
22 48 43
21 47 43
21 46 42
21 47 42
22 48 44
21 46 42
21 46 42
21 47 43
21 46 42
22 48 44
21 47 42
21 47 42
21 47 43
21 47 43
22 48 44
21 47 43
21 46 42
21 47 43
21 47 43
22 47 43
22 49 44
21 47 43
22 48 43
22 48 44
21 46 42
21 46 42
22 48 43
22 47 43
21 47 43
21 47 43
21 47 42
22 48 43
21 46 42
21 46 42
21 47 43
21 46 42
22 48 43
22 48 44
21 46 42
21 47 42
22 47 43
21 47 43
21 47 42
22 48 43
21 46 42
21 47 43
22 48 44
22 48 44
22 48 43
22 49 44
21 47 43
21 46 42
22 48 43
22 47 43
22 48 44
21 47 43
21 47 43
21 47 43
22 48 43
22 47 43
22 48 43
22 47 43
21 47 42
20 45 41
20 45 42
20 45 41
20 44 40
20 45 42
20 45 42
20 45 42
20 45 41
20 44 40
20 45 41
20 45 42
20 45 41
20 45 41
21 46 42
20 45 42
20 44 40
21 46 42
21 46 42
20 45 41
21 46 42
20 45 41
20 45 41
21 46 42
20 45 41
21 46 42
21 47 43
21 47 42
21 46 42
21 46 42
20 45 41
21 46 42
21 47 43
21 46 42
21 46 42
21 46 42
20 45 41
20 45 42
21 47 43
21 46 42
21 46 42
21 46 42
21 46 42
21 46 42
21 46 43
21 46 42
21 47 43
21 47 43
21 46 42
21 46 42
21 47 43
21 46 42
21 47 43
22 48 43
21 47 43
21 47 43
21 47 43
21 46 42
21 46 42
21 46 42
21 47 43
21 47 43
21 46 42
21 47 43
21 47 43
21 47 43
21 47 43
21 47 43
21 47 42
21 47 43
21 47 43
22 47 43
21 47 43
21 46 42
21 46 42
21 47 42
21 46 42
21 47 43
22 49 44
21 47 42
22 48 43
21 47 43
21 47 43
21 47 43
21 47 43
22 48 44
21 47 43
22 48 44
21 47 43
22 47 43
21 47 43
22 48 44
22 49 44
21 47 43
22 47 43
22 48 44
22 47 43
21 47 43
22 47 43
21 47 43
21 46 42
22 48 44
21 47 43
22 48 44
22 48 44
22 48 44
22 48 44
21 47 43
21 46 42
22 48 43
22 48 44
22 48 43
22 47 43
22 47 43
22 48 44
22 48 43
22 48 43
22 48 43
22 47 43
22 48 43
23 50 45
21 47 43
21 46 42
20 45 41
21 45 42
20 45 41
20 45 42
21 46 42
20 45 41
20 46 42
20 45 41
20 45 42
20 45 41
20 45 41
20 45 41
20 45 41
21 46 42
20 45 41
21 46 42
21 46 42
21 46 42
20 45 42
20 45 41
20 45 41
21 46 42
21 46 42
21 46 42
21 46 42
21 46 42
21 46 42
20 45 41
21 46 42
21 46 42
21 46 42
21 47 43
20 45 41
21 46 42
21 47 43
21 47 43
21 46 42
21 47 43
21 46 42
21 46 42
21 45 41
21 47 43
21 46 42
21 46 42
21 47 43
21 47 43
21 47 43
21 46 42
21 46 42
21 46 42
21 47 43
21 46 42
21 47 43
21 46 42
21 47 43
21 46 42
22 48 44
21 46 42
21 47 43
21 47 42
21 46 42
22 48 44
21 46 42
21 46 42
21 46 42
22 48 44
21 46 42
20 45 41
21 47 43
21 46 42
22 48 44
21 47 42
22 48 43
21 47 43
22 48 44
21 47 43
21 47 43
21 47 42
21 46 42
22 48 44
22 47 43
21 47 43
21 47 43
22 48 44
21 47 43
21 46 42
21 47 43
21 47 43
22 47 43
21 47 43
22 48 44
22 49 44
22 49 45
21 47 43
21 47 43
21 47 43
22 48 44
21 47 42
21 47 43
21 47 43
21 47 43
22 47 43
22 48 43
22 49 44
22 48 43
22 49 44
22 49 44
21 47 43
22 48 44
21 46 42
22 49 44
22 48 43
22 48 43
22 48 44
22 48 43
21 47 43
22 49 45
21 47 43
21 46 42
20 45 42
21 46 42
20 45 42
20 45 41
20 45 41
21 46 42
21 46 42
20 44 41
20 45 41
20 45 41
21 47 43
21 46 42
21 46 42
20 45 41
20 45 41
21 46 42
20 45 41
21 46 42
21 46 43
20 45 41
21 46 42
21 46 42
21 46 42
20 45 41
21 47 43
21 47 43
21 46 43
21 46 42
20 45 41
21 47 43
21 47 43
20 45 41
21 46 42
21 45 42
21 46 42
21 46 42
21 46 42
21 45 41
21 46 42
20 45 41
20 45 41
21 46 42
21 46 42
21 45 41
20 45 41
21 47 42
21 46 42
20 45 41
21 45 42
21 46 42
22 48 44
21 46 42
21 46 42
22 47 43
22 48 43
21 46 42
21 46 42
21 46 42
21 46 42
21 47 43
21 46 42
21 47 43
22 48 44
21 47 43
21 47 43
22 47 43
21 47 43
21 47 43
21 47 43
22 48 44
21 47 42
22 48 44
22 47 43
22 48 44
21 47 43
21 46 42
21 46 42
21 47 43
21 47 43
22 48 43
21 47 43
22 48 44
22 48 44
21 47 43
22 48 43
22 47 43
21 47 43
21 47 43
21 46 42
22 48 44
22 48 43
22 48 43
21 47 42
22 47 43
22 48 43
22 47 43
21 47 43
22 47 43
21 47 43
22 48 44
22 48 43
22 48 44
21 46 42
21 47 43
21 47 43
21 47 43
22 49 45
21 47 43
22 49 44
22 47 43
22 48 44
22 49 45
22 48 43
21 47 42
22 48 43
22 48 43
22 47 43
22 48 43
21 47 43
20 45 41
20 45 41
20 44 41
20 45 41
20 45 41
20 44 41
20 45 42
20 45 41
20 45 41
20 45 41
21 46 42
21 46 42
21 46 42
21 46 42
21 46 42
20 45 41
21 46 42
20 45 42
20 45 41
20 45 41
20 45 41
21 46 42
21 46 42
21 46 42
21 46 42
22 48 44
22 48 44
20 45 41
20 45 41
21 45 42
21 46 42
21 46 42
21 46 42
21 46 42
21 46 42
20 45 41
21 46 42
21 45 41
21 46 42
21 46 42
21 47 43
21 46 42
21 46 42
21 46 42
21 47 43
21 46 42
21 47 43
21 47 43
21 47 43
21 46 42
21 46 42
21 46 42
21 46 42
21 46 42
22 48 44
21 47 43
21 47 43
21 47 43
21 46 42
21 46 42
22 48 44
22 48 44
21 47 43
21 46 42
21 47 43
22 48 44
21 46 42
21 46 42
21 46 42
21 47 43
21 47 43
21 45 41
21 46 42
21 47 43
21 47 43
22 48 43
21 47 43
22 48 44
21 46 42
21 47 43
22 47 43
21 47 43
22 49 44
21 47 42
21 46 42
21 46 42
22 47 43
21 47 43
22 48 44
22 48 43
21 47 43
21 47 43
22 48 43
21 47 43
22 47 43
21 47 43
21 47 43
22 47 43
21 47 42
21 47 43
22 49 44
22 48 43
22 49 44
22 49 44
22 48 44
21 47 42
22 48 43
22 48 43
22 48 44
22 47 43
22 48 43
22 48 43
22 47 43
21 47 42
22 47 43
22 48 43
21 46 42
22 47 43
22 48 43
21 47 42
20 45 41
21 46 42
20 44 41
20 45 41
21 46 42
21 45 42
21 46 42
21 46 42
20 45 41
21 46 42
20 45 41
21 46 42
21 46 42
21 46 42
21 46 42
21 46 42
21 46 42
20 45 41
21 46 42
21 46 42
21 46 42
21 47 43
21 47 43
20 45 41
21 47 43
21 47 43
21 46 42
21 46 42
21 46 42
20 45 41
21 47 43
21 47 43
21 47 43
21 46 42
21 46 42
21 47 43
20 45 41
21 46 42
21 46 42
21 47 43
21 46 42
21 46 42
21 47 43
21 46 42
21 46 42
21 47 43
22 48 44
21 47 43
21 47 43
21 47 43
21 47 43
21 46 42
21 46 42
21 47 43
20 45 41
21 47 43
21 46 42
22 47 43
22 48 43
21 47 42
21 46 42
21 47 43
21 47 43
21 47 43
21 47 42
21 46 42
21 47 43
22 47 43
21 46 42
22 47 43
22 48 43
21 47 43
22 48 43
21 45 41
22 48 43
21 47 43
21 47 42
21 47 43
21 46 42
21 47 43
21 47 43
22 48 44
22 49 45
22 48 43
21 47 43
22 48 44
22 48 43
21 47 43
22 49 44
22 48 44
22 48 44
22 49 44
22 48 44
22 48 44
22 48 44
21 47 43
22 48 43
22 48 43
22 48 44
21 47 43
23 50 46
22 48 44
22 49 44
22 48 43
22 48 44
22 48 44
22 48 44
22 49 44
22 47 43
22 47 43
21 46 42
23 50 45
21 47 43
22 48 43
22 48 44
22 48 44
21 47 43
22 49 44
22 48 44
21 46 42
20 44 40
21 46 42
21 46 42
21 46 42
20 44 40
20 45 41
21 45 42
20 44 41
20 44 40
20 45 41
20 45 41
20 45 42
21 46 42
21 46 42
20 45 41
20 44 41
20 45 41
20 45 42
20 45 41
21 46 42
20 45 41
21 46 42
21 46 43
21 46 43
20 45 41
21 46 42
21 46 42
21 46 42
21 47 43
21 46 42
21 46 42
20 45 41
20 45 41
21 46 42
21 46 42
21 46 42
22 48 44
21 46 42
21 46 42
21 47 43
21 46 42
21 46 42
21 46 42
21 46 42
21 47 43
21 46 42
21 47 43
21 47 43
21 46 42
22 48 44
21 46 42
21 46 42
21 47 43
21 46 42
21 46 42
21 46 42
20 44 41
21 47 43
21 47 43
22 48 43
21 47 43
21 46 42
21 46 42
21 47 43
21 47 43
21 47 42
22 48 43
21 46 42
22 49 44
21 47 42
21 47 43
21 47 43
21 47 43
21 47 42
21 47 43
21 47 43
21 47 43
22 48 44
22 48 44
21 47 43
21 47 43
21 47 43
22 47 43
22 48 44
22 48 44
21 46 41
21 47 43
22 48 43
22 47 43
22 48 43
21 47 42
21 47 43
22 48 44
22 48 44
22 48 43
21 47 43
22 49 44
22 48 44
22 48 43
22 48 43
22 49 44
22 47 43
22 48 43
22 48 43
22 47 43
22 49 44
22 48 44
22 49 44
21 46 42
22 48 43
22 49 44
21 47 42
22 48 44
22 48 43
22 48 43
22 48 43
22 49 44
22 47 43
22 48 44
22 47 43
21 46 42
20 45 41
21 46 42
20 45 41
20 45 41
20 45 41
20 45 41
21 46 42
21 47 43
20 45 42
21 46 42
21 47 43
20 44 41
21 46 42
21 46 42
21 47 43
20 45 41
21 46 42
21 46 42
20 45 41
21 46 42
20 45 41
21 47 43
20 45 41
21 46 42
21 46 42
20 45 41
21 47 43
21 47 43
21 46 42
20 45 41
21 46 42
21 47 43
22 48 43
20 45 41
20 45 41
21 46 42
20 45 41
21 47 43
21 46 42
21 46 42
21 47 43
21 47 43
21 46 42
21 46 42
21 47 43
21 47 43
21 46 42
21 47 43
22 48 44
21 47 43
21 47 43
21 46 42
21 47 43
21 47 43
21 47 43
21 47 43
21 46 42
22 49 44
21 47 42
21 46 42
21 46 42
22 48 43
21 46 42
21 46 42
22 48 44
21 46 42
21 47 43
21 46 42
22 48 43
21 47 43
21 47 43
22 48 44
22 48 44
22 48 44
21 47 43
21 47 42
21 47 43
21 47 43
22 48 44
21 47 42
21 47 42
21 47 42
22 48 43
22 48 44
21 47 43
22 48 44
22 48 43
21 47 42
22 47 43
22 49 45
21 47 43
21 46 42
22 48 43
22 48 44
22 48 44
22 48 43
22 49 44
22 47 43
22 48 43
21 47 43
22 47 43
21 47 42
22 48 43
22 49 45
22 47 43
22 47 43
22 49 44
22 48 44
22 47 43
22 47 43
22 49 44
22 48 44
22 48 44
21 47 43
22 48 44
22 48 44
23 51 46
22 47 43
21 47 43
20 45 41
20 45 42
20 45 41
21 46 42
20 45 41
21 47 43
20 45 41
20 45 41
20 44 41
21 46 42
20 45 41
21 47 43
20 45 41
21 46 42
21 46 42
20 45 41
21 46 42
21 45 42
21 46 42
21 46 42
21 46 42
21 45 42
21 46 43
21 47 43
21 46 42
21 47 43
21 46 42
21 47 43
21 47 43
21 47 43
21 46 42
20 45 41
21 47 43
21 47 43
21 46 42
21 46 42
21 46 42
21 47 43
21 47 43
21 46 42
21 47 43
21 47 43
21 47 43
21 46 42
21 46 42
21 46 42
21 46 42
22 48 44
21 46 42
21 46 42
21 46 42
21 47 43
22 48 44
21 47 42
21 47 43
21 46 42
22 47 43
21 47 43
22 48 44
21 47 43
22 47 43
21 47 43
21 47 43
22 48 43
21 47 43
21 47 42
21 47 42
21 47 43
21 46 42
21 47 43
21 46 42
22 48 44
22 48 44
22 48 43
21 47 43
22 48 43
22 48 43
21 47 43
22 48 43
22 47 43
22 48 43
22 48 43
22 48 44
22 48 43
21 47 43
21 47 43
21 47 43
22 47 43
22 48 43
22 48 44
22 48 43
21 47 43
22 48 44
22 48 44
22 48 44
22 48 43
21 47 43
22 48 43
22 48 43
21 46 42
22 48 44
22 49 45
22 49 45
22 48 43
22 49 44
22 47 43
22 48 43
22 49 44
21 46 42
22 48 44
21 47 43
22 48 43
22 48 43
22 48 44
22 49 45
22 48 44
22 47 43
22 49 44
22 47 43
21 47 42
20 45 41
22 48 44
20 44 41
21 46 42
21 46 42
20 45 41
20 45 41
20 45 41
20 45 41
21 46 42
21 46 42
20 45 41
21 46 42
20 45 41
21 47 43
21 47 43
21 46 42
20 45 41
20 45 41
21 46 42
20 45 41
21 46 42
21 46 42
21 46 42
21 46 42
21 47 43
21 46 42
21 46 42
21 46 42
20 45 41
21 47 43
21 46 42
21 47 43
21 46 42
21 47 43
21 46 42
20 45 41
21 46 42
21 46 42
21 46 42
21 46 42
21 47 43
21 47 43
21 46 42
21 46 42
20 45 41
21 47 43
21 46 42
21 47 43
21 46 42
21 46 42
21 47 43
21 46 42
22 48 44
21 47 43
22 48 44
21 47 43
21 46 42
21 46 42
21 47 43
22 48 44
22 48 43
21 47 43
22 48 44
21 46 42
21 46 42
21 46 42
21 47 43
21 47 43
21 47 43
21 46 41
21 47 43
22 47 43
22 48 44
22 48 43
21 46 41
22 48 43
22 48 44
22 48 43
22 48 44
22 49 44
22 49 44
22 48 43
22 49 45
22 48 44
21 47 43
21 47 43
21 47 42
22 48 43
22 48 43
22 48 44
22 48 44
22 48 44
22 47 43
22 48 44
22 49 44
22 49 44
22 48 43
21 47 43
22 49 44
23 50 45
21 47 42
22 48 44
22 47 43
22 48 44
22 47 43
21 47 42
22 48 43
22 49 44
21 47 42
22 48 43
22 47 43
22 48 44
22 48 44
22 48 44
22 48 44
22 48 43
22 49 44
22 48 43
22 49 44
21 47 43
21 46 42
20 45 41
20 45 41
21 46 42
21 45 42
21 46 42
21 46 42
21 46 42
21 46 42
21 46 43
20 45 41
21 47 43
21 46 42
21 46 42
21 45 41
21 46 42
21 47 43
22 48 43
21 46 42
21 46 42
21 46 42
21 46 42
20 45 41
21 46 42
20 45 41
21 46 42
21 46 42
21 47 43
21 47 43
20 45 41
21 46 42
21 46 42
21 46 42
22 48 44
21 46 42
21 46 42
21 46 42
21 47 43
21 47 43
22 48 44
21 47 43
21 47 43
21 47 43
21 46 42
21 46 42
21 46 42
22 48 43
21 47 43
21 46 42
22 48 44
21 47 43
22 49 45
21 47 43
21 47 43
21 47 43
21 47 43
21 47 43
22 49 44
22 48 44
21 47 43
21 46 42
21 46 42
20 45 41
22 48 43
21 47 43
21 45 41
22 47 43
21 46 42
21 46 42
21 47 43
21 47 42
22 48 44
22 47 43
22 48 43
22 48 43
22 48 43
22 48 44
22 48 44
22 47 43
22 47 43
21 47 43
21 47 42
22 47 43
23 50 45
21 47 43
22 47 43
22 49 45
21 47 43
22 48 43
22 48 43
21 47 43
22 48 44
22 49 44
22 49 44
21 47 43
21 47 43
22 47 43
22 48 44
22 48 43
22 48 43
22 49 44
22 48 44
22 48 43
22 49 45
22 49 44
22 49 44
21 47 43
23 49 45
22 49 44
22 49 44
22 49 45
22 48 43
21 47 43
22 48 44
22 47 43
21 47 42
22 49 45
22 49 44
22 49 44
21 46 42
21 46 42
21 47 43
21 46 42
20 45 41
21 46 42
21 47 43
20 45 41
21 47 43
21 46 42
21 46 42
21 46 42
21 47 43
21 46 42
20 44 40
20 45 41
21 46 42
21 47 43
21 46 42
21 46 42
20 45 41
20 45 41
21 46 42
21 46 42
21 46 42
21 46 42
21 46 42
21 46 42
21 46 42
21 47 43
20 45 41
21 46 42
21 46 42
21 46 42
21 47 43
21 46 42
22 47 43
21 46 42
21 47 43
21 47 43
21 45 41
21 47 43
21 47 42
21 47 43
21 46 42
21 46 42
21 47 42
22 48 44
21 47 43
22 47 43
21 47 43
21 47 43
21 46 42
21 47 43
21 46 42
21 47 43
21 47 43
21 47 43
22 48 44
21 47 43
21 47 43
22 48 44
22 48 43
21 47 43
22 49 44
22 48 44
21 46 42
21 47 43
21 46 42
21 47 43
22 47 43
21 47 43
22 49 44
21 47 43
21 47 43
22 47 43
22 48 44
22 49 44
22 47 43
22 47 43
21 47 43
22 49 45
21 47 43
22 48 43
21 47 42
22 48 44
22 48 44
22 48 44
22 48 44
22 48 44
21 47 43
22 47 43
21 47 43
22 48 43
22 47 43
22 48 43
21 46 42
22 47 43
22 48 44
22 49 44
22 48 44
22 49 44
22 48 43
22 49 44
22 48 43
22 47 43
22 47 43
22 48 44
21 47 43
22 48 43
22 48 43
22 47 43
22 49 44
22 48 43
21 47 43
22 48 44
22 48 43
22 49 44
22 47 43
22 48 44
20 45 41
21 46 42
20 45 41
21 46 42
21 46 42
21 46 42
21 46 42
20 45 41
20 45 41
21 46 42
20 45 41
21 46 42
21 47 43
21 46 42
21 46 42
21 47 43
21 46 42
20 45 41
20 45 41
21 46 42
21 46 42
21 46 42
21 46 42
21 47 42
21 46 42
21 46 42
20 45 41
21 46 42
21 47 43
21 47 43
21 47 43
22 48 44
21 47 43
21 46 42
21 47 43
21 46 42
21 47 43
21 47 42
21 47 43
21 46 42
20 45 41
21 47 43
21 46 42
20 45 41
21 47 43
21 46 42
21 47 43
21 46 42
21 46 42
22 48 44
21 47 43
22 48 44
22 47 43
21 47 42
21 47 43
21 47 43
21 46 42
21 46 42
21 47 42
21 46 42
21 47 43
21 47 43
21 47 43
21 47 43
21 46 42
22 48 43
21 47 43
22 49 44
21 47 43
22 48 44
22 48 44
22 48 44
21 47 43
22 48 43
21 47 43
21 47 42
22 48 43
22 48 43
22 48 44
22 48 44
21 47 43
22 48 44
21 47 43
21 47 43
22 48 44
22 48 44
22 47 43
22 48 44
21 47 43
22 48 43
22 48 44
22 47 43
22 47 43
21 47 43
21 47 42
22 48 44
22 48 44
22 48 44
21 47 43
21 47 43
23 50 45
22 48 44
21 47 42
21 46 42
23 49 45
22 48 44
21 47 43
22 49 44
22 49 44
22 48 44
22 49 44
21 46 42
22 48 44
22 49 44
22 49 45
22 49 45
22 49 44
22 47 43
83 85 78
174 159 146
20 45 41
20 45 42
21 46 42
21 46 42
21 46 42
20 45 41
20 45 41
20 45 41
21 45 41
21 46 42
21 47 43
21 47 43
21 47 43
21 46 42
21 46 42
21 45 42
21 45 41
20 45 41
21 46 42
21 45 41
21 47 43
21 46 42
21 46 42
21 46 42
21 47 43
21 47 43
21 47 43
21 47 43
21 46 42
21 46 42
21 46 42
21 46 42
21 46 42
21 47 43
21 46 42
22 48 44
21 47 43
21 46 42
22 48 44
21 47 43
21 47 42
21 46 42
21 46 42
21 46 42
21 46 42
21 46 42
21 47 43
21 47 43
21 47 43
21 46 42
21 47 43
21 47 42
21 46 42
21 47 42
21 46 42
21 47 43
21 47 43
21 46 42
21 47 43
21 47 43
21 47 43
21 46 42
22 48 43
22 48 43
21 47 43
21 47 43
22 49 44
21 47 43
22 47 43
21 47 43
22 47 43
21 47 43
22 48 43
22 48 44
21 46 42
22 48 43
22 48 43
21 47 43
21 47 43
22 49 45
22 48 43
22 47 43
21 47 42
22 48 43
21 47 43
21 47 43
21 47 43
22 49 44
22 48 43
22 48 44
21 47 42
21 47 42
22 48 43
22 48 43
22 49 44
22 48 44
22 48 43
22 49 44
22 49 44
22 48 44
22 47 43
22 48 44
22 48 44
21 47 42
22 48 44
22 48 44
22 47 43
22 49 44
22 48 44
22 48 44
22 48 44
22 49 44
22 48 43
22 49 44
22 49 44
22 48 44
23 50 45
69 75 69
180 164 153
211 190 176
20 44 41
21 46 42
21 46 42
21 46 42
20 45 41
21 45 42
20 45 41
21 45 42
21 46 43
22 48 44
21 46 42
21 46 42
21 46 42
21 46 42
21 47 43
21 46 42
21 46 42
21 47 43
21 46 42
21 46 42
20 45 41
21 46 42
21 46 42
21 46 42
21 46 42
21 46 42
21 47 43
21 47 43
21 46 42
21 47 43
21 46 42
21 46 42
21 47 43
21 46 42
21 47 43
21 47 43
21 46 42
21 47 43
21 47 42
21 46 42
21 47 43
21 46 42
21 46 42
21 47 43
21 46 42
22 48 43
21 47 43
21 46 42
22 47 43
21 46 42
21 46 42
22 48 43
21 47 43
21 46 42
21 47 43
21 47 43
21 47 43
21 46 42
22 47 43
22 48 44
21 46 42
21 46 42
21 47 42
22 48 43
22 47 43
21 47 43
21 47 43
22 47 43
21 47 43
22 49 45
22 49 44
21 46 42
22 48 43
22 49 44
22 48 44
21 47 43
22 48 44
21 47 42
22 49 45
22 49 44
21 46 42
22 48 44
22 49 44
21 47 43
22 49 44
22 48 44
22 49 44
22 48 44
22 48 44
21 47 43
22 48 44
22 48 43
23 50 45
22 49 45
21 46 42
22 47 43
21 47 43
22 48 44
22 48 43
22 48 43
22 47 43
22 47 43
22 48 43
22 48 43
22 48 44
22 48 44
22 47 43
23 49 45
22 48 44
22 48 44
22 48 43
22 48 44
22 49 44
22 49 44
22 48 43
22 49 44
25 49 44
153 141 132
193 175 162
209 188 174
21 46 42
21 46 42
21 46 42
20 45 41
21 46 42
21 46 42
21 47 43
21 45 41
21 46 42
20 44 40
21 47 43
21 46 42
21 46 42
20 45 41
21 47 43
21 47 43
21 46 42
20 45 41
21 47 43
21 47 43
21 45 41
21 47 43
21 47 42
21 47 43
20 45 41
21 46 42
21 46 42
21 46 42
21 46 42
21 46 42
21 47 43
21 46 42
21 46 42
21 46 42
21 46 42
21 46 42
21 47 43
21 47 43
22 48 43
21 47 43
21 46 42
21 47 43
21 46 42
22 48 44
21 46 42
21 47 42
21 47 43
21 47 43
21 47 43
21 47 43
21 46 42
22 48 44
21 46 42
22 48 44
21 46 42
22 48 43
22 48 44
21 47 43
21 46 42
22 48 44
22 48 44
22 48 44
21 47 43
22 48 43
21 47 43
21 46 42
21 47 43
22 49 44
22 48 43
21 47 43
21 47 43
22 48 43
21 47 42
22 48 44
21 47 43
22 48 44
21 47 43
21 47 43
22 47 43
22 49 44
22 48 44
22 47 43
22 48 44
22 48 43
21 47 43
22 48 44
22 47 43
22 49 44
23 51 46
22 48 44
22 48 44
23 49 45
23 50 45
23 50 45
22 48 44
22 47 43
21 47 43
22 49 44
22 48 43
22 48 44
22 47 43
23 50 45
22 49 44
22 49 44
22 49 44
22 49 44
22 48 43
22 48 44
22 48 43
22 47 43
22 48 43
22 48 44
22 48 44
21 47 43
22 49 44
23 50 46
84 85 79
153 141 133
178 162 151
200 180 166
20 45 41
21 46 42
21 46 42
20 45 42
21 47 43
20 45 41
20 45 41
21 47 43
21 47 43
21 46 42
21 46 43
21 47 43
21 46 42
21 47 43
21 46 42
21 46 42
21 46 42
21 45 41
21 46 42
21 47 43
21 47 43
21 47 43
21 46 42
21 46 42
21 46 42
21 46 42
21 47 42
21 47 43
20 45 41
22 48 43
21 47 43
21 46 42
21 47 43
21 46 42
21 47 43
20 45 41
21 46 42
21 46 42
22 48 44
21 46 42
21 47 43
22 48 43
21 46 42
21 47 43
21 45 41
22 48 44
21 47 42
21 47 43
21 46 42
22 49 44
21 46 42
22 48 43
21 47 43
22 47 43
22 48 43
21 47 42
22 47 43
21 47 43
22 48 43
21 47 43
21 46 42
22 48 44
22 48 43
22 48 44
22 48 43
22 48 44
22 47 43
21 46 42
22 48 43
22 47 43
21 47 43
21 47 43
21 47 42
21 47 42
22 48 44
22 48 43
22 49 44
22 49 44
22 49 45
22 48 44
22 48 43
21 47 42
22 48 43
22 49 44
22 48 44
22 48 44
22 48 43
22 48 44
22 47 43
22 48 44
22 48 44
22 48 44
22 48 44
22 48 44
22 48 43
21 47 43
22 48 44
22 48 44
22 47 43
22 48 44
22 48 44
22 48 44
22 48 43
22 48 44
22 48 44
22 48 43
22 48 44
23 49 45
23 49 45
22 49 45
23 50 45
22 48 44
22 49 44
22 48 43
22 49 44
22 48 44
113 107 100
136 126 118
165 150 139
187 169 156
21 47 43
20 45 41
21 46 42
21 47 43
20 45 41
21 46 42
21 47 43
21 46 42
20 45 42
21 46 42
21 46 42
21 45 41
21 46 42
21 46 42
20 44 41
21 47 43
21 46 42
21 47 43
21 47 43
21 46 42
21 47 43
21 46 42
21 47 43
21 47 43
21 46 42
21 46 42
21 47 43
21 46 42
22 48 44
21 47 43
21 47 43
21 47 43
21 46 42
20 45 41
21 47 43
21 46 42
21 47 43
21 47 43
22 48 43
22 48 43
21 47 43
21 46 42
21 47 43
21 46 42
21 47 43
21 47 43
21 47 43
21 47 43
21 47 43
22 48 43
22 47 43
21 47 43
21 46 42
22 48 43
22 48 44
22 47 43
21 47 43
22 48 44
21 47 43
21 46 42
22 48 43
22 47 43
22 49 44
21 47 43
22 47 43
22 48 44
21 47 43
21 47 43
22 48 44
22 48 44
21 47 42
22 48 43
22 48 43
22 48 43
22 48 44
22 47 43
22 49 44
21 47 43
21 46 42
22 48 44
22 49 44
22 48 43
23 50 45
22 48 44
22 48 44
22 48 43
22 48 44
22 48 43
22 48 43
22 48 44
22 48 44
22 48 43
22 49 45
22 49 45
22 48 44
22 48 43
21 47 43
22 48 43
23 49 45
22 48 44
22 48 43
22 48 44
22 48 44
22 49 44
22 47 43
21 46 42
22 48 44
22 48 44
22 47 43
23 50 45
22 48 44
22 47 43
21 47 43
22 48 44
22 48 43
22 49 44
113 106 98
133 124 116
142 131 122
158 144 133
21 46 42
21 47 43
21 46 42
21 46 42
21 46 42
21 46 42
21 46 42
20 45 41
20 45 41
20 45 41
21 48 44
21 45 42
21 46 42
21 46 43
22 48 44
21 46 42
21 46 42
21 46 42
21 46 43
21 46 42
21 46 42
21 46 42
21 47 43
20 45 41
21 47 43
21 47 43
21 46 42
21 47 43
21 46 42
21 47 43
21 46 42
21 46 42
21 47 43
21 47 43
21 47 43
21 47 42
22 48 43
21 47 42
22 48 44
21 46 42
21 47 43
21 47 43
21 47 43
21 47 43
22 48 44
21 47 43
21 47 43
21 46 42
21 47 43
21 47 43
21 46 42
22 48 44
22 48 43
21 47 43
21 46 42
21 47 43
21 47 43
22 49 44
22 49 44
21 46 42
21 46 42
22 48 43
22 47 43
21 47 43
22 48 44
21 47 43
22 48 44
22 47 43
22 49 44
21 47 43
22 48 43
22 48 44
21 47 42
21 47 42
22 47 43
22 48 43
22 48 43
22 47 43
22 48 43
21 47 43
22 49 44
22 47 43
22 47 43
21 47 43
22 48 43
22 48 43
22 48 43
22 49 44
23 50 45
22 49 44
22 48 44
21 47 43
22 48 44
22 48 44
21 47 43
22 49 44
22 49 44
21 47 43
22 48 44
22 48 43
22 49 44
22 47 43
22 49 44
23 49 45
22 49 44
22 47 43
22 47 43
22 47 43
22 48 43
21 46 42
22 49 44
22 48 43
22 48 43
22 47 43
22 48 44
22 48 43
96 92 84
117 109 100
128 118 110
147 134 124
20 44 40
21 46 42
21 47 43
21 47 43
21 46 42
21 46 42
21 46 42
20 45 41
21 45 41
21 46 42
21 46 42
21 47 43
21 47 43
21 47 43
21 46 42
21 46 42
21 46 42
21 47 43
21 47 43
21 47 43
22 48 44
21 46 42
21 46 42
21 47 43
21 45 41
21 47 43
20 45 41
22 48 44
21 47 43
21 46 42
21 46 42
21 47 43
21 46 42
21 47 43
21 47 42
21 46 42
21 47 43
21 45 41
21 45 41
21 46 42
21 47 43
21 47 43
21 47 43
21 46 42
21 46 42
21 47 43
21 47 42
21 47 43
22 48 43
21 47 43
21 46 42
21 46 42
21 47 43
21 46 42
21 47 43
21 46 42
21 47 42
21 46 42
21 47 42
22 48 43
22 48 44
22 48 44
22 48 44
22 48 43
22 47 43
21 47 43
22 48 44
21 47 43
22 48 44
22 48 43
21 47 42
22 48 44
22 48 44
22 49 45
21 47 43
22 47 43
22 48 44
21 47 43
22 48 43
22 47 43
22 48 44
21 47 42
21 47 43
22 49 44
22 48 43
22 48 44
22 49 44
22 49 44
22 48 43
22 48 44
22 48 44
22 47 43
23 51 46
22 48 44
22 48 44
22 48 44
22 48 43
22 49 44
22 48 43
22 48 43
22 48 43
22 48 44
23 49 45
22 48 43
22 49 45
22 49 44
22 49 44
22 48 43
21 46 42
23 49 45
22 48 43
22 48 43
21 46 42
22 47 43
21 46 42
21 46 42
73 74 67
107 100 91
115 107 98
108 100 92
21 47 43
21 46 43
20 45 41
21 46 42
21 46 42
21 46 42
21 47 43
21 46 42
21 47 42
21 45 42
21 47 43
21 47 43
21 47 43
21 47 43
21 47 43
21 47 43
21 46 42
21 46 42
21 47 43
22 48 44
21 46 42
21 47 43
21 46 42
21 47 43
21 46 42
21 46 42
21 47 43
21 46 42
21 47 43
22 48 44
21 47 43
21 47 43
21 47 43
21 47 43
21 46 42
21 47 43
21 46 42
21 47 43
21 46 42
22 48 44
21 46 42
22 48 44
22 47 43
21 47 43
22 48 43
21 46 42
21 47 43
21 47 42
22 48 43
22 48 44
21 47 43
21 47 43
21 46 42
21 47 43
22 48 43
22 48 44
21 47 43
21 46 42
22 48 43
22 48 44
21 47 43
22 49 44
22 48 43
21 47 43
22 48 44
22 48 43
22 47 43
22 47 43
22 48 43
21 47 43
21 47 42
22 48 44
21 47 42
22 48 44
22 48 43
22 48 44
22 49 44
22 49 45
22 48 43
22 48 44
22 48 43
22 48 43
21 47 43
22 48 44
22 48 44
21 47 42
22 49 44
22 49 44
22 48 44
21 46 42
22 48 43
21 47 43
22 48 43
22 48 44
23 49 45
22 49 44
22 48 44
22 48 44
22 48 44
22 47 43
22 48 43
22 48 43
22 48 44
23 50 45
22 47 43
22 48 44
22 48 43
22 48 43
21 47 43
22 48 43
21 46 42
21 46 42
19 42 38
18 41 38
17 39 36
16 36 34
29 40 37
83 78 70
81 77 69
93 87 79
20 45 41
20 45 41
21 47 43
21 46 42
21 46 42
21 46 42
21 47 43
21 46 42
21 47 43
21 46 42
21 47 43
21 47 43
21 46 42
20 45 41
21 47 43
20 45 41
21 47 43
21 46 42
21 45 41
21 47 43
21 47 42
21 46 42
21 46 42
21 46 42
21 46 42
22 48 44
21 46 42
21 47 43
22 48 44
21 47 43
21 46 42
21 47 43
21 46 42
22 48 43
21 46 42
21 46 42
21 47 43
21 46 42
21 46 42
22 47 43
21 47 42
21 47 43
21 47 43
22 48 44
21 47 43
22 48 44
22 48 44
21 47 43
21 46 42
21 46 42
21 47 43
22 48 44
22 48 43
22 48 43
22 48 44
21 46 42
22 48 44
21 47 43
22 48 43
21 47 42
22 49 44
21 46 42
22 48 44
21 47 43
22 49 44
21 47 42
22 48 43
23 50 45
22 49 45
21 47 43
22 48 43
22 48 44
21 47 43
22 48 43
21 46 42
22 47 43
21 46 42
22 48 44
22 48 44
22 49 45
22 48 44
21 47 43
22 48 44
22 49 44
22 47 43
22 48 44
22 48 43
22 48 44
22 48 43
22 49 44
22 48 43
22 47 43
21 47 43
22 48 43
23 51 46
22 48 43
22 47 43
23 50 45
22 49 45
22 49 45
22 49 44
22 48 43
22 48 44
22 49 44
22 48 43
22 47 43
22 49 44
22 48 43
22 47 43
21 47 42
21 47 43
19 42 39
17 38 36
15 34 32
14 32 31
13 30 29
13 30 28
25 30 28
34 34 30
44 41 38
20 45 41
21 46 42
21 47 43
21 47 43
21 46 42
21 47 43
20 45 42
21 46 42
21 46 42
21 47 43
21 47 43
21 46 42
21 46 42
21 46 42
21 47 43
21 46 42
21 47 43
21 46 42
21 47 42
21 45 41
21 46 42
21 46 42
21 46 42
21 46 42
22 47 43
21 47 43
21 47 43
21 46 42
21 46 42
22 48 43
21 47 43
21 47 42
21 47 43
21 46 42
21 46 42
22 50 45
22 48 44
21 47 43
21 47 43
22 48 43
21 46 42
21 46 42
22 48 44
21 47 43
21 47 43
22 49 44
21 47 43
22 48 44
22 47 43
21 46 42
21 47 43
21 47 43
22 49 44
21 47 42
22 48 44
22 49 44
21 47 43
21 47 42
21 46 42
22 48 43
21 46 42
22 49 45
21 47 42
22 48 44
22 47 43
22 49 44
21 47 43
22 48 43
22 49 44
22 48 44
22 48 44
21 47 43
22 48 44
22 48 44
22 49 44
22 48 44
22 48 44
22 48 44
22 48 44
22 48 44
22 48 43
22 49 44
21 47 43
22 48 44
22 48 44
22 48 44
22 49 45
22 48 43
22 47 43
22 48 43
22 49 44
22 49 45
22 48 44
21 47 43
22 47 43
22 48 44
22 48 44
22 47 43
22 49 44
22 49 44
22 48 44
22 49 44
22 49 44
23 50 45
21 47 42
22 49 44
23 50 45
21 47 42
22 48 43
22 48 43
21 47 43
19 42 38
17 37 35
14 33 31
13 31 30
13 30 29
11 27 26
11 26 25
8 18 17
3 6 6
20 45 41
20 45 41
21 46 42
20 45 41
21 46 42
21 46 42
21 47 43
21 46 42
21 47 43
21 47 43
21 46 42
21 46 42
20 45 41
22 48 43
21 46 42
21 46 42
21 47 43
21 46 42
21 47 43
20 44 41
22 48 43
21 46 42
21 47 43
21 47 43
21 47 43
21 47 43
21 47 43
21 47 43
21 47 43
21 47 43
21 46 42
21 46 42
21 47 43
21 47 43
21 47 43
21 46 42
21 46 42
21 47 43
22 48 43
21 46 42
21 47 43
21 46 42
22 48 44
21 46 42
22 47 43
21 47 43
21 47 43
22 49 45
21 46 42
22 48 43
21 47 43
22 48 44
22 48 43
21 47 43
21 46 42
21 47 43
22 48 43
21 46 42
22 48 43
22 48 43
21 47 43
21 47 43
21 47 43
22 48 43
22 48 44
21 47 43
21 47 43
21 47 42
21 47 43
22 48 43
21 47 42
22 48 43
22 48 43
22 48 44
22 48 44
22 48 44
22 49 44
22 48 44
22 48 43
23 50 45
22 48 44
22 48 43
22 49 45
22 49 44
22 48 44
22 48 43
22 49 44
22 48 43
22 49 44
21 47 43
22 49 44
22 49 45
22 48 44
22 48 44
22 48 43
22 48 44
21 47 43
23 49 45
22 48 43
22 48 44
22 48 43
21 47 42
22 48 43
21 47 42
22 48 44
22 48 43
22 49 44
22 48 43
22 48 43
22 48 43
21 46 42
21 47 42
19 42 38
16 37 34
14 33 31
13 30 29
12 27 26
11 25 24
10 23 22
8 18 17
21 47 43
21 47 43
20 45 41
21 46 42
21 46 42
21 46 43
20 45 41
21 47 43
22 48 44
21 47 43
21 46 42
21 46 42
22 48 43
20 45 41
21 47 43
21 46 42
21 46 42
21 46 42
21 46 42
21 46 42
21 46 42
21 46 42
21 46 42
21 46 42
21 47 43
22 48 44
21 46 42
21 47 43
21 46 42
21 46 42
21 47 42
21 47 43
22 48 43
21 47 43
22 48 44
21 47 43
21 47 43
21 47 43
21 46 42
22 47 43
21 47 43
21 46 42
21 46 41
21 47 43
21 47 43
22 47 43
22 48 44
21 46 42
22 48 43
21 47 43
21 47 43
21 47 43
21 46 42
21 46 42
21 47 43
21 47 43
21 47 43
22 48 44
21 47 42
22 48 44
21 46 42
22 48 44
22 48 43
22 48 44
22 48 44
21 47 42
22 48 43
22 48 43
22 48 44
22 49 44
22 48 44
22 48 44
21 47 42
21 47 43
22 48 44
22 48 43
22 48 44
22 48 44
22 49 44
22 48 44
22 49 44
22 47 43
22 48 43
22 49 44
22 48 44
22 48 43
22 49 44
22 48 43
21 47 42
22 49 44
22 48 44
22 49 44
22 48 43
22 49 44
22 47 43
22 49 44
22 49 44
22 47 43
22 48 44
22 48 43
22 48 44
22 48 43
22 49 44
22 48 44
21 47 43
22 47 43
22 47 42
22 48 44
23 49 45
22 48 44
22 48 43
22 47 43
22 47 42
20 45 41
19 42 38
17 38 35
15 33 31
12 28 26
11 26 25
10 23 22
21 47 43
21 47 43
21 46 42
21 46 42
20 45 41
21 47 43
21 46 42
21 46 42
22 48 44
20 45 41
21 47 43
21 47 43
21 46 42
21 47 43
21 46 42
21 46 42
21 46 42
21 47 43
21 47 43
21 46 42
21 47 43
21 47 43
21 47 43
22 48 44
21 46 42
22 48 43
21 47 43
21 46 42
21 46 42
21 47 43
21 46 42
21 47 43
21 46 42
21 47 43
21 47 43
22 47 43
21 47 43
21 47 43
21 46 42
21 46 42
20 45 41
21 47 43
21 46 42
21 47 42
21 46 42
21 46 42
22 49 44
22 48 44
21 47 43
22 49 44
22 48 44
22 48 44
21 47 43
22 48 43
21 47 43
21 47 43
21 47 43
22 47 43
22 48 44
22 48 44
21 46 42
22 48 44
21 47 43
21 46 42
22 48 44
22 48 43
22 49 44
22 48 43
21 47 43
21 47 43
22 48 44
22 48 43
22 48 43
22 48 43
21 46 42
22 49 44
22 48 43
22 49 44
22 49 45
22 48 44
22 47 43
22 48 44
22 48 43
22 47 43
22 49 44
22 47 43
22 49 44
22 48 43
22 48 43
22 49 45
22 47 43
22 48 43
22 49 44
22 48 44
23 51 46
23 49 45
22 49 44
22 48 44
23 50 45
23 50 45
22 48 44
22 48 43
23 49 45
22 48 43
22 49 44
23 49 45
22 47 43
22 48 43
22 49 44
22 48 44
23 49 44
22 48 43
22 47 43
22 48 43
21 46 41
21 46 41
21 45 40
20 43 39
18 40 36
17 37 34
20 45 41
21 46 42
20 45 41
21 47 43
21 46 42
21 46 41
21 47 43
20 45 41
21 47 43
21 46 42
21 47 43
21 47 43
21 47 43
21 46 42
21 46 42
21 47 43
21 46 42
21 47 43
21 46 42
21 46 42
21 47 43
21 47 43
21 47 43
21 47 43
21 47 43
21 46 42
21 47 43
22 47 43
21 47 43
21 47 42
22 48 43
21 47 43
21 47 43
21 47 43
22 48 43
21 46 42
21 47 43
21 46 42
22 48 44
21 47 43
21 47 43
21 47 43
21 46 42
22 48 44
21 47 43
22 49 44
21 47 43
21 47 43
21 47 43
21 47 42
22 48 44
21 46 42
21 47 43
21 47 43
22 48 43
22 47 43
22 48 44
21 47 43
22 48 43
23 50 45
21 47 42
22 49 44
22 49 44
22 48 43
22 48 43
22 48 44
21 47 43
22 49 45
22 48 43
23 50 46
22 49 44
22 48 44
22 48 43
22 48 44
22 48 43
22 48 44
22 48 44
22 49 44
22 47 43
22 47 43
22 48 44
23 49 45
21 47 43
22 48 44
21 47 42
22 49 44
21 47 42
21 47 43
22 48 44
22 48 44
22 48 44
22 49 44
23 50 45
23 50 45
22 47 43
22 48 44
22 49 44
22 48 44
22 48 44
22 47 43
22 48 43
22 48 44
23 49 45
23 50 45
22 48 43
22 48 44
22 49 44
22 47 43
22 48 43
21 47 42
22 49 44
22 48 44
22 48 43
22 47 43
22 48 43
21 46 41
22 47 42
22 48 44
22 47 42
21 46 41
21 47 43
21 46 42
20 45 41
21 47 43
20 45 42
21 46 42
20 45 41
21 46 42
20 45 41
21 47 42
21 46 42
21 46 42
21 46 42
21 46 42
21 46 42
21 47 43
21 46 42
21 46 42
21 46 42
21 46 42
21 47 43
21 47 42
21 46 42
21 46 42
21 46 42
22 48 43
21 47 43
21 47 43
21 46 42
21 47 43
21 47 43
21 46 42
21 46 42
21 46 42
22 48 44
22 48 43
21 46 42
21 47 43
22 48 43
22 48 44
21 47 43
22 49 45
22 48 44
22 47 43
21 47 43
21 46 42
21 47 43
22 48 44
21 47 43
21 47 42
22 48 43
22 48 43
21 47 43
21 46 42
22 49 45
21 47 43
22 48 43
22 48 43
21 45 41
22 48 44
22 49 44
22 47 43
22 49 44
22 48 44
22 48 44
22 49 44
22 48 43
22 49 44
21 47 43
22 48 44
21 47 43
22 48 44
22 48 43
22 49 44
23 50 45
22 49 44
23 50 45
23 49 45
22 49 44
22 48 43
21 47 42
21 47 43
22 47 43
22 48 44
22 48 43
22 49 44
22 49 45
22 47 43
22 48 43
22 49 45
22 49 44
22 48 44
22 49 44
21 47 43
22 48 43
22 49 44
22 49 44
21 47 43
22 48 44
22 49 44
22 48 44
23 50 45
22 49 44
22 48 44
22 48 43
22 49 44
23 49 45
22 49 44
22 48 44
22 48 43
23 50 45
22 48 44
22 49 44
22 49 44
22 49 44
23 49 44
22 48 43
21 46 42
22 48 43
22 49 44
21 46 42
21 46 42
21 46 42
21 46 42
21 46 42
21 46 42
21 47 43
20 45 41
21 46 42
22 48 44
20 45 41
21 47 43
21 46 42
21 46 42
20 45 41
21 46 42
21 46 42
21 47 43
21 47 43
21 45 41
21 46 42
20 45 41
20 45 41
21 47 43
22 48 44
21 47 43
21 46 42
21 47 43
21 46 42
22 49 44
21 46 42
21 47 43
21 47 43
21 47 42
21 47 43
21 46 42
22 48 44
21 47 42
21 46 42
21 46 42
22 48 43
21 47 42
22 48 43
21 46 42
21 47 43
22 48 43
22 49 44
22 48 43
22 48 43
21 47 43
21 47 43
22 48 43
21 46 42
21 47 42
22 47 43
21 47 43
21 47 43
22 47 43
22 49 44
22 47 43
22 48 43
21 47 43
21 47 43
22 48 43
22 48 44
21 47 43
22 49 45
22 48 44
22 48 44
21 47 43
22 47 43
22 48 44
21 47 43
21 47 43
21 47 43
22 48 44
21 47 42
22 49 44
22 48 43
21 47 42
22 48 44
22 48 44
22 48 44
22 48 43
22 47 43
22 48 43
22 48 44
22 48 43
22 47 43
21 47 42
22 49 45
22 48 44
22 49 44
22 48 44
23 51 46
22 49 45
22 49 44
22 48 43
22 48 44
22 48 44
23 50 45
22 49 44
22 47 43
22 48 44
22 48 43
22 47 43
22 49 44
22 48 44
23 50 45
23 50 45
23 50 45
23 49 45
22 48 44
22 48 43
21 47 42
22 49 44
22 48 43
22 48 43
22 48 43
22 47 43
21 47 43
21 47 43
21 46 42
22 48 43
21 46 42
21 46 42
21 46 42
21 47 43
21 45 42
20 45 41
21 46 42
21 47 43
21 46 42
21 46 42
21 46 42
21 46 42
22 48 43
21 47 43
21 46 42
21 46 42
21 47 43
21 46 42
21 47 43
20 45 41
21 47 43
21 46 42
21 46 42
22 48 44
21 46 42
21 47 43
21 46 42
21 47 42
21 46 42
21 47 43
21 47 43
22 47 43
21 47 43
21 47 43
21 47 43
21 47 43
21 47 43
22 48 43
21 47 43
21 46 42
22 47 43
21 47 43
21 47 43
22 48 43
22 48 44
21 46 42
22 48 44
22 48 44
22 49 45
22 48 44
21 47 43
21 46 42
22 48 44
21 47 43
21 47 43
21 47 43
22 49 44
21 47 43
22 47 43
22 48 43
22 48 44
22 48 43
21 47 43
22 48 44
21 47 42
22 48 43
22 47 43
22 49 45
22 48 43
23 51 46
22 49 44
22 49 45
22 48 43
22 48 43
22 48 44
22 49 44
22 48 44
22 49 44
22 49 45
22 48 43
21 47 42
22 48 44
22 48 43
22 48 44
22 49 44
22 48 44
22 49 45
22 47 43
23 50 45
22 49 44
22 47 43
22 48 43
22 48 44
22 48 44
22 48 43
22 49 44
21 47 43
22 47 43
22 49 44
22 48 44
23 49 45
22 49 44
23 49 45
22 48 44
22 48 43
22 48 44
22 48 44
22 49 44
23 50 46
22 48 43
22 49 44
22 49 44
22 48 44
22 48 44
22 47 43
22 49 44
21 46 42
21 47 43
21 45 42
21 47 43
20 45 41
21 46 42
21 47 43
22 48 44
21 46 42
21 47 43
21 46 42
21 46 42
21 47 42
21 47 43
21 47 43
21 46 42
21 46 42
21 47 43
21 46 42
21 46 42
21 47 43
21 47 43
21 47 43
21 46 42
21 47 42
22 47 43
21 47 43
21 46 42
21 47 43
21 47 43
21 47 43
21 47 42
21 46 42
22 48 44
21 47 43
21 47 43
21 47 43
22 48 43
21 47 43
22 48 44
22 49 44
21 47 43
22 48 44
22 48 44
21 47 43
21 47 43
22 48 44
22 48 44
22 48 44
22 49 45
22 48 44
21 47 43
21 46 42
21 46 42
21 47 43
21 46 42
22 49 44
22 49 44
22 48 44
21 47 43
21 46 42
22 49 45
21 47 43
21 47 43
22 48 44
22 48 44
22 48 44
22 48 44
22 48 44
22 48 44
21 47 42
23 50 45
22 49 44
22 48 43
22 48 44
22 48 43
22 48 43
22 48 43
22 49 44
21 47 42
22 47 43
22 48 43
22 48 43
22 47 43
22 48 44
22 48 44
22 49 45
22 49 44
22 49 45
22 48 44
22 48 44
22 49 44
22 48 43
22 49 44
22 48 44
22 49 44
22 49 44
23 50 45
22 49 44
22 48 43
22 48 43
22 49 45
22 47 43
22 49 45
22 49 44
22 49 44
23 49 45
22 48 43
22 49 44
22 49 44
22 48 44
22 49 44
23 50 46
22 49 44
22 48 44
22 49 44
22 48 43
21 47 43
22 48 43
22 49 45
21 46 42
22 48 44
21 46 42
21 46 42
21 46 42
21 46 42
21 47 43
21 46 42
21 46 42
21 46 42
21 45 41
21 47 43
22 48 44
21 46 42
21 46 42
22 48 43
21 45 41
21 46 42
21 47 43
22 49 44
22 48 44
22 48 44
21 47 43
21 47 43
21 47 43
21 47 42
21 46 42
21 46 42
21 47 43
21 46 42
21 46 42
21 47 43
21 46 42
21 46 42
21 47 43
22 47 43
21 47 43
21 47 43
21 47 42
21 47 42
21 46 42
22 48 43
22 48 43
22 47 43
22 48 43
21 46 42
22 48 43
22 48 44
22 49 44
21 47 42
22 47 43
21 46 42
22 49 44
21 47 42
23 50 45
22 49 44
22 49 45
22 48 43
21 46 42
22 48 44
22 49 44
22 48 44
22 48 44
22 48 44
22 47 43
21 47 43
22 48 44
22 48 43
22 48 44
21 47 42
21 46 42
22 48 44
21 47 42
22 48 43
22 49 45
22 48 44
23 50 45
22 48 44
22 49 44
22 48 43
22 48 44
22 49 44
21 47 42
22 47 43
22 49 45
22 48 43
22 49 45
22 49 44
22 49 44
22 49 44
22 48 44
23 50 45
22 47 43
21 46 42
22 47 43
22 49 44
22 49 44
22 48 43
23 50 45
23 49 45
22 49 44
23 49 45
22 48 44
22 49 45
22 49 44
22 49 44
22 49 44
22 48 43
22 49 45
22 48 43
22 48 44
22 47 43
22 48 43
22 49 44
22 49 44
22 49 44
22 49 44
22 48 44
22 48 43
22 48 44
21 46 42
21 46 42
21 46 42
21 47 43
20 45 41
21 46 42
21 47 43
21 46 42
21 47 43
21 47 43
21 46 42
22 48 44
21 47 43
21 46 42
21 46 42
21 46 42
21 47 43
21 47 43
21 47 43
22 48 43
21 46 42
21 46 42
22 48 44
21 46 42
20 45 41
21 47 43
21 46 42
21 47 43
21 46 42
21 47 43
21 46 42
21 46 42
21 46 42
21 47 43
22 48 43
21 47 42
22 48 43
22 47 43
21 46 42
22 48 44
22 47 43
21 46 42
22 48 44
21 47 43
21 46 42
21 47 43
22 48 44
21 47 43
22 47 43
21 47 43
21 47 43
22 49 44
21 47 42
21 47 43
22 48 44
22 48 44
22 48 44
22 49 44
22 48 43
21 47 42
21 47 43
21 47 43
22 48 44
22 48 44
22 49 44
21 45 41
22 48 44
21 47 43
22 49 44
22 48 44
21 47 43
22 47 43
22 48 43
21 47 43
22 48 44
22 48 44
21 47 43
22 49 44
23 50 45
22 48 44
22 48 43
22 49 44
22 48 44
22 49 44
22 48 44
22 48 43
22 49 44
22 47 43
22 48 44
22 49 44
23 51 46
22 48 44
22 48 43
22 48 43
23 50 45
22 48 44
22 47 43
22 49 44
23 49 44
22 49 44
23 49 45
22 49 44
22 49 45
23 50 45
22 49 44
22 49 45
22 49 44
22 48 44
22 48 44
23 49 45
22 48 44
22 48 44
23 49 45
22 48 43
22 48 43
23 50 45
22 49 44
22 48 44
22 49 44
22 48 43
21 46 42
20 45 41
21 46 42
21 47 43
22 48 43
21 47 43
21 47 43
21 47 43
21 47 43
21 46 42
21 46 42
21 46 42
21 46 42
21 46 42
21 46 42
21 47 43
21 47 43
21 47 43
21 46 42
22 49 44
22 48 44
21 47 43
22 47 43
21 47 42
21 47 43
22 48 44
21 47 43
21 47 43
21 47 43
21 47 43
22 47 43
22 48 44
22 48 44
22 48 44
22 48 43
21 47 43
21 47 43
21 47 43
22 48 43
22 48 43
21 47 43
22 48 43
21 47 43
21 47 43
22 47 43
21 45 41
21 47 43
21 46 42
21 46 42
22 48 44
21 46 42
22 48 43
21 47 43
22 49 44
21 46 42
21 47 43
22 49 44
21 47 43
22 48 43
21 47 43
22 47 43
21 47 42
21 47 43
22 48 44
22 48 43
22 48 44
22 49 44
22 49 44
22 48 44
22 48 43
22 48 44
21 47 43
22 48 44
22 48 44
22 48 44
22 49 45
22 49 44
22 48 44
21 47 43
22 47 43
22 48 43
23 50 45
22 48 43
21 47 43
22 49 44
22 48 44
22 47 43
22 48 44
22 48 43
23 50 45
22 49 44
22 48 44
22 49 45
22 48 44
22 49 45
22 48 43
22 48 43
22 48 44
22 49 44
22 48 43
22 48 43
22 48 43
22 48 43
22 49 44
22 48 44
22 49 44
22 47 43
23 51 46
22 48 44
22 48 44
22 49 44
23 49 45
22 49 44
22 48 44
22 49 44
22 48 44
22 48 44
23 51 46
22 48 44
22 48 44
21 47 43
21 47 43
21 47 43
21 47 43
21 46 42
21 46 42
21 46 42
21 46 42
21 46 42
21 47 43
21 46 42
21 46 42
21 47 43
21 46 42
22 48 43
22 48 44
21 46 42
21 47 43
22 48 44
21 46 42
21 46 42
21 47 43
21 46 42
21 46 42
22 48 44
22 48 43
21 47 42
21 47 43
21 46 42
21 47 43
22 48 43
21 47 43
21 47 43
21 47 43
21 47 43
21 47 42
21 47 43
21 47 43
21 47 42
22 49 45
22 48 43
22 49 44
21 46 42
22 48 44
22 48 43
21 46 42
21 47 43
22 48 44
22 47 43
21 46 42
21 47 43
22 48 44
22 48 44
22 47 43
21 47 43
21 47 43
22 48 44
22 49 44
22 48 43
22 48 44
22 48 44
21 47 43
21 47 43
22 48 44
22 49 44
22 48 44
22 47 43
21 47 43
22 49 45
22 49 44
22 48 43
21 47 43
21 47 43
22 49 45
22 47 43
22 47 43
22 49 44
22 47 43
22 48 43
21 46 42
22 49 44
22 47 43
22 49 44
22 49 44
22 47 43
22 49 44
22 48 44
22 48 44
22 48 43
22 48 43
21 47 43
22 48 44
22 49 45
22 49 44
22 49 45
22 48 43
22 48 43
21 47 43
22 49 44
22 48 44
22 48 43
21 47 43
22 49 44
22 48 44
22 48 43
23 50 45
23 49 45
23 50 46
22 49 44
22 47 43
22 49 44
22 49 44
22 47 43
23 50 45
22 49 44
22 49 44
23 50 45
23 49 45
23 49 45
22 49 44
