P3
120 80
255
18 41 38
18 41 38
18 41 38
18 41 38
18 41 38
18 40 38
18 42 39
18 41 38
18 41 38
18 41 38
18 40 37
18 41 38
18 41 39
18 42 39
18 41 38
18 41 39
19 42 39
18 41 38
18 40 37
18 41 38
18 40 38
18 41 38
17 40 37
19 42 39
18 40 38
17 39 37
18 41 38
18 41 38
18 41 39
18 42 39
19 42 39
18 41 38
18 41 38
18 41 38
18 41 38
18 41 39
18 40 37
18 40 38
18 41 38
18 41 38
18 42 39
18 41 39
18 41 38
18 41 38
18 41 38
18 41 38
18 41 38
18 40 38
18 41 38
18 41 38
19 42 40
18 41 38
18 41 39
18 41 38
18 41 38
18 41 38
18 42 39
19 42 39
18 42 39
18 41 38
18 42 39
19 42 39
18 41 38
18 41 38
18 42 39
18 41 38
18 41 38
19 42 39
19 42 39
18 41 38
18 41 39
18 41 39
18 41 38
18 41 38
19 43 40
18 41 39
18 42 39
18 41 39
19 42 39
18 41 39
19 42 39
19 43 40
18 40 38
18 41 39
19 42 40
18 41 38
19 43 40
18 42 39
18 40 38
19 42 39
18 41 38
19 42 39
19 42 40
18 41 38
18 41 38
18 42 39
18 41 38
19 42 39
18 41 38
18 41 38
19 42 39
18 41 38
18 41 39
18 40 38
18 41 39
18 41 38
18 41 38
18 41 38
18 41 38
19 42 39
18 41 39
18 41 38
18 41 38
18 42 39
18 41 38
18 41 38
18 42 39
19 43 40
18 41 38
18 42 39
18 42 39
18 41 38
18 41 38
19 42 39
18 41 38
18 41 38
18 41 38
18 41 38
18 41 39
18 42 39
18 41 38
18 41 39
18 40 37
18 42 39
18 42 39
18 41 38
18 41 38
18 41 39
18 41 38
19 43 40
19 42 39
18 41 38
18 41 38
18 41 39
18 41 38
18 41 38
18 42 39
19 42 40
18 42 39
18 41 38
19 43 40
19 42 39
18 41 38
18 41 38
18 42 39
18 41 38
19 42 39
18 41 39
18 41 38
18 42 39
19 42 39
19 42 39
19 42 39
19 42 39
18 41 38
18 41 38
19 42 39
19 42 39
18 41 39
19 42 39
18 41 38
19 42 39
19 42 39
19 42 40
18 41 38
19 42 39
19 42 39
18 41 38
18 41 38
18 41 38
19 42 39
18 42 39
19 42 39
19 42 39
18 42 39
18 42 39
19 42 39
18 41 39
18 41 38
19 42 39
19 42 39
19 42 39
19 42 39
19 42 39
18 42 39
19 42 39
18 41 38
19 42 39
19 42 39
19 42 39
18 42 39
18 41 39
19 42 39
19 43 40
19 42 39
18 41 38
19 42 39
19 43 40
19 42 39
18 41 39
18 41 39
19 43 40
19 42 39
19 42 39
18 41 38
18 41 39
19 42 39
19 42 39
18 42 39
19 42 39
19 42 39
19 42 39
19 42 39
19 42 39
19 42 39
19 42 39
19 43 40
18 41 38
19 42 39
18 41 38
19 42 39
19 43 40
19 42 39
19 42 39
18 41 38
18 41 38
18 41 38
19 42 39
18 42 39
18 41 39
19 42 39
18 41 38
18 42 39
18 41 38
18 41 38
18 42 39
19 43 40
18 41 38
18 41 38
18 41 38
19 42 39
19 42 39
18 41 38
18 41 38
18 41 38
18 41 39
18 42 39
18 42 39
18 42 39
18 42 39
18 42 39
18 41 38
19 42 39
19 43 40
19 42 39
18 41 39
18 41 38
19 42 39
18 41 39
18 41 38
19 42 39
18 41 38
19 42 39
18 41 38
19 43 40
19 42 39
18 42 39
19 42 39
19 42 39
19 43 40
19 42 39
19 42 39
19 43 40
19 42 39
20 44 41
18 41 38
19 42 39
19 42 39
18 42 39
19 42 39
19 42 39
19 43 40
18 42 39
19 42 39
19 43 40
19 42 39
19 42 39
19 42 39
18 41 38
19 42 39
19 42 39
19 42 39
19 43 40
19 42 39
19 42 39
19 42 39
19 43 40
19 43 40
19 42 39
19 43 40
19 43 40
19 43 39
19 43 40
19 42 39
19 42 39
19 43 40
19 43 39
19 43 39
19 42 39
19 42 39
19 42 39
19 43 40
19 43 39
19 43 40
19 42 39
19 44 40
19 42 39
19 43 40
19 42 39
19 42 39
19 42 39
19 42 39
19 42 39
19 43 40
19 42 39
19 43 39
19 43 40
19 42 39
18 41 38
19 43 40
19 43 40
19 42 39
19 43 40
19 43 39
19 42 39
19 43 40
19 43 40
19 43 39
19 42 39
19 43 40
19 42 39
19 43 40
19 43 40
19 42 39
19 42 39
19 43 40
18 42 39
18 41 39
19 42 39
19 43 40
18 41 38
19 42 39
18 42 39
18 41 39
19 42 39
19 42 39
19 42 39
18 41 38
18 42 39
19 43 39
19 43 40
18 42 39
19 42 39
19 42 39
19 42 39
19 42 39
18 42 39
19 42 39
19 42 39
19 42 39
19 42 39
18 41 38
18 41 38
19 42 39
19 43 40
19 43 39
19 43 39
19 42 39
19 43 40
18 41 38
19 42 39
19 43 40
19 43 40
19 42 39
19 42 39
19 42 39
19 43 40
19 43 40
19 42 39
19 43 40
19 43 40
19 42 39
19 42 39
19 42 39
19 42 39
19 42 39
19 43 40
19 42 39
19 42 39
19 42 39
19 43 40
20 44 41
19 43 40
19 43 39
19 42 39
19 42 39
19 43 39
18 41 38
19 43 39
19 43 40
20 44 41
19 43 40
19 43 39
19 42 39
19 42 39
19 43 40
19 44 40
19 43 40
20 44 41
19 43 40
19 43 40
19 43 40
19 43 40
19 42 39
19 43 39
19 43 39
19 43 40
19 42 39
19 43 39
19 43 40
19 43 40
19 43 39
20 44 41
19 43 40
19 43 40
19 43 40
19 43 40
19 43 40
19 43 40
19 44 40
20 44 41
19 44 40
19 42 39
19 43 40
19 43 40
19 43 40
19 42 39
19 43 39
19 43 39
19 42 39
19 43 40
19 44 40
19 42 39
20 44 40
19 43 40
19 42 39
19 44 40
19 43 40
19 43 39
19 43 40
19 42 39
19 42 39
19 43 40
19 43 40
19 42 39
19 42 39
19 43 39
19 43 40
19 43 39
19 42 39
19 42 39
19 43 40
19 43 40
18 41 38
19 42 39
19 42 39
19 42 39
18 42 39
19 42 39
19 42 39
19 43 40
19 43 40
19 42 39
19 42 39
19 42 39
19 43 40
19 42 39
19 42 39
19 43 40
19 42 39
19 42 39
19 43 40
19 42 39
19 42 39
19 43 40
19 42 39
19 43 40
19 43 40
19 43 40
19 43 40
19 43 40
19 42 39
19 43 40
19 42 39
19 43 40
19 43 40
19 43 40
19 43 39
19 42 39
19 42 39
19 43 39
19 43 40
19 42 39
19 43 40
19 43 39
19 43 39
19 43 40
19 43 39
19 42 39
19 44 40
19 43 40
19 43 39
20 44 41
19 43 40
19 43 40
19 42 39
19 43 40
19 43 40
19 42 39
19 43 40
19 42 39
20 45 41
20 45 41
20 44 41
19 43 40
19 43 40
19 43 40
20 44 41
20 44 40
19 44 40
20 44 40
19 43 39
19 43 40
19 43 40
19 43 40
20 44 41
20 44 41
20 44 41
19 42 39
19 43 40
20 44 41
19 43 40
19 43 40
20 44 40
19 43 40
19 43 40
19 43 40
19 43 40
20 44 40
19 44 40
20 44 41
19 42 39
19 43 40
20 44 40
20 44 40
20 44 40
19 43 40
20 44 41
20 44 40
19 43 39
19 43 39
19 43 40
19 43 40
19 43 39
19 43 39
19 43 40
19 43 40
19 43 40
19 43 39
19 43 39
20 44 41
20 44 41
19 43 40
20 44 40
20 44 41
19 43 40
19 43 40
19 43 40
20 44 40
20 44 40
19 42 39
18 41 38
18 42 39
19 43 39
19 42 39
19 42 39
19 42 39
19 43 40
19 43 39
19 42 39
19 42 39
19 43 40
19 42 39
19 43 40
19 43 40
19 42 39
19 42 39
19 43 40
19 43 40
19 43 40
20 44 41
19 43 40
19 43 40
19 43 40
19 43 40
20 44 40
19 43 40
19 42 39
19 43 40
19 43 40
20 44 41
20 44 41
19 43 40
19 42 39
20 44 41
19 43 40
19 43 40
20 44 41
19 43 40
20 44 41
20 44 41
19 43 40
20 45 42
19 43 40
20 44 40
19 43 40
20 44 41
19 44 40
19 43 40
20 45 41
20 44 41
20 44 41
19 43 40
20 45 42
19 43 40
20 45 41
20 44 41
19 43 39
20 44 40
20 44 40
20 44 41
20 44 40
20 44 41
19 43 39
20 45 41
20 44 41
20 44 41
20 44 40
20 44 40
20 44 40
20 44 41
20 45 41
19 43 40
20 44 41
20 44 41
20 45 41
20 44 40
20 45 42
19 43 40
20 45 42
20 45 41
19 43 40
20 44 40
20 44 41
20 44 41
20 44 41
20 44 40
20 45 41
19 43 40
19 43 40
19 43 40
20 44 41
20 44 41
19 43 40
20 45 41
20 43 40
20 44 41
20 44 41
20 44 40
20 44 40
20 46 42
20 45 41
20 45 41
20 45 41
20 44 40
20 44 41
20 44 41
20 44 40
20 44 40
19 43 39
20 45 41
19 43 40
20 43 40
20 45 41
20 44 41
20 44 41
20 44 40
20 44 40
20 45 42
20 44 41
18 41 38
19 42 39
19 43 39
19 42 39
19 42 39
19 43 39
19 43 40
19 43 40
19 43 40
19 42 39
19 43 40
19 42 39
19 43 40
20 44 41
20 44 40
19 44 40
19 42 39
19 43 40
19 43 40
20 45 41
20 44 40
20 44 41
19 43 39
19 43 40
19 43 39
20 44 41
19 44 40
20 44 41
19 43 40
19 43 40
20 44 41
19 43 40
20 44 40
20 44 40
20 44 40
19 43 40
20 45 41
20 45 41
20 45 41
19 43 40
20 44 40
20 44 40
20 44 40
20 44 41
20 44 41
20 45 41
20 44 40
20 44 41
20 44 40
20 44 41
20 45 42
20 44 40
20 45 41
20 45 41
19 43 40
20 45 41
20 44 41
20 45 41
20 44 40
19 43 40
20 44 40
20 45 41
20 46 42
20 45 42
20 45 42
20 44 41
20 44 40
21 46 42
20 45 42
20 44 41
20 44 41
20 44 41
20 45 41
20 44 41
20 45 42
20 44 40
20 45 41
20 45 42
20 45 41
20 45 41
20 45 41
20 46 42
20 44 40
21 46 42
20 45 41
20 45 41
20 45 41
20 44 41
20 44 41
20 45 42
20 44 41
20 45 41
20 44 41
20 45 41
20 44 40
20 44 40
19 43 40
20 45 41
20 44 40
20 45 41
20 45 41
20 45 41
20 44 41
20 44 41
20 44 40
20 45 41
20 44 41
20 44 41
21 46 42
20 45 41
20 45 41
19 43 39
20 45 41
20 45 41
20 45 41
20 44 40
20 45 41
20 44 41
20 45 42
20 44 41
20 44 40
19 43 39
19 43 40
19 43 40
19 43 40
19 43 40
19 43 40
19 42 39
20 44 40
19 43 40
19 43 40
19 43 40
20 44 41
19 43 40
19 44 40
20 44 40
19 42 39
20 44 40
20 44 41
20 44 40
20 44 40
20 44 41
19 43 40
20 45 41
19 43 40
20 44 41
20 44 41
20 44 41
19 43 40
20 44 40
20 44 40
20 44 41
20 45 42
20 45 41
20 45 41
19 43 39
20 45 41
20 45 42
20 44 41
20 45 41
20 45 41
20 45 42
20 44 41
20 45 42
20 45 41
20 45 41
20 45 42
20 45 41
20 46 42
20 45 41
20 45 41
20 45 41
20 44 40
20 45 41
21 46 42
20 44 41
20 45 42
20 45 41
20 45 41
21 46 42
20 45 41
20 45 42
20 45 41
21 46 42
20 45 41
21 46 42
20 44 41
20 44 41
20 45 41
20 45 41
20 45 41
20 45 41
20 45 41
21 46 42
20 44 41
20 45 41
20 45 41
20 44 40
20 44 40
21 46 42
20 45 41
21 46 42
21 47 43
20 45 41
21 46 42
20 45 42
20 45 41
20 45 41
21 47 43
20 45 41
21 46 42
20 44 41
21 46 42
20 45 41
20 45 41
20 45 41
20 45 42
21 46 42
20 45 41
21 46 42
20 45 41
20 45 42
20 45 42
21 46 42
21 46 42
21 46 43
20 45 41
20 44 41
20 45 41
20 45 41
21 46 42
21 47 43
21 46 42
20 44 41
20 45 41
20 45 41
21 46 42
20 45 41
20 45 42
20 45 42
19 43 40
19 43 40
19 43 39
19 43 40
19 43 40
19 43 40
19 43 39
19 43 40
19 43 40
19 43 40
20 44 40
20 44 41
20 45 41
20 44 41
20 44 40
20 44 41
20 44 40
19 43 40
20 44 40
20 44 41
20 45 41
20 44 40
20 44 40
20 44 41
20 44 41
20 44 40
20 45 41
20 44 41
20 45 41
20 45 42
20 44 41
20 44 41
20 44 40
21 46 42
20 44 40
20 44 41
20 45 42
20 45 41
20 44 41
20 45 41
20 45 42
20 45 41
20 45 41
20 45 42
20 45 42
20 45 41
20 45 41
20 45 41
20 45 41
20 45 42
20 45 42
20 45 42
20 45 41
20 45 41
20 45 41
20 45 42
21 47 43
20 45 41
20 45 41
20 45 42
20 45 42
21 46 42
20 45 41
20 45 41
21 46 42
20 45 41
20 44 41
20 45 41
21 46 42
20 45 42
21 47 43
21 46 42
21 46 42
21 46 42
20 45 41
20 45 41
21 46 42
21 46 42
20 45 41
21 46 42
21 46 42
20 45 41
21 45 42
21 46 42
20 45 41
21 46 42
21 46 42
21 46 42
21 47 43
21 45 41
21 47 43
21 47 43
21 46 42
21 46 42
21 46 42
21 46 42
21 47 43
21 47 43
20 45 41
21 45 42
20 45 41
21 46 42
20 45 41
21 46 42
21 46 42
20 44 41
20 45 41
20 45 41
20 45 41
20 45 41
20 45 41
21 46 42
20 45 41
21 46 42
21 46 42
20 44 41
21 46 42
20 45 41
21 46 42
20 45 41
20 44 41
19 43 40
20 45 41
19 43 40
19 43 40
20 44 40
20 45 41
20 44 40
20 44 40
20 44 40
19 43 40
20 44 40
20 45 42
20 44 40
20 44 41
20 44 41
19 43 40
20 45 41
20 45 41
20 44 41
20 44 40
20 45 41
20 44 41
20 45 41
20 45 41
20 44 41
20 44 41
20 45 42
20 44 40
20 44 41
21 46 42
20 45 41
20 45 41
20 44 40
20 45 41
20 45 41
20 44 40
21 46 42
20 45 41
20 45 42
21 46 42
21 46 42
21 46 43
21 46 42
21 46 42
20 44 41
20 45 41
21 46 42
21 46 42
20 45 42
21 46 42
20 45 41
21 47 43
21 46 42
21 46 42
21 47 43
20 45 41
20 45 41
21 46 42
21 47 43
21 46 42
21 46 42
21 46 42
21 47 43
21 46 42
21 46 42
21 46 42
21 46 42
21 46 42
21 46 42
21 46 42
21 46 42
21 47 43
21 46 42
21 47 43
21 46 42
21 47 43
22 48 43
21 46 42
20 45 41
21 47 43
22 48 43
21 47 42
20 45 41
21 46 42
21 47 43
21 47 43
21 47 43
21 47 43
21 46 42
21 46 42
21 46 42
21 45 41
21 46 42
21 46 42
21 46 42
22 48 44
21 47 43
21 46 42
22 49 44
21 46 42
21 47 43
21 47 43
21 47 43
21 46 42
21 47 43
21 45 41
21 46 42
21 46 42
21 46 42
21 47 43
21 46 42
21 46 42
21 47 43
21 46 42
21 46 42
21 47 43
21 47 43
21 46 42
20 45 41
19 43 40
19 43 40
20 44 40
20 45 41
20 45 41
20 44 40
20 45 41
19 43 40
20 44 41
20 45 41
20 45 42
20 44 40
20 45 41
20 45 41
20 45 42
20 44 41
20 45 41
20 45 41
20 45 42
20 45 42
20 45 41
20 45 41
20 45 41
20 45 41
20 45 41
21 46 42
20 45 41
20 44 41
20 45 41
21 46 42
21 46 42
20 45 41
21 46 43
20 45 41
21 46 42
20 45 41
21 46 42
20 45 41
20 45 41
20 45 41
21 46 42
21 46 42
21 45 41
21 46 42
21 46 43
21 46 42
21 46 42
21 46 43
21 46 42
21 46 42
21 47 43
21 46 42
21 47 43
20 45 41
21 46 42
21 46 42
21 47 43
21 46 42
21 46 42
21 47 42
21 46 42
21 47 43
21 46 42
21 46 42
22 48 44
21 46 42
21 47 43
21 47 43
21 46 42
21 47 43
21 46 42
21 46 42
21 47 43
22 48 44
21 47 42
22 48 44
22 48 44
21 47 43
21 47 43
21 47 43
21 46 42
21 47 43
22 47 43
21 47 43
22 48 44
21 47 42
21 47 43
22 48 44
21 47 43
21 46 42
21 46 42
21 47 43
21 46 42
21 46 42
21 47 43
22 48 43
22 48 44
21 47 43
21 46 42
21 47 43
22 48 44
21 47 43
21 47 43
21 47 42
21 47 43
21 47 43
21 47 43
21 47 43
21 46 42
21 46 42
21 47 43
21 47 43
21 47 43
21 46 42
21 47 42
21 47 43
21 47 43
21 46 42
22 48 43
21 46 42
20 44 41
20 44 41
20 44 40
20 44 41
20 44 41
20 44 40
20 45 41
20 45 41
20 44 41
20 45 42
20 44 40
20 44 40
20 44 41
20 44 41
20 45 41
20 44 40
20 44 41
21 46 42
21 46 42
21 45 42
20 45 41
20 44 41
21 46 42
20 45 41
20 45 41
20 45 42
21 46 42
21 46 42
21 46 42
21 46 42
21 46 43
20 45 41
21 47 43
20 45 41
21 46 42
21 46 42
21 46 42
21 46 42
21 46 42
21 47 43
21 46 42
21 46 42
21 47 43
21 46 42
21 46 42
21 46 42
21 46 42
21 46 42
21 46 42
21 47 43
21 46 42
21 46 42
21 46 42
20 45 41
21 46 42
21 47 43
21 47 43
21 47 43
21 46 42
21 47 43
21 47 43
21 47 42
21 46 42
21 46 42
21 46 42
22 48 44
22 48 43
21 47 42
21 47 43
22 48 43
21 47 43
21 46 42
21 47 43
22 47 43
22 48 44
22 48 44
22 49 44
21 47 43
22 49 44
22 48 43
22 48 44
21 47 43
22 48 44
22 48 44
21 47 43
22 47 43
22 48 43
22 47 43
21 46 42
22 48 43
21 46 42
21 47 43
22 48 44
22 49 44
22 48 44
21 46 42
21 46 42
22 48 44
22 48 44
22 48 44
22 48 43
21 46 42
22 48 43
22 48 43
21 47 42
22 49 44
22 47 43
21 47 42
21 46 42
21 47 43
22 48 43
21 47 42
22 48 43
22 48 44
22 48 43
21 47 43
22 49 44
21 47 43
21 47 43
22 48 44
21 46 42
20 44 41
20 44 40
20 45 41
20 44 40
20 44 41
20 44 40
21 46 42
20 45 41
20 45 41
20 44 41
20 44 41
21 46 42
20 44 41
20 45 41
20 44 41
20 45 41
21 46 43
21 46 42
20 45 41
20 44 41
20 45 41
20 45 41
21 47 43
21 46 43
20 45 41
21 46 42
21 46 42
21 46 42
20 45 41
21 47 43
21 46 42
21 46 42
21 46 42
21 46 42
21 46 42
21 46 42
21 46 42
21 46 42
21 46 42
21 46 42
21 46 42
21 46 42
22 48 44
21 46 42
22 47 43
21 47 42
21 46 42
21 47 43
22 48 43
21 46 42
21 46 42
21 47 43
21 47 43
21 47 43
21 47 43
21 47 43
21 46 42
22 47 43
21 47 42
22 48 43
21 47 43
22 47 43
22 47 43
21 47 43
22 49 44
22 48 44
22 47 43
21 47 43
22 48 44
21 47 43
22 47 43
21 47 43
22 48 43
22 48 44
21 47 43
22 48 44
22 47 43
22 48 43
22 48 44
22 48 44
22 49 44
22 48 44
22 48 43
22 48 43
21 47 43
22 48 43
22 47 43
22 48 44
22 48 44
22 49 45
22 48 43
22 48 43
22 49 44
22 48 44
22 49 44
22 49 44
22 48 44
22 47 43
22 48 44
22 48 44
21 47 43
22 48 43
22 49 44
22 49 44
22 48 44
23 50 45
22 49 44
22 48 44
22 49 45
21 47 43
22 48 44
22 49 44
22 48 44
21 47 43
22 48 44
22 49 45
21 46 42
22 48 44
22 49 44
20 45 41
20 45 41
20 44 41
20 44 40
20 45 41
20 45 42
20 45 41
20 44 41
20 45 41
20 45 41
20 45 41
20 44 41
20 45 41
21 46 42
21 46 42
21 45 42
21 46 42
21 46 42
20 45 41
21 46 42
21 46 42
20 45 41
21 46 42
20 45 42
21 47 43
21 47 43
21 46 42
20 44 41
21 46 42
21 47 43
21 46 42
21 47 43
21 47 43
21 46 42
21 47 43
21 46 42
21 46 42
21 46 42
21 47 43
22 48 44
21 47 43
21 46 42
21 47 43
22 48 44
22 47 43
22 48 44
22 48 43
22 48 43
21 46 42
21 47 43
22 48 43
21 47 43
22 48 44
22 47 43
22 48 44
22 47 43
22 48 44
22 48 44
21 46 42
21 47 42
22 47 43
22 48 44
22 48 44
22 49 44
21 47 43
22 49 44
22 48 43
22 48 44
22 48 44
21 47 43
22 49 44
22 49 44
22 48 44
22 48 44
21 47 43
22 48 44
22 47 43
22 48 43
22 49 44
22 49 44
22 48 44
22 49 44
21 47 42
22 47 43
22 49 44
22 49 44
22 48 44
22 48 44
22 48 44
22 49 44
22 49 45
22 49 44
23 49 45
21 47 43
22 48 44
22 48 44
22 48 44
22 48 44
22 49 44
22 49 44
23 50 45
22 48 44
23 50 45
22 48 43
22 49 44
22 48 43
22 49 44
22 48 44
22 48 44
23 50 45
22 48 44
22 48 44
22 48 43
22 49 44
22 48 44
22 48 43
22 48 43
22 48 43
22 48 43
22 49 45
20 45 42
20 45 41
20 45 41
20 45 41
20 45 41
21 46 42
21 46 42
21 45 42
21 46 42
21 46 42
20 45 41
20 45 42
20 45 41
21 45 41
20 45 41
21 46 42
21 46 42
21 46 42
20 45 41
21 46 42
21 46 42
21 46 42
21 46 42
20 45 41
22 48 43
21 47 43
21 46 42
21 47 43
21 46 42
21 45 42
20 45 41
21 46 42
21 47 43
21 46 42
21 47 42
22 48 44
22 48 44
22 48 44
21 46 42
22 48 43
21 46 42
21 46 42
21 47 43
22 49 44
21 47 43
22 47 43
22 48 44
22 47 43
22 48 43
22 48 43
21 47 42
22 48 44
22 48 43
22 48 44
21 47 43
22 48 43
22 48 44
22 48 44
22 48 44
22 48 44
22 48 44
22 48 43
22 48 44
22 48 44
22 48 43
22 48 44
22 49 44
22 48 44
21 47 43
22 49 44
22 49 45
22 48 44
22 48 44
22 48 44
22 49 44
22 49 44
23 50 45
22 49 44
22 49 44
22 49 44
22 49 44
22 49 44
22 49 44
23 49 45
22 48 44
23 50 45
22 48 44
23 50 45
22 48 44
22 49 45
22 49 44
22 49 45
22 49 44
22 48 43
22 49 44
23 50 45
22 48 44
23 50 46
23 50 45
23 50 45
22 47 43
23 50 45
22 49 44
22 48 43
22 49 44
22 47 43
23 50 46
22 48 44
22 49 44
22 49 44
22 48 43
22 49 44
22 49 45
23 49 45
22 49 44
22 49 44
22 49 45
22 49 44
22 49 44
22 48 44
20 44 41
20 44 41
20 45 41
21 46 42
21 46 42
20 45 41
20 45 41
21 46 42
21 46 42
21 46 42
20 45 41
20 45 41
20 45 41
21 46 42
21 46 42
21 46 42
20 45 41
21 47 43
21 45 42
20 45 41
21 46 42
21 46 42
21 46 42
21 47 43
21 46 42
21 47 43
21 46 42
21 46 42
21 46 42
21 46 42
22 48 44
21 47 43
21 47 43
21 47 43
21 46 42
21 47 43
21 47 43
22 48 44
22 48 44
22 47 43
22 48 43
22 48 43
22 48 43
22 48 43
22 49 45
22 48 43
21 47 43
22 48 44
22 48 44
22 48 44
22 48 43
22 48 43
22 48 43
21 47 43
22 48 44
22 48 44
22 48 44
22 48 43
22 47 43
22 48 44
22 48 44
22 49 45
22 48 44
22 48 44
22 47 43
23 49 45
22 49 44
22 49 45
22 48 44
23 50 45
22 49 44
22 49 45
22 48 43
22 48 44
22 49 44
23 50 45
22 49 44
22 49 44
23 50 45
22 48 43
23 49 45
22 49 45
23 49 45
23 50 45
22 48 43
23 49 45
23 50 45
22 49 44
22 49 44
22 49 44
23 50 45
22 49 45
22 49 44
22 48 44
23 50 45
23 50 45
22 48 44
22 49 44
23 49 45
23 49 45
22 49 44
23 50 45
23 50 45
22 49 44
23 49 45
23 50 45
22 48 44
23 49 45
23 51 46
22 49 44
23 49 45
23 50 45
22 49 44
23 50 45
23 50 45
22 49 44
23 50 45
22 49 45
22 48 44
23 49 45
21 46 43
21 46 42
21 46 42
21 46 42
21 45 42
21 46 42
21 46 42
21 46 42
20 45 41
20 45 41
21 46 42
21 46 42
21 47 43
21 47 42
21 46 42
20 45 41
21 47 42
21 46 42
21 47 43
21 47 43
21 47 43
22 48 43
21 46 42
21 46 42
21 47 43
21 47 43
21 46 42
21 47 43
21 47 43
21 46 42
21 47 43
22 48 44
21 47 43
22 48 44
22 48 43
21 47 43
21 47 43
21 47 43
22 47 43
21 47 43
22 48 44
22 48 44
22 48 44
21 47 43
21 47 43
22 48 43
22 49 44
22 48 44
22 48 44
22 48 43
21 47 43
22 48 43
22 49 44
22 49 44
22 49 44
22 49 44
22 49 44
22 49 44
22 49 44
22 49 45
22 49 44
22 48 43
22 49 44
22 48 43
23 49 45
22 48 44
22 49 44
22 48 43
22 49 44
22 49 44
22 48 44
22 48 43
22 48 44
23 49 44
22 49 44
22 48 44
22 49 44
22 49 44
23 49 45
23 49 45
23 50 45
22 49 45
22 49 44
23 49 45
23 49 45
22 48 44
22 49 44
22 49 44
23 49 45
23 50 45
22 49 44
23 50 45
23 50 45
23 49 45
23 50 45
23 50 45
23 51 46
22 49 44
23 50 45
22 49 44
23 50 46
23 51 46
23 50 45
23 49 45
23 51 46
22 48 43
23 49 45
23 50 45
23 50 45
23 49 45
23 50 45
22 49 45
23 50 45
22 49 44
22 49 44
23 50 45
23 50 45
22 49 44
22 49 44
22 49 44
21 46 42
20 45 41
21 46 42
20 45 41
20 45 41
21 46 42
20 45 41
20 45 41
20 45 41
21 46 42
21 46 42
21 47 43
21 46 42
21 47 43
21 47 43
21 47 43
21 46 42
21 47 43
21 46 42
21 45 41
21 47 43
21 47 43
22 48 44
21 47 43
21 47 43
21 47 43
22 48 44
22 49 44
21 46 42
21 47 42
21 47 43
21 46 42
21 47 43
22 48 44
22 48 43
21 47 42
21 47 42
22 48 44
22 48 44
22 48 44
21 47 43
22 48 44
22 49 44
22 48 44
22 48 43
22 48 44
22 47 43
21 47 43
22 49 45
22 48 44
22 49 44
22 48 43
22 49 44
22 48 44
22 49 44
22 49 44
22 48 44
22 49 44
22 49 44
22 48 44
22 49 44
22 48 43
23 50 45
22 48 44
23 50 45
22 49 44
22 49 44
22 48 44
23 50 45
22 49 45
23 50 45
22 49 44
23 49 45
22 48 43
23 50 45
23 50 45
22 48 44
22 49 45
23 49 45
23 50 45
23 51 46
23 49 45
23 50 45
23 49 45
23 50 45
23 50 45
22 49 44
23 50 45
23 50 45
23 50 45
23 50 45
22 49 44
22 49 44
23 51 46
23 50 45
23 51 46
23 50 45
23 49 44
23 51 46
22 49 44
23 50 45
23 51 46
22 49 44
23 50 45
23 49 44
23 50 45
22 49 44
23 50 45
23 50 45
23 50 45
23 50 45
23 50 45
22 49 44
23 49 45
23 49 45
23 50 45
23 49 44
23 49 45
23 50 45
23 50 45
20 45 41
21 47 43
21 46 42
20 45 41
20 45 41
21 46 42
20 45 41
21 47 43
21 46 42
20 45 41
21 47 43
21 46 42
21 47 43
21 46 42
21 46 42
21 47 43
21 46 42
21 47 43
21 46 42
21 46 42
21 46 42
21 46 42
21 47 43
21 46 42
21 46 42
22 48 43
21 47 42
21 47 43
21 47 42
21 47 43
21 46 42
22 48 44
22 48 44
22 48 44
22 48 43
22 48 44
22 48 44
21 47 43
22 48 43
22 49 44
22 48 44
21 47 43
21 47 43
22 49 44
22 48 43
21 46 42
22 48 44
22 47 43
22 49 44
22 48 43
21 47 43
23 50 45
22 47 43
22 48 44
22 48 43
22 49 44
22 48 44
22 49 44
22 49 45
22 48 44
23 49 45
22 49 44
22 49 44
22 48 44
23 49 45
23 49 45
23 50 45
22 49 44
22 49 44
23 50 45
22 49 45
22 49 44
23 50 45
22 48 44
23 49 45
22 49 44
23 49 45
23 50 45
23 50 45
23 50 45
23 49 45
23 50 45
23 51 46
23 51 46
23 50 45
23 50 45
23 51 46
22 49 44
23 49 44
23 50 45
23 50 45
23 51 46
23 50 45
23 51 46
23 50 45
23 50 45
23 49 45
23 50 45
23 50 45
23 49 45
23 50 45
23 50 45
23 50 45
23 50 45
23 50 45
23 50 45
23 49 45
23 50 45
24 51 46
23 50 45
23 50 45
22 49 44
23 50 45
23 51 46
23 51 46
23 50 45
23 49 44
23 50 45
23 50 45
23 50 45
21 46 43
21 46 42
21 45 42
21 46 42
20 45 42
20 45 41
20 45 41
21 47 43
21 47 43
20 45 41
21 46 42
21 46 42
21 47 43
21 47 42
21 47 42
21 46 42
22 48 43
20 45 41
21 47 43
21 47 43
21 46 42
21 47 43
21 47 43
22 48 44
21 47 42
22 48 44
22 48 43
22 47 43
21 47 43
22 47 43
21 47 43
21 47 43
22 47 43
21 47 43
21 47 42
22 48 43
22 48 44
22 48 44
22 49 44
22 48 44
22 49 44
91 92 85
158 130 118
169 92 79
119 58 48
34 49 44
22 48 44
22 48 43
21 47 43
22 48 44
21 47 43
22 48 43
22 48 43
22 49 44
22 48 44
22 48 44
22 49 44
22 48 44
23 49 45
21 47 43
22 49 44
22 49 44
22 49 44
22 48 43
23 50 46
22 49 44
23 50 45
22 49 44
22 49 44
23 50 46
23 50 45
23 50 46
23 50 45
22 49 44
23 50 45
22 48 43
22 48 43
23 50 45
22 49 44
23 51 46
23 50 45
22 49 44
23 49 45
23 50 45
23 51 46
23 50 45
23 50 45
23 50 45
23 51 46
23 50 45
23 50 45
22 49 44
23 50 45
23 51 46
23 50 45
23 51 46
23 49 45
23 50 45
23 49 45
23 49 45
23 50 45
23 51 46
23 50 45
23 51 46
23 50 45
23 50 45
23 51 46
23 50 45
23 51 46
23 50 45
22 49 44
23 51 46
23 50 45
23 51 46
23 50 45
24 51 46
23 51 46
22 49 44
23 49 44
23 50 45
21 46 42
21 46 42
21 46 42
21 46 42
21 47 43
21 47 43
21 47 43
21 47 42
21 46 42
21 46 42
21 46 42
21 47 42
21 47 43
21 45 41
21 47 43
21 46 42
21 46 42
20 45 41
21 46 42
21 46 42
21 47 43
21 47 42
22 48 44
21 47 43
21 46 42
21 47 42
21 47 43
21 46 42
21 47 42
21 47 43
22 48 43
21 47 42
21 47 43
22 48 43
22 47 43
22 48 43
21 46 42
22 47 43
22 48 43
25 50 45
118 113 106
196 144 133
207 81 65
222 78 57
253 117 92
199 73 54
45 50 45
22 49 44
22 48 44
22 48 44
22 47 43
22 49 44
22 48 43
22 49 44
22 49 44
22 48 44
23 49 45
23 49 45
22 48 44
22 49 44
22 48 43
23 50 45
23 49 45
23 50 45
23 49 45
23 49 45
22 49 44
22 48 44
23 50 45
23 51 46
23 50 45
23 50 45
23 51 46
22 49 44
23 50 45
23 50 45
22 49 44
22 49 44
22 49 44
111 74 58
161 86 57
147 80 55
50 53 46
23 51 46
23 51 46
23 49 45
23 50 45
23 51 46
23 50 45
23 50 45
22 49 44
24 51 46
23 50 45
23 50 45
23 50 45
23 50 45
23 50 45
23 50 45
23 50 45
23 51 46
23 50 45
22 49 44
23 50 45
23 50 45
24 51 46
23 51 46
23 50 45
23 50 45
23 50 45
23 49 45
22 49 44
24 51 46
23 51 46
23 51 46
23 50 45
24 51 46
23 49 44
23 50 45
23 51 46
23 51 46
21 47 43
20 45 41
21 45 42
21 47 43
22 47 43
21 47 43
21 47 43
21 46 42
21 46 42
21 47 43
21 47 43
21 46 42
21 47 43
21 47 43
21 47 43
21 46 42
21 47 42
21 46 42
21 47 43
21 47 43
21 46 42
21 47 42
22 48 43
21 47 43
22 48 44
21 46 42
22 47 43
22 47 43
22 48 44
22 48 44
22 48 44
22 48 44
21 47 43
22 48 44
22 49 45
21 47 42
21 47 43
22 48 44
22 48 44
69 74 69
165 109 101
177 60 45
190 64 47
203 68 50
230 100 78
230 83 61
143 59 47
22 49 44
22 49 44
22 48 44
22 47 43
22 48 44
23 50 45
22 48 44
22 49 44
23 49 45
54 65 59
144 134 123
191 174 160
199 179 164
149 137 125
51 63 57
22 49 44
22 49 44
22 49 44
22 48 43
22 48 44
23 50 45
22 48 43
23 50 45
22 48 44
23 50 45
23 51 46
23 50 45
22 49 44
23 51 46
22 49 44
34 55 50
164 150 138
222 137 108
235 117 72
255 155 111
248 127 81
139 106 91
23 50 45
23 49 45
23 51 46
24 51 46
23 49 44
23 50 45
23 49 45
23 50 45
23 50 45
23 51 46
22 49 44
23 51 46
23 50 45
23 50 45
23 51 46
23 50 45
23 50 45
23 49 45
24 52 47
24 52 46
23 50 45
22 49 44
23 50 45
23 50 45
22 49 44
23 49 45
23 51 46
24 51 46
23 49 45
23 51 46
23 50 45
22 49 44
23 50 45
23 51 46
23 50 45
23 51 46
21 46 42
21 46 42
21 46 42
21 47 43
21 46 42
21 45 41
21 47 43
21 47 43
21 46 42
21 47 43
21 45 42
21 47 43
21 47 42
22 47 43
21 47 43
22 48 43
21 47 43
21 46 42
21 47 43
21 47 43
21 47 43
21 47 43
22 48 44
21 46 42
22 48 44
21 46 42
21 47 43
21 47 42
22 47 43
21 47 42
21 47 43
22 47 43
22 48 44
22 47 43
22 48 44
22 48 44
22 48 44
22 48 44
22 49 44
84 79 73
125 100 93
146 77 67
160 54 40
175 62 47
188 106 92
191 155 140
173 145 129
22 49 44
22 49 44
22 48 43
22 49 45
22 48 43
22 49 44
22 48 44
22 48 44
28 50 45
169 154 145
194 178 167
200 183 171
219 199 184
250 226 205
198 176 161
52 63 58
22 48 44
23 50 45
23 50 45
22 49 44
23 50 45
23 49 44
22 49 44
23 50 45
23 51 46
23 50 45
22 49 44
22 49 44
23 50 45
22 49 44
111 107 100
182 166 