P3
400 266
255
22 48 43
22 49 44
22 48 44
22 49 45
21 46 42
22 48 43
22 49 44
22 48 44
22 48 43
22 48 44
22 48 44
22 48 43
21 47 43
21 46 42
22 47 43
22 48 44
22 49 44
22 48 44
22 48 44
22 48 43
22 49 44
22 48 44
22 48 43
22 48 44
22 48 43
22 48 43
22 48 44
22 49 44
22 49 44
22 48 43
22 48 43
22 49 45
23 50 45
23 50 46
22 49 44
22 49 44
22 48 43
22 47 43
22 49 44
22 48 44
22 48 44
22 48 44
21 47 43
22 48 44
22 48 44
21 47 42
22 49 45
22 48 43
22 48 44
22 48 44
22 49 45
22 49 45
22 48 44
22 48 43
22 48 43
22 48 43
22 48 43
22 47 43
22 48 43
22 48 44
22 48 43
22 49 44
21 47 43
22 48 44
21 47 43
22 48 44
22 48 44
21 47 42
22 49 44
22 48 44
23 50 45
22 48 44
21 47 43
21 47 42
21 46 42
23 49 45
21 47 42
23 50 45
22 48 44
21 47 42
22 48 44
22 49 44
22 49 45
22 48 44
21 46 42
22 48 44
22 48 43
22 48 43
22 49 44
22 49 44
22 49 44
22 49 44
22 48 44
22 48 43
22 48 44
22 48 44
22 47 43
22 49 44
22 48 44
22 48 44
22 48 43
21 47 42
22 47 43
22 48 43
22 48 44
22 48 43
22 48 44
22 48 44
21 47 43
22 49 44
22 49 44
22 48 43
22 49 44
22 48 44
22 48 44
21 47 43
21 47 43
22 48 43
22 48 44
22 48 43
22 48 44
22 47 43
21 47 43
22 48 44
21 47 43
22 49 45
21 46 42
22 48 44
21 47 43
22 49 44
21 47 42
21 46 42
22 48 44
21 47 42
22 48 44
22 49 44
22 48 44
21 47 43
21 47 42
22 48 43
21 47 43
22 47 43
21 47 43
22 48 43
22 48 44
22 48 44
22 47 43
21 47 43
21 46 42
21 47 43
22 48 43
22 48 43
21 47 43
21 47 42
21 47 43
22 47 43
22 48 44
22 48 44
21 47 43
22 48 44
22 48 44
22 48 44
22 48 44
22 48 44
22 48 44
21 47 43
21 47 43
22 47 43
21 47 42
21 47 43
21 47 43
22 48 43
21 47 43
21 47 43
21 46 42
22 48 44
21 47 42
22 48 43
22 48 43
21 47 43
22 48 44
21 47 43
21 47 43
21 47 43
22 49 44
21 47 43
21 47 43
22 48 43
21 47 43
21 47 43
22 48 43
21 46 42
21 46 42
21 47 43
22 48 44
22 48 43
21 47 43
21 47 43
22 49 44
21 47 43
22 48 44
22 47 43
22 47 43
22 48 44
21 47 42
21 47 43
21 47 43
21 46 42
21 46 42
21 46 42
21 47 43
21 47 43
21 46 42
21 47 43
21 47 43
21 47 43
21 47 42
22 48 44
22 49 44
22 48 44
22 47 43
21 47 43
21 47 42
22 48 43
21 47 43
22 48 44
21 47 43
21 46 42
21 47 43
21 46 42
21 47 43
21 46 42
22 48 44
22 47 43
22 48 44
21 47 43
21 45 41
22 48 43
21 47 43
21 47 43
21 46 42
21 47 43
21 46 42
21 46 42
22 48 43
21 46 42
21 47 43
22 48 44
22 48 44
21 46 42
21 46 42
21 46 42
21 47 43
21 47 43
21 46 42
21 47 43
21 47 43
21 46 42
21 46 42
22 48 44
21 47 43
21 47 43
22 48 44
21 47 43
21 47 43
22 48 43
21 46 42
21 47 43
22 48 44
21 46 42
21 46 42
21 47 43
20 45 41
21 47 43
21 46 42
21 46 42
20 45 41
21 47 43
21 47 43
21 47 43
21 47 43
21 46 42
21 46 42
21 47 43
21 46 42
21 47 43
21 47 43
22 48 44
21 47 42
21 46 42
21 47 43
22 48 44
21 46 42
21 46 42
21 47 43
21 46 42
21 46 42
20 45 41
21 47 43
22 48 44
21 46 42
21 46 42
21 46 42
21 46 42
21 46 42
21 47 43
21 46 42
21 46 42
21 46 42
21 46 42
21 46 42
21 46 42
21 47 43
20 45 41
20 45 41
21 46 42
20 45 42
21 47 43
21 46 42
21 47 43
21 46 42
22 48 43
21 46 42
21 47 43
21 46 42
20 45 41
20 45 41
21 46 42
21 45 42
21 46 42
20 44 41
21 46 43
21 47 43
20 44 41
21 46 42
21 46 42
21 46 42
20 45 41
20 45 41
21 46 42
21 47 43
21 46 42
21 45 42
21 45 42
21 46 42
20 45 42
20 45 41
20 45 41
20 45 41
21 47 43
21 46 42
21 47 43
20 45 41
21 46 42
21 46 42
21 47 43
21 46 42
21 46 42
21 47 43
21 46 42
21 46 42
21 46 42
20 45 41
21 46 42
20 45 41
21 46 42
20 45 41
21 46 42
21 47 43
21 46 42
20 45 41
20 45 41
21 46 42
20 45 42
21 46 42
21 47 43
20 45 41
21 46 42
20 45 42
20 45 41
20 44 41
20 45 41
21 46 43
20 45 41
21 46 42
20 44 41
20 44 40
21 46 42
20 45 41
20 45 41
20 45 42
20 45 41
20 45 41
20 45 41
20 45 42
20 45 41
21 47 43
20 45 42
20 44 41
20 45 41
22 49 44
21 47 43
23 49 45
23 49 45
22 48 44
22 49 45
22 49 44
22 48 43
22 48 44
22 48 44
22 49 44
22 48 44
22 49 44
23 50 45
23 50 45
22 49 45
22 48 43
22 47 43
22 48 44
22 48 43
22 48 44
22 49 45
22 49 45
21 47 43
22 48 44
22 47 43
22 48 44
22 49 44
22 49 44
22 49 45
22 48 44
22 48 44
22 48 43
22 49 44
22 49 44
22 48 43
21 47 43
22 48 43
21 46 42
22 48 43
22 49 44
22 48 43
21 47 43
21 47 42
22 48 44
22 47 43
22 48 43
22 48 44
21 47 43
22 48 44
22 49 44
22 48 43
22 49 45
22 47 43
22 48 44
22 48 43
22 49 44
22 48 44
22 48 43
23 50 45
22 48 43
22 49 45
22 49 44
21 47 43
21 47 43
22 48 44
22 48 44
22 48 43
22 49 44
22 48 43
22 49 45
22 48 43
22 48 44
22 48 43
22 49 45
22 48 44
22 47 43
22 47 43
22 48 44
22 48 44
23 50 45
22 48 44
22 48 44
21 47 43
22 49 44
22 48 44
22 48 43
22 49 44
21 47 42
22 47 43
22 48 43
22 49 44
22 48 43
22 49 44
22 48 44
22 49 44
22 49 44
22 48 44
22 49 45
22 48 43
22 48 43
21 47 43
22 49 44
22 48 44
22 48 44
22 48 43
22 49 45
21 47 43
22 49 44
22 48 44
21 47 43
22 48 44
23 49 45
22 48 44
23 50 45
21 47 42
21 47 43
22 48 44
22 48 44
21 46 42
22 48 44
21 46 42
22 47 43
22 48 44
21 47 43
22 48 44
22 47 43
22 49 45
21 47 43
21 47 43
22 47 43
22 48 43
21 46 42
22 47 43
22 48 44
22 48 43
22 48 44
22 47 43
21 47 43
22 48 43
22 48 43
21 47 43
22 48 44
22 49 44
21 47 43
21 47 43
21 47 43
22 48 44
22 48 44
21 47 43
21 47 43
21 47 43
22 48 44
22 48 44
22 48 43
21 47 43
21 47 43
22 48 44
22 48 44
22 49 44
21 47 43
22 49 44
22 48 44
22 48 44
22 48 44
22 47 43
21 47 43
21 47 43
21 47 43
22 48 43
22 49 45
22 48 44
22 48 43
21 47 42
22 47 43
22 49 45
22 49 44
21 47 43
21 47 43
22 48 43
21 46 42
21 46 42
21 47 43
22 48 43
22 48 44
21 47 43
21 47 43
22 48 43
22 48 44
22 48 44
22 47 43
21 47 43
21 46 42
21 47 42
21 47 42
21 47 43
22 48 44
22 49 44
21 47 43
21 47 43
22 48 44
22 49 44
22 48 43
21 47 43
21 47 43
22 48 43
21 47 43
21 46 42
21 47 43
21 47 43
22 48 43
22 48 43
21 47 43
21 46 42
21 46 42
21 47 43
21 47 43
21 47 43
21 47 43
21 46 42
22 49 44
22 48 44
21 46 42
21 46 42
22 48 44
21 47 43
21 47 43
21 46 42
21 45 41
21 46 42
21 47 43
21 46 42
21 46 42
21 46 42
21 46 42
21 47 43
21 47 43
21 47 43
22 48 43
22 48 44
22 48 44
21 46 42
21 46 42
21 46 42
21 47 43
21 47 43
21 46 42
22 48 43
21 47 43
21 46 42
21 47 42
21 47 43
22 48 44
21 46 42
21 46 42
21 47 42
21 46 42
21 47 43
21 47 43
22 48 44
22 48 44
21 47 43
21 47 43
21 47 43
22 48 43
21 46 42
21 45 42
21 47 43
22 48 44
21 46 42
21 47 43
20 45 41
21 46 42
21 46 42
21 47 43
21 47 43
21 47 43
20 45 41
21 46 42
22 48 44
21 47 43
21 46 42
22 48 44
21 46 42
21 47 43
21 47 43
21 47 43
22 48 44
21 47 43
21 46 42
21 46 42
21 46 42
21 47 43
21 47 43
21 46 42
21 46 42
21 46 42
20 45 41
21 46 42
21 47 43
21 46 42
21 46 42
21 45 42
21 46 42
21 46 42
21 45 42
20 45 41
21 46 42
20 45 41
21 47 43
21 46 42
21 46 42
21 48 43
21 46 42
21 46 42
21 47 43
21 45 41
21 46 42
21 46 42
20 45 41
21 47 43
21 45 41
21 46 42
21 46 42
21 46 42
21 46 42
21 45 41
21 46 42
21 47 43
21 47 43
21 46 42
20 45 41
20 45 41
21 46 42
21 46 42
21 47 43
21 46 42
21 46 42
21 46 42
21 47 43
21 46 42
21 47 43
21 47 43
21 45 42
21 45 42
21 46 42
21 47 43
20 44 40
21 47 43
21 46 42
21 46 42
21 46 42
21 46 42
21 46 42
21 46 42
21 47 43
21 46 42
21 46 42
21 46 42
20 45 42
20 45 42
21 47 43
20 45 41
20 44 41
21 45 42
20 44 41
20 45 41
21 46 43
20 45 41
20 45 41
20 45 42
21 46 42
21 47 43
21 46 42
21 46 42
20 45 41
21 47 43
20 45 41
21 46 42
20 45 41
21 46 42
21 46 42
21 46 42
20 45 41
20 45 41
20 44 40
21 46 42
20 45 41
21 47 43
21 46 42
21 46 42
20 45 41
20 44 40
21 46 42
20 45 42
20 45 41
21 46 42
20 45 42
21 46 42
20 45 41
22 49 44
22 49 45
22 48 44
22 49 44
22 48 43
22 49 45
22 49 45
22 48 43
22 48 43
23 50 45
22 48 44
21 47 43
21 47 43
23 50 45
22 48 44
22 48 43
22 48 44
22 49 44
23 49 45
22 48 44
22 48 44
22 49 45
22 48 43
21 47 42
21 47 43
21 47 42
22 49 44
22 48 43
22 49 44
22 48 43
22 49 45
22 49 45
22 48 44
22 49 45
22 48 44
22 49 44
23 49 45
22 48 43
22 49 45
22 48 44
22 49 45
23 50 46
22 48 44
22 48 43
22 48 43
22 48 43
21 47 43
22 47 43
22 48 44
22 48 43
22 49 44
22 48 44
22 49 44
23 50 45
22 48 44
22 48 44
22 48 44
22 49 44
22 49 44
22 48 44
22 49 45
22 48 44
22 48 44
22 48 44
22 47 43
22 49 44
22 49 45
22 48 44
22 49 44
22 48 44
22 48 44
22 48 44
22 48 43
22 49 45
22 49 44
22 48 44
22 48 43
22 49 44
22 48 44
22 48 44
22 48 44
22 48 43
22 48 44
22 48 44
22 48 43
23 50 45
22 49 45
21 47 43
22 49 45
21 47 43
21 47 43
22 48 44
21 47 42
22 48 44
22 49 44
22 48 43
22 48 43
22 48 43
21 47 43
22 48 43
22 47 43
22 47 43
21 47 43
22 47 43
22 47 43
22 49 44
22 49 44
22 47 43
22 48 43
22 48 44
22 48 44
22 49 44
22 48 43
22 49 44
22 47 43
21 47 42
22 48 44
22 47 43
21 47 43
22 48 44
22 48 44
22 48 44
22 48 44
22 48 43
22 48 43
22 49 45
22 48 44
23 50 45
22 49 44
21 47 43
21 47 43
22 48 44
22 48 44
22 48 43
22 48 44
21 47 43
21 47 43
22 49 44
22 47 43
22 48 44
22 48 43
22 47 43
22 48 44
21 47 43
22 48 44
21 47 42
21 47 43
22 49 44
21 47 43
22 48 44
21 46 42
22 48 43
22 47 43
22 48 43
22 47 43
22 48 43
21 46 42
22 47 43
21 47 43
21 47 43
21 47 43
21 47 43
22 48 44
22 47 43
22 48 44
22 47 43
22 47 43
22 47 43
22 49 44
22 48 43
21 47 43
22 47 43
21 47 43
21 47 43
21 47 43
22 49 45
21 47 43
22 47 43
21 47 43
22 48 44
22 48 43
22 48 44
22 48 44
21 47 43
21 47 43
21 47 43
22 48 44
22 47 43
22 48 43
22 48 43
22 48 43
21 47 43
21 47 43
21 47 43
22 48 44
21 47 43
22 48 43
22 47 43
21 46 42
21 47 43
21 47 43
21 47 43
21 47 43
22 48 44
22 48 43
22 48 44
21 47 43
21 47 42
21 47 43
21 46 42
21 47 43
22 48 44
21 47 43
21 47 43
21 47 43
21 47 42
21 46 42
21 46 42
21 47 42
21 46 42
22 48 43
21 47 43
21 46 42
21 46 42
21 47 43
21 47 43
21 47 43
21 47 43
22 48 44
21 47 43
21 47 43
22 48 44
22 48 43
22 48 43
21 47 43
22 49 45
22 48 44
22 49 44
21 47 42
22 48 44
22 48 44
21 46 42
21 47 43
22 48 43
21 47 43
21 47 42
21 47 42
21 47 43
21 46 42
21 47 43
22 48 44
21 46 42
21 47 43
22 48 43
21 46 42
22 48 44
21 46 42
21 47 43
22 48 44
21 47 43
21 46 42
21 47 42
21 47 43
21 46 42
21 47 43
21 47 43
21 46 42
21 47 42
21 46 42
22 48 44
20 45 41
21 47 42
21 46 42
21 46 41
21 47 43
21 46 42
22 49 45
21 46 42
21 46 42
21 46 42
21 46 42
21 46 42
21 46 42
21 47 43
21 46 43
21 47 43
21 46 42
21 46 42
21 47 43
21 47 43
22 48 43
21 47 43
21 46 42
21 46 42
21 46 42
21 47 42
21 46 42
21 46 42
21 47 43
21 46 42
21 46 42
21 46 42
21 46 42
21 46 42
20 45 41
21 47 43
21 47 43
21 47 43
21 47 43
21 46 42
21 46 42
20 45 41
21 46 42
21 46 42
21 46 42
20 45 41
20 45 41
21 46 42
21 47 43
21 47 43
21 47 43
21 46 42
21 46 42
20 45 41
21 47 43
21 47 43
21 46 42
20 45 41
22 48 44
21 47 43
21 48 44
21 47 43
21 47 43
21 46 42
21 47 43
21 46 42
21 46 42
21 46 42
21 46 42
21 45 41
21 47 43
21 46 42
21 47 43
20 44 41
21 46 42
21 46 42
21 46 42
21 46 42
21 47 43
21 48 44
20 44 41
21 46 42
20 45 41
20 45 41
21 46 42
20 45 41
21 46 42
21 46 42
21 46 42
20 45 41
20 45 41
20 45 41
20 44 41
20 44 41
20 45 41
20 45 41
20 45 41
21 46 42
21 46 42
21 46 42
21 47 43
21 46 42
21 47 43
21 47 43
21 46 42
20 44 40
21 46 42
20 45 41
21 46 42
20 45 41
20 45 41
21 46 42
20 45 42
21 46 42
20 45 41
20 45 41
20 45 41
21 46 42
21 46 42
21 47 43
21 46 42
20 46 42
21 46 42
20 45 41
20 44 40
20 44 41
21 46 42
21 46 42
20 45 41
20 45 41
23 50 45
22 49 44
22 48 44
22 49 44
22 49 44
22 48 43
23 50 45
22 48 44
22 49 44
22 48 43
22 48 43
22 48 44
22 49 44
21 47 43
22 48 43
23 50 45
22 49 45
22 48 43
22 49 44
21 47 43
22 49 44
23 50 45
22 48 44
22 48 44
23 49 45
22 49 44
22 48 44
22 48 44
22 49 44
23 50 46
22 49 44
22 49 44
22 48 44
22 47 43
23 50 45
22 48 43
22 49 44
22 49 44
22 49 44
22 48 44
22 48 44
22 48 43
22 48 43
22 49 44
22 48 43
23 50 45
22 49 44
22 48 43
22 48 44
22 48 44
22 48 44
22 48 44
22 48 43
22 48 43
21 47 42
22 48 44
22 49 44
23 50 45
22 48 44
22 48 44
21 47 43
22 48 44
22 48 44
22 48 44
22 48 44
22 48 44
22 48 44
22 48 44
22 48 44
22 47 43
22 48 43
22 49 44
22 48 44
22 49 44
22 48 44
21 46 42
22 48 44
22 49 45
22 48 44
21 47 43
22 49 44
22 49 44
21 47 42
22 48 44
22 49 45
22 48 44
22 48 43
22 48 43
22 48 44
22 48 44
22 48 44
22 47 43
21 47 43
22 48 44
22 48 44
22 49 45
21 47 43
23 50 45
22 48 44
22 48 44
22 48 44
22 48 43
22 48 43
22 49 44
22 48 44
23 50 45
21 47 43
21 47 42
21 47 42
22 49 44
22 48 44
21 47 43
22 47 43
21 47 43
22 48 43
22 49 45
22 49 44
22 48 44
22 48 44
22 48 44
22 49 44
22 48 43
22 48 43
22 48 43
22 48 43
21 47 43
22 48 43
22 48 43
22 49 45
22 48 43
21 47 43
21 47 42
22 48 43
22 48 43
22 47 43
21 47 42
22 49 44
22 49 44
22 48 44
21 47 43
22 48 44
22 48 44
22 48 44
22 49 45
22 48 43
22 48 43
22 49 45
22 48 43
21 47 43
21 47 43
22 48 43
22 48 44
22 47 43
22 47 43
22 48 44
22 48 43
21 46 42
21 46 42
22 48 43
22 48 44
22 49 44
22 48 44
22 47 43
22 48 44
21 46 42
22 48 44
22 48 43
22 48 44
22 49 44
22 48 44
22 47 43
22 48 44
21 47 43
22 49 44
21 47 43
22 48 43
21 47 43
21 47 43
21 46 42
22 48 44
21 47 43
22 48 44
21 47 43
22 48 43
22 49 45
22 48 44
21 47 43
22 48 44
21 47 43
21 47 43
21 46 41
21 47 43
22 48 43
21 47 42
21 47 42
21 47 42
21 47 43
21 47 43
22 48 44
21 47 43
22 49 44
21 47 43
21 47 43
22 49 44
22 48 44
21 47 43
22 48 44
21 47 43
21 47 43
21 47 43
21 47 43
22 48 43
22 48 44
22 47 43
21 46 42
22 48 43
21 47 43
21 47 43
21 47 43
21 46 42
21 46 42
21 47 43
22 48 43
21 47 43
21 47 43
22 48 44
22 47 43
22 47 43
21 47 43
22 47 43
21 47 43
21 47 43
22 48 43
21 46 42
21 46 42
21 46 42
21 47 43
21 47 43
22 48 43
21 47 43
22 48 44
21 46 42
22 48 44
21 47 43
21 47 43
21 47 42
21 47 43
22 48 43
21 46 42
21 47 43
21 46 42
21 47 42
21 47 43
22 48 44
21 47 43
21 47 43
22 48 44
21 46 42
21 47 43
21 47 43
21 47 43
21 47 42
21 46 42
21 46 42
21 46 42
21 47 43
22 47 43
21 46 42
21 47 42
21 46 42
21 46 42
21 46 42
21 46 42
21 46 42
22 48 44
21 47 42
21 46 42
21 47 43
21 47 43
21 47 43
21 47 43
20 45 41
20 45 41
21 46 42
21 47 43
21 46 42
21 46 42
21 46 42
21 46 42
21 46 42
21 46 42
21 47 43
21 47 43
21 46 42
21 47 43
21 46 42
21 47 43
21 47 43
21 46 42
21 47 43
21 47 43
20 45 41
22 48 44
21 47 43
20 45 41
21 46 42
20 45 42
21 46 42
21 45 41
21 47 43
21 46 42
21 47 43
21 46 42
20 45 41
21 47 43
21 46 42
21 46 42
20 45 41
21 47 43
21 46 42
21 47 43
21 46 42
20 45 41
21 47 43
21 47 43
21 47 43
21 46 42
22 47 43
21 46 42
21 47 43
21 46 42
20 45 41
21 46 42
21 46 43
21 46 42
21 46 43
21 46 42
21 47 43
21 46 42
21 46 42
21 47 43
21 47 43
21 47 43
21 46 42
21 46 42
20 45 41
20 45 41
21 46 42
21 47 43
20 45 41
20 44 40
21 46 42
21 46 42
21 46 42
20 44 40
21 46 42
21 47 43
21 46 42
20 45 41
21 46 42
21 46 42
21 47 43
21 46 42
21 46 42
21 46 42
20 45 41
20 44 41
21 46 42
20 45 41
20 45 42
21 46 42
20 45 41
21 46 42
21 47 43
21 47 43
21 46 42
21 46 42
20 45 41
20 45 41
21 46 42
21 45 42
20 45 42
20 45 41
21 47 43
21 46 42
20 44 40
20 44 41
21 46 42
20 45 41
20 44 41
20 45 42
20 45 41
21 46 42
20 45 41
20 46 42
20 45 42
20 45 41
21 46 42
20 45 42
20 45 41
22 48 43
22 49 45
22 48 43
22 48 44
22 48 44
22 48 43
22 48 44
22 49 44
23 50 45
22 48 44
23 51 46
23 50 45
22 48 43
22 47 43
22 48 43
22 48 44
22 48 43
22 48 43
22 48 44
22 49 45
23 49 45
22 49 44
22 49 45
22 48 44
22 48 43
21 47 43
23 50 45
22 49 44
22 48 44
22 48 43
22 48 44
22 49 44
21 47 43
22 48 43
21 47 43
22 48 43
23 50 45
22 49 45
22 48 44
22 49 45
22 49 45
22 48 43
21 47 43
22 48 43
22 49 45
22 47 43
22 49 45
22 48 43
22 48 43
22 49 44
21 47 42
22 49 44
21 47 42
22 48 44
22 49 45
22 48 43
23 50 45
22 48 44
22 48 44
22 49 45
21 47 43
22 47 43
22 48 44
22 49 44
22 49 45
22 47 43
22 48 43
23 49 45
23 49 45
23 49 45
22 48 43
22 48 44
22 48 44
23 50 45
22 47 43
22 49 45
22 49 44
22 48 44
22 49 45
22 47 43
22 47 43
21 47 42
21 47 42
22 49 44
22 49 45
22 48 44
22 48 44
22 48 44
22 49 44
22 49 44
22 48 43
22 47 43
22 47 43
22 49 44
21 47 43
22 49 44
22 49 44
22 49 44
22 49 44
22 48 43
22 49 44
22 49 45
22 49 45
23 49 45
22 49 44
22 47 43
22 49 44
22 47 43
22 48 43
21 47 42
22 49 44
22 48 44
22 48 43
22 49 44
21 47 43
22 48 43
22 48 44
21 47 43
21 47 42
22 48 44
22 48 44
22 48 43
21 47 43
21 47 43
22 49 44
22 47 43
22 47 43
21 46 42
22 48 43
22 48 44
22 49 45
21 47 42
22 48 44
22 48 44
22 47 43
22 49 44
22 49 45
21 46 41
22 48 44
22 48 43
22 49 44
21 47 43
22 48 43
21 47 43
22 48 43
21 47 43
22 48 44
22 48 43
22 48 43
22 48 43
22 48 44
22 48 43
22 47 43
21 47 43
21 47 43
22 48 44
23 50 45
22 47 43
22 48 43
22 49 45
22 48 44
21 47 43
22 49 44
22 48 44
21 47 43
22 48 44
22 48 44
22 49 44
22 48 43
22 49 45
22 49 45
22 48 44
21 47 42
22 48 43
22 48 43
21 47 43
21 47 43
22 48 43
21 47 43
22 48 43
21 47 43
21 47 42
21 46 42
22 48 43
21 47 43
21 46 42
22 48 43
22 48 43
22 47 43
22 49 44
22 48 44
21 47 43
22 47 43
22 48 44
21 47 43
22 49 44
21 47 43
22 48 44
21 47 43
21 47 43
22 47 43
22 48 44
21 47 43
21 47 43
22 48 44
22 48 43
22 48 44
22 48 43
22 49 45
22 48 43
21 47 43
22 48 43
22 48 43
21 47 43
22 48 43
22 48 43
21 46 42
21 47 43
22 48 43
21 46 42
22 48 43
21 47 43
22 48 44
21 47 42
22 47 43
21 47 43
22 48 43
22 48 43
22 48 44
22 48 43
21 47 43
21 47 43
21 47 43
22 48 43
21 47 43
21 46 42
21 46 42
21 47 43
21 47 43
21 46 42
22 48 43
22 48 44
21 46 42
21 46 42
21 47 43
22 48 43
21 47 43
21 47 43
22 48 44
22 48 44
22 48 43
22 48 44
21 47 43
22 48 44
21 46 42
21 47 43
21 47 43
22 48 44
21 47 43
21 46 42
21 47 42
21 46 42
21 47 43
21 47 43
21 47 43
21 46 42
21 47 43
21 47 43
21 47 43
21 47 43
21 45 41
21 47 43
21 47 43
21 46 43
21 46 42
21 45 41
21 47 43
21 47 43
22 48 44
21 45 41
21 45 41
21 47 43
21 47 42
21 46 42
21 46 42
20 45 41
21 46 42
21 47 43
21 46 42
21 47 43
21 47 43
21 47 43
20 45 41
21 46 42
21 47 43
20 45 41
21 46 42
21 46 42
21 47 43
21 46 42
21 46 42
21 46 42
21 47 43
21 46 42
21 46 42
20 45 41
21 46 42
20 44 41
20 45 41
21 47 43
21 47 43
21 47 43
21 47 43
21 46 42
21 47 43
21 46 42
21 46 42
21 47 43
21 47 43
21 47 43
21 45 41
21 46 42
20 45 41
21 46 42
21 47 43
21 46 42
21 45 42
22 48 43
22 48 44
20 45 41
20 45 41
21 46 42
21 46 42
20 45 41
21 46 42
21 45 42
21 46 42
21 46 42
21 46 42
21 47 43
21 46 42
21 46 42
21 47 43
20 45 41
21 46 42
20 45 41
21 46 42
21 46 42
21 46 42
21 45 42
21 46 42
21 45 42
21 47 43
20 45 41
21 46 42
21 46 42
21 46 42
21 46 42
21 47 43
21 47 43
21 46 42
21 46 42
20 45 41
21 46 42
21 47 43
21 46 42
20 45 41
21 46 42
20 45 41
21 47 43
21 46 42
21 47 43
21 46 42
20 45 42
21 46 42
21 46 42
21 47 43
21 46 43
21 46 42
21 46 42
20 45 41
20 45 41
20 44 40
20 45 42
21 46 42
21 46 42
21 46 42
20 44 40
20 44 41
20 45 41
20 45 41
20 44 41
21 46 42
21 46 42
20 45 41
20 45 41
21 46 42
20 45 42
21 46 42
21 46 42
22 48 44
22 48 44
22 48 44
22 49 44
22 48 44
23 50 45
22 49 45
22 49 44
23 50 46
22 48 43
22 47 43
22 48 44
22 49 44
22 49 44
22 48 44
22 48 44
22 49 44
22 49 44
23 49 45
22 48 44
23 50 46
22 48 43
22 48 44
22 47 43
22 48 43
22 49 44
22 49 45
22 49 44
22 49 44
22 49 44
22 48 43
22 47 43
22 48 43
22 48 44
22 49 45
22 48 44
22 48 43
22 47 43
22 49 44
22 48 43
23 50 45
23 50 45
22 49 44
22 49 44
22 49 44
22 49 44
22 48 44
22 47 43
22 48 43
22 48 44
21 47 43
22 47 43
22 49 45
22 48 43
22 48 44
22 48 43
23 50 46
23 50 45
22 48 44
21 47 43
21 47 43
21 47 43
22 48 44
22 49 44
22 49 44
22 48 44
22 48 43
22 48 44
22 49 44
22 49 45
22 48 44
22 48 44
22 48 44
22 48 43
22 48 44
22 48 43
22 49 44
22 49 44
22 48 43
21 47 43
22 48 44
22 49 44
22 49 44
22 49 44
21 47 42
22 48 44
23 50 45
22 49 44
22 49 44
22 48 43
22 48 43
22 49 45
22 48 43
22 48 43
22 48 44
22 48 44
22 48 44
22 49 44
22 49 44
22 48 44
23 50 45
23 49 45
22 48 44
22 48 44
22 49 44
22 49 44
22 48 44
22 49 44
22 49 45
22 48 44
23 50 45
22 48 43
22 47 43
21 47 43
22 48 44
22 48 43
22 49 44
21 47 43
22 49 44
23 50 45
22 49 45
22 48 44
21 47 42
22 49 45
22 48 44
22 48 43
22 49 44
21 47 43
22 49 44
21 47 43
22 48 44
22 48 43
22 48 44
22 48 44
22 49 44
22 48 43
22 49 44
21 47 43
22 48 43
22 48 44
22 48 43
22 48 44
22 48 43
22 49 44
21 47 42
22 47 43
21 47 43
22 49 44
22 48 44
22 49 44
22 48 43
21 47 43
22 49 45
22 49 44
21 47 43
22 48 43
22 49 45
22 48 43
22 48 43
22 48 43
22 49 45
21 47 43
22 48 43
22 48 44
22 49 44
22 48 43
22 48 44
22 48 44
22 48 43
22 48 44
21 47 43
22 48 44
22 48 44
22 47 43
21 47 42
21 47 43
22 48 44
21 47 43
21 47 43
22 49 44
22 48 44
22 49 44
21 46 42
21 46 42
22 47 43
22 48 44
21 47 43
21 47 43
21 47 43
21 47 43
21 46 42
22 49 45
22 48 43
22 48 43
21 47 43
22 48 44
21 47 43
22 48 44
22 48 44
21 47 43
22 48 43
21 47 43
22 47 43
21 47 43
22 48 44
21 47 43
22 48 44
21 47 43
21 46 42
21 47 43
22 49 44
22 48 44
21 47 43
22 48 43
22 49 44
21 46 42
22 49 45
21 47 42
21 47 42
22 48 43
21 47 43
22 48 44
21 47 43
21 47 43
21 47 43
21 46 42
21 47 43
22 47 43
21 47 43
22 49 45
21 47 43
21 47 43
22 47 43
21 47 42
21 47 43
22 48 43
21 46 42
22 47 43
22 48 44
21 47 43
22 48 43
21 46 42
21 46 42
22 48 43
22 49 44
21 47 43
21 47 43
22 48 44
21 47 43
22 48 43
21 47 43
21 46 42
21 46 42
21 47 43
21 47 43
21 46 42
21 47 43
21 47 43
21 47 43
21 46 42
21 47 43
21 47 43
22 48 43
22 49 44
21 47 43
21 47 42
22 48 44
21 47 43
21 46 42
21 47 43
21 47 43
22 48 43
22 48 44
22 48 44
22 48 44
22 48 43
22 48 44
21 47 42
21 46 42
20 45 41
21 46 42
21 46 42
21 46 42
21 47 42
21 47 43
21 46 42
21 46 42
21 47 43
21 47 43
21 47 43
21 47 43
21 46 42
21 46 42
21 47 43
21 47 43
21 46 42
21 47 43
21 47 42
22 48 43
21 46 42
21 46 42
21 47 43
21 45 42
21 46 42
21 46 42
21 46 42
21 47 43
21 47 43
21 46 42
22 49 45
21 46 42
21 46 42
21 46 42
21 46 42
21 47 43
21 46 42
21 47 43
21 47 43
21 47 43
21 47 43
21 47 43
21 46 42
21 46 42
21 47 43
21 46 42
21 46 42
21 46 42
21 47 43
20 45 41
21 47 43
20 44 41
21 45 42
21 46 42
20 45 41
20 45 41
21 46 42
21 47 43
21 46 42
21 46 42
21 47 43
20 45 41
21 47 43
21 46 42
21 46 42
21 47 43
21 46 43
21 47 43
21 46 42
21 46 42
21 45 41
21 47 43
20 45 41
20 45 41
20 45 41
21 47 43
21 46 42
20 45 41
21 46 42
21 46 42
21 46 42
21 47 43
21 45 42
21 46 42
21 47 43
21 46 42
21 46 42
20 45 42
20 44 40
21 46 42
21 46 42
20 45 41
21 47 43
21 46 42
20 44 41
20 44 41
21 46 42
21 46 42
21 46 42
21 46 42
21 46 43
20 45 41
20 45 41
21 46 42
20 45 41
21 46 42
21 47 43
21 46 42
21 45 42
20 45 41
21 46 42
21 46 42
21 46 42
21 46 43
20 45 41
20 44 41
21 45 42
20 45 41
21 46 42
21 46 42
21 46 42
22 49 44
22 49 44
22 49 45
22 48 44
22 49 44
22 48 44
22 48 44
23 51 46
22 49 44
22 48 44
22 48 43
22 49 44
22 49 44
22 49 44
22 49 45
22 48 43
22 49 44
22 49 45
22 49 44
22 48 43
22 47 43
22 48 43
22 49 44
22 49 45
22 49 45
22 48 43
22 48 44
22 48 44
23 49 45
22 49 45
22 48 44
22 48 43
22 49 45
22 48 44
22 48 43
22 49 44
23 50 45
22 48 43
22 48 44
22 49 44
22 48 44
22 48 44
22 49 45
22 48 43
22 49 44
22 48 44
22 48 43
22 49 45
23 50 45
22 49 44
22 47 43
22 47 43
22 48 44
22 48 44
22 49 44
22 48 44
22 48 44
22 48 43
22 49 45
22 49 45
22 49 44
22 48 44
22 48 43
22 48 43
22 49 44
22 49 44
22 48 44
22 48 44
22 48 44
22 48 43
22 48 44
21 47 43
23 49 45
22 48 43
22 48 44
23 50 45
22 49 44
22 49 44
22 49 44
22 49 45
22 48 43
22 48 43
22 49 44
22 48 44
22 47 43
22 49 44
22 48 43
22 47 43
21 47 43
22 48 43
23 49 45
23 49 45
22 49 44
23 49 45
22 49 45
22 49 44
22 49 44
23 49 45
22 48 44
22 48 43
21 47 43
22 48 43
22 48 43
22 48 43
22 49 44
22 49 44
22 49 44
21 47 42
23 49 45
22 48 44
22 49 45
22 48 43
22 49 44
22 48 43
22 48 44
21 47 43
22 48 44
22 47 43
22 48 44
21 47 43
22 48 43
21 47 43
22 48 44
22 48 43
21 47 43
22 48 44
22 49 45
22 48 44
21 47 43
21 47 43
22 48 44
22 49 44
22 48 43
22 49 44
22 49 44
22 47 43
22 49 44
22 48 44
22 48 44
21 46 42
22 48 44
22 49 45
22 49 45
21 47 43
22 49 44
22 48 44
21 47 43
22 48 44
22 48 43
22 48 44
21 47 42
22 49 44
22 48 44
21 47 43
22 48 44
21 47 43
21 47 43
22 48 44
22 48 44
22 48 44
21 47 43
22 47 43
21 47 43
22 48 44
22 49 45
22 49 44
22 48 43
22 48 44
22 47 43
21 47 43
21 47 42
22 48 43
22 49 44
21 47 43
22 48 43
22 48 44
22 48 44
21 47 43
22 49 44
22 48 44
21 47 43
22 48 44
22 48 43
21 47 43
22 48 43
21 46 42
21 47 42
21 46 42
22 48 44
22 48 44
21 47 43
21 47 43
22 48 44
22 48 44
21 46 42
21 47 43
22 49 44
22 48 43
21 46 42
22 48 43
21 47 43
22 48 44
22 48 44
21 46 41
21 47 43
21 47 43
21 47 42
21 47 43
21 47 43
21 47 43
21 47 43
21 47 43
21 47 43
21 47 43
21 47 42
21 47 43
22 48 43
22 49 44
22 48 44
22 47 43
21 47 43
22 48 43
22 48 43
21 47 43
21 47 43
22 47 43
21 47 43
21 47 43
22 48 44
21 47 43
22 48 44
21 47 43
21 47 43
21 46 41
21 47 42
21 46 41
21 46 42
21 47 43
21 47 43
21 46 42
21 46 42
22 48 43
21 46 42
21 47 43
21 47 43
22 48 44
22 48 44
21 46 42
22 48 43
22 48 44
21 47 43
22 48 44
21 47 43
21 46 41
21 47 43
21 47 43
21 46 42
21 46 42
21 47 43
21 46 42
21 47 42
21 47 42
21 47 43
22 48 43
21 46 42
21 47 43
21 46 42
21 47 43
21 46 42
21 47 42
22 48 44
22 48 44
21 47 43
21 47 43
21 47 43
21 46 42
21 46 42
21 47 43
22 48 43
21 47 43
21 47 43
21 45 41
21 47 43
21 47 43
21 46 42
20 45 41
21 46 42
21 47 43
21 46 42
21 46 42
21 46 42
21 46 42
21 46 42
22 48 44
21 46 42
21 46 42
21 47 43
21 47 43
21 46 42
21 45 41
21 46 42
22 48 43
21 46 42
21 46 42
21 47 43
21 46 42
21 47 43
21 46 42
21 46 42
21 47 43
21 47 43
21 45 41
21 47 43
21 46 42
21 46 42
21 46 42
21 47 43
21 47 43
21 48 44
20 45 41
21 46 42
21 46 42
21 46 43
21 47 43
22 48 43
20 45 41
21 46 42
21 47 43
21 47 43
20 45 41
22 48 44
21 47 43
21 46 42
20 45 41
21 47 43
21 46 42
21 45 42
21 46 42
21 47 43
21 47 43
21 46 42
21 46 42
21 47 43
21 46 42
21 47 43
21 47 43
21 46 42
21 47 43
20 45 41
21 46 42
21 46 42
20 45 41
21 46 42
21 47 43
21 47 43
21 47 43
20 45 42
20 44 41
21 46 42
20 45 41
20 44 41
21 46 42
20 45 41
21 47 43
20 44 40
21 46 42
21 46 42
21 46 42
21 47 43
21 46 43
21 46 42
21 46 42
21 46 42
21 47 43
21 46 42
20 45 41
21 46 42
21 47 43
20 44 41
21 46 42
20 45 41
21 46 42
21 46 42
20 45 41
20 45 41
21 46 42
20 45 41
22 48 44
21 46 42
21 46 42
21 46 42
21 46 42
21 47 43
20 44 41
20 45 41
20 45 41
20 45 41
21 47 43
21 47 43
20 44 40
22 49 45
22 49 44
22 49 44
22 48 44
23 50 45
22 48 44
22 48 44
23 49 45
22 48 43
22 49 44
22 49 45
23 49 45
22 49 44
22 48 44
22 48 43
23 50 45
22 49 44
22 48 44
22 48 44
22 48 44
22 48 43
22 49 44
21 47 43
22 48 44
22 49 44
22 49 44
22 48 43
22 49 44
23 50 45
23 50 46
22 48 44
22 49 44
22 49 44
22 49 44
22 49 44
22 49 44
22 49 45
21 47 43
22 49 44
22 48 44
23 50 45
22 49 45
22 48 44
22 49 44
22 49 44
21 47 43
22 48 44
22 49 45
22 49 44
22 48 44
22 47 43
22 49 44
22 47 43
22 49 44
22 48 44
22 48 44
22 48 44
21 47 43
23 51 46
23 50 45
22 49 44
22 49 45
22 48 44
21 47 42
22 48 44
22 48 43
22 48 43
22 49 44
22 48 44
22 48 43
22 48 44
21 47 42
22 48 44
22 48 43
22 48 44
22 48 44
22 48 43
22 48 44
23 50 45
22 49 44
23 50 45
22 49 44
22 48 43
23 50 45
22 49 45
22 49 45
22 48 43
22 49 45
22 48 44
22 49 45
21 47 43
22 49 44
22 48 44
22 48 44
22 48 44
22 48 44
22 49 44
22 49 44
22 49 44
22 48 44
22 47 43
23 50 45
22 49 44
22 49 44
21 47 43
22 48 44
22 48 44
22 49 44
22 48 44
22 48 43
22 49 44
22 48 43
22 47 43
22 47 43
22 47 43
22 48 44
22 48 44
21 47 42
21 46 42
21 46 42
22 48 43
22 49 44
22 48 44
22 48 43
22 48 44
21 47 43
22 48 43
22 49 45
22 47 43
22 48 44
21 47 43
22 49 45
22 49 44
22 48 44
22 49 44
22 47 43
22 48 44
22 47 43
22 49 45
22 48 44
22 48 44
22 48 44
22 48 44
22 48 44
22 48 44
22 49 45
23 50 45
22 48 43
22 48 44
21 47 43
22 48 44
21 47 43
22 48 44
21 47 43
22 48 44
22 48 43
21 46 42
22 48 43
22 48 43
22 48 44
22 48 44
22 48 43
22 47 43
22 48 43
21 47 43
21 47 43
22 49 44
22 48 44
22 48 44
21 47 43
21 47 43
21 47 43
21 47 43
21 47 43
22 49 45
22 48 43
22 49 44
22 48 43
22 48 44
22 48 44
22 47 43
21 47 43
22 48 43
22 48 43
21 47 43
21 47 43
22 48 43
22 47 43
22 48 44
22 47 43
22 48 43
22 48 43
21 47 42
22 49 44
22 47 43
22 48 44
22 48 43
22 48 44
22 48 44
21 47 43
21 47 43
21 46 42
22 48 44
22 48 44
22 48 44
21 47 43
21 47 43
22 48 44
22 48 43
21 47 43
22 47 43
21 46 42
21 46 42
21 46 42
22 48 43
22 48 44
22 48 44
21 47 43
22 48 44
21 47 42
22 48 43
21 47 43
21 47 42
22 48 43
21 46 42
21 47 43
22 47 43
22 48 43
21 47 42
21 46 42
22 48 44
21 47 43
22 47 43
21 47 42
21 46 42
22 49 45
21 47 42
21 46 42
21 47 43
22 48 43
22 48 44
21 46 42
21 47 42
21 47 43
22 47 43
21 47 43
21 46 42
21 47 43
22 48 43
21 47 43
22 48 44
22 49 45
21 47 43
21 46 42
22 48 44
21 46 42
21 46 42
21 46 42
21 46 42
21 46 42
21 47 43
21 45 41
21 46 42
21 47 43
21 46 42
21 47 43
21 47 42
21 47 43
21 47 43
21 47 43
22 48 43
21 47 43
21 47 43
22 48 44
21 47 43
21 47 43
22 47 43
21 47 43
21 46 42
21 47 43
21 46 42
21 47 43
21 47 43
21 47 43
21 47 43
21 47 43
21 46 42
21 46 42
21 47 43
22 47 43
21 47 43
21 47 43
21 46 42
22 48 44
21 46 42
21 47 43
21 47 43
21 47 43
21 47 43
21 46 42
21 47 43
21 47 43
21 47 43
21 46 42
21 45 41
22 47 43
21 47 43
21 46 42
21 46 42
22 48 43
21 46 42
21 47 43
21 46 42
20 45 41
21 45 41
21 47 42
21 47 43
21 46 42
21 46 42
21 45 41
21 46 42
21 46 42
21 47 43
21 46 42
20 45 41
21 46 42
21 46 42
21 46 42
21 47 43
21 46 42
21 47 43
21 46 42
21 46 42
21 47 42
21 45 42
21 46 42
21 46 42
21 47 43
21 47 43
21 47 43
22 48 44
21 46 42
22 48 43
21 46 42
20 45 41
21 46 42
20 44 40
21 46 42
21 47 43
21 46 42
20 45 41
22 48 43
20 45 41
21 46 42
21 46 42
21 46 42
21 47 43
21 47 43
21 46 42
21 46 42
21 46 42
21 47 43
21 46 42
21 47 43
21 46 42
21 46 42
20 45 41
21 46 42
22 48 44
21 47 43
21 46 42
21 47 43
20 45 42
21 46 42
21 46 42
21 46 42
21 46 42
20 45 41
21 46 42
21 47 43
20 45 42
20 45 42
21 46 42
21 46 42
21 46 42
20 45 41
21 47 43
21 46 42
21 46 42
21 46 42
20 45 41
21 46 42
21 46 42
20 45 42
21 46 42
20 45 41
20 45 41
21 46 42
21 47 43
21 46 42
22 49 44
22 48 44
22 48 44
22 49 44
22 48 44
22 48 43
22 49 44
22 49 45
22 49 44
22 49 45
22 48 43
22 48 44
23 50 45
22 49 44
22 48 44
23 50 45
22 49 44
23 50 45
22 49 44
22 48 43
22 49 45
22 48 44
22 48 43
22 48 44
23 50 45
22 49 44
22 49 45
22 48 44
23 50 45
22 49 44
22 48 44
22 48 43
22 47 43
22 48 44
22 48 43
22 49 44
22 48 43
23 50 45
22 48 44
22 48 43
22 49 45
22 49 44
22 48 44
22 48 44
22 48 44
21 47 43
22 49 44
22 48 44
22 48 44
21 47 43
23 49 45
22 48 44
23 49 45
22 49 45
22 49 45
22 49 45
22 48 43
22 48 43
22 49 44
22 48 44
22 48 44
22 49 45
22 48 44
22 47 43
22 49 44
22 49 44
22 49 44
22 48 43
21 47 43
21 47 43
22 48 43
22 48 44
22 48 44
22 48 43
21 46 42
22 48 44
22 49 45
23 49 45
23 50 45
22 48 43
22 49 44
22 48 44
22 49 44
23 50 45
22 49 45
22 49 44
22 49 44
22 49 45
22 49 44
22 49 44
22 49 44
22 48 43
22 48 44
22 48 44
21 47 43
22 49 45
22 48 44
21 47 43
22 48 43
22 47 43
22 49 44
22 49 44
22 48 44
22 47 43
22 49 44
22 48 43
22 47 43
22 48 43
22 48 43
22 49 44
22 48 44
21 46 42
22 48 43
22 49 44
22 49 44
21 47 42
21 46 42
22 48 43
22 48 44
22 48 43
22 48 43
22 48 44
22 49 45
22 48 44
22 47 43
22 49 44
22 48 44
22 48 44
23 50 45
22 48 44
22 48 43
22 48 43
21 47 43
22 48 43
22 47 43
21 47 43
22 49 44
21 47 43
22 49 44
22 47 43
22 47 43
22 48 44
22 49 44
22 47 43
22 48 44
22 48 44
22 48 43
22 49 45
22 48 44
22 47 43
22 48 44
22 48 44
22 49 44
22 48 44
22 48 44
21 46 42
22 48 43
22 48 44
21 46 42
21 47 43
21 47 42
22 47 43
22 48 43
22 48 44
22 49 44
22 48 44
22 49 44
21 47 43
22 48 44
22 47 43
21 47 42
21 47 42
22 49 44
22 48 44
21 46 42
23 50 45
21 47 43
21 47 43
22 48 44
22 48 44
21 46 42
22 48 43
22 48 43
22 48 44
22 48 43
22 48 44
22 49 44
22 48 44
21 47 42
22 48 43
22 49 44
21 47 43
22 48 44
22 48 44
21 47 42
21 47 43
21 47 43
21 46 42
21 46 42
22 48 43
21 47 43
21 46 42
21 46 42
21 47 43
22 49 45
22 48 44
21 47 43
21 47 43
21 46 42
22 48 43
21 46 42
22 49 44
22 48 44
22 48 43
22 48 44
22 48 43
22 49 44
21 47 43
21 47 43
21 47 43
22 48 44
21 47 43
21 46 42
21 45 41
22 48 44
21 46 42
21 47 43
21 46 42
21 46 42
22 48 44
21 47 43
21 47 43
21 47 43
21 47 43
21 47 43
21 47 43
21 47 43
21 47 43
21 47 42
22 48 43
22 48 44
21 47 43
21 47 43
21 47 43
21 47 43
22 48 44
22 48 44
22 48 44
22 48 44
21 47 43
22 47 43
22 48 44
21 47 42
22 48 43
21 47 43
22 48 44
21 47 43
21 47 43
21 47 42
21 47 43
21 46 42
21 47 43
21 47 43
21 47 43
21 46 42
21 47 43
22 48 44
22 47 43
21 47 43
21 46 42
22 48 44
22 48 44
21 46 42
22 48 44
22 47 43
21 47 43
21 46 42
22 48 43
21 47 43
21 47 43
21 47 43
22 48 44
21 47 43
21 47 43
21 46 42
21 47 43
21 46 42
22 47 43
21 45 41
21 47 43
21 47 43
21 46 42
21 47 43
21 46 42
20 45 41
21 46 42
21 47 43
21 46 42
21 47 42
21 46 42
21 47 43
21 47 43
20 45 41
21 47 43
21 47 43
21 47 43
21 46 42
21 46 42
21 47 43
22 47 43
21 46 42
21 46 42
21 47 43
21 46 42
21 46 42
21 46 42
21 47 43
22 48 43
21 46 42
21 46 42
21 46 42
21 47 43
21 47 43
21 47 43
21 45 41
21 46 42
21 46 42
21 47 43
21 46 42
21 46 42
21 46 42
20 45 41
21 47 43
21 47 43
21 47 42
21 46 42
21 46 42
21 46 42
20 45 41
22 48 44
21 47 43
20 45 41
21 46 43
21 46 42
20 45 41
21 46 42
21 45 41
21 46 42
21 46 42
21 47 43
21 46 42
21 47 43
21 46 42
21 46 42
21 47 43
21 46 42
21 46 42
20 45 41
21 46 42
21 46 42
21 46 42
21 46 42
20 45 41
21 46 42
21 46 42
21 47 43
21 46 42
21 46 42
21 47 43
21 46 42
20 45 41
21 47 43
20 45 42
21 47 43
20 44 41
21 46 42
21 46 42
21 47 43
20 45 41
21 46 42
20 45 41
21 46 42
20 45 41
21 46 42
20 45 42
20 45 41
20 45 42
21 46 42
21 45 42
21 46 42
21 46 42
20 45 41
21 46 42
21 47 43
21 47 43
21 47 43
20 45 42
21 46 42
20 45 41
21 46 42
22 48 43
22 49 44
22 47 43
22 49 44
23 49 45
23 49 45
23 50 45
23 50 45
22 48 43
22 49 44
22 48 44
22 49 44
22 48 44
21 47 42
22 48 43
22 48 43
22 49 44
22 48 43
22 48 43
22 49 45
22 48 44
23 49 45
22 48 43
22 49 44
22 49 45
23 49 45
23 50 45
22 49 45
22 48 43
22 49 44
22 49 44
22 49 44
21 47 42
22 49 44
22 49 44
22 48 43
23 50 45
23 50 46
22 49 44
