P3
120 80
255
17 38 36
17 38 36
17 39 37
17 40 37
17 39 37
17 38 36
17 39 37
17 39 36
17 39 37
17 38 36
17 40 37
17 39 37
18 40 38
17 40 37
17 39 37
17 40 37
17 39 37
17 39 37
17 39 37
17 39 37
17 40 37
17 40 38
17 40 37
17 39 37
17 40 37
17 39 37
17 39 37
17 39 37
17 39 37
17 39 36
17 39 37
17 38 36
17 39 37
17 39 37
17 40 37
17 40 37
17 39 37
17 39 36
17 39 37
18 40 37
17 38 36
17 40 37
17 39 37
17 39 37
17 38 36
18 40 38
17 39 37
17 38 36
18 40 38
17 40 37
18 41 38
17 40 37
17 39 37
17 39 37
17 39 37
17 40 37
17 39 36
17 39 36
17 39 36
17 40 38
17 39 36
17 39 37
17 40 38
17 40 37
17 38 36
17 39 37
17 40 38
17 38 36
18 40 38
17 39 37
17 40 38
17 39 37
17 39 37
17 39 37
18 40 38
17 39 37
17 40 37
17 39 37
18 40 37
17 39 37
17 39 37
18 40 38
17 40 37
17 40 37
17 39 36
17 39 37
17 39 37
17 39 37
17 39 36
17 39 36
17 39 37
17 40 37
17 39 37
18 40 38
18 40 38
17 38 36
17 40 37
17 38 36
17 39 37
17 39 37
17 39 37
17 40 37
18 40 38
17 39 37
17 40 37
17 40 37
17 39 37
17 39 37
17 39 36
17 39 37
17 40 37
17 39 37
17 39 37
18 41 39
17 39 37
17 40 37
17 40 37
17 38 36
17 39 37
17 38 36
17 39 37
18 40 37
17 39 37
17 39 37
17 40 37
17 39 36
17 39 36
17 40 37
18 41 38
18 40 38
17 39 36
17 39 37
17 39 37
17 40 37
17 40 38
17 39 37
17 39 37
17 40 37
17 40 37
17 39 37
17 39 37
17 40 37
17 39 37
17 40 37
17 39 37
18 40 37
17 39 36
17 40 37
17 39 37
17 39 37
17 40 37
18 40 38
17 39 37
17 39 36
18 40 38
18 40 38
17 39 37
18 40 38
17 39 37
18 40 38
17 40 37
17 40 37
18 41 38
17 40 37
17 39 36
17 39 37
17 38 36
17 39 36
18 41 38
18 40 38
17 39 37
17 40 37
18 40 38
17 39 37
17 39 37
17 39 37
17 40 37
17 39 37
17 40 37
17 40 38
17 39 37
17 39 37
17 39 37
17 39 37
17 40 37
18 40 38
17 39 37
17 40 38
17 39 37
17 39 37
17 39 37
17 39 37
17 40 37
17 39 37
17 40 37
17 39 37
17 40 37
17 39 37
18 40 38
18 40 38
17 39 37
17 39 36
17 39 37
17 40 38
17 40 37
17 39 37
17 39 37
18 41 38
17 40 37
17 39 37
18 40 38
17 40 37
17 40 37
18 40 38
18 40 38
18 40 37
17 39 37
18 41 38
17 39 37
18 40 38
17 40 37
18 40 38
18 40 38
18 40 38
17 40 37
17 38 36
18 41 38
17 39 37
17 39 36
18 41 38
17 39 37
17 40 37
17 39 37
17 40 37
17 39 37
17 39 37
17 39 37
17 40 37
17 40 37
17 39 37
17 39 36
18 41 38
17 39 37
18 41 38
17 40 37
18 41 38
17 40 37
18 40 38
17 39 37
17 38 36
17 39 37
17 40 37
18 40 38
18 41 38
17 39 37
17 39 37
17 40 37
17 39 36
17 39 37
17 40 37
17 39 37
18 41 38
17 39 37
17 39 37
17 39 37
18 40 38
17 39 37
17 39 37
17 39 37
18 40 38
17 39 37
17 39 37
17 40 37
18 40 38
17 40 37
17 39 37
17 40 37
17 40 38
17 39 37
17 39 37
17 39 36
17 39 37
17 40 37
18 40 38
17 40 37
17 40 37
17 40 37
18 41 38
17 39 37
18 40 38
17 39 37
17 40 37
17 39 37
17 40 37
18 40 38
17 40 38
17 39 37
17 40 37
17 39 37
18 41 39
17 39 37
17 39 37
17 39 37
18 41 39
17 40 37
17 39 37
17 39 37
18 41 38
18 40 37
18 40 38
17 39 36
17 39 36
18 40 37
18 40 38
17 39 37
17 40 37
17 39 37
18 40 37
18 40 37
17 40 37
17 39 37
17 39 36
17 39 36
17 40 37
18 40 38
18 40 38
18 40 38
17 38 36
17 39 37
17 40 37
17 39 37
18 40 38
18 40 38
18 40 38
17 39 37
18 40 38
17 39 37
18 40 37
17 40 37
17 39 37
17 39 37
18 40 38
18 40 38
17 40 37
17 39 37
17 40 37
17 40 37
18 40 38
17 39 37
17 39 37
18 40 38
17 40 37
17 40 37
17 40 37
17 40 37
17 39 37
18 40 38
17 39 37
17 39 37
18 41 38
18 40 38
17 39 36
17 40 38
17 39 37
17 40 37
17 39 37
18 40 38
18 40 38
18 40 38
17 39 37
18 40 38
18 40 38
17 39 37
18 40 38
18 41 38
18 40 38
17 39 37
18 40 38
17 40 37
17 39 37
17 40 37
17 39 37
18 41 38
18 40 38
17 39 37
17 39 37
18 40 38
17 39 37
18 40 38
18 40 38
17 40 37
17 39 37
17 40 37
17 39 37
17 40 37
18 41 38
17 40 37
18 41 38
17 40 37
17 39 37
17 39 37
17 40 37
17 39 37
18 40 37
18 40 38
18 40 38
17 40 37
17 40 37
18 41 38
18 41 38
18 40 37
17 40 37
17 39 37
18 40 38
17 39 36
17 39 37
18 40 38
17 39 37
17 39 37
18 41 38
18 41 38
18 40 38
18 40 38
17 40 37
17 39 37
17 39 37
18 40 38
18 40 37
18 40 38
17 40 37
17 40 37
18 40 38
17 40 37
17 40 37
17 39 37
18 40 38
18 40 38
18 40 38
17 39 37
18 40 37
18 40 37
18 40 38
18 40 38
18 41 38
17 39 37
17 40 37
17 39 37
18 41 38
17 39 37
18 40 38
18 41 38
17 39 37
18 40 38
18 41 38
18 40 38
17 40 37
18 40 38
18 40 38
17 40 37
17 40 37
18 40 38
18 40 37
17 39 37
18 40 37
17 40 37
18 40 38
17 39 37
17 39 37
18 40 38
17 39 37
18 41 38
18 40 38
18 40 37
17 39 37
17 39 37
18 41 38
17 40 38
18 40 38
18 40 38
18 41 39
17 40 37
17 39 37
18 40 37
18 41 38
17 39 37
17 39 37
18 40 38
17 40 37
18 40 38
18 40 38
18 40 38
17 39 37
17 39 37
17 39 37
17 39 36
18 40 37
17 40 37
18 40 38
17 40 37
18 40 38
18 41 38
18 41 38
17 40 37
18 40 38
18 40 37
18 40 37
18 40 38
18 40 38
18 41 38
17 39 37
17 39 37
18 40 38
18 40 38
18 40 38
18 40 37
18 41 38
17 40 37
17 39 37
18 41 38
17 40 37
18 40 38
18 40 38
18 41 38
17 39 37
18 40 37
17 39 37
18 40 38
18 40 37
18 41 38
18 40 37
17 39 37
18 41 39
17 40 37
18 40 37
17 39 37
18 40 38
18 41 38
17 40 37
17 40 37
18 40 38
17 39 37
18 41 38
18 40 38
18 40 38
17 40 37
18 40 38
18 41 38
18 41 38
18 40 38
17 40 37
17 39 37
18 41 38
18 41 38
18 40 38
17 40 37
18 40 37
18 40 37
18 41 38
18 40 38
17 40 37
18 40 38
18 41 39
18 40 37
18 40 38
18 40 38
18 40 38
17 40 37
18 40 37
18 40 38
18 40 37
18 41 38
18 41 38
18 40 38
18 40 38
17 39 37
18 40 38
18 40 38
18 41 38
17 39 37
18 40 38
18 40 38
17 39 37
18 40 38
18 40 38
17 39 37
18 40 38
18 41 38
17 40 37
18 41 38
18 41 38
18 40 37
17 39 37
18 40 37
17 40 37
18 40 37
17 40 37
18 41 38
17 39 37
18 40 38
17 39 37
18 40 38
18 40 38
18 40 38
18 40 38
17 40 37
17 39 37
18 40 38
18 40 38
17 39 37
17 40 37
17 40 37
18 41 38
18 41 38
18 40 38
17 39 37
18 41 38
18 40 37
17 39 37
18 40 38
17 40 37
18 40 38
18 40 38
18 40 38
17 39 37
17 39 37
18 40 38
18 41 38
18 40 38
18 40 38
18 40 38
18 40 38
18 41 38
18 42 39
18 40 37
18 40 37
17 39 37
18 41 38
18 41 38
18 40 38
18 40 37
18 41 38
17 40 37
18 40 38
18 40 37
18 40 37
18 40 37
18 41 38
18 42 39
18 40 37
18 40 38
18 40 38
18 40 38
18 41 38
18 40 37
18 40 38
18 40 38
18 40 37
18 40 38
18 40 38
17 40 37
18 41 38
18 40 37
18 40 38
18 41 38
18 41 38
18 40 38
18 41 38
18 41 38
17 40 37
18 41 38
18 41 38
18 40 38
18 41 38
17 40 37
18 41 38
18 40 38
17 40 37
18 41 38
17 40 37
18 40 38
17 40 37
18 41 38
17 40 37
17 40 37
18 40 38
18 41 38
18 40 38
18 40 38
18 41 38
18 41 38
18 41 38
18 40 38
18 41 38
17 40 37
18 40 38
18 40 38
18 41 38
17 40 37
18 40 38
17 40 37
18 40 38
18 40 38
18 41 38
18 40 38
18 40 38
17 39 37
18 40 38
17 40 37
18 40 38
17 40 37
18 40 38
18 40 38
18 40 38
18 40 38
18 40 38
18 41 38
18 40 37
18 41 38
18 41 38
18 40 37
18 40 37
18 41 38
18 40 38
17 40 37
17 40 37
18 41 39
18 40 38
18 41 39
18 40 38
17 40 37
17 40 37
18 40 37
18 40 38
18 41 38
18 40 37
17 39 37
18 40 38
18 40 38
18 40 38
17 40 37
18 40 38
18 41 38
18 41 39
18 40 38
18 40 38
18 41 38
17 40 37
18 41 39
17 40 37
18 42 39
18 40 38
18 41 38
18 40 38
18 40 37
18 41 38
18 41 38
18 40 38
18 40 38
17 40 37
18 41 38
18 40 38
18 40 37
18 41 38
17 40 37
18 41 38
18 40 38
17 39 37
18 40 37
18 41 38
18 41 38
18 40 38
18 40 38
17 39 37
18 41 39
18 41 38
18 40 37
17 40 37
18 41 39
18 41 38
17 39 37
18 40 38
18 41 38
18 41 39
18 40 38
18 40 38
18 40 37
18 41 38
18 41 38
18 41 38
18 41 38
17 39 37
18 41 38
18 41 38
18 40 37
18 40 38
18 41 39
18 41 38
18 40 38
18 40 38
18 40 37
18 40 38
18 40 37
18 40 38
18 40 37
18 40 38
18 41 38
18 40 38
18 40 38
18 41 38
18 41 38
18 40 38
18 40 38
18 41 38
18 41 38
18 41 38
18 40 38
18 40 37
18 40 38
18 40 38
18 41 38
18 41 38
17 39 37
18 41 39
18 40 37
18 40 38
18 40 37
18 41 38
18 41 38
18 40 38
18 41 38
18 40 38
18 40 38
18 41 39
18 41 38
17 40 37
17 40 37
18 41 38
18 41 38
18 41 38
18 40 38
17 39 37
18 41 38
18 40 37
18 40 37
18 40 38
18 41 38
18 41 38
18 40 38
18 41 38
18 40 37
18 40 38
18 40 38
18 40 38
18 40 38
18 40 37
18 40 38
18 41 39
18 40 38
18 40 37
18 40 37
18 41 38
18 40 38
18 40 38
18 40 38
18 41 38
18 41 38
18 40 38
18 41 39
18 40 38
18 40 37
18 41 39
18 40 38
18 40 38
18 40 38
18 40 37
18 40 38
18 41 38
18 40 38
18 40 37
17 40 37
18 40 38
18 41 38
18 42 39
18 41 38
18 41 39
18 41 39
18 41 38
18 41 38
18 41 39
18 40 38
18 40 37
18 40 37
18 41 39
18 40 38
17 40 37
18 41 39
18 41 39
18 41 38
18 41 38
18 41 38
18 40 38
18 41 38
18 40 37
18 40 37
18 41 38
18 41 38
18 40 38
18 41 38
18 40 37
18 41 38
18 40 38
18 41 38
18 41 38
18 40 38
18 41 38
18 40 38
18 41 39
18 40 37
18 40 38
18 41 38
18 41 38
17 39 36
18 40 38
18 40 38
18 40 38
18 41 39
18 42 39
18 40 37
18 41 39
18 40 38
17 40 37
18 40 37
17 39 37
18 41 39
18 40 37
18 42 39
18 41 38
17 40 37
18 41 38
18 41 39
18 41 38
18 41 38
18 40 38
18 40 38
18 41 38
18 40 37
18 41 39
18 41 38
18 41 39
18 41 39
18 40 38
18 40 37
18 40 37
18 40 38
18 41 38
18 41 38
18 41 38
18 40 37
17 40 37
18 40 38
18 40 38
18 41 38
18 40 38
17 39 37
18 41 38
18 41 38
18 41 38
18 41 39
18 41 38
18 40 37
18 41 38
18 41 38
18 42 39
18 40 37
18 41 38
18 41 38
18 40 38
17 39 37
18 41 38
18 41 38
18 41 38
18 40 38
18 41 38
18 40 38
18 40 37
18 40 38
18 40 38
18 41 38
18 42 39
18 40 38
18 40 38
18 41 38
18 41 38
18 41 38
18 41 38
17 39 37
18 41 38
18 40 38
18 41 38
18 41 39
18 41 38
18 40 37
18 41 38
18 40 38
18 41 38
18 41 39
18 41 38
18 41 39
18 40 38
18 42 39
18 41 39
18 40 38
18 40 38
18 40 38
18 41 38
18 41 38
18 41 38
18 40 38
18 41 39
18 41 38
18 41 38
18 42 39
18 41 38
19 42 39
18 41 38
18 40 38
18 41 38
18 41 38
18 40 38
18 41 38
18 41 39
18 41 38
18 40 38
17 39 36
18 41 38
18 42 39
18 41 38
18 40 38
18 41 38
18 40 37
18 41 39
18 41 38
18 40 38
18 41 38
18 41 39
18 41 38
18 40 38
18 41 38
18 41 38
18 41 38
18 40 37
18 41 38
18 40 37
18 40 37
18 41 38
18 40 38
18 42 39
17 40 37
18 40 38
18 41 39
19 42 39
17 40 37
18 41 38
18 41 38
18 41 38
17 39 36
18 40 37
17 40 37
18 41 38
18 40 37
18 40 38
18 41 38
17 40 37
17 40 37
18 40 38
18 40 37
18 40 38
18 41 39
18 41 38
18 41 38
18 40 38
18 41 38
18 41 38
18 41 39
18 41 38
18 41 38
18 41 39
18 41 38
18 40 38
18 41 38
18 41 38
18 40 37
18 40 38
18 40 37
18 41 38
18 42 39
18 41 38
18 41 38
18 41 38
18 42 39
18 40 37
17 40 37
18 41 38
18 42 39
18 41 39
18 41 38
19 42 39
18 41 39
18 40 38
18 41 38
18 41 38
18 40 38
18 41 38
18 41 38
18 40 37
19 43 40
18 40 38
18 41 39
18 41 38
18 40 38
18 41 38
18 40 38
18 41 38
18 41 38
18 41 38
18 41 38
18 40 38
18 41 38
18 40 38
18 42 39
18 40 38
18 41 38
18 41 38
18 41 38
18 41 39
18 42 39
18 40 37
18 41 38
18 41 38
18 41 38
18 40 38
18 41 38
18 41 38
18 40 38
18 40 38
18 41 39
18 41 39
18 40 38
18 41 38
18 41 38
18 41 38
18 40 38
18 40 38
18 41 39
18 41 38
18 40 38
18 41 38
18 41 39
18 40 37
18 41 38
18 40 37
18 41 38
18 42 39
18 41 39
18 41 38
18 41 39
18 40 38
18 41 39
18 40 38
18 40 38
18 41 38
18 41 38
18 41 38
18 41 38
18 40 38
18 41 38
18 41 39
18 42 39
18 41 38
18 41 38
18 41 38
17 39 37
18 41 38
18 40 38
18 41 38
18 41 39
18 41 38
18 41 38
18 40 38
18 41 39
18 41 38
18 41 38
18 40 37
18 40 38
18 42 39
17 40 37
18 41 38
18 41 39
18 41 38
18 40 38
18 41 38
18 41 38
18 42 39
18 41 39
18 41 39
18 41 38
18 40 37
18 41 38
18 41 39
18 40 38
19 42 39
18 41 38
18 41 39
18 41 38
18 41 38
18 41 39
18 40 38
18 41 38
18 41 38
18 41 38
18 40 38
18 40 38
18 41 38
18 40 38
18 41 38
18 40 38
18 41 38
18 40 38
18 40 37
18 42 39
18 40 37
18 41 38
18 40 38
19 43 40
18 40 38
18 41 38
18 41 38
18 41 39
18 41 39
18 41 39
18 41 38
18 41 38
18 41 38
19 42 39
18 41 38
18 40 38
18 40 38
18 41 39
18 42 39
18 42 39
18 41 38
18 40 37
18 40 38
18 40 38
18 40 38
18 41 38
18 41 38
18 41 38
18 41 38
19 42 39
18 41 38
18 41 39
19 42 39
18 41 39
18 40 38
18 42 39
19 42 39
19 42 39
18 41 39
18 41 38
18 40 37
18 41 38
18 42 39
18 41 38
18 41 39
18 40 38
18 41 38
18 41 38
18 42 39
18 41 38
18 40 38
18 41 39
18 41 39
18 41 38
18 40 37
18 40 37
18 42 39
18 42 39
18 41 38
18 41 39
18 41 38
18 42 39
19 42 39
18 40 38
18 41 38
18 41 38
18 41 38
18 41 38
18 41 38
19 43 40
18 41 38
18 40 38
19 42 39
19 42 39
18 41 38
18 41 39
18 40 38
19 42 39
18 41 38
18 40 38
18 40 38
19 42 40
18 40 38
18 40 37
18 41 38
18 40 37
18 40 37
19 42 39
18 41 38
18 41 38
18 41 39
18 40 38
18 41 38
18 40 38
18 40 38
18 41 38
18 41 38
18 40 38
19 43 40
18 42 39
18 41 38
18 40 37
18 41 38
18 41 38
18 42 39
18 41 38
18 41 38
18 42 39
18 41 39
18 41 38
18 40 38
18 41 38
18 41 38
17 39 37
18 41 38
18 41 38
18 41 38
18 41 39
18 41 38
18 40 37
18 42 39
18 41 38
18 42 39
19 42 39
18 41 38
18 41 38
18 42 39
18 40 38
18 41 38
18 41 38
18 41 38
18 42 39
18 41 38
18 41 38
18 41 38
18 40 37
18 41 38
18 40 38
18 41 39
18 41 38
18 41 38
18 42 39
18 40 38
18 40 37
18 41 38
18 41 38
19 42 39
18 42 39
18 41 38
18 41 38
18 41 39
18 41 38
18 40 38
18 40 37
19 42 39
19 42 39
18 41 38
18 41 38
18 40 38
18 41 38
19 42 39
18 42 39
18 42 39
19 42 39
18 41 38
18 41 39
18 41 39
18 41 39
18 42 39
18 41 38
18 42 39
18 41 38
18 41 38
18 41 38
18 41 38
18 41 39
18 41 38
18 41 38
19 42 39
18 41 38
18 42 39
18 42 39
18 40 38
18 41 38
18 41 38
18 41 38
19 42 39
18 41 39
18 41 38
18 41 39
18 42 39
18 41 39
18 41 38
18 41 38
18 41 39
18 41 38
18 41 38
18 41 38
18 41 39
18 41 38
18 42 39
19 42 39
18 42 39
18 41 38
18 41 38
18 40 38
18 41 38
18 41 38
18 41 38
18 40 37
18 41 38
18 41 38
18 42 39
18 42 39
19 42 39
18 41 38
18 40 38
18 41 38
18 42 39
18 40 37
18 41 38
19 42 39
18 41 39
18 41 38
19 42 39
18 41 38
18 41 38
18 41 38
18 41 38
19 42 39
18 41 38
18 42 39
18 41 38
18 41 38
18 41 38
18 41 38
18 41 38
18 41 38
18 41 38
19 42 39
18 41 39
18 40 37
18 42 39
18 41 38
18 42 39
19 42 39
18 41 38
18 42 39
18 40 37
18 41 38
19 42 39
19 43 40
19 42 40
18 42 39
18 41 39
18 41 38
19 42 39
19 42 39
18 41 38
18 41 38
18 41 38
18 41 39
18 41 38
18 41 39
18 41 38
18 41 39
19 42 39
18 42 39
19 42 39
18 41 38
19 42 39
19 42 39
18 41 38
18 41 38
19 42 39
18 41 38
19 43 40
18 42 39
19 42 39
18 42 39
19 42 40
18 41 38
18 41 39
19 42 39
18 41 38
18 41 38
18 41 38
18 41 38
18 40 38
19 42 39
18 41 38
18 41 38
19 42 39
18 41 39
19 43 40
18 41 38
18 41 38
18 41 38
18 41 38
18 42 39
18 40 37
18 41 38
18 40 38
18 42 39
19 42 39
18 41 38
19 42 39
18 41 38
18 41 38
19 42 39
18 42 39
19 43 40
18 42 39
18 41 38
18 41 38
19 42 39
19 42 39
18 42 39
18 41 38
19 42 39
18 42 39
18 41 39
19 43 40
19 42 39
18 41 38
18 41 38
18 41 39
18 41 39
18 41 38
18 41 38
18 41 38
18 41 38
18 40 38
18 41 38
18 41 38
18 41 38
18 41 38
18 41 38
18 42 39
18 41 38
19 42 39
19 42 39
18 42 39
18 40 37
18 41 38
18 41 38
18 41 39
18 41 39
18 42 39
18 41 38
18 41 38
18 41 38
18 41 38
19 42 39
19 42 39
18 41 38
18 41 39
19 42 39
18 41 39
19 42 39
18 40 38
18 40 38
18 42 39
19 42 39
19 42 39
19 42 39
19 42 39
19 42 39
18 41 39
19 42 39
19 43 40
18 40 38
19 42 39
19 42 39
18 41 38
18 41 38
18 41 38
19 42 39
18 41 39
18 41 39
18 41 38
18 41 38
19 42 39
18 41 38
18 42 39
18 41 39
18 41 38
18 41 38
19 42 39
19 42 39
18 41 38
18 41 39
18 41 38
19 42 39
19 42 39
18 41 38
19 42 39
18 42 39
19 42 39
18 41 38
19 42 39
18 41 38
19 42 39
18 41 38
18 42 39
19 42 39
18 41 39
18 41 38
18 41 38
19 43 40
18 41 39
18 41 38
19 42 39
18 42 39
18 41 38
18 41 38
18 41 38
19 42 39
19 42 39
18 41 38
18 41 39
19 42 39
18 41 39
18 42 39
19 42 39
18 41 38
18 41 38
18 41 38
19 42 39
18 41 38
19 42 39
18 41 38
19 42 39
18 41 38
18 41 38
18 42 39
19 42 39
18 41 38
18 41 39
18 41 38
18 41 38
19 42 39
18 41 38
19 42 39
19 43 40
18 41 38
19 43 40
18 41 38
18 41 38
18 41 38
19 42 39
19 42 39
18 42 39
19 42 39
18 41 38
19 42 39
18 41 38
19 42 39
19 42 39
18 41 38
18 41 38
18 41 38
18 40 38
18 41 38
18 42 39
19 42 39
18 41 38
18 41 38
18 42 39
19 42 39
18 41 38
18 41 38
19 42 39
19 42 39
18 41 39
18 42 39
18 41 38
19 42 39
18 40 37
18 41 39
18 41 39
19 43 39
18 41 38
18 41 39
18 41 39
18 41 38
19 42 39
18 41 38
18 41 38
19 42 39
18 41 39
19 42 39
19 42 39
18 41 38
18 41 38
19 43 40
19 42 39
19 42 39
19 43 40
19 42 39
19 42 39
18 41 38
19 42 39
18 41 38
19 42 39
19 42 39
19 43 40
19 43 40
19 43 40
18 41 38
19 42 40
19 42 39
18 41 38
19 42 39
19 42 39
18 41 38
18 41 38
19 42 39
19 42 39
18 41 39
19 42 39
19 42 39
18 41 38
19 42 39
19 42 39
18 40 38
18 42 39
19 42 39
19 42 39
19 42 39
19 42 39
19 42 39
18 41 38
19 42 39
18 41 38
18 41 38
19 43 40
19 42 39
18 41 39
19 42 39
19 42 39
18 42 39
18 41 38
18 41 38
18 42 39
19 42 39
18 41 39
18 41 38
19 43 40
18 41 38
18 41 38
18 41 38
18 41 38
18 40 38
18 41 38
18 41 38
18 41 38
18 41 38
19 42 39
18 41 38
19 42 39
19 42 39
18 41 38
19 42 39
18 41 38
18 42 39
19 42 39
19 42 39
19 42 39
18 41 38
19 42 39
19 43 40
18 41 38
18 41 38
18 42 39
18 41 38
19 42 39
18 41 38
18 41 39
18 41 39
18 41 38
18 41 39
19 42 39
19 43 40
18 42 39
18 41 38
19 42 40
18 40 38
18 41 38
18 42 39
18 41 38
19 42 39
19 42 39
18 41 38
19 43 40
19 43 40
18 41 38
19 42 39
18 41 38
19 42 39
19 43 40
19 42 39
18 42 39
18 42 39
19 42 39
19 42 39
19 42 39
18 41 38
18 41 38
18 42 39
19 43 40
18 41 38
19 42 39
18 41 38
19 43 40
18 41 38
18 41 38
19 43 40
19 42 39
19 42 39
19 42 39
18 42 39
19 43 40
19 42 39
19 42 39
19 43 40
19 43 40
18 41 39
19 43 40
19 42 39
19 44 40
19 42 39
18 40 37
18 41 39
19 42 39
18 41 38
18 41 38
19 42 39
19 43 40
19 42 39
18 41 38
19 42 39
18 41 38
18 41 39
19 42 39
19 42 39
19 43 40
19 42 39
19 42 39
19 43 39
19 42 39
19 42 39
18 41 38
19 42 39
18 42 39
18 41 38
18 42 39
19 42 39
19 42 39
19 42 39
19 43 39
18 41 38
19 42 39
18 42 39
19 42 39
19 42 40
18 42 39
19 43 39
19 42 39
19 43 40
19 42 39
19 42 39
19 42 39
18 41 38
18 41 39
19 42 39
18 40 37
18 42 39
18 41 38
18 41 38
19 42 39
19 42 39
19 42 39
19 42 39
18 42 39
19 42 39
18 42 39
18 42 39
19 42 39
19 42 39
19 42 39
18 42 39
18 42 39
19 42 39
19 42 39
19 42 39
19 42 39
18 42 39
18 41 38
19 42 39
18 42 39
19 42 39
18 41 38
19 42 39
19 42 39
19 43 40
19 42 39
19 42 39
19 42 39
19 42 39
19 42 39
18 41 38
19 42 39
19 42 39
19 42 39
18 42 39
19 42 39
19 42 39
19 42 39
18 41 38
19 42 39
19 42 39
19 42 39
19 42 39
19 42 39
18 41 39
19 42 39
19 42 39
19 42 39
19 42 39
19 42 39
19 43 40
19 42 39
19 42 39
19 42 39
18 41 38
19 42 39
19 43 40
19 42 39
19 43 40
19 42 39
19 44 40
19 42 39
19 42 39
19 43 40
18 41 38
19 42 39
19 43 40
19 42 39
19 42 39
19 42 39
19 42 39
19 42 39
19 42 39
19 42 39
19 43 40
18 41 38
18 41 38
19 42 39
19 42 39
19 43 40
19 43 40
18 41 38
19 42 39
19 42 39
18 41 39
19 42 39
19 42 39
19 42 39
19 43 40
19 42 39
19 43 40
18 41 38
18 41 38
19 43 40
19 43 40
18 41 38
18 42 39
19 43 40
19 43 40
18 41 38
18 41 38
19 42 39
19 43 40
19 42 39
18 41 38
19 42 39
19 42 39
18 41 38
19 42 39
18 42 39
19 42 38
19 43 40
19 42 39
18 41 38
18 41 38
19 43 40
19 43 40
19 42 39
19 43 40
18 42 39
18 41 38
19 42 39
18 41 38
19 42 39
19 43 40
18 42 39
19 42 39
19 42 39
19 42 39
18 41 38
18 41 38
18 41 38
19 42 39
19 42 39
18 41 38
19 43 40
19 42 39
19 43 40
18 41 39
19 42 39
18 41 38
19 42 39
19 43 40
19 42 39
19 42 39
19 42 39
19 42 39
19 42 39
19 42 39
19 42 39
18 41 38
19 42 39
19 43 40
18 41 39
19 43 40
19 42 39
19 42 39
19 42 39
19 42 39
19 42 39
19 42 39
19 42 39
19 42 39
19 43 39
19 42 39
18 42 39
19 43 40
19 42 39
19 42 39
19 42 39
19 43 39
19 43 40
19 42 39
19 42 39
19 42 39
18 41 38
19 42 39
19 42 39
19 43 40
19 42 39
19 42 39
19 42 39
18 41 38
19 43 39
19 43 40
19 43 40
18 41 38
18 41 38
19 42 39
18 41 38
18 41 38
19 43 40
18 42 39
19 42 39
19 43 40
19 43 40
19 42 39
19 42 39
19 43 40
18 41 38
19 42 39
19 43 40
19 42 39
18 41 38
19 42 39
19 42 39
19 42 39
18 41 38
19 43 40
19 42 39
19 43 40
18 42 39
19 43 40
19 43 40
19 42 39
19 42 39
18 42 39
19 43 39
19 42 39
19 42 39
19 42 39
19 42 39
19 42 39
19 42 39
18 41 38
19 43 40
19 43 40
19 43 40
18 41 38
19 42 39
19 43 40
19 42 39
18 42 38
19 43 39
19 42 39
19 42 39
19 43 40
19 43 40
19 44 40
19 44 40
19 42 39
19 42 39
19 43 40
19 43 40
19 42 39
19 42 39
19 42 39
19 42 39
18 42 39
19 43 40
18 41 38
19 42 39
19 42 39
18 41 38
18 41 38
18 42 39
18 42 39
18 42 39
18 41 38
19 42 39
19 43 40
19 43 40
19 43 40
19 43 39
19 42 39
19 42 39
19 42 39
19 42 39
19 42 39
19 42 39
19 43 40
19 42 39
18 41 39
18 41 38
19 43 40
19 42 39
19 43 40
19 43 40
19 43 40
18 41 38
18 41 38
19 43 40
19 42 39
19 42 39
19 43 40
19 43 40
19 43 39
19 42 39
19 43 40
19 42 39
19 43 40
18 41 38
19 43 40
19 43 40
19 42 39
19 43 40
19 43 40
19 43 40
18 42 39
19 43 40
19 43 40
19 42 39
19 42 39
19 43 40
19 42 39
19 42 39
19 42 39
19 43 40
19 43 40
19 43 40
19 42 39
19 42 39
19 42 39
19 42 39
19 43 40
19 42 39
20 44 41
19 43 39
19 43 40
19 42 39
19 42 39
19 43 40
19 43 40
19 44 40
19 42 39
19 42 39
19 43 40
19 42 39
19 42 39
19 42 39
19 42 39
19 43 40
19 43 40
19 42 39
19 43 40
19 42 39
19 43 40
19 43 40
19 42 39
19 43 40
19 42 39
19 42 39
18 41 38
19 43 40
18 42 39
20 44 41
19 42 39
19 42 39
19 42 39
19 42 39
19 42 39
19 42 39
19 44 40
19 43 40
19 42 39
19 42 39
19 43 39
19 42 39
19 43 40
19 42 39
19 42 39
19 42 39
19 42 39
19 42 39
18 41 38
19 43 40
19 42 39
19 43 40
19 42 39
19 43 40
19 43 40
19 43 40
19 43 40
19 42 39
19 42 39
19 42 39
19 42 39
19 42 39
18 42 39
19 43 40
19 43 40
19 43 40
19 42 39
18 41 38
19 42 39
18 41 38
19 43 40
19 44 40
19 42 39
19 42 39
19 42 39
19 43 39
19 42 39
19 42 39
19 42 39
19 43 40
19 43 40
19 43 40
19 43 40
19 42 39
19 43 40
19 43 40
19 42 39
19 42 39
19 42 39
19 43 40
19 42 39
19 42 39
19 42 39
19 43 40
19 43 39
19 42 39
19 43 40
19 43 40
19 43 40
19 42 39
19 43 40
19 43 40
19 42 39
19 43 39
19 42 39
19 43 39
19 43 40
19 43 40
19 42 39
19 43 40
19 42 39
19 42 39
19 43 40
19 43 40
19 43 40
19 42 39
19 42 39
19 42 39
19 43 40
19 42 39
19 42 39
19 43 39
19 42 39
19 43 40
19 42 39
19 43 39
19 43 40
19 42 39
19 42 39
19 42 39
19 43 40
19 43 39
19 43 40
20 44 41
19 42 39
19 42 39
18 41 38
19 43 40
20 44 41
19 42 39
19 43 39
19 42 39
19 42 39
19 42 39
19 42 39
19 43 40
19 42 39
19 43 40
19 43 40
19 42 39
19 43 40
19 43 40
19 42 39
20 44 41
19 42 39
19 42 40
19 42 39
20 44 41
19 42 39
19 42 39
19 43 40
19 42 39
19 42 39
19 43 39
19 43 40
19 42 39
19 42 39
19 43 40
20 44 41
19 43 40
18 41 38
19 42 39
19 42 39
19 43 40
19 43 40
19 44 40
19 42 39
19 43 40
19 42 39
19 42 39
19 42 39
18 41 38
19 43 40
19 42 39
19 43 39
19 42 39
19 42 39
19 43 39
19 42 39
19 43 40
19 43 39
19 42 39
19 42 39
19 42 39
19 42 39
19 42 39
19 43 40
19 43 40
19 42 39
19 42 39
19 42 39
19 42 39
19 42 39
19 43 40
19 42 39
19 43 40
19 43 40
18 41 38
19 43 40
19 43 40
19 43 39
18 41 38
19 42 39
19 42 39
19 43 40
19 43 40
19 43 40
19 42 39
19 43 40
19 43 40
19 42 39
19 43 40
19 42 39
19 42 39
19 43 40
19 42 39
19 42 39
19 42 39
19 43 40
19 43 40
19 42 39
20 44 41
19 43 40
19 43 39
19 42 39
19 43 40
20 44 41
19 43 40
19 43 40
19 43 39
19 43 39
19 43 40
20 44 41
19 43 40
19 43 40
19 42 39
19 42 39
19 43 40
19 43 39
19 43 40
19 42 39
19 43 40
19 43 39
19 42 39
19 42 39
19 43 40
19 43 39
19 42 39
19 42 39
18 41 38
19 42 39
19 43 40
19 43 40
19 43 40
19 43 40
19 42 39
19 43 40
19 43 40
19 42 39
20 44 41
19 43 40
19 43 40
19 43 39
19 44 40
19 43 40
19 43 40
19 43 40
19 42 38
19 42 39
19 43 40
19 42 39
19 43 40
19 42 39
19 43 39
19 43 40
19 42 39
19 43 40
19 43 40
19 43 40
19 43 40
19 43 40
19 43 39
19 42 39
19 42 39
19 43 40
19 43 39
19 42 39
19 43 40
19 43 40
19 42 39
19 43 40
19 43 40
19 42 39
18 41 38
19 42 39
19 43 40
19 43 40
19 43 40
19 43 40
19 43 40
19 42 39
19 43 40
19 43 40
19 43 40
19 42 39
19 42 39
19 43 39
18 41 38
19 42 39
20 44 40
19 43 40
19 42 39
19 42 39
20 44 40
20 44 41
19 43 40
19 43 40
19 42 39
19 42 39
19 43 40
19 44 40
20 44 40
19 43 40
19 43 40
19 43 39
19 43 40
19 43 40
19 43 39
19 42 39
19 43 39
19 43 40
19 43 40
19 42 39
19 43 40
19 43 40
19 42 39
19 43 40
19 43 40
19 43 40
19 43 40
19 43 39
19 43 40
19 42 39
20 44 41
19 43 40
19 42 39
19 43 39
19 42 39
19 43 40
19 43 40
20 44 41
19 43 40
19 43 40
19 43 40
19 43 40
19 42 38
19 42 39
19 43 40
19 42 39
19 42 39
19 42 39
19 43 40
19 43 40
19 43 40
19 42 39
19 43 40
19 44 40
19 43 40
19 43 40
19 43 39
20 44 40
19 42 39
20 44 40
20 44 40
19 43 40
19 43 40
19 43 40
19 42 39
19 42 39
19 43 40
19 43 40
19 42 39
19 43 40
19 43 40
19 43 39
19 43 40
19 43 40
19 43 40
19 43 40
19 43 39
19 42 39
19 43 40
19 42 39
19 42 39
19 42 39
19 43 40
19 42 39
19 42 39
19 43 40
19 43 40
19 43 40
19 43 40
19 43 40
19 43 39
19 43 40
19 43 40
19 43 40
19 43 39
19 44 40
19 42 39
19 43 40
19 42 39
19 42 39
19 42 39
19 43 40
19 43 40
19 42 39
19 42 39
19 43 40
19 42 39
19 43 40
19 43 40
20 44 41
19 42 39
19 42 39
19 43 40
19 43 40
19 42 39
19 43 40
19 42 39
19 43 40
19 42 39
20 44 41
19 43 40
19 43 40
19 42 39
19 43 40
19 42 39
19 43 40
20 44 41
19 42 39
19 43 40
19 42 39
19 42 39
19 43 40
19 43 40
19 43 39
19 43 40
19 43 40
20 44 41
19 43 40
19 42 39
19 42 39
19 43 40
20 44 41
19 43 40
19 42 39
19 42 39
19 43 39
19 43 39
19 43 40
19 43 40
20 44 41
19 43 40
19 42 39
19 43 40
19 43 40
19 43 40
19 43 40
19 43 40
19 43 40
19 43 39
20 44 41
19 43 40
19 43 40
19 42 39
19 43 40
20 44 40
19 43 40
19 43 40
19 43 40
19 43 40
19 43 40
19 43 40
19 43 40
19 43 40
19 43 40
19 43 40
19 43 40
20 44 40
19 44 40
19 43 40
19 43 40
19 43 40
19 43 40
19 43 39
19 43 40
19 43 39
19 42 39
19 43 40
19 42 39
19 43 40
19 42 39
20 44 41
19 43 40
19 44 40
19 43 39
19 43 40
19 43 40
20 44 41
19 43 40
19 43 39
19 42 39
19 42 39
20 44 41
19 43 40
20 44 41
20 44 41
19 42 39
19 43 39
19 42 39
19 43 40
19 43 40
19 42 39
19 43 40
19 42 39
19 42 39
19 43 40
19 42 39
19 43 40
19 43 40
19 43 40
19 43 40
19 43 40
19 43 40
19 42 39
19 43 40
19 43 40
19 43 40
20 44 41
19 43 40
19 43 40
19 42 39
19 43 39
19 43 40
20 44 40
20 44 41
19 43 39
19 43 40
19 42 39
19 43 40
19 43 40
19 43 40
19 43 39
19 43 40
19 43 40
20 44 40
20 44 41
19 43 40
19 43 40
19 43 40
19 43 40
19 43 39
19 43 40
19 43 40
19 42 39
19 43 40
20 44 41
19 43 40
19 43 40
20 44 40
19 44 40
20 44 41
19 43 39
20 44 41
19 43 40
19 42 39
19 43 40
19 42 39
20 45 41
20 44 40
19 42 39
19 43 40
19 42 39
19 43 40
19 43 40
19 44 40
20 44 41
19 43 40
19 43 40
20 44 41
19 43 40
19 43 40
19 43 40
19 43 40
20 44 40
19 43 40
19 43 40
19 43 40
19 42 39
19 43 40
20 44 40
19 43 40
20 44 41
19 43 40
19 43 40
19 43 39
19 43 39
20 45 42
20 44 41
19 43 40
20 44 40
20 44 41
20 44 41
20 44 40
19 43 40
19 43 40
19 42 39
19 43 40
19 43 40
19 43 40
20 44 41
19 43 40
19 43 40
19 43 40
19 43 40
19 43 40
19 43 40
20 44 41
19 43 40
20 44 41
19 43 40
19 43 39
20 44 41
19 42 39
19 43 40
19 43 40
19 43 39
19 42 39
19 42 39
19 43 40
19 43 40
19 43 39
19 42 39
18 41 38
19 43 40
19 43 39
19 42 39
19 42 39
19 44 40
19 43 39
19 43 40
19 43 40
19 43 40
20 44 40
19 43 40
19 42 39
20 44 41
19 43 40
20 44 41
19 43 40
19 43 40
19 43 40
19 43 40
19 43 40
20 44 40
19 43 39
20 44 41
19 43 40
20 44 41
19 43 40
20 44 40
19 43 39
19 43 40
20 44 40
19 43 40
19 43 40
20 45 41
20 45 41
19 42 39
19 43 40
19 44 40
19 43 40
19 43 40
19 43 40
20 44 41
20 44 40
19 44 40
19 43 40
20 44 41
19 44 40
19 43 40
19 43 40
19 42 39
20 44 41
19 43 40
19 43 40
19 43 40
19 43 40
19 43 40
20 44 40
19 44 40
19 43 40
20 44 41
19 44 40
20 44 40
19 43 40
20 44 41
20 45 41
20 44 40
19 43 39
20 44 40
19 43 40
20 44 41
20 44 41
20 44 40
20 44 40
19 43 40
19 42 39
19 43 40
19 43 39
19 43 40
20 44 41
19 43 40
19 43 40
19 43 40
19 43 40
20 44 40
20 44 41
19 43 40
19 43 40
19 43 40
19 43 40
19 43 39
20 44 40
19 43 40
19 43 40
19 43 40
19 43 40
19 44 40
19 43 40
20 45 41
19 43 39
19 43 40
19 43 40
19 42 39
19 44 40
20 45 41
19 44 40
19 43 40
19 43 40
19 43 40
20 44 40
19 43 40
19 43 40
20 44 41
20 44 41
19 42 39
19 43 39
20 44 40
20 44 40
19 44 40
19 43 40
19 43 40
19 43 40
19 42 39
19 42 38
19 43 40
19 43 40
19 43 40
19 43 40
19 43 40
19 43 40
19 43 40
19 43 39
19 43 40
19 43 40
19 44 40
20 44 40
19 42 39
19 43 40
20 44 41
20 44 41
19 43 40
20 44 40
19 43 40
19 42 39
19 43 40
19 44 40
20 44 40
20 44 40
19 43 40
20 44 41
19 43 40
20 44 40
19 43 39
20 44 41
20 44 40
20 44 40
19 43 40
19 43 40
20 44 41
19 43 40
19 43 39
20 44 41
20 44 41
20 44 40
20 44 41
19 43 39
19 43 40
19 43 40
19 43 40
20 44 41
20 45 41
19 42 39
20 45 41
20 44 41
20 44 41
19 43 40
20 44 41
19 43 39
20 44 40
19 43 39
20 44 40
19 43 39
20 44 40
20 44 41
19 42 39
19 43 40
20 44 40
19 43 40
20 44 41
20 44 41
19 43 39
19 43 40
20 44 40
20 44 40
20 44 40
19 43 40
20 44 40
20 44 41
20 44 41
20 44 41
19 43 40
19 43 40
20 44 41
19 42 39
20 44 40
20 44 41
19 42 39
19 42 39
20 44 40
20 44 40
19 43 40
20 44 41
20 44 41
19 44 40
19 43 40
19 43 40
20 44 41
20 44 40
19 44 40
19 43 39
20 45 41
19 43 40
20 44 40
19 43 40
19 43 40
19 43 40
19 43 40
19 43 40
20 44 41
19 43 40
20 44 40
20 44 41
20 44 40
19 43 40
20 44 41
19 43 40
20 44 41
19 43 40
20 45 41
19 43 40
19 43 40
19 43 40
20 44 40
19 43 39
19 43 39
19 43 39
19 44 40
20 44 41
19 43 40
19 43 40
19 44 40
19 43 39
19 42 39
19 43 39
19 42 39
19 42 39
19 44 40
20 44 41
19 43 39
19 44 40
19 43 39
19 43 40
19 43 40
19 43 40
20 44 41
20 44 41
20 45 41
20 44 40
20 44 40
20 44 40
19 43 40
20 44 41
19 43 40
19 43 40
19 43 40
19 43 40
19 43 40
20 44 41
20 44 41
20 44 41
20 44 40
19 42 39
20 44 40
20 44 40
20 44 40
20 44 41
20 44 41
20 44 40
19 43 40
20 44 40
20 44 41
19 43 40
20 45 41
19 43 40
20 44 40
19 43 39
20 45 41
19 43 39
19 43 40
20 44 41
19 43 40
20 44 41
19 44 40
20 44 41
19 43 40
19 43 40
19 43 40
20 45 41
20 44 41
20 44 40
20 44 40
20 45 41
19 43 40
20 44 40
20 45 41
19 43 39
19 43 40
19 43 40
20 45 41
20 44 40
20 44 40
20 44 41
20 44 41
20 44 40
20 44 41
20 44 40
20 44 40
20 44 41
20 44 40
20 44 40
19 43 40
19 42 39
20 44 40
19 43 40
19 43 40
19 42 39
20 44 41
20 45 41
20 44 40
20 45 41
20 45 41
20 44 41
19 43 40
19 43 40
20 45 41
19 43 40
19 43 40
19 43 39
20 44 41
19 44 40
19 43 40
20 44 40
20 44 40
19 42 39
19 43 40
20 44 41
20 45 41
20 44 41
19 43 40
19 43 40
19 43 40
20 44 41
20 44 40
19 43 40
19 43 40
20 44 41
19 43 40
20 44 41
20 44 40
19 42 39
20 44 40
19 43 40
19 43 40
20 44 40
19 43 39
20 44 41
19 43 39
20 44 41
19 43 39
20 44 41
20 44 40
20 44 41
19 44 40
20 44 40
20 44 41
20 44 41
20 44 41
19 43 40
20 44 40
20 44 40
19 43 40
19 43 39
20 44 41
19 43 40
20 44 41
20 44 40
20 44 41
20 44 40
20 44 40
19 43 39
20 44 40
19 43 40
19 43 40
19 43 40
19 43 40
20 45 41
19 43 40
20 44 40
19 43 40
20 44 40
20 44 40
20 44 40
19 44 40
20 44 41
20 45 42
20 44 41
20 44 40
20 44 41
20 45 41
20 44 40
20 45 41
19 42 39
19 43 40
20 45 41
20 44 41
20 45 41
20 44 41
19 43 40
19 43 40
20 44 40
20 44 40
20 44 41
20 45 41
19 43 40
20 44 40
19 43 40
20 44 41
19 43 40
20 44 41
20 44 41
20 44 40
19 43 40
20 44 41
20 44 41
20 44 40
20 44 41
20 44 40
20 44 40
20 44 41
20 45 42
19 43 40
19 43 39
20 44 41
19 43 40
20 44 40
19 43 40
20 44 40
20 44 41
19 43 40
20 44 41
19 43 40
20 44 40
19 43 40
19 43 40
20 45 41
20 44 40
20 44 40
20 44 40
20 45 41
20 44 40
20 44 40
19 43 40
20 44 40
19 43 39
20 44 41
20 44 41
20 44 40
20 44 40
19 43 40
19 43 40
19 43 39
20 44 41
19 43 40
19 43 40
19 42 39
20 44 40
20 44 41
19 44 40
20 44 41
19 43 40
19 43 40
20 44 40
19 43 39
20 44 41
20 44 41
19 43 40
20 44 41
20 44 41
19 43 40
20 44 40
20 44 41
20 44 40
19 43 40
20 44 41
20 44 41
20 44 41
19 43 40
19 43 40
20 44 40
20 44 40
19 43 40
20 44 40
20 44 40
19 43 40
20 45 41
20 44 41
20 44 41
20 44 40
20 45 41
20 44 40
19 43 40
20 44 41
20 45 42
19 43 40
19 43 40
19 43 40
20 44 41
20 45 41
19 43 40
19 43 40
19 43 40
20 44 41
20 44 41
20 44 40
20 44 41
20 44 40
20 44 41
20 44 40
20 44 40
20 45 42
19 43 40
20 44 40
20 44 40
19 43 40
20 44 40
20 44 41
20 44 40
20 45 41
20 44 41
20 45 42
20 44 41
20 44 41
20 45 41
20 44 40
20 44 40
20 44 40
20 44 41
19 43 40
20 44 41
19 43 39
20 44 40
20 44 40
20 44 41
20 44 41
20 44 40
20 44 41
20 44 41
20 44 40
20 45 42
19 43 40
20 45 41
20 44 41
19 43 40
20 43 40
20 44 40
20 45 41
19 44 40
20 44 40
20 44 40
20 44 41
20 44 40
19 43 40
20 45 41
19 43 40
19 43 40
19 43 40
19 43 40
20 45 42
20 44 41
20 44 40
20 44 41
20 45 41
20 43 40
20 44 40
20 44 41
20 44 41
20 44 41
20 44 40
19 43 40
19 43 40
20 44 40
20 44 41
19 43 40
19 43 40
19 44 40
20 44 40
20 45 41
19 43 39
19 43 39
19 43 40
19 43 40
20 44 41
19 43 40
20 45 41
19 43 40
20 44 40
20 45 41
20 44 40
20 44 41
20 44 40
19 43 40
20 44 40
20 45 41
20 44 40
20 44 41
20 44 40
20 44 40
20 45 41
20 44 41
20 44 40
20 44 41
20 44 40
20 44 40
20 44 40
20 44 40
20 44 41
20 44 40
20 44 41
20 44 41
19 43 40
20 44 41
20 45 41
19 43 40
20 44 41
20 45 41
20 45 41
20 44 41
20 44 41
20 44 41
20 45 41
20 44 40
20 44 40
20 45 41
19 43 40
20 44 40
20 45 41
20 45 41
20 45 41
20 44 40
20 45 41
20 45 41
20 44 41
20 43 40
20 45 41
20 44 41
20 44 41
20 44 41
20 44 41
20 44 41
20 44 41
20 45 41
20 43 40
20 45 41
20 44 40
20 45 41
20 44 40
20 44 40
20 44 40
20 44 41
20 44 41
20 45 41
20 44 41
20 45 41
20 45 41
20 45 41
20 45 42
20 46 42
20 45 42
19 43 40
20 44 41
20 45 42
20 44 41
20 44 41
20 44 41
20 44 40
19 43 40
20 44 40
20 44 41
20 44 41
20 44 41
20 44 40
20 44 41
20 45 41
19 43 40
20 44 41
20 44 41
20 45 42
20 44 40
20 44 41
20 45 41
20 44 40
19 43 40
20 45 41
20 45 41
20 44 41
20 44 41
20 44 40
20 45 41
20 44 41
20 45 41
20 44 41
20 45 41
20 44 40
20 44 41
20 44 40
20 44 41
20 44 40
20 44 40
20 44 41
20 45 41
20 44 41
20 44 40
20 44 41
20 44 41
20 44 41
20 44 40
20 44 41
19 43 40
20 44 41
19 44 40
20 44 40
19 43 40
20 44 40
20 44 41
19 43 40
20 45 41
20 45 41
20 44 40
20 44 40
20 44 41
20 44 41
20 44 41
20 44 41
20 44 40
20 44 41
19 43 40
20 44 40
20 44 40
20 45 41
20 44 41
20 45 41
20 44 41
20 44 41
20 45 41
20 45 42
20 44 41
20 44 41
20 45 41
20 44 41
20 44 41
20 46 42
20 44 40
20 45 41
20 45 42
20 44 40
20 44 40
20 45 41
20 45 42
20 44 41
20 44 40
20 44 41
20 44 40
20 44 40
20 45 41
20 44 40
20 45 41
20 44 41
20 44 41
20 44 40
20 45 41
20 44 41
20 45 41
20 44 41
20 44 41
20 45 41
20 44 40
20 45 41
20 45 41
20 44 41
20 44 41
20 45 41
20 44 41
20 45 41
20 45 41
20 45 41
20 44 41
20 45 41
19 43 40
20 45 42
19 43 40
20 45 42
20 45 41
20 44 41
20 45 41
20 45 41
20 44 41
19 43 40
20 44 40
20 44 40
20 44 41
20 45 41
20 44 41
20 45 42
20 45 41
20 45 41
20 45 41
20 44 41
20 45 41
20 44 40
20 44 41
20 44 41
20 44 41
20 45 41
20 44 40
20 45 41
20 43 40
20 44 41
19 43 39
20 45 41
20 44 41
20 44 40
20 44 40
20 44 41
20 44 40
20 44 40
20 44 40
20 45 41
20 44 40
20 45 42
20 45 41
20 45 41
20 44 40
20 45 41
20 44 41
20 45 41
20 45 41
20 44 41
20 45 41
20 45 41
20 44 40
20 44 41
19 43 40
20 44 40
20 44 41
20 45 42
19 43 40
20 45 41
20 44 41
20 45 41
20 44 41
20 44 40
20 45 42
20 44 41
20 44 41
20 44 40
20 44 40
20 45 41
20 45 41
20 45 41
20 45 41
20 44 41
19 43 40
20 44 40
20 44 41
20 44 40
20 44 40
20 44 41
20 44 40
20 44 40
20 45 41
20 44 40
20 45 41
20 46 42
20 44 41
20 44 40
20 45 42
20 44 41
20 44 40
20 44 41
20 45 41
20 44 40
20 45 41
20 45 41
20 45 42
20 45 41
20 45 41
20 45 41
20 45 42
20 44 41
20 44 40
20 44 41
20 45 41
20 44 41
20 45 41
21 46 42
20 45 41
20 45 41
20 45 41
20 44 40
20 43 40
20 45 41
20 45 41
20 45 41
20 44 40
20 44 41
20 45 41
20 45 41
20 44 41
20 45 42
20 45 41
20 45 41
20 44 40
20 45 41
20 45 41
20 44 40
20 45 42
20 44 41
20 45 41
20 44 40
20 45 41
20 45 41
20 44 40
20 45 41
20 45 41
20 44 40
20 45 41
20 45 41
20 45 42
20 45 41
20 44 41
20 45 41
20 45 41
20 45 42
20 44 41
20 44 41
20 44 41
20 44 41
20 45 42
20 43 40
20 44 41
20 44 41
20 45 41
20 44 41
20 44 41
20 44 40
20 44 40
20 45 41
20 45 41
20 44 40
20 44 40
19 43 40
20 44 41
20 44 40
20 44 40
20 45 41
20 45 41
20 45 41
21 46 42
20 45 41
20 44 40
20 44 40
20 45 42
20 45 41
20 44 40
20 45 42
20 45 41
19 43 40
20 44 40
20 45 41
20 44 41
19 43 40
20 45 41
19 43 40
20 44 40
20 45 41
20 45 41
20 45 42
20 45 41
19 43 40
20 45 42
20 45 41
20 45 41
20 44 40
20 44 40
20 45 41
20 45 41
20 45 41
20 44 41
20 45 41
20 44 41
20 44 40
20 44 40
20 44 41
20 44 40
20 44 41
20 44 41
20 45 42
20 44 40
20 45 42
20 44 41
20 44 41
20 44 40
21 46 42
20 45 41
20 44 41
20 45 41
20 45 41
20 45 41
20 44 41
20 45 41
20 45 41
20 45 41
20 44 40
20 44 41
20 44 41
20 45 41
20 45 41
20 45 41
20 46 42
20 45 41
20 44 40
20 45 41
20 45 41
20 44 41
20 45 41
20 44 41
20 45 41
20 45 41
20 45 41
20 44 41
20 45 41
20 44 41
20 44 40
20 44 41
20 44 40
20 44 40
20 45 41
20 45 42
20 45 41
21 46 42
20 45 42
20 44 40
20 45 41
20 44 41
20 45 41
20 44 41
20 45 42
20 45 41
19 43 40
20 46 42
21 45 42
20 45 41
20 44 41
20 45 41
20 45 42
20 44 40
20 44 40
20 45 41
20 44 40
20 44 41
20 45 41
20 44 41
20 44 41
20 44 40
20 45 41
20 44 41
20 44 40
20 44 40
20 44 41
20 44 41
20 45 42
20 44 41
20 45 41
20 44 40
20 44 41
20 44 40
20 45 41
20 45 41
20 45 42
20 44 40
20 44 40
20 45 41
20 44 41
20 45 41
21 46 42
20 45 41
21 46 42
20 45 41
20 44 41
20 44 40
20 44 41
20 45 41
20 45 41
20 44 41
20 44 41
20 45 41
20 45 42
20 44 41
20 45 41
20 44 41
20 44 41
20 45 41
21 46 42
20 45 41
20 44 40
20 44 40
21 46 42
20 45 41
20 45 41
20 44 41
20 45 41
20 45 41
21 47 43
20 45 42
20 44 40
20 44 41
21 46 42
21 46 42
20 43 40
20 45 41
20 45 41
20 44 41
20 44 41
20 45 41
21 46 42
20 45 41
20 45 41
20 45 41
20 45 41
20 44 41
21 46 42
20 44 40
20 44 41
20 45 41
20 45 41
20 45 41
21 46 42
20 45 41
20 45 41
21 46 42
20 45 41
21 46 42
20 44 40
20 45 42
20 45 42
20 44 41
21 46 42
21 46 42
20 44 41
21 46 42
20 44 41
21 46 42
20 44 40
20 45 41
20 45 41
20 45 41
20 45 41
20 45 41
20 44 40
20 45 41
21 46 42
20 45 42
20 45 41
20 44 40
21 46 42
20 44 40
20 44 41
20 45 41
20 45 41
20 44 40
20 45 41
20 45 42
20 45 41
20 45 41
20 45 42
19 43 40
20 45 41
20 44 41
20 45 41
20 45 41
20 44 41
20 45 41
20 44 40
20 44 41
20 45 41
20 44 41
20 45 41
20 45 41
20 45 41
20 44 40
20 44 41
20 44 41
21 46 42
20 45 41
20 44 41
20 45 41
20 44 40
20 45 41
20 45 41
20 44 41
20 45 41
20 44 41
20 44 41
20 44 41
21 46 42
20 45 42
20 45 42
20 44 41
20 44 41
20 45 41
20 45 41
20 44 40
20 45 41
21 46 42
20 45 42
21 46 42
20 44 41
20 45 41
20 45 41
20 45 41
21 45 42
20 44 41
20 45 41
20 44 41
20 45 41
20 45 41
20 44 40
20 44 40
20 45 41
20 44 41
20 45 41
20 45 41
21 46 42
20 43 40
20 45 41
20 45 41
21 46 42
20 45 41
20 45 41
20 44 40
21 46 42
20 44 41
21 46 42
20 45 41
20 45 41
21 46 42
20 44 41
21 46 42
20 45 41
20 45 42
20 45 41
20 45 41
20 44 41
20 45 41
20 45 41
20 45 41
20 44 41
20 44 41
20 44 40
20 45 41
20 45 42
20 45 41
21 46 42
20 45 42
20 45 41
20 45 41
20 45 41
20 44 41
20 45 41
20 45 42
20 45 42
20 45 41
20 44 41
21 46 42
20 45 41
20 45 41
20 45 42
20 44 41
19 43 40
20 45 41
20 44 41
20 44 41
20 45 41
20 45 41
20 45 41
21 46 42
20 44 40
20 45 41
20 45 41
20 45 42
20 44 41
20 44 41
21 46 42
20 45 41
20 45 41
20 44 40
20 45 42
21 46 42
20 44 40
20 44 41
19 43 40
20 45 42
20 44 40
20 44 41
20 44 41
20 44 40
20 44 41
20 45 41
20 45 41
20 45 41
20 44 40
20 44 41
20 45 41
20 44 40
20 44 41
20 44 41
20 45 41
21 46 42
20 44 40
20 46 42
20 45 41
20 44 40
21 46 42
20 45 41
20 44 41
21 46 42
20 45 41
20 45 41
20 45 42
21 46 42
20 45 42
20 45 41
20 44 41
20 45 42
20 45 41
20 45 41
20 44 41
20 45 41
20 45 42
21 46 42
21 46 42
21 46 42
21 46 42
20 45 41
20 45 41
20 44 40
21 46 42
20 45 41
21 46 42
20 45 41
21 46 43
20 45 42
21 46 42
21 46 42
20 45 41
20 45 41
20 44 41
20 45 42
20 45 41
21 46 42
21 46 42
21 46 42
20 45 41
20 45 41
21 46 42
20 45 41
21 46 42
20 45 41
20 44 40
20 45 41
20 45 41
20 44 40
20 45 41
21 46 42
21 46 42
20 44 41
20 44 40
20 44 41
21 46 42
20 45 42
21 45 42
20 45 41
20 45 41
20 45 41
20 45 41
20 45 41
21 46 42
20 44 41
21 46 42
20 45 42
20 45 41
20 45 41
20 44 41
20 45 42
20 44 41
20 45 41
20 45 41
20 45 41
21 46 42
21 46 42
21 46 42
20 45 41
20 45 41
20 45 41
20 45 41
21 46 42
20 45 42
20 45 41
20 45 41
20 45 41
20 44 40
21 46 42
21 46 42
20 45 42
20 45 42
21 46 42
20 44 41
20 45 41
20 45 41
20 45 41
20 44 41
20 45 41
20 45 42
20 44 41
20 44 41
20 44 41
20 44 40
20 45 41
20 44 41
20 44 41
20 44 41
20 44 41
20 45 41
20 45 41
20 45 42
20 45 41
20 45 42
20 45 41
20 45 41
20 45 41
21 46 42
20 45 41
20 45 41
20 44 40
20 45 41
20 44 40
20 44 40
20 44 41
20 44 41
20 44 40
20 44 41
20 44 40
21 46 42
20 45 41
21 46 42
20 45 41
20 44 41
20 45 41
20 45 41
21 48 44
20 45 41
20 45 41
20 45 42
21 46 42
20 44 41
20 45 41
20 45 42
20 45 41
21 46 42
21 46 42
20 44 40
20 44 41
20 45 41
20 45 42
21 45 42
20 45 41
21 46 42
20 44 40
20 44 41
20 45 41
20 44 41
20 45 42
20 45 42
20 45 41
20 45 42
20 45 41
20 44 41
20 45 42
20 45 41
21 46 42
20 45 42
20 45 42
20 45 41
20 45 41
21 46 42
20 44 41
21 46 42
21 46 42
20 44 40
20 45 42
20 45 41
20 45 41
21 46 42
20 45 41
20 45 41
20 45 42
21 46 42
21 46 42
21 46 42
21 46 42
20 45 41
20 45 41
20 45 41
20 45 42
21 46 42
20 45 41
21 46 42
21 46 42
20 44 41
21 46 42
20 45 41
20 45 41
20 45 41
21 46 42
21 46 42
21 46 42
21 46 42
20 44 41
21 46 42
20 44 41
20 45 41
20 45 41
20 45 41
20 45 41
20 45 42
21 46 42
20 44 41
21 46 42
20 45 41
20 44 41
21 46 42
20 45 41
21 46 42
20 45 41
20 44 40
20 45 41
20 45 41
20 45 41
21 46 42
20 45 42
20 44 41
20 44 41
21 46 42
20 45 42
20 46 42
20 45 42
20 45 41
21 46 42
20 44 40
20 45 41
21 46 42
20 45 41
20 45 41
20 45 41
21 46 42
20 44 41
21 45 42
21 46 42
20 45 42
20 45 41
20 44 41
20 45 41
20 45 41
20 45 41
21 45 42
20 44 41
20 45 41
20 44 41
20 44 41
20 45 42
21 47 43
21 45 42
20 44 41
21 46 42
21 46 43
20 45 41
21 46 42
20 45 41
20 45 41
20 45 41
21 46 42
20 44 41
20 45 41
21 46 42
20 45 41
20 45 41
20 45 41
20 45 42
21 46 42
21 46 42
21 46 42
21 47 43
21 46 42
20 44 41
21 46 42
21 46 42
21 46 42
20 45 41
20 45 41
21 46 42
21 45 42
21 46 42
20 45 41
20 45 41
21 46 42
20 45 41
20 45 41
21 46 42
20 45 41
21 46 42
21 46 42
21 46 42
20 45 42
20 45 41
20 45 41
20 45 41
21 46 42
21 46 43
20 45 41
20 45 41
20 45 42
21 46 42
21 46 42
20 45 41
20 44 40
20 45 41
20 45 41
20 45 41
20 45 42
21 47 43
20 44 41
20 45 41
21 46 42
21 46 42
21 45 42
21 46 42
20 45 41
20 45 41
20 45 41
21 45 42
20 45 41
20 45 41
21 46 42
20 45 42
20 45 41
21 46 42
20 45 41
20 45 41
21 46 42
19 43 39
20 45 41
20 44 41
20 45 41
20 44 41
20 44 40
21 46 42
20 45 41
20 44 41
21 46 42
20 45 41
20 45 41
21 46 42
21 46 42
20 45 41
20 45 41
20 45 41
20 45 41
20 45 41
21 46 42
20 44 41
20 45 42
20 45 41
21 46 42
20 45 41
20 45 41
20 45 41
21 45 42
20 45 41
20 45 41
20 45 41
20 45 41
20 44 40
20 45 42
20 45 41
20 45 41
20 45 41
20 45 41
20 45 41
21 46 42
21 45 42
21 46 42
20 45 42
20 44 40
20 45 41
20 45 42
21 46 42
21 46 42
21 46 42
21 45 42
21 47 43
21 46 42
20 45 41
21 47 43
21 46 42
21 46 42
20 45 41
21 46 42
21 46 42
20 45 41
21 46 42
21 46 42
21 46 42
21 46 42
21 46 42
20 45 41
21 46 42
20 45 41
21 45 41
20 45 41
21 46 42
21 46 42
20 44 40
21 46 42
20 44 41
21 45 42
20 45 41
21 45 42
21 47 43
20 45 41
20 44 40
21 46 42
21 46 42
20 45 41
21 46 42
21 46 42
21 46 42
21 46 43
20 45 41
21 45 42
20 45 41
21 46 42
21 46 42
20 45 41
21 46 42
20 45 41
20 44 41
21 46 42
20 45 41
21 46 42
21 46 42
21 47 43
21 46 43
21 46 42
21 46 42
21 46 42
20 45 41
20 45 41
20 44 41
21 46 42
20 45 41
21 46 42
21 46 42
20 45 41
21 46 42
21 46 42
20 45 41
21 46 42
21 46 42
21 46 42
21 46 42
20 45 42
20 45 41
20 45 41
21 47 43
20 45 42
20 44 40
20 45 42
20 45 41
20 45 41
20 45 41
20 45 42
21 46 42
20 45 41
20 44 41
20 44 40
21 46 42
21 46 42
20 44 40
20 45 41
21 46 42
20 45 41
21 46 42
20 44 41
20 45 42
20 45 41
21 46 42
20 45 41
20 45 41
21 46 42
20 45 41
20 44 41
20 45 41
20 45 41
20 45 41
20 44 40
21 46 42
21 46 42
21 47 43
21 46 42
21 46 42
21 47 43
21 46 42
21 46 42
20 45 41
21 46 42
21 46 42
20 45 41
21 46 42
21 46 42
20 44 41
21 46 42
21 45 42
20 45 41
21 46 42
21 46 42
21 47 43
21 46 42
20 45 41
20 45 41
20 45 41
21 47 43
21 46 42
21 46 42
21 46 42
20 45 41
20 45 41
21 47 43
21 47 43
20 45 41
21 46 42
21 46 42
21 46 42
20 45 42
20 44 41
21 45 42
21 46 42
20 45 42
21 47 43
21 46 42
21 46 42
21 46 42
21 46 42
21 46 42
21 45 42
21 47 43
20 45 41
20 45 41
21 47 43
21 46 42
21 46 42
21 46 42
21 46 43
21 47 43
21 46 42
21 46 42
20 45 41
21 46 42
20 45 41
21 47 43
21 46 42
21 48 44
21 46 42
20 45 41
21 47 43
21 46 42
21 46 42
21 46 42
20 45 41
21 46 42
20 45 41
20 45 41
21 46 42
20 45 41
20 44 40
20 44 41
20 45 41
20 45 41
21 46 42
20 45 41
21 46 42
21 46 42
20 45 41
20 45 41
21 46 42
20 45 41
20 45 41
21 46 42
20 45 41
20 45 41
20 45 41
21 46 42
20 44 41
20 45 41
21 46 42
21 46 42
20 45 41
20 45 42
20 44 41
21 45 42
20 45 41
20 45 41
21 47 43
21 46 42
21 46 42
21 46 42
21 46 42
21 46 42
20 45 41
21 46 42
21 46 42
21 47 43
20 45 42
20 45 41
20 45 41
21 47 43
21 46 42
21 47 43
20 45 41
20 45 41
20 45 42
21 46 42
20 45 41
21 47 43
20 45 41
21 47 43
21 45 42
20 45 41
21 46 42
20 45 41
21 46 42
21 46 42
21 47 43
20 45 41
21 47 42
20 45 41
20 45 41
21 46 42
21 46 42
21 46 42
21 46 42
21 46 42
21 45 42
21 47 43
21 47 43
21 46 42
21 46 42
20 45 41
21 47 43
21 46 42
21 46 42
20 45 41
21 46 42
21 47 43
20 45 41
20 45 41
21 45 42
21 45 42
21 46 42
20 45 41
20 45 41
20 45 41
21 46 42
21 46 42
20 45 41
20 45 41
21 46 42
20 45 41
21 47 43
21 46 42
66 71 65
132 123 112
155 142 131
135 125 115
54 63 59
21 46 42
20 45 41
21 46 42
21 47 43
20 45 41
21 46 42
21 46 42
21 46 42
20 45 42
21 46 42
21 46 42
21 45 41
21 46 42
21 46 42
21 46 42
21 47 43
21 46 42
21 47 43
21 46 42
20 45 42
21 46 42
21 46 42
20 45 41
21 46 42
20 45 41
21 46 42
20 44 40
21 46 42
20 45 42
20 45 41
20 45 41
21 46 42
20 45 42
20 44 41
21 46 42
20 45 41
21 47 43
20 45 41
20 45 42
20 45 41
20 45 41
20 45 41
21 46 42
21 46 42
21 46 42
21 46 42
20 45 41
21 46 42
21 46 42
20 45 41
21 46 42
21 46 42
21 46 42
21 46 42
21 46 42
21 46 42
20 45 41
20 45 42
21 47 43
21 46 42
21 46 42
20 45 41
20 45 42
21 46 42
21 46 42
21 46 42
21 46 42
20 45 42
21 47 43
20 45 42
21 47 43
21 47 43
21 46 42
21 47 43
21 46 42
21 46 42
21 46 42
20 45 41
21 46 42
21 46 42
21 46 42
21 47 43
21 45 42
21 47 43
21 47 43
21 46 42
21 46 42
21 47 43
20 45 41
21 46 42
21 46 42
21 47 43
20 45 41
20 45 41
21 46 42
21 46 42
21 46 42
21 46 42
21 47 43
21 47 43
21 46 42
20 45 42
21 46 42
21 46 42
21 47 43
20 45 41
21 45 41
20 45 41
21 47 43
21 45 41
21 47 43
21 46 42
20 45 41
26 48 43
134 125 114
224 200 183
239 213 194
241 215 197
240 214 195
214 191 176
59 55 67
21 46 42
21 47 43
21 46 42
21 46 42
21 47 43
21 46 42
21 46 42
21 45 42
21 46 42
20 45 41
21 46 42
21 46 42
21 46 42
21 45 42
21 47 43
21 46 42
21 46 43
21 46 42
21 45 42
21 46 42
21 46 42
21 46 42
21 46 42
21 46 42
21 45 42
20 45 42
21 47 43
21 46 42
21 46 42
20 45 41
21 47 43
20 45 41
20 45 41
21 46 42
21 47 43
21 46 42
20 45 41
20 44 41
20 45 41
21 45 42
21 46 42
20 45 41
21 46 42
20 45 41
20 45 42
21 45 42
21 46 42
20 45 41
20 45 41
21 46 42
21 46 42
21 46 42
21 47 43
21 46 42
21 46 42
21 45 41
21 46 42
21 47 43
21 47 43
20 45 42
21 46 42
21 46 42
21 46 42
21 47 43
21 46 42
21 46 42
21 46 42
21 47 43
21 46 42
21 46 42
21 47 43
21 46 42
21 47 43
21 46 42
20 45 41
21 46 42
21 46 42
21 46 42
21 46 42
21 47 43
20 45 41
21 46 42
21 46 42
21 46 42
21 46 42
21 45 42
21 45 42
21 47 43
21 46 42
21 46 42
21 47 43
21 46 42
22 47 43
21 46 42
21 46 42
21 45 41
20 44 41
21 46 42
20 45 41
20 45 41
21 47 43
21 46 42
21 46 42
21 46 42
21 46 42
20 45 41
21 47 43
21 46 42
21 46 42
21 47 43
21 46 42
21 47 43
109 103 94
224 199 181
241 213 194
246 218 198
248 220 200
247 219 199
237 209 191
97 65 102
43 49 57
21 46 42
21 47 43
21 47 43
20 45 41
21 46 42
21 45 41
20 45 41
20 45 41
21 46 42
21 46 42
21 46 42
21 45 41
21 46 42
21 46 42
21 47 43
20 45 41
21 46 42
20 45 41
21 47 43
21 46 42
21 45 42
21 47 43
21 46 42
21 45 42
21 46 42
20 45 42
21 47 43
21 46 42
21 45 42
20 45 41
20 45 41
21 45 42
20 45 41
20 45 41
21 46 42
21 45 42
21 46 43
21 46 43
21 46 42
20 45 41
21 46 42
21 47 43
21 46 42
21 46 42
21 46 42
21 46 42
21 46 42
20 45 41
21 47 43
21 46 42
21 47 43
21 46 42
21 46 42
21 46 42
21 46 42
21 46 42
21 46 42
20 45 41
21 47 43
20 45 41
21 46 42
21 46 42
21 46 42
21 46 42
21 47 43
21 46 42
21 46 42
21 46 42
21 46 42
20 45 41
21 46 42
21 46 42
21 47 43
20 45 41
21 47 43
21 46 42
21 46 42
21 46 42
21 46 42
21 46 42
21 47 43
21 46 42
21 46 42
22 47 43
21 47 43
21 46 42
21 47 43
20 45 42
21 46 42
21 46 42
21 46 42
20 45 41
20 45 41
21 46 42
21 46 42
21 47 43
21 46 42
21 47 42
21 46 42
21 47 43
21 47 43
21 46 42
22 48 43
21 46 42
21 47 43
20 45 41
21 47 43
21 47 43
21 46 42
21 46 42
21 45 41
172 154 140
225 199 180
240 211 190
248 219 196
255 247 219
252 222 200
192 164 160
98 64 102
72 54 80
21 46 42
20 45 41
21 46 42
20 45 41
21 46 42
20 45 41
21 46 42
22 48 43
21 47 43
21 46 42
21 46 42
21 46 42
21 46 42
21 46 42
20 45 41
21 46 42
21 46 42
21 46 42
21 47 43
20 45 41
21 46 42
21 46 42
20 45 41
20 45 41
21 46 42
21 46 42
21 46 42
21 46 42
21 47 43
21 46 42
20 45 42
21 45 42
20 45 41
21 47 43
21 46 42
21 47 43
21 47 43
20 45 41
21 45 41
21 47 43
21 45 42
20 45 41
21 47 43
21 46 42
21 47 43
20 45 41
21 46 42
21 46 42
20 45 41
21 46 42
22 48 43
20 45 41
20 45 41
21 47 43
21 46 42
21 45 42
20 45 41
21 47 43
21 46 42
21 46 42
21 47 43
21 46 42
21 46 42
21 46 42
20 45 41
20 45 41
21 46 42
21 46 42
21 46 42
21 47 43
21 47 43
21 46 42
21 46 42
21 46 42
20 45 41
20 44 40
21 46 42
21 46 42
21 47 42
20 45 41
21 46 42
21 46 42
20 45 41
21 46 42
21 46 42
21 46 42
21 46 42
21 46 42
21 46 42
20 45 41
21 46 42
21 46 42
21 46 42
20 45 41
21 45 42
21 46 42
21 46 42
21 46 42
21 46 42
21 46 42
21 46 42
22 48 44
21 47 42
21 46 42
21 47 43
21 46 42
21 47 43
21 46 42
21 46 42
21 45 41
36 51 47
174 154 138
211 186 167
227 199 177
236 206 183
251 220 195
209 181 168
141 114 123
135 111 114
87 63 88
21 47 43
21 46 42
21 46 42
21 46 42
21 46 42
21 47 43
21 47 43
21 47 43
21 47 43
21 46 42
21 47 43
22 47 43
21 47 43
21 47 43
21 47 42
21 46 42
21 47 43
21 46 42
21 46 42
21 46 42
21 47 43
21 46 42
21 47 43
21 47 43
20 45 41
21 46 42
21 46 42
20 45 41
21 46 42
20 45 42
21 46 42
21 47 43
20 45 41
21 47 43
21 46 42
21 47 43
21 47 43
20 45 41
21 46 42
21 46 43
21 46 42
21 46 42
21 47 43
21 45 41
21 46 42
20 45 41
21 46 42
21 47 43
20 45 41
21 46 42
21 46 42
21 46 42
21 47 43
21 47 43
21 46 42
21 46 42
21 46 42
21 48 43
21 47 43
21 46 42
21 46 42
21 46 42
21 46 42
21 45 41
22 48 44
21 46 42
21 46 42
21 47 43
21 47 43
21 46 42
21 47 43
21 46 42
21 46 42
