P3
120 80
255
18 41 39
18 41 38
18 41 38
18 41 38
18 40 38
18 42 39
18 40 38
18 40 38
18 40 37
18 41 39
18 41 38
18 41 38
18 41 38
18 41 38
18 41 38
18 42 39
18 40 37
19 42 39
18 41 38
18 40 37
18 41 38
18 41 38
18 41 38
18 41 38
18 41 38
19 42 39
19 42 39
18 41 38
18 41 38
18 42 39
18 41 39
18 41 38
18 42 39
18 41 39
19 42 40
19 42 40
18 41 38
18 42 39
19 42 39
18 41 38
18 41 38
18 41 38
18 40 37
18 41 38
18 40 37
19 42 39
18 41 38
18 41 39
18 41 38
19 42 39
18 42 39
18 41 39
18 40 38
19 42 39
19 43 40
19 43 40
19 42 39
19 42 39
18 41 38
19 44 41
18 42 39
19 42 39
19 42 39
19 43 40
19 42 39
19 43 40
19 43 40
19 42 39
19 42 39
19 43 40
18 41 39
18 42 39
18 42 39
18 41 38
19 42 39
19 42 39
19 42 39
19 42 39
19 42 39
19 43 40
19 42 39
19 42 39
18 41 38
19 42 39
19 42 39
19 42 39
19 42 39
18 41 38
18 42 39
18 41 38
18 41 38
18 41 39
19 43 40
19 42 39
19 42 39
19 42 39
19 42 39
19 42 39
18 41 38
18 41 38
19 42 40
18 42 39
19 42 39
18 42 39
19 43 40
18 42 39
19 43 40
18 41 38
18 41 38
18 42 39
18 41 38
19 42 39
19 43 40
19 42 39
18 42 39
18 41 38
19 42 39
19 42 39
18 41 39
18 41 39
18 41 39
18 40 37
18 40 38
18 41 38
18 40 37
18 41 39
18 42 39
18 42 39
18 41 38
18 41 38
18 41 39
18 40 38
18 40 38
18 41 38
18 41 38
19 42 39
18 41 38
18 41 38
19 42 39
18 41 39
18 41 38
19 42 39
18 42 39
18 42 39
18 41 38
19 42 39
18 41 38
18 41 39
19 42 39
19 42 39
18 41 39
18 41 38
19 42 40
19 42 39
19 42 39
19 43 40
19 42 39
18 41 38
19 42 39
18 42 39
19 42 39
18 41 38
19 42 39
18 41 39
18 41 39
18 41 38
19 42 39
19 42 39
19 42 39
18 41 38
18 41 38
19 42 39
19 42 39
19 42 39
19 42 39
18 41 38
19 42 39
19 43 40
20 44 41
19 44 40
19 42 39
18 42 39
19 43 40
19 42 39
19 42 39
18 41 39
18 41 39
19 42 39
19 42 39
19 43 40
18 42 39
19 42 40
19 43 39
19 42 39
19 42 39
18 41 38
19 43 40
20 44 41
19 42 39
19 42 39
19 42 39
19 43 40
18 41 38
19 42 39
19 42 39
19 43 40
19 43 39
19 42 39
18 42 39
19 43 40
19 42 39
19 43 39
19 42 39
19 43 40
19 43 40
19 42 39
19 42 39
19 42 39
19 43 40
19 43 40
19 43 40
19 43 40
19 43 40
19 43 39
19 43 40
19 42 39
19 42 39
19 42 39
19 42 39
19 42 39
19 42 39
19 43 40
19 43 39
19 43 40
19 43 40
19 42 39
19 42 39
19 42 39
19 43 40
19 43 40
18 40 38
18 41 38
18 40 38
18 42 39
18 41 38
19 42 39
19 42 39
18 41 38
18 41 38
18 41 38
18 42 39
19 42 39
18 41 38
18 42 39
19 42 39
19 42 39
18 41 38
19 42 39
18 41 39
19 42 39
18 41 38
18 41 38
18 42 39
18 41 38
19 42 39
18 42 39
19 42 39
19 42 39
19 42 39
18 42 39
19 42 39
19 42 39
18 41 38
18 41 38
19 42 39
19 42 39
18 41 38
18 42 39
19 42 39
19 42 39
19 43 40
19 43 40
19 43 40
18 41 38
19 42 39
19 42 39
19 42 39
19 42 39
19 42 39
19 42 39
19 42 39
19 43 40
19 42 39
19 42 39
19 43 40
19 42 39
19 42 39
19 42 39
19 42 39
19 42 39
19 42 39
19 42 39
19 43 40
19 42 39
19 43 40
18 41 38
19 42 39
19 42 39
19 43 39
19 42 39
19 42 39
19 42 39
19 42 39
18 42 39
19 42 39
19 43 40
19 43 39
19 42 39
19 43 40
19 42 39
19 42 39
19 43 40
19 43 39
19 43 39
19 42 39
19 42 39
19 43 40
19 42 39
19 43 40
19 43 40
19 43 40
19 43 39
19 43 40
19 43 39
19 42 39
19 43 40
19 43 40
19 44 41
19 43 40
19 43 40
19 42 39
19 43 40
19 43 40
19 43 40
19 43 40
19 43 40
19 42 39
19 42 39
19 42 39
19 42 39
19 43 40
19 42 39
19 42 39
19 42 39
19 42 39
19 43 40
19 42 39
19 43 40
19 43 40
20 44 41
18 41 38
18 41 39
19 42 39
18 41 38
19 42 39
19 42 39
18 40 38
19 42 39
19 43 40
19 44 41
19 42 39
19 42 39
19 42 39
19 42 39
18 41 38
18 41 38
18 41 38
18 41 39
18 41 38
19 42 39
19 42 39
18 42 39
18 41 38
19 42 39
18 41 38
19 42 39
18 42 39
19 43 40
19 42 39
18 42 38
18 41 38
19 43 40
18 41 38
19 42 39
19 42 39
19 44 41
19 42 39
18 41 38
19 43 40
19 42 39
18 41 38
19 42 39
19 42 39
19 43 39
19 42 39
19 43 40
19 43 40
19 42 39
19 43 40
19 43 40
19 42 39
19 42 39
19 43 40
19 43 40
19 43 40
19 43 39
19 43 40
19 43 40
19 43 39
19 42 39
19 44 40
19 42 39
18 42 39
19 43 40
18 41 38
19 42 39
19 43 40
19 43 40
19 43 40
19 43 40
19 43 40
19 42 39
19 43 39
19 43 39
19 43 39
19 43 40
19 43 40
20 44 41
19 43 40
20 44 41
19 42 39
20 44 40
20 44 41
19 43 39
19 42 39
19 42 39
19 43 40
20 44 41
19 43 40
19 42 39
19 43 40
20 44 41
19 43 40
20 44 40
19 43 40
20 45 41
20 45 41
19 44 40
19 43 39
20 44 41
19 43 40
19 43 39
19 42 39
20 44 40
19 43 40
19 43 40
19 43 40
19 43 40
19 42 39
19 43 40
19 44 40
19 43 40
19 43 39
19 43 40
20 44 40
19 43 39
19 43 40
19 43 40
19 43 40
19 43 39
19 42 39
18 41 38
19 42 39
19 42 39
19 42 39
18 41 38
18 42 39
19 42 39
19 42 39
19 42 39
19 42 39
19 42 39
19 43 40
19 42 39
18 41 38
19 42 39
18 42 39
19 42 39
19 42 39
19 42 39
19 42 39
19 42 39
18 41 39
19 42 39
19 42 39
19 43 40
19 42 39
19 42 39
18 41 38
19 42 39
18 41 38
19 42 39
19 43 40
18 41 38
19 43 40
19 42 39
19 43 40
19 42 39
19 42 39
19 42 39
18 41 38
19 44 40
19 43 40
19 42 39
20 44 41
19 43 40
19 43 40
19 43 40
19 42 39
19 43 40
19 42 39
19 42 39
19 42 39
19 43 39
19 43 40
20 44 41
19 42 39
19 44 40
19 43 40
19 43 40
19 43 40
19 43 40
19 43 40
19 43 40
19 42 39
19 43 40
19 43 40
19 42 39
20 44 40
20 44 40
19 43 40
19 43 40
19 43 40
20 44 41
20 44 41
19 43 40
19 42 39
19 42 39
19 43 40
19 43 40
19 43 40
20 44 41
19 43 40
19 42 39
19 43 39
19 43 40
19 43 39
20 44 41
19 43 40
19 43 40
19 43 40
20 44 40
19 43 40
19 43 40
20 44 40
19 43 40
19 43 40
20 44 40
20 44 41
20 44 41
20 44 41
19 43 40
20 44 40
20 44 40
19 43 40
19 44 40
19 43 40
19 44 40
20 44 41
19 43 39
20 44 40
20 44 41
20 44 40
20 44 40
20 44 41
19 43 40
20 44 40
19 43 40
20 44 40
20 44 40
19 42 39
18 42 39
19 42 39
18 42 39
18 41 38
19 42 39
19 43 40
19 42 39
18 41 38
18 41 38
19 43 39
18 41 38
19 42 39
19 42 39
19 42 39
18 41 39
19 42 39
19 42 39
18 41 38
19 42 39
19 42 39
19 43 40
19 42 39
19 42 39
19 42 39
18 42 39
19 42 39
19 42 39
19 43 40
20 44 41
19 43 40
19 44 40
19 43 40
20 44 40
19 42 39
19 43 40
19 42 39
18 41 38
19 43 39
19 43 40
19 43 40
19 43 39
19 43 40
19 43 40
19 43 40
19 44 40
19 43 40
19 42 39
19 44 40
19 44 40
19 43 40
19 43 39
19 42 39
19 43 40
19 43 40
19 43 40
19 43 40
20 44 40
19 43 40
20 44 41
19 43 39
19 43 40
19 43 40
19 44 40
20 44 41
19 43 39
19 42 39
20 44 41
19 43 40
20 45 41
19 43 40
19 43 40
20 44 40
20 44 41
19 43 40
19 43 40
19 42 39
19 43 40
19 44 40
19 43 40
19 43 40
20 44 40
20 44 41
20 45 41
20 44 41
19 43 39
20 44 40
20 44 40
19 43 40
19 43 39
20 44 41
20 44 40
19 43 40
20 44 41
20 45 42
19 43 40
20 45 41
19 43 40
20 44 41
19 43 40
20 44 41
20 44 41
20 44 40
20 44 41
20 43 40
19 43 40
20 44 41
20 44 40
20 44 41
19 43 40
20 44 40
20 44 40
20 45 41
19 43 40
20 44 40
20 44 40
19 42 39
20 44 40
20 45 41
19 43 40
18 42 39
19 42 39
19 42 39
19 42 39
19 43 39
19 42 39
19 43 40
19 43 40
19 42 39
19 42 39
19 42 39
19 42 39
19 42 39
19 43 40
19 42 38
19 43 40
19 43 40
19 43 40
19 42 39
19 43 40
19 42 39
18 41 38
19 43 40
19 42 39
19 43 40
19 42 39
19 43 40
19 43 39
19 43 40
19 43 40
19 42 39
19 43 39
19 42 39
20 44 41
19 43 40
19 43 40
20 44 40
19 43 39
19 43 40
19 43 40
19 43 40
19 43 40
19 43 40
20 44 41
19 44 40
19 43 39
19 43 40
20 44 40
19 43 40
19 43 40
20 44 40
19 43 39
20 44 41
19 44 40
19 43 39
19 43 40
19 42 39
19 43 40
20 44 41
19 43 40
19 43 39
20 44 40
20 44 40
19 44 40
20 44 40
19 43 40
20 44 41
20 44 40
20 44 40
19 43 40
20 44 41
19 43 39
20 44 40
20 44 41
20 44 41
20 44 40
20 44 41
21 46 42
20 45 41
20 45 41
20 44 41
20 44 40
20 44 40
20 44 41
21 46 42
20 44 41
20 44 41
20 44 41
20 44 40
20 45 41
20 44 41
20 44 41
20 45 41
20 45 41
20 45 42
20 45 41
20 44 40
19 43 40
20 44 41
20 45 41
20 44 41
20 45 41
20 44 41
20 45 42
19 43 40
20 44 41
20 45 41
19 43 40
20 46 42
20 45 41
20 45 42
20 44 40
20 45 41
20 44 41
20 44 41
21 46 42
20 45 42
20 44 40
20 45 41
20 45 41
19 42 39
19 42 39
19 43 40
19 42 39
19 43 40
19 43 40
19 42 39
19 43 40
18 41 38
19 43 40
19 42 39
19 43 40
19 42 39
19 43 40
18 41 38
19 43 40
19 42 39
19 43 40
19 43 39
19 43 40
19 43 40
19 43 40
19 42 39
19 43 40
19 43 39
19 44 40
19 43 40
20 44 41
20 44 40
19 43 40
20 44 41
20 44 41
20 44 40
19 43 40
19 43 39
19 43 39
20 44 41
19 44 40
20 44 40
20 44 40
20 44 40
19 43 40
20 44 41
19 43 40
19 43 40
19 43 40
19 43 40
19 44 40
20 44 41
19 43 40
20 45 41
20 44 40
20 44 40
20 45 42
19 43 40
19 43 40
20 44 40
20 44 40
20 44 41
20 44 40
20 44 40
20 45 41
19 43 40
20 44 40
20 44 41
20 45 41
20 44 40
20 45 42
20 44 40
20 44 40
20 45 41
20 45 41
20 45 41
20 45 41
20 44 40
20 44 41
20 45 41
20 45 41
20 45 42
20 45 41
20 45 41
20 45 41
20 44 40
20 44 41
20 45 42
20 44 40
20 45 41
19 43 39
20 45 41
20 44 41
20 45 42
20 46 42
20 45 41
21 46 42
20 45 42
20 44 40
21 46 42
20 44 41
20 45 41
20 45 42
20 45 41
20 45 41
20 45 42
20 45 42
20 45 41
20 45 41
20 45 42
21 46 42
20 44 41
20 46 42
21 46 42
20 45 41
21 46 42
20 45 41
20 45 41
20 45 41
20 45 41
20 45 41
20 45 41
20 45 41
19 43 39
19 43 40
19 43 40
19 42 39
18 41 38
19 43 40
20 44 41
19 44 40
19 42 39
19 43 40
19 43 40
19 42 39
19 43 40
19 43 39
19 42 39
19 42 39
19 43 39
20 44 40
20 44 41
19 43 39
19 43 40
19 44 40
19 42 39
19 42 39
19 43 40
19 43 40
19 44 40
20 44 41
19 43 40
19 43 40
19 43 40
20 44 41
20 44 41
19 43 40
19 43 40
19 43 40
19 44 40
20 44 41
20 44 41
19 43 40
20 44 41
20 44 41
19 43 40
20 44 41
20 44 40
20 45 41
20 44 41
19 43 40
20 44 40
19 43 40
20 44 40
19 42 39
20 44 41
19 43 40
20 44 41
20 45 41
20 45 41
20 45 42
20 44 40
19 43 40
20 44 40
20 45 41
20 45 41
20 44 40
20 45 42
20 44 40
20 45 41
20 44 41
20 45 42
20 44 41
20 44 41
21 46 42
20 45 41
20 45 41
21 46 43
20 44 40
21 46 42
20 45 42
20 44 41
20 45 42
20 45 41
20 44 40
20 45 42
20 46 42
21 46 42
20 46 42
20 45 41
21 46 42
20 44 41
21 46 42
20 45 41
20 45 41
20 45 41
20 45 41
20 45 41
20 45 41
20 44 40
20 45 41
20 45 41
20 45 41
20 45 42
20 45 41
21 45 42
21 46 42
21 46 43
21 46 42
20 45 41
20 45 42
20 45 41
20 45 41
21 46 42
21 46 42
21 46 42
20 45 42
21 46 42
21 46 42
21 46 42
21 46 42
20 45 41
21 45 42
20 44 41
19 42 39
19 43 40
19 43 39
19 43 40
19 43 40
19 43 39
20 44 41
19 43 40
19 43 39
20 44 41
19 44 40
19 43 40
19 43 40
19 43 40
19 42 39
19 43 39
19 43 40
19 43 39
20 44 41
20 44 40
19 44 40
19 43 40
20 44 41
19 43 40
20 44 40
19 43 40
19 43 40
20 44 40
20 44 41
20 44 41
19 43 40
20 44 40
20 44 41
20 44 40
20 44 41
20 44 41
19 43 40
20 45 41
19 43 40
20 44 41
20 45 41
20 44 41
20 44 41
20 45 41
20 45 41
19 42 39
20 44 41
20 44 40
20 44 41
20 45 41
19 43 40
20 44 41
20 45 41
20 44 40
20 44 41
20 45 41
20 44 41
20 44 41
20 46 42
20 44 41
20 44 40
21 46 42
20 45 41
20 45 41
21 46 42
20 45 42
20 45 41
20 45 41
20 45 41
21 46 42
20 44 41
21 46 42
20 45 41
21 46 42
21 46 42
20 44 41
21 46 42
20 45 41
20 45 41
20 44 41
20 45 41
21 46 42
20 44 40
20 45 41
20 45 42
21 46 42
20 45 41
21 46 42
21 46 42
21 46 42
21 46 42
21 47 43
21 46 42
20 45 42
20 45 41
21 46 42
21 46 42
21 46 42
20 45 41
20 45 41
21 47 43
20 44 41
21 46 42
21 47 43
21 46 42
20 45 41
21 46 42
20 45 41
21 47 43
20 45 41
20 45 41
20 45 41
21 47 43
20 45 41
21 46 42
21 46 42
21 46 42
21 45 42
21 46 42
19 43 40
19 44 40
19 44 40
19 42 39
19 43 39
19 43 39
19 43 40
19 43 40
19 43 40
20 44 40
20 44 40
20 44 41
20 44 41
19 43 40
20 44 41
20 44 40
20 44 41
20 44 40
19 44 40
19 43 40
19 43 40
20 44 40
19 43 40
20 44 40
19 43 40
20 44 41
20 45 41
19 43 39
20 44 40
20 44 40
20 44 41
20 44 40
20 44 41
20 44 40
19 43 40
20 44 41
20 44 40
20 44 40
20 44 41
20 44 40
19 44 40
20 44 41
20 45 41
20 44 41
20 45 41
20 44 40
20 44 41
20 44 41
20 45 41
20 45 42
20 45 41
20 45 41
20 44 40
20 45 41
20 44 41
20 45 41
20 45 41
20 44 41
20 46 42
21 46 42
20 45 41
20 43 40
20 45 41
21 46 42
20 45 41
20 45 41
20 45 41
20 45 41
20 44 40
20 45 42
21 46 43
20 45 42
20 45 41
21 47 43
20 45 41
21 46 42
20 45 41
21 46 42
21 46 42
21 46 42
20 44 40
21 47 43
20 45 42
20 45 41
21 46 42
20 45 41
20 45 42
20 45 41
20 45 41
21 46 42
21 47 43
20 45 41
21 46 42
21 45 41
21 46 42
21 46 42
21 46 42
21 46 42
21 46 42
21 47 43
21 47 43
20 45 41
21 47 43
21 45 42
20 44 41
20 45 41
21 46 42
21 46 42
21 46 42
21 46 42
21 46 42
21 46 42
21 47 43
21 46 42
21 46 42
21 46 42
21 47 43
21 46 42
21 46 42
21 46 42
20 44 40
19 42 39
20 44 40
19 43 40
19 42 39
19 43 40
19 43 39
19 43 40
19 43 40
20 44 41
19 43 40
20 44 41
19 43 39
19 43 40
19 43 39
20 44 41
19 43 40
19 43 40
20 44 41
20 44 41
19 42 39
20 44 40
20 44 40
19 43 40
20 44 40
20 44 41
19 43 40
19 43 39
19 43 40
20 44 40
20 44 40
20 44 41
20 45 41
20 44 41
20 44 41
20 45 41
20 44 41
20 45 41
20 45 41
20 45 42
20 44 41
20 45 41
20 44 40
20 44 40
20 44 41
20 45 41
20 45 41
20 45 41
20 45 41
20 45 41
20 45 41
20 45 42
20 45 41
20 45 42
20 45 41
21 46 42
20 45 42
20 45 42
20 44 40
21 46 42
20 45 41
20 44 41
20 45 42
21 46 42
20 45 41
20 45 42
21 46 42
20 45 42
20 45 41
21 47 43
21 47 43
20 44 41
21 46 42
21 45 42
21 46 42
21 46 42
21 45 42
20 45 42
21 46 42
21 47 43
20 45 41
21 47 43
21 46 42
21 47 42
21 47 43
21 46 42
21 47 43
21 47 43
21 45 42
21 46 42
21 47 43
21 46 42
21 47 43
21 47 43
21 46 42
21 47 43
21 46 42
21 46 42
21 46 42
21 46 42
21 46 42
21 46 42
21 46 42
21 47 43
21 46 42
21 47 43
21 46 42
21 46 42
21 47 43
21 47 43
21 47 43
21 47 43
21 46 42
21 47 43
22 48 43
22 48 43
21 46 42
21 47 43
21 47 43
22 48 43
19 43 40
19 42 39
19 43 40
20 44 41
20 44 40
19 43 40
20 44 40
19 43 40
19 43 39
20 45 41
19 44 40
20 44 40
19 43 40
20 44 40
19 43 40
20 44 41
19 43 39
19 43 40
20 44 41
20 45 42
20 44 41
20 45 41
20 44 40
20 44 40
20 45 41
20 44 41
20 44 41
20 45 41
20 45 42
20 45 42
20 45 41
20 45 41
20 45 41
20 45 41
20 45 41
20 45 42
20 45 41
20 44 40
20 44 41
21 46 42
20 44 40
20 45 41
20 44 40
21 46 42
20 45 41
21 46 42
20 44 41
21 46 42
21 46 42
21 46 42
20 45 41
20 45 42
20 45 41
21 46 42
20 45 41
21 46 42
21 46 42
20 45 41
21 46 42
20 45 41
21 46 42
21 46 43
21 46 42
21 46 42
20 45 41
20 45 41
21 45 42
21 46 42
21 46 42
21 46 42
21 46 42
21 47 43
21 46 42
21 46 42
21 46 42
21 46 42
21 46 42
20 45 41
21 46 42
20 44 41
21 46 42
21 46 43
20 45 41
21 47 43
21 46 42
21 46 42
21 46 42
21 46 42
21 47 43
21 47 43
21 47 43
21 47 43
21 46 42
21 47 43
21 46 42
21 47 43
21 46 42
21 47 43
21 47 43
21 47 43
21 47 43
21 47 43
21 46 42
21 46 42
21 47 43
21 46 42
21 47 42
21 46 42
21 47 43
22 48 43
21 47 43
21 47 43
21 46 42
22 48 44
22 48 43
22 48 44
21 46 42
22 48 43
21 47 42
22 47 43
19 43 40
19 43 40
20 44 41
20 44 41
20 44 41
20 44 41
20 44 40
20 44 41
19 43 39
20 44 40
20 45 41
19 43 40
19 43 40
20 44 41
19 43 40
20 45 41
19 42 39
20 44 40
20 44 41
20 45 41
20 44 41
20 45 41
20 45 42
20 44 40
20 45 41
20 45 41
20 44 41
20 44 40
20 44 41
20 45 42
20 44 40
21 45 42
20 45 42
20 44 41
20 44 41
20 45 41
20 45 41
20 45 41
20 45 42
20 44 40
20 45 41
20 45 41
21 46 42
21 46 42
20 45 41
20 44 41
21 46 42
20 44 40
20 45 42
20 45 42
20 45 41
20 45 41
20 45 41
20 45 41
21 46 42
21 46 42
20 45 41
21 47 43
21 46 42
21 46 42
20 45 41
21 46 42
20 45 41
21 47 43
21 46 42
20 45 41
21 47 42
21 46 42
21 46 42
21 46 42
21 47 42
20 45 41
20 45 41
21 47 43
21 46 42
21 46 42
21 47 43
21 47 42
21 46 42
21 46 42
21 47 43
21 47 43
21 46 42
21 46 42
21 45 42
21 47 43
21 46 42
22 48 44
22 48 43
21 46 42
21 47 43
22 48 44
21 47 43
21 46 42
21 47 43
21 47 43
21 45 41
22 48 44
22 48 44
22 48 44
21 47 43
22 48 44
21 46 42
21 47 42
21 47 43
21 47 43
22 48 43
21 47 43
21 47 43
21 47 43
21 46 42
22 48 44
22 48 44
21 47 43
22 47 43
22 47 43
21 47 42
22 47 43
20 45 41
21 47 42
19 43 40
20 44 41
20 44 41
19 43 40
20 44 41
20 44 41
20 45 42
20 45 41
19 43 40
20 44 41
20 44 40
20 45 41
20 44 40
19 43 40
20 44 40
20 45 42
20 44 40
19 43 40
20 45 41
20 44 41
20 44 41
20 46 42
20 44 41
20 45 41
20 44 41
20 45 41
20 44 41
20 45 42
20 44 41
20 45 41
21 46 43
20 43 40
20 45 41
20 44 40
20 44 41
20 44 40
20 45 41
20 45 41
21 46 42
21 46 42
21 46 42
20 44 40
20 45 41
20 44 40
20 45 42
20 44 41
21 46 42
21 45 42
21 46 42
21 46 42
20 45 41
21 46 42
21 46 42
21 46 42
21 47 43
21 46 42
20 45 42
20 45 41
21 46 42
21 46 42
21 46 42
21 46 42
22 48 43
21 47 43
21 47 43
21 46 42
21 46 42
21 46 42
21 47 43
21 46 42
21 46 42
20 45 41
22 48 44
21 47 43
21 46 42
20 45 41
21 47 43
21 46 42
21 46 42
21 47 43
21 47 43
21 47 43
21 46 42
21 47 43
21 47 42
21 46 42
22 47 43
21 47 43
22 48 44
22 48 43
21 47 43
21 47 43
21 47 43
21 47 43
22 48 44
22 47 43
21 46 42
21 47 42
22 48 43
22 48 44
21 47 43
22 47 43
22 47 43
22 48 43
21 47 43
22 47 43
22 48 43
22 48 43
22 49 44
21 47 43
22 47 43
21 47 42
22 48 44
22 48 44
22 48 43
22 48 44
22 48 44
21 47 43
21 47 42
22 48 43
20 44 41
19 43 40
20 44 40
20 44 41
21 46 42
20 44 40
20 45 41
20 44 41
20 44 40
19 43 40
20 44 40
20 44 41
20 44 41
20 44 40
20 44 41
20 44 41
20 44 41
20 44 41
20 44 40
21 46 42
20 45 41
20 44 40
20 44 41
20 45 42
21 46 42
20 45 42
20 44 40
20 45 41
20 45 41
20 45 41
20 44 40
20 44 40
20 44 41
20 44 40
20 45 42
21 46 42
20 45 41
20 45 41
21 46 42
20 45 41
20 45 41
21 46 42
21 46 42
20 45 41
20 45 41
21 46 42
21 46 42
21 45 42
21 46 42
20 45 41
21 45 42
21 46 42
20 45 41
21 47 43
21 45 42
21 46 42
21 46 42
21 46 42
21 45 42
21 45 42
21 47 43
21 46 42
21 46 42
21 47 43
20 45 41
21 46 42
21 46 42
21 46 42
21 47 43
21 46 42
21 47 43
22 47 43
21 47 43
21 47 42
22 48 43
22 48 43
22 47 43
22 48 44
22 48 44
21 46 42
21 47 43
21 47 43
22 48 43
21 46 42
21 47 43
21 47 43
22 48 43
21 47 43
21 47 43
22 47 43
22 48 43
21 47 43
21 47 43
22 47 43
22 48 43
22 48 43
22 48 43
21 47 43
22 48 44
22 48 43
22 48 44
22 48 44
21 47 43
22 49 44
22 48 43
21 47 42
21 47 43
22 47 43
22 48 44
22 48 43
22 48 43
22 48 43
22 48 44
22 49 44
21 47 43
22 49 44
22 48 44
22 49 44
22 48 44
22 48 44
20 44 40
20 44 41
20 44 40
20 44 41
20 44 40
20 44 40
20 44 40
20 44 40
20 44 41
20 44 40
20 44 41
20 45 41
20 44 40
19 42 39
20 44 40
20 45 41
20 44 41
21 46 42
20 45 41
19 43 39
20 44 41
20 45 41
20 44 41
20 45 41
20 45 42
20 45 41
20 44 40
20 45 42
20 45 41
20 45 41
20 44 41
21 46 42
20 45 41
20 45 41
21 46 42
21 46 42
20 45 41
20 45 42
21 46 42
21 45 42
20 45 41
20 45 42
21 46 42
21 46 42
21 46 42
20 45 41
21 47 43
21 46 42
21 46 42
21 45 41
21 47 43
21 46 42
21 47 43
21 45 42
20 45 41
21 46 42
21 47 43
21 45 42
20 45 41
21 47 43
21 47 43
21 47 42
21 46 42
21 46 42
21 47 43
20 45 41
21 46 42
22 48 44
22 48 43
21 47 42
21 47 43
21 46 42
21 46 42
21 46 42
21 46 42
22 48 43
21 47 43
22 48 43
22 48 43
21 47 42
22 47 43
21 46 42
21 47 43
22 48 44
22 48 44
22 48 43
22 48 43
22 49 44
22 47 43
22 48 44
22 48 43
22 48 44
21 47 43
22 47 43
21 47 42
22 48 44
22 49 45
22 48 44
22 48 44
22 49 45
22 47 43
22 48 44
21 47 43
21 47 42
21 47 43
21 46 42
22 47 43
22 48 44
22 48 44
22 48 44
22 49 44
22 48 44
22 49 44
22 48 44
22 48 43
22 48 44
22 49 44
22 49 44
22 48 44
22 49 45
19 43 40
20 43 40
20 44 41
20 44 41
19 43 40
20 44 40
20 45 41
20 45 42
20 45 41
20 44 41
19 43 40
20 44 41
20 45 41
19 43 40
20 45 41
20 45 42
20 44 40
20 44 40
19 43 40
20 45 41
20 45 42
20 45 41
20 45 42
20 44 41
20 45 41
20 45 41
20 45 42
20 44 40
20 45 41
20 44 41
20 45 42
20 45 41
20 45 42
20 45 42
21 46 42
20 46 42
21 47 43
21 46 42
21 46 42
21 46 42
20 45 41
21 46 42
20 45 41
21 46 42
21 46 42
20 45 41
20 45 41
21 46 42
21 47 43
21 46 42
21 46 42
21 47 43
21 47 43
21 46 42
21 46 42
21 46 42
21 46 42
21 46 42
21 47 43
21 47 43
21 47 43
21 47 43
21 47 43
21 45 41
21 47 43
21 47 43
21 47 43
22 48 43
21 47 43
21 47 43
21 47 43
22 48 43
21 46 42
21 46 42
22 48 44
21 47 43
21 47 43
22 49 44
21 47 43
22 47 43
21 46 42
21 47 42
21 46 42
22 47 43
22 48 43
22 48 43
22 49 44
22 48 43
22 48 44
22 48 43
21 47 43
21 47 43
21 47 43
22 48 43
21 47 43
22 48 44
22 47 43
22 48 43
22 48 43
22 48 44
22 47 43
22 49 45
23 50 46
22 48 44
22 49 44
21 47 43
22 48 44
22 49 44
22 48 43
22 49 44
23 50 45
22 48 43
23 50 45
22 49 44
23 50 45
22 49 44
22 49 44
22 48 44
22 48 44
22 49 44
20 45 42
20 44 41
20 44 41
20 45 41
20 45 41
20 45 41
20 44 40
20 45 42
20 45 41
20 45 41
20 44 40
20 45 41
20 44 40
21 46 42
20 44 41
20 45 41
20 45 41
20 45 41
20 45 42
20 45 42
20 45 41
20 45 41
20 45 41
21 46 42
20 45 41
20 44 40
20 45 41
21 46 42
20 45 41
21 45 42
20 45 41
21 46 42
21 46 42
21 46 42
21 46 42
20 45 42
20 45 41
21 45 42
21 46 42
21 46 42
20 45 41
21 46 42
20 45 41
21 45 41
21 46 42
20 45 41
21 46 42
21 46 42
21 46 42
21 47 43
21 46 42
21 46 42
21 46 42
21 46 42
21 46 42
21 47 43
21 47 43
21 46 42
21 47 43
22 47 43
21 46 42
22 48 43
21 46 42
21 46 42
21 47 43
21 46 42
22 48 44
22 48 43
21 46 42
21 47 43
21 47 42
21 47 43
21 47 43
21 47 43
22 48 43
30 51 46
93 93 85
142 107 97
117 79 70
33 48 43
22 49 44
22 48 44
22 48 44
22 49 44
22 48 44
21 47 43
22 48 43
22 47 43
22 48 43
22 48 44
22 48 43
22 48 44
22 49 44
22 48 44
22 49 44
22 49 45
22 48 44
22 49 44
22 48 44
22 49 44
22 48 43
22 48 43
22 49 45
22 48 43
22 48 43
22 48 43
22 49 44
22 49 44
22 48 44
23 50 45
22 49 44
22 49 44
22 48 44
22 49 44
22 49 44
22 49 44
23 50 45
22 47 43
22 49 44
22 48 44
20 44 41
20 44 41
20 43 40
20 44 40
20 45 41
20 44 41
21 46 42
20 45 41
20 45 41
20 45 41
20 44 41
20 45 42
20 44 41
20 44 41
20 44 41
20 45 41
21 46 42
20 45 41
20 45 41
21 46 42
20 45 41
20 45 42
20 44 41
20 44 40
20 45 41
21 46 42
20 44 41
21 46 42
20 45 41
20 45 41
21 46 42
21 46 42
20 45 41
21 46 42
21 46 42
21 46 42
21 46 42
20 45 41
21 46 42
21 46 42
21 46 42
21 46 42
21 45 41
21 46 42
21 47 43
21 46 42
21 46 42
21 46 42
21 47 43
21 46 42
21 47 43
21 46 42
21 47 43
21 47 43
21 46 42
21 47 43
21 45 41
22 48 44
21 46 42
21 46 42
21 47 43
22 48 44
21 46 42
22 48 44
21 47 43
21 47 42
21 47 43
22 48 44
21 47 42
21 47 43
21 47 42
22 48 44
22 47 43
22 48 44
53 63 57
158 109 99
210 95 79
225 75 54
239 81 59
216 75 54
58 49 43
22 48 44
22 48 43
22 49 44
21 47 43
22 48 43
22 49 44
22 48 44
22 47 43
22 47 43
22 48 43
22 48 43
22 48 44
22 49 45
22 48 44
22 48 43
22 48 44
22 47 43
22 49 44
22 49 44
22 49 44
22 48 44
23 50 45
22 49 44
23 50 45
23 49 45
22 48 44
23 49 45
22 49 44
23 49 45
22 48 44
22 48 43
23 49 44
23 50 45
22 49 45
23 50 45
22 49 44
23 49 45
23 50 45
23 50 45
20 45 41
20 44 40
20 45 41
20 45 41
20 44 40
20 45 41
20 44 40
20 45 41
20 44 41
20 45 42
20 45 41
20 46 42
20 44 40
20 45 41
20 45 41
21 46 42
20 45 41
21 46 42
20 45 41
20 45 41
20 45 42
21 46 42
21 46 42
20 45 41
20 45 42
20 45 42
20 44 41
20 44 41
20 45 41
20 45 41
21 47 43
20 45 41
20 45 41
20 44 41
21 46 42
20 45 41
20 45 42
20 45 41
20 45 41
21 47 43
21 46 42
20 44 41
21 46 42
21 47 43
21 46 42
22 48 44
21 46 43
21 46 42
21 47 43
21 47 43
21 46 42
21 47 43
21 47 43
21 47 43
22 48 44
22 48 44
22 48 44
21 46 42
21 47 43
21 47 42
21 47 43
22 48 44
22 48 44
21 47 43
22 48 44
21 47 43
21 47 43
21 46 42
21 47 43
22 47 43
21 47 43
22 48 44
21 47 43
21 47 43
122 72 64
178 64 49
199 67 49
214 71 51
245 112 88
253 107 83
196 69 51
21 47 43
23 49 45
22 47 43
22 48 43
22 49 44
22 49 44
22 48 44
22 48 43
22 48 44
22 48 43
22 49 44
22 48 43
22 48 44
22 48 44
22 49 44
22 48 44
22 48 44
22 49 44
22 49 44
22 49 44
22 49 45
23 50 45
23 50 45
22 48 43
22 49 45
23 50 45
22 49 44
22 49 44
22 49 44
22 48 43
23 50 45
22 49 45
22 48 44
22 48 44
23 50 45
23 49 45
23 50 45
22 49 44
22 48 44
20 45 41
20 45 41
20 44 40
20 45 42
20 45 41
20 44 41
21 46 42
20 45 41
21 46 42
20 44 40
20 45 41
20 44 41
20 44 40
21 46 42
21 46 42
20 45 41
20 45 42
20 45 41
21 47 43
20 45 41
20 45 41
21 46 42
20 44 41
21 46 42
20 45 41
20 45 42
21 46 42
21 46 42
20 44 40
20 44 41
20 45 41
21 46 42
21 46 42
21 47 43
21 46 42
20 45 41
21 47 43
20 45 42
21 46 42
21 46 42
21 47 43
21 46 42
20 45 41
21 46 42
21 46 42
21 46 42
21 47 43
21 46 42
21 46 42
21 46 42
21 47 43
21 47 42
21 46 42
21 47 43
22 47 43
21 47 43
21 47 43
21 47 43
21 47 42
21 46 42
21 46 42
21 47 43
21 46 42
21 47 43
22 47 43
21 47 42
22 48 43
21 47 43
21 47 43
21 47 43
22 48 44
22 47 43
21 46 42
39 52 48
121 89 82
159 57 44
174 59 43
193 76 59
204 123 108
218 137 119
215 104 86
68 51 45
22 48 44
22 48 44
22 49 44
22 48 43
22 47 43
49 61 56
86 87 79
70 75 68
22 48 44
22 48 44
22 48 44
22 48 44
22 49 44
22 48 43
22 49 44
22 48 44
22 49 45
22 48 44
23 50 45
22 48 44
23 50 45
23 50 45
23 49 45
23 50 45
22 48 43
22 49 44
23 49 45
23 50 45
23 49 44
23 49 45
22 49 44
22 49 44
23 50 45
23 50 45
23 50 45
23 50 45
23 49 45
23 50 45
20 45 41
20 45 41
20 45 42
20 45 41
19 43 40
20 44 40
20 45 41
20 45 41
20 45 41
20 45 41
20 45 41
20 45 41
20 45 41
20 45 41
20 44 41
20 45 41
21 46 42
20 45 41
20 44 41
20 45 41
20 45 41
21 46 42
21 46 42
21 46 42
20 45 41
21 46 42
20 45 41
21 45 42
20 45 42
21 47 43
21 46 42
20 45 41
21 46 42
21 46 42
21 46 42
21 47 43
21 46 42
20 45 41
21 46 42
21 46 42
21 46 42
21 47 43
20 45 41
21 46 42
21 47 43
21 47 43
21 46 42
22 48 44
21 45 41
20 45 41
21 46 42
21 46 42
21 47 43
21 46 42
21 47 42
22 47 43
21 46 42
21 47 42
21 47 43
21 47 43
21 47 43
21 47 43
21 47 43
22 47 43
21 47 43
21 46 42
21 47 43
22 48 43
21 47 43
22 47 43
21 47 42
22 47 43
21 47 43
42 55 50
105 97 90
129 55 45
131 86 78
153 135 124
169 149 135
179 158 142
188 162 143
76 67 59
22 48 44
22 48 44
22 48 44
44 59 54
157 146 136
210 190 177
224 202 186
233 209 191
192 172 156
69 74 67
22 49 45
22 49 44
22 49 44
22 49 44
22 47 43
23 50 45
22 49 45
22 49 44
22 49 45
22 49 44
22 49 44
22 49 44
23 50 45
22 49 44
22 49 45
22 49 44
23 50 46
22 49 44
22 49 44
23 50 45
22 48 43
22 49 44
22 49 44
22 49 44
23 50 45
23 49 45
22 49 44
23 49 45
20 45 41
20 45 41
20 45 41
20 45 41
20 45 41
20 44 41
21 46 42
21 46 42
20 45 41
20 44 41
20 45 42
21 46 42
20 45 41
20 45 42
19 43 40
20 45 41
20 45 41
20 45 42
20 44 41
20 45 41
21 46 42
20 45 41
20 45 42
21 47 43
21 46 42
21 47 43
21 46 42
21 46 42
21 46 42
21 46 42
21 46 42
20 45 41
21 46 42
20 45 41
20 45 41
21 46 42
21 45 42
21 46 42
21 47 43
21 46 42
21 47 43
21 46 42
21 47 43
21 46 42
21 45 41
21 47 43
21 46 42
21 47 43
20 45 41
21 47 43
21 46 42
21 47 43
21 47 43
21 47 43
21 46 42
21 47 43
21 47 43
21 46 42
21 46 42
21 47 43
21 46 42
22 48 44
21 46 42
22 48 44
22 48 44
21 46 42
21 46 42
21 47 43
22 49 44
22 48 44
22 48 44
21 47 43
21 47 42
25 47 43
76 67 61
99 66 58
102 95 86
97 90 82
114 103 93
125 111 98
136 119 103
43 58 52
22 47 43
22 47 43
23 49 45
128 121 115
185 170 160
198 181 169
209 190 176
235 212 194
244 217 197
182 160 149
24 48 44
22 49 44
22 49 44
23 49 45
23 49 45
22 48 44
22 48 43
23 50 45
22 49 44
23 50 45
22 49 44
22 48 44
22 49 44
22 49 45
23 49 45
22 49 44
23 50 45
61 67 60
157 95 72
191 97 61
203 102 64
160 85 57
40 52 45
23 49 44
23 50 45
23 50 45
23 49 45
23 50 46
20 44 41
20 45 42
20 45 42
20 45 41
20 45 42
21 46 42
20 45 41
21 46 42
20 45 41
20 45 41
20 45 41
20 45 41
20 45 41
20 45 42
21 46 42
21 46 42
21 46 42
20 44 41
20 45 42
20 44 40
20 44 40
20 45 41
20 45 42
21 46 42
21 46 42
21 47 43
21 46 42
21 46 42
21 46 42
21 47 43
21 46 42
21 47 43
21 46 42
21 46 42
21 46 42
21 46 42
21 46 42
21 46 42
21 46 42
21 46 42
22 48 44
21 47 42
21 46 42
21 46 42
21 46 42
21 47 43
21 46 42
21 46 42
21 46 42
21 47 43
21 46 42
21 47 42
22 48 43
21 46 42
21 47 43
21 47 42
21 46 42
21 47 43
22 47 43
21 47 43
21 47 43
21 46 42
21 47 43
21 47 43
22 48 44
22 47 43
21 47 42
22 48 44
21 47 42
22 47 43
21 46 42
22 48 43
22 47 43
21 46 42
43 39 35
51 47 40
47 49 42
42 46 39
47 49 40
60 57 46
51 56 48
22 48 44
22 49 44
21 47 42
33 46 49
65 46 74
89 71 91
83 63 90
94 71 98
97 72 99
93 63 97
93 61 97
48 50 58
23 49 45
22 49 44
23 50 45
22 48 43
23 50 45
22 48 44
23 49 45
23 50 45
22 49 44
22 49 45
23 50 45
23 50 45
22 48 44
23 49 45
23 50 45
82 85 78
191 147 129
226 110 67
233 113 68
255 143 99
255 152 106
213 154 131
42 56 50
23 50 45
23 51 46
23 50 45
23 50 45
20 45 42
20 44 41
20 45 41
20 45 41
20 45 42
20 45 41
20 45 42
20 45 41
21 46 42
20 44 41
21 46 42
20 45 41
21 46 42
20 45 41
20 45 41
20 45 42
21 47 43
21 46 42
20 45 41
20 45 41
21 46 42
21 46 42
21 45 41
21 47 43
21 47 43
21 47 43
20 45 41
21 46 42
21 46 42
21 46 42
21 46 42
21 45 42
20 45 41
21 46 42
21 46 42
21 46 42
21 46 43
20 45 42
21 47 43
20 45 41
22 48 43
21 47 43
21 47 43
21 47 43
21 47 43
21 45 42
21 46 42
21 46 42
21 47 42
21 46 42
22 48 44
21 47 42
21 46 42
21 47 43
21 47 43
21 45 41
21 47 43
22 47 43
21 46 42
22 48 44
21 47 42
22 48 43
21 46 42
21 47 43
22 48 44
21 47 42
21 47 43
22 49 44
22 47 43
21 46 41
19 41 38
17 37 35
15 34 32
15 33 31
13 30 28
10 20 18
10 18 14
20 24 18
38 37 26
30 40 33
20 43 38
21 44 39
21 46 41
22 46 42
37 43 50
56 38 63
60 41 69
63 43 72
65 45 74
72 49 79
72 47 76
80 53 84
55 50 63
23 50 45
23 49 45
22 49 44
22 49 44
22 49 44
23 50 45
22 48 44
22 49 44
22 49 44
22 49 44
22 49 44
22 49 44
22 49 44
23 49 45
34 52 47
146 131 122
192 103 71
209 102 61
216 105 64
226 111 68
229 169 145
224 199 181
160 145 131
23 50 46
22 49 44
23 49 44
23 49 45
20 46 42
20 46 42
20 45 42
20 45 41
20 44 40
20 45 41
20 45 42
20 44 40
20 45 42
20 45 41
20 45 41
20 45 41
21 46 42
21 46 42
21 46 42
21 46 42
21 46 42
20 44 40
20 45 41
20 45 41
21 46 42
20 45 42
21 46 42
21 46 42
20 45 41
21 46 42
21 46 42
21 46 42
21 47 43
21 46 42
21 46 42
21 46 42
21 46 42
20 45 41
21 46 42
21 46 42
21 46 42
21 46 42
22 48 43
21 46 42
21 47 42
21 47 42
21 47 43
21 46 42
21 46 42
21 47 43
21 46 42
21 47 42
22 48 43
21 47 42
21 46 42
21 47 43
21 46 42
21 47 42
21 47 42
21 46 42
21 46 42
21 47 43
21 47 42
21 46 42
21 47 43
22 48 43
21 47 43
21 47 42
21 47 43
21 46 42
22 47 43
22 47 43
21 46 42
21 46 42
20 43 39
19 43 39
18 41 38
17 38 36
17 37 35
17 38 35
16 35 32
16 34 31
17 36 32
19 41 36
20 42 38
21 46 42
21 46 41
22 47 42
29 40 42
50 34 56
53 36 60
50 34 56
50 35 57
51 35 57
56 37 59
63 42 66
47 47 56
22 49 44
22 48 44
22 49 45
22 47 43
22 48 43
23 49 45
23 50 45
22 49 44
23 50 45
23 50 45
23 49 45
22 48 44
22 48 43
22 48 44
62 70 65
152 122 110
149 91 72
158 99 80
184 94 62
195 110 81
185 165 152
192 172 156
180 160 144
22 49 44
23 50 45
23 51 46
23 51 46
20 45 41
20 44 41
20 45 41
20 45 41
21 47 43
20 45 41
20 45 41
20 45 41
21 46 42
21 46 42
21 46 42
20 45 41
20 45 41
21 46 42
21 46 42
21 45 42
21 46 42
20 45 42
20 45 41
21 46 42
20 45 41
20 45 41
20 45 42
20 45 42
20 45 41
21 46 42
20 45 41
21 46 42
21 47 43
21 46 42
21 46 42
21 46 42
21 46 42
21 46 42
21 46 42
21 46 42
21 46 42
21 47 43
21 46 42
20 45 41
21 47 43
21 46 42
21 46 42
21 46 42
21 47 43
21 46 42
21 47 42
21 47 43
22 48 43
21 46 42
21 47 43
21 47 43
22 48 44
21 47 43
21 47 43
21 47 42
21 47 43
21 47 43
22 48 43
21 47 43
22 48 44
22 48 44
21 47 43
22 47 43
21 47 42
21 47 43
22 48 43
21 47 43
21 46 42
22 48 43
21 46 41
22 47 43
21 47 42
22 47 43
22 48 43
22 48 43
21 46 41
22 47 43
22 48 43
21 47 42
22 47 42
21 46 41
22 47 43
22 48 43
21 45 41
35 29 38
33 24 37
35 25 40
36 25 40
30 23 34
36 28 39
53 44 50
25 48 44
22 49 44
22 48 44
22 49 44
22 48 44
22 49 44
22 49 44
22 49 44
22 49 44
23 50 45
22 48 44
22 49 44
23 49 45
23 50 45
23 50 45
62 68 62
117 89 78
116 108 101
132 121 113
129 87 72
147 110 96
149 135 125
157 141 128
160 143 129
41 58 52
22 49 44
23 49 45
23 50 45
21 46 42
20 44 40
20 45 42
20 44 41
20 45 42
20 45 41
20 45 41
20 45 41
20 45 41
20 45 41
20 44 41
21 46 42
20 45 41
21 46 42
20 45 41
20 44 40
21 46 42
21 46 42
21 46 42
21 46 42
20 45 41
21 47 43
21 47 43
20 45 41
20 45 41
21 47 43
20 45 41
21 46 42
20 45 41
20 45 41
21 47 43
21 46 42
20 45 41
20 45 41
21 46 43
21 45 41
21 45 41
20 45 41
21 46 42
21 46 42
21 46 42
21 47 43
20 45 42
21 47 42
21 46 42
21 46 42
22 48 44
21 46 42
21 47 43
22 47 43
21 46 42
21 47 43
21 47 43
22 48 44
22 48 44
21 47 43
21 46 42
21 47 43
22 47 43
22 48 44
22 47 43
21 47 43
21 46 42
21 47 43
22 48 43
21 47 43
21 47 42
22 48 43
21 47 42
22 49 45
22 47 43
22 48 44
21 47 42
22 48 43
21 46 42
22 48 44
22 48 44
22 47 43
21 46 42
22 48 43
22 47 43
21 46 41
21 45 41
20 43 39
20 44 40
28 41 37
28 33 29
20 29 24
26 34 27
35 40 32
50 49 38
37 50 44
22 47 42
22 48 43
22 47 42
22 48 43
22 48 44
22 48 43
22 48 43
22 48 44
22 49 45
23 50 45
22 48 44
22 49 44
23 49 45
21 47 42
22 47 43
43 57 52
92 67 56
96 88 80
81 76 70
110 84 73
105 92 83
111 102 93
114 105 95
102 96 86
22 48 43
23 50 45
23 49 45
23 50 45
20 45 41
20 45 41
21 46 42
20 45 42
20 45 41
20 44 41
21 46 42
20 44 40
21 46 42
21 46 42
21 46 42
20 45 42
21 46 42
20 45 41
20 45 41
20 44 41
21 46 42
21 46 42
21 46 42
21 45 42
21 46 42
20 44 41
21 45 42
21 46 42
21 46 42
20 45 41
21 46 42
21 46 42
21 47 43
21 46 42
21 45 42
22 48 44
21 46 42
21 46 42
21 46 42
21 46 42
21 46 42
21 47 43
21 47 43
21 47 42
21 45 42
21 47 43
21 46 42
22 48 44
21 46 42
21 46 42
21 46 42
21 46 42
21 47 43
21 46 42
21 47 43
21 47 43
21 47 43
21 47 43
21 47 43
21 47 43
22 48 44
22 48 43
21 47 43
22 48 44
22 48 43
21 47 43
21 47 43
21 46 42
21 47 43
22 48 43
21 47 43
21 47 43
22 48 43
22 48 43
22 48 44
22 48 43
21 47 43
21 47 43
22 47 43
21 47 43
21 46 42
22 47 43
22 48 44
21 46 42
20 45 41
18 40 38
15 34 32
13 31 30
13 30 29
11 26 25
9 21 20
8 17 14
9 17 14
18 23 18
16 33 29
20 43 38
20 43 39
21 46 42
21 46 42
21 47 42
22 47 43
22 47 43
22 47 43
22 48 43
22 47 43
22 48 43
23 50 45
22 47 42
22 49 44
22 48 43
23 49 44
25 49 44
66 46 36
64 47 38
55 45 38
64 35 20
63 61 53
65 63 55
79 74 64
55 63 57
23 50 45
23 49 44
23 50 45
24 46 43
20 45 41
20 45 42
20 45 41
20 45 41
20 45 42
20 44 41
20 45 41
20 44 40
21 46 42
20 44 41
20 45 41
20 45 41
20 45 41
20 45 41
21 47 43
21 46 42
20 45 41
20 44 41
21 46 42
21 46 42
20 45 42
20 45 42
21 46 42
21 46 42
21 46 42
21 46 42
21 47 43
21 46 42
21 47 43
21 45 41
20 45 41
21 46 42
21 47 43
21 46 42
21 46 42
21 47 43
21 46 42
21 46 42
21 46 42
21 47 43
21 46 42
21 46 42
21 47 43
21 46 42
21 46 42
21 47 43
20 45 41
21 46 42
21 46 42
21 47 43
22 49 44
21 47 43
21 47 43
21 47 43
21 46 42
21 47 42
21 46 42
21 47 43
21 46 42
21 47 43
21 46 42
21 46 42
21 47 42
22 47 43
22 48 43
22 47 43
21 47 43
21 46 42
22 47 43
22 47 43
21 47 43
21 47 43
21 47 42
21 47 42
22 48 43
22 48 44
22 47 43
22 48 43
21 47 43
22 48 43
21 46 42
21 46 42
20 44 41
18 40 37
18 40 37
17 38 35
17 38 35
16 35 32
17 37 34
19 42 38
21 45 40
21 45 41
21 46 41
22 47 42
22 48 43
21 47 42
22 47 43
22 49 44
22 49 44
22 48 43
22 48 43
22 48 44
22 48 43
22 48 43
22 48 43
21 46 41
20 43 39
18 40 37
15 32 29
13 19 15
13 13 6
14 14 7
17 28 21
30 35 26
38 49 41
26 50 45
22 47 42
23 49 44
22 47 42
81 77 74
21 46 42
20 45 41
20 45 41
20 45 41
21 46 42
20 45 41
20 45 41
20 45 41
20 45 41
21 46 42
20 45 41
21 46 42
20 45 41
20 45 41
21 46 42
21 46 42
20 45 41
21 46 42
20 45 42
21 46 42
21 46 42
20 45 41
21 47 43
20 45 41
21 46 42
21 46 42
20 45 41
20 45 41
20 45 41
21 47 43
21 46 42
21 47 43
21 45 42
21 46 42
21 46 42
20 45 41
21 46 42
21 47 43
21 47 43
21 46 42
21 46 42
22 48 44
21 47 43
21 47 43
21 46 42
21 46 42
21 46 42
21 47 43
21 47 43
21 46 42
21 47 43
21 47 43
21 47 43
21 46 42
22 47 43
21 47 42
21 47 43
21 47 43
21 46 42
21 47 43
21 47 43
22 48 43
21 47 43
21 47 43
21 47 43
22 48 43
22 48 44
21 47 43
22 48 44
21 47 43
22 48 43
21 47 43
21 46 42
21 47 42
22 48 44
22 48 43
21 47 42
21 47 43
22 49 44
21 47 42
21 47 43
22 48 44
22 48 44
21 47 43
21 47 43
21 47 43
22 49 44
22 47 43
22 47 43
21 47 42
21 47 42
21 46 42
22 47 43
21 46 42
22 48 43
22 48 43
22 49 44
22 47 43
22 48 43
22 48 43
22 48 43
22 48 44
22 47 43
22 47 42
21 45 41
18 39 36
15 34 32
13 29 28
12 26 25
10 23 22
9 18 16
8 14 13
8 16 15
10 22 20
18 39 35
21 45 40
21 46 41
22 46 42
21 40 37
100 94 90
20 44 41
20 44 41
21 46 42
20 45 42
21 46 42
20 45 42
20 45 41
20 45 41
20 44 41
20 45 41
20 45 41
21 46 42
21 46 42
20 45 41
21 45 42
20 45 41
21 46 42
21 46 42
20 45 41
21 46 42
21 47 43
21 46 42
20 45 41
21 45 41
20 45 42
21 46 42
21 46 42
21 46 42
21 46 42
20 45 42
21 46 42
20 45 41
21 46 42
21 46 42
21 46 42
21 46 42
21 46 42
22 48 44
21 46 42
21 47 43
21 46 42
21 47 43
21 47 43
21 45 41
21 46 42
21 46 42
21 46 42
21 47 43
21 47 43
21 46 42
21 46 42
21 47 43
21 46 42
21 46 42
21 46 42
22 48 43
21 47 43
22 48 44
21 47 43
21 47 43
22 48 44
21 47 42
21 47 43
22 48 44
21 47 43
22 48 43
22 47 43
21 47 43
22 48 44
21 47 43
22 48 43
21 47 42
22 48 44
22 47 43
22 49 44
22 48 44
22 49 44
21 47 42
21 46 41
21 47 43
21 47 42
22 48 43
22 48 43
22 48 44
22 48 43
22 48 44
22 47 43
22 48 44
22 48 44
22 49 44
22 47 43
22 48 43
22 48 43
22 48 44
22 48 44
22 48 43
22 48 44
22 48 43
22 48 43
22 48 43
22 49 44
22 49 44
22 48 43
23 49 45
22 48 43
22 48 43
21 47 42
21 46 42
20 43 39
19 41 37
19 41 37
19 41 38
19 42 38
20 43 39
21 47 42
22 47 42
23 49 44
22 49 44
21 37 35
76 71 68
20 45 41
21 46 42
21 46 42
21 46 42
20 45 41
20 45 42
20 44 40
20 45 41
20 45 41
20 45 41
21 46 42
20 45 41
20 45 41
20 45 41
20 45 41
20 45 41
21 47 43
21 46 42
20 45 41
20 45 42
20 45 42
21 46 42
21 47 43
21 46 42
21 46 42
21 46 42
21 46 42
21 46 42
21 46 42
21 46 42
21 47 43
21 47 42
21 47 43
21 46 42
21 46 42
21 46 42
21 47 43
21 46 42
20 45 41
21 46 42
20 45 41
21 47 43
21 45 42
22 48 44
21 46 42
21 47 43
21 47 42
21 46 42
21 46 42
21 47 43
21 47 43
21 46 42
22 47 43
21 46 42
20 45 41
22 49 44
21 47 43
21 47 43
21 46 42
21 47 43
22 48 44
21 47 43
21 45 41
22 48 43
22 48 44
21 47 43
22 48 44
21 47 43
22 49 44
21 47 42
22 49 44
22 48 43
22 48 43
21 47 42
22 48 43
21 47 43
22 48 44
21 47 43
21 46 42
22 48 44
22 48 44
22 48 43
21 47 43
22 48 44
22 47 43
22 48 44
22 48 43
22 47 43
22 49 45
22 48 43
21 47 43
22 48 43
22 47 43
22 48 43
22 48 44
23 50 45
22 48 43
22 48 43
22 48 43
22 48 43
22 47 43
22 49 44
22 48 43
22 49 45
22 49 44
22 48 44
22 48 44
22 48 43
21 46 42
22 48 43
22 48 44
22 48 43
22 48 44
22 48 43
22 48 44
22 48 43
23 50 45
22 47 43
18 36 33
40 38 37
20 44 40
20 44 40
20 45 41
20 45 41
20 45 41
20 45 42
20 45 41
20 44 41
20 44 40
20 45 41
20 45 41
20 44 41
21 46 42
21 46 42
21 47 43
20 45 41
20 45 41
21 46 42
20 45 41
21 46 42
20 45 41
21 46 42
21 46 42
20 45 41
21 46 42
21 46 43
20 45 41
21 46 42
21 46 42
21 45 41
21 46 42
21 46 42
21 47 43
20 45 41
21 46 42
21 46 42
21 46 42
21 47 43
21 46 42
21 47 43
21 46 43
21 45 41
22 48 44
21 45 41
21 46 42
21 47 43
21 46 42
21 47 43
22 47 43
21 47 43
21 47 43
21 47 43
21 46 42
21 46 42
21 45 41
21 47 43
22 48 43
21 46 42
21 47 43
21 47 43
22 48 44
21 46 42
21 46 42
22 47 43
21 47 43
21 46 42
21 46 42
21 47 43
21 47 43
21 47 42
22 48 43
22 48 43
22 48 44
22 48 43
21 47 42
22 48 44
22 47 43
22 48 43
21 47 43
22 48 43
22 49 44
22 48 43
22 49 44
22 49 44
22 47 43
22 48 44
22 48 43
22 47 43
22 48 44
21 47 43
22 47 43
22 49 45
22 49 44
22 48 44
22 48 43
22 48 44
22 48 44
22 49 44
21 47 42
22 48 44
22 49 45
22 48 43
22 48 43
22 49 44
22 49 44
22 49 44
22 49 44
22 49 44
22 49 44
22 47 43
22 48 44
22 48 43
22 48 43
22 47 43
22 48 43
22 48 43
22 47 43
22 48 43
22 48 43
13 16 17
20 44 41
21 46 42
20 45 41
21 46 42
20 44 41
21 46 42
20 45 41
20 45 42
21 46 42
20 45 41
20 45 41
20 45 41
20 45 41
20 45 41
21 46 42
20 44 41
21 46 42
20 45 41
20 45 42
20 45 42
21 46 42
21 46 42
21 47 43
21 46 42
20 45 41
20 45 41
21 46 42
20 45 41
21 46 42
21 46 42
20 45 41
21 46 42
21 47 43
21 46 42
21 46 42
20 45 41
21 46 42
21 46 42
21 46 42
21 47 43
21 46 42
21 47 43
21 46 42
21 46 42
21 47 43
20 45 41
21 46 42
22 48 44
21 47 43
21 47 43
22 48 44
21 46 42
21 46 42
21 47 43
21 46 42
21 47 43
21 47 43
21 47 43
21 46 42
21 47 43
21 46 42
21 47 43
21 46 42
21 47 42
22 48 43
21 46 42
22 47 43
22 48 44
22 48 43
22 48 43
21 47 43
21 46 42
21 47 43
21 46 42
22 48 44
22 47 43
22 48 44
22 48 44
22 48 44
22 48 44
21 47 43
22 48 44
21 46 42
21 47 43
21 47 43
21 47 43
22 49 44
22 48 44
21 46 42
22 48 43
22 48 43
21 47 43
22 49 44
22 48 43
22 49 45
22 48 43
22 48 43
22 48 44
23 50 45
22 48 44
22 48 43
22 48 43
22 48 43
22 48 43
22 49 44
22 48 44
22 47 43
22 48 43
22 48 43
22 48 43
22 49 44
22 48 43
22 48 43
22 47 43
22 48 44
22 49 44
22 48 43
21 47 42
21 46 41
16 33 30
20 44 41
20 44 41
20 45 41
20 45 42
20 45 41
20 45 41
20 45 41
20 45 41
21 46 42
21 46 42
20 45 41
21 46 42
20 45 41
20 45 41
20 45 41
21 46 42
20 45 41
20 45 41
21 46 42
21 46 42
21 46 43
21 46 42
20 45 41
20 45 41
20 45 41
21 46 42
21 46 42
21 46 42
20 45 41
21 47 43
21 46 42
21 47 43
20 45 41
21 47 43
21 46 42
21 46 43
21 47 43
21 46 42
21 47 43
21 47 43
21 46 42
21 47 43
21 46 42
21 46 42
21 47 43
21 47 43
21 47 43
21 46 42
21 46 42
21 47 43
21 46 42
21 45 41
21 47 43
21 47 43
21 46 42
21 46 42
21 47 43
21 47 43
21 46 41
21 46 42
21 47 43
21 47 43
21 47 43
21 47 43
22 47 43
21 46 42
22 48 43
21 47 43
21 47 43
21 47 43
21 46 42
22 49 44
22 48 44
21 47 42
21 47 43
21 45 41
21 47 43
21 47 43
22 47 43
22 48 43
22 48 44
22 48 43
22 48 44
22 48 44
22 48 43
22 48 44
22 49 44
22 49 44
22 48 43
22 48 43
22 48 43
22 48 43
22 49 44
22 48 43
22 48 44
22 47 43
22 47 43
22 48 43
22 48 44
22 48 44
22 48 43
21 47 42
22 48 44
22 48 43
22 49 44
22 49 44
22 48 44
22 49 45
22 48 44
23 49 45
22 47 43
22 49 44
22 47 43
22 48 43
22 47 42
21 47 42
20 44 40
17 38 35
14 32 29
13 30 28
21 46 42
21 46 42
20 45 42
20 45 41
20 45 41
20 44 41
21 46 43
21 46 42
20 45 41
20 45 41
21 46 43
20 45 41
21 45 42
21 46 42
21 46 42
20 44 40
21 46 42
20 44 41
21 45 42
21 46 42
20 45 41
20 45 41
21 46 42
21 47 43
21 46 42
21 46 42
20 45 42
20 45 41
20 45 41
21 46 42
21 47 43
20 44 41
21 46 42
21 46 42
21 46 42
21 46 42
21 46 42
21 46 42
21 46 42
21 47 43
21 46 42
21 46 42
21 45 42
21 46 42
21 47 42
21 47 43
21 46 42
21 46 42
21 46 42
21 47 43
21 46 42
21 47 43
21 47 43
21 46 42
21 47 43
21 46 42
21 46 42
21 47 43
21 47 43
21 46 42
22 48 43
21 46 42
22 48 44
22 48 43
21 47 43
21 47 43
22 48 43
22 48 44
21 47 43
21 46 42
22 48 44
22 48 44
21 47 43
21 47 42
21 47 43
22 47 43
22 48 43
22 48 44
22 48 43
21 47 42
22 49 45
22 48 43
22 48 43
22 48 43
22 48 43
21 47 43
22 48 44
22 49 44
22 48 44
22 48 43
22 48 43
22 48 43
23 50 46
22 47 43
22 48 43
22 48 44
22 48 43
22 48 44
22 48 43
22 48 44
21 47 43
23 50 45
22 49 44
22 48 44
22 49 45
23 49 45
21 46 42
22 48 44
22 49 45
23 50 45
22 48 44
22 49 44
22 48 43
22 48 43
22 48 43
21 45 41
19 41 38
14 33 31
13 31 30
13 30 28
20 45 41
20 45 41
20 45 41
21 46 42
20 45 41
20 44 40
20 45 41
20 44 40
20 45 42
21 46 42
20 45 41
20 45 41
21 48 44
21 46 43
21 47 43
21 46 42
20 44 40
21 46 42
21 46 42
21 46 42
20 44 41
20 45 41
21 48 44
21 46 42
20 45 41
20 45 41
21 46 42
21 47 43
20 45 41
21 46 42
21 47 43
21 45 42
20 44 40
21 46 42
21 46 42
21 46 42
21 46 42
21 47 43
20 45 41
21 47 43
21 45 41
21 46 42
21 46 42
22 48 43
20 45 41
21 47 43
21 47 43
21 46 42
21 47 43
21 47 43
22 48 43
21 47 43
22 48 43
21 47 43
21 47 42
21 46 42
21 47 42
22 48 43
21 47 43
21 46 42
21 46 42
21 47 43
21 47 43
21 46 42
21 47 43
21 47 42
21 47 43
21 46 42
21 47 43
22 48 43
21 46 42
21 47 43
22 48 43
21 46 42
21 47 43
22 49 45
22 49 45
21 46 42
22 48 43
21 46 42
21 47 43
22 49 44
22 47 43
22 48 43
21 46 42
22 48 44
22 47 43
22 48 44
22 48 44
22 48 43
22 49 44
22 47 43
22 48 44
22 47 43
22 48 44
22 47 43
22 48 43
21 47 43
22 48 43
22 49 44
22 49 44
22 49 44
22 48 43
22 49 44
22 48 44
22 49 45
22 47 43
23 50 45
22 47 43
22 49 45
22 48 43
22 48 44
22 49 44
21 46 42
22 49 45
21 46 42
22 47 43
21 46 42
19 43 39
19 42 38
20 45 41
20 45 41
21 46 42
20 44 41
20 45 41
20 44 41
21 45 42
20 44 41
21 46 42
21 46 42
21 46 42
20 45 41
20 44 41
21 46 42
20 45 41
20 45 41
20 45 41
20 45 41
21 47 43
20 45 41
20 45 41
20 45 42
20 45 41
21 46 42
20 45 41
21 45 41
21 46 43
21 46 42
21 46 42
21 46 43
21 45 42
21 46 42
21 46 42
21 46 42
21 46 42
20 45 41
21 46 42
22 48 44
20 45 41
21 47 42
21 46 42
21 46 43
21 46 42
21 46 42
21 46 42
21 46 42
21 46 42
21 47 43
21 46 42
21 46 42
21 47 43
21 47 43
21 47 43
21 47 43
21 45 41
21 46 42
21 47 43
20 45 41
21 46 42
21 46 42
21 47 43
21 47 43
21 47 43
21 46 42
21 46 42
22 48 43
21 47 43
21 47 42
21 47 42
22 47 43
21 47 43
21 46 42
21 46 42
22 49 44
21 47 43
21 47 43
22 48 43
21 47 43
21 47 42
21 46 42
22 48 44
22 49 45
22 47 43
22 48 43
21 47 42
22 48 43
21 47 43
21 47 43
21 47 43
22 48 43
22 49 44
22 49 44
22 48 43
22 48 43
22 48 44
22 48 43
21 47 43
22 48 44
22 48 44
21 47 43
22 48 44
22 48 44
22 47 43
22 48 44
22 48 43
22 47 43
22 47 43
21 47 43
22 48 43
22 49 45
22 48 43
22 48 44
22 49 44
23 50 45
22 48 44
22 48 43
22 48 44
22 48 43
22 48 44
22 48 43
20 45 41
20 45 41
21 46 42
21 46 42
20 45 41
21 46 42
20 45 41
21 46 42
21 46 43
20 45 41
21 46 42
20 45 42
20 45 41
20 45 41
21 46 42
21 46 42
21 46 42
20 45 41
20 45 41
20 45 41
20 45 41
21 47 43
20 45 42
21 45 42
21 46 42
21 46 42
21 46 42
21 46 42
20 45 41
21 47 43
21 47 43
21 46 42
21 46 42
21 47 43
21 46 43
21 46 42
21 46 42
21 47 43
21 47 43
20 45 41
21 47 43
21 46 42
21 47 43
21 46 42
21 46 42
21 46 42
21 46 42
21 46 42
21 46 42
21 46 42
21 46 42
21 46 42
21 47 43
21 47 42
21 47 43
21 46 42
21 46 42
21 46 42
21 47 43
21 46 42
22 48 44
21 46 42
21 47 43
22 48 43
22 48 44
21 47 43
22 48 44
21 46 42
21 47 42
22 48 44
22 47 43
22 47 43
22 47 43
21 47 43
22 48 44
21 47 43
22 48 43
21 47 43
22 48 44
22 48 44
22 48 44
22 48 44
21 47 43
21 47 43
22 48 44
22 48 44
22 48 44
22 49 44
22 48 44
22 48 43
22 49 44
22 48 44
21 47 43
21 47 42
22 48 43
22 48 44
22 48 43
22 48 43
21 47 42
22 48 43
22 48 44
21 47 43
22 49 45
21 47 42
22 49 44
22 49 45
22 49 44
21 47 43
22 49 44
22 48 43
22 48 44
21 47 42
22 48 43
22 47 43
22 49 44
22 49 44
22 48 44
22 48 44
22 48 43
23 49 45
20 44 40
20 45 42
20 45 41
21 46 42
20 45 42
21 46 42
20 45 41
20 45 41
21 46 42
20 45 42
21 46 42
21 46 42
20 45 41
21 46 42
21 46 42
21 46 42
20 45 41
20 44 41
20 45 41
20 45 41
20 45 42
20 45 41
20 45 41
21 46 42
21 46 42
21 45 42
21 46 42
20 45 41
21 46 42
21 46 42
21 46 42
20 45 41
21 46 42
20 45 42
21 46 42
21 46 42
21 46 42
21 47 43
20 45 41
21 45 42
21 47 43
21 45 41
21 46 42
21 46 42
21 47 43
21 46 42
21 46 42
21 47 43
21 46 42
21 47 43
21 45 42
21 46 42
21 46 42
21 45 41
21 47 43
21 47 43
21 46 42
21 46 42
21 47 43
21 46 42
21 47 43
21 46 42
21 46 42
21 46 42
21 47 43
22 48 44
21 46 42
21 47 43
21 47 43
21 47 42
21 47 43
21 46 42
21 47 43
21 47 43
21 47 43
21 46 42
21 47 43
21 46 42
22 47 43
21 47 42
21 47 42
22 48 43
22 47 43
22 48 43
21 47 43
21 47 43
21 47 43
22 47 43
22 47 43
22 48 43
22 48 44
21 47 43
22 49 44
21 47 43
22 47 43
21 47 43
22 48 44
22 49 44
21 47 43
22 48 44
22 48 44
22 48 44
22 48 43
21 47 43
22 47 43
22 48 44
22 48 43
22 48 43
22 48 43
22 49 45
22 49 44
22 48 44
22 49 44
22 48 43
22 48 44
22 47 43
22 49 44
22 49 44
22 47 43
21 47 42
21 46 42
20 44 41
20 44 41
20 45 42
21 46 42
20 45 41
20 45 41
20 44 41
20 45 42
20 45 42
20 45 41
20 45 42
20 44 41
20 45 41
21 46 42
20 45 41
21 46 42
20 43 40
21 46 42
20 45 41
21 46 42
21 47 43
20 45 41
21 46 43
21 46 42
20 45 41
21 46 42
21 46 42
21 46 42
20 45 41
21 47 43
21 47 43
21 46 42
21 46 42
20 45 41
21 46 42
20 45 41
20 45 41
20 44 41
21 47 43
21 46 42
21 47 43
20 45 41
21 46 42
21 46 42
21 46 42
22 48 44
21 46 42
21 45 41
22 48 43
21 46 42
21 47 43
22 47 43
21 46 42
21 46 42
20 45 41
21 46 42
21 46 42
21 47 43
21 46 42
21 46 42
21 46 42
21 46 42
21 47 43
21 47 43
21 47 43
21 46 42
21 47 43
21 47 43
22 48 44
21 46 42
21 46 42
22 48 43
22 48 43
22 48 44
22 48 43
21 47 43
21 47 43
22 48 44
22 47 43
21 47 42
21 47 43
21 47 43
21 47 42
21 47 43
22 48 43
22 48 44
22 48 43
21 46 42
22 48 43
22 47 43
22 48 44
22 48 43
22 48 44
22 48 43
22 47 43
21 47 43
22 48 44
22 48 43
22 48 43
22 48 44
22 48 44
22 48 44
21 47 43
22 49 45
22 48 43
22 48 44
22 48 44
22 48 43
22 48 44
22 48 44
22 47 43
22 48 44
22 49 44
22 49 44
22 47 43
21 47 43
22 48 44
22 48 43
22 49 45
20 45 41
20 45 41
20 44 41
20 44 40
20 44 41
21 46 42
20 45 41
20 44 41
21 45 42
20 45 41
20 45 41
21 46 42
20 45 42
21 46 42
20 45 41
20 45 41
20 45 41
20 45 41
21 46 42
21 46 42
20 45 41
21 46 42
20 44 41
20 45 41
21 47 43
20 45 41
21 46 42
21 46 42
21 46 42
20 45 41
21 46 42
21 46 42
21 46 42
20 44 40
21 46 42
20 45 41
20 45 41
21 46 42
21 47 43
21 46 42
21 47 43
21 47 43
21 46 42
21 46 42
21 46 42
21 47 43
21 46 42
20 45 41
20 45 41
21 46 42
21 47 43
21 47 43
21 46 42
21 47 43
21 47 43
21 46 42
21 47 43
21 47 43
21 47 43
21 46 42
21 47 43
21 46 42
22 48 44
21 47 43
21 47 43
21 46 42
21 46 42
22 47 43
21 47 42
21 46 42
21 46 42
21 45 41
21 47 42
21 46 42
22 48 43
21 47 43
21 47 43
22 47 43
21 47 43
22 48 44
22 48 44
22 48 43
21 47 43
22 48 44
21 47 43
22 49 44
22 48 44
22 48 43
22 48 43
21 47 43
21 47 43
22 48 44
22 48 43
21 47 43
22 47 43
22 48 44
22 48 44
21 47 42
21 47 42
22 48 43
22 48 44
22 48 43
22 48 43
22 48 44
22 48 43
22 48 44
22 49 44
21 47 43
22 48 43
22 48 44
22 48 43
22 48 43
22 47 43
22 49 44
22 49 44
21 47 43
22 47 43
21 47 42
21 47 42
21 47 43
20 45 41
20 45 41
20 44 40
20 45 41
20 44 41
20 45 41
20 45 41
20 45 41
20 45 41
20 45 41
20 45 41
20 45 42
20 45 41
21 45 42
20 44 40
21 46 42
21 46 42
20 45 41
20 45 41
21 46 42
20 45 41
20 45 42
21 46 42
21 46 42
21 46 42
20 45 41
21 47 43
21 47 43
20 45 41
21 47 43
20 45 41
21 47 43
21 47 43
21 46 42
21 47 43
20 45 41
20 45 41
21 46 42
21 47 43
20 45 41
21 46 42
21 46 42
20 45 41
21 46 42
20 45 41
21 46 42
22 48 43
21 46 42
21 46 42
20 45 41
21 47 43
21 46 42
21 46 42
20 45 41
21 47 43
21 46 42
21 47 43
21 47 42
21 46 42
22 48 44
21 47 43
21 46 42
21 47 43
21 46 42
21 47 43
21 47 43
21 47 42
21 47 43
21 47 43
21 47 43
21 47 42
22 48 44
21 46 42
21 47 43
21 47 43
21 47 43
21 47 43
21 46 42
21 47 43
22 47 43
22 48 43
22 48 44
22 48 43
22 48 44
22 48 44
21 46 42
21 46 42
21 47 43
21 46 42
21 47 43
21 46 42
21 46 42
22 47 43
22 49 44
21 47 43
21 46 42
21 47 43
22 48 44
21 47 43
22 49 44
21 47 43
22 49 45
21 47 43
21 47 43
21 47 43
21 47 43
23 49 45
22 48 44
21 47 42
22 48 44
22 48 44
22 48 44
22 49 45
21 47 43
22 48 43
22 48 44
22 48 44
22 49 44
22 48 43
21 47 43
20 45 41
21 46 42
20 45 41
20 45 42
20 44 40
20 44 40
20 45 41
20 44 40
20 45 41
21 46 42
21 46 42
21 46 42
20 44 41
20 45 41
21 45 42
20 45 41
21 46 43
20 45 41
20 44 40
20 45 42
20 45 41
20 45 41
21 46 42
20 45 41
20 45 41
21 46 42
21 46 43
20 44 40
20 44 41
21 47 43
21 46 42
20 45 41
20 45 41
20 45 42
20 45 41
21 46 42
20 45 41
21 46 42
21 46 42
21 46 42
21 47 43
21 46 42
21 47 43
21 46 42
20 45 41
20 45 41
21 46 42
21 46 42
21 46 42
21 45 41
21 46 42
21 46 42
21 46 42
21 47 43
21 47 43
21 47 43
21 46 42
21 46 42
21 46 42
21 47 43
21 47 43
21 46 42
21 46 42
21 47 43
21 47 43
21 46 42
21 45 42
21 46 42
21 47 43
22 48 44
21 47 43
21 47 43
21 47 43
21 47 43
22 48 44
21 47 43
21 47 42
21 46 42
21 47 43
21 46 42
21 46 42
21 47 43
21 46 42
21 46 42
21 47 43
22 48 43
21 47 43
22 48 44
21 47 43
21 46 42
21 47 43
21 47 43
21 46 42
22 48 43
21 47 43
21 47 43
22 47 43
22 48 44
21 46 42
21 46 42
22 48 43
21 47 43
22 48 44
22 47 43
21 47 43
22 48 43
21 47 43
21 47 43
22 48 43
21 47 42
22 48 44
22 47 43
22 49 44
22 48 44
22 48 44
22 48 43
21 47 43
22 48 43
22 47 43
22 47 43
20 45 41
20 45 41
21 45 42
20 45 41
20 44 40
20 44 40
20 44 41
20 45 41
20 45 41
20 45 41
21 46 42
20 45 42
20 44 40
20 44 41
20 45 41
20 45 41
21 47 43
21 45 42
21 46 42
20 45 41
20 45 41
20 45 41
21 46 42
20 45 41
20 44 40
21 46 42
21 46 42
21 46 42
20 45 41
21 47 43
21 46 42
21 46 42
21 46 43
21 46 42
20 45 41
21 47 43
21 46 42
21 46 42
21 47 43
21 47 43
21 46 42
21 46 42
21 46 42
21 47 43
21 46 42
22 48 44
21 46 42
21 47 43
20 45 41
21 46 42
21 47 43
21 46 42
21 46 43
21 46 42
21 47 42
21 47 43
21 46 42
20 45 42
21 46 42
21 46 42
21 47 42
21 47 43
21 46 42
21 47 43
21 47 43
22 48 43
22 47 43
21 47 43
21 46 42
21 46 42
21 47 42
21 47 43
21 47 43
21 46 42
21 46 42
21 47 43
22 48 43
21 47 43
21 46 42
21 47 42
21 47 42
21 47 43
21 47 43
22 47 43
21 47 43
21 47 43
21 47 43
21 47 43
22 48 44
21 47 42
22 49 44
21 46 42
21 47 43
22 48 44
21 46 42
21 47 43
22 48 44
22 47 43
21 46 42
22 47 43
21 47 43
22 48 43
21 47 43
22 48 44
21 47 43
22 48 43
22 48 44
22 48 43
22 48 44
22 49 44
22 48 43
22 47 43
22 48 44
22 48 44
22 48 43
21 47 43
22 48 43
22 48 44
22 48 44
22 48 44
20 44 41
21 46 42
20 44 41
20 45 41
20 45 41
21 46 42
20 45 42
20 45 41
20 44 40
20 44 41
20 45 41
20 45 42
21 46 42
20 44 41
21 46 42
21 46 42
20 45 41
20 45 41
20 45 41
21 47 43
21 46 42
20 45 42
21 46 42
21 46 42
21 45 42
21 46 42
20 44 41
20 44 41
21 46 42
21 46 42
21 47 43
20 45 41
20 45 41
21 46 42
20 45 42
20 45 41
21 46 42
21 46 42
20 45 41
21 46 42
21 47 43
21 46 42
20 45 41
21 45 42
21 46 42
21 46 42
21 47 43
21 46 42
21 46 42
21 47 43
21 46 42
21 46 42
21 46 42
21 46 42
21 46 42
21 46 42
20 45 41
21 47 43
21 47 43
21 46 42
21 46 42
21 46 42
21 47 43
21 46 42
21 46 42
21 47 43
21 45 41
21 47 43
21 46 42
21 47 43
21 47 43
21 46 42
21 47 43
22 47 43
21 46 42
21 47 43
21 46 42
22 48 43
21 47 42
22 48 43
21 47 43
21 47 43
21 47 43
21 47 42
22 48 44
21 46 42
21 46 42
21 47 42
21 45 41
22 48 44
21 47 42
21 47 42
21 47 43
21 47 43
21 47 43
21 47 43
22 48 44
22 48 43
21 47 43
21 47 43
21 47 42
22 48 43
21 47 43
22 47 43
21 47 43
22 48 44
21 47 43
21 47 43
21 47 43
22 49 45
22 48 43
21 46 42
22 48 43
21 47 43
22 48 44
21 47 43
21 46 42
22 48 43
21 46 42
22 48 44
20 45 41
20 43 40
20 45 42
20 45 41
20 45 41
20 45 41
21 46 42
21 47 43
20 45 41
20 44 41
20 45 41
20 45 42
20 45 41
20 45 41
21 46 42
21 45 42
21 45 42
20 45 41
20 45 41
20 45 41
20 45 42
20 44 41
21 46 42
21 46 42
20 45 41
21 46 42
21 46 42
20 45 41
20 44 41
20 45 41
21 46 42
20 45 41
20 44 41
21 46 42
21 46 42
21 46 42
20 45 41
20 45 41
20 45 41
21 46 42
21 46 42
21 46 42
21 46 42
21 46 42
21 46 42
20 45 42
21 46 42
21 46 42
21 47 43
21 47 43
21 47 43
21 47 43
21 47 43
21 47 43
21 46 42
21 46 42
21 46 42
21 46 42
20 45 41
21 47 43
21 46 42
21 46 42
21 46 42
21 47 43
21 47 43
21 47 43
21 46 42
21 46 42
21 46 42
21 46 42
21 47 43
21 46 42
21 46 42
21 46 42
21 47 42
21 46 42
21 46 42
21 47 42
21 46 42
21 47 42
21 46 42
21 47 43
21 47 43
22 48 44
21 47 43
22 48 44
21 46 42
21 47 43
21 46 42
21 47 42
21 46 42
21 47 42
21 47 43
21 46 42
22 48 43
22 48 44
21 47 43
22 47 43
21 47 42
22 48 44
22 48 44
22 48 43
21 47 43
21 47 43
21 47 43
22 48 43
22 48 43
22 48 44
21 47 43
22 48 43
21 47 43
21 45 41
22 47 43
21 47 43
22 48 43
22 47 43
21 47 43
22 48 44
22 48 44
22 48 43
20 45 41
20 45 41
20 45 41
20 45 41
20 43 40
20 45 41
20 45 41
20 44 40
20 45 41
20 45 41
20 45 41
21 46 42
20 45 41
21 46 42
20 45 41
21 46 42
21 46 42
21 46 42
21 47 43
21 46 43
21 46 42
20 45 41
20 45 41
20 45 41
21 47 43
21 46 42
20 45 42
21 46 42
21 46 42
20 45 42
21 45 42
21 46 42
20 45 41
21 46 42
21 46 42
21 46 42
21 46 43
21 47 43
20 45 42
21 46 42
20 45 41
20 45 41
21 46 42
21 46 42
21 45 42
21 46 42
21 45 42
21 45 42
20 45 41
21 46 42
21 46 42
21 47 43
20 45 41
21 47 43
21 46 42
21 46 42
21 47 43
21 47 43
21 46 42
20 45 41
20 45 41
21 47 43
21 46 42
22 48 44
21 47 43
21 46 42
21 46 42
21 46 42
21 47 43
21 46 42
21 47 43
21 46 42
20 45 41
21 47 43
21 46 42
21 47 42
21 47 43
21 47 43
21 47 43
21 46 42
22 48 44
21 46 42
21 47 43
21 45 41
21 46 42
21 47 43
21 47 43
21 47 43
21 47 43
21 46 42
21 46 42
21 47 43
21 46 42
22 48 43
22 48 44
22 48 43
22 47 43
21 47 42
22 48 44
22 47 43
22 49 44
21 47 42
21 47 42
22 48 43
22 48 44
21 47 43
21 47 43
22 48 44
21 47 42
22 48 43
22 48 44
21 46 42
22 47 43
21 47 43
21 47 43
22 48 43
22 48 43
22 49 45
22 47 43
22 48 44
21 46 42
20 44 41
20 45 41
20 45 42
20 45 41
20 46 42
20 44 41
21 46 42
21 46 42
21 45 42
21 46 43
20 45 41
20 45 41
20 45 41
20 45 41
20 45 41
20 45 42
20 45 41
20 45 41
20 45 42
20 45 41
20 45 41
20 44 41
20 45 41
21 46 42
21 46 42
20 45 41
20 45 42
20 45 41
21 47 43
20 45 42
20 44 40
20 44 41
20 45 41
21 47 43
21 47 43
20 45 41
20 45 41
21 46 42
21 46 42
21 46 42
20 44 40
21 46 42
21 47 43
21 46 42
21 46 42
20 45 42
21 46 42
20 45 41
21 46 42
20 45 41
21 46 42
21 45 41
21 45 42
21 46 42
20 45 41
21 46 42
20 44 41
21 46 42
21 47 43
21 45 41
21 46 42
21 46 42
21 46 42
21 46 42
21 46 42
21 46 42
21 46 42
21 47 43
21 46 42
20 45 41
21 46 42
21 46 42
21 47 43
21 46 42
21 47 43
21 46 42
21 46 42
21 46 42
21 47 43
21 47 43
21 46 42
21 47 43
21 47 42
21 47 43
21 47 43
21 47 42
21 46 42
22 48 43
21 47 43
21 47 43
21 46 42
21 47 43
21 47 43
21 46 42
21 46 42
21 47 43
21 47 43
21 47 43
21 47 42
22 49 44
21 47 43
22 48 43
21 46 42
21 47 43
21 46 42
21 47 43
21 46 42
21 47 43
21 47 43
21 47 43
22 48 44
22 48 44
22 47 43
22 48 44
21 47 42
22 48 43
21 47 43
21 46 42
21 47 43
20 45 41
20 46 42
21 46 42
20 45 41
20 44 41
20 45 41
20 44 41
20 45 41
21 46 42
21 47 43
20 45 41
20 45 41
20 44 41
20 46 42
21 46 42
20 44 41
20 45 41
20 44 41
20 45 41
20 45 41
21 46 42
20 45 41
20 45 41
20 45 42
20 45 41
20 45 41
20 45 41
20 45 41
20 45 41
20 45 41
20 45 41
20 45 41
20 44 41
21 45 42
20 45 41
21 46 42
20 45 41
20 45 41
21 46 42
20 44 40
20 45 41
21 46 42
20 44 40
21 46 42
21 46 42
21 46 43
21 46 42
20 45 41
21 46 42
21 47 43
20 45 41
21 47 43
21 46 42
21 47 43
21 46 42
21 47 43
21 47 43
21 47 43
21 47 42
21 46 42
21 46 42
21 46 42
21 46 42
21 47 43
21 47 43
21 46 42
21 47 43
21 47 43
21 47 43
22 48 44
21 46 42
21 46 42
21 47 43
21 46 42
21 47 43
21 47 43
21 47 43
21 46 42
21 47 43
21 46 42
21 47 43
21 47 43
20 45 41
21 46 42
21 47 42
21 47 43
21 47 43
21 47 43
21 46 42
21 47 43
22 48 44
21 47 43
22 48 43
21 47 43
21 47 43
21 46 42
21 47 43
21 47 43
21 47 43
21 45 41
21 46 42
21 47 43
21 47 43
21 47 43
21 47 42
21 45 41
21 47 43
21 47 43
21 47 42
21 47 43
21 46 42
21 47 43
21 46 42
20 45 41
21 47 43
22 47 43
21 47 43
22 49 44
22 48 44
22 48 43
21 46 42
20 44 41
20 44 41
20 45 41
20 45 41
20 45 42
21 46 42
20 45 41
21 46 42
20 44 41
20 45 42
20 45 41
21 46 42
21 46 42
21 46 42
21 46 42
19 43 40
20 44 41
20 45 41
20 45 41
20 44 40
20 44 41
20 45 42
21 46 42
20 45 42
20 45 41
20 45 41
21 46 42
20 45 41
20 45 41
21 46 42
20 45 42
20 45 41
20 45 41
21 46 42
20 45 41
21 46 42
20 45 41
21 46 42
20 45 41
20 45 41
21 46 42
21 46 42
20 45 41
21 46 42
20 45 41
20 45 41
21 47 43
21 46 42
21 46 42
20 45 41
20 45 41
20 45 41
21 46 42
21 46 42
21 46 42
21 46 42
21 46 42
21 46 42
21 46 42
20 45 41
21 47 43
21 46 42
20 45 41
21 47 43
21 47 43
20 45 41
21 46 42
20 45 41
21 47 43
21 46 42
20 45 41
20 45 41
21 47 43
21 46 42
20 45 41
21 46 42
20 45 41
21 47 43
21 47 43
21 47 43
21 47 43
21 46 42
21 46 42
21 47 43
21 46 42
21 47 42
21 47 43
21 46 42
20 45 41
21 47 43
22 47 43
22 47 43
22 47 43
21 46 42
21 46 42
22 48 43
21 46 42
21 47 43
21 47 43
22 47 43
21 46 42
21 46 42
21 46 42
22 48 43
22 47 43
22 48 44
21 46 42
21 47 43
22 48 44
21 46 42
21 47 43
21 47 43
22 47 43
21 47 43
21 46 42
21 47 43
22 48 43
22 48 44
21 47 43
21 47 43
21 46 42
20 45 41
21 46 42
20 44 40
20 44 41
20 44 41
20 44 41
20 45 41
20 45 42
20 46 42
20 45 41
20 45 41
20 45 42
20 44 41
20 45 41
20 44 41
21 47 43
20 45 41
21 46 42
20 44 41
21 46 42
20 45 41
20 45 41
20 45 41
21 46 42
20 45 42
20 45 41
20 44 40
20 45 42
21 46 42
20 45 42
21 46 42
20 45 41
20 45 41
21 46 42
20 45 41
21 46 42
21 46 42
21 45 42
20 45 41
20 45 42
20 45 41
21 46 42
20 45 42
20 45 41
21 46 42
21 46 42
21 47 43
20 45 41
21 46 42
21 46 42
21 46 42
21 45 41
21 47 43
22 48 44
20 45 41
21 46 42
20 45 42
21 47 43
20 44 41
21 46 42
22 48 44
21 47 43
21 47 43
21 47 43
21 46 42
21 46 42
20 45 41
21 46 42
21 47 43
21 47 43
21 47 43
21 46 42
22 48 44
21 46 42
21 46 42
21 46 42
21 47 43
21 47 43
21 47 43
22 48 44
21 46 42
21 46 42
21 47 43
21 46 42
21 47 43
21 47 43
21 47 43
21 46 42
21 46 42
21 47 43
21 46 42
22 48 44
21 47 43
21 47 43
21 47 43
21 47 43
22 48 44
22 48 44
21 47 43
21 47 42
22 48 44
21 46 42
22 48 43
21 47 43
22 49 44
22 48 44
21 47 43
22 48 43
21 47 43
21 47 43
21 46 42
21 47 42
21 46 42
21 47 43
22 47 43
22 47 43
21 47 43
21 46 42
20 45 41
20 44 40
20 44 40
20 44 40
20 45 41
20 44 41
20 44 40
21 46 42
21 46 42
21 46 42
20 45 41
20 45 41
21 46 42
20 45 41
20 45 41
21 46 42
20 45 41
20 45 41
21 46 42
20 44 40
20 45 41
20 44 41
20 45 42
20 45 41
20 45 41
20 45 41
21 46 42
21 47 43
20 44 40
20 45 42
20 45 41
20 45 41
21 46 42
20 45 42
21 46 42
21 47 43
21 46 42
21 46 42
21 47 43
20 45 41
21 46 42
20 45 42
21 46 42
21 46 42
21 46 42
20 45 41
21 46 42
21 46 42
21 47 43
20 45 41
21 46 42
20 45 41
21 46 42
20 45 41
22 48 44
21 46 42
20 45 41
21 47 43
21 46 42
21 46 42
21 47 43
21 46 42
21 46 42
21 47 43
21 45 42
21 46 42
20 45 41
21 46 42
21 47 43
20 45 41
21 46 42
21 47 43
21 46 42
21 46 42
21 47 43
21 46 42
21 46 42
21 46 42
20 45 41
22 48 44
20 45 41
21 46 42
21 47 43
21 47 43
21 46 42
22 48 44
21 46 42
22 48 43
21 47 43
21 47 43
22 48 44
21 46 42
21 47 42
21 46 42
21 46 42
22 48 43
21 46 42
21 46 42
21 47 43
20 45 41
21 47 43
22 48 44
22 47 43
22 47 43
21 47 42
21 46 42
21 47 43
21 47 43
21 46 42
21 47 43
22 48 44
21 47 42
21 46 42
22 48 44
21 47 43
22 48 44
21 47 43
22 47 43
21 47 43
22 48 44
21 46 42
20 44 41
20 44 40
20 45 41
20 45 41
20 45 42
20 44 41
20 45 42
20 44 41
20 44 41
20 46 42
20 45 41
20 45 41
20 45 41
20 44 41
20 45 42
21 46 42
20 45 41
20 45 41
20 45 41
20 45 41
20 45 41
20 45 41
20 45 41
20 45 41
20 44 41
21 46 42
20 44 41
21 46 42
21 47 43
21 46 42
20 45 41
20 45 41
20 45 41
21 46 42
20 45 41
21 46 42
20 45 42
20 45 42
20 44 41
20 45 41
21 45 42
21 46 42
20 45 41
20 45 41
21 46 42
21 46 42
21 46 43
21 47 43
21 46 42
21 46 42
20 44 41
20 44 41
20 45 42
21 46 42
21 47 43
21 46 42
20 45 41
21 46 42
21 47 43
21 47 43
20 45 42
21 46 43
20 45 42
21 46 42
20 45 41
21 47 43
21 46 42
21 46 42
20 45 41
21 46 42
21 46 42
21 46 42
22 48 44
21 46 42
21 46 42
21 46 42
21 46 42
21 47 43
21 46 42
21 47 43
21 47 43
21 46 42
21 47 43
21 47 42
21 46 42
21 47 43
21 46 42
21 46 42
21 46 42
21 47 43
21 46 42
21 47 43
20 45 41
21 46 42
21 46 42
21 47 43
21 47 43
21 46 42
22 47 43
22 47 43
21 47 43
21 46 42
21 47 43
21 45 41
21 47 43
21 46 42
21 47 43
21 46 42
21 47 43
21 46 42
21 47 43
21 47 43
21 47 43
21 46 42
22 48 43
21 47 43
21 47 43
22 48 43
21 47 43
20 44 40
20 44 41
20 45 42
20 45 41
20 44 40
21 46 42
20 44 40
20 45 41
21 46 42
21 46 42
20 45 41
20 44 41
21 46 42
21 46 42
20 45 41
20 44 40
20 44 41
20 45 42
20 45 41
20 44 41
20 44 41
21 46 42
21 46 42
20 45 41
20 45 41
20 45 41
20 45 42
21 46 42
20 45 41
21 46 42
20 45 41
20 44 40
20 44 41
20 45 42
20 44 41
21 46 42
20 45 41
21 46 42
20 45 41
20 44 40
21 46 42
21 46 42
21 46 42
21 46 42
21 46 42
20 45 42
20 44 41
21 46 42
20 45 41
20 45 41
21 46 42
21 46 42
20 45 41
21 46 42
20 45 41
20 45 41
20 45 41
20 45 41
21 46 42
21 46 42
21 46 42
21 47 43
21 46 42
21 47 43
21 46 42
21 47 43
21 46 42
21 47 43
21 46 42
21 46 42
20 45 41
21 47 43
21 47 43
21 46 42
21 46 42
21 45 41
21 46 42
21 46 42
21 47 43
21 46 42
21 46 42
21 47 42
21 46 42
21 46 42
21 46 42
22 48 44
21 46 42
20 45 41
20 45 41
21 46 42
21 46 42
22 48 43
21 46 42
21 46 42
21 46 42
21 47 43
21 47 42
21 47 43
21 46 42
21 47 42
21 46 42
20 45 41
21 46 42
21 46 42
21 47 43
21 47 43
21 47 42
21 47 42
21 46 42
22 48 43
21 47 43
21 47 43
22 47 43
21 46 42
22 47 43
21 47 43
22 48 43
21 47 43
22 47 43
22 48 44
20 45 41
21 46 42
20 44 40
20 45 42
21 46 42
20 44 40
20 44 41
20 44 41
20 45 42
20 45 41
20 45 41
20 44 41
20 44 41
21 46 42
21 46 42
21 46 42
21 46 42
20 44 41
20 45 41
20 44 40
20 45 41
20 44 41
20 45 41
20 45 41
20 45 41
20 45 42
20 44 41
20 45 41
21 46 42
20 45 41
21 46 42
20 44 41
20 45 41
20 45 41
21 46 42
21 46 43
20 45 41
21 46 42
21 47 43
21 46 42
21 46 43
20 44 40
20 45 41
20 45 41
20 45 41
21 46 42
20 45 41
21 46 42
21 46 42
20 45 41
21 46 42
20 44 40
21 46 42
21 46 42
21 46 42
21 45 42
21 46 42
21 46 42
21 46 42
21 47 43
20 45 41
20 45 41
20 45 41
21 46 42
20 44 41
21 47 43
21 45 42
21 46 42
21 46 42
20 45 41
21 46 42
21 47 43
21 47 43
21 46 42
21 46 42
21 46 42
21 45 42
21 47 43
20 45 41
21 47 43
21 46 42
20 45 41
21 46 42
21 46 42
21 46 42
21 46 42
21 46 42
21 47 43
21 47 43
21 46 42
21 46 42
21 47 43
21 47 43
21 46 42
21 47 42
21 46 42
21 46 42
21 46 42
21 47 43
21 47 43
21 46 42
21 46 42
21 46 42
21 47 43
21 47 43
21 46 42
21 46 42
21 46 42
21 46 42
21 46 42
21 46 42
21 47 43
22 47 43
21 47 43
21 46 42
22 48 44
22 48 43
22 48 44
22 47 43
22 49 44
20 45 41
20 45 42
20 45 41
21 46 42
20 44 41
20 44 41
21 46 42
20 45 41
20 45 42
20 44 40
20 45 41
20 43 40
21 46 42
20 46 42
20 44 41
20 45 41
20 45 42
20 45 42
20 45 41
20 44 41
20 45 41
20 45 41
21 45 42
20 46 42
20 45 41
21 46 42
21 46 42
21 46 42
21 46 43
20 44 41
20 45 41
20 45 41
21 46 42
20 45 41
20 45 41
20 45 42
20 45 41
20 45 41
21 46 42
20 44 41
21 46 42
21 46 42
21 47 43
20 45 41
21 46 42
21 46 42
21 46 42
21 47 43
20 45 41
20 45 41
20 45 41
21 46 42
21 45 42
20 45 41
21 47 43
21 45 42
21 47 43
21 46 42
21 46 42
21 46 42
21 46 42
21 47 43
21 46 42
21 46 42
21 46 42
21 46 42
20 45 41
21 46 42
21 47 43
21 46 42
21 46 42
21 45 42
21 46 43
21 46 42
21 46 42
21 47 43
21 47 43
21 46 42
21 46 42
21 47 43
21 46 42
21 46 42
21 46 42
20 45 41
21 47 43
21 47 43
21 46 42
21 46 42
21 47 43
21 47 43
20 45 41
21 46 42
21 47 43
21 47 42
20 45 41
21 46 42
20 45 41
21 46 42
21 47 43
21 47 43
21 46 42
21 46 42
21 45 41
21 46 42
22 48 44
21 47 42
21 47 43
21 46 42
21 46 42
22 48 44
22 48 44
21 47 43
22 47 43
22 48 43
21 47 42
21 46 42
21 47 43
22 47 43
21 46 42
22 47 43
20 45 41
21 46 42
20 45 41
20 44 40
20 45 42
20 44 41
20 44 41
20 44 40
20 45 41
20 44 40
20 45 41
20 45 41
19 43 40
20 45 42
20 45 41
20 45 42
20 44 41
20 45 42
20 45 41
20 45 41
20 44 41
20 45 41
20 44 41
20 45 41
21 45 42
20 46 42
21 46 42
21 46 42
21 46 42
21 46 43
20 45 41
20 45 41
20 45 41
20 45 42
20 44 41
20 45 41
20 45 42
20 45 41
21 46 42
21 46 42
20 45 41
21 46 42
21 47 43
20 45 41
21 46 42
21 45 42
20 45 41
20 45 42
20 45 41
20 45 42
20 45 41
21 46 42
21 46 42
20 45 41
20 45 41
21 46 42
20 45 41
21 46 42
21 46 42
20 45 41
21 46 42
20 45 41
21 46 42
21 47 43
20 45 41
20 45 41
20 45 41
21 46 42
20 45 41
21 46 42
20 45 41
21 47 43
21 47 43
21 46 42
20 45 41
21 46 42
21 46 42
21 46 42
21 47 43
21 47 43
21 46 42
22 48 43
21 46 42
21 47 43
20 45 41
21 46 42
21 46 42
21 47 43
21 46 42
21 46 42
21 46 42
21 46 42
21 46 42
21 47 43
21 47 43
21 46 42
22 48 44
21 46 42
21 47 43
21 46 42
21 47 43
21 46 42
22 48 44
22 47 43
21 46 42
21 46 42
21 47 43
21 47 43
21 45 42
21 46 42
22 48 44
22 47 43
21 46 42
21 46 41
22 47 43
21 46 42
22 47 43
22 47 43
22 47 43
22 47 43
20 44 41
21 46 42
21 46 42
20 44 40
20 44 40
20 45 42
20 45 41
21 45 42
21 46 42
20 45 42
20 45 41
20 44 41
20 44 41
20 44 41
20 45 41
19 43 39
20 45 42
20 44 41
20 44 40
20 44 41
20 45 41
20 45 41
20 45 41
21 46 42
20 45 41
20 45 41
20 45 41
20 45 42
20 45 41
20 45 41
20 45 41
21 46 42
20 44 40
20 45 41
20 45 41
20 43 40
20 45 41
21 46 42
20 45 41
21 46 42
20 44 41
20 45 41
20 44 41
20 44 41
21 46 42
20 45 41
21 46 42
20 44 40
21 46 42
20 45 41
21 46 42
21 46 42
21 46 43
21 46 42
21 46 42
20 45 41
21 46 42
21 46 42
20 44 41
21 46 42
21 46 42
21 46 42
20 45 42
20 45 41
21 46 42
21 47 43
21 47 43
21 46 42
21 46 42
21 46 42
21 46 42
21 46 42
20 45 41
21 46 42
21 45 42
21 46 42
21 45 42
21 46 42
20 45 41
21 46 43
21 46 42
21 47 43
20 45 41
21 45 42
21 46 42
21 45 41
21 45 42
21 46 42
21 45 41
21 46 42
21 46 42
21 46 42
21 46 42
21 45 42
21 47 43
21 46 42
21 47 43
21 46 42
21 46 42
21 47 43
21 46 42
21 45 41
21 45 41
22 47 43
22 47 43
21 46 42
21 47 43
21 46 42
21 46 42
21 46 42
22 47 43
22 47 43
22 47 43
22 46 42
22 46 42
22 47 43
21 46 42
23 48 44
22 48 44
22 47 43
20 45 41
21 46 42
20 45 41
21 46 42
20 44 40
20 45 41
20 45 41
20 44 40
21 46 42
21 46 42
20 44 40
20 44 41
20 45 41
21 46 42
20 44 41
20 45 41
20 45 41
20 45 41
20 44 40
20 45 41
21 46 42
20 44 40
20 45 41
20 45 41
20 44 41
21 46 43
20 45 41
20 44 41
20 44 41
21 46 42
21 46 42
20 44 41
21 46 42
21 46 42
20 45 41
20 45 42
21 46 42
20 44 40
21 46 42
20 44 40
20 44 41
20 45 41
20 45 41
20 44 40
20 45 41
21 46 42
21 46 42
20 45 41
21 46 42
21 46 42
21 46 42
20 45 42
20 44 41
20 45 41
21 46 42
20 45 41
20 45 41
20 45 41
20 45 41
21 46 42
20 45 41
21 46 42
21 46 42
20 45 42
21 46 42
21 46 42
20 45 41
21 46 42
21 47 43
20 45 41
21 46 42
21 46 42
21 46 42
21 46 42
21 46 42
21 45 42
21 47 43
21 47 43
20 45 41
21 45 42
21 46 42
21 46 42
20 45 41
21 47 43
21 46 42
21 46 42
21 46 42
21 47 43
21 45 41
21 46 42
21 47 43
21 46 42
20 45 41
21 46 42
21 46 42
21 45 42
21 46 42
21 46 42
21 46 42
21 46 42
21 46 42
21 46 42
21 47 43
22 48 44
21 47 43
21 46 42
22 48 44
21 46 42
22 48 43
21 45 41
22 48 44
22 46 42
22 47 43
22 47 43
22 46 42
22 46 42
22 47 42
23 48 43
22 46 42
23 48 43
20 45 41
20 45 42
20 45 41
20 45 41
20 44 40
21 46 43
20 45 41
20 45 41
20 44 40
20 45 41
20 45 41
20 44 41
20 45 41
20 44 40
20 45 41
20 45 42
21 46 42
20 44 41
20 45 41
21 46 42
20 45 41
20 45 41
20 44 40
20 45 42
21 46 42
20 45 42
20 45 41
20 45 41
20 45 41
20 45 41
21 46 42
20 44 41
20 45 41
20 45 42
20 44 40
21 46 42
20 45 41
21 46 42
21 47 43
21 46 43
21 46 42
20 45 41
21 47 43
20 44 41
20 45 42
20 45 41
20 45 41
20 45 41
21 46 42
20 45 41
21 46 42
21 46 42
20 45 42
21 46 42
20 45 41
21 47 43
21 46 42
20 45 41
21 45 42
20 45 41
21 46 42
21 46 43
20 45 41
20 45 41
21 46 42
20 45 41
21 46 42
21 46 42
20 44 41
20 45 41
21 47 43
21 46 42
20 45 41
21 47 43
21 47 43
21 46 42
21 47 43
21 46 42
21 46 42
21 45 42
20 45 41
21 45 42
21 46 42
21 46 42
21 47 43
22 48 44
21 46 42
21 47 43
21 47 43
21 46 42
21 46 42
21 46 42
21 46 42
20 45 41
21 47 43
21 46 42
21 46 42
21 46 42
21 47 43
22 47 43
21 46 42
22 47 43
21 46 42
21 46 42
21 46 42
21 46 42
21 46 42
22 46 42
22 46 42
22 46 42
23 48 44
22 47 43
22 47 43
23 48 43
22 46 42
23 47 43
23 47 43
22 47 43
23 48 44
23 46 42
20 43 40
21 46 42
20 45 41
19 43 40
20 45 41
20 45 42
20 45 42
20 45 42
20 44 41
20 45 41
20 45 41
20 45 42
20 45 41
20 44 41
20 45 41
20 45 42
20 44 40
21 46 43
20 44 41
21 46 42
19 43 40
20 45 42
20 45 41
20 44 41
20 45 41
20 45 41
20 44 40
20 45 41
20 45 42
21 45 42
20 44 41
21 46 42
20 45 42
20 45 41
20 44 41
20 45 41
20 45 41
21 46 42
20 45 42
20 45 41
20 44 40
20 45 41
20 45 41
21 46 42
21 45 42
21 46 42
20 45 41
20 45 41
20 44 41
20 45 41
20 45 41
21 46 42
21 47 43
20 44 41
20 44 40
21 46 42
21 45 42
20 45 41
21 45 42
20 45 41
21 47 43
20 44 40
20 45 41
21 46 42
21 46 43
20 45 41
21 45 42
21 46 42
21 46 42
21 46 42
22 48 44
21 47 43
20 45 41
21 46 42
21 47 43
21 46 42
20 45 41
21 46 42
21 46 43
21 46 42
21 46 42
20 45 41
21 46 42
21 47 43
21 47 43
20 45 41
21 46 42
20 44 40
21 47 43
21 47 43
21 46 42
21 46 42
20 44 41
22 47 43
22 47 43
21 46 42
21 46 42
21 46 42
22 47 43
21 47 43
21 45 41
21 46 42
21 45 41
21 46 42
21 46 42
22 48 43
22 47 43
22 47 43
22 46 42
22 47 43
22 47 43
23 48 43
22 47 42
22 46 42
23 47 43
23 48 44
23 47 42
23 47 42
23 47 43
23 47 42
20 44 41
19 43 40
21 47 43
20 44 41
20 45 42
20 44 41
20 44 41
21 46 42
20 45 41
21 46 42
20 44 41
20 46 42
20 45 41
20 45 41
20 45 41
20 44 41
20 44 41
21 46 42
20 44 40
20 45 41
20 43 40
20 44 41
20 44 41
20 44 41
20 44 41
20 45 41
20 44 41
20 45 41
20 44 40
20 45 41
20 45 41
20 45 41
20 44 40
20 44 40
20 44 40
20 45 41
20 44 41
20 45 41
20 44 41
20 44 40
20 45 42
21 46 42
21 46 42
20 44 40
21 47 43
20 45 41
20 45 41
21 46 42
20 45 42
20 45 41
21 46 42
20 45 41
21 47 43
21 46 42
20 45 42
20 45 42
21 47 43
20 45 42
20 45 41
20 45 41
20 45 41
20 45 41
21 47 43
20 45 41
20 45 41
21 46 42
20 45 41
21 46 42
20 45 42
21 46 42
21 46 42
20 45 41
20 45 41
21 46 42
20 45 41
21 46 42
21 46 42
21 46 42
20 45 41
21 46 42
21 47 43
21 46 42
21 46 43
21 46 42
21 46 42
21 46 42
21 46 42
21 46 42
21 45 42
21 46 42
22 47 43
21 46 42
22 47 43
21 47 43
21 46 42
21 46 42
21 45 42
21 45 41
21 46 42
22 48 44
21 46 42
22 46 42
21 46 42
22 46 42
21 45 41
22 47 43
22 47 42
22 46 42
23 48 44
22 46 42
22 46 42
23 48 43
23 47 43
23 47 43
24 48 43
23 47 43
24 47 43
24 48 44
24 48 43
24 47 43
20 45 42
20 45 41
20 44 40
20 44 41
20 44 41
20 44 41
19 43 40
20 45 41
20 45 41
20 44 40
20 45 41
20 45 41
20 45 41
20 45 41
20 45 42
21 46 42
20 44 40
21 46 42
20 46 42
20 44 41
20 44 41
20 45 42
20 45 41
20 44 40
20 44 40
20 45 42
20 45 41
20 44 40
20 45 41
20 45 41
20 45 42
20 45 41
21 46 42
20 45 41
20 45 41
20 45 41
20 45 41
20 44 41
20 45 41
21 46 42
20 45 41
21 46 43
20 45 41
21 46 42
20 45 41
20 45 42
20 44 40
20 44 40
21 46 42
20 45 41
20 45 41
21 46 42
20 45 41
20 45 41
20 45 41
20 45 41
21 47 43
21 46 42
21 47 43
20 45 41
20 45 41
20 44 40
21 46 42
21 47 43
20 45 41
20 45 41
20 45 41
21 46 42
21 47 43
20 45 41
21 46 42
21 47 43
21 46 42
20 44 41
21 45 42
20 45 41
20 45 41
21 46 42
20 45 41
21 46 42
21 46 42
21 46 42
21 46 42
21 46 42
21 47 43
21 46 42
21 46 42
21 47 43
21 45 41
21 46 42
21 46 42
21 45 41
21 46 42
22 48 44
21 45 41
22 47 43
22 48 44
22 47 43
21 46 42
22 47 43
22 46 42
22 47 43
23 48 43
22 46 42
22 47 43
22 46 42
23 47 43
23 47 43
23 47 43
23 47 43
23 47 43
24 47 43
23 46 42
24 48 44
24 47 43
25 49 44
24 48 43
25 48 44
25 48 43
25 47 43
20 43 40
21 46 42
20 44 40
20 44 40
20 45 42
20 45 41
20 44 40
20 45 41
20 45 42
20 44 40
20 44 40
20 44 40
20 46 42
19 43 39
20 45 41
20 44 41
20 45 41
20 44 40
20 45 41
20 45 41
20 45 42
20 45 42
20 45 41
20 45 41
20 45 41
20 44 41
20 45 41
20 46 42
20 45 41
20 44 41
20 45 41
20 45 42
20 45 41
20 45 41
20 45 41
20 44 40
21 46 42
20 45 41
20 45 41
20 44 40
20 45 41
20 45 42
20 45 41
20 45 42
20 45 41
20 45 41
20 45 42
20 45 42
20 45 41
20 44 41
20 44 41
20 45 41
20 44 41
20 45 41
21 46 42
21 46 42
21 46 42
21 46 42
20 45 42
20 45 41
21 46 42
20 44 41
21 46 42
21 46 43
20 44 41
21 46 42
20 45 41
20 45 41
20 44 41
20 45 41
21 46 42
20 45 41
21 46 42
20 44 41
20 45 41
20 45 41
21 46 42
21 45 41
21 45 42
21 46 42
20 45 41
21 46 42
21 46 42
21 46 42
21 46 42
21 46 42
21 46 42
21 47 43
22 47 43
21 46 42
22 47 43
21 45 41
21 46 42
22 47 43
22 48 44
21 46 42
22 48 44
22 47 43
22 47 43
22 47 43
22 46 42
22 47 43
22 46 42
22 46 42
22 46 42
23 46 42
23 47 42
23 47 43
24 48 44
24 47 43
23 46 42
24 48 44
24 47 43
25 49 44
25 48 44
25 48 44
25 48 43
26 48 44
26 48 44
26 49 44
19 43 40
19 43 40
20 44 40
20 45 42
20 45 41
19 43 40
20 44 40
20 44 41
20 45 41
20 44 41
20 45 41
20 44 41
20 46 42
20 45 41
21 46 42
20 45 42
20 45 41
20 44 41
20 44 40
20 45 41
20 44 41
20 45 41
21 46 42
19 43 39
20 45 41
20 45 41
20 45 41
20 45 42
20 45 41
20 45 41
21 46 42
21 46 42
20 45 41
20 45 41
20 44 40
21 46 42
20 45 42
20 44 40
20 45 42
20 45 41
21 46 42
20 44 40
21 46 42
20 44 41
20 45 41
20 44 41
20 45 42
21 46 42
20 45 41
20 44 41
20 45 42
20 44 40
21 46 42
20 45 42
20 45 42
20 45 41
20 45 41
21 45 42
20 45 41
21 46 42
21 46 42
20 45 41
21 46 42
20 45 41
20 45 41
20 44 41
20 45 41
21 46 42
20 45 41
20 45 41
21 46 42
20 45 41
20 45 41
21 46 42
21 46 42
20 45 41
21 46 42
21 47 43
21 46 42
20 45 41
21 46 42
21 46 43
20 44 41
21 46 42
21 47 43
21 45 41
21 45 41
21 46 42
21 46 42
21 45 42
21 46 42
21 45 41
21 45 41
22 47 43
21 46 42
21 46 42
22 46 42
22 47 43
22 46 42
22 46 42
22 45 41
23 47 43
23 47 43
23 47 43
23 48 43
23 47 43
23 47 42
25 49 45
24 47 43
24 47 43
25 48 43
25 48 44
25 48 44
25 47 43
26 48 44
26 48 43
26 48 44
27 49 44
27 50 45
27 49 44
20 44 40
20 44 41
20 44 41
20 44 40
20 45 41
20 45 41
20 44 40
20 45 41
20 45 41
20 45 41
20 45 42
20 45 41
20 44 40
20 44 41
20 45 41
20 44 40
20 44 40
20 44 41
21 46 42
20 44 41
21 46 42
21 46 42
21 46 42
20 45 41
20 45 41
20 45 41
21 46 42
20 45 41
20 45 41
20 45 41
20 45 41
20 45 41
20 45 42
20 44 40
20 45 41
20 46 42
20 45 42
20 45 42
20 45 41
20 44 40
20 44 40
20 45 41
20 45 41
21 46 42
20 45 41
20 45 41
20 45 41
19 43 40
21 46 42
20 45 41
20 45 41
21 46 42
20 45 41
20 45 41
20 45 41
21 46 42
21 46 42
20 45 41
20 44 41
20 45 41
21 46 42
20 44 41
20 44 41
20 46 42
20 45 41
21 46 42
20 44 41
20 45 41
20 45 42
21 46 42
21 46 42
20 45 41
20 44 41
20 45 41
21 46 42
21 46 42
21 45 41
21 46 42
20 45 41
20 45 41
21 45 41
21 46 42
20 45 41
21 46 42
21 47 43
21 45 42
21 46 42
21 45 41
21 46 42
21 45 42
21 46 42
21 46 42
21 46 42
22 46 42
22 46 42
21 45 41
22 47 42
22 45 42
22 46 42
23 47 43
23 46 42
22 45 41
23 47 43
23 47 43
23 46 42
23 46 42
25 48 44
24 47 42
25 49 44
25 48 44
26 48 44
26 48 44
26 49 44
27 50 45
27 48 43
27 49 45
28 51 46
28 49 44
29 51 46
29 49 45
19 43 40
20 44 40
19 42 39
20 44 40
20 44 41
20 45 41
20 45 41
20 44 41
20 45 42
20 45 41
20 45 42
20 44 41
20 45 41
20 45 41
20 45 42
21 46 42
20 44 41
20 43 40
20 45 41
20 45 42
20 44 40
21 46 42
20 46 42
21 46 42
20 44 41
20 44 40
21 46 43
20 44 40
20 44 40
20 45 41
20 45 41
20 45 41
21 46 42
21 47 43
20 45 41
21 46 42
20 46 42
21 46 42
21 46 42
21 46 42
20 45 41
21 46 42
21 46 42
21 46 42
20 45 42
20 45 41
21 46 42
21 46 42
21 46 42
20 45 41
21 46 42
20 45 41
20 45 41
20 45 42
19 43 40
20 44 41
21 46 42
20 45 41
20 45 41
20 45 41
20 45 41
21 46 42
21 46 42
21 46 42
20 44 40
21 47 43
20 45 41
21 46 42
21 46 42
20 45 42
20 45 42
20 45 41
20 45 41
21 45 41
20 45 41
21 47 43
20 45 41
21 46 42
21 45 42
21 46 42
20 45 41
21 46 42
21 46 42
21 46 42
21 46 42
20 45 41
21 46 42
21 45 41
21 46 42
22 47 43
21 46 42
22 46 42
22 46 42
22 46 42
22 47 43
22 45 41
22 46 42
23 47 43
23 46 42
23 47 43
23 46 42
24 47 43
23 46 42
24 48 44
25 49 44
25 47 43
25 48 43
26 48 44
26 48 44
26 49 44
27 49 45
27 49 44
27 48 44
28 48 43
29 50 45
29 50 45
29 50 45
30 50 45
30 49 44
30 49 44
20 44 41
19 43 40
20 44 41
20 44 41
19 43 40
20 44 40
20 44 40
20 44 40
20 44 40
20 44 41
20 45 41
20 44 41
19 42 39
20 44 40
20 45 42
20 45 41
20 44 41
21 47 43
20 45 41
20 44 41
20 44 40
20 45 42
20 44 40
20 45 41
20 44 41
20 45 41
19 43 40
21 46 43
21 46 42
20 44 41
20 45 41
20 44 41
20 44 41
21 46 42
20 44 41
21 46 42
20 45 41
19 43 40
20 44 41
20 45 42
21 46 42
19 43 40
20 44 41
20 44 41
20 45 41
20 45 41
20 45 41
20 46 42
20 44 40
21 46 42
21 46 42
20 45 42
20 45 41
20 45 41
20 45 41
21 46 43
20 44 41
20 44 40
21 46 42
21 46 42
20 44 40
21 46 42
20 45 42
20 44 40
20 45 41
20 45 41
20 45 41
20 45 42
21 46 42
20 44 41
21 47 43
20 44 40
21 45 42
21 46 42
20 44 40
20 44 41
20 44 41
21 46 43
21 46 42
21 47 43
20 45 41
21 46 42
21 46 42
21 46 42
21 46 42
21 45 42
21 45 42
22 47 43
21 46 42
21 46 42
22 47 43
22 47 43
22 46 42
22 46 42
22 46 42
23 46 42
23 47 43
23 47 43
23 47 43
24 48 44
24 48 43
24 47 43
24 46 42
25 48 44
25 48 44
26 49 44
27 49 45
27 49 45
27 48 44
28 50 45
28 49 44
28 49 44
28 48 43
29 50 45
29 49 44
30 49 45
31 50 46
31 50 45
32 51 46
32 51 46
20 44 40
19 43 40
20 45 41
20 44 41
20 43 40
20 44 41
21 46 42
20 45 41
20 44 41
20 45 42
20 44 41
21 46 42
19 43 40
20 45 42
20 44 40
20 44 41
20 44 41
20 45 42
20 44 40
20 44 41
20 45 41
20 44 40
20 45 41
20 44 41
21 46 42
20 45 41
20 44 41
20 44 40
20 45 41
20 45 41
20 45 41
20 45 41
20 45 41
21 46 42
20 44 41
20 45 41
20 44 41
20 44 40
20 44 40
20 45 41
20 45 41
20 45 42
20 44 41
20 44 41
20 45 41
20 45 41
20 45 41
21 47 43
20 45 42
20 45 41
20 45 41
20 45 41
20 44 40
20 45 41
21 47 43
20 45 41
20 44 41
20 45 41
20 45 41
20 44 40
20 45 41
20 45 41
20 45 41
20 45 41
20 45 41
20 45 41
20 45 41
20 44 41
21 46 42
21 46 42
20 45 41
20 45 41
20 45 41
20 45 41
20 44 40
21 46 42
21 46 42
21 45 42
21 45 41
21 46 42
21 46 42
21 46 42
21 46 42
22 47 43
20 44 40
22 47 43
21 46 42
21 45 42
22 46 42
22 46 42
22 46 42
22 47 43
22 46 42
22 46 42
23 47 43
23 47 43
23 46 42
24 48 44
24 48 44
24 48 44
24 47 43
25 49 44
25 48 43
25 47 43
26 47 43
26 48 43
27 48 44
28 49 44
28 50 45
29 50 45
30 51 46
30 50 45
30 50 45
31 51 46
31 50 45
32 50 45
33 52 47
33 51 46
34 52 47
34 52 46
20 45 41
20 44 41
20 45 41
20 44 40
20 45 41
21 46 42
20 45 41
20 45 41
20 44 40
20 45 41
20 44 41
20 44 41
20 45 42
20 44 41
20 44 40
20 45 41
19 43 40
20 45 41
20 44 41
21 46 42
21 46 42
20 45 41
20 45 41
20 45 41
20 45 41
20 43 40
21 46 42
21 46 42
20 45 42
21 46 42
20 44 40
20 45 41
20 44 41
20 45 41
20 45 41
20 44 40
20 44 41
20 44 40
20 45 42
20 46 42
21 46 42
21 46 42
20 45 41
21 47 43
20 45 41
20 44 40
20 45 41
20 45 42
20 44 40
20 44 40
20 45 42
21 47 43
21 47 43
20 45 42
21 46 42
21 47 43
20 45 41
21 46 42
21 46 42
21 46 42
20 44 40
20 45 42
20 44 41
19 43 39
20 44 41
21 47 43
20 44 40
21 46 42
21 45 42
20 45 41
21 46 42
21 47 43
20 45 41
20 45 41
20 45 41
20 45 41
21 46 42
20 45 41
20 45 41
20 45 41
21 46 42
21 46 42
21 45 41
21 46 42
21 45 41
21 45 41
21 46 42
22 47 43
22 45 42
22 47 43
22 46 42
23 47 42
23 48 44
23 46 42
23 47 42
24 48 43
24 47 43
24 47 43
24 46 42
25 48 44
25 48 44
25 47 42
26 47 43
27 49 44
27 48 44
27 48 43
28 50 45
29 49 44
30 50 45
30 50 45
30 49 45
31 50 45
32 51 46
33 52 46
34 53 47
34 52 47
35 53 47
35 53 48
36 53 47
36 52 47
20 45 41
20 44 41
20 44 41
20 45 41
20 45 41
20 44 40
20 45 41
20 45 42
20 45 42
20 45 41
20 44 41
20 44 41
20 45 42
20 43 40
20 44 41
19 43 40
21 46 43
20 44 40
20 45 41
20 44 40
20 44 41
21 46 42
20 45 41
20 45 41
20 45 42
20 44 41
20 45 41
20 45 41
20 45 41
20 44 40
20 45 41
20 43 40
20 44 40
20 45 41
20 45 41
21 46 42
20 45 41
20 44 41
20 45 41
20 44 41
20 45 41
20 45 42
20 45 41
20 45 41
20 44 40
20 45 41
21 46 42
20 45 41
20 44 41
20 45 42
20 45 41
20 45 42
20 44 41
20 44 40
21 46 42
21 46 43
20 45 41
20 45 42
20 45 41
20 46 42
20 45 41
21 47 43
21 46 42
20 44 40
20 45 41
20 45 41
21 45 42
21 45 42
21 46 42
20 45 42
21 46 42
20 44 41
21 46 42
21 45 42
21 45 41
21 47 43
20 45 41
21 46 42
21 46 42
21 46 42
21 45 41
21 45 41
21 46 42
21 45 41
21 45 41
22 46 42
21 45 41
22 47 43
22 46 43
22 46 42
22 46 42
23 47 43
23 48 43
23 47 42
24 48 43
24 47 42
24 47 43
25 47 42
25 47 43
26 48 44
26 47 43
27 49 44
27 48 44
28 50 45
29 49 45
29 50 45
30 49 45
30 50 45
31 50 45
32 52 46
32 52 46
33 51 46
34 52 47
35 53 47
35 53 47
36 54 48
37 54 48
37 54 48
38 54 49
39 55 49
20 45 41
20 46 42
20 44 41
20 44 40
20 44 40
20 45 41
20 45 41
20 44 40
20 45 41
20 44 40
20 44 40
20 44 40
20 44 40
20 44 40
20 44 40
20 45 41
20 45 41
20 44 41
20 45 41
19 43 40
20 45 41
21 46 42
20 45 41
20 44 41
20 44 40
20 45 41
21 46 42
20 45 42
20 44 41
20 45 41
20 44 40
21 46 42
20 45 41
19 43 39
20 45 41
20 45 41
20 45 41
20 45 41
20 45 41
20 44 41
20 45 41
20 45 41
20 45 41
20 45 41
20 45 41
20 45 41
20 44 40
20 45 42
20 44 41
20 45 41
21 46 43
20 45 41
20 44 41
20 45 41
20 44 40
20 45 41
21 46 42
20 45 41
20 45 41
20 45 41
20 45 41
20 45 42
20 45 41
20 44 41
20 45 41
20 45 41
21 46 42
20 45 41
20 45 41
20 45 41
21 46 42
21 45 42
21 47 43
20 44 40
20 45 41
20 45 41
21 46 42
20 44 40
21 45 42
21 46 42
21 44 41
21 45 41
21 46 42
21 46 42
21 46 42
21 45 41
22 47 43
22 45 41
23 48 44
23 47 43
23 46 42
23 47 43
23 47 42
24 48 43
24 47 42
24 46 42
25 48 43
26 47 43
26 47 43
27 49 44
27 49 44
28 49 45
28 48 44
29 49 45
30 50 45
31 51 46
31 51 46
32 51 46
32 50 45
34 53 47
34 52 47
35 53 48
36 53 47
37 54 48
37 52 47
38 54 48
39 56 50
40 55 49
40 55 49
41 57 51
20 44 40
19 43 40
20 45 41
20 44 41
20 45 41
21 46 42
20 45 41
19 43 40
20 44 40
20 45 42
20 44 41
20 45 41
20 44 40
19 43 40
20 44 41
19 44 40
20 45 41
20 44 40
21 46 42
20 45 42
20 45 41
21 46 42
20 45 41
20 45 41
20 44 41
20 44 41
20 45 41
20 45 41
20 45 42
20 44 41
20 45 42
20 45 41
20 44 41
20 45 42
20 44 41
20 45 41
20 45 42
20 45 41
20 45 42
20 44 41
21 46 42
20 45 41
20 44 41
20 44 41
20 44 41
20 44 40
21 46 43
20 45 42
21 46 42
20 45 41
20 45 41
21 46 42
20 45 42
20 44 41
20 45 42
20 44 41
20 45 41
20 44 40
20 44 41
21 46 42
20 45 42
20 45 41
20 44 41
21 46 42
20 45 41
20 44 41
20 45 42
20 45 41
20 45 41
21 46 42
21 46 42
20 45 41
21 45 41
20 45 41
21 45 42
21 45 42
21 45 42
21 46 42
21 46 42
21 46 42
21 45 42
21 45 41
22 46 42
21 45 41
22 46 42
22 46 42
23 47 43
23 47 43
22 45 41
23 45 42
23 47 43
23 46 42
24 47 43
25 48 44
24 46 42
25 47 42
26 47 43
27 49 45
27 49 44
28 48 44
29 50 45
30 52 47
30 49 45
30 50 45
31 51 46
32 51 46
33 52 47
34 52 47
34 52 47
35 52 46
36 54 48
37 55 49
38 54 48
39 56 50
40 55 49
40 55 49
41 56 50
42 57 51
43 57 50
44 58 51
21 46 42
20 46 42
20 45 41
20 44 41
20 45 42
20 44 40
20 45 42
21 46 42
20 44 41
19 43 40
19 43 39
20 45 41
20 44 40
20 45 41
19 43 40
20 44 40
20 45 41
20 44 40
20 45 41
20 44 41
20 44 40
20 46 42
20 44 41
20 46 42
20 44 40
20 44 40
20 44 40
20 46 42
20 45 42
20 45 41
20 45 41
20 44 41
20 45 41
21 46 42
21 46 42
20 44 41
20 44 40
21 46 43
20 44 41
20 45 42
20 46 42
21 45 42
20 44 40
20 44 41
20 44 40
20 45 41
20 45 41
20 45 42
20 45 41
20 44 40
20 45 41
20 44 41
21 46 42
21 46 42
20 44 40
20 45 41
20 45 41
20 44 40
20 45 41
21 46 42
20 45 41
21 46 42
20 45 41
20 45 41
21 46 42
21 46 43
21 46 42
20 45 41
20 45 41
21 45 42
21 46 42
21 45 41
21 46 42
21 45 42
21 45 42
21 46 42
21 46 42
21 45 41
21 45 41
21 46 42
21 45 41
21 46 42
22 47 43
22 46 42
22 46 42
22 46 42
23 47 43
23 46 42
23 46 42
24 47 43
24 47 43
24 47 42
24 46 42
25 47 43
25 47 43
27 49 45
27 48 44
27 48 43
28 48 43
29 50 45
29 49 44
30 50 45
31 51 46
32 51 46
33 51 46
34 53 48
35 52 47
36 54 48
36 54 48
37 54 48
38 55 49
39 55 49
40 56 50
41 56 50
42 58 51
43 58 51
44 58 51
45 60 53
46 59 52
47 60 53
19 43 39
20 44 41
19 43 40
20 44 41
21 46 42
19 43 40
20 44 41
20 44 41
19 43 39
21 46 42
21 46 43
21 46 43
20 44 41
20 45 41
19 43 40
20 44 41
20 45 41
20 44 40
20 45 42
20 44 40
20 45 41
20 44 40
20 45 42
21 46 42
20 44 40
20 44 41
19 43 40
20 44 40
20 45 41
20 45 42
20 45 41
20 45 41
20 44 41
20 44 40
20 45 41
20 45 42
20 45 41
20 45 41
20 44 40
20 45 42
19 43 40
20 45 41
20 44 41
20 44 40
20 45 41
20 45 41
20 45 41
20 45 41
21 46 42
20 45 41
20 45 41
20 45 41
21 46 42
21 46 42
21 46 42
20 44 41
20 45 41
21 46 42
20 44 40
21 46 42
20 45 41
21 46 42
21 47 43
21 46 43
20 45 42
21 46 43
21 45 42
21 45 42
21 46 42
20 45 41
21 45 42
20 43 40
21 45 41
21 45 42
20 44 41
21 46 43
20 44 40
22 46 42
21 46 42
22 46 42
22 46 42
21 45 41
22 45 41
22 46 42
23 46 42
23 47 43
23 46 42
23 47 43
24 47 43
24 47 43
25 48 43
25 47 43
25 47 43
26 48 44
27 48 44
27 49 45
28 49 45
29 49 45
30 51 46
30 50 45
31 51 46
32 51 46
33 51 46
33 51 46
34 51 46
35 52 47
36 54 48
37 53 48
38 55 49
39 55 49
40 56 50
41 55 49
43 57 51
44 58 51
45 59 52
46 60 54
47 59 53
48 60 53
49 62 55
49 61 54
19 43 40
20 44 41
20 44 40
20 45 41
20 44 40
20 44 40
20 44 41
20 44 41
20 44 40
20 45 41
20 44 41
21 47 43
20 44 40
20 45 41
20 45 42
20 45 42
20 44 40
20 44 40
20 44 40
20 44 40
20 44 41
20 45 41
20 45 41
20 45 42
20 45 42
20 44 41
20 45 41
20 45 41
20 45 41
20 44 40
20 44 40
20 45 41
20 44 41
20 45 41
20 44 40
20 44 40
20 45 41
20 45 41
20 44 41
20 44 41
20 44 41
20 45 41
20 45 41
19 43 40
20 44 40
20 44 41
20 45 41
20 45 41
20 45 41
20 44 41
20 45 41
20 45 41
19 43 40
20 44 41
20 45 42
20 45 41
21 46 42
20 44 40
20 45 41
21 46 43
20 44 40
20 45 41
21 45 42
21 47 43
20 45 41
21 45 42
21 46 42
20 45 41
21 45 41
20 45 41
21 47 43
20 44 41
21 45 41
21 45 41
20 44 41
21 46 42
21 45 41
21 45 41
21 46 42
21 44 41
22 47 43
22 45 41
22 46 42
22 46 42
23 46 42
23 46 42
24 47 43
23 45 42
24 46 42
24 47 42
25 48 43
26 48 43
26 48 43
27 48 44
28 49 45
28 48 44
29 49 44
30 51 46
30 49 45
31 50 45
32 51 46
33 52 47
34 51 46
35 52 46
36 52 46
37 52 47
38 54 48
39 56 50
40 56 50
42 57 51
43 57 51
44 59 52
45 59 52
46 60 53
48 61 54
48 61 54
49 62 55
51 62 55
52 64 56
53 64 57
20 44 41
20 44 40
20 45 41
19 43 40
20 45 42
20 44 40
20 44 40
20 44 40
20 45 42
20 45 41
20 44 40
20 45 41
20 44 41
20 44 41
20 45 41
20 43 40
20 45 41
20 44 40
20 44 40
20 45 41
19 43 40
20 45 41
20 44 40
20 44 41
20 45 42
20 45 41
20 44 41
20 45 41
20 45 41
20 44 41
20 44 41
20 45 41
21 46 42
20 45 41
20 44 41
20 44 40
20 45 41
20 45 41
20 45 41
20 45 42
20 45 42
20 44 40
20 44 41
20 45 42
21 46 42
20 45 42
20 44 41
21 46 43
20 45 42
20 45 42
20 45 41
20 45 41
21 46 42
20 44 40
20 44 40
21 46 42
20 45 41
21 46 42
20 44 40
20 44 40
20 44 40
20 45 41
20 45 42
20 45 41
21 45 42
20 45 41
21 46 42
21 46 43
20 44 41
20 45 41
20 45 41
21 45 41
21 46 42
21 46 42
22 47 43
21 45 41
22 46 43
21 45 41
21 45 41
21 43 40
22 45 41
22 46 42
23 47 43
22 45 41
23 46 42
23 47 42
24 47 43
24 46 42
25 47 43
25 46 42
26 48 43
27 48 44
27 49 45
27 47 43
29 50 45
29 48 44
30 49 45
31 50 45
32 50 45
33 52 47
34 52 47
34 51 46
35 51 46
36 52 46
38 54 48
39 56 50
40 56 50
41 56 50
43 58 52
44 57 50
45 59 52
46 60 53
47 60 53
49 60 53
50 62 55
51 63 56
52 63 56
54 65 57
55 65 57
56 67 59
