P3
120 80
255
18 40 38
18 41 39
18 40 37
18 41 39
18 41 38
18 41 39
18 41 38
18 41 38
18 40 38
18 40 37
18 40 38
18 41 38
18 41 39
18 40 38
18 40 38
18 41 39
18 41 38
18 41 38
18 40 37
18 40 38
18 40 37
18 41 38
18 41 38
18 42 39
18 42 39
18 40 38
18 41 38
18 42 39
18 41 38
18 42 39
18 41 38
18 40 38
19 42 39
18 41 38
18 41 39
18 41 39
18 41 38
19 42 39
18 41 39
18 41 38
18 41 38
18 41 38
18 41 38
18 41 38
18 41 39
19 42 39
18 41 38
19 42 39
19 42 39
18 41 39
18 41 38
18 41 38
18 41 38
19 42 39
19 42 39
18 42 39
18 41 38
18 41 38
18 41 39
18 42 39
18 40 37
18 41 38
19 42 39
18 41 39
18 41 38
18 41 38
19 42 39
19 42 39
18 42 39
18 41 38
19 42 39
18 42 39
19 42 40
18 41 38
18 40 37
19 42 39
18 41 38
19 42 39
19 42 39
18 41 38
19 42 39
18 41 38
18 42 39
19 42 39
19 42 39
18 41 38
19 42 39
18 41 39
19 42 39
19 42 39
19 42 39
18 41 38
18 42 39
19 42 39
18 41 38
18 41 38
19 43 40
19 42 39
19 42 39
18 41 38
18 41 38
18 41 39
19 42 39
18 41 38
18 41 38
19 42 39
18 42 39
18 41 38
18 40 38
18 41 39
18 41 38
19 42 39
18 41 39
19 42 39
18 42 39
19 42 39
18 41 39
18 42 39
18 41 38
18 41 38
18 42 39
18 42 39
18 41 38
18 41 38
18 42 39
18 42 39
18 41 39
18 41 39
18 40 38
18 41 38
18 41 38
18 41 38
18 41 38
18 41 39
18 41 38
18 41 38
18 42 39
18 41 38
19 43 40
18 41 38
18 41 39
18 42 39
18 41 38
19 42 39
18 42 39
18 41 38
18 41 38
18 40 37
18 41 38
18 41 38
18 41 38
18 41 38
18 41 38
19 43 40
19 43 40
18 41 38
18 41 38
19 42 39
18 41 39
18 42 39
18 41 38
19 42 39
19 42 39
18 41 39
18 42 39
19 42 39
18 41 38
18 41 38
18 41 38
19 42 39
18 41 38
18 41 38
19 42 39
18 41 38
19 42 39
18 41 38
19 43 40
19 42 39
19 42 39
19 42 39
18 41 38
19 42 39
18 41 38
19 42 39
19 42 39
19 42 39
19 42 39
19 42 39
19 43 40
18 41 38
19 42 39
19 42 39
19 42 39
19 42 39
19 42 39
19 43 40
19 42 39
19 42 39
19 42 39
19 42 39
19 42 39
19 43 40
19 42 39
19 42 39
19 42 39
19 43 40
19 43 40
19 43 40
19 43 40
19 42 39
19 42 39
18 41 38
19 42 39
19 43 40
19 42 39
18 42 39
19 42 39
19 42 39
19 42 39
19 42 39
19 42 39
19 43 40
18 41 38
19 42 39
19 42 39
19 42 39
19 43 40
19 42 39
19 42 39
18 42 39
19 42 39
18 41 38
19 42 39
19 43 40
19 42 39
19 43 40
19 43 40
19 42 39
18 41 38
18 42 39
18 41 39
18 42 39
19 42 39
19 42 39
18 40 37
18 41 38
19 42 39
18 41 38
18 41 38
18 41 38
18 41 38
18 41 38
18 42 39
18 42 39
18 40 37
18 41 39
19 42 39
18 41 38
18 42 39
18 41 38
18 41 38
18 41 39
19 42 39
19 42 39
18 41 38
18 42 39
19 42 39
19 42 39
18 41 38
19 42 39
19 42 39
19 43 40
19 42 39
18 42 39
19 42 39
18 41 39
18 42 39
18 40 37
19 42 39
18 41 38
19 43 40
19 42 40
18 42 39
19 42 39
18 41 38
18 41 38
18 42 39
19 42 39
18 42 39
18 41 38
18 41 38
19 42 39
19 43 40
19 42 39
19 42 39
19 42 39
19 43 40
18 42 39
19 43 40
19 43 40
19 42 39
19 43 40
19 42 39
19 43 40
19 42 39
19 43 40
19 42 39
19 43 39
19 43 40
19 42 39
19 42 39
19 42 39
19 43 39
19 42 39
19 43 39
19 43 39
19 43 39
18 41 38
19 43 40
19 42 39
19 42 39
19 43 40
19 43 40
19 43 39
19 43 40
19 43 40
19 42 39
19 42 39
19 42 39
19 43 39
19 43 40
19 43 40
20 44 40
19 43 40
19 42 39
19 43 40
19 43 40
19 42 39
19 43 40
19 42 39
19 42 39
19 43 40
19 42 39
19 42 39
19 42 39
19 43 39
19 42 39
19 43 40
19 42 39
19 42 39
19 43 39
19 43 40
19 42 39
19 42 39
19 43 40
19 43 40
19 43 39
19 43 40
19 43 40
19 42 39
19 42 39
18 41 38
19 42 39
18 41 39
19 43 40
19 42 39
18 41 38
19 42 39
18 41 38
19 42 39
19 42 39
19 42 39
19 42 39
19 42 39
19 43 40
19 42 39
19 42 39
19 42 39
19 42 39
19 42 39
18 42 39
19 43 40
19 42 39
19 42 39
19 43 39
19 42 39
18 42 39
19 42 39
19 42 39
19 42 39
19 43 40
19 43 40
19 42 39
19 42 39
19 42 39
19 43 40
19 42 39
19 42 39
19 43 40
19 42 39
19 43 40
19 43 40
19 42 39
19 42 39
19 42 39
19 42 39
19 43 40
19 43 40
19 42 39
19 42 39
19 42 39
19 43 39
19 43 40
19 42 39
19 43 40
19 42 39
19 43 39
19 42 39
19 43 40
19 44 40
19 44 40
19 43 39
19 43 40
19 43 40
19 44 40
19 43 39
19 43 40
19 43 40
19 43 40
19 43 40
19 43 40
19 42 39
19 43 40
19 43 40
19 42 39
19 43 40
19 43 40
19 43 40
19 42 39
19 43 40
19 43 40
19 43 40
19 43 40
19 42 39
19 43 40
19 43 40
19 43 40
19 43 40
20 43 40
19 42 39
19 43 40
19 43 39
20 44 41
19 43 39
19 43 39
19 43 39
19 43 40
19 43 40
19 44 40
19 42 39
19 43 40
19 43 40
19 43 40
19 44 40
19 43 40
20 44 41
19 44 40
19 43 40
19 43 40
19 43 40
19 43 40
19 43 40
19 43 40
19 42 39
19 44 40
19 42 39
19 44 40
19 43 40
19 43 40
19 42 39
18 41 38
19 42 39
18 41 38
19 42 39
19 42 39
18 42 39
18 41 38
19 43 40
19 42 39
19 43 40
19 43 39
19 42 39
18 41 38
19 42 39
19 42 39
19 42 39
19 42 39
19 42 39
19 42 39
19 44 41
19 42 39
19 42 39
19 42 39
19 42 39
19 42 39
19 43 40
18 41 38
19 42 39
19 42 39
19 42 39
20 44 40
19 42 39
19 43 40
19 42 39
19 44 40
19 43 40
19 44 40
19 42 39
19 43 40
19 42 39
19 43 40
19 43 40
19 43 40
19 43 40
19 43 39
19 43 40
19 42 39
19 42 39
19 43 40
19 43 40
20 44 40
19 43 40
19 43 40
19 42 39
19 44 40
20 44 41
19 43 40
20 44 40
19 43 39
20 44 40
19 43 40
20 44 41
20 45 42
20 44 41
20 44 40
19 43 40
20 45 41
20 44 40
20 44 41
20 45 41
20 44 41
20 44 41
19 43 40
19 43 40
20 44 41
19 43 40
19 43 40
20 44 41
19 43 40
19 43 40
19 43 39
19 43 39
19 44 40
20 44 41
19 43 40
20 44 40
19 43 40
19 43 40
19 43 40
20 45 41
19 43 40
19 42 39
20 45 41
19 43 40
20 45 41
20 44 41
19 44 40
20 44 40
19 43 40
19 44 40
19 43 39
19 43 39
20 44 40
19 43 40
19 43 40
20 44 41
19 43 40
20 45 42
20 44 41
19 43 40
19 43 39
20 45 41
19 43 40
19 44 40
20 44 40
20 44 41
19 43 40
19 43 40
19 42 39
19 43 40
18 41 39
19 43 40
19 42 39
18 41 38
19 42 39
18 41 39
19 43 40
19 43 39
19 42 39
19 42 39
19 42 39
19 43 40
19 42 39
19 43 40
19 43 40
19 42 39
19 43 40
19 43 40
19 42 39
19 43 40
19 42 39
19 43 39
19 43 40
19 43 40
19 43 40
19 42 39
20 44 41
19 42 39
19 44 40
19 43 40
19 43 40
19 43 40
19 43 40
19 42 39
19 43 40
19 42 39
19 44 40
20 44 40
19 43 39
19 42 38
19 43 39
19 42 39
19 43 40
19 43 40
19 43 40
20 44 41
19 43 40
19 44 40
20 44 40
20 44 40
19 43 40
19 43 40
19 43 40
20 44 40
19 43 40
20 44 41
20 44 40
20 44 40
19 43 40
20 44 40
20 44 40
20 44 41
19 43 40
19 43 40
19 43 40
20 44 40
20 44 41
20 44 40
19 43 40
20 44 40
20 44 41
20 44 41
19 43 39
20 44 40
20 45 41
20 44 41
20 44 40
19 43 40
20 45 41
20 45 42
20 45 42
20 44 40
20 44 41
20 44 41
19 43 40
20 44 41
20 44 41
19 43 40
20 45 41
20 44 40
19 43 39
20 44 40
20 45 41
20 44 40
20 44 41
20 44 41
20 44 41
20 44 40
20 44 41
20 45 41
20 44 41
20 45 42
20 45 41
20 45 41
20 44 41
20 44 41
20 44 40
20 45 41
20 44 41
20 44 41
20 45 41
20 44 41
20 44 40
20 44 41
20 44 40
20 44 40
20 44 40
21 46 42
20 44 40
19 43 40
18 41 38
19 42 39
18 41 39
19 42 39
19 43 40
19 43 40
19 43 40
18 41 38
19 43 40
19 43 40
19 42 39
19 43 40
19 42 39
19 42 39
19 43 40
19 44 40
19 44 40
19 43 40
20 44 41
19 42 39
19 43 40
19 42 39
19 43 40
19 43 40
19 43 40
20 44 40
20 44 41
20 44 41
19 43 39
19 43 40
20 45 41
19 43 40
19 43 40
20 44 40
20 44 40
19 43 40
19 43 39
19 43 39
20 44 41
20 44 40
20 44 41
19 43 40
20 44 41
20 44 40
20 44 41
20 44 41
20 44 40
20 44 41
20 44 41
20 44 40
20 44 40
20 44 41
20 44 40
19 43 40
20 44 40
20 44 40
20 44 41
19 44 40
20 44 41
20 44 40
20 45 42
20 44 41
20 44 41
20 44 40
20 44 40
19 43 40
20 45 41
20 44 41
20 44 41
20 44 40
21 46 42
20 44 41
20 44 41
20 45 41
20 44 41
20 45 41
20 44 41
20 45 41
20 44 41
20 45 42
20 45 42
20 45 41
20 44 40
20 45 41
20 45 41
20 44 41
20 44 41
20 44 40
20 44 40
20 45 42
20 45 41
20 45 41
19 43 40
20 45 41
20 44 41
20 45 41
20 44 40
20 45 41
20 45 41
20 45 41
20 44 41
20 45 41
20 45 41
20 45 41
20 44 41
20 44 41
20 45 42
20 45 41
20 44 40
20 45 41
20 45 41
20 45 42
20 44 41
20 44 41
20 45 41
20 44 41
20 44 41
20 45 41
20 45 41
20 43 40
19 43 39
19 42 39
19 43 40
19 42 39
19 42 39
19 43 40
19 43 40
19 43 40
19 42 39
19 44 40
19 44 40
19 43 40
19 43 40
19 43 40
19 43 39
19 43 40
19 44 40
20 44 41
20 44 40
20 44 40
19 43 40
19 43 40
19 42 39
19 44 40
19 43 40
20 44 40
19 42 39
19 43 40
19 43 40
19 43 39
19 43 40
20 44 40
20 44 40
20 44 40
20 43 40
19 43 40
20 45 41
19 43 40
20 44 41
19 43 40
20 44 40
20 44 40
20 44 41
20 44 41
20 44 41
20 44 40
20 45 41
20 44 41
20 44 41
20 44 40
20 44 40
20 44 41
20 45 41
20 45 42
20 44 40
20 45 41
20 44 40
20 44 40
20 44 41
20 45 41
20 44 41
20 44 40
20 45 41
20 44 41
20 45 42
20 45 42
20 45 41
20 45 41
20 45 41
20 45 41
20 44 40
20 45 41
20 45 42
20 45 41
20 45 42
20 45 41
20 45 42
21 46 42
20 45 41
20 45 42
20 45 41
20 44 41
20 44 41
20 44 41
21 46 42
20 44 41
20 45 41
20 45 41
20 45 41
20 45 41
21 46 43
20 45 42
20 45 41
21 46 42
21 46 42
21 46 42
20 44 40
20 45 42
21 46 42
20 45 42
20 45 41
20 45 41
20 45 41
20 45 42
21 46 42
20 45 41
21 46 42
20 44 41
20 44 41
20 45 41
20 45 42
20 44 40
20 45 41
20 45 41
20 45 42
20 45 41
20 44 41
20 44 40
20 45 41
20 45 41
20 44 40
19 43 40
19 42 39
19 43 40
19 44 40
19 43 39
19 43 40
19 43 40
19 43 40
20 44 41
20 44 40
20 44 41
19 43 40
19 43 40
20 44 41
19 43 40
19 43 40
19 43 40
20 44 41
19 43 40
20 44 41
20 44 41
20 44 40
19 43 40
20 44 41
20 44 41
20 44 41
20 44 40
20 44 40
19 43 40
20 44 41
19 44 40
20 43 40
20 44 41
20 45 42
20 44 40
20 45 41
20 44 40
20 45 42
20 44 41
20 44 41
20 44 41
19 43 40
20 45 41
20 45 41
21 46 42
20 44 41
20 45 41
20 45 41
20 45 41
20 45 41
20 44 41
20 45 42
21 46 42
21 46 42
20 44 41
20 44 40
20 45 41
20 45 41
20 45 42
20 45 41
20 45 41
21 46 42
21 46 42
21 46 42
21 46 42
21 45 42
20 45 41
20 45 41
20 45 42
20 45 41
20 44 41
20 44 40
20 45 41
20 45 41
20 45 42
21 45 42
21 46 42
21 46 42
21 46 42
20 45 41
21 46 42
21 46 42
20 44 41
21 46 42
21 47 43
20 45 41
21 46 42
21 46 42
20 45 42
21 46 42
21 47 43
20 45 41
20 45 41
20 45 41
21 46 42
21 45 42
21 46 42
20 45 41
21 46 42
21 46 43
21 46 42
21 46 42
20 45 42
21 45 42
21 45 41
21 47 43
20 45 41
20 45 41
21 45 41
21 45 42
21 46 42
21 46 42
20 45 41
20 45 41
21 46 42
21 46 42
20 45 42
20 45 41
21 46 42
19 43 40
19 43 40
19 43 39
19 44 40
19 43 39
20 44 41
19 43 40
19 42 39
19 42 39
20 44 41
20 44 40
19 43 40
20 44 40
19 43 40
19 42 39
20 44 41
20 44 40
19 43 40
20 44 41
20 44 41
20 46 42
20 44 41
20 44 41
20 44 41
20 44 40
20 44 41
20 45 41
20 44 41
20 44 40
20 45 42
20 44 41
20 45 41
20 45 41
20 45 41
20 45 41
20 44 41
20 45 41
20 44 40
20 45 41
20 45 41
20 44 41
20 45 41
20 46 42
20 44 41
20 44 41
20 45 41
20 44 41
21 46 42
20 44 40
21 46 42
21 46 42
20 45 41
20 45 42
21 46 42
21 46 42
20 45 41
20 44 41
21 46 43
21 46 42
20 45 42
20 45 42
20 45 41
20 45 41
20 45 41
20 45 41
20 45 41
20 45 41
20 45 41
20 45 42
20 45 41
21 47 43
21 46 42
20 45 41
21 46 42
20 45 41
21 45 42
20 45 41
21 46 42
20 45 42
21 46 42
21 46 42
21 45 42
21 47 43
20 45 41
21 47 43
21 46 43
21 47 43
20 45 41
21 46 42
21 46 42
21 46 42
21 46 42
21 47 43
21 46 42
21 47 43
21 46 42
21 46 42
21 46 42
21 47 42
21 47 43
21 46 42
21 47 43
21 46 42
21 47 43
21 46 42
21 46 42
21 46 42
20 45 41
21 45 42
21 47 43
21 47 43
21 46 42
21 45 41
21 47 43
21 46 42
21 47 43
21 46 42
21 46 42
21 47 43
21 46 42
19 43 40
20 44 41
20 44 41
19 43 40
20 44 40
20 45 41
19 43 40
20 44 41
20 44 41
20 44 41
20 44 40
20 44 40
19 43 40
20 44 40
20 45 41
20 44 40
20 44 40
20 44 41
20 44 41
20 44 40
20 44 41
20 45 41
19 43 39
19 43 40
19 43 40
20 44 40
20 44 41
20 44 41
20 45 41
20 45 41
20 44 41
20 45 41
20 44 41
20 45 41
20 44 41
20 45 42
20 44 40
20 44 41
20 44 40
21 46 42
21 46 42
20 45 41
20 45 41
21 46 42
20 45 42
20 44 40
21 46 42
21 47 43
20 45 41
20 45 41
21 46 42
20 45 42
20 44 41
20 44 41
20 45 41
20 45 41
21 46 42
21 46 42
21 46 42
21 46 42
20 44 41
21 45 42
20 45 41
21 45 42
20 45 41
20 45 42
20 45 41
20 45 41
21 46 42
20 45 41
20 45 41
21 46 42
21 46 42
21 46 42
21 47 43
21 46 42
21 46 42
21 46 42
21 46 42
21 47 43
21 47 43
21 46 42
21 46 42
21 47 43
21 47 43
21 47 43
21 47 43
21 47 43
21 46 42
21 47 43
21 46 42
21 46 42
21 47 43
21 46 42
21 47 43
21 46 42
21 46 42
21 47 42
22 47 43
21 46 42
21 46 42
21 46 42
21 46 42
22 48 43
21 47 43
21 46 42
21 46 42
21 47 43
21 47 43
21 47 43
21 47 43
21 47 43
21 47 43
21 47 43
21 47 43
22 48 43
21 46 42
22 48 44
21 46 42
21 47 43
20 44 41
20 44 40
20 44 41
19 43 40
20 44 40
20 44 40
19 43 40
19 43 40
20 44 40
20 44 40
19 42 39
20 44 40
19 43 40
20 44 40
20 45 41
20 44 41
20 44 41
20 44 40
20 45 41
20 44 41
20 45 41
20 45 42
20 44 40
20 44 40
20 43 40
20 45 41
20 46 42
20 45 41
21 46 42
20 45 41
20 45 41
20 45 42
21 46 42
20 44 41
20 45 41
20 45 42
20 45 41
20 45 41
20 45 42
21 47 43
20 45 42
20 45 42
20 45 41
21 46 42
20 45 41
21 46 42
20 45 42
21 46 42
20 45 41
20 45 42
21 46 43
20 45 41
21 46 42
21 46 42
21 46 42
21 46 42
21 46 42
21 46 42
21 48 43
21 47 43
21 46 42
21 46 42
21 46 42
21 47 43
21 47 43
21 46 42
21 47 43
20 45 41
21 46 42
21 47 43
21 47 43
21 46 42
21 47 43
21 47 43
21 46 42
21 46 42
22 48 43
21 46 42
21 47 42
21 46 42
21 46 42
22 48 43
21 47 43
21 46 42
21 46 42
21 46 42
22 48 44
21 47 43
21 47 43
22 48 44
21 47 43
21 46 42
21 46 42
21 47 43
21 47 42
21 47 43
21 47 43
22 48 44
21 47 43
21 47 43
22 48 43
22 47 43
22 48 43
21 47 43
22 48 43
21 47 43
21 47 43
21 47 42
21 47 43
21 46 42
22 48 44
22 48 44
22 48 43
21 47 42
22 47 43
22 48 44
22 48 44
21 47 43
21 47 43
21 47 43
20 44 41
20 44 41
20 45 41
19 43 40
20 45 41
19 43 40
20 45 42
20 44 40
20 44 41
20 45 41
20 45 42
20 44 40
20 44 40
20 45 41
20 44 40
21 46 42
20 44 40
20 45 41
20 43 40
20 44 40
20 45 42
20 45 42
20 44 41
20 44 41
20 44 41
20 45 42
19 43 40
20 44 40
20 44 40
20 44 41
20 44 40
20 45 42
20 45 41
20 45 41
21 47 43
20 45 41
21 46 42
20 45 42
20 45 41
20 45 41
20 45 41
21 46 42
20 45 41
21 47 43
21 46 42
21 46 42
21 46 42
21 46 42
21 47 43
21 46 42
21 46 42
21 46 42
21 46 42
21 47 43
21 46 42
21 46 42
21 46 42
21 47 43
20 45 41
21 47 43
21 46 42
22 48 44
21 46 42
21 47 43
21 47 43
21 46 42
21 47 43
21 47 43
21 46 42
21 47 43
22 48 44
22 49 44
21 46 42
21 47 43
21 47 43
22 48 44
21 47 43
21 46 42
21 47 43
21 47 43
21 47 43
22 48 44
21 46 42
22 49 45
21 47 43
22 47 43
21 47 43
22 48 44
22 48 43
22 47 43
22 48 44
21 47 43
22 48 44
21 47 43
21 47 43
22 47 43
21 47 43
22 48 44
22 47 43
21 47 42
22 48 43
22 48 44
22 48 43
22 48 43
21 47 43
21 47 42
22 47 43
22 47 43
22 49 44
22 48 44
22 48 44
21 46 42
22 48 44
22 48 43
22 48 43
22 48 43
21 47 43
22 49 44
22 48 44
21 47 43
20 44 41
20 44 41
20 44 41
20 45 42
20 45 41
20 45 41
20 45 41
20 45 41
20 45 41
19 43 39
20 44 41
20 44 41
20 45 41
20 44 40
20 45 41
20 45 41
20 44 41
20 45 41
20 45 41
20 45 41
20 45 41
20 44 40
20 45 41
20 45 42
20 45 41
21 46 42
20 45 41
21 46 42
20 45 41
20 44 41
21 47 43
21 46 42
21 47 43
21 46 42
21 46 42
21 46 42
21 46 42
21 46 42
21 46 42
21 46 42
20 45 41
20 45 41
20 45 41
21 46 42
21 47 43
21 46 42
21 46 42
21 47 43
21 46 42
21 46 42
21 47 43
21 47 43
21 46 42
21 47 43
22 48 43
21 46 42
21 46 42
21 46 42
21 47 42
22 48 43
21 47 43
21 47 43
21 47 43
21 46 42
21 47 43
21 47 43
22 48 43
21 47 43
21 47 43
21 47 43
21 46 42
22 48 43
21 47 42
22 48 43
22 48 44
21 47 43
22 48 43
22 48 43
22 49 44
22 49 45
22 49 44
22 49 44
22 47 43
22 48 43
22 48 43
22 48 44
21 47 43
22 48 44
21 47 43
22 48 44
22 47 43
22 49 44
22 47 43
22 49 44
22 49 45
22 47 43
21 46 42
22 49 44
22 48 44
21 47 43
22 49 44
22 48 44
22 48 44
22 48 43
22 48 44
22 48 43
22 48 44
23 49 45
22 49 44
22 47 43
22 48 44
22 48 44
22 48 43
22 48 43
22 48 44
22 48 43
22 49 44
22 48 44
22 49 44
21 47 42
20 44 40
20 44 41
20 44 41
20 45 41
20 44 41
20 45 42
20 44 41
20 44 40
20 45 41
20 43 40
20 45 41
20 45 41
20 44 41
20 45 41
20 44 41
20 45 42
20 45 42
20 44 41
20 45 41
20 45 41
20 44 40
20 44 40
20 45 41
20 45 41
20 45 42
20 45 41
20 45 42
20 45 42
21 47 43
21 46 42
20 45 42
21 47 43
20 45 41
21 46 42
20 45 41
21 47 43
21 46 43
20 45 41
21 46 42
20 45 41
20 45 41
21 46 42
20 45 41
21 46 42
21 46 42
21 46 42
21 45 42
21 47 42
21 47 43
21 46 42
21 46 42
22 48 43
21 46 42
21 47 43
21 47 43
21 47 43
21 47 43
21 47 43
21 46 42
21 47 43
22 48 44
22 47 43
21 47 42
21 47 43
21 47 42
21 46 42
21 47 43
22 48 44
21 47 43
21 46 42
22 48 44
21 47 42
21 47 43
22 48 44
22 49 44
21 47 43
22 47 43
22 48 43
22 47 43
22 48 43
22 48 43
22 48 44
22 48 44
22 48 43
22 48 43
22 48 44
22 48 44
22 48 43
22 47 43
22 48 44
22 49 44
22 49 44
22 49 44
22 47 43
22 49 44
22 48 44
22 47 43
22 49 44
22 48 44
22 47 43
22 48 43
22 49 44
22 47 43
22 48 44
22 48 44
22 49 44
22 48 44
22 49 44
22 49 44
22 49 44
22 49 45
23 50 45
22 48 44
22 48 44
22 48 43
23 50 45
22 49 44
23 50 45
22 49 44
22 49 44
20 46 42
20 45 41
20 44 41
20 45 41
20 45 42
20 45 41
20 45 41
20 44 41
20 45 41
20 45 41
20 45 41
20 45 41
20 45 41
20 45 41
20 44 41
20 45 42
20 44 41
21 46 42
21 46 42
20 45 41
21 46 42
21 46 42
21 45 42
21 46 42
20 45 41
20 45 41
20 45 41
20 45 41
20 45 41
21 46 42
20 45 41
21 47 43
21 47 43
21 46 42
21 46 42
21 46 43
21 46 42
21 46 42
21 46 42
21 46 42
21 46 42
21 46 42
21 46 42
21 46 42
21 46 42
21 47 43
21 47 43
22 48 43
21 47 43
21 47 43
21 47 42
21 46 42
22 47 43
21 47 43
21 46 42
21 47 43
21 47 43
21 47 43
22 48 43
21 47 43
21 47 43
21 47 42
22 47 43
22 49 44
21 47 43
21 47 42
21 47 43
22 48 43
22 49 44
21 46 42
21 47 43
22 47 43
21 47 43
22 48 44
22 48 44
22 48 43
22 47 43
22 48 44
22 48 44
22 49 44
22 47 43
22 48 44
22 48 44
22 48 43
22 48 44
22 48 44
22 49 44
23 50 45
22 49 44
22 48 43
23 50 45
23 49 45
23 49 45
23 50 45
22 49 45
23 50 45
22 49 44
22 48 43
22 49 44
22 48 44
22 48 44
23 50 45
22 49 44
23 49 45
22 48 44
23 50 45
23 49 45
22 49 44
22 49 44
22 48 44
22 49 44
23 50 45
23 50 45
23 49 45
22 48 44
23 49 45
23 50 45
23 50 45
22 49 44
22 49 44
20 44 40
20 44 40
20 45 42
20 44 40
20 45 41
20 44 40
20 44 40
20 44 41
21 46 42
20 45 41
20 44 41
20 45 41
21 46 42
21 46 42
21 46 42
20 44 41
20 44 41
20 45 41
21 46 42
20 45 41
21 46 42
20 45 41
21 46 42
21 46 42
21 46 42
20 45 41
20 45 42
21 45 42
20 45 42
21 45 42
20 45 41
21 46 42
21 46 42
20 45 41
21 46 42
21 46 42
21 46 42
21 46 42
21 46 42
22 48 44
21 46 42
21 47 43
21 47 43
21 46 42
21 46 42
21 47 43
21 47 43
21 47 43
21 46 42
21 47 43
21 47 43
22 47 43
21 47 43
21 47 43
21 47 43
21 47 43
21 47 43
21 47 43
22 48 44
22 48 44
22 48 44
22 48 44
21 46 42
22 48 43
22 47 43
21 47 42
22 48 44
21 47 42
22 49 44
22 49 44
22 49 44
21 47 43
22 48 44
22 47 43
22 48 43
22 47 43
22 48 44
22 49 44
22 48 44
22 48 44
22 48 43
22 48 43
22 49 44
22 49 45
21 47 43
22 48 44
22 49 44
22 48 43
22 49 44
22 48 44
22 49 44
22 49 45
22 48 44
22 48 44
22 48 44
22 49 44
23 50 45
22 49 44
22 48 44
22 49 44
23 49 45
22 49 44
22 48 44
22 49 44
22 49 44
23 50 45
22 49 44
23 50 45
22 49 44
22 49 44
23 49 45
23 49 45
23 50 45
23 51 46
23 51 46
22 48 44
23 50 45
22 49 44
22 48 44
23 50 45
20 45 41
20 45 41
19 43 40
20 44 41
20 44 41
20 44 40
20 44 41
20 44 40
20 45 41
20 45 41
20 45 41
20 45 41
20 45 41
21 46 42
21 46 42
21 45 42
20 45 41
21 46 42
20 45 41
20 45 42
20 45 42
21 46 42
21 46 42
21 46 42
21 46 42
21 46 42
21 46 42
21 46 42
22 48 43
21 46 42
21 46 42
21 47 43
21 46 42
21 47 43
21 47 43
21 46 42
21 46 42
21 47 43
22 48 44
21 46 42
22 48 44
22 48 43
21 46 42
21 47 43
21 46 42
21 47 43
21 47 43
22 48 43
22 48 43
21 47 43
21 47 43
21 47 43
21 47 42
21 47 43
22 48 43
22 49 45
21 47 43
22 47 43
22 48 44
22 47 43
22 48 44
22 48 44
22 48 44
22 48 44
22 49 44
22 48 44
22 48 43
22 48 43
22 48 43
22 48 44
23 50 45
22 47 43
22 48 43
22 49 44
22 48 43
22 48 44
22 48 43
22 49 44
23 50 45
22 48 43
22 48 43
22 48 44
22 49 44
23 50 45
22 49 44
22 49 44
23 49 45
23 50 45
22 49 45
22 49 44
22 48 44
22 48 44
23 49 45
23 50 45
22 48 44
22 49 44
22 49 44
22 48 44
22 48 43
22 48 44
22 48 44
23 50 45
22 49 44
22 48 44
22 49 44
23 50 45
23 50 45
22 49 44
23 50 45
22 49 44
23 50 45
23 49 44
23 50 45
22 49 44
22 49 44
23 50 46
23 51 46
23 50 46
22 49 44
23 50 45
20 45 41
20 45 41
20 45 42
20 45 41
20 45 41
20 45 42
20 45 41
20 44 40
21 46 42
20 45 41
20 45 41
20 45 41
21 45 41
20 45 42
21 46 42
20 45 42
20 45 41
21 46 42
20 45 42
20 45 41
21 47 43
21 46 42
21 46 43
21 45 42
21 47 43
20 45 42
21 46 42
21 46 42
20 45 41
21 46 42
21 46 42
21 46 42
21 47 43
21 46 42
21 46 42
21 47 43
21 47 43
21 47 43
21 47 43
21 47 42
21 46 42
22 48 44
21 47 43
21 47 43
21 47 43
21 47 43
21 47 43
21 47 43
22 48 44
21 47 43
21 47 43
22 48 43
21 47 43
22 48 44
22 48 43
21 47 43
22 48 44
21 47 43
64 72 66
99 94 86
53 53 47
22 48 44
22 48 43
22 47 43
22 47 43
22 48 44
22 48 44
21 46 42
22 48 44
22 48 43
22 48 44
22 48 44
22 47 43
22 48 43
23 49 45
22 47 43
22 48 44
22 48 44
23 50 45
22 47 43
22 48 44
22 49 44
22 48 44
22 48 44
22 49 44
22 47 43
22 49 44
23 51 46
22 49 44
22 49 44
22 49 45
22 49 44
23 50 45
23 50 46
23 51 46
23 50 45
22 49 44
23 49 45
23 50 45
22 49 44
23 49 45
23 50 45
22 48 43
23 51 46
23 50 45
23 50 45
22 48 43
23 50 45
23 50 45
23 50 45
23 51 46
23 50 46
23 50 45
23 50 45
23 50 45
23 50 45
23 51 46
23 50 46
23 50 45
23 50 45
20 44 41
21 46 42
20 45 42
20 45 41
21 46 42
20 44 41
20 45 42
21 46 42
20 45 41
21 47 43
20 45 41
20 45 41
21 47 43
21 46 42
21 46 42
21 46 42
21 46 42
20 45 41
20 45 41
20 45 41
20 44 41
21 46 42
20 45 41
21 46 42
21 46 42
21 46 42
21 47 43
21 46 42
21 46 42
21 46 42
21 46 42
21 46 42
21 46 42
21 46 42
21 45 41
21 47 42
21 47 43
21 47 43
21 46 42
21 46 42
21 47 43
21 46 42
21 47 43
21 46 42
21 47 43
21 47 43
22 47 43
21 47 43
21 46 42
21 47 42
21 47 42
21 47 43
21 47 43
21 47 43
22 48 44
21 47 43
40 56 51
149 123 114
205 130 117
225 93 74
234 84 62
181 68 52
33 49 44
22 48 44
22 48 43
22 48 44
22 48 44
22 48 44
22 48 43
22 48 43
22 48 43
22 48 43
22 48 43
22 48 44
23 50 45
22 49 44
23 50 45
22 49 44
22 49 44
22 49 44
22 49 44
22 49 44
23 50 45
23 49 45
22 49 44
22 48 43
23 50 45
22 48 44
22 48 43
22 49 44
23 50 45
23 49 45
23 51 46
22 49 44
23 49 45
23 49 45
22 48 44
23 51 46
22 49 44
22 49 44
23 49 44
22 49 44
23 50 45
23 50 45
23 51 46
23 50 45
23 51 46
23 49 45
22 49 44
23 49 44
22 49 44
23 49 44
23 50 45
23 50 45
23 50 45
23 50 45
23 50 45
23 51 46
23 50 45
23 50 45
20 45 41
21 46 42
20 45 42
21 46 42
20 45 41
20 45 41
20 45 41
20 45 41
20 45 41
21 46 42
21 46 42
21 46 42
21 45 42
21 46 42
21 47 43
20 45 41
20 45 41
21 46 42
21 45 42
21 45 41
21 46 42
21 46 42
21 46 42
21 46 42
21 47 43
21 46 42
21 45 41
21 47 43
21 46 42
21 46 42
21 46 42
21 45 41
22 48 43
21 47 43
21 47 43
21 47 43
21 46 42
21 47 43
21 46 42
22 48 44
21 47 42
21 47 43
21 47 43
21 47 42
21 46 42
22 48 44
22 47 43
22 48 44
21 47 43
22 48 44
22 48 43
21 47 42
22 49 44
21 47 43
22 48 44
22 48 43
114 91 84
182 79 66
196 66 49
211 71 51
240 109 86
249 104 80
177 66 50
22 48 43
22 48 44
22 48 44
21 47 42
21 47 42
22 48 44
22 48 44
22 48 44
22 49 44
22 49 45
23 50 45
22 47 43
22 49 44
22 49 44
22 49 44
23 50 45
23 49 45
23 50 45
22 48 44
23 50 45
23 49 45
23 49 45
23 50 45
23 50 45
23 50 45
23 50 45
22 49 44
23 50 45
23 49 45
22 49 44
23 50 45
23 50 45
22 49 44
23 50 45
23 51 46
22 49 44
23 51 46
23 51 46
23 50 45
23 49 45
23 50 45
23 50 45
23 49 45
23 50 45
23 50 45
23 50 45
23 51 46
23 49 45
23 50 45
23 50 45
22 49 44
23 51 46
23 51 46
23 51 46
24 51 46
23 50 45
23 51 46
20 44 40
20 44 41
20 45 42
20 45 41
20 45 41
20 45 41
21 46 43
21 46 42
20 45 42
20 45 41
20 45 41
21 46 42
22 48 44
20 45 41
20 45 41
21 46 42
21 46 42
20 45 41
20 45 41
21 46 42
21 46 42
21 46 42
21 46 42
21 47 43
21 47 43
21 46 42
21 46 42
21 46 42
21 47 43
21 46 42
21 47 43
20 45 41
21 47 42
21 47 42
22 48 43
21 45 41
21 46 42
22 48 44
22 48 43
21 46 42
21 47 43
21 47 43
21 47 42
21 47 43
21 47 42
21 47 43
21 47 43
21 47 43
22 48 44
21 47 43
22 48 44
22 48 43
22 48 44
22 49 44
22 48 43
35 50 46
132 93 86
156 64 52
173 59 44
186 62 45
201 89 73
213 121 104
205 113 96
50 51 45
22 49 45
22 48 44
22 48 44
22 48 44
22 48 44
22 48 44
39 56 51
136 127 117
180 164 151
198 179 164
167 152 138
63 70 63
22 49 44
22 49 44
23 50 45
22 49 44
22 49 44
23 51 46
22 49 44
23 50 45
22 49 44
22 48 44
22 48 44
23 49 45
23 50 45
22 49 44
23 50 45
23 50 45
23 50 45
38 55 50
124 79 61
182 94 61
162 86 57
87 62 49
23 50 45
22 49 44
23 51 46
23 50 45
23 49 45
22 49 44
23 51 46
23 50 45
23 50 45
23 51 46
22 48 44
23 51 46
23 50 45
23 50 45
23 50 45
22 49 44
23 50 46
23 50 45
23 50 46
23 50 45
23 50 45
23 51 46
21 46 42
20 44 40
21 47 43
21 46 42
21 45 42
20 45 42
21 46 42
20 45 41
20 45 42
21 46 42
20 44 41
20 45 41
21 46 42
21 46 42
21 46 42
21 46 42
21 46 42
21 45 42
21 45 42
21 47 43
20 45 41
21 47 43
21 47 43
21 47 43
21 46 42
21 47 43
22 48 44
21 46 42
21 46 42
21 46 42
21 47 43
21 47 42
21 47 43
22 48 44
21 47 42
21 47 43
21 46 42
21 47 43
21 46 42
21 47 43
21 47 43
22 48 44
21 47 43
22 48 44
22 48 44
22 48 44
21 46 42
21 47 43
21 46 42
22 48 43
22 47 43
22 47 43
22 48 43
22 48 44
22 48 43
48 49 44
122 109 102
125 93 85
137 54 42
146 97 87
158 141 129
174 155 139
183 159 140
71 72 64
22 49 44
22 48 44
22 48 43
22 49 44
22 48 44
28 50 45
144 135 126
195 179 168
204 186 174
218 197 183
255 230 207
214 191 173
73 77 70
22 49 44
23 50 45
22 48 43
23 50 45
22 49 44
22 49 44
23 50 45
23 51 46
22 49 45
22 49 44
22 49 44
23 50 45
23 49 45
22 49 44
23 50 46
49 63 57
184 157 143
230 118 78
236 117 72
255 156 111
249 128 83
126 108 95
22 49 44
23 49 45
23 49 44
23 50 45
22 49 44
23 50 45
24 51 46
23 49 44
23 50 45
23 50 45
23 50 45
23 50 45
23 50 45
22 49 44
23 51 46
23 51 46
23 50 45
23 51 46
23 50 45
23 50 45
22 49 44
20 45 42
21 46 42
20 44 40
20 45 41
20 45 41
21 46 42
21 46 42
21 47 43
21 46 42
20 45 41
20 45 41
20 45 41
21 46 42
21 46 42
21 46 42
21 46 42
21 46 42
21 46 42
21 46 42
21 47 43
21 47 42
21 46 42
22 48 44
21 47 43
21 47 43
21 46 42
21 46 42
20 45 41
21 46 42
21 47 43
22 48 44
21 46 42
21 47 43
21 47 43
21 46 42
21 47 43
21 46 42
21 47 43
21 47 42
21 46 42
22 49 44
22 47 43
21 47 43
21 46 42
22 47 43
21 47 43
21 47 42
21 47 43
21 47 43
22 48 44
22 48 43
21 46 42
22 48 43
22 49 44
22 48 43
21 47 42
77 71 65
95 66 59
102 80 72
102 95 87
104 96 87
114 102 90
136 120 105
44 59 53
22 48 44
22 49 44
22 49 45
22 48 44
22 48 43
65 67 69
129 116 117
141 127 129
147 131 133
143 124 130
150 128 133
120 93 113
74 60 78
22 48 44
23 50 45
23 50 45
23 50 46
22 49 44
22 49 44
23 49 45
22 48 44
22 48 44
22 49 44
22 48 44
23 50 45
22 49 45
22 49 44
25 51 46
139 129 120
188 138 120
204 100 61
215 105 63
224 110 68
227 153 127
214 191 173
76 80 72
23 49 45
23 50 46
23 49 45
23 51 46
23 50 46
23 50 45
23 50 45
23 50 45
23 50 45
23 50 45
23 51 46
23 51 46
23 50 45
22 49 44
23 50 45
23 51 46
23 49 44
23 50 45
23 51 46
23 50 46
20 45 41
20 44 41
20 45 41
20 45 41
21 46 42
21 46 42
21 47 43
21 46 42
20 45 41
21 46 42
20 45 41
21 46 42
21 46 42
21 46 42
21 47 43
21 46 42
21 46 42
21 46 42
21 45 42
21 46 42
21 47 43
21 47 43
20 45 41
21 47 43
21 47 43
21 46 42
21 47 43
21 46 42
21 47 43
21 46 42
21 46 42
21 47 43
21 46 42
21 47 42
21 47 43
21 47 43
22 48 43
21 46 42
21 47 42
21 47 43
22 48 43
21 46 42
21 46 42
22 49 44
21 47 43
21 47 43
21 47 42
22 49 44
21 47 42
22 47 43
21 46 42
22 48 43
22 48 43
22 48 44
21 46 42
22 48 43
52 38 33
54 34 29
54 56 48
45 48 41
61 59 51
57 54 43
63 65 58
21 46 42
22 49 44
22 47 43
22 48 44
22 48 44
22 48 43
50 42 60
62 43 71
63 43 73
66 45 76
69 47 79
76 51 83
79 52 85
78 53 82
23 48 44
22 49 44
22 48 44
22 48 44
23 50 46
23 50 45
23 50 45
23 49 44
23 50 45
22 49 44
22 49 44
23 49 45
23 50 45
23 50 45
42 57 52
143 132 125
157 96 76
157 101 82
175 99 74
188 92 56
187 152 136
186 166 151
134 123 111
22 49 44
23 49 44
22 49 44
23 51 46
23 50 45
23 50 45
23 51 46
23 51 46
23 49 44
23 51 46
23 50 45
23 50 45
23 50 45
23 50 45
23 50 45
24 51 46
23 50 45
23 51 46
23 50 45
23 51 46
21 46 42
20 45 41
20 44 41
20 45 41
21 46 42
21 46 42
20 45 41
20 44 41
20 45 41
21 46 42
21 46 42
20 45 41
21 47 43
21 46 42
20 45 41
21 47 43
21 46 42
21 46 42
21 46 42
21 47 43
21 46 42
21 46 42
21 47 43
21 47 43
20 45 41
21 47 43
21 45 41
21 47 43
21 46 42
21 46 42
21 46 42
21 46 42
21 47 43
21 46 42
21 47 43
22 48 44
21 47 43
21 47 43
21 47 42
22 48 43
21 46 42
21 47 43
21 47 43
21 47 43
21 47 43
22 48 43
22 47 43
21 47 43
22 48 43
21 47 43
21 47 43
21 47 43
21 45 41
19 42 38
17 39 36
17 38 35
16 35 33
12 23 21
11 21 17
18 26 20
32 34 25
31 41 33
20 43 38
21 45 41
22 46 42
22 48 43
22 47 42
23 49 44
22 48 43
44 37 52
51 35 57
54 37 61
56 39 64
52 36 60
59 40 66
64 42 69
64 45 68
22 48 44
22 48 44
22 49 44
22 48 44
22 48 43
23 50 45
22 49 44
22 49 44
22 49 44
22 49 44
22 49 44
22 49 44
23 50 45
23 49 45
54 65 59
123 112 104
122 90 79
129 119 111
123 113 105
146 83 61
145 131 121
144 131 120
121 112 101
23 50 45
23 49 45
22 48 44
23 50 45
23 50 45
23 51 46
23 50 45
23 49 44
73 77 71
153 141 130
198 180 165
155 142 130
83 85 78
23 50 45
23 51 46
23 51 46
23 51 46
23 50 45
23 50 45
23 50 45
20 45 41
20 45 41
21 46 42
21 46 42
21 46 42
21 46 42
21 46 42
21 46 42
21 46 42
21 46 42
21 47 43
21 46 42
20 45 41
20 45 42
21 46 42
21 46 42
21 46 42
21 47 43
21 47 43
21 46 42
21 46 42
21 45 42
21 46 42
21 47 43
21 46 42
22 48 43
21 46 42
21 46 42
21 47 43
21 47 43
21 46 42
21 47 43
21 46 42
20 45 41
22 48 43
21 46 42
21 46 42
22 48 44
21 47 42
21 47 43
21 46 42
22 48 44
21 47 43
21 47 43
21 46 42
21 46 42
21 47 43
22 48 44
21 47 42
21 46 41
21 47 42
20 45 41
19 43 40
17 38 36
16 36 34
15 35 33
15 33 31
12 28 26
12 27 25
15 32 29
15 32 29
18 40 35
21 44 39
21 45 41
21 46 42
21 46 41
21 47 42
22 47 43
21 46 42
32 41 45
39 27 44
39 27 44
40 28 45
38 27 43
41 29 47
41 29 45
40 39 47
23 50 45
22 47 43
22 48 44
22 49 44
22 48 43
22 48 43
23 50 45
22 48 43
22 48 44
23 49 45
23 49 44
22 48 43
22 48 43
22 48 44
33 53 48
89 81 73
97 71 60
84 79 72
101 93 85
94 64 52
113 104 95
113 103 94
71 73 66
23 50 45
23 49 44
22 49 44
23 51 46
23 50 45
23 49 44
23 49 44
66 66 64
190 173 162
206 188 176
233 212 194
238 216 196
217 195 179
123 117 106
23 50 45
23 50 45
23 51 46
23 51 46
23 50 45
23 50 45
21 46 42
20 44 40
21 46 42
20 45 41
20 45 42
21 47 43
21 46 42
20 45 41
21 46 43
21 46 42
21 46 42
21 46 42
21 46 42
21 46 42
21 48 43
21 45 41
21 46 42
21 46 42
21 46 42
21 46 42
21 47 43
20 45 41
21 46 42
21 46 42
21 47 43
21 46 42
21 46 42
21 47 43
21 47 43
21 45 41
21 46 42
21 46 42
22 47 43
21 46 42
22 48 43
21 47 43
21 46 42
22 48 43
22 48 43
21 46 42
21 47 42
22 48 43
21 47 43
21 46 42
22 48 43
21 47 43
21 47 43
21 47 43
22 48 43
22 48 43
22 47 43
22 48 44
22 47 43
21 47 43
21 46 42
22 47 43
22 48 44
21 46 42
21 46 42
21 46 41
21 46 41
22 47 42
21 46 42
22 47 43
21 46 42
22 48 43
21 47 42
21 46 42
22 48 43
25 47 42
34 38 36
30 30 30
26 29 28
21 28 26
30 34 30
58 56 47
36 52 47
22 48 43
22 48 43
22 48 43
22 48 43
22 48 44
23 49 45
22 49 44
22 49 44
23 49 44
22 48 43
22 48 44
22 49 44
22 49 44
22 49 44
22 48 43
41 48 42
46 30 20
56 43 36
64 46 37
64 46 36
52 53 44
69 68 60
23 48 43
22 49 44
22 48 43
22 49 44
22 49 44
23 51 45
22 49 44
25 41 39
123 114 108
183 169 159
185 170 160
189 174 164
196 179 167
204 184 171
199 178 163
71 76 69
23 50 45
23 50 45
23 50 45
23 50 45
23 50 45
21 46 42
21 46 42
21 46 42
20 44 40
21 46 42
21 46 42
21 46 42
21 46 42
21 45 42
21 46 42
21 46 42
21 46 42
20 45 42
21 46 42
20 45 41
21 46 42
20 45 41
21 47 43
21 46 42
21 46 42
20 45 41
21 46 42
21 46 42
21 46 42
21 45 41
21 47 43
21 47 43
21 47 43
21 46 42
21 46 42
21 46 42
21 47 42
21 46 42
21 47 43
21 47 43
21 47 43
21 47 43
21 47 43
22 48 44
22 47 43
21 47 42
21 47 43
22 48 44
22 48 43
21 47 43
22 48 44
22 48 44
22 48 44
21 47 42
21 46 42
21 47 43
22 49 45
22 48 43
21 47 43
22 48 43
22 48 44
22 48 43
21 46 42
22 49 44
21 47 43
21 47 42
22 48 44
21 47 43
22 47 43
21 47 42
21 46 41
20 44 40
18 41 37
15 34 32
14 32 30
13 29 27
9 18 15
10 19 15
12 21 16
19 28 22
24 41 35
21 44 39
21 45 40
22 47 42
21 47 42
22 47 42
22 48 43
22 47 42
22 48 44
22 48 44
22 47 43
22 48 43
22 47 43
22 47 42
22 47 43
21 46 42
19 41 37
17 37 34
12 17 14
12 12 6
13 13 6
14 20 14
27 36 29
31 48 42
22 48 43
23 48 43
22 48 43
22 48 43
22 48 44
23 49 45
23 48 43
23 27 30
131 122 115
157 146 139
163 151 144
162 151 143
170 157 148
171 157 147
175 159 147
104 101 92
22 49 44
23 49 44
23 50 45
23 49 45
23 50 45
20 45 41
21 46 42
21 45 42
21 46 42
21 46 42
21 46 42
21 46 42
21 46 42
21 47 43
21 46 42
20 44 41
21 46 42
21 45 42
21 46 42
20 45 41
21 46 42
21 46 42
21 46 42
21 46 42
21 46 42
21 46 42
21 47 43
21 46 42
21 46 42
21 47 43
21 46 42
21 46 42
21 46 42
20 45 41
21 47 43
21 46 42
21 47 43
21 46 42
21 47 43
21 47 43
22 48 44
21 47 43
21 46 42
22 48 44
21 47 42
21 47 43
22 48 44
21 47 42
21 47 42
22 48 43
22 48 43
21 46 42
22 47 43
22 48 44
21 47 43
22 47 43
22 47 43
22 47 43
21 47 43
22 47 43
22 49 44
22 48 44
22 48 43
22 48 44
21 47 43
22 47 43
22 48 43
22 48 43
22 49 44
22 47 43
21 45 41
19 42 39
17 38 36
15 34 32
15 34 32
13 31 29
14 31 29
13 28 26
14 31 29
16 35 31
20 43 38
21 45 40
21 46 41
21 46 41
22 47 43
22 48 43
22 47 43
22 48 43
22 48 43
22 48 43
22 47 42
22 47 43
21 47 42
22 47 42
20 44 40
16 37 34
14 32 30
12 28 27
10 23 21
9 21 20
8 17 16
8 19 18
11 25 23
19 40 36
21 46 41
21 46 41
23 49 44
22 48 43
22 48 43
22 48 43
22 47 43
21 23 26
97 90 84
142 132 124
139 128 120
144 133 124
141 131 123
137 127 119
142 131 122
92 90 83
23 50 45
22 49 44
23 49 45
23 50 45
23 50 45
20 45 41
21 46 42
20 45 41
20 45 42
20 45 42
20 45 41
21 46 42
21 47 43
21 46 42
20 45 41
21 46 42
21 46 42
21 46 42
21 47 43
21 46 42
21 46 42
21 47 43
21 46 42
21 46 42
21 47 43
21 45 42
21 46 42
21 46 42
21 46 42
21 46 42
22 48 43
21 47 42
21 47 42
21 47 43
21 47 43
21 47 43
21 47 43
21 47 43
22 48 44
21 46 42
21 46 42
22 48 44
21 47 43
22 48 43
22 48 44
22 47 43
21 47 43
21 47 43
21 47 43
21 47 43
21 47 43
22 48 44
21 47 43
21 47 43
21 47 43
21 47 43
22 48 43
21 47 43
21 46 42
21 47 43
22 47 43
21 46 42
21 47 43
21 47 42
21 47 43
22 48 43
22 49 44
21 47 43
21 46 42
21 46 42
22 48 43
21 46 42
21 47 43
21 47 42
22 48 43
21 47 43
21 46 42
21 47 42
21 47 42
21 47 42
22 48 43
22 48 43
21 47 43
22 47 43
22 48 43
22 48 44
22 48 44
22 48 44
22 48 43
22 48 43
22 48 43
22 49 44
22 48 43
22 48 44
22 48 43
21 47 42
21 47 42
21 45 41
20 43 39
20 43 39
19 42 38
20 43 39
21 46 42
22 48 43
22 48 43
22 48 43
22 48 43
22 47 43
22 48 43
23 49 44
22 48 43
16 20 21
28 28 28
110 102 94
117 108 99
113 105 97
122 113 104
123 114 105
108 101 93
51 60 55
22 48 43
22 48 43
22 48 43
23 50 45
23 49 45
21 46 42
21 46 42
21 47 43
21 46 42
21 46 42
21 46 42
20 45 41
21 46 42
21 46 42
21 46 42
20 45 42
21 46 42
21 47 43
21 46 42
21 46 42
21 46 42
21 46 42
21 47 43
21 46 42
21 46 42
21 46 42
21 46 42
21 46 42
21 46 42
21 46 42
21 46 42
21 47 43
21 47 43
22 48 44
21 47 43
21 45 41
21 47 43
21 46 42
21 46 42
21 47 43
21 47 43
21 47 43
21 47 43
21 47 43
21 46 42
21 46 42
21 47 42
21 47 43
22 47 43
21 47 43
21 46 42
21 47 43
22 48 43
21 47 43
21 47 43
22 48 43
22 48 44
21 47 43
22 48 43
21 47 43
21 46 42
22 48 43
22 47 43
22 48 43
22 47 43
21 47 43
22 48 43
22 47 43
22 48 44
21 47 43
22 47 43
21 47 43
22 47 43
22 48 44
22 47 43
21 45 41
22 48 44
22 48 44
22 48 43
21 47 42
22 48 43
22 48 43
22 48 44
22 48 44
22 48 44
23 49 45
22 48 43
22 49 44
21 47 43
22 48 43
22 48 44
22 48 43
22 48 43
22 48 43
22 49 44
23 49 45
22 49 45
22 49 44
22 49 44
22 48 43
22 48 44
22 48 44
22 48 43
22 48 43
22 48 43
22 48 43
23 49 44
23 50 45
22 48 44
22 48 43
22 49 44
16 31 28
13 15 16
33 32 30
58 56 50
86 81 73
81 77 69
82 78 70
60 58 54
23 49 44
22 49 44
22 48 43
23 49 44
23 50 45
22 48 43
21 46 42
21 46 42
21 46 42
20 45 42
21 47 43
20 45 41
21 46 42
21 46 43
21 46 42
21 47 43
21 46 42
21 46 42
21 46 42
21 47 43
20 45 41
21 46 42
20 45 41
21 47 43
21 46 42
21 46 42
21 46 42
21 47 43
21 46 42
21 46 42
21 46 42
21 47 43
21 47 43
21 46 42
21 46 42
21 47 43
21 46 42
21 46 42
21 46 42
20 45 41
22 48 44
21 45 41
21 46 42
21 46 42
21 46 42
21 47 43
22 47 43
21 47 43
21 46 42
22 48 44
21 46 42
21 47 43
21 47 43
21 47 43
22 49 44
21 46 42
22 48 43
21 46 42
21 47 43
22 48 44
21 46 42
21 47 43
22 49 44
22 48 44
21 47 42
21 46 42
22 48 43
22 48 43
22 48 44
21 47 43
22 48 43
21 47 43
21 47 43
21 47 43
21 47 42
22 48 44
22 47 43
22 48 43
22 48 43
22 48 44
22 48 43
22 49 45
22 48 43
22 48 43
21 47 42
22 48 43
22 48 44
22 47 43
22 48 44
22 48 44
23 50 45
22 48 43
22 48 44
22 48 44
21 47 42
22 48 43
22 49 45
22 48 43
23 49 44
22 48 43
22 48 44
22 49 44
23 49 45
22 47 43
22 49 44
22 49 44
22 48 43
21 46 42
22 48 43
22 48 44
22 48 43
21 46 42
20 43 39
10 19 17
4 6 6
4 6 6
6 11 9
14 17 14
15 19 17
20 42 38
21 47 42
21 47 42
22 48 44
22 47 43
22 48 44
22 49 44
21 46 42
21 47 43
20 45 41
21 46 43
20 45 42
21 45 42
21 46 42
20 45 42
20 45 41
20 45 41
20 45 41
21 47 43
21 46 42
21 46 42
21 46 42
21 46 42
20 45 41
21 45 42
21 47 43
21 45 42
21 47 43
20 45 41
21 47 43
21 46 42
20 45 41
21 46 42
21 47 43
21 46 42
21 47 43
21 47 43
20 45 41
21 46 42
21 46 42
21 46 42
21 47 43
21 46 42
21 47 43
22 47 43
21 46 42
21 47 43
21 47 43
21 47 42
21 46 42
21 47 43
21 47 43
21 46 42
22 48 43
21 46 42
22 48 44
21 46 42
21 47 43
21 47 43
22 48 44
22 49 44
22 48 43
21 47 43
21 47 42
21 47 43
21 47 43
22 48 44
21 47 43
21 47 42
22 48 44
21 47 43
22 48 43
21 47 43
22 48 43
22 48 44
21 46 42
22 48 44
22 48 44
22 48 43
22 48 44
22 48 43
21 47 43
22 48 44
21 47 42
22 47 43
22 47 43
22 49 44
22 48 43
22 48 44
22 49 44
22 47 43
22 48 43
21 47 43
22 49 44
23 50 45
22 49 44
22 49 45
22 48 43
22 49 44
22 49 44
22 49 45
22 49 44
23 50 45
22 49 44
22 49 44
22 48 43
21 47 42
22 48 43
22 48 43
22 49 44
21 45 40
19 42 38
16 36 33
13 30 29
10 23 22
6 15 14
3 8 8
4 9 8
5 11 10
14 31 28
19 40 36
21 46 41
22 47 43
22 48 43
22 47 42
22 48 44
22 49 44
20 45 41
20 45 42
20 45 42
21 46 42
21 46 42
20 45 41
21 46 42
21 47 43
21 45 41
21 46 42
20 45 42
21 47 43
21 46 42
21 46 42
20 45 41
21 46 42
21 46 42
21 46 42
21 47 43
20 45 41
21 47 43
21 46 42
21 46 42
21 47 43
21 46 42
21 46 42
21 46 42
21 46 42
21 46 42
21 47 43
21 47 43
21 46 42
21 46 42
21 47 43
21 47 43
21 47 43
21 46 42
21 47 42
21 47 43
21 46 42
22 48 43
21 47 43
21 46 42
21 47 43
21 46 42
21 47 42
21 47 43
21 47 43
21 47 43
21 46 42
22 47 43
22 48 43
21 47 43
21 47 43
21 46 42
21 47 43
22 48 43
22 48 43
22 48 43
21 47 43
21 47 43
21 47 43
22 48 43
22 49 44
22 48 43
22 48 43
22 48 44
22 48 43
21 46 42
22 48 44
22 49 45
22 49 44
22 49 44
22 48 43
21 47 43
22 48 44
22 48 44
22 48 44
22 48 43
22 48 43
22 48 44
21 47 43
22 48 44
22 49 45
22 48 44
22 48 44
22 48 44
22 48 43
22 48 43
22 49 44
22 49 44
22 48 43
22 48 44
22 48 44
22 49 45
22 48 43
22 48 43
22 49 44
22 48 44
22 48 44
22 47 43
22 48 43
22 47 43
22 48 43
20 45 41
18 40 37
14 32 30
13 31 29
13 30 29
12 28 27
12 29 28
12 29 27
13 30 28
18 40 36
21 45 40
21 46 41
22 47 42
22 47 42
22 48 43
23 49 44
21 46 42
20 45 41
21 46 43
20 45 41
21 47 43
20 45 42
21 46 42
21 46 42
21 47 43
20 45 42
21 47 43
20 44 41
20 45 42
21 46 42
20 45 41
21 46 42
21 46 42
20 45 41
21 46 42
21 46 42
21 46 42
21 47 43
21 46 42
20 45 41
22 47 43
21 46 42
21 47 43
20 45 41
21 46 42
21 46 42
21 46 42
21 46 42
21 46 42
22 48 43
21 47 43
21 47 43
21 47 42
21 46 42
21 47 43
21 45 41
21 46 42
21 46 42
21 46 42
21 47 43
21 47 43
21 47 43
22 48 43
21 45 41
21 47 43
21 46 42
21 46 42
21 47 43
21 46 41
22 48 43
21 47 43
22 48 43
21 47 43
22 48 43
21 47 43
21 47 43
22 48 44
21 47 43
21 47 43
22 49 44
21 47 43
22 47 43
22 48 43
22 48 44
21 46 42
22 48 44
21 47 43
21 47 43
21 47 43
21 47 42
22 48 44
22 47 43
22 49 44
22 47 43
21 47 43
22 49 44
22 48 44
22 48 44
22 49 44
22 49 45
22 48 43
22 47 43
22 48 43
22 48 44
22 48 44
22 48 44
22 48 43
22 47 43
22 49 44
22 47 43
22 48 43
22 49 44
22 48 43
22 48 44
22 49 44
22 49 44
23 50 45
22 48 43
22 47 43
21 47 43
22 47 43
22 48 44
22 49 44
21 47 42
21 47 42
21 46 42
21 47 42
21 46 41
21 46 42
22 47 42
22 47 43
22 48 44
22 49 44
22 49 44
23 49 45
22 49 44
21 46 42
21 45 42
20 45 41
20 45 41
20 45 42
20 45 42
20 45 41
20 45 41
21 47 43
20 45 41
20 45 41
21 46 42
20 45 41
20 45 41
21 46 42
20 45 41
21 46 42
21 46 42
21 47 43
21 46 42
21 46 42
21 47 43
20 45 41
21 46 42
21 46 42
21 46 42
21 46 42
21 46 42
21 46 42
21 46 42
21 46 42
21 47 43
21 47 43
21 46 42
21 47 42
21 46 42
21 46 42
21 46 42
21 46 42
21 46 42
21 47 43
21 47 43
21 47 43
21 47 43
21 47 43
22 48 44
21 47 43
21 46 42
21 47 43
22 48 43
21 46 42
21 47 43
21 46 42
21 46 42
21 47 43
21 46 42
21 47 43
21 47 43
21 46 42
22 49 45
21 47 43
22 48 43
21 47 43
21 47 43
21 47 43
21 47 43
22 48 44
22 48 44
22 48 43
22 49 44
21 46 42
21 47 43
21 47 42
22 48 44
21 47 43
22 48 43
21 47 43
22 48 43
22 48 43
21 47 43
22 49 44
22 48 43
21 47 43
22 48 43
22 48 44
22 48 44
22 47 43
22 48 44
22 47 43
22 48 44
22 48 44
22 47 43
22 48 43
22 47 43
22 48 44
22 48 43
22 48 44
22 48 44
22 48 44
22 48 43
22 48 44
22 49 45
23 49 45
22 48 44
22 48 43
21 46 42
21 46 42
22 48 43
22 48 43
22 49 44
23 49 45
22 48 43
22 49 44
22 48 44
22 49 44
23 49 45
22 48 43
22 47 43
22 48 44
23 49 44
21 46 42
20 45 41
20 45 41
21 46 42
20 45 42
20 45 41
21 46 42
20 45 42
20 44 40
20 44 41
21 46 42
21 46 42
20 45 41
21 47 43
21 46 42
20 45 41
21 46 42
21 46 42
21 45 42
21 46 42
21 47 43
20 45 41
21 47 43
21 46 42
21 46 42
21 46 42
21 46 42
21 46 42
20 45 41
21 46 42
21 46 42
21 46 42
21 47 43
21 46 42
21 46 42
22 48 44
21 47 43
21 47 43
21 46 42
21 47 43
21 47 43
21 47 43
21 46 42
21 46 42
21 47 43
21 47 43
20 45 41
21 47 43
21 46 42
21 47 43
21 46 42
21 46 42
21 47 43
21 47 43
21 47 43
22 48 43
21 47 43
21 47 43
21 47 42
22 48 43
21 47 42
22 48 44
21 46 42
21 47 43
21 47 43
22 48 44
21 47 43
21 46 42
21 46 42
21 47 43
21 47 43
22 48 43
22 49 44
22 48 44
22 48 43
22 48 43
22 49 44
22 48 44
22 48 43
22 48 44
22 48 43
22 48 43
22 48 43
22 48 44
22 48 43
22 48 43
22 48 44
22 48 44
22 48 44
22 47 43
21 47 43
22 49 44
22 48 44
22 48 44
22 48 44
22 48 44
22 48 43
22 48 43
21 47 42
21 47 43
22 48 43
22 48 44
22 49 44
22 49 44
22 47 43
22 48 44
22 49 44
22 49 44
23 50 45
22 49 44
22 48 43
22 48 43
22 49 44
22 48 44
22 49 44
22 48 44
22 48 44
22 48 43
22 48 44
22 48 44
20 45 41
21 46 43
21 47 43
21 46 42
20 45 41
21 46 43
20 45 41
21 46 42
21 46 42
21 46 42
21 47 43
21 46 42
21 47 43
20 44 40
20 45 41
21 46 42
20 44 41
21 45 42
21 45 42
21 46 42
20 45 41
21 47 43
21 46 42
21 47 43
20 45 41
21 47 43
21 46 42
20 45 41
21 47 43
21 46 42
21 46 42
21 47 43
21 46 42
21 46 42
21 46 42
21 47 43
21 47 43
21 47 42
21 46 42
22 47 43
21 45 41
21 46 42
21 47 43
21 46 42
22 48 44
21 46 42
21 46 42
21 47 42
21 46 42
22 48 43
21 46 42
20 45 41
22 47 43
21 47 43
21 47 43
22 48 44
21 46 42
22 48 44
22 47 43
21 46 42
21 47 43
21 47 42
22 48 43
21 46 42
21 47 43
21 45 41
22 48 44
22 48 43
22 48 44
21 47 43
21 47 43
22 48 43
21 46 42
21 47 43
22 48 44
22 48 43
22 48 44
22 48 43
22 47 43
21 47 43
22 48 44
21 47 43
21 46 42
21 47 43
22 48 43
21 47 43
22 47 43
21 47 43
22 49 44
21 47 43
22 48 43
22 48 44
22 48 43
22 48 44
22 49 44
22 48 43
22 47 43
22 49 45
22 48 44
22 48 43
22 48 43
22 48 44
22 48 43
22 47 43
22 48 44
21 47 43
21 47 43
22 49 44
22 48 43
22 48 44
22 48 43
22 48 44
21 47 42
22 49 45
23 49 45
22 49 44
22 48 44
22 49 45
22 49 44
22 48 44
21 47 43
21 46 42
20 45 41
21 47 43
20 45 41
21 46 42
21 46 42
21 45 42
21 46 42
20 44 40
21 47 43
20 44 41
20 45 42
20 45 41
21 47 43
20 45 41
21 46 42
21 46 42
21 46 42
20 45 41
20 45 42
21 46 42
21 46 42
21 46 42
21 46 42
21 46 42
21 46 42
21 45 41
21 46 42
21 46 42
20 45 42
21 45 42
21 46 42
21 46 42
21 47 43
21 47 43
22 48 44
21 47 43
21 47 43
21 46 42
21 46 42
22 48 44
21 46 42
21 47 43
21 47 43
22 48 44
21 47 43
21 45 41
21 47 43
21 46 42
21 46 42
21 47 43
21 47 42
21 46 42
21 47 43
22 48 43
21 47 43
21 46 42
21 47 43
21 46 42
21 46 42
21 47 43
21 47 43
22 47 43
21 47 43
21 47 43
22 48 43
21 46 42
21 47 43
22 48 44
22 48 44
22 48 43
21 46 42
22 48 44
22 48 44
22 47 43
22 48 43
21 47 43
21 47 43
21 47 42
22 48 44
21 47 43
22 48 43
22 48 43
22 48 44
21 47 43
22 47 43
22 47 43
22 48 44
22 49 44
22 48 44
21 47 42
21 47 43
22 48 44
22 48 43
21 47 43
23 49 45
22 48 43
22 48 44
22 48 44
22 49 44
21 47 43
22 49 44
22 47 43
22 48 44
21 46 42
22 48 43
21 47 43
22 48 43
22 49 44
22 48 44
22 49 44
21 47 43
22 49 44
21 47 43
21 47 43
22 48 44
22 47 43
22 48 43
22 48 44
20 45 41
21 46 42
20 45 42
20 45 42
20 45 41
21 46 42
20 44 40
20 44 41
21 47 43
20 45 42
21 45 42
21 46 42
21 45 41
20 45 41
21 46 42
21 46 42
21 47 43
20 45 41
21 46 42
21 46 43
21 46 42
20 45 41
21 46 42
21 46 42
21 46 42
20 45 41
21 47 43
21 46 42
21 47 43
21 46 42
20 45 41
21 47 43
21 46 42
21 47 43
21 46 42
21 47 43
20 45 41
21 47 43
21 47 42
21 46 42
21 46 42
21 47 43
21 47 43
21 46 42
21 46 42
21 46 42
21 46 42
21 46 42
21 46 42
20 45 41
21 47 43
21 46 42
21 47 43
21 47 43
21 46 42
21 45 41
21 46 42
21 46 42
21 47 43
22 47 43
21 47 42
21 47 43
22 47 43
21 47 43
21 47 43
22 48 44
21 47 43
22 48 44
22 48 43
21 47 43
21 47 43
21 47 43
21 47 43
22 47 43
21 46 42
21 47 43
22 48 44
21 47 43
22 49 44
21 47 43
22 48 44
22 47 43
22 47 43
21 47 43
22 47 43
22 49 44
22 48 43
22 48 44
22 48 43
22 48 44
22 48 44
21 47 43
22 48 44
22 48 44
22 48 43
21 47 43
22 49 44
22 48 44
21 47 43
22 48 44
21 47 43
22 47 43
22 47 43
21 47 43
22 48 44
22 47 43
21 47 43
22 48 43
22 49 44
21 47 43
22 48 44
22 49 44
22 48 43
22 48 44
22 48 44
22 48 44
21 47 42
22 49 44
22 48 44
22 49 44
20 45 42
21 46 42
20 45 42
21 46 42
21 47 43
21 47 43
20 44 41
21 46 42
21 45 42
20 45 42
20 45 41
21 46 42
21 46 42
21 46 42
20 45 41
20 45 41
21 46 42
20 45 42
20 45 42
21 47 43
21 46 42
21 46 42
21 46 42
20 45 41
21 46 42
21 46 42
20 45 41
21 46 42
21 46 42
21 46 42
21 46 43
20 45 42
21 47 43
20 44 41
21 46 42
21 47 43
21 47 43
21 47 43
21 46 42
21 46 42
20 45 41
21 46 42
21 46 42
21 47 43
21 46 42
22 48 43
21 46 42
21 46 42
21 46 42
21 47 43
21 47 43
21 46 42
22 48 43
21 47 42
21 46 42
21 45 41
21 46 42
22 48 44
21 46 42
21 46 42
22 48 43
21 47 43
21 47 43
21 46 42
21 47 43
21 47 43
22 48 43
21 47 43
22 47 43
22 48 44
21 47 43
21 47 43
22 48 43
21 47 43
21 46 42
21 46 42
21 47 43
21 47 43
21 47 43
21 47 42
21 47 42
21 46 42
21 47 42
22 48 44
22 48 43
21 47 43
21 46 42
22 48 43
22 48 44
21 47 43
22 48 43
21 47 43
22 47 43
21 46 42
22 48 43
22 48 43
22 48 44
21 47 43
21 47 43
22 49 44
22 48 44
22 48 44
22 48 44
22 49 44
22 48 43
22 48 44
23 49 45
22 49 44
22 48 43
22 49 44
22 49 45
21 47 43
22 49 45
22 49 44
22 48 44
21 47 43
22 48 44
22 48 44
22 47 43
22 48 44
20 44 41
20 45 41
20 45 42
21 46 42
20 45 41
21 46 42
20 45 41
20 45 41
20 45 41
20 45 41
20 44 41
21 46 42
21 46 42
20 45 41
21 46 42
21 47 43
21 45 42
21 45 42
21 46 42
21 46 42
21 46 42
21 46 42
21 46 42
21 46 42
21 46 42
21 46 42
21 47 43
21 46 42
21 46 42
21 46 42
21 47 43
21 47 43
21 47 43
21 46 42
20 45 41
20 45 41
21 46 42
21 46 42
21 46 42
21 46 42
21 46 42
21 46 42
21 47 43
21 47 43
21 46 42
21 46 42
21 46 42
21 47 43
21 46 42
21 46 42
21 47 43
21 46 42
21 47 43
21 46 42
21 47 42
21 46 42
21 46 42
21 46 42
21 46 42
21 46 42
21 47 43
21 47 43
21 47 43
21 46 42
21 47 43
22 47 43
21 47 42
21 46 42
21 47 43
21 47 43
21 47 42
22 48 43
21 46 42
21 46 42
21 47 43
22 48 43
21 47 43
21 47 43
21 47 42
21 47 43
22 48 44
21 47 43
21 47 43
21 47 43
21 47 43
22 48 44
21 47 43
22 48 43
22 49 44
22 47 43
22 48 44
22 48 44
21 47 43
22 48 43
22 48 44
21 47 42
22 48 44
21 46 42
22 47 43
22 49 44
21 46 42
22 48 43
21 46 42
21 46 42
21 47 43
22 47 43
21 47 42
22 48 43
22 48 44
22 48 43
21 47 43
21 47 42
21 46 42
21 46 42
21 47 43
22 48 44
22 48 43
22 48 43
22 47 43
21 47 43
20 45 41
20 45 41
20 45 41
21 46 42
21 46 43
20 44 41
20 45 41
20 45 41
20 45 41
20 45 41
20 45 41
21 46 42
21 47 43
20 45 41
21 46 42
21 46 42
20 45 41
21 46 42
21 46 42
21 46 42
21 46 42
21 46 42
20 45 41
21 47 43
21 46 42
21 45 41
21 47 43
21 46 42
21 46 42
21 46 42
21 47 43
20 44 41
21 46 42
21 47 43
21 47 43
20 45 41
21 46 42
21 45 42
20 45 41
21 47 43
20 45 41
21 46 42
21 45 42
21 46 42
21 46 42
21 46 43
22 48 44
21 47 43
21 46 42
21 47 43
22 48 44
21 46 42
21 47 43
21 46 42
21 47 43
21 47 43
21 46 42
21 45 41
22 48 44
21 46 42
21 46 42
21 46 42
21 47 43
21 46 42
21 47 43
22 48 44
21 46 42
21 47 43
21 46 42
22 48 43
21 47 43
21 46 42
21 47 43
21 47 43
22 48 44
21 46 42
22 48 44
21 46 42
21 47 42
22 47 43
22 48 44
21 47 43
21 47 43
22 48 44
22 48 43
21 47 43
21 46 42
21 47 43
21 47 43
21 47 43
22 48 43
21 47 43
21 46 42
21 47 43
21 47 42
21 46 42
21 47 43
21 46 42
22 47 43
22 49 44
21 46 42
22 47 43
21 47 42
21 47 43
21 47 43
22 48 44
22 48 44
22 49 45
22 47 43
22 47 43
22 48 44
22 49 44
21 47 42
22 48 44
21 47 43
22 49 45
22 49 44
22 47 43
21 47 42
22 48 43
20 45 41
20 45 41
20 45 41
20 44 40
20 45 42
21 46 42
21 46 42
20 45 41
21 46 42
20 45 41
21 46 42
20 45 41
21 46 42
20 45 41
21 46 42
20 45 41
20 45 41
20 45 41
21 46 42
21 46 42
21 47 43
21 46 42
21 46 42
21 46 42
21 46 42
21 47 43
21 46 42
20 45 41
21 47 43
21 46 42
21 46 42
21 46 42
20 45 41
21 46 42
20 45 41
21 46 42
21 46 42
21 47 43
20 45 41
21 46 42
21 46 42
21 47 43
21 47 43
21 47 43
21 47 43
21 47 43
21 47 43
21 46 42
21 46 42
21 47 43
21 47 43
22 48 43
21 46 42
21 46 42
21 46 42
21 46 42
22 48 44
21 46 42
21 46 42
21 47 43
21 46 42
21 46 42
21 46 42
21 46 42
21 45 41
21 46 42
21 45 41
21 46 42
21 46 42
21 47 43
21 47 43
21 46 42
21 47 43
22 48 43
21 46 42
21 47 43
21 47 43
21 47 43
21 46 42
21 47 43
22 48 44
21 47 43
21 47 43
21 46 42
21 47 43
22 47 43
21 47 43
21 47 43
21 46 42
22 48 43
21 47 42
21 46 42
22 48 44
22 48 44
21 47 43
22 48 44
22 48 44
21 47 43
21 46 41
22 48 43
21 47 43
22 48 44
22 48 43
22 47 43
21 47 43
21 47 42
21 46 42
22 48 43
22 48 43
22 47 43
21 47 43
22 48 44
22 47 43
22 48 44
22 48 44
22 49 45
22 47 43
22 48 43
22 47 43
22 48 44
21 46 42
20 45 41
20 45 42
21 46 42
20 45 42
20 44 41
21 46 42
20 45 41
20 45 41
20 45 41
21 47 43
20 44 41
20 44 41
21 46 42
21 46 42
21 46 42
20 44 41
20 45 41
21 46 42
20 45 41
20 45 41
21 46 42
21 46 42
21 46 42
21 46 42
21 45 42
20 45 41
20 45 41
21 46 42
21 46 42
20 45 41
20 45 41
21 46 42
21 47 43
20 44 41
21 46 42
21 46 42
21 47 43
21 46 42
21 46 43
21 47 43
21 47 43
21 46 42
21 46 42
21 46 42
20 45 41
21 46 42
21 46 42
21 46 42
21 46 42
21 47 43
21 46 42
21 46 42
21 46 42
21 47 42
20 45 41
21 46 42
21 47 43
21 46 42
21 47 43
21 47 43
21 47 43
20 45 41
21 47 43
21 47 42
21 46 42
21 46 42
21 46 42
21 47 43
21 46 42
21 46 42
22 47 43
21 46 42
21 47 43
21 46 42
21 47 43
21 47 43
21 47 43
21 45 41
21 47 43
22 48 44
21 47 43
21 46 42
22 48 43
21 47 43
21 47 43
21 47 43
21 47 43
21 47 43
21 46 41
22 48 44
22 47 43
21 47 43
21 46 42
21 47 43
22 49 44
22 48 44
21 47 43
22 47 43
21 47 43
22 47 43
22 48 43
21 47 43
21 46 42
21 47 43
22 48 44
21 47 43
22 48 43
21 47 43
21 47 43
21 47 43
22 47 43
22 48 44
22 48 44
21 47 43
21 47 42
22 48 44
21 47 43
22 48 44
21 47 43
21 46 42
21 46 42
20 45 41
20 45 41
21 46 42
20 45 41
20 45 41
20 45 41
20 44 40
20 45 41
20 45 41
21 46 42
21 46 42
20 44 41
20 45 41
21 46 42
21 46 42
21 46 42
21 47 43
20 45 41
21 46 43
21 47 43
21 46 42
21 47 43
21 47 43
21 46 42
20 45 41
21 46 42
21 47 43
21 46 42
20 45 41
21 47 43
20 45 41
21 46 43
20 45 41
21 46 42
20 45 41
21 46 42
21 47 43
21 47 43
21 45 41
20 45 41
21 47 42
21 46 42
21 46 42
21 46 42
21 46 42
20 45 41
21 46 42
20 45 41
21 47 43
21 46 42
21 46 42
21 46 42
20 45 41
21 46 42
21 46 42
21 46 42
21 45 42
21 47 43
21 46 42
21 47 43
21 46 42
21 45 41
21 46 42
21 46 42
22 48 44
21 45 41
21 47 43
21 47 43
21 46 42
21 46 42
21 45 41
21 47 43
21 47 43
21 47 43
22 48 44
22 48 44
21 47 42
21 47 43
21 47 43
21 47 43
22 48 43
21 47 43
22 47 43
21 46 42
21 46 42
21 46 42
22 48 44
21 47 43
21 47 43
21 46 42
21 46 42
22 48 43
22 48 43
22 48 43
21 47 43
21 47 43
21 47 42
21 47 43
21 47 43
21 47 42
22 48 44
22 48 43
22 47 43
22 48 44
22 47 43
21 47 43
21 46 42
22 49 45
22 47 43
21 46 42
22 48 44
21 47 43
22 48 44
22 47 43
21 47 43
21 47 43
21 47 43
21 46 42
20 45 41
20 45 42
20 44 41
20 45 42
20 45 42
20 45 41
20 45 41
21 46 42
20 45 41
20 44 41
21 46 42
20 45 41
20 45 41
20 45 42
20 45 41
21 46 42
21 46 42
20 45 41
21 46 42
21 46 42
20 45 41
21 46 42
20 45 41
20 45 41
20 44 40
21 46 42
21 46 42
21 46 42
21 46 42
21 46 42
20 45 41
21 46 42
20 45 41
21 45 42
21 46 42
21 46 42
20 45 41
21 46 42
20 45 41
21 46 42
20 44 40
21 46 42
20 45 41
21 46 42
21 46 42
20 45 41
21 46 42
21 46 42
20 45 41
21 45 42
21 47 43
21 47 43
21 47 43
20 45 41
21 46 42
21 46 42
21 46 42
21 46 42
21 46 42
21 46 42
21 47 43
21 46 43
21 46 42
21 46 42
21 46 42
21 47 43
21 47 43
21 46 42
21 47 43
21 47 43
21 46 42
21 47 43
21 47 43
21 46 42
21 47 43
20 45 41
21 47 43
21 47 42
22 47 43
21 46 42
20 45 41
21 46 42
22 48 44
21 46 42
21 46 42
21 46 42
21 46 42
21 46 42
21 45 41
21 46 42
21 46 42
21 47 42
21 47 43
21 47 43
21 47 43
21 47 43
22 48 43
21 47 43
22 48 44
22 47 43
21 47 43
21 46 42
21 47 43
21 47 42
21 46 42
21 46 42
22 48 44
21 47 43
21 47 43
21 47 42
21 46 42
22 49 45
22 48 43
21 47 43
21 47 42
22 48 44
21 47 43
22 48 44
22 48 44
21 47 43
20 44 41
20 44 40
20 45 41
20 45 41
20 45 41
20 44 40
20 45 41
20 44 41
20 44 41
20 45 42
20 45 41
21 46 42
20 44 41
20 45 42
21 46 42
20 45 41
20 45 41
20 45 42
21 46 42
20 45 42
21 45 42
21 47 43
20 45 41
20 45 41
20 44 40
20 45 41
20 45 41
20 45 41
20 45 41
20 45 41
20 45 41
20 45 41
21 46 42
21 46 42
21 46 42
20 45 41
21 46 42
20 45 41
20 45 41
21 46 42
20 45 41
21 47 43
21 46 42
21 46 42
21 46 42
21 47 43
20 45 41
20 45 41
21 46 42
21 46 42
21 46 42
21 46 42
21 47 43
21 46 42
21 47 43
20 45 41
20 45 41
21 46 42
21 45 42
21 46 42
21 47 43
21 46 42
21 46 42
20 45 41
21 46 42
21 47 43
21 46 42
21 46 42
21 46 42
20 45 41
21 46 42
21 47 43
21 46 42
21 47 43
21 46 42
21 46 42
21 46 42
21 46 42
21 46 42
21 47 43
21 47 43
22 48 44
21 46 42
21 47 43
21 47 42
21 46 42
22 48 43
21 47 43
22 47 43
21 46 42
22 49 44
21 47 43
22 48 44
22 48 44
22 48 44
21 47 43
21 47 43
21 47 43
21 47 43
22 48 44
22 47 43
21 47 43
21 46 42
21 47 43
22 48 43
22 47 43
21 47 43
22 48 43
21 47 42
21 47 43
21 47 43
21 47 43
21 47 43
21 46 42
21 46 42
21 47 43
21 45 41
21 47 43
22 48 43
21 46 42
20 45 41
20 44 41
20 45 41
20 44 40
20 44 40
20 45 41
20 45 41
20 45 41
21 45 42
20 45 41
21 46 42
20 44 41
20 44 41
20 45 41
20 45 41
21 46 42
21 46 42
21 46 42
20 45 41
20 45 42
20 45 42
20 44 40
20 45 42
20 45 41
20 45 41
20 45 41
20 45 41
20 45 42
20 45 42
20 45 41
20 45 42
21 46 42
20 45 42
20 44 41
20 45 41
20 45 41
20 45 41
20 44 41
21 45 42
20 45 42
20 45 41
21 47 43
21 46 42
21 47 43
21 46 42
21 47 43
21 46 42
20 45 42
21 46 42
21 46 42
20 45 41
21 46 42
20 45 41
21 45 42
21 46 42
21 46 42
20 45 41
21 46 42
21 47 43
21 47 43
21 47 43
21 46 42
21 46 42
21 46 42
21 46 42
20 45 41
21 46 42
21 47 43
21 46 42
22 48 44
21 47 43
21 46 42
21 47 43
20 45 41
21 47 43
21 47 43
21 47 43
21 47 43
21 47 43
20 44 40
21 47 42
21 46 42
20 45 41
21 47 43
21 47 42
21 45 41
21 47 43
21 47 43
21 47 43
21 47 43
21 45 41
21 46 42
21 46 42
21 46 42
21 47 43
22 48 44
22 47 43
22 47 43
22 48 44
21 45 41
22 48 43
21 46 42
21 47 42
21 47 42
21 46 42
21 47 43
21 47 43
22 47 43
21 47 43
22 47 43
22 48 43
22 48 43
22 47 43
22 48 43
22 48 44
21 47 42
22 48 44
22 49 44
21 46 42
21 46 42
21 46 42
20 45 42
20 45 42
20 45 41
21 46 42
20 45 41
20 45 41
20 45 41
20 44 41
20 46 42
20 44 41
20 45 41
20 45 41
20 45 41
20 45 41
21 46 42
21 46 42
20 45 41
20 45 41
21 46 42
21 46 42
20 45 41
22 48 44
21 46 43
21 46 42
20 45 41
20 45 42
21 45 42
21 46 42
20 45 41
20 45 42
21 46 43
22 48 44
20 45 41
20 45 41
21 45 42
20 45 41
20 45 42
20 45 41
21 46 42
21 46 42
21 46 42
21 46 42
21 46 42
21 46 42
20 45 41
21 46 42
21 47 43
21 46 42
20 45 41
21 45 41
21 45 42
20 45 41
21 47 43
21 47 43
20 45 41
21 46 42
21 46 43
20 45 41
21 45 42
21 46 42
21 46 42
21 46 42
21 47 43
21 46 42
21 46 42
21 46 42
21 45 42
20 45 41
21 46 42
20 44 40
21 47 43
21 46 42
21 46 42
21 46 42
21 47 43
21 45 41
21 47 42
21 45 41
21 47 43
20 45 41
21 46 42
21 46 42
21 46 42
21 47 43
21 46 42
22 48 43
21 47 43
21 45 41
21 46 42
22 48 43
21 47 43
21 46 42
21 47 43
22 47 43
21 46 42
22 47 43
21 47 42
21 47 43
21 47 43
21 47 43
22 47 43
22 47 43
21 46 42
21 47 42
21 46 42
21 47 42
22 47 43
22 47 43
21 46 42
22 47 43
23 49 45
21 46 42
22 47 43
22 47 43
22 47 43
22 47 43
22 48 44
22 47 42
22 48 43
20 45 41
20 44 41
21 46 42
20 45 42
20 44 40
20 44 41
20 45 41
21 46 42
20 45 41
20 44 40
20 45 41
20 45 41
20 45 41
20 44 41
21 46 42
20 44 41
20 45 41
20 45 41
20 45 41
21 46 42
20 45 41
20 45 41
21 46 42
20 45 41
20 45 41
20 45 41
21 46 42
20 45 41
21 47 43
20 45 41
20 45 41
20 45 41
21 46 42
21 46 42
21 47 43
20 45 41
20 45 41
21 46 42
21 46 43
20 45 41
21 46 42
21 46 42
20 45 41
21 46 42
20 45 41
21 46 42
21 46 42
20 44 41
21 47 43
21 46 42
21 46 42
21 46 42
21 46 42
20 45 41
20 45 41
21 47 43
21 47 43
21 46 42
20 45 42
21 47 43
21 47 43
21 46 42
21 48 43
20 45 41
21 45 41
21 46 42
21 47 43
21 47 43
21 47 43
21 46 42
21 46 42
21 46 42
21 46 42
21 46 42
21 45 41
20 45 41
20 45 41
21 46 42
21 46 42
20 45 41
21 45 42
21 47 43
21 47 43
21 46 42
22 47 43
21 47 43
21 46 42
21 47 43
21 45 41
21 47 43
21 46 42
21 46 42
21 46 42
21 47 43
21 46 42
21 46 42
21 46 42
21 46 42
22 48 43
21 46 42
22 48 44
22 48 44
22 47 43
22 47 42
22 47 43
22 48 43
22 47 43
22 47 43
22 47 43
22 47 43
22 47 43
22 48 43
22 47 43
22 46 42
22 48 43
22 48 44
22 47 43
22 47 43
22 47 43
22 47 43
20 45 42
21 46 42
20 44 41
20 45 41
21 46 42
21 46 42
21 46 42
20 45 42
20 45 41
20 45 41
20 45 42
20 45 41
20 45 42
20 45 41
20 45 42
21 46 42
20 45 41
20 44 41
20 45 41
20 44 41
20 45 41
21 46 42
20 44 40
20 45 42
20 44 41
20 45 41
20 44 41
20 45 42
21 47 43
20 45 41
21 46 42
21 46 42
21 46 42
20 45 41
20 44 41
20 44 41
20 45 41
20 45 42
20 45 41
20 45 41
20 45 42
21 46 42
21 46 42
21 46 42
21 46 42
20 45 42
21 46 42
20 45 41
20 45 41
21 46 42
21 47 43
21 46 42
21 46 42
20 45 41
21 46 42
21 46 42
21 45 42
21 46 42
21 46 42
21 46 42
21 47 43
21 46 42
21 46 42
21 46 42
21 46 42
21 45 42
21 46 42
21 46 42
21 47 43
21 47 43
21 47 43
20 45 41
21 46 42
21 46 42
21 47 43
21 46 42
21 46 42
21 47 43
22 47 43
21 47 43
22 48 44
21 46 42
22 48 44
21 47 43
21 47 43
21 47 43
21 46 42
21 46 42
21 46 42
21 46 42
21 46 42
21 46 42
21 46 42
21 46 42
21 46 42
21 46 42
22 47 43
22 47 43
21 46 42
22 47 43
21 46 42
22 48 43
22 48 43
22 46 42
23 48 44
23 48 44
22 46 42
22 46 42
22 46 42
22 47 43
22 47 43
22 48 43
22 47 43
22 47 42
22 47 43
22 47 43
22 47 43
22 47 43
22 46 42
22 47 43
21 46 42
20 45 42
20 44 40
20 45 41
20 45 41
20 45 41
20 44 41
20 45 42
20 46 42
20 44 41
20 44 41
20 45 42
21 45 42
21 46 42
20 45 42
21 46 42
20 45 42
20 45 41
20 45 41
20 44 41
20 43 40
20 45 41
20 45 41
20 45 41
20 45 41
21 46 43
20 44 41
21 46 42
21 46 42
21 46 42
20 45 41
20 44 40
20 45 41
20 45 41
21 46 42
21 46 42
20 45 41
21 46 42
20 45 41
21 45 42
20 45 41
21 46 42
20 44 40
21 46 42
20 45 42
21 46 42
21 46 42
21 46 42
20 45 41
21 46 42
20 45 41
21 46 42
21 46 42
21 46 42
20 45 41
21 46 42
20 44 41
21 46 42
21 46 42
21 46 42
21 46 42
21 46 42
21 46 42
20 45 41
21 46 42
21 46 42
21 46 42
21 47 43
21 46 42
21 47 43
21 47 43
21 47 43
21 46 42
21 47 43
21 46 42
21 45 42
21 46 42
20 45 41
21 47 43
21 46 42
21 47 43
21 46 42
21 46 42
21 47 43
21 46 42
21 46 42
21 47 43
21 47 43
22 47 43
21 47 43
21 47 42
22 47 43
21 46 42
21 46 42
22 47 43
22 46 42
22 47 43
22 48 44
22 47 43
22 47 43
22 46 42
23 48 44
22 47 42
22 47 42
22 47 43
22 47 43
23 48 43
22 46 42
22 47 43
22 47 43
22 46 42
22 46 42
23 47 43
23 48 43
23 47 43
23 48 44
23 47 43
23 48 44
22 46 42
23 47 43
20 45 41
20 45 42
21 46 42
20 45 41
20 44 40
20 45 41
20 45 41
21 46 42
20 45 41
20 45 41
20 45 41
20 45 42
20 45 41
20 44 41
21 46 42
21 46 42
20 45 41
20 45 41
20 44 41
20 45 42
21 46 42
20 45 41
20 45 41
20 44 40
20 44 40
20 45 41
21 46 42
20 45 41
21 46 42
21 46 43
20 45 41
21 46 42
21 46 42
20 45 41
21 46 43
20 45 41
21 46 42
21 46 42
20 45 41
20 45 42
20 44 41
21 46 42
21 46 42
21 47 43
20 45 41
21 46 42
21 46 43
21 47 43
20 45 42
21 45 42
20 45 41
21 46 42
21 47 43
21 47 43
21 46 42
21 46 42
21 46 42
21 46 42
21 46 42
21 46 42
21 47 43
20 45 42
21 46 42
21 46 42
21 46 42
21 46 42
22 48 44
21 47 43
22 48 43
21 46 42
20 45 41
21 46 42
21 47 43
21 46 43
21 46 42
21 47 43
21 45 41
21 46 42
22 47 43
21 46 42
22 48 44
21 47 43
21 46 42
21 46 42
21 46 42
21 46 42
21 47 42
22 47 43
21 45 42
22 47 43
21 45 41
22 46 42
22 47 43
22 46 42
22 48 44
22 46 42
23 48 44
22 47 43
22 47 43
23 48 44
22 45 41
22 46 42
22 47 43
23 47 43
23 48 44
23 47 43
23 47 43
23 47 43
23 47 43
23 48 43
23 48 44
23 48 43
23 48 43
23 48 43
24 49 44
24 48 44
23 47 43
23 48 43
23 48 43
24 48 44
20 44 41
20 45 41
20 45 41
21 46 42
20 45 42
20 44 40
20 44 40
21 46 42
20 43 40
21 47 43
20 45 41
20 45 42
20 44 41
20 45 41
20 44 40
20 45 41
20 45 42
20 44 40
20 45 41
20 45 42
21 46 42
21 46 42
20 45 41
20 45 42
20 45 41
20 45 41
20 45 42
20 43 40
20 45 41
20 45 42
21 45 42
20 45 41
20 45 41
21 46 42
20 45 41
20 45 42
20 45 41
20 45 41
21 46 42
21 47 43
21 46 42
20 45 41
20 45 42
20 45 41
20 44 41
21 46 42
21 46 42
20 45 41
20 44 41
21 46 42
21 46 42
20 45 41
21 46 42
20 45 41
21 45 42
21 46 43
21 46 42
21 46 42
21 47 43
20 45 41
20 45 41
20 45 41
21 46 42
21 46 42
20 45 41
21 45 42
20 45 41
21 47 43
21 45 42
20 45 41
21 46 42
21 46 42
21 46 42
22 48 44
21 45 41
21 45 42
21 46 42
21 47 43
21 47 43
21 45 41
21 45 41
21 46 42
21 46 42
20 44 41
21 46 42
21 46 42
22 47 42
21 46 42
22 48 43
21 45 41
22 47 43
21 46 42
22 46 42
22 47 43
23 48 43
22 46 42
22 46 42
23 47 43
23 48 43
23 47 43
22 46 42
23 48 44
24 49 44
23 47 43
24 48 44
24 48 44
24 47 43
23 47 43
24 47 43
23 47 42
24 48 44
23 46 42
24 48 44
24 48 44
24 47 43
24 47 43
25 49 45
24 48 44
24 48 44
25 49 44
20 45 41
21 46 43
20 45 42
20 44 40
20 43 40
19 43 39
21 46 42
20 44 41
20 45 41
20 45 41
21 46 42
20 45 41
20 45 41
21 46 42
20 45 41
20 45 41
20 45 42
20 45 42
20 45 41
20 44 40
21 46 42
21 46 42
20 45 42
20 45 41
21 47 43
21 47 43
21 46 42
21 46 42
20 45 41
21 46 42
21 46 43
21 46 42
20 45 41
20 44 41
20 45 41
20 44 40
20 44 40
21 46 42
21 46 42
21 46 42
21 46 42
20 45 42
20 44 41
20 45 42
21 46 42
21 46 42
21 46 42
21 46 42
21 46 42
20 45 42
21 46 42
21 47 43
20 44 41
20 45 42
21 46 42
21 47 43
21 46 42
20 45 41
21 46 42
21 45 42
20 45 41
21 46 42
20 45 41
21 46 42
21 46 42
20 44 41
21 45 42
21 46 42
20 45 41
21 46 42
21 46 42
21 46 42
21 46 42
21 46 42
21 45 41
21 45 41
21 47 43
21 45 41
21 46 42
21 46 42
21 46 42
21 46 42
21 45 41
21 46 42
21 46 42
21 46 42
21 45 41
22 46 42
22 47 43
22 47 43
22 46 42
23 47 43
22 46 42
22 46 42
23 47 42
22 46 42
23 46 42
23 47 42
23 46 42
23 46 42
24 47 43
24 48 44
24 48 44
24 47 43
24 46 42
24 47 43
24 46 42
25 48 44
25 48 43
24 47 43
25 47 43
25 48 44
25 47 43
25 48 43
25 49 44
25 48 43
25 49 44
25 47 43
24 46 42
26 49 45
20 45 41
20 44 40
20 44 41
20 44 40
20 44 41
20 44 40
20 44 40
20 45 41
20 45 42
20 45 42
20 45 42
20 45 42
21 46 42
21 47 43
20 44 40
20 44 40
21 46 42
21 47 43
20 45 41
21 46 42
20 45 41
20 43 40
20 45 41
20 44 41
20 45 41
20 45 41
20 45 42
20 45 41
21 46 42
20 45 41
20 45 41
21 46 42
20 45 41
21 46 42
20 45 41
20 45 41
21 46 42
20 45 41
20 45 41
20 45 42
21 46 42
20 45 41
21 46 42
20 45 41
20 45 41
21 46 42
20 45 42
21 47 43
20 45 41
20 44 40
20 45 41
21 45 42
21 46 42
20 45 41
21 46 42
21 46 42
20 44 40
21 46 43
21 45 42
21 46 42
20 45 41
20 45 41
20 45 41
21 46 42
22 48 44
21 46 42
21 45 41
21 46 42
21 47 43
20 45 41
21 46 42
21 46 42
21 47 43
21 47 43
21 46 42
22 47 43
21 46 42
21 46 42
21 45 41
21 46 42
21 46 42
21 46 42
21 46 42
22 46 42
22 46 42
22 46 42
22 46 42
22 46 42
22 46 42
23 48 44
22 47 43
22 46 42
23 48 44
23 48 44
23 47 43
23 46 42
24 48 43
23 47 42
24 46 42
24 47 43
24 46 42
25 48 43
24 47 42
25 47 43
26 49 44
25 47 43
25 47 43
25 48 43
26 48 43
26 47 43
26 49 44
26 48 44
26 48 44
26 49 44
27 49 45
27 50 45
26 48 43
26 48 44
27 50 45
26 48 44
20 45 42
20 45 41
20 45 41
20 44 40
21 46 42
20 45 42
20 44 40
21 46 42
20 44 41
20 44 41
20 45 41
20 45 42
20 45 42
20 45 42
20 44 41
21 46 43
20 45 41
21 46 42
20 44 41
21 46 43
20 45 41
20 45 41
21 46 42
20 45 42
20 45 42
20 45 42
20 45 42
20 45 41
21 46 42
21 46 42
20 45 41
20 45 42
19 43 39
20 45 42
20 44 40
20 45 41
20 44 40
21 46 42
21 46 42
20 45 41
20 44 40
20 45 41
20 44 41
20 45 41
20 45 41
20 45 41
21 46 42
20 44 41
21 46 42
20 45 41
21 46 42
20 45 41
20 45 41
21 46 42
21 46 42
20 45 41
20 45 41
21 46 42
21 46 42
21 46 42
20 45 41
21 46 42
20 45 41
21 47 43
21 46 42
21 46 42
21 47 43
21 47 43
20 45 41
21 46 42
21 46 43
20 45 41
21 47 43
21 46 42
21 45 42
21 46 42
21 45 41
21 46 42
22 47 43
22 47 43
21 46 42
22 46 42
22 47 43
22 46 42
23 48 43
22 46 42
23 48 44
23 47 43
23 46 42
23 47 42
23 46 42
23 46 42
24 49 44
24 47 42
24 47 42
25 49 44
25 48 44
25 48 44
25 49 44
25 46 42
26 48 44
25 47 43
26 48 44
26 49 44
26 47 43
26 48 43
27 50 45
27 49 44
27 49 45
27 49 45
27 49 44
28 49 44
27 48 43
28 49 44
28 49 44
28 48 44
28 50 45
28 50 45
28 49 45
28 49 44
20 45 41
20 45 42
20 44 40
20 45 42
20 45 41
20 44 41
20 45 41
21 46 42
21 46 43
20 45 41
20 45 41
19 43 40
20 45 41
20 44 40
20 45 41
20 44 40
20 44 40
20 45 41
20 44 41
21 46 42
20 45 41
20 45 41
20 45 42
20 45 41
20 44 41
20 45 42
19 43 40
21 46 42
21 46 42
21 46 42
20 44 41
20 45 41
20 44 41
20 44 41
20 43 40
20 44 41
21 46 42
21 46 43
20 45 41
21 46 42
21 46 42
20 45 42
21 46 42
21 46 42
20 44 41
20 45 41
20 45 41
20 44 40
20 45 41
20 45 41
20 44 41
20 45 42
20 44 41
20 45 41
21 46 42
21 46 42
21 47 43
20 45 42
20 45 41
21 47 43
21 46 42
20 44 41
21 46 42
20 45 41
21 46 42
20 44 41
20 44 40
21 46 42
21 46 42
20 44 40
21 45 42
21 46 42
21 45 41
21 46 42
21 46 42
22 46 42
21 45 41
21 46 42
22 46 42
22 47 43
21 44 40
21 45 41
22 47 43
22 46 42
22 46 42
22 46 42
23 46 42
23 47 43
23 46 42
24 48 43
24 47 43
24 48 44
24 46 42
25 48 43
25 48 43
25 49 44
25 47 43
26 48 44
26 49 44
27 49 44
27 49 45
27 48 44
27 49 44
28 50 45
28 50 45
28 49 44
29 50 46
29 51 46
29 49 45
29 50 46
29 49 45
29 50 45
29 49 44
30 50 45
30 50 45
30 50 46
30 50 45
30 50 46
30 51 46
30 50 45
20 45 41
20 45 42
20 44 41
20 44 40
20 44 41
20 45 42
19 43 39
19 43 40
21 46 42
20 45 41
20 45 42
20 45 42
20 45 41
21 46 42
20 45 42
20 45 41
21 46 42
21 46 42
20 44 41
21 46 42
20 45 41
20 45 41
20 45 42
20 45 42
20 45 41
21 46 42
20 45 42
20 44 41
20 45 41
20 45 41
20 45 41
20 45 41
20 44 40
20 45 41
20 43 40
20 44 40
20 45 41
20 45 42
21 46 43
21 46 42
21 46 42
21 46 42
21 46 42
21 46 42
20 45 42
20 44 40
20 45 42
20 45 41
20 45 41
20 44 41
21 45 42
20 44 41
21 46 43
20 45 42
21 45 42
21 46 42
20 45 41
20 45 41
20 45 41
21 47 43
20 45 41
21 45 42
21 45 42
20 45 41
21 46 42
22 47 43
21 45 41
20 45 41
21 46 42
21 45 41
20 44 40
21 47 43
21 45 42
21 45 41
22 46 42
21 46 42
22 47 43
21 46 42
21 45 41
22 46 42
21 45 41
22 47 43
22 46 42
23 46 42
23 46 42
23 47 43
24 47 43
24 48 44
23 46 42
24 47 43
25 48 44
25 48 44
25 48 43
26 49 45
26 47 43
26 48 44
27 49 44
27 49 45
28 50 45
28 48 44
28 50 45
28 48 44
28 48 44
29 50 45
30 51 46
30 50 46
30 50 45
30 49 45
31 50 45
31 51 46
31 50 45
31 51 46
31 50 45
32 51 46
32 51 46
32 50 45
32 52 47
32 51 46
32 51 46
32 51 46
19 43 40
20 45 41
21 46 42
20 43 40
20 44 40
20 44 41
20 45 42
20 44 40
20 45 41
20 45 42
20 44 41
19 43 40
20 45 41
21 46 43
20 45 41
20 45 42
21 46 42
20 45 41
20 44 40
21 46 42
20 44 41
21 46 42
20 45 41
20 45 41
20 45 42
20 45 42
20 45 41
20 45 41
20 45 41
20 45 42
21 46 42
20 44 41
20 45 41
21 46 42
21 46 42
20 45 41
20 45 41
20 45 41
20 44 41
21 46 42
20 44 40
21 46 42
20 45 42
20 45 41
21 46 42
21 46 42
21 46 42
20 45 42
20 45 41
20 45 41
20 45 41
20 45 41
20 45 41
20 45 41
20 44 40
21 47 43
20 45 41
20 44 40
20 44 40
20 44 40
20 45 41
21 46 42
21 45 42
21 45 42
21 47 43
21 46 42
21 47 43
21 46 42
21 45 41
21 46 42
21 45 41
21 46 42
22 47 43
21 46 42
22 46 42
21 45 41
22 48 43
22 47 43
22 45 42
22 46 42
23 47 43
23 46 42
23 46 42
23 45 41
24 47 43
24 47 43
25 48 44
24 47 43
25 48 43
25 47 43
25 46 42
26 49 44
26 47 43
27 48 43
27 48 44
28 49 45
28 49 44
28 49 44
29 50 45
30 51 46
30 50 45
30 50 45
31 51 46
32 52 47
31 50 45
32 51 46
32 52 47
32 51 46
33 53 47
33 52 47
34 52 47
34 52 47
34 53 48
34 53 47
34 52 46
34 52 47
34 52 47
34 52 47
34 52 47
34 52 47
20 45 41
20 44 40
20 44 40
20 45 42
20 45 41
20 45 42
20 45 42
20 45 41
20 44 40
20 45 41
20 45 41
20 45 41
20 45 42
20 45 41
21 46 42
21 46 42
20 45 41
20 44 41
21 46 42
20 44 41
20 45 41
20 45 41
20 45 41
20 45 41
20 44 40
21 45 42
21 46 42
21 46 42
20 44 41
20 45 41
20 44 40
20 45 41
21 46 42
20 45 42
20 44 40
20 44 41
21 46 42
20 45 42
20 45 41
20 44 40
21 46 42
21 46 42
20 45 41
21 46 42
20 44 41
20 45 41
20 45 41
21 46 42
20 45 41
20 44 41
21 45 42
20 44 41
21 46 42
20 45 42
20 44 40
20 45 41
20 45 41
20 45 41
21 47 43
21 45 42
20 45 41
21 47 43
21 46 42
21 45 42
20 45 41
21 45 41
21 45 41
22 47 43
21 46 42
20 44 41
21 44 41
21 45 41
21 46 42
22 47 43
22 47 43
21 45 41
22 47 43
22 46 42
23 47 42
23 46 42
23 48 43
23 46 42
23 46 42
24 47 43
24 47 43
25 48 44
25 46 42
26 49 45
26 48 43
26 47 43
27 48 43
27 48 43
28 49 45
28 48 44
29 50 46
29 49 44
30 49 45
30 49 45
31 50 45
31 51 46
32 50 45
32 51 46
33 52 47
33 52 47
33 51 46
34 52 47
34 52 47
35 53 48
35 53 47
36 53 48
36 53 48
36 53 48
36 53 47
37 54 48
36 52 47
37 53 48
37 54 49
37 54 48
37 54 48
37 54 48
20 44 40
20 45 41
20 45 42
21 46 42
20 45 41
20 45 42
21 46 42
20 44 40
20 44 40
20 45 41
19 43 39
20 45 41
20 45 41
19 43 40
19 43 40
20 45 42
21 46 42
21 46 42
20 44 40
20 44 41
20 44 41
20 44 40
20 46 42
20 44 40
20 45 41
20 44 41
20 45 41
20 45 42
20 44 41
20 44 41
20 45 41
20 44 40
20 45 41
20 44 40
20 45 42
21 46 42
20 45 42
20 45 41
20 44 40
20 45 41
20 45 41
20 44 40
21 46 42
20 45 41
20 45 41
21 46 43
20 44 41
21 45 42
21 46 42
20 45 41
20 45 41
21 47 43
20 45 42
21 47 43
20 45 41
20 45 41
21 46 43
21 46 42
20 44 41
20 45 41
21 45 42
21 45 42
20 45 41
20 44 41
21 46 42
20 44 41
21 45 42
21 45 41
21 45 42
22 47 43
22 46 42
22 47 43
21 45 41
22 47 43
22 46 42
22 46 42
22 46 42
23 47 43
23 46 42
23 46 42
24 48 44
25 48 44
24 48 43
25 47 43
25 48 44
25 47 42
26 47 43
27 50 45
27 48 44
28 49 44
28 49 44
28 49 44
29 50 45
30 50 45
30 50 45
31 49 44
31 50 45
32 51 46
33 52 46
33 51 46
34 51 46
34 52 47
35 53 48
36 53 48
36 53 47
37 55 49
37 54 49
38 54 48
38 55 49
38 54 49
39 55 49
39 55 49
39 55 49
39 55 49
40 55 49
40 56 50
40 56 50
40 56 50
40 55 49
40 55 49
20 44 41
20 45 41
20 44 41
20 44 40
20 45 41
20 44 41
20 44 41
20 44 40
20 44 40
20 44 41
20 45 41
20 45 41
20 45 42
20 44 41
20 44 41
20 46 42
20 44 41
20 44 41
20 45 42
20 45 41
20 45 41
20 45 41
20 45 41
20 45 41
20 44 40
20 45 41
20 45 41
20 44 41
20 45 41
19 43 40
20 44 40
20 45 41
20 44 41
20 44 41
20 45 41
21 46 42
20 43 40
21 46 42
20 44 41
21 47 43
20 45 41
20 45 41
20 44 41
20 45 41
20 45 41
20 45 41
21 46 42
20 45 42
20 45 41
20 45 41
20 45 41
20 44 40
21 46 42
21 46 42
21 46 42
20 45 41
20 44 41
20 44 40
21 46 43
21 47 43
21 45 41
20 45 41
20 45 41
21 45 41
21 47 43
21 46 42
21 46 42
22 47 43
21 45 42
21 45 41
22 46 42
22 46 42
22 46 42
22 46 42
22 46 42
23 47 43
23 47 43
23 46 42
24 47 43
24 46 42
24 47 43
25 47 43
25 48 44
25 47 42
26 48 44
27 48 44
27 48 44
27 48 43
28 49 44
29 50 45
30 50 45
30 50 45
31 50 45
31 50 45
32 51 46
33 52 47
34 54 48
34 53 47
35 53 48
36 53 48
36 53 48
37 53 48
38 55 49
38 54 49
39 54 49
39 55 49
40 56 50
40 55 49
41 57 50
41 57 50
42 57 50
42 57 50
42 57 51
43 58 51
43 57 51
43 58 51
43 58 51
43 59 52
43 57 51
43 57 51
20 45 41
20 44 40
20 44 40
20 44 40
20 45 41
20 44 40
20 45 41
20 44 41
20 44 40
20 44 40
20 45 41
20 44 41
20 45 41
20 45 42
20 46 42
20 46 42
20 44 40
20 45 41
20 44 41
20 44 41
20 45 42
20 44 40
22 48 44
21 46 42
20 45 41
20 45 41
20 45 41
20 45 42
20 45 41
20 44 41
20 44 41
21 46 42
20 45 41
20 45 42
20 45 42
20 45 41
20 45 41
21 46 42
20 45 41
20 44 41
21 46 42
20 45 41
20 45 42
20 45 42
21 46 42
20 45 42
20 45 41
21 46 42
20 44 40
20 44 41
20 45 42
20 44 40
20 45 41
20 44 41
20 44 41
20 44 41
21 47 43
21 45 41
21 45 42
20 45 41
21 46 43
21 45 41
21 45 41
21 45 42
21 45 41
21 45 41
21 45 42
22 46 43
21 45 41
21 45 41
22 46 42
22 46 42
22 46 42
22 46 42
23 46 42
23 47 43
24 48 44
24 46 42
24 47 43
25 47 43
25 48 43
26 48 44
27 49 44
27 48 44
27 48 43
28 48 44
29 50 45
29 49 45
29 49 44
30 50 45
31 51 46
32 51 46
33 52 47
33 51 46
34 52 47
35 54 48
36 53 48
36 53 48
37 54 48
38 55 49
39 55 49
39 55 49
40 56 49
41 56 50
41 56 50
42 58 52
42 56 50
43 58 51
44 58 52
44 58 51
45 59 52
45 58 52
46 59 53
46 60 53
46 60 53
46 60 53
46 59 52
47 61 54
47 60 54
47 60 53
20 44 41
20 45 41
20 45 41
20 46 42
20 44 41
20 44 41
20 45 41
20 45 41
20 44 41
20 44 41
20 44 41
20 44 40
20 45 41
20 44 40
20 45 41
20 44 40
20 44 41
21 46 42
20 45 41
20 45 41
20 45 41
20 44 40
20 44 40
20 44 40
21 46 42
20 45 42
20 45 41
20 45 42
20 44 41
20 45 41
20 44 41
20 45 41
20 45 41
20 45 41
20 45 42
20 45 41
20 45 41
21 46 42
20 43 40
20 43 40
21 46 42
20 44 41
21 46 42
20 45 42
20 45 41
20 45 41
21 46 43
21 47 43
21 47 43
21 46 42
20 45 41
20 44 40
21 46 42
20 44 41
21 46 42
20 44 40
21 46 42
20 45 41
21 45 41
21 46 42
21 46 42
21 45 41
20 44 41
21 45 41
21 46 42
21 46 42
22 47 43
22 46 42
22 46 42
23 48 44
22 45 41
22 45 41
23 46 42
23 46 42
23 46 42
24 47 43
24 47 43
25 48 44
25 47 42
25 46 42
26 47 43
26 47 43
27 48 44
28 49 44
28 49 44
29 49 44
30 49 45
31 50 46
32 51 46
32 52 47
33 50 45
34 51 46
35 52 47
35 53 47
36 53 48
38 55 49
38 53 48
39 56 50
40 56 50
41 56 50
42 57 50
42 57 50
43 57 51
44 58 51
45 59 52
45 58 51
46 59 52
46 59 52
47 60 53
47 59 52
48 61 54
48 61 54
49 61 54
49 62 55
50 62 55
50 62 54
50 62 55
50 62 54
50 62 55
50 61 54
20 45 42
20 45 41
20 45 42
20 44 41
20 44 40
20 45 42
20 44 40
20 44 41
20 45 42
20 45 41
20 45 41
20 44 41
20 45 41
20 44 40
20 43 40
20 44 40
21 46 42
20 45 41
21 46 42
20 44 40
20 44 40
20 45 41
21 46 42
19 43 40
20 44 41
21 46 42
19 43 40
20 45 41
20 44 41
20 44 41
20 45 41
21 46 42
20 44 41
20 45 41
20 45 41
20 45 42
20 45 41
20 44 41
20 45 41
20 45 41
20 45 41
20 44 40
21 46 42
20 45 41
20 45 42
20 44 40
20 44 41
20 45 41
20 44 40
21 46 42
21 46 42
20 45 41
21 46 42
20 45 41
21 46 42
20 44 41
21 45 42
20 44 41
21 46 42
20 45 41
20 44 41
21 45 41
21 46 42
21 45 41
21 45 41
22 46 42
22 46 42
21 45 41
22 47 43
23 48 44
23 46 42
23 46 42
24 48 43
24 47 42
24 47 43
25 47 43
25 48 44
25 47 43
26 48 43
27 48 44
27 49 45
28 48 44
28 48 44
29 49 44
30 49 45
31 50 45
32 51 46
32 50 45
34 53 47
34 52 47
35 52 46
36 53 47
37 53 47
38 54 49
39 54 48
39 54 48
41 56 49
42 57 50
43 58 51
43 57 51
44 59 52
45 59 52
46 59 52
47 60 53
48 61 54
48 61 53
49 62 55
50 62 55
50 62 55
51 63 55
52 63 55
52 64 56
53 63 56
53 63 56
53 63 56
54 65 57
54 64 56
54 64 56
54 64 56
54 65 57
20 45 41
20 44 40
20 44 41
20 43 40
20 44 40
20 45 42
20 45 41
20 45 41
21 46 42
20 44 40
20 43 40
20 45 42
20 44 41
20 45 42
20 45 41
21 46 42
20 45 41
20 44 40
21 46 42
20 45 41
20 45 41
20 44 41
20 44 40
20 44 41
20 45 42
20 44 41
20 45 41
20 45 41
20 45 42
20 45 41
20 44 41
20 45 41
20 45 41
20 45 42
20 45 41
20 45 41
20 45 41
20 44 41
20 44 40
20 46 42
20 45 41
20 46 42
20 45 42
20 45 41
21 46 42
20 45 41
20 44 40
21 46 42
21 46 43
20 44 40
20 44 41
21 46 43
21 46 43
20 45 41
21 46 42
20 45 41
21 46 42
20 45 41
21 45 42
20 44 41
21 45 41
21 45 41
21 46 42
21 45 41
22 47 43
22 45 42
21 45 41
22 47 43
22 45 41
23 48 44
23 47 43
23 47 43
23 46 42
24 47 43
25 47 43
26 48 44
25 46 42
26 47 43
27 48 44
27 47 43
28 49 44
29 48 44
30 51 46
31 50 45
31 50 45
32 50 46
33 51 46
34 52 47
35 53 48
36 52 47
37 54 49
38 54 48
39 55 49
40 55 49
41 55 49
43 58 51
43 57 50
44 58 52
46 59 52
46 59 52
47 60 53
48 61 54
49 61 54
50 61 54
51 63 56
52 64 56
53 63 56
53 64 57
54 66 58
55 66 58
55 66 58
56 67 59
56 67 58
57 67 59
57 66 58
57 67 59
57 67 58
58 68 59
58 67 59
58 68 59
20 44 41
20 44 40
20 45 41
20 45 42
20 44 41
20 45 42
20 45 41
20 45 41
20 44 41
20 44 40
20 44 40
20 44 41
20 44 40
20 44 40
20 44 41
21 46 42
20 45 41
20 45 41
20 44 40
21 46 42
20 44 41
20 44 41
21 46 42
20 45 41
20 44 40
20 44 40
21 46 42
20 45 41
20 44 40
21 46 42
21 46 42
20 45 41
19 43 39
20 44 41
20 44 41
20 44 41
20 45 41
20 44 40
21 46 42
20 44 41
21 46 42
21 46 43
20 45 41
20 45 41
21 46 42
20 44 41
20 44 41
20 45 41
20 45 41
20 45 41
21 46 42
20 45 41
20 44 40
21 47 43
21 45 42
20 44 41
20 45 41
20 44 41
21 45 42
21 44 41
21 46 42
21 46 42
21 45 41
22 46 43
22 47 43
22 46 42
22 46 42
23 46 43
23 46 42
24 48 44
24 47 43
24 46 42
24 47 43
24 46 42
25 47 43
26 47 42
27 49 45
27 48 43
28 48 43
29 48 44
30 50 45
30 50 45
31 49 44
32 51 46
33 51 46
34 52 47
35 52 46
36 53 48
37 53 48
38 54 48
40 56 50
41 56 50
42 56 50
43 57 51
44 58 52
45 59 52
46 60 53
47 60 53
49 61 54
50 62 55
51 62 55
52 63 56
53 65 57
54 64 56
55 65 57
56 66 58
56 66 58
57 67 59
58 67 59
59 69 60
59 69 61
60 69 60
60 70 61
61 69 60
61 70 61
61 70 61
62 71 62
62 70 61
62 70 61
62 71 62
20 45 42
20 44 41
21 46 42
20 44 41
20 44 41
20 44 41
20 45 41
20 44 40
21 46 42
20 45 41
20 45 41
20 45 41
20 44 41
20 45 41
20 45 42
20 44 40
20 44 40
20 44 40
21 46 42
20 45 41
21 46 42
20 44 40
20 45 41
21 46 42
20 45 41
20 44 41
20 45 41
19 43 40
20 45 41
20 45 41
20 43 40
20 44 41
20 45 41
20 45 41
21 46 42
21 46 42
20 44 40
20 44 41
21 46 42
21 46 42
20 45 41
21 47 43
20 44 41
21 46 42
20 44 40
21 46 42
20 45 41
20 45 42
20 45 41
20 45 41
21 47 43
21 46 42
20 45 41
21 46 42
20 44 41
22 47 44
21 46 42
21 45 41
21 46 43
21 46 42
21 45 41
21 46 42
21 44 41
22 46 42
22 45 41
22 46 42
23 46 42
23 46 42
24 47 43
24 48 43
25 48 43
25 47 43
25 47 43
25 47 42
27 49 44
27 49 44
27 48 43
28 48 44
30 50 45
31 52 47
30 49 44
32 50 46
33 51 46
34 51 46
35 53 47
36 53 48
37 54 48
38 54 48
40 55 49
41 55 50
42 58 52
44 59 52
44 58 51
45 58 52
47 60 53
48 61 54
49 61 54
50 62 55
52 64 57
53 63 56
54 65 57
55 66 58
56 67 58
57 67 59
58 67 58
59 68 59
60 69 60
61 70 61
62 71 62
63 71 62
63 72 63
64 73 63
64 72 63
65 72 63
65 74 65
65 73 63
66 73 64
66 73 64
66 74 64
66 74 64
20 44 40
20 44 41
20 45 42
20 44 40
20 44 41
19 43 39
20 45 41
20 44 40
20 45 41
20 46 42
20 45 42
20 45 41
20 44 40
20 44 40
20 44 41
20 45 41
20 45 41
20 44 40
21 46 42
20 44 40
20 44 40
20 45 41
20 45 41
20 45 41
20 44 41
20 44 40
20 45 41
21 46 42
20 45 41
20 46 42
20 44 41
20 44 40
20 45 41
20 44 40
20 44 41
20 44 40
20 44 41
20 45 42
20 45 41
20 45 42
20 44 40
20 45 41
20 44 41
20 44 41
21 45 42
21 46 42
20 44 41
20 45 42
20 44 41
20 44 41
20 44 40
21 45 42
21 45 42
20 43 40
20 45 41
20 44 41
21 46 42
21 46 42
21 46 42
22 46 42
21 45 41
21 45 41
22 46 42
22 45 42
22 45 41
23 45 41
23 47 43
23 46 42
23 45 41
25 47 43
24 46 41
25 47 43
25 46 42
27 48 44
27 48 43
28 48 44
29 49 44
30 50 45
31 51 46
32 50 46
33 52 47
34 52 47
34 51 46
36 53 47
37 54 49
38 54 49
39 55 49
40 56 50
42 57 51
43 58 51
44 58 52
46 59 52
47 60 53
48 61 54
50 62 54
51 63 55
52 64 56
54 65 57
55 65 57
56 66 58
57 67 58
59 68 60
60 69 61
61 70 61
62 70 62
63 71 62
64 72 63
65 73 63
66 74 64
66 73 63
67 74 64
68 75 65
68 76 66
69 76 65
69 76 66
70 77 67
70 76 66
70 77 67
71 78 67
70 77 66
20 44 41
20 44 40
20 44 40
20 44 40
20 44 40
20 44 41
20 44 40
20 45 41
20 45 42
20 45 41
20 45 42
20 44 41
20 45 41
20 45 42
21 46 42
20 45 41
20 44 41
20 44 41
20 45 41
19 43 39
20 44 40
20 45 42
20 45 41
19 43 40
20 45 41
20 44 41
20 44 41
20 44 41
20 44 40
20 45 41
20 45 42
21 46 42
20 44 40
20 44 40
20 44 41
20 45 41
20 44 41
20 45 41
20 43 40
20 44 40
20 44 41
20 44 41
20 45 41
20 44 41
20 44 41
20 44 41
20 44 41
20 44 40
20 45 41
20 45 41
20 45 41
21 46 42
21 45 42
20 45 41
20 44 40
21 46 42
21 46 42
21 45 41
21 45 41
22 46 42
22 46 42
22 45 41
22 45 41
23 46 42
23 46 42
23 46 42
24 47 43
24 45 42
24 46 42
25 46 42
26 47 43
26 47 43
27 47 43
27 47 43
28 49 45
29 49 44
30 50 45
31 50 45
32 51 46
33 51 46
34 52 47
35 52 47
36 53 47
37 53 47
39 54 49
40 55 49
42 57 50
43 57 51
44 57 50
46 59 52
47 60 53
48 60 53
50 61 54
51 63 55
53 64 56
54 65 57
55 66 58
57 66 58
58 67 59
59 68 60
61 70 61
62 70 61
64 72 63
65 72 63
66 74 64
67 75 65
68 75 65
69 75 66
70 76 66
71 77 67
71 78 67
72 78 68
73 80 69
73 79 68
74 79 68
74 80 69
75 81 70
75 81 70
75 81 70
75 81 70
19 43 39
20 44 40
20 45 41
20 45 42
20 43 40
20 45 41
20 45 41
20 44 41
20 44 41
19 42 39
20 45 41
20 44 40
20 45 42
20 45 41
20 43 40
19 43 40
20 44 40
20 44 40
20 45 41
19 43 40
19 43 39
20 44 40
20 44 41
20 44 41
20 45 41
20 44 41
20 44 41
20 44 41
20 45 42
20 44 40
20 45 41
20 44 40
20 45 41
20 44 41
20 45 41
20 45 41
20 45 41
20 44 40
20 45 41
20 44 41
20 45 41
20 44 41
20 44 41
20 45 41
20 45 41
20 45 42
20 44 41
20 44 40
20 44 41
20 43 40
21 46 42
21 45 42
21 46 43
22 47 43
21 45 42
21 45 41
21 44 41
21 45 41
22 46 42
22 46 42
21 44 40
22 46 42
22 46 42
23 47 43
24 47 43
24 47 43
24 47 43
25 47 43
26 48 44
25 46 42
26 48 43
27 48 44
28 49 44
28 48 43
29 48 44
30 49 44
32 52 47
32 51 46
34 52 46
35 52 47
36 54 48
37 53 47
38 53 48
40 55 49
41 55 49
42 57 50
44 58 52
45 59 53
47 60 53
48 60 53
50 62 54
51 62 54
53 64 56
54 65 57
56 66 58
57 67 59
59 68 60
60 69 61
62 70 61
63 72 62
64 72 63
66 74 64
67 74 65
68 75 65
70 76 66
71 77 67
72 78 67
73 79 68
74 80 69
75 80 70
76 82 71
76 81 70
77 82 71
78 82 71
78 83 72
79 83 72
79 83 71
79 84 73
80 85 74
79 83 72
20 45 42
20 44 41
20 45 41
21 46 42
20 45 41
20 44 41
19 42 39
20 45 41
20 44 40
20 44 40
20 44 40
19 44 40
20 44 41
21 46 42
20 45 41
20 44 41
20 44 40
20 44 40
20 44 41
20 44 40
20 44 41
19 43 39
20 44 40
20 44 40
20 44 41
20 44 40
19 43 39
20 45 41
19 43 39
20 46 42
20 44 40
20 44 40
20 44 41
19 43 40
19 43 40
20 45 41
20 45 42
20 46 42
19 43 40
20 44 41
21 46 42
20 45 41
20 45 42
20 44 41
21 46 42
21 45 42
20 44 41
21 46 42
20 44 41
21 45 42
20 43 39
20 45 41
20 44 41
21 46 42
21 46 42
21 45 41
21 45 41
21 45 42
21 45 41
21 44 41
22 45 41
22 45 41
23 46 42
23 47 43
24 47 43
25 48 44
24 46 42
25 47 43
26 48 44
26 47 43
27 48 44
28 48 44
28 48 43
30 49 45
31 49 45
32 50 45
32 50 45
34 51 46
35 52 47
36 53 47
38 54 48
39 55 49
40 53 48
42 56 50
43 57 51
45 58 51
46 60 53
48 60 53
49 61 54
51 62 55
53 64 56
54 65 57
56 66 58
57 68 60
59 69 60
61 70 61
62 71 62
64 71 62
65 73 64
67 74 64
68 74 64
69 76 66
71 78 67
72 78 68
74 80 69
75 80 69
76 82 71
77 82 71
78 83 72
79 83 72
80 85 74
81 85 73
81 86 74
82 87 75
83 87 75
83 87 75
83 87 75
84 88 76
84 88 75
84 88 75
20 44 40
20 44 41
21 46 42
19 43 40
20 44 41
20 44 40
20 44 40
20 45 41
20 44 41
20 44 40
20 44 41
19 43 40
20 44 41
20 44 40
20 44 41
19 43 40
20 44 41
19 43 40
20 45 41
20 45 41
20 44 40
20 44 40
20 45 41
20 45 41
20 44 41
20 45 41
20 45 41
20 44 41
20 44 41
20 44 41
20 44 41
20 45 41
20 45 41
20 45 42
20 45 41
20 44 41
20 45 41
19 43 40
20 45 41
20 44 41
20 45 42
20 44 41
20 45 41
20 45 41
20 45 41
20 45 41
21 45 42
21 46 42
20 44 41
21 45 41
21 45 41
21 46 42
21 44 41
22 47 43
21 44 41
21 44 41
22 46 43
22 45 41
21 45 41
22 46 42
22 45 42
22 45 41
23 46 42
24 46 42
24 46 42
25 47 43
25 47 43
26 46 42
26 46 42
27 46 42
28 48 44
29 49 44
29 48 43
31 50 45
32 50 45
33 51 46
34 51 46
35 52 46
37 54 48
38 54 48
39 55 49
41 57 51
42 56 50
44 59 52
46 59 53
47 60 53
48 60 53
50 62 55
52 63 56
53 64 56
55 65 57
57 66 58
59 69 60
60 68 59
62 70 61
64 72 63
66 73 64
67 74 64
69 75 65
70 76 66
72 78 67
74 79 69
75 81 70
77 83 72
78 83 72
79 84 72
80 84 72
81 86 74
82 86 74
84 88 75
84 88 76
85 89 76
86 89 77
87 91 78
87 90 77
88 91 78
88 91 78
88 91 78
88 91 78
88 91 78
20 45 41
20 44 40
20 44 40
20 44 40
20 44 40
19 42 39
19 43 40
20 45 41
20 44 40
20 44 40
20 45 41
20 44 40
20 44 40
20 45 42
20 45 41
20 45 42
20 45 41
20 44 41
19 43 40
20 45 42
20 44 41
21 46 42
20 44 40
20 44 41
20 45 41
20 44 40
20 45 42
20 45 41
20 44 41
20 45 42
20 45 41
21 46 42
20 45 41
20 44 40
20 45 42
20 45 41
20 44 41
21 46 42
20 44 41
20 44 40
20 43 40
20 45 41
20 45 41
21 45 42
20 45 41
19 42 39
20 44 41
20 43 40
21 46 42
21 45 42
20 44 41
21 45 41
21 45 41
21 46 42
21 44 41
21 45 41
22 46 42
22 45 41
22 45 41
23 46 42
23 46 42
23 46 42
24 47 43
24 47 43
25 47 43
25 47 43
26 48 44
27 49 44
27 48 44
28 49 44
29 48 44
30 48 43
31 49 44
32 51 46
33 51 46
35 52 47
36 53 47
37 53 48
38 53 48
40 54 49
41 56 49
43 57 51
44 57 51
46 59 52
48 60 53
49 60 53
51 63 56
53 64 56
55 65 57
56 65 57
58 67 59
60 70 61
62 69 60
64 72 63
65 72 63
67 74 64
69 75 65
71 78 68
72 79 68
74 79 68
76 80 69
77 82 71
79 84 72
80 85 73
82 86 74
83 88 75
84 88 75
86 89 77
87 90 78
88 91 78
89 92 79
90 93 80
91 93 80
91 93 80
92 94 80
92 94 81
93 95 81
93 96 82
93 95 81
93 95 81
20 44 40
20 45 41
19 43 39
19 43 40
20 44 41
20 46 42
20 44 40
20 44 41
19 42 39
19 43 40
19 43 40
19 43 40
20 45 42
19 43 40
20 44 40
20 44 41
20 45 41
20 45 42
20 44 40
20 45 41
19 43 40
20 45 41
19 43 39
21 46 42
21 47 43
20 44 41
20 45 41
20 44 40
20 45 41
21 46 42
21 46 42
20 45 41
20 44 40
20 43 40
20 45 41
20 45 42
20 44 41
20 44 40
20 44 41
19 43 40
20 43 40
20 45 41
21 46 42
20 45 41
20 45 41
20 45 41
21 45 42
20 44 40
21 45 41
21 45 41
21 46 42
21 45 41
21 46 42
21 45 42
22 45 42
21 44 40
22 45 41
22 45 42
23 47 43
22 45 41
24 47 43
24 46 42
24 46 42
24 46 42
25 46 42
26 47 43
27 48 43
28 48 44
28 47 43
29 48 43
30 49 44
31 49 45
33 51 46
33 50 45
34 51 45
36 53 47
37 54 48
39 54 49
40 55 49
42 56 50
43 58 51
45 58 51
47 60 53
49 61 54
50 62 55
52 63 55
54 65 57
56 66 58
57 67 58
59 69 60
61 70 61
63 71 62
65 73 64
67 74 64
69 75 65
71 77 67
73 78 68
74 79 69
76 80 69
78 82 71
80 85 73
81 85 74
83 87 75
84 88 76
86 89 76
87 90 78
89 92 79
90 93 80
91 94 80
92 95 81
93 95 81
94 96 83
95 97 83
96 97 83
96 97 83
97 98 84
97 98 84
98 98 84
98 98 84
98 100 85
20 45 42
19 43 39
20 44 41
20 44 41
20 44 40
20 44 41
19 43 40
19 43 40
20 45 41
20 45 41
19 43 40
20 45 42
19 43 40
20 44 41
20 44 41
20 44 40
20 44 41
20 44 41
20 44 41
20 45 41
20 45 42
19 43 40
19 43 40
19 42 39
20 45 41
20 45 42
20 45 42
20 44 40
20 44 41
20 44 40
20 45 41
20 44 40
21 46 42
20 44 40
20 44 40
20 45 42
20 44 40
20 45 41
20 45 41
21 46 42
20 44 40
20 45 41
20 44 41
20 43 40
21 45 42
20 43 40
20 44 41
20 44 40
21 45 42
20 44 40
21 44 41
21 45 42
21 45 42
21 45 41
21 45 41
21 45 41
22 45 41
23 46 42
23 47 43
23 46 42
23 45 42
24 47 43
25 47 43
25 47 43
26 47 43
26 46 42
28 49 45
28 48 44
29 49 44
30 49 45
31 50 45
32 50 45
33 51 45
35 53 48
36 53 47
38 54 48
39 54 48
41 56 50
42 57 50
44 58 52
45 58 51
47 60 53
49 62 54
51 62 54
52 63 55
54 65 57
56 66 58
58 68 59
60 69 60
62 71 62
64 72 63
66 73 64
68 75 65
70 76 66
72 78 68
74 79 68
76 81 70
78 83 72
80 84 73
82 86 74
84 88 75
85 89 76
87 90 77
89 91 79
90 92 79
92 95 82
93 95 82
94 96 82
95 97 83
97 98 84
98 99 84
99 100 85
100 100 86
100 101 87
101 101 87
102 103 88
102 102 87
102 103 88
103 103 88
103 103 88
19 43 39
20 44 41
20 45 41
20 44 41
21 46 42
21 46 43
20 44 41
20 45 41
20 44 41
20 44 41
20 45 41
20 44 40
20 44 40
20 45 41
20 44 41
20 45 41
20 44 40
20 44 41
20 45 42
21 46 42
20 44 40
20 45 41
19 42 39
19 43 40
20 44 40
19 43 40
20 44 40
20 44 40
20 44 40
20 44 41
20 44 41
21 46 42
20 45 41
20 45 42
19 43 40
19 43 39
20 44 41
19 43 40
20 45 41
19 43 39
20 44 40
20 45 41
21 45 42
20 44 40
20 45 41
21 45 42
21 45 41
20 45 41
21 45 41
21 45 41
21 45 41
21 44 40
21 45 42
22 46 42
22 46 42
22 46 42
22 45 41
23 45 42
23 46 42
24 46 42
24 46 42
24 46 42
25 47 43
26 48 44
27 48 43
27 46 42
28 48 43
29 48 44
30 49 44
32 51 46
33 51 46
34 52 47
35 52 47
36 53 47
38 54 48
39 55 50
41 56 50
42 56 50
44 58 51
45 58 51
47 60 53
49 61 54
51 62 55
53 64 56
55 65 57
57 67 58
59 67 59
61 69 60
63 71 62
65 74 64
67 74 64
69 76 66
71 77 67
73 79 68
75 81 70
77 82 70
80 85 73
81 86 74
83 87 75
86 90 78
87 90 77
89 92 79
91 94 80
93 94 81
94 96 83
96 97 83
97 98 84
98 99 85
100 101 87
101 102 87
102 103 88
103 104 89
104 104 89
105 105 89
106 106 90
106 106 90
107 106 91
107 107 91
107 107 91
107 107 92
