P3
120 80
255
18 40 38
18 41 38
18 40 38
18 41 38
18 40 37
18 41 38
18 42 39
18 41 39
18 41 38
18 42 39
18 41 38
18 41 39
19 42 39
18 42 39
18 40 37
18 41 38
18 42 39
18 42 39
18 41 38
18 40 37
18 40 38
18 41 39
18 40 38
19 42 39
18 40 38
18 42 39
18 41 38
18 41 39
18 41 38
18 41 38
18 40 38
18 41 38
18 41 38
18 41 38
18 41 39
18 41 38
18 41 39
18 41 38
18 40 37
19 42 39
18 41 39
18 41 38
18 41 39
18 41 39
18 41 38
18 41 38
18 40 38
18 42 39
18 41 38
19 43 40
19 42 39
19 42 39
18 41 38
18 41 38
19 42 39
19 42 39
18 41 39
19 42 39
18 42 39
19 42 39
19 42 39
18 42 39
19 43 40
18 40 37
18 41 38
19 42 39
19 42 39
18 41 38
18 41 39
18 41 38
19 42 39
18 41 38
19 42 39
19 43 40
18 42 39
19 42 39
18 42 39
19 42 39
19 42 39
18 41 39
19 42 39
18 42 39
18 41 38
19 42 39
19 43 40
19 43 40
18 41 39
19 42 39
18 41 39
19 42 39
18 41 38
18 42 39
19 42 39
19 42 39
19 42 39
19 42 39
19 42 39
19 43 40
19 42 39
19 43 40
19 42 39
19 43 40
19 43 40
19 43 40
18 42 39
18 41 38
19 42 39
19 43 40
19 42 39
19 42 39
18 42 39
19 42 40
18 42 39
18 41 38
18 41 38
19 43 40
18 41 38
19 42 39
18 41 38
19 43 40
18 41 38
18 41 38
18 40 37
18 41 38
18 41 38
18 41 38
18 40 38
18 41 38
18 41 38
18 41 38
18 41 38
18 41 38
18 42 39
18 41 38
18 42 39
18 41 38
18 41 38
19 42 40
18 42 39
18 41 38
18 41 39
18 41 38
18 42 39
19 43 40
18 41 38
18 41 38
18 41 39
18 41 39
18 41 38
19 42 39
18 41 39
19 42 39
18 41 38
18 41 38
19 42 39
18 41 38
19 42 39
19 42 39
18 41 38
19 42 39
19 42 39
18 41 38
19 42 39
19 42 40
19 42 39
18 41 38
19 42 39
19 43 40
18 41 38
19 42 39
19 42 39
18 41 38
19 42 39
19 42 39
19 42 39
19 43 40
19 43 40
19 43 40
19 42 39
18 41 38
19 43 40
19 43 40
19 43 40
19 42 39
19 42 39
19 42 39
19 42 39
19 43 40
19 42 39
19 43 40
19 42 39
19 42 39
18 41 38
18 41 38
19 43 40
19 43 39
19 43 40
19 43 40
19 42 39
19 43 40
19 43 40
19 42 39
19 43 40
18 41 38
19 42 39
19 42 39
19 43 40
18 41 38
19 42 39
19 43 40
19 42 39
19 42 39
19 43 40
19 42 39
19 42 39
19 42 39
19 43 40
19 43 40
19 43 40
19 42 39
18 41 38
19 42 39
19 42 39
19 42 39
19 43 40
19 42 39
19 42 39
19 43 40
18 41 38
19 42 39
19 42 39
19 42 39
19 43 40
19 42 39
18 41 38
18 41 38
19 42 39
19 43 40
19 42 39
19 42 39
18 40 38
18 41 38
18 41 38
18 41 38
18 40 38
19 42 39
18 41 38
18 41 38
18 41 38
18 41 38
18 41 38
18 41 39
18 41 38
18 41 38
18 41 38
18 41 38
18 41 38
18 41 38
18 40 38
19 42 39
18 41 38
18 41 38
18 41 38
19 42 39
18 41 38
18 41 38
18 41 38
19 43 40
18 41 38
18 41 38
18 40 37
18 42 39
19 42 39
18 42 39
18 41 38
19 43 40
19 42 39
19 42 39
19 42 39
19 42 39
19 43 40
19 42 39
19 42 39
19 42 39
18 41 38
19 42 39
19 42 39
19 43 40
19 42 39
19 43 40
19 43 40
19 42 39
18 42 39
19 42 39
19 42 39
19 42 39
19 42 39
19 42 39
18 41 38
19 42 39
19 43 40
19 43 40
18 41 38
19 42 39
19 42 39
19 42 39
19 42 39
19 43 40
19 43 40
18 41 38
18 41 38
19 42 39
20 44 40
19 43 39
19 42 39
19 43 40
19 42 39
19 42 39
19 42 39
19 43 40
19 43 40
19 42 39
19 43 40
19 42 39
19 42 39
19 43 40
20 44 41
18 41 38
19 42 39
19 43 40
19 43 39
19 43 40
19 42 39
19 42 39
19 43 40
19 43 40
19 43 40
19 42 39
19 42 39
20 44 41
19 42 39
19 42 39
19 42 39
19 42 39
19 43 40
19 43 40
19 42 39
19 42 39
19 43 39
19 43 40
19 43 40
19 44 40
19 42 39
19 43 40
19 42 39
19 43 40
19 42 39
19 42 39
19 42 39
19 43 39
19 42 39
18 41 39
18 42 39
18 41 38
18 41 38
19 42 39
19 42 39
18 42 39
18 41 38
19 43 40
18 41 38
18 40 38
19 42 39
19 42 39
18 41 38
18 41 39
19 42 39
19 42 39
18 41 38
19 42 39
19 42 39
18 41 38
19 42 39
18 41 39
19 42 39
19 43 40
18 41 38
19 42 39
19 42 39
18 41 38
19 42 39
19 42 40
19 42 39
18 41 38
19 42 39
18 41 38
19 43 40
19 42 39
19 42 39
18 41 38
19 43 40
19 42 39
20 44 41
19 42 39
19 42 39
19 43 39
19 42 39
19 43 40
19 43 40
19 43 40
19 43 39
19 43 40
19 43 40
19 42 39
19 42 39
19 42 39
18 41 38
19 43 40
19 43 40
19 42 39
19 42 39
19 43 40
19 43 39
19 43 40
19 43 40
19 43 40
19 42 39
19 42 39
19 42 39
19 43 40
19 43 40
18 42 39
19 42 39
19 43 40
19 43 40
19 43 40
19 43 40
19 43 39
19 43 40
19 42 39
19 43 40
19 43 39
19 43 40
19 42 39
19 42 39
19 43 39
19 42 39
19 42 39
19 42 39
20 44 41
19 43 39
19 43 40
19 43 40
19 43 40
19 44 40
19 42 39
19 43 39
19 43 40
19 42 39
19 43 40
20 44 40
19 44 40
19 43 40
19 43 40
19 43 40
19 42 39
19 43 40
20 44 41
20 44 40
20 44 41
19 43 40
19 43 40
20 44 40
19 43 39
19 43 40
19 42 39
19 43 40
19 43 40
19 43 39
19 43 40
18 41 38
18 41 38
18 40 37
18 42 39
18 41 38
19 42 39
19 42 39
19 43 40
18 41 39
19 42 39
18 41 38
19 42 39
18 42 39
19 43 40
18 41 38
19 42 39
19 42 39
18 41 38
19 43 40
19 43 40
19 42 39
19 43 40
18 41 38
19 42 39
18 40 37
19 42 39
18 42 38
19 42 39
19 42 39
19 43 40
19 42 39
18 41 38
19 43 40
19 42 39
19 43 40
19 42 39
19 43 39
19 43 40
19 43 40
19 42 39
18 41 38
18 41 38
20 44 41
19 43 39
19 42 39
19 43 40
19 42 39
19 43 40
19 43 40
19 43 39
19 43 40
19 43 40
19 44 40
19 42 39
19 42 39
19 43 40
19 43 40
19 43 39
19 43 40
19 44 40
19 43 40
20 44 40
19 42 39
19 43 40
19 43 40
19 42 39
19 43 39
19 43 40
19 43 40
19 43 40
19 43 40
19 42 39
19 42 39
19 43 39
19 43 40
19 43 40
20 44 41
19 43 40
19 43 40
19 42 39
19 43 40
19 43 39
19 43 40
19 43 40
19 43 40
19 43 40
19 43 40
20 44 40
19 43 40
20 44 41
19 43 39
19 43 40
20 44 40
19 43 40
19 43 39
19 43 40
19 44 40
20 44 40
19 43 40
20 44 40
20 44 41
20 45 42
20 45 41
19 44 40
19 43 40
20 44 41
20 44 41
19 43 39
19 43 40
19 43 39
20 44 40
20 45 41
19 43 39
19 43 40
20 44 40
19 43 40
19 43 40
20 44 41
19 43 40
20 44 40
19 42 40
19 42 39
18 41 38
18 42 39
19 42 39
18 41 39
19 42 39
19 42 39
19 42 39
19 43 40
18 41 38
18 41 38
19 42 39
19 42 39
19 42 39
19 43 40
19 42 39
19 43 40
19 42 39
18 41 38
19 43 40
19 42 39
19 42 39
18 42 39
19 42 39
18 41 38
19 42 39
19 42 39
18 41 38
19 43 40
19 43 40
19 42 39
19 42 39
18 41 38
19 42 39
19 42 39
19 43 40
19 43 40
19 42 39
19 43 40
19 42 39
19 43 40
19 42 39
19 43 39
19 42 39
19 43 40
19 43 39
19 43 40
19 43 40
19 43 40
19 42 39
19 43 40
19 43 40
19 43 40
19 43 40
19 43 40
19 43 40
19 43 40
19 43 39
19 43 40
19 43 40
20 44 41
19 43 40
19 43 40
19 44 40
19 43 40
20 44 41
20 44 40
20 44 41
19 43 40
19 43 40
20 44 40
19 43 40
19 42 39
20 44 41
19 43 40
19 43 40
19 43 40
19 43 39
20 44 40
19 43 40
20 44 41
20 44 40
19 43 40
20 44 41
19 43 40
20 44 41
19 43 40
19 43 40
20 43 40
20 44 40
20 44 40
20 44 41
20 45 41
19 42 39
20 45 41
19 44 40
19 43 40
19 43 40
20 44 40
19 43 40
20 44 40
19 43 40
20 44 41
20 44 41
20 44 40
20 44 40
20 44 40
20 44 41
20 45 42
20 44 40
19 43 40
20 44 41
20 44 40
20 44 41
20 46 42
20 44 40
20 44 40
19 43 40
20 44 41
19 43 40
18 42 39
19 43 39
19 43 40
19 42 39
19 42 39
18 41 39
19 42 39
19 42 39
19 42 39
19 43 40
19 42 39
19 43 40
19 42 39
19 43 40
18 42 39
19 42 39
19 43 40
19 42 39
19 43 40
19 43 40
19 43 40
19 43 40
19 43 40
19 43 40
19 43 40
19 42 39
19 43 40
19 42 39
19 43 40
19 42 39
20 44 41
19 43 39
20 44 41
20 44 40
19 43 39
19 43 40
19 43 40
19 43 40
19 44 40
19 43 39
19 42 39
19 44 40
19 43 40
19 43 39
19 43 40
19 42 39
19 43 40
19 43 40
19 43 39
20 44 41
19 43 40
19 43 40
19 43 40
19 43 40
20 44 41
19 43 40
19 43 40
19 43 40
20 44 41
19 43 40
19 43 40
19 43 40
20 44 40
20 44 41
20 44 40
20 44 41
19 43 40
20 44 40
19 44 40
19 43 40
20 44 41
20 44 41
19 43 40
19 43 40
20 44 41
19 43 40
19 43 40
19 43 39
19 43 40
19 43 40
20 45 41
20 44 41
20 45 42
19 43 40
20 44 40
19 43 39
19 44 40
20 44 41
19 43 40
20 44 40
20 44 41
20 44 41
20 44 41
19 43 39
20 44 40
20 44 41
20 45 41
20 45 42
20 44 40
19 43 40
20 44 40
20 46 42
20 45 41
20 45 41
20 45 41
20 44 40
20 45 41
20 44 41
19 43 40
20 45 41
20 44 41
20 44 40
19 43 40
20 45 41
20 44 41
20 44 40
20 44 41
20 44 41
20 44 41
19 42 39
18 42 39
19 43 39
19 42 39
18 41 39
19 43 39
19 43 39
18 41 38
19 42 39
19 43 40
19 42 39
19 43 40
19 43 40
19 42 39
19 43 40
20 44 41
19 42 39
19 42 39
19 42 39
19 43 40
19 43 40
19 43 40
19 43 40
20 44 41
19 43 40
19 43 39
19 42 39
19 44 40
19 42 39
19 44 40
19 42 39
19 42 39
20 44 40
19 44 40
19 44 40
19 43 39
19 42 39
19 42 39
19 43 40
20 44 41
19 43 40
19 43 40
19 43 40
20 44 41
20 44 41
19 43 39
19 43 40
19 44 40
19 42 39
19 43 40
19 43 40
20 44 41
19 43 39
19 43 40
19 43 40
20 44 41
20 44 41
20 44 41
20 45 41
19 43 40
20 44 41
19 43 40
19 43 40
20 44 41
19 43 40
20 44 41
19 43 40
20 45 41
19 43 40
19 43 40
20 44 40
20 44 41
20 45 41
20 45 41
21 46 42
20 45 41
20 44 40
20 44 41
19 43 39
20 45 41
20 44 41
20 45 41
20 45 41
19 43 40
20 45 41
20 45 42
20 44 40
20 44 41
20 45 41
20 44 41
20 44 40
20 45 41
19 43 40
21 46 42
21 46 42
20 44 41
20 44 40
20 46 42
20 44 40
20 44 41
20 44 40
20 45 41
20 44 40
20 44 41
20 44 40
20 44 40
20 45 41
20 45 41
20 45 41
20 44 40
20 44 41
20 45 41
20 45 41
20 45 41
20 45 41
20 44 41
20 45 42
20 45 42
20 45 41
20 44 40
19 43 40
19 42 39
19 42 39
19 43 40
19 42 39
19 43 40
19 42 39
19 42 39
19 44 40
19 42 39
19 42 39
19 43 40
19 43 40
19 43 40
19 43 40
19 43 40
19 43 40
19 42 39
19 43 40
19 42 39
19 43 40
19 43 40
19 42 39
19 43 40
19 43 40
19 42 39
19 43 39
19 43 40
19 42 39
20 44 40
19 43 39
20 44 41
20 45 41
19 42 39
19 44 40
19 43 40
20 44 41
20 44 41
19 43 40
20 44 40
20 44 41
20 44 40
19 43 39
19 43 40
19 43 40
19 43 39
19 43 40
20 45 42
19 43 40
19 43 40
19 43 40
20 44 41
20 44 40
20 44 40
20 45 41
19 43 40
20 44 40
20 44 41
20 44 40
20 44 41
20 44 41
20 44 41
20 44 41
20 44 41
20 44 40
20 44 41
20 44 40
20 44 41
20 44 41
19 43 40
19 43 40
20 45 41
20 45 41
21 46 42
20 45 41
20 44 40
20 45 41
20 44 40
20 45 41
20 45 41
20 44 41
20 44 41
20 45 42
20 44 41
20 44 40
19 43 40
20 44 41
20 45 42
20 45 41
20 45 41
20 44 40
21 46 42
20 45 41
20 44 41
20 45 41
21 46 42
21 46 42
21 46 42
21 46 42
20 45 42
20 45 41
20 44 40
20 44 41
20 45 41
20 45 41
20 45 41
20 45 41
20 45 41
20 45 41
20 45 42
20 45 41
20 45 41
20 45 41
20 45 41
20 45 41
20 45 41
21 46 42
20 45 41
20 44 41
20 45 42
19 42 39
19 42 39
19 42 39
19 43 40
20 44 41
19 42 39
19 43 40
20 44 40
19 44 40
19 43 40
19 42 39
19 43 40
19 43 40
20 44 41
19 43 40
19 44 40
19 43 39
19 42 39
19 43 40
19 44 40
20 44 41
19 43 40
19 43 40
19 42 39
19 42 39
20 44 40
20 44 41
19 43 40
20 44 41
19 43 40
19 43 40
19 43 40
19 43 39
19 43 40
19 43 40
19 43 40
19 43 40
20 44 40
19 43 39
20 44 40
20 44 41
19 43 40
19 43 39
19 43 39
19 42 39
20 44 40
19 43 40
19 43 40
20 45 41
20 44 40
20 45 41
20 44 40
20 44 40
20 44 41
19 43 40
20 44 40
20 44 41
20 45 41
20 44 41
20 44 41
20 45 42
20 44 41
20 44 41
20 45 41
20 44 41
20 45 42
20 45 41
20 44 40
20 45 41
20 44 41
20 44 41
20 45 41
20 44 41
20 45 42
20 45 41
20 45 41
20 44 41
20 44 41
20 45 41
20 45 42
20 45 41
20 44 41
20 45 41
20 45 41
20 45 41
20 45 41
20 44 40
20 45 42
20 45 42
21 46 42
20 44 41
20 44 41
20 45 41
20 45 41
20 45 42
21 46 42
20 44 41
20 45 41
20 45 41
20 45 41
20 45 42
20 45 41
20 45 41
20 45 42
20 44 41
20 45 41
20 45 41
20 45 42
21 46 42
20 45 41
20 45 42
20 45 42
20 45 41
20 45 41
20 45 42
21 46 42
21 46 42
21 46 42
20 45 41
21 46 42
19 43 40
19 42 39
19 42 39
19 43 39
20 44 41
19 42 39
19 44 40
19 43 40
19 44 40
19 43 40
19 43 40
19 42 39
19 43 40
20 44 41
19 43 40
19 43 40
19 43 40
19 43 40
19 43 40
20 44 41
20 45 41
20 44 41
19 44 40
19 43 39
19 44 40
20 44 41
19 44 40
20 44 41
20 45 41
19 43 40
20 44 41
19 43 40
20 44 41
20 44 41
20 44 41
20 44 41
20 44 41
20 44 40
20 45 42
19 43 40
20 44 41
20 44 40
20 44 40
20 44 41
20 44 40
20 44 40
20 44 41
20 45 41
20 45 41
20 44 41
20 45 41
20 44 41
20 45 41
19 43 40
20 45 41
20 44 40
20 44 41
20 45 41
20 44 40
20 45 41
20 45 41
20 44 40
21 46 42
20 45 41
20 45 41
20 45 41
20 44 40
20 45 41
20 45 41
21 46 42
20 45 41
21 46 42
20 45 41
20 45 41
20 44 41
21 46 42
21 46 42
20 45 41
20 45 41
20 45 41
20 45 41
20 45 41
20 45 42
21 46 42
21 46 42
20 45 41
20 45 41
20 45 42
20 45 41
20 45 41
20 45 42
20 45 41
20 45 41
21 46 42
21 46 42
20 45 41
21 46 42
21 46 42
21 46 42
21 46 42
20 45 41
20 45 42
21 46 42
21 47 43
21 46 42
21 46 42
21 47 43
21 46 42
20 45 42
21 47 43
21 46 42
20 45 41
21 46 42
21 45 42
20 45 41
20 45 41
21 46 42
20 45 41
21 46 42
21 46 42
19 42 39
19 43 40
19 42 39
19 43 39
19 43 40
19 43 39
19 42 39
19 43 40
19 43 40
20 44 40
20 44 40
19 44 40
20 44 41
20 44 40
19 43 40
19 43 40
19 43 40
20 45 42
19 43 39
19 43 40
20 44 40
19 43 40
20 45 41
19 43 40
20 44 40
20 44 40
19 43 40
20 44 40
20 44 40
20 44 41
20 44 41
20 44 41
20 44 41
20 44 40
20 44 40
19 43 40
20 44 40
20 44 40
20 44 41
20 44 41
20 44 41
20 44 41
20 44 41
20 44 40
19 43 40
20 44 41
20 45 42
20 45 42
20 44 40
20 44 40
20 44 41
20 45 41
20 45 41
20 45 42
20 45 41
20 44 40
20 45 41
20 45 41
20 45 41
20 45 42
20 45 41
20 45 42
20 45 41
20 44 40
21 46 42
21 46 42
21 46 43
20 45 41
20 45 41
20 45 41
21 46 42
21 46 42
21 46 42
20 45 41
20 45 41
21 46 42
20 45 41
20 45 41
21 46 42
20 45 41
21 46 42
21 46 42
21 46 42
20 45 42
21 46 42
21 46 42
21 46 42
21 47 43
21 46 42
21 46 42
21 45 42
21 46 42
21 46 42
21 46 42
21 46 42
21 46 42
21 46 42
21 47 43
20 45 41
21 46 43
21 46 43
21 46 42
20 45 41
21 46 42
21 46 42
20 45 41
21 47 43
20 45 41
21 46 42
21 46 42
21 45 42
21 46 42
20 45 41
21 47 43
21 45 41
20 45 41
21 47 43
22 48 44
20 45 41
21 45 41
19 43 40
19 43 40
19 43 39
19 43 40
19 43 40
19 42 39
19 43 40
19 43 39
19 43 40
19 43 40
20 44 40
20 44 41
19 43 40
19 43 40
20 44 40
19 43 40
19 43 40
20 44 40
19 43 40
20 44 40
20 44 40
20 45 41
19 43 40
19 43 40
20 44 41
20 45 41
20 44 41
20 44 41
19 44 40
19 42 39
20 44 41
20 44 41
20 45 41
19 43 40
20 44 41
20 44 41
20 44 40
20 45 42
20 44 41
20 45 41
20 44 41
20 45 41
20 44 40
19 43 40
20 45 41
20 45 42
20 45 41
20 45 42
20 45 42
20 44 40
20 45 41
20 45 41
21 46 42
20 45 41
20 45 41
20 44 40
20 45 41
20 45 42
20 45 41
20 44 40
20 44 41
20 45 42
20 45 41
20 44 41
20 45 42
20 45 42
21 46 42
20 45 41
21 46 42
20 45 42
20 45 41
20 44 41
20 45 41
21 46 42
21 46 42
21 45 41
20 45 42
21 46 42
20 45 41
21 45 42
20 45 41
21 46 42
21 46 42
21 46 42
21 47 42
21 46 42
21 46 42
21 47 43
20 45 41
21 46 42
21 46 42
21 46 42
21 46 42
21 46 42
21 46 42
21 47 43
21 46 42
21 47 43
21 46 42
21 46 42
22 48 43
21 47 43
20 44 41
21 46 42
21 47 42
21 46 42
22 48 44
22 47 43
21 47 43
21 46 42
21 47 43
21 46 42
21 45 41
21 47 43
21 46 42
21 47 42
21 47 43
21 47 43
21 46 42
21 46 42
19 43 40
19 43 40
19 43 40
20 44 41
19 43 40
20 44 41
20 44 41
20 44 40
20 44 41
19 43 40
20 44 40
20 44 41
20 44 41
19 43 40
20 44 40
20 44 40
20 44 40
20 44 40
19 43 39
20 44 40
20 44 41
19 43 40
20 44 40
20 44 40
19 43 40
19 43 39
20 44 40
19 43 39
20 44 40
20 44 41
20 44 40
20 45 41
20 45 41
21 46 42
20 43 40
20 45 41
20 44 41
20 44 41
20 45 41
21 46 42
21 46 42
20 44 40
19 43 40
20 45 41
20 44 41
21 46 42
20 45 41
20 44 40
20 44 40
20 45 41
20 45 41
20 45 41
21 46 42
20 45 41
20 44 41
20 45 41
20 45 41
20 45 41
20 45 41
21 46 42
20 45 41
20 45 41
20 45 42
20 45 41
21 46 42
21 46 42
21 46 42
20 45 42
21 47 43
21 46 42
21 46 42
20 45 41
21 46 43
20 45 41
20 45 41
21 46 42
21 46 43
21 46 42
21 46 42
21 45 42
21 46 42
21 46 42
21 46 42
21 47 43
21 47 43
21 46 42
21 47 43
21 47 43
21 46 42
21 46 42
21 46 42
21 46 42
21 47 43
21 46 42
20 45 41
21 46 42
21 47 43
21 46 42
21 47 43
22 48 44
21 47 43
22 48 44
21 47 43
21 46 42
21 46 42
21 47 43
21 45 41
21 47 43
21 47 43
21 47 43
22 47 43
21 47 43
21 47 43
21 46 42
21 47 42
21 47 43
21 47 43
21 47 43
21 46 42
21 46 42
19 43 39
19 43 39
19 43 40
19 43 40
20 44 41
20 44 40
19 43 40
20 44 40
19 43 40
19 43 40
19 43 40
20 44 41
20 44 40
19 43 40
19 43 40
20 44 40
20 44 41
20 44 41
19 43 40
19 43 39
20 44 40
20 44 40
20 44 41
20 44 41
20 44 41
20 44 41
20 45 41
19 43 40
20 45 42
19 43 40
20 45 41
20 44 41
20 44 40
20 44 40
20 45 41
19 43 40
20 45 41
20 45 41
20 44 41
20 45 41
20 45 41
20 45 41
21 45 42
20 45 42
21 46 42
21 46 43
21 46 42
20 45 41
20 45 42
20 45 41
21 46 42
20 45 41
21 46 42
20 45 41
20 45 42
21 46 42
20 45 41
20 45 41
20 45 41
20 45 41
20 45 41
20 45 41
21 46 42
20 44 41
21 47 43
21 46 42
21 46 42
21 46 42
21 46 42
21 46 42
21 46 42
21 46 42
21 46 42
21 46 42
21 46 42
21 47 43
20 45 41
21 46 42
21 46 42
21 46 42
20 45 41
21 46 42
21 47 42
21 46 42
21 46 42
21 45 42
21 46 42
21 47 43
21 46 42
22 48 44
22 48 43
21 47 43
20 45 41
21 46 42
21 47 42
21 46 42
21 47 43
21 47 43
22 48 44
21 46 42
22 48 43
21 47 43
21 47 43
22 47 43
21 47 43
21 47 43
21 47 43
22 48 43
21 47 43
21 47 43
21 46 42
21 47 43
21 47 43
22 48 43
21 47 43
22 47 43
22 48 43
22 48 43
21 47 43
22 47 43
20 44 40
19 43 40
19 43 40
19 43 39
20 44 40
20 44 41
20 44 40
19 44 40
19 43 40
20 44 41
20 44 41
20 44 41
20 44 40
20 44 40
20 44 41
20 44 41
20 44 41
20 45 41
20 44 40
20 44 41
20 44 41
20 45 41
20 44 40
20 45 41
20 45 41
20 45 41
20 45 41
20 45 42
20 44 40
20 45 41
20 45 41
20 45 41
20 45 41
20 44 41
20 45 41
20 44 41
21 46 42
20 44 41
19 43 39
20 45 42
20 44 40
20 45 41
21 46 42
20 44 40
20 44 41
20 44 41
20 45 42
20 45 41
20 45 41
20 45 41
21 46 42
20 45 41
21 46 42
20 45 42
20 44 40
20 44 41
21 46 42
20 45 41
21 46 42
21 46 42
21 45 42
21 46 42
21 47 43
21 46 42
21 45 42
21 45 42
21 46 42
21 47 43
20 45 41
20 45 41
21 47 42
21 46 42
21 46 42
21 46 42
21 47 43
21 46 42
21 46 42
21 46 42
21 46 42
21 46 42
21 46 42
21 46 42
21 47 43
21 47 43
21 46 42
21 46 42
22 48 44
21 47 43
21 46 42
22 48 44
22 48 44
21 46 42
21 47 42
21 47 43
21 47 43
21 46 42
21 46 42
22 48 43
21 47 43
21 47 42
21 47 43
21 47 43
22 47 43
22 48 44
22 48 44
21 47 43
22 48 43
21 47 43
21 47 43
22 48 43
22 47 43
22 47 43
21 47 43
22 48 44
22 48 43
22 48 44
22 48 43
22 48 44
22 48 44
21 46 42
20 44 41
19 43 39
19 43 40
20 44 40
20 44 41
19 42 39
20 45 41
19 43 40
19 43 40
20 44 40
20 44 40
20 44 41
20 44 40
20 44 40
19 43 40
20 44 41
20 45 41
20 44 41
20 44 40
20 44 41
20 44 40
20 44 41
21 46 42
20 45 41
20 45 41
20 45 41
21 46 42
20 45 41
20 44 41
20 45 42
20 45 41
20 45 41
20 44 41
20 45 41
20 44 40
21 46 42
20 44 40
20 44 41
20 44 41
20 45 41
20 45 42
20 44 41
20 45 41
20 45 42
21 46 42
20 45 41
20 44 40
20 45 41
20 45 41
20 45 41
20 45 42
21 46 42
21 45 42
20 45 41
21 46 43
21 46 42
21 45 42
21 46 42
21 46 42
20 45 41
21 47 42
21 46 42
21 47 43
21 46 42
21 46 42
22 48 43
21 46 42
21 46 42
21 46 42
21 47 43
21 47 43
21 47 43
21 46 42
21 47 43
21 47 43
21 46 42
21 46 42
21 46 42
21 47 43
21 46 42
21 47 43
22 48 44
21 46 42
21 45 41
21 46 42
21 47 43
21 47 43
21 46 42
21 47 43
22 48 44
22 48 44
22 47 43
22 47 43
21 47 43
22 48 43
22 48 43
21 47 43
21 47 43
22 48 44
21 47 43
21 47 43
22 48 44
22 48 43
22 47 43
22 47 43
21 47 43
22 47 43
21 47 43
22 48 43
22 48 44
22 48 44
22 49 44
22 48 44
22 48 43
22 47 43
22 48 44
22 48 43
22 48 44
22 49 44
22 47 43
20 44 41
19 42 39
20 44 40
20 44 41
20 45 41
20 44 40
20 44 41
20 44 41
20 44 41
20 44 41
20 44 40
20 44 41
20 45 41
20 44 41
20 44 41
20 44 41
20 44 40
20 43 40
20 44 41
20 45 41
20 44 41
20 44 41
20 45 41
21 46 42
20 45 41
20 44 41
20 44 41
20 45 41
20 45 41
20 44 41
20 45 41
20 45 41
20 45 41
20 45 41
20 44 41
20 45 42
21 46 42
21 46 42
21 46 42
21 46 42
20 45 41
21 46 42
20 45 42
20 45 41
20 45 41
21 46 42
20 45 41
20 45 41
21 46 42
20 45 41
20 45 41
21 46 42
21 46 42
20 45 41
21 47 43
21 46 42
21 47 43
21 46 42
21 46 42
20 45 41
20 45 41
21 46 42
21 46 42
21 47 43
21 47 42
21 47 43
21 47 43
21 47 42
21 46 42
21 46 42
21 46 42
22 48 44
21 46 42
21 46 42
21 47 43
21 47 43
21 47 42
21 47 43
21 47 43
21 47 43
21 47 43
22 48 44
22 48 44
22 49 44
21 47 43
21 47 43
22 48 44
22 48 43
21 47 43
21 47 42
21 47 42
21 47 42
21 47 43
22 47 43
22 48 44
22 48 43
22 48 43
21 47 43
22 48 44
22 48 44
22 48 44
22 47 43
22 48 43
21 47 43
22 49 44
21 47 43
22 49 44
21 47 43
22 49 44
22 48 44
22 48 44
22 49 44
22 48 43
22 49 44
21 47 43
23 50 46
22 48 44
22 49 45
22 48 44
22 48 44
20 44 40
20 45 42
20 44 40
20 44 41
19 43 40
20 44 41
19 43 40
20 44 41
20 45 41
20 44 41
20 45 41
20 45 41
20 44 41
20 45 41
20 44 40
20 45 41
20 45 41
20 44 40
20 45 41
20 45 41
20 44 41
20 45 41
20 45 41
20 45 41
20 45 41
20 45 41
20 44 40
20 45 41
20 45 41
20 44 41
20 45 41
20 44 40
20 44 41
20 44 40
20 45 41
20 44 40
20 45 42
21 46 42
20 45 41
20 45 41
20 45 42
21 46 42
20 45 41
20 45 41
21 46 42
20 45 41
20 45 41
21 46 42
20 45 41
21 46 42
21 46 42
21 46 42
21 46 42
21 45 41
21 47 43
21 46 42
22 48 44
21 46 42
21 46 42
21 46 42
21 46 42
21 46 42
21 46 42
21 46 42
21 46 42
21 46 42
21 46 42
21 47 42
20 45 41
22 48 44
21 47 43
21 46 42
21 46 42
22 48 43
21 46 42
21 46 42
22 48 43
21 46 42
22 48 43
21 47 43
22 47 43
21 47 43
22 48 43
22 48 44
21 46 42
31 51 47
67 73 66
63 67 61
37 54 49
22 47 43
22 48 43
22 48 43
22 48 44
22 48 43
21 47 43
22 48 44
22 48 44
21 47 43
22 48 44
22 49 44
22 48 44
22 48 44
22 48 44
22 48 44
22 48 43
22 47 43
21 47 43
22 49 45
22 49 44
22 48 44
21 47 42
23 50 45
22 49 44
22 49 44
22 48 43
22 49 44
22 48 43
22 49 44
22 49 44
22 48 44
19 43 39
19 43 40
20 45 41
20 44 41
20 44 41
20 45 41
20 44 41
20 45 41
20 44 41
20 45 41
20 44 40
21 46 42
20 44 41
20 44 40
20 45 41
20 45 42
20 45 41
20 45 41
21 46 42
20 44 41
20 44 41
21 46 42
20 44 41
20 45 42
20 45 42
20 44 41
20 44 40
20 45 41
20 44 41
20 44 41
21 46 42
20 45 42
20 45 41
20 44 40
20 45 42
20 45 41
20 45 41
20 45 41
20 45 42
21 46 42
21 46 42
21 47 43
20 45 41
20 45 41
20 44 41
21 47 43
21 46 42
20 45 41
20 45 41
20 45 42
21 47 43
21 46 42
21 46 42
20 45 41
21 46 42
21 45 42
21 46 42
21 46 42
20 45 41
21 46 42
21 47 42
21 47 43
21 46 42
21 46 42
21 47 43
21 46 42
21 47 43
21 46 42
21 47 43
21 47 43
21 47 42
21 47 43
21 46 42
22 48 43
21 47 43
22 48 44
22 48 44
21 47 43
22 47 43
21 47 43
21 47 42
22 48 43
22 48 44
22 48 43
58 61 56
173 115 104
216 113 98
233 100 81
226 83 63
143 61 49
22 47 43
22 48 44
22 48 44
22 47 43
22 48 43
22 48 44
21 47 43
22 48 44
22 49 45
21 47 43
22 48 43
22 48 43
22 49 44
22 48 44
22 49 44
22 47 43
22 49 44
22 48 43
22 47 43
22 48 43
22 48 44
22 48 43
22 49 44
22 49 44
22 49 45
22 48 44
22 48 43
22 48 43
22 49 44
22 49 44
20 44 41
19 43 40
20 44 41
20 44 40
20 44 41
19 43 40
19 43 40
20 45 42
20 44 41
20 45 41
20 44 41
20 44 41
20 44 40
20 45 41
20 44 40
21 46 42
20 46 42
20 44 40
20 44 40
20 45 41
21 46 42
20 44 40
19 43 39
20 44 41
20 44 40
20 44 41
20 44 41
20 45 41
20 44 40
20 45 42
20 45 41
21 46 42
21 46 42
21 46 42
20 45 41
20 45 42
20 44 41
21 46 43
20 44 41
20 45 41
21 45 42
20 45 41
21 45 42
21 46 42
21 46 42
21 45 42
21 46 42
20 45 41
21 45 42
21 46 42
21 47 43
21 47 43
21 46 42
21 46 42
21 46 42
21 46 42
21 47 43
21 47 43
21 46 42
21 46 42
21 47 43
21 46 42
21 47 43
21 47 43
21 47 43
21 46 42
21 47 43
21 46 42
21 47 43
22 48 44
21 46 42
21 47 42
21 46 42
21 47 43
21 46 42
21 47 43
22 48 44
21 47 43
21 46 42
21 47 42
21 46 42
21 46 42
21 47 43
37 50 45
157 74 62
197 66 48
211 71 51
226 77 56
255 127 101
244 84 61
115 56 46
22 49 44
22 48 43
22 48 44
22 48 44
22 49 44
22 48 43
22 48 43
22 48 44
21 47 43
22 48 44
22 48 44
22 48 44
22 49 44
22 49 45
22 48 44
22 49 44
22 49 44
22 48 44
22 48 44
22 48 44
22 49 45
22 49 45
22 48 44
22 49 45
22 49 44
22 48 44
22 49 45
22 48 43
22 48 44
20 44 41
20 45 41
20 44 40
20 45 41
20 44 40
20 45 41
20 43 40
20 44 41
20 44 41
20 44 40
20 45 42
20 45 41
20 45 41
20 45 41
20 44 41
20 45 42
20 45 41
20 45 41
20 45 41
20 45 41
20 45 41
20 45 41
20 45 42
21 46 42
21 46 43
20 45 41
20 45 41
20 45 41
20 45 42
20 44 40
21 46 42
21 47 43
20 45 41
20 45 41
21 46 42
20 44 41
20 45 41
20 45 41
21 46 42
20 45 41
21 46 42
21 46 42
21 46 42
21 47 42
20 44 41
21 46 42
21 47 43
21 45 42
21 46 42
20 45 41
20 45 41
21 47 43
21 45 41
21 46 42
21 47 43
21 46 42
21 45 41
20 45 41
22 48 43
21 46 42
21 46 42
21 46 42
22 48 44
21 46 42
22 48 43
21 47 43
21 47 43
21 47 43
21 47 43
21 46 42
21 47 43
21 47 43
22 48 44
22 49 44
21 47 43
22 48 43
22 49 45
22 48 44
21 47 43
21 47 42
21 47 43
21 47 43
22 47 43
73 66 60
149 66 56
175 59 44
195 65 47
206 78 61
233 101 80
230 96 76
200 69 50
22 47 43
21 47 43
22 48 43
22 48 44
22 48 43
22 48 44
23 50 46
22 49 44
21 46 42
22 49 44
22 48 43
22 49 44
22 49 44
22 48 44
22 48 44
22 48 43
22 49 44
22 49 44
23 50 45
22 49 44
23 49 45
22 48 44
23 50 45
23 49 45
23 50 45
22 49 45
22 48 44
22 48 43
22 49 44
20 45 42
19 43 40
20 44 40
20 44 41
20 44 41
20 43 40
20 45 41
20 44 41
20 45 42
20 45 41
20 44 40
20 44 41
20 45 42
20 44 41
20 45 41
20 45 41
20 45 41
20 45 41
20 45 41
20 45 41
20 45 41
20 44 41
20 45 41
21 46 42
20 45 41
21 46 42
20 45 42
20 45 41
20 45 42
21 46 42
20 45 42
20 45 41
20 45 41
20 45 42
20 44 41
20 45 41
22 48 44
21 46 42
20 45 41
21 46 42
20 45 42
20 45 41
21 46 42
21 46 42
21 47 43
21 46 42
20 45 41
21 46 42
21 47 42
21 47 43
21 46 42
21 46 42
21 46 42
20 45 41
21 46 41
21 46 42
21 48 43
21 46 42
21 46 42
21 47 43
21 46 42
21 46 42
21 46 42
21 46 42
21 46 42
21 47 43
21 46 42
21 47 42
21 47 43
21 46 42
22 49 45
21 46 42
22 48 43
22 48 44
22 47 43
22 48 44
22 49 44
22 48 44
22 48 43
22 47 43
22 48 43
21 47 43
22 48 44
76 76 70
133 86 77
137 52 40
152 108 98
177 152 138
192 169 152
196 167 149
195 127 109
22 47 43
22 48 44
21 47 42
47 61 56
134 125 115
174 158 145
150 138 125
80 83 75
22 48 43
22 48 44
22 48 44
22 48 43
22 48 44
22 48 43
22 48 43
22 48 44
22 49 44
22 49 44
22 48 43
22 49 45
23 50 45
22 48 44
23 50 45
22 49 44
22 49 44
23 50 45
23 49 45
22 49 44
23 50 45
20 44 40
20 45 41
20 45 41
20 44 40
20 44 40
20 45 41
20 44 40
20 44 41
20 44 41
20 44 40
20 44 41
20 44 40
20 45 41
20 44 40
20 45 41
20 45 41
21 46 42
20 45 41
20 44 41
21 46 42
20 45 41
20 45 42
21 46 42
20 45 41
20 45 41
21 46 42
20 45 41
20 45 41
20 45 41
21 46 42
20 45 41
21 46 42
20 45 41
21 46 42
21 46 42
21 47 43
21 46 43
21 46 42
21 46 42
20 45 42
20 45 41
21 47 43
21 46 42
21 46 42
21 47 43
21 46 42
21 47 43
21 47 43
21 47 43
21 46 42
21 47 42
22 48 43
21 47 43
21 46 42
20 45 41
21 46 42
21 46 42
21 46 42
21 46 42
21 47 43
21 47 43
21 45 41
22 48 44
21 47 43
22 48 44
21 47 43
21 46 42
21 47 43
22 48 44
22 48 44
22 48 43
21 47 43
21 47 43
22 48 43
21 47 42
22 47 43
21 46 42
21 47 43
22 48 43
22 48 43
22 48 43
21 46 42
21 47 43
66 69 64
95 58 51
115 98 89
113 105 96
125 113 103
146 130 116
156 137 121
148 129 113
21 47 42
21 47 43
74 79 73
181 166 155
209 189 176
219 198 183
236 212 194
239 212 192
152 138 125
21 47 43
22 48 44
22 49 44
22 49 44
23 49 45
22 48 44
22 48 43
22 49 44
22 48 44
22 49 44
22 48 43
22 48 44
23 49 45
23 50 45
22 48 44
23 50 45
22 49 44
23 50 45
23 50 45
22 49 44
20 44 41
20 44 40
20 44 41
20 45 41
20 45 42
20 44 40
20 44 41
20 44 41
20 45 41
20 44 41
20 45 42
20 45 41
20 45 41
20 45 42
20 45 42
20 44 41
20 45 41
20 45 42
20 45 41
20 45 41
20 45 41
20 45 41
21 46 42
20 45 41
21 46 42
20 45 42
21 46 42
20 45 41
21 46 42
20 44 41
20 45 41
21 46 42
20 45 41
20 44 41
21 46 42
20 45 41
21 47 43
21 45 41
20 45 41
20 44 41
20 45 41
20 45 41
21 46 42
21 47 43
21 46 42
20 45 41
21 46 42
21 46 42
21 46 42
21 46 42
22 48 44
21 47 43
21 46 42
21 47 42
21 46 42
21 46 42
21 47 43
21 47 43
21 46 42
21 46 42
21 47 43
21 46 42
21 47 43
22 48 44
22 48 43
22 48 44
20 45 41
21 47 43
21 47 43
21 46 42
21 47 43
21 47 43
21 47 43
21 47 43
22 47 43
22 48 43
21 47 43
22 47 43
21 47 42
21 47 43
21 46 42
21 46 42
22 48 43
39 50 45
67 46 39
53 54 47
73 70 62
64 62 55
60 56 47
103 90 77
73 75 66
21 47 42
24 49 45
127 117 116
157 142 139
175 158 153
185 165 158
204 182 171
225 200 185
193 167 160
54 58 61
22 48 44
22 48 43
22 49 44
22 49 44
22 48 44
22 49 44
23 50 45
22 49 45
23 50 45
22 48 43
22 49 44
22 49 44
22 49 44
23 49 45
23 50 45
23 50 45
23 50 45
48 53 46
108 67 50
20 45 42
20 45 41
20 45 42
20 44 40
20 45 41
20 45 41
20 45 42
20 45 41
20 45 41
20 45 42
20 44 41
21 46 42
20 44 40
20 45 41
20 44 41
20 45 41
20 44 41
20 45 41
20 44 41
20 45 41
20 45 41
21 46 42
20 45 41
21 46 42
20 45 41
20 45 41
20 45 41
20 45 41
21 46 42
21 46 42
20 45 41
21 46 42
20 45 41
21 47 43
20 45 41
20 45 41
20 45 41
21 46 42
21 47 43
21 47 43
20 45 42
20 45 41
20 45 41
21 46 42
21 46 42
21 46 42
20 45 41
21 47 43
21 46 42
21 47 43
20 45 41
21 47 43
21 46 42
21 47 43
21 47 42
21 47 43
21 46 42
21 47 43
21 47 43
21 47 43
22 48 43
22 48 43
21 47 43
21 47 42
21 47 42
22 48 43
21 46 42
21 46 42
21 46 42
21 47 42
21 47 43
21 47 42
21 47 42
22 48 44
21 46 42
22 47 43
21 47 42
21 47 43
21 47 43
21 46 42
19 41 38
17 39 36
16 37 34
15 33 30
19 31 29
13 25 19
23 31 23
41 42 31
33 37 27
33 44 38
21 45 40
22 46 42
33 45 48
64 44 74
67 46 76
74 50 84
79 53 88
84 56 91
89 59 94
91 60 95
71 55 78
22 49 44
22 48 44
23 50 45
22 49 44
22 48 44
22 48 44
22 49 44
23 49 45
23 50 45
22 49 44
22 48 44
22 49 44
22 49 44
22 49 44
22 49 44
23 50 45
124 108 97
222 118 81
240 116 69
20 44 41
20 45 41
20 45 41
20 45 42
20 45 41
20 44 40
20 45 41
20 44 41
20 44 41
20 45 41
20 45 41
20 45 41
20 44 41
20 45 41
20 45 41
21 46 42
21 46 42
20 45 41
20 45 41
21 46 42
20 44 40
21 46 42
21 46 42
21 46 42
21 46 42
20 45 41
20 44 41
21 46 42
20 45 41
20 45 41
21 45 42
20 45 41
21 46 42
21 46 42
20 45 41
21 46 42
20 45 41
21 46 42
21 46 42
21 47 43
21 46 42
21 46 42
21 46 43
21 45 42
20 45 41
21 45 41
21 47 43
21 47 43
21 46 42
21 47 43
21 47 43
21 46 42
21 47 43
21 46 42
21 46 42
21 47 43
21 47 43
21 46 42
21 46 42
21 47 43
21 47 43
21 47 42
21 47 43
21 46 42
21 46 42
21 47 43
21 46 42
21 46 42
22 48 43
21 47 42
21 47 43
22 47 43
22 49 44
22 47 43
22 48 43
21 47 43
21 47 42
22 48 43
21 46 42
20 45 41
19 41 38
17 38 35
16 35 33
14 32 30
13 29 28
10 23 21
10 23 20
17 26 22
17 32 28
19 42 37
21 45 40
22 48 43
37 41 48
55 38 63
57 39 65
56 38 64
64 43 72
68 46 74
74 49 78
76 50 79
66 50 70
22 48 43
23 49 45
22 49 44
23 49 45
22 49 44
23 50 45
22 48 43
22 48 43
22 48 44
23 49 45
22 49 44
22 47 43
23 49 45
22 49 44
23 50 46
102 99 92
196 122 97
216 105 64
223 108 65
20 44 41
20 44 41
21 46 42
20 44 40
20 44 41
20 45 41
20 45 41
21 46 42
20 44 40
20 45 41
20 45 41
20 45 41
20 44 41
20 44 41
20 44 40
20 45 42
20 45 41
20 44 40
20 44 41
21 47 43
20 45 41
20 45 41
20 44 40
21 46 42
20 45 41
21 47 43
21 46 42
20 45 41
21 46 42
21 46 42
21 46 42
21 46 42
21 46 42
21 46 42
20 45 41
20 44 41
20 45 41
21 46 42
21 46 42
21 47 43
21 47 43
21 46 42
21 45 41
21 47 42
21 46 42
21 46 42
21 46 42
21 47 43
21 46 42
21 47 43
21 46 42
21 46 42
21 46 42
21 46 42
21 47 43
21 47 43
21 46 42
21 47 43
21 47 43
22 48 44
20 45 41
21 47 43
21 46 42
21 47 43
21 47 43
22 47 43
22 48 43
22 48 43
22 48 44
22 48 44
21 46 42
21 47 43
22 47 43
21 47 43
22 48 44
21 47 43
22 47 43
22 47 43
22 48 44
22 48 44
22 48 43
22 48 43
21 45 41
21 46 42
21 46 41
21 45 41
21 45 40
22 47 42
21 46 41
21 47 42
21 45 40
21 46 42
32 42 46
45 31 50
44 30 50
47 32 53
48 33 54
52 36 58
56 37 60
61 40 63
46 44 53
23 50 45
22 48 44
23 50 45
22 48 43
22 48 43
22 48 44
22 49 44
23 50 45
23 50 45
22 49 44
23 50 45
22 48 44
22 48 43
22 49 44
22 49 44
144 119 109
172 87 55
192 96 61
205 100 60
20 45 41
20 44 40
20 45 41
20 44 41
20 44 40
20 45 42
20 45 42
21 46 42
20 45 41
20 45 41
20 45 42
21 46 42
20 44 41
20 45 42
20 45 41
20 45 41
19 43 39
20 45 41
20 45 41
20 45 41
20 44 40
20 45 42
20 45 41
21 46 42
20 45 42
20 45 41
21 46 42
20 45 41
20 44 41
21 46 42
21 46 42
21 46 42
21 46 42
21 46 42
21 46 42
21 47 43
21 46 42
21 46 42
21 46 42
21 46 42
21 47 43
21 47 43
20 45 41
21 45 41
20 45 41
22 47 43
21 45 42
21 45 42
21 46 42
21 46 42
21 45 41
21 47 43
21 47 43
21 47 43
21 46 42
21 46 42
21 47 43
21 47 43
21 47 43
21 47 43
21 47 43
21 47 42
21 46 42
21 47 43
21 46 42
22 48 44
21 47 43
21 46 42
21 46 42
22 48 43
22 47 43
22 48 43
21 47 43
22 47 43
22 49 44
22 47 43
21 47 43
22 49 44
22 48 44
21 46 42
22 48 43
22 48 43
21 47 42
21 47 42
22 48 43
21 47 42
22 48 43
21 46 41
22 47 43
22 47 43
21 47 42
22 48 44
21 45 41
42 38 43
32 27 35
37 31 40
37 31 39
38 33 39
40 35 39
50 41 46
26 47 45
22 49 44
22 47 43
22 49 44
22 49 44
22 49 44
23 49 45
23 49 44
22 49 44
22 48 43
22 48 43
23 50 45
22 49 44
22 49 44
22 49 44
42 56 51
133 98 85
125 111 103
124 108 100
166 88 60
20 45 41
20 45 41
20 44 40
20 45 42
20 45 41
20 44 41
20 45 42
20 45 41
20 45 42
20 44 41
21 46 42
20 45 41
20 45 42
20 45 41
21 46 42
20 45 41
20 45 41
20 45 41
20 45 41
20 45 41
20 44 41
20 45 42
21 46 42
21 46 42
20 45 41
20 45 42
20 45 41
21 45 42
21 46 42
21 46 42
21 46 42
21 46 42
21 46 42
21 46 42
21 46 42
21 46 42
21 46 42
21 45 42
21 46 42
21 46 42
21 47 43
21 46 42
20 45 41
21 47 43
21 45 41
20 45 41
20 45 41
21 46 42
21 46 42
21 46 42
21 46 42
21 46 42
21 46 42
21 45 42
21 47 43
21 47 43
21 47 42
21 47 43
21 47 43
21 46 42
21 47 43
21 45 41
22 48 44
21 46 42
22 48 43
22 48 44
22 47 43
21 47 42
21 46 42
21 47 43
21 47 43
22 48 44
22 47 43
22 48 43
21 47 43
21 47 43
21 47 43
21 47 42
22 49 44
22 47 43
21 46 42
21 47 43
22 48 44
22 47 43
22 49 44
21 47 42
22 47 43
21 46 42
21 46 42
19 43 39
19 42 39
18 40 37
16 36 33
19 34 31
26 31 26
14 26 20
26 33 25
38 40 30
37 41 30
36 50 43
21 46 41
22 47 43
21 46 42
22 48 43
22 48 44
21 47 42
22 48 44
22 48 43
22 48 43
22 47 43
23 50 45
22 49 44
22 48 43
23 50 45
23 50 45
45 59 54
117 90 79
101 94 87
111 103 95
114 75 62
20 44 41
20 44 41
20 46 42
20 46 42
20 45 41
20 45 41
20 44 40
21 46 42
20 45 41
20 45 41
20 45 41
20 45 41
21 46 42
20 45 41
20 44 40
20 45 42
21 46 42
20 45 41
20 45 41
20 45 41
20 45 41
20 45 41
20 45 41
20 45 41
21 45 42
21 46 42
21 45 42
20 45 41
21 46 42
21 46 42
21 46 42
21 46 42
21 46 42
21 46 42
21 45 42
21 46 42
20 44 40
21 46 42
21 46 42
21 46 42
21 47 43
21 46 42
21 46 42
21 47 42
21 46 42
21 46 42
21 46 42
21 46 42
21 47 43
21 47 43
21 46 42
21 46 42
21 46 42
21 47 43
21 46 42
21 47 42
21 47 43
21 47 43
21 47 43
21 47 43
22 48 44
21 46 42
21 46 42
21 47 43
22 48 43
21 47 43
21 46 42
22 48 44
22 49 44
22 47 43
22 48 44
21 47 43
22 48 44
21 47 43
21 47 43
21 47 43
21 46 42
21 47 42
22 47 43
22 47 43
22 48 43
22 48 43
22 47 43
22 48 43
21 47 43
21 47 43
21 46 42
20 44 40
20 44 40
17 38 35
15 35 33
14 32 31
13 31 29
11 26 25
10 22 21
8 17 16
8 16 14
11 20 17
16 32 28
20 43 38
20 44 39
21 47 42
22 47 42
22 47 42
22 47 43
22 48 44
22 48 43
22 48 44
22 48 43
22 48 43
22 48 43
23 49 45
22 47 43
22 48 43
22 48 43
23 50 45
77 56 47
89 80 72
74 70 63
103 63 48
19 43 40
20 45 41
20 45 41
20 45 41
20 45 42
21 46 42
20 45 41
20 44 40
20 44 41
20 45 41
20 45 41
20 44 41
21 46 42
21 46 42
20 45 41
20 44 41
20 44 40
20 45 42
20 45 41
21 46 42
21 46 42
20 45 41
20 43 40
20 45 41
21 46 42
21 46 42
21 46 42
20 45 41
20 45 41
21 46 42
21 45 42
21 46 42
21 46 42
20 45 41
20 45 41
21 47 43
20 45 41
21 47 43
21 46 42
21 46 42
20 45 41
20 45 41
21 46 42
21 45 42
21 46 42
21 46 42
20 45 41
21 46 42
21 47 43
21 46 42
21 46 42
21 46 42
21 46 42
21 46 42
21 47 43
22 49 44
21 47 43
22 48 43
22 48 44
22 47 43
21 46 42
22 47 43
22 48 43
21 46 42
21 46 42
22 48 43
22 47 43
21 46 42
22 48 44
22 48 44
22 47 43
21 47 43
21 47 43
21 46 42
22 48 44
21 46 42
22 48 43
21 47 43
21 47 42
22 49 44
22 47 43
22 48 44
22 47 43
22 48 43
22 48 44
22 47 43
22 47 43
22 48 44
22 47 43
22 47 43
21 46 42
20 44 40
20 44 40
20 43 39
18 41 37
19 41 38
19 42 38
21 46 41
20 44 39
21 46 41
21 45 41
21 47 42
21 46 42
22 47 43
22 47 42
22 49 44
22 48 43
22 49 44
22 49 44
22 47 43
22 49 44
22 47 42
22 48 43
22 48 43
22 47 43
21 47 42
41 45 38
41 24 14
38 26 17
50 33 23
20 44 41
20 45 42
20 45 41
20 45 41
20 44 41
21 46 42
20 45 41
20 44 41
21 46 42
20 44 41
21 46 42
20 45 41
20 45 42
20 45 41
20 45 41
20 45 41
21 46 42
21 46 42
21 46 42
21 46 43
20 45 42
20 44 41
20 45 42
20 45 41
21 46 42
20 45 41
20 45 41
20 44 41
20 45 41
21 46 42
21 46 42
21 46 42
20 45 41
21 46 42
20 44 41
20 45 41
21 46 42
21 46 42
21 46 42
20 45 42
21 46 42
21 46 42
21 47 43
21 46 42
21 46 42
21 47 43
21 47 43
21 46 42
21 46 42
21 45 41
21 46 42
21 47 43
21 47 43
21 47 43
21 46 42
20 45 41
21 46 42
21 46 42
21 46 42
21 47 43
21 46 42
22 48 44
22 48 43
22 47 43
21 47 43
22 47 43
21 47 43
21 46 42
21 47 42
21 47 42
21 47 43
21 46 42
21 46 42
21 47 42
22 48 44
21 47 43
22 48 44
21 46 42
22 48 43
22 48 44
22 47 43
22 49 44
22 49 44
22 49 44
22 48 43
21 47 42
21 46 42
22 47 43
22 47 43
22 47 43
22 49 45
21 46 42
22 48 43
21 47 42
21 47 42
21 47 42
22 48 43
21 47 43
22 48 43
22 48 43
22 47 42
22 48 43
22 49 44
22 48 43
22 49 44
21 47 42
22 48 44
22 48 44
22 47 43
22 48 44
22 49 44
22 48 43
20 45 40
19 41 38
16 36 33
14 31 29
12 28 27
11 21 19
10 12 9
12 12 6
20 44 41
20 44 40
20 45 41
20 45 41
20 45 41
20 45 41
21 46 42
20 45 41
20 44 41
20 45 41
21 46 42
20 44 41
20 45 41
21 46 42
20 45 41
21 46 42
20 44 41
20 45 41
20 45 41
20 45 41
21 46 42
20 45 41
21 46 43
20 44 41
21 46 42
20 45 42
20 44 41
21 46 42
20 45 41
21 46 43
20 45 41
21 46 42
21 47 43
21 46 42
21 46 43
21 46 42
21 46 42
20 45 41
21 46 42
21 47 43
21 46 42
21 46 42
21 46 42
21 47 43
21 46 42
20 45 41
21 46 42
21 47 43
21 46 42
21 46 42
21 46 42
21 47 43
21 47 43
21 46 42
21 47 43
21 46 42
21 46 42
21 46 42
21 46 42
21 46 42
21 46 42
21 47 43
22 48 44
21 47 43
21 46 42
21 47 43
21 47 43
21 46 42
21 47 43
21 47 43
22 48 43
22 48 44
21 46 42
21 47 43
22 48 43
22 48 43
22 48 44
21 46 42
22 48 43
22 47 43
21 47 43
22 49 45
22 48 43
22 48 44
21 47 43
22 48 43
21 47 43
22 48 43
22 48 44
21 47 42
22 48 44
23 49 45
23 49 45
21 47 42
22 47 43
22 49 44
22 48 44
21 46 42
22 47 43
22 48 43
22 48 43
22 49 44
22 48 44
22 49 44
23 50 45
21 47 42
22 48 44
22 48 43
22 48 44
22 48 44
22 48 43
22 48 43
21 46 41
19 42 38
17 39 36
15 34 32
14 32 31
12 27 25
11 24 22
11 23 21
20 45 41
21 46 42
20 44 41
20 45 41
20 44 41
20 44 40
20 45 42
20 45 41
20 45 41
20 45 41
20 45 41
20 44 41
20 44 41
21 46 42
20 45 41
20 45 41
21 46 42
21 46 42
21 46 42
20 45 42
20 45 41
21 46 42
21 46 42
21 46 42
21 46 42
21 46 42
20 45 42
20 45 41
21 46 42
20 45 41
20 44 41
21 46 42
21 46 42
20 45 41
20 45 41
21 47 43
21 46 42
21 46 42
21 46 42
21 47 43
21 46 43
21 45 41
21 46 42
21 46 42
21 47 43
21 46 42
21 47 43
21 47 43
21 46 42
21 46 42
21 47 43
21 47 42
21 46 42
21 45 41
21 47 43
22 47 43
21 46 42
21 47 43
21 47 43
21 46 42
21 47 42
21 46 42
21 47 43
21 47 43
21 47 43
21 46 42
21 46 42
22 48 44
21 47 43
21 47 42
21 47 43
21 46 42
22 48 44
21 46 42
22 47 43
22 48 44
21 47 43
21 46 42
21 46 42
22 48 43
22 48 43
21 46 42
21 47 43
22 48 44
22 48 43
22 48 43
21 47 43
22 47 43
21 47 42
23 50 45
22 49 45
22 47 43
22 49 44
22 48 44
22 49 44
21 47 43
22 49 44
22 49 44
22 48 44
22 48 44
22 48 43
22 48 44
21 47 43
22 47 43
22 48 43
22 47 43
22 49 44
22 48 43
22 47 43
22 48 43
23 49 44
22 49 44
22 48 43
23 49 45
22 48 43
21 47 42
22 47 43
21 46 42
21 45 40
20 45 40
20 44 41
20 44 40
20 45 41
21 45 42
20 45 41
20 44 40
21 46 43
21 46 42
20 45 42
21 47 43
21 46 42
20 45 41
20 44 41
20 45 41
20 45 41
20 45 41
20 45 42
21 46 42
21 46 42
21 47 43
20 45 41
20 45 41
20 45 41
21 46 42
21 46 42
20 45 41
20 45 41
20 45 41
21 46 42
21 47 43
21 46 42
21 47 43
21 46 42
20 45 41
21 46 42
21 46 42
21 46 42
21 47 43
20 45 41
21 47 43
20 45 41
21 47 43
21 47 43
21 47 43
21 47 43
21 47 43
21 46 42
21 46 42
21 46 42
22 48 43
21 47 43
21 47 43
22 48 44
21 46 42
21 46 42
21 46 42
21 47 43
21 47 43
22 47 43
21 46 41
22 47 43
21 47 43
21 47 42
21 47 43
21 47 42
22 47 43
22 47 43
22 47 43
21 47 42
21 46 42
21 47 43
21 46 42
21 47 43
22 48 43
22 48 43
22 48 44
22 49 44
21 47 43
21 47 43
22 48 44
21 47 42
22 48 43
21 47 42
22 47 43
21 47 43
22 48 43
22 48 43
22 48 43
22 48 43
22 48 43
21 47 43
22 49 44
21 46 42
22 48 44
21 47 43
22 49 45
22 47 43
22 49 44
22 48 44
22 49 44
22 49 44
22 48 44
22 48 43
22 48 44
22 48 43
23 49 45
22 49 44
22 48 43
22 48 44
22 48 43
22 48 43
22 48 44
22 49 44
22 49 44
22 48 43
23 49 44
22 48 43
22 48 43
22 48 43
22 48 43
20 44 41
21 46 42
20 44 41
20 44 40
20 45 41
20 45 42
20 45 41
20 44 41
20 44 41
21 45 42
20 45 41
20 45 42
20 45 41
20 45 41
20 45 41
20 45 41
20 45 41
21 47 43
20 45 41
20 44 41
21 46 42
21 45 42
20 45 41
21 46 42
21 46 42
21 46 42
20 45 41
21 46 42
20 45 41
21 46 42
20 45 42
21 45 41
20 45 41
21 46 42
21 46 42
21 47 43
21 46 42
20 45 41
21 47 43
21 46 42
21 47 43
21 46 42
21 46 42
21 46 42
21 47 43
21 46 42
21 47 43
21 46 42
20 45 41
21 46 42
21 46 42
21 47 43
21 46 42
21 46 42
21 47 43
21 46 42
21 46 42
21 46 42
22 48 43
21 46 42
21 46 42
21 47 43
21 46 42
21 47 42
21 47 43
21 47 43
21 46 42
21 46 42
21 47 43
22 48 44
22 48 44
21 47 43
22 48 44
22 48 44
21 47 43
21 47 43
21 47 43
21 47 43
22 48 44
21 47 43
21 47 42
22 47 43
22 47 43
22 47 43
22 48 44
22 48 43
22 49 44
22 48 44
21 47 43
22 48 44
21 47 43
22 49 44
22 47 43
22 48 44
22 48 44
22 48 44
21 46 42
21 47 43
22 49 44
21 47 43
22 48 44
22 49 44
22 48 43
22 49 44
22 49 44
22 48 43
22 48 44
23 49 45
22 48 44
22 48 43
22 49 44
23 50 45
22 48 44
22 48 43
22 49 44
22 49 44
22 49 44
22 49 44
22 49 44
22 48 43
20 44 40
20 45 41
21 46 42
20 45 42
20 45 41
21 46 42
20 45 41
20 45 41
20 45 41
20 44 41
20 45 41
21 46 42
20 45 41
20 45 41
21 46 42
20 45 42
20 45 41
21 46 42
20 44 41
20 45 42
20 45 41
20 45 42
20 45 41
20 44 41
20 45 41
21 46 42
21 46 42
21 46 42
21 46 42
21 46 42
21 46 42
21 47 43
21 46 42
20 45 41
20 45 41
20 45 41
21 46 42
21 46 42
21 46 42
21 46 42
21 46 42
21 46 42
21 46 43
21 46 42
20 44 41
22 48 44
21 46 42
21 47 43
21 47 43
21 46 42
21 46 42
21 46 42
20 45 41
21 46 42
21 47 43
21 47 43
21 47 43
21 46 42
21 47 43
21 47 43
22 48 44
21 47 43
21 46 42
21 47 43
21 46 42
21 46 42
21 47 43
21 47 43
21 47 42
22 48 43
21 47 42
22 48 43
21 47 43
21 47 42
21 47 43
21 47 43
22 48 44
22 48 44
22 48 44
21 47 43
22 48 44
22 48 44
21 47 43
21 47 43
22 48 44
21 47 43
22 47 43
22 48 44
22 48 44
22 48 44
22 49 45
22 48 44
22 48 43
22 48 44
22 49 44
22 48 44
21 47 42
22 49 44
22 49 44
22 48 44
22 48 44
21 47 43
22 48 43
22 49 44
22 48 43
22 48 44
22 49 44
22 48 44
22 48 43
22 49 45
22 49 44
23 50 45
22 49 44
22 49 44
22 48 43
22 49 44
21 47 42
22 48 43
22 47 43
22 47 43
20 45 41
20 45 42
20 44 40
20 45 41
20 44 40
20 45 41
21 46 42
20 45 41
20 45 41
20 45 41
20 45 41
20 45 41
20 45 41
21 46 42
20 44 41
21 46 42
20 45 41
20 45 41
20 45 41
21 46 42
21 46 42
20 45 41
20 45 41
20 45 42
20 45 42
21 46 42
20 45 41
21 46 42
21 46 43
20 45 41
21 46 42
21 46 42
20 45 41
20 45 41
21 45 42
20 45 41
20 45 41
20 45 41
20 45 41
21 46 42
21 47 43
20 45 41
21 47 43
21 45 42
21 46 42
21 47 43
21 46 42
21 47 43
21 47 43
20 45 41
21 46 42
21 46 42
21 46 42
21 46 42
21 47 43
21 45 41
21 46 42
20 45 41
21 46 42
21 47 43
21 46 42
21 46 42
21 47 43
22 48 43
21 47 42
21 47 43
21 47 42
21 47 43
21 46 42
21 47 43
21 47 43
21 46 42
22 47 43
21 47 42
21 47 43
22 48 43
21 47 43
21 47 43
21 46 42
21 47 43
21 47 43
21 47 43
21 47 43
22 49 44
22 48 43
22 48 44
22 48 43
22 47 43
22 48 44
22 49 44
22 48 44
22 48 44
22 48 44
22 48 44
22 47 43
22 48 43
22 49 44
22 48 43
22 49 44
22 48 44
22 48 43
21 47 43
22 49 44
22 48 44
22 48 43
22 49 44
23 49 45
22 49 45
23 50 45
21 47 42
22 47 43
22 49 44
22 48 43
22 48 44
22 49 44
22 48 43
22 48 43
22 48 43
22 49 44
22 47 43
20 44 41
20 45 41
20 45 41
20 45 41
21 45 42
20 45 42
20 45 41
21 46 42
20 45 41
20 45 41
20 45 42
20 45 41
20 44 40
21 46 42
20 44 41
20 45 41
21 46 42
20 45 41
20 45 42
21 46 42
20 44 40
20 45 41
21 46 42
21 46 42
21 47 43
20 45 41
21 46 43
21 46 42
21 46 42
21 47 43
21 45 41
20 45 41
21 46 42
21 46 42
20 45 41
21 47 43
21 47 43
21 46 42
21 46 42
21 47 43
21 47 43
20 45 41
21 46 42
21 46 42
22 48 44
21 46 42
21 46 42
21 46 42
21 47 43
21 47 43
21 47 43
21 46 42
21 47 43
21 47 43
21 47 43
21 46 42
21 47 43
21 46 42
21 47 43
21 47 43
21 46 42
21 46 42
21 46 42
20 45 41
22 48 43
22 47 43
22 48 44
22 48 43
21 47 43
21 47 43
21 45 41
21 47 43
21 47 43
22 47 43
21 47 43
22 48 44
22 48 43
22 49 45
22 48 44
21 47 43
22 48 44
21 46 42
21 47 42
22 48 43
21 47 43
21 47 43
22 49 44
22 48 43
22 48 43
22 48 44
22 48 44
22 47 43
22 48 44
21 47 43
22 48 43
22 48 44
22 48 43
22 48 43
22 48 43
22 47 43
22 48 43
22 48 44
22 48 44
22 48 44
22 49 44
22 48 43
22 48 44
22 48 43
22 48 43
22 48 44
22 49 44
22 48 44
22 48 44
22 48 43
22 49 44
22 48 43
22 48 43
22 48 43
22 49 44
22 48 44
20 45 41
20 45 41
20 45 41
20 45 42
20 44 41
20 44 41
21 46 42
21 46 42
20 45 41
21 46 42
20 45 42
21 46 43
20 45 41
21 46 42
19 43 40
20 45 41
20 45 42
20 45 41
20 45 41
20 45 41
20 45 41
20 45 41
21 46 42
20 45 41
20 45 41
20 45 41
20 45 41
21 47 43
20 45 41
21 45 42
20 44 40
21 46 42
21 46 42
20 45 41
21 46 42
21 46 42
21 47 43
21 46 42
21 47 43
21 46 42
21 46 43
20 45 41
21 46 42
21 47 43
21 46 42
21 45 42
21 46 42
21 46 42
21 46 42
21 46 42
20 45 41
21 46 42
21 46 42
21 47 43
21 46 42
21 47 43
21 47 43
21 46 42
21 47 43
21 47 43
21 46 42
21 46 42
21 47 43
21 46 42
21 47 43
21 46 42
21 47 43
22 48 43
21 47 43
22 48 43
21 47 43
21 47 43
21 47 43
21 46 42
21 47 43
22 47 43
21 47 42
22 48 44
21 46 42
22 48 43
21 46 42
21 46 42
21 46 42
21 47 43
22 48 43
22 48 44
21 47 43
21 47 42
22 48 44
22 48 44
21 47 43
22 48 44
22 48 44
22 49 44
21 47 42
22 48 44
22 49 44
22 48 44
22 49 44
22 48 44
22 48 44
22 48 44
22 48 44
22 48 44
22 49 45
22 47 43
21 47 43
22 48 43
22 48 43
22 47 43
22 48 44
22 48 44
21 47 43
22 47 43
22 48 44
23 49 45
22 47 43
22 48 44
21 46 42
23 49 45
21 46 42
20 44 41
21 46 42
20 44 40
21 46 42
20 45 41
20 44 41
20 44 40
20 45 41
20 44 41
20 45 41
20 45 42
21 46 42
20 44 40
21 46 42
20 45 41
21 45 42
20 45 41
20 45 42
21 46 43
20 45 41
21 46 42
21 46 42
21 46 42
20 45 41
21 46 42
21 46 42
20 45 41
21 46 42
20 45 42
21 46 42
20 44 40
21 46 42
21 46 42
20 45 41
21 46 42
21 47 43
21 46 42
21 46 42
21 46 42
21 45 42
21 47 43
21 47 43
20 45 41
21 47 42
21 46 42
21 47 43
21 46 42
21 45 42
21 46 42
21 47 43
21 46 42
21 46 42
21 45 41
21 46 42
21 47 43
21 47 42
21 47 43
21 46 42
21 46 42
21 47 43
21 46 42
21 47 43
22 48 44
21 47 43
21 47 43
21 47 43
21 47 43
21 45 42
21 47 42
21 47 42
22 48 44
22 47 43
21 46 42
22 48 44
21 47 43
21 47 43
21 47 42
22 47 43
21 47 43
21 47 43
21 47 43
22 48 44
22 47 43
22 48 43
21 47 42
22 47 43
22 48 44
22 48 44
22 48 44
22 48 44
22 48 43
22 48 44
22 47 43
21 47 42
22 48 44
22 47 43
22 48 43
22 48 43
22 47 43
22 48 44
22 49 44
22 47 43
22 48 44
22 49 44
22 48 43
22 47 43
22 48 44
22 48 44
22 48 44
22 47 43
21 47 42
22 48 44
21 47 43
22 48 44
22 48 43
22 49 44
22 49 44
22 49 45
22 48 43
20 45 41
20 45 41
20 44 41
21 46 42
20 44 41
20 45 42
20 44 40
20 45 42
21 46 42
20 45 42
20 45 42
20 45 42
20 45 41
21 46 42
21 46 43
20 44 40
20 45 41
20 44 41
21 46 42
20 45 41
20 45 42
21 46 42
20 44 41
21 46 42
21 47 43
21 46 42
20 45 41
20 44 41
21 47 43
20 45 42
21 48 43
21 46 42
21 46 42
21 45 42
21 46 42
21 45 41
20 44 41
20 45 41
22 48 44
20 45 41
21 47 43
21 46 42
21 46 42
21 46 42
21 46 42
21 47 43
21 46 42
21 47 43
21 47 43
21 46 42
21 45 42
21 46 42
21 47 43
21 47 43
21 46 42
21 47 43
21 46 42
21 46 42
21 46 42
21 46 42
21 47 43
21 46 42
20 45 41
21 47 43
21 46 42
21 47 43
22 48 44
21 47 43
22 48 44
21 47 42
21 47 43
22 48 44
22 48 44
21 47 43
21 47 43
21 47 43
21 46 42
22 48 44
21 46 42
21 46 42
21 46 42
21 47 43
22 47 43
22 48 43
22 48 43
21 47 43
21 47 43
22 48 44
22 48 43
22 48 44
22 49 45
21 47 43
22 49 44
22 47 43
21 46 42
22 47 43
22 47 43
21 47 43
21 47 42
22 48 44
22 48 44
21 46 42
21 47 43
22 48 44
22 48 43
21 46 42
22 48 43
22 49 44
22 49 44
22 49 44
22 48 43
23 50 45
21 47 43
22 48 44
21 47 42
21 47 43
22 48 43
22 49 44
23 50 45
22 47 43
21 46 42
20 44 41
21 46 42
20 44 40
20 45 41
20 45 41
21 46 42
20 45 42
20 45 42
21 46 42
21 46 42
20 45 42
20 45 41
20 46 42
20 45 42
20 45 41
21 46 42
20 45 41
20 45 41
20 45 41
20 45 41
21 46 43
21 46 42
20 45 41
21 46 42
20 45 41
20 45 41
21 45 42
21 46 42
20 45 42
21 47 43
20 45 41
20 45 41
21 46 42
20 45 41
21 46 42
21 46 42
21 46 42
21 46 42
21 46 42
21 47 43
20 45 41
20 45 41
21 46 42
21 46 42
20 45 41
21 45 42
22 48 44
21 46 42
20 45 41
21 47 43
21 46 42
21 47 43
21 47 43
21 46 42
21 47 43
21 46 42
21 46 42
21 47 43
21 46 42
21 47 43
21 47 43
21 45 42
21 47 43
21 46 42
21 47 43
21 46 42
21 47 43
21 47 42
21 47 43
21 47 42
21 47 42
21 47 43
21 46 42
21 47 42
21 46 42
21 46 42
22 47 43
21 47 43
20 45 41
22 48 43
21 47 43
21 47 43
22 47 43
22 48 44
21 47 43
21 46 42
21 47 42
21 47 43
21 47 43
22 48 44
21 47 43
22 48 44
21 47 43
22 47 43
22 48 44
22 48 43
22 48 44
22 47 43
22 48 43
22 48 43
22 48 43
22 48 43
22 49 44
22 48 43
22 48 44
22 47 43
22 48 43
22 48 44
22 48 44
22 49 44
22 48 43
22 49 45
22 48 44
21 47 42
21 47 43
22 49 44
22 49 44
22 48 43
22 48 43
21 46 42
20 45 41
20 45 41
20 44 40
20 45 41
20 44 40
20 45 41
20 45 41
20 45 41
20 45 41
20 45 41
20 45 42
21 46 42
20 45 41
20 44 40
20 45 41
20 45 41
21 45 42
20 44 41
20 45 41
20 45 41
20 45 41
20 44 41
20 45 42
21 46 43
20 45 41
20 45 41
21 46 42
21 46 42
21 46 42
20 45 41
21 46 42
21 46 42
21 45 42
21 46 42
20 45 41
21 46 42
21 46 42
20 45 42
21 47 43
21 46 42
20 45 41
21 46 42
21 47 43
21 47 43
20 45 41
21 46 42
21 46 42
21 46 42
21 45 41
21 47 43
21 45 41
21 46 42
21 46 42
21 47 43
21 46 42
21 46 42
21 46 42
21 47 43
21 47 42
21 47 43
21 47 43
21 47 43
21 47 42
21 47 43
21 47 43
22 48 43
21 46 42
21 47 43
21 47 43
21 47 43
21 47 43
22 48 44
21 46 42
21 47 42
21 46 42
21 47 43
21 46 42
21 47 43
22 48 44
22 49 45
22 48 43
21 47 43
22 48 44
21 47 43
21 47 43
22 49 45
21 46 41
22 48 43
22 48 44
21 47 43
21 47 43
21 46 42
21 47 43
22 48 44
21 47 42
21 47 42
21 47 43
21 46 42
22 48 44
22 47 43
22 48 44
22 48 43
22 48 44
22 49 44
22 48 43
22 47 43
21 47 43
22 49 44
22 47 43
22 48 44
21 47 43
22 49 45
22 49 44
21 47 43
22 48 44
22 48 44
22 48 44
22 49 44
21 47 42
21 46 42
20 45 41
20 45 41
20 45 41
20 44 40
21 46 42
20 44 40
20 45 41
20 45 41
20 44 40
20 44 40
20 44 41
21 47 43
20 44 41
20 45 41
20 45 42
20 45 41
21 46 42
20 44 41
21 46 42
21 46 42
20 45 42
21 46 42
20 45 41
20 45 42
20 45 41
20 45 41
21 46 42
20 45 42
21 47 43
21 46 42
21 46 42
21 46 43
21 46 42
20 45 41
20 45 41
21 47 43
20 45 41
21 46 42
21 45 42
20 45 41
21 46 42
21 47 43
21 47 43
21 46 42
21 46 42
20 45 42
21 47 43
21 45 42
21 46 42
21 46 42
21 46 42
21 46 42
21 46 42
21 46 42
21 46 42
21 46 42
21 47 43
21 47 43
21 47 42
21 46 42
21 47 43
21 47 43
21 46 42
21 46 42
21 46 42
21 47 43
21 46 42
21 46 42
21 46 42
21 46 42
22 48 44
21 47 43
21 47 43
22 48 43
21 47 43
21 46 41
22 47 43
21 47 43
21 47 43
22 48 44
22 48 44
22 48 44
22 48 44
21 46 42
21 46 42
21 46 42
21 46 42
21 47 43
21 47 43
21 46 42
22 48 44
22 49 44
22 48 44
21 47 43
22 47 43
21 46 42
22 47 43
22 47 43
22 47 43
21 47 43
21 47 43
22 48 44
21 47 42
21 47 43
22 48 44
22 47 43
23 49 45
21 47 43
21 47 43
22 48 44
22 49 45
21 47 43
22 48 44
22 48 44
22 47 43
22 49 44
22 48 43
22 47 43
21 47 43
20 45 42
20 45 41
20 45 41
20 45 41
21 46 42
20 44 40
20 45 41
20 44 41
20 45 41
20 44 40
20 44 41
20 45 41
20 45 41
21 46 42
20 44 41
20 45 41
21 46 42
21 46 42
20 45 42
21 46 42
21 46 42
20 44 40
21 46 42
20 45 41
21 46 42
21 46 42
21 46 42
21 46 43
20 45 41
20 45 41
20 45 42
21 46 42
20 45 41
20 45 41
20 45 41
20 45 42
21 46 42
21 46 42
21 45 41
20 45 41
20 45 41
21 46 42
21 46 42
20 45 41
21 47 43
21 46 42
21 47 43
21 46 42
21 45 42
21 46 42
21 47 43
20 45 41
21 46 42
21 46 42
21 46 42
21 46 42
20 45 41
21 46 42
21 46 42
21 46 42
21 46 42
22 48 43
21 46 42
21 47 43
21 46 42
21 46 42
21 47 42
21 46 42
21 46 42
21 46 42
21 47 43
21 46 42
21 46 42
21 46 42
21 47 43
21 47 42
22 47 43
21 47 43
21 46 42
21 47 43
21 47 43
21 47 43
21 46 42
21 47 43
22 48 44
22 48 43
21 47 43
21 47 42
22 47 43
22 48 43
22 48 44
21 47 43
21 46 42
22 48 44
21 47 43
22 47 43
21 47 43
21 47 43
21 47 43
21 47 43
22 48 43
21 47 43
22 48 44
22 48 44
21 47 43
22 49 44
21 47 43
22 48 44
22 49 44
21 47 43
21 47 43
22 49 44
21 47 42
22 48 43
22 47 43
21 47 43
22 47 43
22 48 44
22 49 44
22 49 44
20 45 41
20 45 41
20 45 41
20 44 41
20 45 41
20 45 42
20 45 41
20 44 40
20 44 41
20 45 41
20 44 41
21 46 42
20 44 41
20 45 41
21 46 42
20 45 41
20 44 40
20 45 41
21 45 42
21 46 42
21 46 42
21 46 42
21 46 42
20 45 41
21 46 42
20 44 40
21 46 42
21 46 42
21 46 42
21 46 42
21 46 42
21 46 42
21 46 42
21 46 42
20 45 41
21 46 42
20 45 41
20 45 41
21 45 41
21 46 43
21 46 42
21 46 42
21 46 43
21 46 42
21 46 42
21 46 42
21 46 42
21 47 43
20 45 41
21 47 43
21 47 43
21 46 42
21 46 42
21 46 42
21 46 42
20 45 41
20 45 41
21 46 42
22 47 43
21 46 42
21 46 42
21 47 43
21 47 43
21 45 41
22 48 43
21 47 43
20 45 41
21 47 43
20 45 41
21 47 42
21 47 43
21 47 43
21 46 42
21 45 41
21 47 42
22 48 44
21 47 42
21 46 42
21 46 42
21 47 43
22 48 43
21 47 43
21 47 42
21 47 43
21 46 42
21 47 43
22 48 43
22 48 44
21 47 43
21 47 43
21 47 43
21 46 42
21 46 42
21 47 42
21 47 43
22 48 43
21 47 43
21 46 42
21 47 43
21 46 42
22 47 43
22 48 43
21 47 42
21 47 42
22 48 43
22 48 43
22 48 43
22 48 43
21 46 42
22 48 43
22 48 44
22 48 43
22 48 43
22 49 44
22 49 44
22 49 44
21 47 42
22 47 43
22 48 44
22 48 44
20 44 41
20 45 41
20 44 41
20 45 41
20 45 41
20 44 41
20 44 41
20 45 41
21 46 42
20 44 40
20 45 41
20 45 41
20 45 41
20 44 41
20 44 41
20 44 40
20 45 42
20 44 40
21 46 42
20 45 41
20 44 41
21 46 42
20 45 41
21 46 42
21 46 42
21 46 42
21 46 42
20 45 42
20 45 42
21 46 42
20 45 42
20 45 41
21 46 42
21 46 42
21 46 42
21 47 43
21 46 42
21 47 43
21 46 42
20 45 41
21 46 42
21 46 42
20 45 41
21 46 42
21 45 42
21 46 42
20 45 41
20 45 41
20 45 41
21 46 42
21 46 42
21 47 43
21 45 41
21 46 42
21 46 42
21 46 42
20 45 41
21 47 43
21 47 43
21 46 42
21 46 42
21 47 43
21 46 42
21 46 42
21 46 42
21 45 41
21 47 43
21 47 42
21 47 43
21 45 41
21 46 42
21 47 43
21 47 43
22 48 43
21 46 42
21 46 42
21 46 42
21 46 42
21 47 43
21 47 43
21 46 42
22 48 44
21 47 43
22 48 44
21 46 42
21 47 43
21 47 42
21 46 42
22 48 44
21 47 42
21 45 41
21 47 43
21 47 42
21 47 43
22 49 45
21 47 43
21 47 43
22 49 44
21 47 43
22 48 43
21 47 43
21 47 43
21 47 43
22 47 43
21 47 43
21 47 43
22 48 43
22 48 43
21 47 43
22 48 44
21 47 42
21 47 42
22 48 43
22 48 43
21 47 43
22 49 44
22 48 43
22 48 44
22 48 44
21 46 42
20 44 41
20 45 41
20 44 41
20 45 42
21 46 42
20 44 41
21 46 42
20 45 41
20 45 41
20 45 41
20 45 41
20 44 41
20 45 41
20 45 41
21 46 42
20 45 41
20 45 41
21 46 42
21 46 42
20 45 41
21 46 42
20 45 41
21 46 42
21 47 43
21 46 43
20 45 41
20 45 41
21 46 42
20 45 41
20 45 41
21 47 43
20 45 41
20 45 41
21 46 42
21 46 42
21 46 42
21 46 42
21 46 42
21 46 42
20 45 41
21 46 42
20 45 41
21 46 42
21 47 43
21 47 43
21 46 42
20 45 42
21 47 43
21 46 42
20 45 41
21 46 42
21 46 42
21 46 42
21 47 43
21 46 42
21 46 42
21 46 42
20 44 40
22 48 43
20 45 41
21 47 43
21 46 42
22 48 43
21 47 43
20 45 41
21 46 42
22 48 44
21 46 42
21 47 43
20 45 41
21 47 43
21 46 42
21 47 43
21 47 43
21 46 42
21 46 42
22 47 43
21 47 42
21 47 43
21 46 42
21 46 42
21 46 42
21 46 42
21 47 43
22 48 44
21 46 42
21 46 42
21 46 42
21 45 41
22 47 43
21 47 43
21 46 42
21 47 43
22 48 44
22 48 44
21 46 42
21 47 43
21 47 43
21 47 43
21 46 42
21 47 42
22 48 43
22 48 43
21 47 42
21 47 43
22 48 44
22 48 43
22 48 44
22 48 44
22 48 44
22 49 45
21 47 43
22 48 44
21 47 43
22 48 43
22 48 43
22 47 43
21 47 43
21 47 43
22 49 44
21 46 42
20 45 41
21 46 42
20 45 41
20 44 41
20 44 41
20 45 42
20 44 41
20 45 41
20 45 42
20 45 41
21 46 42
20 44 41
21 46 42
20 45 42
20 45 42
20 44 41
21 46 42
20 44 41
20 45 41
20 45 41
20 45 41
20 45 42
20 44 41
20 45 41
21 46 42
21 46 42
21 46 42
20 45 41
21 46 42
21 46 42
21 47 43
20 44 40
21 46 42
20 45 41
20 45 41
21 46 42
20 45 41
21 46 43
21 46 42
20 45 41
21 46 42
21 46 42
21 47 43
21 47 43
21 46 42
21 45 42
21 46 42
21 46 42
21 46 42
21 46 42
20 45 42
21 46 42
21 46 42
21 46 42
21 47 43
21 46 42
21 46 42
21 46 42
21 46 42
21 47 43
20 45 41
21 47 43
21 47 43
21 46 42
22 48 44
21 46 42
21 46 42
22 48 44
21 46 42
20 45 41
21 47 43
21 46 42
21 46 42
21 47 43
21 46 42
21 47 43
21 46 42
21 47 43
22 48 43
21 47 42
21 47 43
21 47 43
21 47 43
21 47 43
21 46 42
22 48 44
21 47 42
22 48 44
21 47 43
21 46 42
22 48 44
22 48 43
22 48 43
22 48 44
21 46 42
21 47 43
21 47 43
22 48 44
22 48 43
21 47 43
22 48 44
22 48 44
21 47 43
22 48 43
21 47 43
22 48 44
22 49 44
22 48 44
22 48 44
21 47 42
22 48 44
22 48 43
22 48 44
22 47 43
21 46 42
22 48 43
22 48 44
22 48 44
22 48 43
20 44 40
20 44 41
20 45 42
20 45 41
20 44 41
20 45 41
20 44 41
20 44 40
20 45 42
20 44 41
20 45 41
20 45 41
21 46 42
20 45 41
20 45 41
21 46 42
21 46 42
20 46 42
20 45 42
21 46 42
20 45 41
20 44 41
20 45 42
20 45 41
20 45 41
20 45 41
20 45 41
21 46 42
21 46 43
21 46 42
21 46 42
21 45 42
20 45 42
20 45 41
20 45 41
21 46 42
21 46 42
21 46 42
20 45 41
21 45 42
20 45 41
21 47 43
21 46 42
21 46 42
21 46 42
21 46 42
21 46 42
21 45 42
21 46 42
21 47 43
21 46 43
21 45 42
21 46 42
21 46 42
21 47 43
20 45 41
21 47 43
21 45 42
22 48 43
21 46 42
21 46 42
21 46 42
21 46 42
21 46 42
21 46 42
21 45 41
21 46 42
22 48 44
21 47 43
21 46 42
21 46 42
20 45 41
21 46 42
21 46 42
21 46 42
21 46 42
22 48 44
21 47 42
21 45 41
21 46 42
22 48 43
21 47 43
21 47 43
21 46 42
21 46 42
21 47 43
22 48 44
21 47 43
21 46 42
21 46 42
22 48 44
21 47 43
21 46 42
21 47 43
21 47 43
21 46 42
21 47 43
21 47 43
21 47 43
21 47 43
21 46 42
21 46 42
22 48 44
21 47 43
22 48 44
21 47 42
22 48 43
22 47 43
22 48 44
22 48 43
21 47 43
22 48 44
22 48 44
21 47 43
22 48 43
21 47 43
22 48 44
22 47 43
22 49 45
22 48 44
20 44 40
20 44 41
20 45 42
20 44 40
20 45 41
20 45 41
20 45 42
20 45 42
20 45 41
21 46 42
20 45 41
20 45 41
20 45 41
20 44 41
20 45 41
21 46 42
21 46 42
20 45 41
21 46 42
20 45 41
20 45 41
20 44 41
21 46 43
21 46 42
20 45 42
20 44 40
20 45 41
21 46 42
21 46 42
21 46 42
21 46 42
21 46 42
20 45 42
20 45 41
21 46 42
21 46 42
20 45 41
21 46 42
21 45 42
21 46 42
21 46 42
21 46 42
20 45 41
20 45 42
20 44 40
20 45 41
20 45 41
22 48 44
21 46 42
21 46 42
21 46 42
21 46 42
21 46 42
21 47 43
20 45 42
21 46 42
21 46 42
21 47 43
21 46 42
21 46 42
21 46 42
21 46 42
21 45 41
21 46 42
21 46 42
20 45 41
20 45 41
20 45 41
22 47 43
21 46 42
22 48 44
21 46 42
21 47 42
21 46 42
21 46 42
21 46 42
21 46 42
21 47 43
21 46 42
21 46 42
21 47 43
21 47 43
21 47 43
21 47 43
21 47 42
21 46 42
22 47 43
21 46 42
22 48 44
21 47 42
21 47 43
22 47 43
21 47 43
21 47 43
21 46 42
21 47 43
21 47 43
21 46 42
22 48 44
21 47 43
22 48 44
21 47 42
22 48 44
22 47 43
22 48 43
22 48 44
22 48 44
22 47 43
22 48 43
22 47 43
22 48 43
21 47 43
22 49 45
21 47 43
22 48 43
22 48 43
22 49 44
21 47 42
21 47 43
22 47 43
20 45 42
20 44 40
20 45 42
20 44 40
20 45 41
20 45 42
20 44 40
20 44 40
20 45 41
20 45 42
20 45 41
21 46 42
20 44 40
20 45 42
20 44 41
20 44 41
20 44 41
21 46 43
21 46 42
20 45 41
20 44 41
20 44 40
20 45 41
20 45 42
20 44 41
20 45 41
21 46 42
21 46 42
21 45 42
21 46 42
20 45 41
20 45 42
21 46 42
20 45 41
21 47 43
20 45 41
20 44 40
21 46 42
20 45 41
21 46 42
20 45 41
20 45 41
21 46 42
21 45 42
21 47 43
20 45 41
21 47 43
21 46 42
21 46 42
21 46 42
21 46 42
21 47 43
20 45 41
21 46 42
21 46 42
20 45 41
21 46 42
21 47 43
22 48 44
21 46 42
21 47 43
21 47 43
21 46 42
21 45 41
20 45 41
21 47 43
21 45 41
21 46 42
21 46 42
21 47 43
21 46 42
21 46 42
21 47 43
21 47 43
21 47 43
21 47 43
21 46 42
21 46 42
21 46 42
21 47 42
21 45 41
21 47 43
21 46 42
21 46 42
21 47 43
22 48 43
22 48 43
22 48 43
21 47 43
21 47 43
21 47 43
21 47 43
21 47 42
21 46 42
22 48 44
21 47 43
21 46 42
21 45 41
21 47 43
22 49 44
21 47 42
22 48 43
21 47 43
21 47 43
22 48 43
21 47 43
21 47 42
21 47 43
22 48 44
22 49 45
21 47 43
21 46 42
22 48 44
22 48 43
21 47 43
21 47 43
21 47 43
21 46 42
22 48 44
22 48 43
20 44 41
20 45 41
20 45 41
20 45 41
19 43 40
20 45 41
21 46 42
20 45 41
20 44 41
20 45 42
21 46 42
20 44 40
20 45 41
20 44 41
20 44 40
20 45 41
20 45 41
21 46 42
21 46 42
20 44 41
21 46 42
21 46 42
20 44 41
20 44 41
20 45 41
20 45 41
20 45 41
20 45 42
20 45 41
21 46 42
20 45 41
21 46 42
21 46 42
21 45 42
20 45 41
20 45 41
20 45 41
21 46 42
20 45 41
21 46 42
20 45 41
21 46 42
21 46 42
21 47 43
21 47 43
20 45 41
21 46 42
20 45 42
21 46 42
21 46 42
21 47 43
21 46 42
22 48 44
21 45 42
21 46 42
21 46 42
21 46 42
21 47 43
21 45 42
20 45 41
21 47 43
21 46 42
21 46 42
20 45 41
21 46 42
21 46 42
21 47 43
21 46 42
21 47 43
21 47 42
20 45 41
20 45 41
21 46 42
21 47 43
22 48 43
21 46 42
21 46 42
22 48 43
21 47 42
21 47 43
21 47 43
21 46 42
21 46 42
21 47 43
21 47 42
21 46 42
21 46 42
21 46 42
21 47 43
21 47 43
22 48 44
21 47 42
21 46 42
21 46 42
21 47 43
21 47 43
21 47 43
21 47 43
21 47 43
21 46 42
21 47 42
21 47 43
22 47 43
21 47 43
22 48 44
21 46 42
21 47 43
21 47 43
21 46 42
21 46 42
21 46 42
21 47 43
21 47 43
21 47 43
22 49 45
21 47 43
21 47 42
22 49 44
22 48 44
21 47 43
20 45 41
20 45 42
20 44 41
19 43 39
20 45 41
20 45 42
21 46 43
20 45 41
20 44 40
20 45 41
21 45 42
20 45 41
20 45 41
20 44 41
20 45 41
20 44 40
20 45 41
21 46 43
20 45 42
20 45 41
20 44 41
20 45 41
20 45 41
21 46 42
20 45 41
20 44 41
21 46 42
20 43 40
20 45 41
21 47 43
21 46 42
21 46 42
21 46 42
20 45 41
20 45 41
21 46 42
21 47 43
20 45 41
21 46 42
21 46 42
21 46 42
21 46 42
20 44 41
20 45 41
21 46 42
20 45 41
21 46 42
21 46 42
21 46 42
21 46 42
21 46 42
21 46 42
21 46 42
21 47 43
21 46 42
21 46 42
21 45 42
21 47 43
21 45 41
20 45 41
21 46 42
21 47 43
21 46 42
20 45 41
21 46 42
21 46 42
21 47 43
21 46 42
20 45 41
22 48 44
21 47 43
21 46 42
21 46 42
21 45 42
21 46 42
21 46 42
21 47 43
20 45 41
21 46 42
21 46 42
21 46 42
21 46 42
21 46 42
22 48 43
21 47 43
21 46 42
21 47 42
21 47 43
21 47 43
21 46 42
21 46 42
21 46 42
21 47 43
21 46 42
22 47 43
21 47 43
21 47 43
21 46 42
21 46 42
22 48 43
22 48 44
22 48 44
21 47 43
21 46 42
22 48 43
22 49 44
22 48 43
21 47 42
22 48 43
21 47 43
21 46 41
21 47 43
21 46 42
21 46 42
22 48 44
21 47 42
22 48 43
21 47 43
21 47 43
21 46 42
20 44 41
20 45 41
20 45 42
20 45 41
20 43 40
20 45 41
20 45 41
20 45 41
20 45 42
20 45 41
20 45 41
21 46 43
20 45 42
20 45 42
20 45 41
20 45 41
20 45 41
20 45 42
21 46 42
19 43 39
21 46 42
20 45 41
20 45 42
21 46 42
20 45 42
21 46 43
21 46 42
20 45 41
20 44 40
21 46 42
21 46 42
20 45 42
20 45 42
20 45 42
20 45 41
21 45 41
20 45 41
21 46 42
21 46 42
21 46 42
21 45 42
20 45 41
21 46 42
21 46 42
21 46 42
21 46 42
21 46 42
20 44 40
21 46 42
21 45 41
21 46 42
20 44 40
20 45 41
21 46 42
21 46 42
21 46 42
21 46 42
21 46 42
21 45 42
21 46 42
21 47 43
21 46 42
21 46 43
21 46 42
21 46 42
22 48 43
21 47 43
20 45 41
21 47 43
21 46 42
21 46 42
21 46 42
21 46 42
22 48 44
21 47 43
21 47 43
21 47 42
21 47 43
21 46 42
21 47 43
21 47 43
21 46 42
21 46 42
21 47 43
21 47 43
21 46 42
21 46 42
21 46 42
21 46 42
21 47 43
21 47 43
21 47 43
21 47 42
22 47 43
22 49 44
21 46 42
21 47 43
21 46 42
21 47 42
21 46 42
21 47 42
21 47 42
21 46 42
21 47 43
21 47 43
21 46 42
22 48 44
21 47 43
22 48 43
21 47 42
21 46 42
21 46 42
21 47 43
21 47 42
22 48 44
21 47 43
21 47 43
21 47 43
21 47 43
21 47 43
20 45 42
20 45 41
20 45 41
20 45 41
20 44 41
20 44 40
20 44 41
20 45 41
20 45 41
20 45 42
21 46 42
20 45 42
19 43 40
20 44 41
20 45 42
21 46 42
20 45 41
21 46 42
20 45 41
20 45 41
21 46 42
21 46 42
20 45 41
21 46 42
20 45 41
20 45 41
21 46 42
21 46 42
21 46 42
20 44 40
20 45 41
21 46 42
20 45 41
20 45 41
20 45 41
21 46 43
20 45 41
21 46 42
21 47 43
20 45 42
21 46 42
21 46 42
21 46 42
21 46 42
21 45 41
21 47 43
21 46 42
21 46 42
20 45 42
21 46 42
21 46 42
21 46 42
21 46 42
21 46 42
20 45 41
21 46 42
21 46 42
21 46 42
21 46 42
20 45 41
20 44 40
21 46 42
21 46 42
21 46 43
21 47 43
20 45 41
21 47 43
20 45 41
21 46 42
20 45 41
20 45 41
21 47 43
21 46 42
20 45 41
21 47 43
21 46 42
21 46 42
21 45 41
21 46 42
21 46 42
21 46 42
21 46 42
21 47 43
21 46 42
21 47 42
21 47 43
21 46 42
21 47 43
21 46 42
21 46 42
21 47 43
20 45 41
22 48 44
21 46 42
20 45 41
21 46 42
21 46 42
22 48 44
21 46 42
21 47 43
21 47 43
21 46 42
21 47 43
21 45 41
21 47 43
21 47 43
21 47 43
22 48 43
21 47 43
22 48 43
22 48 44
21 47 43
21 46 42
21 46 42
21 46 42
22 48 43
22 49 45
22 47 43
22 48 44
22 48 44
20 46 42
20 44 41
20 46 42
20 45 41
21 46 42
20 45 41
20 44 41
20 45 41
20 45 41
19 43 40
20 44 41
20 44 41
20 45 42
20 45 41
20 45 41
20 45 41
20 45 41
20 45 42
20 45 42
21 46 42
21 46 42
20 45 41
20 44 41
21 46 42
20 44 40
21 46 42
21 45 41
20 45 41
20 44 40
20 45 41
20 45 41
21 47 43
21 47 43
20 45 41
20 45 41
20 44 40
20 45 42
20 45 42
20 45 42
20 45 41
21 46 42
21 46 42
21 46 42
20 44 40
20 45 41
21 46 42
20 45 41
21 46 42
20 45 41
21 46 42
21 47 43
20 45 41
21 47 43
21 46 42
21 47 43
21 46 42
20 45 41
21 46 42
21 47 43
20 45 41
21 47 43
21 46 42
21 47 43
21 47 43
21 46 42
21 46 42
21 46 42
20 45 41
21 45 42
20 45 42
21 46 42
21 46 42
21 46 42
21 47 43
21 46 42
21 45 41
21 46 42
20 45 41
21 46 42
22 48 44
21 47 42
22 48 43
20 45 41
20 45 41
21 46 42
21 47 43
21 46 42
21 46 42
21 47 43
21 47 43
21 47 43
21 47 43
22 48 43
21 47 43
20 44 41
21 46 42
21 46 42
21 47 43
21 47 43
22 48 44
22 48 43
21 46 42
21 46 42
22 48 44
21 47 43
21 46 42
22 48 43
21 46 42
21 47 43
21 47 43
22 47 43
22 48 44
21 47 43
21 47 43
21 47 43
21 47 43
22 48 44
21 47 43
21 47 42
21 47 43
20 44 41
20 45 41
20 45 41
21 46 42
20 44 41
20 44 40
20 45 41
20 44 40
20 44 41
20 45 41
20 45 41
20 44 41
20 44 40
20 45 41
20 45 41
20 44 41
20 45 41
20 45 41
20 45 42
20 45 41
20 45 41
20 45 41
20 45 41
21 46 42
20 45 41
21 46 42
21 46 42
20 44 40
20 45 41
20 45 41
19 43 40
20 45 41
20 45 41
20 45 41
20 45 41
20 45 42
20 44 40
21 46 42
20 45 42
20 45 41
20 45 42
20 43 40
21 46 42
20 44 41
20 45 41
20 45 41
20 45 42
21 46 42
20 45 41
21 46 42
20 45 41
21 46 42
21 45 42
20 45 41
20 45 42
21 46 42
21 46 42
21 46 42
21 46 42
20 44 40
21 46 42
20 45 41
21 46 42
21 46 42
21 46 42
21 46 42
21 45 41
21 46 42
21 46 42
21 47 43
21 46 42
21 46 42
21 46 42
20 45 41
21 46 42
21 46 42
21 46 42
21 46 42
21 47 42
22 49 45
20 45 41
21 47 43
21 46 42
21 46 42
21 47 43
21 46 42
21 46 42
21 46 42
21 46 42
21 46 42
21 46 42
21 46 42
21 46 42
21 46 42
21 46 42
21 46 42
21 46 42
21 46 42
21 47 42
20 45 41
21 46 42
21 46 42
21 46 42
21 47 42
21 46 42
22 48 44
21 46 42
22 48 44
21 47 43
21 46 42
22 48 44
21 47 42
21 47 43
21 46 42
21 47 43
21 47 43
22 48 43
21 46 42
21 45 41
21 47 43
21 46 42
20 45 42
20 44 40
20 45 41
20 44 41
20 45 41
20 45 41
20 44 40
20 45 41
21 46 42
21 46 42
21 46 42
20 45 41
20 45 41
21 47 43
20 44 40
20 44 41
20 45 41
21 46 42
20 45 41
20 45 41
20 45 41
20 45 42
20 45 42
20 45 42
20 45 41
20 45 42
20 45 41
20 44 41
20 46 42
20 44 41
20 45 41
20 45 41
21 46 42
21 45 42
20 44 41
21 46 42
21 47 43
21 46 42
20 45 41
21 46 42
21 46 42
20 45 41
21 46 42
21 46 42
21 46 42
21 46 42
21 46 42
20 45 41
20 45 42
21 46 42
20 45 41
21 46 42
21 45 41
20 44 40
20 44 40
21 45 42
21 47 43
21 46 42
21 45 42
20 45 41
21 46 42
21 47 43
21 46 43
20 45 41
21 46 42
21 46 42
21 46 42
20 45 41
20 45 41
21 47 43
21 47 43
21 47 43
22 48 44
20 45 41
21 46 42
21 47 43
21 45 41
20 44 40
21 47 43
21 46 42
21 47 43
21 46 42
21 46 42
21 46 42
21 47 43
21 47 43
21 46 42
21 46 42
21 46 42
21 47 43
21 46 42
20 45 41
21 46 42
21 47 43
21 46 42
20 45 41
21 47 43
21 46 42
21 47 43
21 47 43
21 47 43
21 47 43
21 47 43
21 47 43
21 47 43
21 47 43
21 47 42
21 47 43
21 47 43
21 47 43
21 46 42
21 47 43
21 47 43
22 49 44
21 46 42
22 48 43
21 46 42
21 46 42
21 45 41
20 45 41
20 45 41
20 45 42
20 44 41
20 45 41
20 44 41
20 44 41
21 46 42
20 45 42
21 46 42
20 45 41
20 44 41
20 44 40
20 44 41
20 45 41
20 45 41
20 45 42
20 45 42
20 45 41
20 45 41
20 45 41
20 45 41
20 45 41
20 46 42
20 45 41
20 45 41
20 45 41
20 45 41
21 46 42
20 45 42
21 47 43
20 44 40
20 45 42
21 46 42
21 46 42
20 45 41
20 44 40
20 45 42
21 46 42
20 44 41
20 45 41
20 45 41
20 45 41
21 46 43
21 47 43
20 45 41
21 47 43
20 45 41
20 45 41
21 47 43
21 47 43
20 45 42
21 46 42
21 46 42
20 45 41
20 45 42
21 47 43
21 47 43
20 45 41
20 45 41
21 46 42
20 45 41
21 46 42
21 46 42
21 46 42
21 46 42
21 45 42
21 46 42
20 45 41
20 45 41
20 44 41
21 46 42
21 47 43
21 47 43
21 47 43
21 47 43
21 46 42
21 46 42
20 45 41
20 45 41
21 46 42
21 46 42
20 44 40
21 46 42
21 46 42
21 46 42
21 46 42
22 48 44
21 47 43
21 47 43
21 46 42
21 46 42
21 46 42
21 46 42
21 46 42
21 46 42
21 47 43
21 47 43
21 46 42
22 47 43
21 47 43
21 45 41
21 46 42
21 47 43
21 46 42
21 46 42
21 46 42
21 47 43
22 48 43
21 46 42
22 48 43
21 46 42
21 46 42
22 47 43
21 47 43
21 47 43
21 46 42
22 48 44
21 47 43
21 46 42
20 44 40
20 45 41
20 44 41
20 45 42
21 46 42
19 43 40
21 46 42
20 45 42
20 45 41
20 45 41
20 44 41
20 44 40
20 45 41
20 44 40
20 44 41
20 44 41
20 45 41
20 45 41
20 45 42
20 45 41
20 44 41
20 45 42
21 46 42
21 46 42
20 45 41
20 45 41
20 44 41
21 46 42
21 46 42
21 46 42
20 44 41
20 45 41
20 45 41
20 45 41
21 46 42
20 44 41
21 46 42
20 45 41
20 45 41
21 46 42
20 45 41
20 44 40
20 45 41
21 46 43
20 45 42
21 45 42
21 46 42
21 46 42
20 45 41
21 47 43
20 45 41
21 47 43
21 46 42
21 46 42
21 47 43
21 46 42
20 45 41
21 46 42
21 46 42
20 45 41
21 46 42
20 45 41
21 46 43
21 46 42
21 47 43
21 47 43
21 46 42
21 46 42
21 46 42
21 47 43
21 46 42
21 47 43
21 46 42
21 46 42
21 46 42
21 47 43
21 46 42
21 46 42
20 45 41
20 44 41
21 46 42
21 46 42
21 47 43
21 47 43
21 46 42
21 47 43
21 46 42
21 46 42
21 45 42
21 46 42
21 46 42
21 47 43
21 45 41
21 46 42
21 46 42
20 45 41
21 46 42
21 46 42
21 47 43
21 46 42
21 45 41
21 47 42
22 48 43
21 46 42
21 47 43
21 46 42
21 46 42
21 47 42
21 47 43
21 47 43
21 47 43
21 47 43
21 47 43
21 47 43
21 46 41
21 46 42
21 47 43
21 46 42
21 46 42
21 46 42
20 44 40
20 44 40
20 44 40
20 45 41
20 44 41
19 43 40
20 44 41
21 46 42
20 44 41
20 44 41
20 45 42
21 46 42
20 44 41
20 45 41
20 44 41
20 45 41
21 47 43
20 45 41
20 45 41
20 45 42
20 45 41
21 46 42
20 45 41
21 46 42
20 45 41
20 45 41
20 44 41
20 45 41
20 45 41
20 44 41
20 44 40
21 46 42
20 45 42
21 46 42
20 45 42
20 45 41
21 46 43
20 45 41
20 45 42
20 45 42
20 45 41
20 45 41
21 46 42
21 46 43
21 47 43
20 45 42
20 44 41
20 45 42
20 45 41
21 47 43
21 46 42
20 45 42
21 46 42
20 45 41
21 46 42
21 46 42
21 45 42
21 46 42
21 46 42
21 46 42
21 46 42
21 46 42
21 46 42
21 47 43
21 46 42
21 46 42
21 46 42
21 46 42
20 45 41
20 45 41
20 45 41
21 47 43
20 45 41
21 46 42
21 47 43
21 45 42
21 47 43
21 46 42
21 46 42
21 46 42
21 47 43
21 46 42
21 46 42
20 44 40
21 47 43
21 46 42
21 46 42
21 46 42
20 45 41
21 46 42
21 46 42
21 46 42
21 46 42
21 46 42
21 46 42
20 45 41
21 47 43
21 47 43
20 45 41
21 47 43
21 45 41
21 46 42
21 46 42
21 47 43
21 46 42
21 47 43
21 46 42
21 47 42
22 48 44
21 47 42
21 46 42
21 47 43
21 47 43
21 47 43
21 46 42
22 48 44
21 46 42
21 46 42
22 47 43
21 47 43
21 46 42
20 45 41
20 44 40
20 44 41
20 44 41
20 45 41
20 44 40
20 44 40
20 44 40
20 44 40
20 44 41
20 45 41
21 46 43
20 44 41
21 46 42
20 45 41
21 46 42
20 45 41
20 45 41
21 46 42
20 45 41
21 46 42
20 45 41
21 46 42
20 45 41
20 45 41
20 45 41
21 46 42
21 46 42
21 46 42
20 44 41
21 46 42
21 47 43
21 47 43
20 45 42
20 45 41
20 45 41
20 45 41
20 45 41
20 44 41
20 45 41
20 45 41
20 45 42
20 45 41
20 45 41
20 45 41
20 45 41
22 48 44
20 45 41
20 44 40
21 46 42
21 47 43
20 45 41
21 47 43
20 45 41
20 45 41
20 45 41
20 45 41
20 45 41
21 46 42
20 45 41
21 47 43
21 46 42
21 47 43
21 46 42
21 46 42
21 46 42
21 46 42
21 47 43
21 47 43
20 45 41
21 47 43
21 47 43
21 47 43
21 46 42
20 45 41
21 46 42
21 47 43
21 47 43
21 46 42
21 47 43
21 46 42
21 46 42
21 47 43
20 45 41
21 46 42
21 47 43
21 46 42
21 47 43
21 45 41
21 46 42
21 46 42
21 47 43
21 47 43
21 46 42
21 45 42
22 48 44
21 46 42
21 46 42
20 45 41
21 46 42
21 47 43
21 46 42
21 47 43
21 46 42
21 46 42
21 47 42
21 47 43
21 46 42
21 46 42
21 46 42
22 48 44
21 47 43
22 48 44
22 47 43
21 47 43
22 48 43
22 48 44
22 47 43
22 47 43
20 45 42
21 46 42
20 45 41
20 44 41
20 45 41
20 44 40
20 45 42
20 44 40
20 45 41
21 47 43
20 45 41
21 46 42
20 45 41
20 45 41
21 47 43
20 45 42
20 44 40
20 44 40
21 46 42
21 46 42
20 45 41
20 45 41
21 46 42
20 45 41
20 45 41
20 44 41
20 44 40
21 46 42
20 45 42
20 44 40
20 44 41
20 45 41
20 45 41
20 44 41
20 45 41
21 46 42
20 45 42
20 45 41
21 46 42
20 44 41
20 45 42
21 46 42
21 46 42
21 46 42
20 45 41
20 45 41
20 45 41
20 45 41
21 46 42
20 45 41
21 46 42
20 44 41
20 45 41
21 46 42
21 46 42
20 45 42
20 45 41
21 45 42
21 47 43
21 46 42
20 45 41
21 47 43
21 46 42
21 46 42
20 45 41
21 46 42
21 47 43
21 46 42
21 46 42
20 45 41
21 46 42
21 46 42
21 47 43
21 48 44
21 46 42
20 45 41
21 46 42
21 47 43
21 46 43
21 46 42
21 46 42
21 46 42
21 46 42
21 46 42
21 47 43
21 45 42
21 46 42
21 46 42
21 46 42
20 44 40
21 46 42
21 47 43
20 45 41
21 47 43
21 47 43
21 47 43
21 46 42
22 48 43
21 47 43
21 46 42
21 47 43
22 48 44
22 48 43
21 47 43
21 47 43
21 47 43
21 46 42
22 48 44
22 47 43
21 47 43
21 46 42
22 48 44
21 46 42
21 45 41
22 47 43
21 46 42
21 46 42
21 46 42
22 47 43
22 48 44
20 44 41
20 45 42
20 44 41
20 44 41
20 44 40
20 45 41
20 44 41
20 44 40
20 44 41
19 43 40
20 45 42
20 45 41
20 45 42
20 44 41
20 44 40
20 45 42
20 45 41
20 45 41
20 44 40
20 44 41
20 45 42
20 45 41
21 46 42
20 45 41
20 45 42
20 45 42
20 44 41
20 45 41
21 46 43
20 43 40
20 45 42
19 43 40
20 45 41
20 45 41
21 46 42
20 45 41
21 46 42
21 46 42
20 44 41
21 46 42
20 45 41
20 45 42
20 44 41
20 45 41
21 46 42
20 45 41
21 46 42
20 45 42
21 46 42
21 46 43
20 45 41
20 45 41
20 45 42
21 47 43
20 45 42
21 46 42
20 45 42
21 46 42
20 45 41
21 46 42
21 46 42
21 46 42
20 45 41
20 45 41
20 45 41
20 45 41
21 45 42
21 46 42
20 45 41
21 46 42
21 46 42
20 45 41
21 47 43
21 46 42
21 46 42
21 47 43
20 45 41
20 45 41
20 45 41
21 46 42
21 47 43
21 46 42
21 46 42
20 44 40
20 45 41
20 43 40
20 45 41
21 46 42
21 45 41
21 45 42
21 46 42
20 45 41
21 45 41
20 45 41
21 45 41
21 45 42
21 46 42
21 47 43
21 47 43
21 46 42
20 45 41
22 49 44
21 45 41
22 47 43
21 46 42
21 46 42
21 46 42
21 46 42
21 47 43
21 46 42
21 46 42
21 47 42
21 46 42
22 47 43
21 47 42
21 46 42
22 47 43
22 47 43
21 46 42
22 48 44
20 44 40
20 44 40
20 44 40
20 46 42
19 43 40
20 44 40
20 44 41
20 44 40
20 45 42
20 45 41
20 45 42
20 45 41
20 44 41
21 46 42
20 45 41
20 45 41
20 45 42
20 44 41
20 44 40
20 44 41
20 44 40
21 46 42
21 46 42
21 46 42
20 45 41
20 45 41
20 44 41
20 44 41
20 44 41
20 45 41
20 45 41
20 43 40
20 44 40
21 46 42
20 45 41
20 45 42
20 45 41
21 46 42
21 47 43
20 44 41
20 45 42
20 45 42
21 47 43
20 45 41
20 45 42
21 46 42
21 46 42
20 45 41
21 47 43
21 47 43
21 46 42
20 45 41
20 45 41
21 45 42
20 45 41
20 45 41
20 45 42
21 46 42
20 44 40
20 45 41
21 47 43
20 45 41
20 45 41
21 46 42
21 46 42
20 45 41
21 46 42
21 46 42
20 45 41
21 46 42
20 45 41
20 44 40
21 46 42
21 46 42
22 48 44
20 45 41
20 45 41
20 45 42
20 45 41
20 45 42
21 46 42
21 46 42
21 46 42
21 47 43
21 47 43
20 45 41
21 46 42
21 46 42
21 46 42
21 47 43
21 46 42
21 46 42
21 46 42
20 45 41
20 45 41
21 46 42
21 47 43
21 47 43
21 46 42
21 46 42
21 45 42
21 46 42
21 46 42
21 46 42
21 46 42
21 47 43
22 47 43
21 46 42
21 46 42
22 47 43
22 48 44
21 46 42
22 47 43
21 45 41
21 46 42
22 48 44
22 47 43
22 46 42
22 47 43
22 47 43
21 46 42
20 45 41
20 45 41
20 46 42
20 45 41
20 44 40
20 44 41
20 45 41
20 44 41
20 45 41
20 45 41
20 45 41
20 44 41
20 45 41
20 44 41
20 45 42
20 45 41
20 44 41
20 44 40
20 44 40
20 45 41
20 45 41
20 45 42
21 46 42
21 46 42
21 46 42
20 45 42
21 47 43
21 46 42
21 46 43
21 46 42
20 44 41
21 45 42
20 45 42
20 45 41
20 44 40
20 45 41
21 46 42
20 45 41
20 44 40
21 46 42
20 45 41
21 46 42
20 44 41
20 44 41
20 45 41
21 46 42
20 45 41
21 46 42
20 45 41
20 45 41
20 45 41
20 45 41
21 47 43
20 45 41
20 45 41
21 46 42
21 46 42
20 45 41
21 46 42
20 45 41
21 46 42
21 46 42
21 46 42
20 45 41
21 46 42
21 46 42
21 46 42
20 45 41
21 46 42
21 45 42
20 45 41
20 45 41
21 46 42
20 44 40
21 45 42
21 45 42
21 47 43
20 45 41
21 46 42
21 46 42
21 46 42
21 47 43
21 47 43
21 47 43
21 46 42
21 47 43
21 47 43
21 46 42
21 47 43
21 46 42
20 45 41
21 46 42
21 46 42
20 45 41
21 47 43
21 46 42
21 47 42
20 44 40
22 48 43
21 46 42
21 47 43
21 47 43
21 46 42
21 46 42
21 47 43
21 46 42
21 46 42
22 48 43
21 47 42
21 46 42
22 47 43
22 46 42
22 47 43
22 46 42
22 46 42
22 46 42
22 47 43
23 48 44
23 48 44
20 44 40
20 44 41
19 43 40
20 45 41
20 44 41
20 44 41
20 45 42
20 46 42
20 45 42
20 45 41
21 46 42
20 44 41
21 46 42
21 46 42
20 45 42
20 45 42
20 44 40
20 45 42
20 45 41
20 44 41
20 45 42
20 45 41
21 46 42
20 45 41
20 44 40
20 44 41
20 44 40
20 45 41
21 46 42
20 45 42
20 45 41
20 45 41
21 46 42
20 44 41
20 45 41
20 44 40
20 45 41
21 47 43
20 45 41
21 46 42
20 45 41
20 45 41
21 46 42
21 46 42
20 45 41
21 46 42
20 45 41
20 45 41
21 46 42
20 45 41
20 45 41
21 46 42
21 46 42
20 44 41
20 45 41
21 46 42
21 46 43
21 47 43
20 45 42
21 47 43
20 45 41
20 45 41
20 45 41
21 46 42
21 46 42
21 46 42
22 48 44
21 46 43
20 45 41
21 47 43
21 46 42
21 46 42
21 46 42
21 46 42
20 45 41
20 44 40
21 47 43
21 47 43
21 47 43
20 45 41
20 45 41
21 47 43
21 46 42
21 46 42
21 46 42
20 44 40
21 46 42
21 47 43
20 45 41
20 44 41
21 47 43
20 45 41
21 46 42
21 47 43
22 48 44
21 46 42
21 45 41
21 47 43
21 47 43
21 46 42
21 46 42
21 47 43
21 45 41
21 46 42
21 46 42
22 48 43
21 47 43
21 45 41
22 47 43
22 47 43
22 47 42
22 47 43
22 46 42
22 47 43
22 47 42
22 47 43
22 47 43
23 48 43
23 48 43
22 46 42
20 45 42
19 43 40
19 43 40
20 44 40
19 43 40
20 44 41
20 45 41
19 43 40
20 44 41
20 45 42
20 45 41
19 43 40
20 45 41
20 44 40
20 45 41
20 44 41
21 46 42
20 45 41
20 45 42
21 46 42
20 45 41
20 44 40
20 44 41
20 45 41
20 45 41
19 43 40
20 45 41
20 45 41
20 45 41
20 45 41
20 45 42
20 44 41
20 45 41
20 45 41
20 44 40
20 45 41
21 47 43
20 45 41
20 45 41
20 45 41
20 45 41
20 44 41
20 44 41
20 44 40
20 46 42
20 44 40
20 45 42
20 45 41
20 45 42
20 45 41
20 45 41
20 44 41
20 44 40
21 46 42
20 45 41
20 45 42
20 45 42
20 45 42
20 45 41
21 46 42
20 45 41
20 45 41
20 44 40
20 45 42
21 46 42
21 45 42
20 45 42
21 46 42
20 45 41
21 46 42
21 46 42
21 46 42
20 45 42
21 46 42
21 46 42
21 46 42
21 46 42
21 46 43
21 46 42
21 45 42
21 46 42
21 46 42
21 46 42
20 45 42
20 45 41
21 46 42
20 45 41
21 46 43
21 45 41
21 45 42
21 46 42
21 46 42
21 46 42
22 48 43
21 47 43
21 46 42
21 47 43
21 45 42
20 45 41
21 46 42
22 47 43
21 47 43
21 45 41
21 45 41
22 47 43
21 45 41
21 46 42
21 45 41
22 46 42
22 46 42
22 47 43
22 47 43
22 48 43
22 46 42
23 48 44
23 48 44
22 46 42
23 47 43
23 47 43
23 47 43
20 44 40
20 44 40
19 43 40
19 43 40
20 44 41
20 45 42
20 44 41
20 44 41
19 43 40
20 43 40
20 45 41
20 44 41
20 44 41
20 44 41
21 46 42
20 45 42
20 45 41
20 45 41
20 46 42
20 45 41
19 43 39
20 45 41
20 45 41
20 45 41
20 44 40
20 44 40
20 44 40
20 45 41
20 44 41
20 45 41
20 45 42
20 45 41
20 45 41
21 46 42
20 45 41
20 44 41
20 45 42
20 45 41
20 44 40
21 47 43
20 44 41
20 46 42
20 45 41
21 46 42
20 44 41
20 44 41
20 44 40
21 46 42
21 46 42
20 45 41
21 46 42
20 45 41
20 45 42
20 45 41
21 46 42
21 46 42
20 45 42
21 46 42
20 44 41
21 46 42
21 46 42
20 44 41
20 44 41
21 47 43
21 45 41
20 45 41
21 46 42
21 46 42
21 46 42
21 46 42
21 46 42
21 46 42
20 45 41
21 46 42
20 45 42
21 45 42
20 45 41
21 46 42
21 46 42
20 45 41
21 46 42
20 45 41
21 46 42
21 46 42
20 45 41
21 47 43
21 46 42
21 46 42
21 47 43
21 46 42
20 45 41
21 46 42
21 46 42
21 45 41
21 46 42
21 45 42
21 46 42
21 46 43
21 45 41
21 46 42
21 46 42
21 46 42
21 45 42
21 46 42
22 47 43
22 46 42
22 47 43
21 46 42
22 46 42
23 48 44
22 47 43
22 47 43
23 47 43
22 45 41
23 47 43
22 46 42
23 48 44
23 47 43
23 47 42
24 47 43
21 46 42
19 43 40
20 44 41
20 45 41
20 45 41
20 45 42
21 46 42
20 45 41
20 44 40
20 45 41
20 45 41
20 45 41
20 45 41
20 44 41
21 46 42
20 45 41
20 45 41
20 44 40
20 45 41
20 45 41
21 46 42
20 44 40
20 45 41
20 45 41
20 45 42
20 45 41
20 45 41
20 44 41
20 45 41
20 45 41
20 44 40
20 45 41
20 44 41
21 46 42
20 45 42
20 44 41
20 45 41
20 45 41
20 44 40
20 45 42
20 46 42
20 45 41
21 46 42
20 45 42
20 45 41
20 44 41
20 44 40
20 45 41
21 47 43
20 44 40
20 44 41
20 44 41
20 44 40
20 45 41
20 45 41
21 46 42
20 44 40
20 44 41
21 46 42
20 45 42
20 45 42
20 45 42
20 45 41
21 47 43
21 46 42
21 46 42
20 45 41
20 45 41
20 45 41
20 44 40
20 44 40
20 45 41
21 46 42
20 44 41
21 46 42
20 45 41
20 44 41
21 45 42
21 46 42
20 45 41
21 46 42
21 47 43
20 45 41
20 45 41
21 46 42
21 47 43
20 45 41
21 46 42
21 46 42
21 46 42
21 46 42
21 45 42
21 47 43
21 46 42
21 47 43
21 46 42
22 47 43
21 46 42
21 46 42
21 47 43
21 46 42
21 46 42
21 46 42
22 47 43
22 47 43
22 47 43
22 46 42
22 47 43
22 46 42
22 46 42
22 46 42
23 48 44
23 47 43
23 48 43
23 46 42
23 47 43
23 46 42
24 48 44
24 47 43
24 47 43
20 45 41
20 45 41
20 44 40
21 46 42
20 45 42
20 45 41
20 45 41
20 45 42
21 46 42
21 46 42
20 45 41
20 45 42
19 43 40
20 44 40
20 45 41
20 45 41
20 45 41
20 44 41
20 44 41
20 44 41
20 45 41
20 44 41
20 45 41
20 44 41
21 46 42
20 45 41
20 44 40
20 45 41
20 44 41
20 45 41
20 45 41
20 45 41
21 46 42
20 45 41
20 45 42
20 44 41
20 44 41
20 44 40
20 45 42
20 45 41
20 44 41
21 47 43
20 45 42
21 46 42
20 44 41
20 45 41
21 47 43
20 44 40
21 46 42
20 44 40
20 44 41
21 46 42
21 46 42
21 46 42
20 45 41
20 44 40
20 45 41
20 45 41
21 46 42
21 46 42
20 45 41
21 46 42
21 46 42
20 45 41
20 45 41
20 45 42
20 45 41
20 45 41
21 46 42
20 45 41
21 47 43
21 47 43
21 46 42
21 46 42
20 44 41
20 45 41
20 45 42
20 44 40
20 45 41
20 45 41
22 48 44
20 45 41
20 45 41
20 44 40
21 46 42
21 46 42
21 47 43
21 46 42
20 45 41
21 46 42
21 46 42
21 46 42
21 46 42
21 45 41
21 46 42
21 46 42
21 45 41
22 47 43
21 45 41
21 46 42
21 46 42
22 47 43
21 45 41
22 47 43
21 45 41
22 46 42
22 47 43
22 47 42
22 46 42
22 46 42
23 48 44
23 47 43
23 47 43
23 46 42
24 48 44
24 48 44
25 49 44
25 49 45
25 47 43
25 48 43
20 45 41
20 44 41
20 44 41
20 45 41
20 43 40
20 44 40
19 43 40
20 44 41
20 44 40
20 45 41
20 44 41
20 44 40
20 44 40
20 44 41
20 44 40
21 46 42
20 46 42
20 44 41
20 44 40
20 45 42
20 44 40
20 45 41
20 46 42
20 45 41
20 45 42
21 46 42
20 43 40
20 43 40
20 45 41
20 45 41
20 45 41
20 44 40
20 45 41
20 45 41
20 45 41
20 45 41
20 44 40
20 45 41
21 46 42
20 45 42
20 45 41
21 46 42
20 45 41
20 45 41
21 46 42
20 45 42
21 46 42
20 45 41
20 45 41
21 46 42
21 46 42
21 46 43
20 45 41
20 44 41
21 46 42
21 46 42
20 45 41
20 45 41
20 45 41
20 44 41
21 46 42
21 46 42
20 45 41
20 45 41
21 47 43
21 46 42
20 44 41
21 46 42
20 45 41
21 46 42
20 45 41
20 45 41
21 46 42
21 47 43
21 47 43
20 45 41
21 46 42
20 44 40
21 46 42
21 45 42
21 46 42
20 45 41
21 46 42
20 44 41
20 45 41
20 45 41
21 46 42
20 45 41
21 46 42
21 46 42
21 46 42
21 47 43
20 45 41
21 45 41
21 47 43
21 47 43
22 48 44
22 47 43
22 47 43
22 47 43
21 46 42
22 46 42
21 45 41
22 46 42
23 47 43
22 46 42
23 47 43
22 45 41
23 47 43
23 47 43
23 47 43
24 47 43
24 49 44
25 49 44
24 48 44
24 47 43
25 49 45
25 46 42
26 49 44
26 48 44
20 45 41
20 44 41
20 45 41
19 43 39
20 44 41
20 45 41
20 45 41
20 44 41
19 43 40
20 44 41
20 45 41
20 45 41
20 44 40
20 45 42
20 44 40
20 45 41
21 46 42
20 45 42
20 45 41
20 45 41
21 46 42
20 45 42
20 44 40
20 45 41
20 45 41
20 45 42
20 45 42
20 44 41
20 44 40
20 46 42
20 45 42
20 45 42
20 44 40
21 46 42
21 46 42
20 44 41
21 46 42
20 45 41
21 46 42
20 45 41
20 45 41
21 46 43
20 44 41
20 44 40
21 46 42
20 45 42
20 45 41
20 45 42
20 45 41
21 46 42
20 44 40
20 45 41
21 46 42
21 46 42
20 45 42
21 46 42
21 46 42
21 46 42
20 45 41
20 45 41
20 44 41
20 45 42
20 45 42
20 45 41
21 46 42
20 45 41
20 45 41
21 46 43
20 45 41
21 46 42
21 46 42
21 46 42
20 45 41
21 47 43
21 46 42
21 46 42
21 47 43
20 45 41
21 46 42
21 46 42
21 45 42
20 44 40
21 46 42
20 45 41
21 45 41
20 45 41
21 47 43
21 46 42
21 46 42
20 45 41
21 45 42
21 46 42
21 45 41
21 45 42
21 45 41
21 46 42
21 45 41
22 46 42
21 46 42
22 46 42
22 46 42
22 47 43
21 45 41
22 47 43
23 47 43
23 47 43
23 46 42
23 46 42
23 47 43
24 47 43
24 47 43
24 46 42
24 47 43
25 47 43
25 48 44
26 48 44
26 48 44
26 48 44
26 47 43
27 48 44
20 45 41
20 45 41
20 44 41
20 44 40
20 44 40
20 44 41
20 44 40
20 45 41
20 44 40
20 45 42
20 45 42
20 45 41
20 45 42
20 44 40
20 46 42
20 44 41
20 45 41
20 45 41
19 43 40
20 44 40
20 45 42
21 46 42
20 43 40
20 44 40
20 44 41
20 45 42
20 45 41
20 45 41
21 46 42
20 46 42
20 45 42
20 43 40
19 43 40
20 44 41
20 44 41
21 46 43
20 44 41
21 46 42
21 46 42
20 44 40
21 46 42
21 45 42
20 45 41
20 44 41
20 45 41
20 45 42
20 45 41
20 45 41
20 44 41
21 47 43
20 45 41
20 45 41
21 46 42
20 44 40
21 47 43
20 45 42
20 45 41
20 45 41
20 45 41
20 45 41
20 44 41
20 45 41
21 47 44
20 44 41
20 45 41
20 45 42
20 45 41
20 45 41
20 45 41
21 46 42
21 46 42
20 45 41
21 46 42
21 47 43
21 46 42
20 45 41
21 46 42
20 44 41
20 44 40
20 45 41
21 46 42
20 45 41
21 45 42
21 46 42
20 45 41
21 46 42
21 45 42
21 46 42
21 46 42
21 46 42
21 46 43
21 46 42
21 46 42
21 45 41
21 45 42
22 47 43
21 45 41
21 46 42
22 47 43
22 46 42
22 46 42
23 48 44
23 48 44
23 47 43
22 46 42
23 47 42
23 47 43
24 47 43
24 47 43
23 45 41
24 47 43
24 47 42
26 49 44
25 47 43
25 46 42
26 48 43
27 48 43
27 49 44
28 49 44
28 48 44
20 45 42
20 45 41
20 44 41
19 43 40
20 43 40
20 45 41
20 45 41
20 44 40
20 44 41
20 45 41
20 44 41
20 45 41
20 45 41
20 44 41
20 45 41
20 44 41
20 45 41
20 44 40
20 45 41
20 44 40
20 44 40
20 45 41
20 45 42
20 45 41
21 46 42
20 44 41
20 45 42
20 45 41
19 43 40
20 44 40
20 45 41
20 43 40
21 46 42
20 45 41
20 44 41
20 44 40
21 46 42
20 45 41
20 45 41
20 45 41
21 46 42
20 45 42
20 45 42
21 46 42
20 45 42
20 44 41
21 46 42
20 45 41
21 46 42
20 45 42
20 45 41
21 46 43
21 46 42
20 45 41
20 44 41
21 46 42
20 45 42
20 44 41
21 46 42
20 44 41
20 45 42
21 46 42
20 45 41
21 46 42
21 47 43
20 45 42
20 45 42
21 46 42
21 46 42
21 46 42
20 45 41
20 45 41
21 48 44
20 44 41
20 45 41
20 45 41
20 45 41
20 45 41
20 45 41
21 45 42
21 45 42
21 45 42
21 46 42
20 45 41
21 46 42
21 45 41
21 46 42
21 46 42
20 43 40
21 45 41
21 46 42
21 46 42
22 47 43
21 46 42
21 45 41
22 48 43
21 45 41
22 47 42
22 46 42
22 47 43
22 46 42
22 46 42
23 47 43
23 47 43
23 46 42
23 46 42
23 46 42
24 46 42
25 48 43
25 47 43
25 48 43
25 47 43
26 49 44
26 47 43
26 47 43
27 48 44
28 49 45
28 49 44
29 50 45
30 51 46
20 44 40
20 45 41
19 43 40
21 46 42
20 44 40
20 45 41
20 44 41
20 43 40
20 45 41
20 44 41
20 44 41
20 44 40
20 44 41
20 45 41
20 45 42
19 43 39
20 44 41
20 44 41
20 44 40
20 45 41
21 46 42
20 44 41
20 44 40
20 45 41
20 45 41
20 45 42
20 45 42
20 45 41
20 44 40
20 45 41
20 45 41
20 44 41
20 45 42
20 45 41
20 46 42
20 45 41
20 45 41
20 45 42
20 45 42
20 45 42
21 46 42
20 45 41
20 45 41
20 45 42
19 43 40
20 44 41
21 46 42
21 46 42
20 44 40
21 46 42
21 46 43
20 45 42
21 47 43
21 46 42
20 45 41
20 45 41
21 46 42
20 45 41
21 46 42
20 45 41
20 45 41
20 45 41
20 45 41
20 45 41
21 46 42
20 45 41
21 46 42
20 45 42
21 46 42
20 45 41
20 45 41
21 46 42
21 46 42
21 46 42
20 45 41
20 45 42
21 46 42
20 45 41
21 46 42
21 46 42
21 46 42
20 44 41
20 44 41
21 45 42
22 47 43
21 46 42
21 47 43
20 45 41
21 47 43
21 46 42
21 46 42
21 45 42
22 47 43
22 47 42
22 46 42
22 46 42
22 47 43
22 46 42
22 45 41
22 46 42
22 46 42
23 48 44
23 47 43
23 46 42
24 48 43
24 48 44
25 48 44
25 48 44
25 48 44
26 49 44
25 47 42
26 48 44
27 48 44
28 50 45
28 50 45
29 51 46
29 49 44
29 49 45
31 52 47
31 51 46
20 45 41
20 45 42
20 44 41
19 43 40
20 45 41
20 44 40
20 44 40
20 45 42
20 44 40
20 45 42
20 44 40
19 43 40
20 45 41
20 45 42
21 46 42
21 46 42
20 46 42
20 45 41
21 47 43
20 44 40
21 46 42
21 46 42
20 44 40
20 45 41
21 46 42
20 45 42
20 44 40
21 46 42
20 45 41
20 45 41
20 46 42
20 45 41
20 44 41
20 45 41
21 46 42
20 45 41
20 44 41
20 44 40
19 43 40
21 46 42
21 46 42
19 43 39
20 45 41
20 44 40
20 45 41
20 44 41
20 45 41
20 44 41
20 45 41
20 44 40
20 45 41
20 45 41
20 44 41
20 44 40
21 45 42
20 44 40
21 46 42
21 46 42
20 44 41
20 45 41
20 44 41
20 44 40
20 44 41
20 45 41
20 45 41
20 45 41
20 44 40
21 46 42
21 46 42
20 45 42
20 45 41
20 44 40
21 46 42
20 45 41
20 45 41
20 45 42
21 46 42
21 46 43
21 46 42
20 45 41
21 45 42
21 46 42
21 46 42
21 45 42
21 45 42
21 46 42
21 45 42
20 44 41
21 45 42
21 46 42
21 46 42
21 45 41
21 46 42
22 46 42
22 46 42
22 46 42
22 46 42
22 46 42
22 45 41
23 47 43
23 47 43
23 46 42
23 47 43
24 47 43
24 47 43
24 47 43
25 48 44
26 49 44
26 48 44
26 49 44
27 48 43
27 49 44
28 49 45
29 50 45
29 50 45
30 50 45
31 51 46
31 51 46
32 51 46
33 52 46
