P3
120 80
255
18 40 38
18 41 39
18 41 38
18 41 39
18 40 38
18 41 39
18 42 39
18 41 39
18 40 38
18 41 38
18 40 38
18 41 38
18 41 38
18 41 39
18 41 38
18 41 38
18 40 37
18 41 38
18 42 39
18 40 37
18 41 38
18 41 38
19 42 39
18 41 38
18 40 37
19 42 39
19 42 39
18 41 38
18 41 38
18 40 38
18 41 39
18 42 39
18 40 37
18 42 39
18 40 37
18 41 38
18 41 38
18 42 39
18 41 38
18 41 39
18 41 38
18 41 38
18 41 38
18 40 37
18 42 39
18 41 39
18 40 38
18 42 39
18 42 39
18 42 39
18 41 38
18 41 38
18 42 39
18 41 38
18 41 38
19 42 39
19 42 39
19 42 39
19 42 39
18 41 38
19 42 39
19 42 39
18 41 38
19 42 39
19 42 39
18 42 39
18 41 38
18 40 37
18 41 38
18 42 39
18 41 38
18 41 38
19 42 39
19 42 39
18 41 38
18 41 39
19 42 39
19 42 39
19 43 40
19 42 39
18 42 39
18 41 38
19 42 39
19 42 39
18 40 38
18 41 39
18 41 38
19 42 39
18 42 39
18 41 38
19 42 39
18 41 39
18 41 38
18 41 39
18 41 38
19 42 39
18 41 38
18 41 39
18 41 38
18 41 39
18 41 38
18 42 39
18 41 39
18 41 39
18 40 38
18 41 38
18 41 39
19 42 39
19 43 40
18 41 38
19 43 40
19 42 39
18 42 39
18 42 39
19 42 39
19 42 39
18 41 38
18 41 38
18 41 38
18 41 38
18 41 38
18 41 38
18 41 39
18 42 39
18 41 38
18 41 38
18 41 38
19 42 39
18 41 38
18 40 38
19 42 39
19 42 40
18 41 38
18 41 38
18 41 38
18 41 38
19 42 39
18 41 38
18 41 39
19 42 39
19 42 39
18 40 38
19 42 39
18 41 38
18 41 38
18 41 38
18 41 38
18 42 39
18 41 38
18 41 38
19 42 39
18 41 39
18 41 38
18 42 39
19 42 39
18 41 38
18 42 39
19 43 40
19 42 39
19 43 40
19 42 39
18 41 39
19 42 39
18 41 39
18 42 39
18 41 38
18 41 38
19 43 40
19 42 39
19 42 39
18 41 38
19 42 39
18 41 38
19 43 40
19 42 39
18 41 39
18 41 38
19 42 39
18 41 38
19 42 39
19 42 39
19 42 39
18 41 38
19 42 39
19 43 40
18 42 39
19 42 39
19 43 40
19 42 39
18 41 38
18 42 39
19 42 39
19 43 40
19 43 40
19 43 40
19 42 39
19 43 40
18 42 39
19 42 39
19 43 40
19 43 40
18 42 39
19 42 39
19 42 39
19 42 39
18 42 39
19 42 39
19 42 39
19 42 39
18 42 39
19 42 39
19 42 39
18 42 39
19 42 39
19 43 40
19 42 39
19 43 40
19 42 39
19 43 40
19 43 40
18 42 39
19 42 39
19 42 39
18 42 39
18 41 38
19 42 39
18 41 38
18 41 39
19 42 39
18 41 39
18 41 38
19 43 40
18 41 38
19 43 40
19 42 39
19 42 39
18 41 38
19 43 40
18 41 38
19 42 39
19 42 39
18 41 38
19 42 39
19 43 40
18 41 38
18 41 38
18 41 38
18 42 39
18 40 38
18 41 38
18 41 38
19 42 39
18 41 38
18 41 38
18 41 38
18 41 39
18 42 39
19 42 39
19 42 39
18 41 39
19 43 40
19 42 39
19 42 39
19 42 39
18 42 39
19 42 39
18 40 38
19 42 39
19 42 39
18 41 38
18 41 38
19 43 40
19 43 40
18 42 39
19 42 39
19 42 39
19 43 40
18 41 38
19 42 39
18 41 38
19 43 40
19 42 39
19 43 40
19 42 39
19 42 39
18 41 38
19 42 39
19 42 39
19 43 40
19 43 40
19 42 39
18 42 39
19 42 39
19 42 39
19 42 39
19 43 40
19 42 39
19 43 40
19 43 39
19 43 40
20 44 41
19 43 40
19 43 40
19 42 39
19 42 39
19 42 39
19 43 40
19 43 40
19 42 38
19 43 40
19 42 39
19 42 39
19 43 40
19 42 39
19 42 39
19 43 40
19 42 39
19 42 39
19 43 40
19 42 39
19 43 40
19 43 39
19 43 40
19 43 40
19 42 39
19 43 40
19 43 40
19 43 40
19 42 39
19 42 39
19 42 39
19 43 40
19 42 39
19 43 40
19 42 39
19 43 40
19 43 39
19 43 40
18 42 39
19 42 39
19 42 39
19 43 40
19 43 40
19 43 40
19 42 39
19 42 39
19 43 40
19 42 39
19 42 39
19 43 40
19 42 39
19 42 39
19 43 40
18 41 38
19 42 39
18 41 38
19 42 39
19 42 39
19 42 39
19 43 40
18 41 38
19 42 39
19 42 39
19 42 39
18 41 38
18 41 39
18 41 38
19 42 39
18 42 39
18 41 38
19 42 39
18 41 39
19 42 39
19 42 39
18 42 39
19 42 39
19 43 40
19 42 39
18 42 39
19 42 39
19 42 39
18 41 38
19 43 40
19 43 40
19 42 39
18 42 39
19 43 40
19 43 40
19 43 39
19 43 40
19 42 39
19 43 40
19 43 39
18 41 38
19 42 39
19 43 39
18 41 38
19 43 40
19 43 40
19 43 40
19 42 39
19 42 39
19 43 39
19 43 40
19 42 39
19 42 39
19 43 40
19 43 39
19 43 40
19 43 40
19 43 40
19 43 40
19 42 39
19 42 39
19 42 39
19 43 40
19 43 39
19 42 39
19 43 40
19 43 40
19 42 39
19 42 39
19 43 40
19 43 39
19 42 39
19 43 40
19 42 39
19 43 40
19 43 40
19 43 40
19 43 39
19 43 40
20 44 41
19 42 39
19 43 40
19 43 40
19 43 40
20 44 40
19 43 40
19 43 40
19 43 39
20 44 41
20 44 40
19 43 39
19 43 40
19 43 40
19 43 40
19 43 40
19 43 40
19 42 39
19 43 40
19 42 39
19 43 40
19 43 39
19 43 40
19 43 40
19 43 39
19 43 40
19 43 40
19 43 40
19 42 39
19 43 40
19 42 39
20 44 41
19 42 39
19 43 39
19 42 39
19 43 40
19 43 40
19 44 40
20 44 41
19 43 40
19 44 40
19 42 39
19 43 40
19 43 40
19 43 40
19 43 39
20 44 41
19 44 40
18 41 38
18 41 38
18 41 38
19 43 40
18 41 38
19 42 39
19 43 40
19 42 39
19 43 40
19 43 40
19 42 39
19 43 40
19 42 39
18 41 38
19 43 39
19 42 39
19 43 39
19 42 39
19 42 39
19 42 39
19 42 39
19 43 40
19 43 40
19 44 40
19 43 40
19 43 40
19 42 39
19 42 39
19 44 40
19 43 39
19 43 40
19 42 39
19 42 39
19 42 39
19 42 39
19 43 40
19 44 40
19 43 40
19 43 40
19 42 39
19 43 39
19 43 40
19 44 40
20 44 41
20 44 41
19 42 39
19 43 40
20 44 41
19 43 40
19 43 39
19 42 39
19 43 39
20 45 42
19 42 39
19 43 40
20 44 41
19 43 40
19 43 40
20 44 41
19 43 40
19 43 40
19 43 40
19 43 40
19 43 40
20 44 40
20 44 41
19 43 40
19 43 40
19 43 39
19 42 39
19 42 39
19 43 40
19 43 40
19 43 40
20 44 40
20 44 41
19 42 39
19 43 40
19 42 39
20 45 41
19 42 39
20 45 41
19 43 39
20 44 40
20 44 40
20 45 41
20 44 40
19 43 40
19 43 40
20 44 41
19 43 40
20 45 41
19 42 39
19 43 40
20 44 41
19 43 40
19 43 40
19 43 40
19 43 40
20 44 40
19 43 39
20 45 41
20 44 41
20 44 40
20 44 40
20 44 41
20 44 41
20 44 41
20 44 41
19 44 40
20 44 40
20 44 41
19 43 40
20 44 41
20 45 41
20 44 41
19 43 40
20 44 41
20 44 40
19 43 39
19 42 39
19 42 39
19 42 39
19 42 39
19 42 39
19 43 40
19 43 40
19 42 39
19 42 39
19 43 39
19 42 39
19 42 39
19 42 39
19 42 39
19 43 40
19 42 39
19 43 39
19 43 40
19 43 40
19 42 39
19 43 40
19 42 39
19 43 40
19 42 39
19 43 39
19 43 39
20 44 41
19 42 39
20 44 40
20 44 41
19 42 39
20 44 41
19 43 40
20 44 41
19 43 40
20 44 41
19 43 40
20 44 41
20 44 40
19 42 39
19 43 40
19 43 40
19 43 40
19 43 39
20 44 40
20 44 40
19 43 40
20 44 41
19 42 39
20 44 41
19 42 39
20 44 41
19 43 39
20 44 40
19 43 40
20 44 40
19 43 39
20 44 41
20 44 40
20 44 41
20 44 40
20 45 42
20 44 40
20 44 41
19 42 39
20 44 41
20 44 41
20 44 41
20 45 42
20 44 41
20 44 40
19 43 40
20 45 41
20 44 40
20 45 41
19 43 40
20 45 41
20 44 41
20 44 41
20 44 40
20 44 41
20 44 40
20 45 41
19 43 40
20 44 40
19 43 40
20 44 41
20 44 41
20 44 41
20 45 41
20 44 41
20 44 41
20 44 41
19 43 40
20 44 41
20 44 40
20 44 40
19 43 40
20 45 42
20 44 40
19 43 40
20 44 41
20 44 40
20 44 41
20 44 41
20 44 41
20 44 41
20 45 42
19 43 39
20 44 40
20 44 40
20 45 41
20 44 41
20 44 41
20 44 40
20 44 41
19 43 40
20 44 41
19 43 40
20 44 40
19 43 40
19 42 39
19 43 40
19 43 40
19 42 39
19 42 39
19 42 39
18 41 38
20 45 42
19 43 40
19 42 39
19 43 40
19 43 40
19 43 40
19 42 39
19 43 40
19 43 40
19 42 39
19 43 39
19 43 40
19 43 40
19 43 39
19 43 40
19 43 40
20 44 40
20 44 41
20 44 40
19 44 40
19 43 40
20 44 40
20 44 41
19 44 40
19 43 39
20 44 41
20 44 41
19 44 40
20 44 40
20 44 40
19 43 40
19 44 40
20 44 40
20 44 40
19 43 39
20 44 41
20 44 40
20 44 40
20 44 41
20 44 40
20 44 40
20 44 40
20 44 41
20 45 41
20 44 41
20 45 42
20 45 41
20 45 41
20 44 40
20 45 41
20 44 41
20 44 41
20 45 41
20 45 41
20 45 41
20 45 41
20 46 42
20 44 40
20 44 40
20 44 41
20 44 41
20 44 41
20 45 41
20 45 42
19 43 40
20 46 42
20 43 40
20 44 40
20 44 41
20 44 40
21 46 42
19 43 40
20 44 40
20 44 40
20 44 40
20 45 42
20 45 41
20 45 41
20 45 41
20 45 41
20 45 42
20 44 41
21 46 42
20 44 41
20 46 42
20 45 41
20 44 41
20 45 41
21 46 42
20 45 41
20 44 40
21 46 43
20 45 41
21 46 42
20 46 42
21 46 42
20 45 41
20 45 42
20 44 40
20 45 41
20 45 41
21 46 42
20 45 42
20 44 41
20 45 41
20 45 41
21 46 42
20 44 40
20 44 41
20 44 41
20 45 42
20 45 41
19 43 39
19 43 40
19 43 40
19 44 40
20 44 40
20 44 41
20 44 40
19 42 39
19 43 40
19 44 40
20 44 40
19 43 40
20 44 41
19 43 40
19 43 40
19 43 40
19 43 40
20 44 41
20 44 40
19 43 40
19 43 40
19 44 40
19 43 40
19 43 40
19 43 40
20 44 41
19 43 40
20 44 41
20 44 40
20 44 41
20 44 41
20 45 41
20 44 40
20 44 40
20 45 41
20 44 41
19 43 40
20 45 42
20 44 40
20 44 41
20 45 41
20 45 41
20 45 42
20 45 41
20 44 41
20 45 41
20 45 42
20 44 41
20 45 41
20 44 41
20 45 41
20 44 40
20 45 41
20 44 41
20 44 40
21 46 42
20 44 41
20 45 41
20 45 41
20 45 42
20 44 41
20 44 40
20 44 41
20 45 41
20 45 41
20 45 41
20 45 41
20 45 41
20 45 41
20 45 41
21 46 42
20 44 40
20 44 41
20 45 41
20 45 42
21 46 42
21 46 42
21 45 42
20 45 41
20 44 41
21 46 42
20 45 42
20 45 41
21 46 43
20 45 41
20 45 41
21 46 43
20 44 41
21 46 43
20 45 42
20 45 41
21 46 42
20 45 41
21 46 42
21 46 42
20 45 41
20 45 42
20 45 41
21 46 42
20 45 41
21 46 42
20 45 41
21 46 42
20 45 42
20 45 42
21 46 42
21 46 42
21 46 42
21 46 42
21 46 42
20 45 42
21 46 42
20 45 41
21 46 42
20 45 42
20 45 41
21 46 43
20 45 42
20 45 41
20 45 42
19 43 40
19 43 40
19 43 40
19 43 39
19 43 40
20 44 41
20 44 40
19 43 40
19 43 40
20 44 40
20 44 40
20 44 41
19 43 39
19 43 40
20 45 41
19 43 40
19 43 40
20 45 41
19 43 40
19 43 40
19 43 40
20 44 41
20 44 40
20 45 41
20 44 41
20 44 41
20 43 40
20 45 41
20 44 41
20 44 40
20 44 40
20 45 41
19 43 40
20 43 40
20 44 41
20 44 40
20 44 40
20 45 42
20 45 41
20 45 41
20 45 41
20 45 41
20 45 41
20 45 42
20 44 41
20 45 41
20 44 41
20 45 42
20 45 41
20 45 41
21 46 42
21 46 42
20 44 41
20 44 41
20 45 42
20 45 41
20 45 41
20 44 41
20 45 42
20 44 41
20 45 41
21 46 42
20 45 41
20 45 41
20 44 41
21 46 42
20 45 41
20 45 41
21 47 43
20 45 41
20 44 41
21 46 42
21 46 42
21 46 42
21 47 43
20 45 41
20 45 41
21 46 42
21 46 42
20 45 41
21 46 42
21 46 42
20 45 41
21 46 42
20 45 41
21 45 42
21 47 43
21 46 43
20 45 41
21 46 42
21 46 42
21 46 42
21 46 42
21 46 42
21 46 42
20 44 40
20 44 40
21 46 43
21 46 42
21 46 42
21 46 42
21 46 42
20 45 41
21 46 42
21 46 42
21 46 42
21 46 42
21 47 43
21 46 42
21 46 42
21 46 42
21 46 42
21 45 42
21 46 42
21 46 42
20 45 41
21 46 42
20 45 41
21 47 43
20 45 42
19 43 40
19 43 40
20 44 40
19 43 40
20 45 41
20 44 40
20 44 41
20 44 41
20 44 41
20 44 40
19 43 40
19 42 39
19 43 40
19 43 40
20 44 40
20 44 40
20 44 40
20 44 40
20 45 41
19 43 40
20 45 42
20 44 41
20 44 40
20 44 41
20 44 41
20 45 42
20 44 40
20 44 40
20 45 41
20 44 41
20 44 40
20 45 41
20 45 41
20 45 41
21 46 43
20 44 41
20 44 40
20 45 41
20 45 41
20 45 41
20 44 40
20 45 41
20 45 42
21 46 42
20 45 41
21 47 43
20 45 41
20 45 41
20 45 42
21 46 42
20 45 42
20 44 41
20 45 41
20 45 41
20 45 41
20 45 41
21 46 42
21 46 42
21 46 42
20 45 42
21 46 42
21 46 42
21 45 42
21 46 42
21 46 42
20 45 42
21 46 43
20 45 41
21 46 42
21 47 43
21 47 43
20 44 41
20 45 41
20 45 41
20 45 41
20 45 41
21 45 42
21 47 43
21 46 42
21 46 42
21 46 42
21 46 42
21 46 42
21 46 42
20 45 41
21 46 42
20 45 41
21 46 42
21 47 43
21 47 43
21 47 43
21 46 42
21 46 42
21 46 42
21 47 43
21 47 43
21 45 41
21 46 42
21 47 43
21 46 42
21 47 43
21 46 42
21 46 42
21 47 43
21 45 41
21 46 42
21 47 43
21 46 42
21 47 43
21 47 43
21 46 42
21 47 43
21 47 43
21 46 42
21 45 42
21 46 43
21 46 42
21 46 42
21 46 42
21 46 42
20 44 41
20 43 40
19 43 40
20 44 40
20 44 41
20 44 40
20 45 41
20 44 41
20 44 41
19 43 40
20 45 41
20 45 41
20 44 41
20 44 41
20 44 40
20 45 41
20 43 40
20 45 42
20 45 41
20 45 41
20 44 41
21 46 42
21 46 42
20 45 41
20 44 41
20 45 41
20 45 41
20 44 41
20 45 42
20 44 40
21 46 42
20 44 41
20 45 41
20 44 41
20 45 41
20 44 41
21 46 42
20 45 41
20 45 42
20 45 42
20 45 41
20 45 42
21 46 42
21 46 42
20 45 41
21 46 42
21 46 42
21 46 42
20 45 41
20 45 41
21 46 42
21 47 43
21 45 42
21 46 42
21 46 42
21 46 42
20 44 40
21 46 42
21 46 42
21 46 42
21 46 42
21 46 42
20 45 41
21 46 42
21 46 42
21 47 43
21 47 43
21 47 43
21 46 42
21 46 42
21 46 42
21 46 42
21 47 43
21 46 42
21 47 43
21 47 43
21 47 43
21 46 42
21 46 42
21 46 42
21 46 42
21 47 43
21 47 42
21 47 43
21 46 42
21 46 42
21 47 43
22 48 44
21 47 43
22 48 43
21 47 42
21 47 43
21 46 42
21 46 42
21 46 42
22 48 44
22 48 43
21 47 43
22 48 43
21 47 42
21 46 42
21 47 43
22 48 44
22 48 43
22 47 43
21 46 42
21 47 43
22 48 44
21 47 43
21 46 42
22 48 44
22 48 44
22 48 43
21 47 43
21 47 42
21 47 43
21 47 43
21 46 42
21 46 42
21 46 42
19 43 40
19 43 40
20 44 41
19 43 40
20 45 41
20 44 41
20 44 40
20 44 41
20 44 40
20 45 41
20 44 41
20 45 41
20 44 41
20 44 41
20 44 40
20 45 41
20 45 41
20 46 42
20 44 41
21 46 42
20 44 40
20 45 42
20 44 41
20 45 41
20 45 41
20 44 41
20 45 41
20 45 42
21 46 42
20 45 41
20 44 41
20 45 41
20 45 41
20 44 40
20 45 41
21 46 42
20 45 41
21 46 42
21 46 42
21 47 43
21 46 42
21 45 42
21 46 42
21 46 42
21 46 42
22 48 43
21 47 43
20 45 42
21 46 42
21 47 43
21 46 42
21 46 43
21 46 42
21 46 42
21 46 42
22 48 44
21 46 42
21 47 43
21 47 43
20 45 41
21 47 43
21 47 43
21 46 42
21 47 43
21 46 42
21 47 43
21 47 43
22 49 44
21 46 42
22 48 44
21 46 42
22 48 44
21 46 42
21 46 42
21 47 43
21 47 43
21 47 43
21 47 42
22 48 44
21 47 43
21 47 43
22 48 43
22 48 44
22 48 43
21 46 42
21 47 42
21 47 43
22 48 44
21 47 43
21 47 43
21 47 42
22 47 43
22 48 43
21 47 43
21 46 42
21 47 43
21 47 42
22 48 43
22 48 44
22 48 44
21 47 43
21 47 43
21 47 43
21 47 43
21 46 42
22 48 43
21 47 43
21 46 42
22 48 44
21 47 43
22 47 43
22 48 44
21 47 43
21 47 42
21 47 43
21 47 43
21 47 43
22 47 43
21 46 42
21 46 42
20 44 40
20 44 40
20 44 41
20 44 40
20 44 40
20 45 41
20 45 41
20 44 41
20 45 41
20 44 40
19 43 40
20 45 41
20 44 41
20 45 41
20 45 41
20 45 41
20 44 40
20 44 41
20 46 42
20 45 42
21 46 42
20 45 41
21 46 42
20 44 41
20 45 41
20 45 42
21 46 42
20 45 41
21 46 43
20 45 41
21 46 42
21 46 42
20 45 41
20 45 41
20 45 41
21 45 42
20 45 41
20 45 41
21 46 42
21 47 43
21 47 43
21 46 42
21 46 42
21 46 42
21 46 42
21 45 42
20 45 41
21 46 42
21 46 42
21 46 42
21 47 43
21 47 43
21 46 42
21 47 43
21 46 42
21 46 42
21 47 43
21 47 43
21 46 42
21 47 43
21 47 43
21 47 43
21 46 42
21 46 42
21 46 42
22 48 44
21 46 42
21 47 43
21 47 43
21 47 43
21 46 42
22 48 43
21 47 43
21 47 42
21 47 43
22 48 43
22 48 44
21 47 43
22 48 43
22 48 43
22 48 43
22 47 43
22 48 43
22 47 43
22 47 43
22 48 43
21 47 43
22 48 44
22 47 43
22 49 45
21 47 43
21 47 43
22 47 43
22 48 44
22 48 44
21 47 43
22 48 44
22 48 44
21 47 43
22 48 44
21 47 43
22 49 44
22 48 44
22 49 45
21 47 43
22 48 44
22 48 43
22 48 43
22 48 44
22 48 43
22 48 43
22 48 43
22 48 44
22 48 43
22 48 43
21 47 43
21 47 43
22 49 45
21 47 43
22 49 44
20 45 41
20 45 41
20 45 41
20 45 41
20 44 40
20 45 41
20 45 41
20 45 41
20 45 41
21 46 42
20 45 41
20 45 41
21 46 42
20 45 42
20 45 42
20 45 41
21 47 43
20 45 41
20 45 41
21 46 42
21 46 42
20 45 41
20 45 41
20 45 41
20 45 41
20 45 41
21 46 43
20 45 41
20 45 41
21 45 42
21 46 42
21 46 42
21 47 43
21 46 42
21 47 43
20 45 41
21 46 42
21 45 41
21 47 43
21 47 43
21 47 42
21 47 43
21 46 42
21 47 43
22 48 44
21 46 42
21 46 42
21 46 42
21 46 42
21 47 43
22 48 44
21 46 42
21 47 43
21 46 42
21 47 43
22 48 43
22 48 43
21 47 43
21 47 43
22 49 45
21 46 42
21 47 43
22 49 44
21 47 43
22 48 43
22 48 44
21 47 42
22 48 43
21 47 43
22 49 44
21 47 43
21 47 43
21 46 42
21 47 43
22 48 44
22 47 43
22 48 44
22 48 43
22 48 43
22 47 43
21 47 43
22 48 43
22 48 44
22 48 44
22 48 44
22 49 44
22 48 43
22 49 44
22 48 43
22 49 44
22 49 44
22 47 43
22 49 45
22 48 44
22 49 44
22 48 43
22 48 43
22 48 44
22 48 43
22 49 44
22 48 43
22 49 44
22 48 44
22 48 44
22 48 44
22 48 43
22 49 44
22 48 43
22 47 43
22 48 44
22 48 44
22 48 43
22 48 43
22 48 44
22 49 44
22 48 44
22 49 44
22 48 44
21 47 43
22 48 43
20 45 42
20 45 41
20 45 42
21 46 42
20 44 41
20 45 42
21 46 42
20 45 42
20 45 41
20 45 41
20 45 41
20 45 42
21 46 42
20 45 42
20 45 41
20 45 42
20 45 42
20 45 41
21 46 42
21 45 42
20 45 41
20 45 41
21 46 42
20 45 41
20 45 42
21 46 42
21 45 42
21 46 42
21 46 42
21 46 42
20 45 41
21 46 42
21 46 42
21 46 42
21 46 42
21 47 43
21 47 43
21 46 42
22 48 44
21 46 42
21 46 42
22 48 43
21 46 42
21 46 42
21 47 42
22 47 43
21 47 43
21 47 43
21 47 43
22 48 44
21 46 42
21 46 42
22 48 44
21 46 42
22 48 44
21 47 43
21 46 42
21 47 42
22 48 43
21 47 43
22 48 44
22 48 44
22 47 43
21 47 43
22 48 44
22 48 43
21 47 43
22 48 44
22 48 44
22 48 44
22 48 44
22 49 44
22 49 44
22 48 44
22 48 44
21 47 43
21 47 43
22 49 44
22 49 44
22 48 44
22 49 44
22 47 43
22 49 44
22 49 45
22 49 45
23 49 45
22 49 44
22 48 44
22 49 45
22 49 44
22 47 43
22 48 44
22 48 44
22 49 44
22 49 44
22 49 44
22 49 44
23 50 45
22 48 43
22 48 43
22 49 44
22 48 44
22 48 43
22 48 44
22 49 44
22 48 44
22 48 44
22 49 45
23 50 45
22 49 44
22 47 43
23 50 46
23 50 45
23 50 45
22 49 44
21 47 43
22 49 44
22 47 43
23 50 45
22 48 44
20 45 41
20 44 41
20 45 41
20 45 42
20 44 40
20 44 41
21 46 42
21 46 42
20 45 42
21 46 42
21 46 42
21 46 42
20 46 42
20 45 41
20 45 41
21 46 42
21 46 42
20 45 41
21 46 42
21 46 42
21 46 42
21 46 42
21 47 43
20 44 41
21 46 42
21 47 43
21 46 42
21 46 42
21 47 43
20 45 41
21 46 42
21 47 43
21 47 43
21 45 41
21 46 42
21 46 42
21 47 43
21 46 42
21 47 43
21 47 43
21 47 42
21 46 42
21 46 42
22 47 43
21 47 43
21 47 43
21 47 43
21 47 43
22 47 43
21 47 43
22 48 43
22 47 43
21 46 42
21 47 43
21 47 43
21 47 42
22 48 44
22 48 44
22 48 43
22 49 44
21 47 43
22 48 43
22 48 44
21 47 43
22 47 43
22 48 44
22 48 43
22 48 44
22 48 44
23 50 45
22 49 44
22 48 44
22 48 43
22 48 44
22 48 44
22 49 44
22 48 44
22 48 43
22 48 44
22 48 44
22 49 44
23 50 45
22 49 44
22 48 43
22 49 44
22 48 44
22 49 44
22 48 44
23 50 46
22 49 44
22 49 44
22 49 45
22 48 44
22 49 44
22 49 45
22 49 44
22 49 44
22 49 44
23 50 45
22 49 44
22 47 43
21 47 43
22 49 44
22 49 44
23 49 45
22 49 44
23 49 45
22 49 44
22 49 44
22 49 44
23 49 45
22 49 44
23 49 45
23 50 45
23 50 45
22 49 45
22 49 44
22 48 43
23 49 45
22 48 43
20 45 41
21 45 42
20 45 41
20 45 41
20 44 40
20 45 41
20 45 41
20 45 41
20 45 41
21 46 42
21 46 42
21 46 42
21 46 42
21 46 42
20 45 41
21 45 42
21 46 42
21 46 42
21 46 42
21 46 42
21 46 42
21 47 43
21 46 42
21 46 42
21 46 42
21 47 43
21 47 43
20 45 41
20 45 41
21 47 43
21 46 42
21 46 42
21 45 41
21 47 43
22 48 44
21 46 42
21 46 42
21 46 42
21 46 42
22 48 44
22 48 43
21 46 42
21 47 42
22 47 43
21 47 43
21 47 43
21 47 43
21 47 43
21 47 43
22 47 43
22 48 43
22 48 44
22 48 43
21 47 42
22 48 43
22 48 43
22 48 44
22 48 43
22 48 44
22 48 44
21 47 43
22 48 43
22 49 44
22 48 44
22 49 45
22 48 43
22 49 44
22 48 43
22 48 43
22 47 43
23 50 45
22 49 44
23 49 45
22 49 44
22 48 43
22 48 44
22 49 44
22 48 44
22 47 43
22 49 45
23 50 45
23 50 45
23 50 46
23 49 45
23 49 45
22 49 44
22 48 44
22 49 44
22 49 44
22 49 44
23 50 45
23 50 45
23 50 46
23 49 45
23 49 45
22 49 44
23 50 46
23 50 45
23 50 45
23 50 45
23 50 45
22 49 44
23 49 45
23 50 45
23 50 45
22 49 44
23 50 45
23 50 45
23 51 46
22 48 44
23 50 45
23 50 45
23 50 45
23 50 45
23 49 45
23 50 46
23 50 45
23 50 45
22 49 44
22 49 44
20 44 41
21 46 42
20 44 41
20 45 41
20 45 41
21 46 42
21 46 42
20 45 41
20 45 41
21 46 42
21 46 42
21 46 42
21 46 42
21 46 42
21 47 43
21 46 42
21 46 42
20 45 41
21 46 42
21 46 42
21 46 42
21 47 43
21 47 43
21 47 43
21 46 42
21 46 42
21 47 43
21 46 42
21 47 43
22 48 44
21 46 42
21 47 43
21 46 42
21 47 43
21 47 43
22 48 43
21 47 43
21 47 43
21 47 43
21 46 42
21 46 42
21 47 43
22 48 44
21 47 43
22 48 44
21 47 43
21 47 43
22 48 43
21 47 43
21 47 43
22 47 43
22 48 44
22 48 43
21 47 43
22 48 43
22 48 44
21 47 43
22 48 43
22 48 43
22 49 44
21 47 43
22 49 44
22 48 43
22 49 44
23 50 45
22 49 44
22 48 43
22 47 43
22 48 44
22 48 44
21 47 42
23 50 45
22 49 44
22 48 44
23 49 45
22 49 44
23 49 45
22 48 43
23 50 45
22 49 44
23 49 45
23 49 45
22 48 44
23 50 45
22 49 45
22 48 44
22 48 44
22 48 43
23 50 45
23 50 45
23 50 45
23 51 46
23 50 45
23 50 45
22 49 44
23 50 45
23 50 45
23 51 46
23 50 45
23 51 46
23 50 45
22 49 44
23 50 45
23 50 45
22 48 43
23 50 45
23 50 45
22 48 44
23 50 45
24 51 46
23 50 45
23 51 46
23 50 45
23 50 45
23 51 46
23 50 45
23 50 45
23 50 45
22 49 44
23 49 45
21 46 42
20 45 42
21 46 43
21 46 42
21 46 42
20 45 42
20 45 41
20 45 41
20 45 42
21 47 43
21 45 42
21 46 42
21 46 42
21 46 42
21 47 43
21 46 42
21 47 43
21 46 42
21 47 43
21 46 42
20 45 41
21 47 43
20 45 41
21 46 42
21 46 42
20 45 41
21 46 42
21 46 42
21 47 43
21 47 42
21 47 43
21 47 42
21 47 43
21 46 42
22 48 44
21 47 43
21 47 43
22 48 43
22 48 43
22 47 43
21 46 42
22 47 43
22 48 44
22 49 44
22 48 44
21 47 43
22 48 43
21 47 43
21 46 42
22 49 44
22 49 44
22 49 45
22 49 44
22 48 44
22 48 44
22 48 44
22 49 44
22 47 43
22 49 44
22 49 45
22 49 44
22 48 44
22 48 44
22 48 44
22 48 43
22 48 43
22 48 44
23 50 45
22 48 44
22 49 44
23 50 45
22 49 44
23 50 45
22 48 44
22 49 44
23 49 45
22 49 44
22 49 44
22 49 44
22 49 44
23 50 45
22 49 44
23 50 46
22 49 44
23 50 46
23 50 45
23 50 45
23 51 46
22 49 44
22 49 44
23 49 45
23 51 46
23 50 45
23 50 45
23 49 45
23 49 44
22 48 44
23 50 45
22 49 44
23 50 45
23 50 46
23 49 44
23 51 46
23 49 45
23 50 45
22 49 44
23 50 45
23 50 46
23 50 45
23 51 46
23 50 45
23 50 45
23 50 45
22 49 44
23 51 46
23 50 45
23 50 46
23 50 45
23 51 46
23 51 46
20 45 42
20 45 42
20 44 41
20 45 41
21 46 42
20 45 41
21 46 42
21 45 42
21 46 42
20 45 41
21 46 42
20 45 41
21 46 42
21 46 42
21 46 42
21 46 42
21 47 43
21 46 42
21 46 42
21 46 42
21 46 42
21 47 43
21 46 42
21 47 43
21 47 43
21 46 42
22 48 43
21 47 43
21 47 43
21 47 43
21 47 43
21 46 42
22 48 44
21 47 43
21 47 43
22 47 43
21 47 43
21 47 43
21 47 43
22 47 43
21 47 42
22 48 43
22 47 43
21 47 42
22 48 43
22 48 44
22 48 43
22 47 43
38 55 50
152 138 128
203 141 127
217 99 82
182 67 51
73 50 44
22 49 44
22 47 43
22 49 44
22 48 44
22 49 45
22 49 44
22 49 44
23 50 45
22 48 43
22 48 44
22 48 44
22 49 44
22 48 44
22 49 44
22 48 43
23 50 46
22 49 44
22 48 44
22 49 44
23 50 45
22 48 44
22 49 44
22 49 44
23 50 45
23 50 45
23 50 45
23 50 45
22 49 44
23 50 45
23 49 45
23 50 45
23 50 45
23 50 45
23 50 45
23 50 45
23 50 46
23 51 46
23 50 45
23 50 45
23 49 45
23 49 45
23 50 45
23 50 45
23 51 46
22 49 44
23 50 45
23 50 45
23 50 45
22 49 44
22 49 44
23 51 46
23 51 46
23 50 45
23 51 46
23 51 46
23 51 46
23 50 45
23 50 45
22 48 43
23 50 45
23 51 46
23 50 45
23 51 46
23 51 46
23 50 45
23 50 45
20 44 40
21 46 42
21 46 42
21 46 42
21 47 43
20 45 41
21 46 42
21 46 42
21 47 43
20 45 41
21 46 42
21 46 42
21 47 42
21 47 43
21 46 42
21 47 43
21 47 43
21 47 43
22 48 44
22 48 43
21 47 43
21 47 43
21 47 43
21 47 43
22 48 44
21 46 42
21 47 43
21 47 43
21 47 43
21 47 43
22 48 43
21 46 42
21 46 42
21 47 43
21 47 43
21 47 43
22 47 43
21 47 43
22 48 44
21 47 43
22 48 44
22 48 44
22 48 43
22 48 44
22 48 43
21 47 43
22 47 43
30 51 46
146 119 111
191 97 84
203 69 50
218 76 56
255 128 102
223 79 58
71 51 45
22 48 43
22 48 43
22 49 44
23 50 45
22 49 44
22 48 44
22 48 44
22 48 44
22 49 44
22 49 45
22 48 43
22 48 44
22 49 44
22 49 45
22 49 44
22 48 44
22 48 44
23 50 45
23 49 45
23 49 44
23 50 45
23 50 45
23 50 45
22 49 44
23 50 45
23 50 45
23 50 45
22 48 44
22 49 44
23 50 46
23 49 45
23 50 46
46 52 45
51 54 46
23 50 45
22 49 44
23 50 45
22 49 44
23 50 45
23 49 44
23 50 45
23 50 45
23 51 46
23 49 44
22 49 44
23 50 45
23 50 45
23 51 46
23 51 46
23 50 45
23 50 45
22 49 44
22 49 44
23 50 45
23 51 46
22 49 44
23 50 45
23 51 46
22 49 44
23 50 45
23 50 45
23 51 46
23 49 45
23 50 45
23 51 46
21 47 43
20 44 40
21 46 42
21 47 43
21 46 42
21 45 42
21 46 42
21 46 42
21 46 42
20 45 41
21 47 42
20 45 41
21 46 42
21 46 42
21 46 42
21 46 42
21 47 43
21 47 43
21 47 43
21 47 43
21 46 42
21 45 41
21 47 43
21 47 43
22 48 44
21 47 43
21 47 43
21 47 43
22 48 44
22 48 44
20 45 41
21 47 43
22 48 43
21 46 42
22 48 43
21 47 42
21 47 43
21 47 43
21 46 42
21 47 43
22 48 44
21 47 43
21 47 43
21 47 43
22 48 44
22 48 43
21 47 43
82 79 74
157 77 67
165 56 42
185 63 46
198 66 48
209 77 57
223 99 81
158 71 57
22 48 44
22 48 44
21 47 43
22 48 44
22 48 44
22 48 44
22 49 44
23 49 45
52 64 59
147 137 127
200 181 167
209 188 173
166 151 137
58 67 60
22 49 44
22 49 44
22 49 44
23 50 45
22 49 45
23 51 46
23 49 44
23 50 46
23 50 45
23 50 45
23 50 45
22 49 44
23 49 45
22 48 44
23 50 46
23 50 45
77 81 73
186 134 115
236 114 69
254 132 85
225 116 75
116 71 53
23 50 45
23 50 45
23 51 46
23 50 45
23 49 44
23 49 45
23 50 45
23 50 45
23 49 45
23 50 45
24 51 46
23 50 45
23 50 45
23 50 45
24 52 46
22 49 44
23 50 45
23 50 45
23 49 45
23 51 46
23 49 44
23 51 46
23 51 46
24 51 46
23 51 46
23 51 46
23 51 46
23 50 45
23 50 45
21 46 42
20 44 41
20 45 41
20 45 41
21 47 43
21 46 42
20 45 42
21 47 43
20 45 41
21 46 42
21 47 43
21 47 43
20 45 41
21 47 43
21 47 42
21 46 42
21 47 43
21 46 42
21 47 43
21 47 43
21 46 42
21 46 42
20 45 41
21 46 42
21 46 42
22 48 44
21 46 42
22 48 43
21 46 42
21 46 42
22 48 44
21 47 43
22 47 43
22 47 43
21 47 42
21 47 43
21 47 43
22 48 44
22 48 44
22 48 43
22 49 44
22 49 44
22 47 43
22 47 43
22 48 43
21 46 42
21 47 43
82 69 64
121 113 105
135 67 58
149 51 37
160 89 78
170 138 126
182 161 144
156 136 120
22 49 44
22 48 44
22 49 44
22 48 44
22 48 44
22 48 44
22 48 44
46 59 55
171 158 148
195 178 168
203 186 173
224 203 187
254 228 206
199 177 160
26 50 45
23 49 45
23 49 44
22 49 45
22 48 44
22 49 44
23 49 44
22 48 43
23 50 45
23 50 45
23 49 45
23 50 45
22 49 44
23 50 45
23 50 45
48 61 56
182 165 154
209 131 105
218 107 64
234 125 83
247 133 89
227 176 154
98 96 87
23 51 46
23 50 45
23 51 46
23 50 45
22 49 44
23 51 46
23 51 46
23 50 45
23 50 46
23 51 46
22 49 44
23 51 46
23 50 45
23 50 45
23 49 44
22 48 44
23 51 46
23 51 46
24 52 47
23 50 45
23 50 45
23 50 45
23 50 45
23 49 44
23 50 45
24 52 47
24 52 47
23 51 46
21 46 42
21 46 42
21 46 42
21 46 42
21 46 42
21 46 42
20 45 41
20 44 41
20 45 41
21 46 42
20 45 41
21 46 42
21 46 42
20 45 41
21 45 42
21 46 42
21 46 42
22 48 44
20 45 41
21 46 42
21 46 42
21 46 42
21 46 42
21 47 42
22 48 44
21 46 42
21 47 43
22 48 44
21 46 42
21 47 43
21 47 43
21 46 42
21 46 42
22 48 43
22 48 44
22 47 43
22 48 43
22 47 43
22 48 44
22 48 43
21 46 42
22 48 43
22 48 44
21 47 43
22 48 43
21 47 42
21 47 43
67 58 53
97 90 83
104 74 66
123 78 69
123 111 103
121 111 102
133 118 105
129 116 103
22 48 43
22 48 44
22 49 44
22 49 44
22 48 43
22 49 45
22 48 44
82 75 80
133 121 122
138 124 127
142 126 130
136 117 124
131 109 121
106 78 105
57 52 66
22 48 44
22 48 44
22 49 44
22 49 44
22 49 44
23 50 45
23 50 45
23 49 45
22 49 44
22 49 44
23 49 45
22 49 44
23 50 45
23 49 45
117 111 104
160 143 134
183 96 64
192 97 63
203 100 61
206 107 72
200 174 158
167 151 137
23 50 45
23 50 45
23 51 46
22 49 44
23 51 46
23 50 45
23 50 45
23 51 46
23 50 46
23 49 44
23 50 45
24 52 47
23 50 45
23 50 45
23 50 45
23 51 46
23 51 46
23 50 45
23 51 46
23 51 46
23 51 46
23 51 46
23 50 45
23 50 45
23 51 46
23 50 45
23 50 45
24 52 47
21 45 42
21 46 42
20 45 41
21 46 42
21 47 43
21 46 42
20 45 41
20 45 41
21 47 43
21 46 42
21 46 42
21 46 42
21 47 42
21 46 42
21 46 42
21 47 43
21 47 43
21 47 43
21 46 42
21 47 43
22 48 44
21 46 42
21 46 42
21 47 43
21 47 43
22 48 43
21 47 43
20 45 41
21 46 42
21 47 42
21 47 43
21 46 42
21 47 43
21 47 43
22 47 43
22 48 43
21 47 43
22 47 43
22 48 43
22 47 43
21 47 42
22 49 45
21 47 43
21 47 43
22 49 44
21 46 42
21 47 42
40 45 40
71 55 49
67 44 38
77 74 66
72 70 62
62 60 53
81 73 62
56 63 56
22 49 44
21 47 42
22 47 43
22 48 43
22 48 43
22 48 44
22 48 43
59 42 67
62 43 72
62 43 72
63 43 73
68 46 77
73 49 80
74 49 78
68 51 74
23 50 45
23 49 45
23 51 46
23 50 45
23 49 45
23 50 45
22 49 44
23 50 45
23 49 44
23 50 45
23 49 44
22 49 44
23 50 45
23 50 45
109 104 97
142 119 110
140 100 86
134 121 114
140 99 85
158 98 77
156 142 130
156 142 129
23 50 45
23 49 44
23 51 46
23 50 45
23 50 45
22 49 44
23 51 46
23 51 46
23 50 45
25 51 46
105 101 94
172 158 145
194 176 160
147 136 124
49 62 56
23 49 45
23 50 45
23 50 45
23 50 45
23 51 46
23 51 46
23 50 45
23 50 45
23 49 44
23 50 45
23 50 45
23 50 45
23 50 45
21 46 42
21 46 42
21 46 42
21 47 43
21 47 43
21 46 42
21 46 42
20 45 41
21 46 42
21 46 42
21 47 43
21 46 42
20 45 41
21 46 42
21 46 42
21 46 42
21 46 42
21 46 42
21 46 42
21 47 43
21 46 42
21 47 43
21 46 42
21 47 43
22 48 44
21 47 43
21 47 43
21 47 43
21 46 42
21 47 43
21 47 43
21 47 43
22 48 43
21 47 43
21 47 43
22 48 43
22 48 43
21 46 42
22 47 43
22 48 43
21 47 43
22 48 43
22 47 43
22 47 43
21 47 42
21 47 42
21 46 42
20 44 40
34 35 31
19 20 16
14 26 20
20 30 22
48 46 34
42 48 40
22 46 42
21 46 42
22 47 43
21 47 42
22 48 43
22 49 44
22 48 44
22 48 44
48 36 55
53 36 60
57 39 64
53 36 60
54 37 62
54 37 62
60 40 65
53 45 60
23 50 45
22 49 44
23 50 45
23 50 45
22 49 44
22 49 44
22 49 44
22 49 44
22 49 44
23 49 44
23 49 45
23 50 46
23 49 45
22 49 44
95 88 80
123 88 75
100 91 84
91 85 78
100 90 82
123 91 78
114 105 96
106 100 92
24 51 46
23 50 45
23 50 45
23 49 45
22 49 44
23 50 45
23 50 45
22 49 44
25 47 44
90 85 81
202 183 171
211 193 179
234 214 195
222 201 185
189 170 155
51 64 57
23 50 45
23 51 46
23 50 45
23 50 45
23 50 45
23 51 46
23 50 45
23 50 45
23 50 45
23 51 46
23 50 45
23 51 46
21 46 42
21 46 42
21 46 42
21 46 42
21 47 43
21 46 42
21 46 42
21 46 42
21 46 42
21 46 42
20 45 41
21 46 42
21 46 42
21 47 43
21 47 43
21 46 42
21 47 43
21 46 42
21 47 43
21 46 42
21 47 43
21 46 42
21 46 42
21 47 43
21 47 43
21 47 43
21 47 43
22 47 43
22 49 44
22 47 43
22 48 44
21 46 42
21 47 43
21 47 43
22 47 43
22 47 43
21 47 43
22 49 45
22 47 43
21 46 42
21 47 42
22 48 43
21 47 43
20 45 41
18 41 38
15 35 33
14 31 30
13 29 28
12 27 26
9 21 20
8 18 16
10 21 18
16 28 24
18 40 35
20 43 38
22 47 42
22 47 43
21 46 41
22 48 43
22 47 43
22 49 44
22 47 43
32 32 41
41 28 46
39 27 44
40 28 45
39 27 43
33 23 37
42 33 44
37 45 46
22 48 43
22 49 44
22 48 44
22 48 44
22 49 44
22 49 44
22 48 44
22 49 44
22 49 44
22 49 44
22 48 43
23 49 44
23 50 45
22 49 44
46 56 51
76 53 42
70 56 48
83 77 70
73 58 50
79 63 53
74 71 63
67 70 62
22 49 44
23 49 44
22 49 44
23 50 45
23 50 45
23 49 45
23 50 45
22 49 44
27 35 37
132 122 115
182 168 158
183 169 160
188 173 163
193 177 165
199 180 166
152 140 128
23 50 45
23 50 45
23 50 45
23 50 45
23 50 45
23 50 45
23 50 45
23 50 45
23 51 46
22 49 44
22 49 44
23 49 45
21 46 42
21 47 43
21 47 43
21 46 42
20 45 41
21 46 42
21 46 42
21 47 43
20 45 41
21 46 42
21 46 42
21 47 43
21 46 42
21 46 42
21 46 42
21 47 43
21 47 43
21 47 43
21 47 43
20 45 41
21 46 42
21 47 43
21 47 43
21 46 42
20 45 41
21 47 43
21 46 42
21 47 43
21 46 42
22 48 44
22 48 43
22 48 44
22 48 43
21 47 43
21 47 42
21 47 43
22 48 43
22 48 43
21 46 42
21 47 43
22 48 43
22 48 44
21 46 42
21 46 42
21 45 41
20 44 40
20 44 41
19 42 39
19 43 39
19 43 39
21 45 41
20 44 40
21 45 40
21 46 42
21 46 41
22 47 43
21 47 42
22 47 43
22 49 44
21 47 42
21 47 42
21 47 42
22 43 40
23 29 28
23 25 28
25 28 28
34 37 32
44 45 38
50 53 46
25 48 43
22 47 43
22 47 43
22 48 44
22 48 44
23 49 44
22 49 44
21 47 42
23 49 45
23 49 45
22 48 43
22 49 44
22 48 44
22 47 42
22 48 43
22 47 43
28 35 29
25 17 9
25 18 9
25 18 9
23 30 23
36 45 38
29 50 45
22 48 43
23 49 44
23 49 44
23 49 44
23 50 45
23 50 45
23 49 44
22 46 42
23 26 29
122 114 108
156 145 137
162 151 143
160 148 140
163 150 142
163 149 139
159 144 133
28 51 46
23 50 45
23 51 46
23 49 45
23 50 45
22 48 44
22 49 44
23 50 45
23 50 45
23 50 45
23 49 45
23 50 45
20 45 41
21 46 42
20 45 41
21 47 43
21 47 42
21 47 43
21 46 42
21 45 42
20 45 41
21 47 42
21 46 42
21 46 42
21 46 42
21 47 43
21 46 42
21 46 42
20 45 41
21 46 42
21 47 43
21 46 42
21 46 42
21 46 42
20 45 41
21 47 43
21 46 42
21 46 42
21 47 43
20 45 41
21 47 43
21 47 43
21 45 41
22 48 43
21 46 42
21 47 43
21 47 42
21 46 42
21 47 43
21 46 42
21 47 43
21 47 43
21 46 42
22 47 43
22 48 43
22 48 44
22 47 43
22 48 44
22 48 43
22 48 43
22 48 43
21 47 42
22 47 43
22 48 44
21 47 42
22 48 44
22 47 43
22 48 44
22 47 43
22 48 43
21 46 41
20 43 39
18 40 37
16 36 34
14 32 30
12 26 24
7 15 12
9 18 14
12 22 17
19 28 22
23 42 37
20 44 39
21 46 41
21 47 42
22 47 43
22 48 43
22 48 43
22 48 43
22 48 44
22 48 44
22 47 43
22 48 43
22 47 42
22 47 42
19 42 38
16 36 33
13 31 29
11 25 24
8 14 12
9 14 11
8 12 9
11 23 20
16 35 31
21 45 40
21 46 41
22 48 43
22 48 43
22 48 43
22 48 44
23 50 45
22 49 44
21 40 37
20 22 25
82 77 74
138 128 120
139 129 120
136 126 118
128 119 112
132 123 115
134 124 115
29 52 47
23 50 45
23 50 45
23 50 45
23 50 45
23 51 46
23 50 45
22 49 44
23 51 46
23 50 45
22 49 44
23 49 45
21 47 43
21 47 43
20 45 41
21 46 42
20 45 41
21 46 42
21 46 42
21 47 43
21 46 42
22 48 43
21 47 43
20 45 41
21 47 43
21 47 43
21 46 42
21 46 42
21 46 42
21 47 43
21 46 42
21 46 42
21 47 43
22 48 44
22 48 43
21 47 42
21 46 42
21 46 42
22 48 43
21 47 42
21 47 43
21 47 43
21 47 43
22 48 44
21 47 43
21 47 43
21 47 43
21 47 42
22 48 44
21 47 42
22 49 45
22 49 45
22 48 43
22 48 43
21 47 42
21 46 42
21 46 42
21 47 43
22 48 43
22 49 44
21 47 43
22 48 43
22 48 44
22 47 43
21 47 43
21 46 42
21 47 42
22 48 43
22 48 43
21 46 42
21 45 41
19 43 39
16 37 35
15 35 33
14 31 30
13 30 29
13 30 28
13 29 27
15 33 30
17 37 33
21 44 40
21 46 41
22 48 43
21 47 42
22 48 43
22 47 43
22 47 42
22 48 43
22 48 43
22 48 43
22 47 43
22 49 44
22 48 43
22 48 44
21 45 41
20 44 40
18 39 36
18 39 36
16 36 33
16 35 32
17 36 33
19 41 37
20 43 39
21 45 40
22 47 43
21 47 42
22 48 43
22 48 43
23 49 44
22 48 44
22 47 43
21 42 39
17 19 21
22 24 25
101 94 87
108 101 93
119 110 101
111 104 95
96 90 83
86 83 76
22 48 44
23 50 45
23 49 45
23 51 46
23 50 45
22 49 44
23 50 45
23 50 46
23 49 45
23 51 46
22 48 43
23 50 45
20 45 41
21 45 41
21 46 42
21 46 42
21 47 43
21 46 42
21 46 42
21 46 42
21 47 43
21 47 43
21 47 43
21 46 42
21 46 42
21 47 43
21 47 43
21 46 42
21 47 43
22 47 43
22 48 44
21 46 42
21 46 42
21 46 42
21 46 42
21 47 43
21 47 43
22 48 44
21 46 42
21 46 42
21 47 43
21 47 42
21 47 43
22 48 43
21 47 43
21 47 43
21 46 42
21 47 43
21 47 43
21 47 42
21 47 43
22 48 44
21 47 43
21 47 43
21 46 42
22 48 44
22 48 44
21 47 43
21 47 43
22 48 43
21 47 43
21 47 43
22 48 44
22 48 43
22 47 43
22 47 43
21 47 42
22 48 44
22 48 43
22 48 44
22 47 43
21 46 42
21 47 42
22 48 43
22 48 44
21 46 42
21 46 42
21 46 42
21 46 41
22 48 43
21 47 42
22 47 43
22 48 43
22 49 44
22 48 43
22 48 43
22 48 43
22 49 44
22 47 43
22 49 44
23 50 45
22 48 43
22 48 44
22 48 43
22 48 44
23 49 45
22 49 44
22 47 43
22 48 43
22 48 44
23 50 45
22 48 43
22 48 43
22 49 44
22 47 43
22 49 44
22 47 43
23 49 44
22 49 44
22 49 44
22 49 44
22 47 42
13 24 22
10 12 13
18 19 19
58 55 49
61 60 53
76 72 65
67 65 58
37 47 43
23 49 44
22 48 44
22 48 43
22 48 44
22 48 44
22 49 44
23 50 46
23 50 45
23 50 45
23 51 46
22 49 44
23 50 45
20 45 41
21 46 42
21 46 42
21 47 43
21 46 42
21 47 43
21 46 42
21 46 42
21 46 42
21 46 42
21 46 42
21 47 43
21 47 43
21 46 42
21 47 43
21 46 42
21 46 42
21 47 43
21 47 43
21 47 43
21 47 43
21 47 43
21 46 42
21 47 43
21 46 42
21 47 43
21 47 43
21 46 42
21 47 42
21 46 42
22 48 44
21 47 42
21 47 43
21 47 43
21 47 43
22 47 43
21 47 43
22 47 43
22 48 44
21 47 43
22 48 44
21 46 42
21 46 42
21 47 43
21 46 42
21 47 43
21 47 43
22 47 43
21 46 42
22 47 43
21 47 43
22 48 44
21 46 42
22 48 44
22 48 43
21 47 43
21 46 42
22 48 44
22 48 44
22 49 44
21 47 43
21 47 43
22 47 43
21 47 43
22 48 44
22 48 43
22 49 44
22 49 44
22 48 44
21 47 42
22 47 43
21 47 43
22 48 44
22 48 43
21 47 42
22 47 43
22 48 44
22 48 43
22 48 44
22 49 44
22 49 44
22 47 43
22 49 44
22 48 43
22 49 44
22 49 44
22 48 44
22 47 43
22 49 44
22 49 44
22 49 44
22 49 44
22 48 43
22 48 43
23 49 44
22 47 42
22 47 42
21 46 41
22 47 42
22 47 42
19 40 36
7 17 15
2 4 4
3 5 5
3 6 6
13 14 12
15 31 28
21 47 42
22 48 43
22 48 43
22 48 44
22 48 44
22 49 44
22 48 43
22 48 44
22 49 44
23 50 45
22 49 44
23 49 44
23 50 45
21 46 42
20 45 41
21 47 43
20 45 41
20 45 41
21 46 42
21 46 42
21 47 43
21 46 42
21 45 42
20 45 41
22 48 43
21 47 43
20 45 41
21 46 42
21 45 41
21 46 42
21 46 42
21 46 42
21 47 42
21 47 43
21 46 42
22 48 44
21 47 43
20 45 41
21 47 43
21 46 42
21 47 43
21 47 43
21 46 42
21 46 42
21 46 42
21 46 42
22 48 44
21 47 43
22 49 44
21 47 43
22 48 44
21 46 42
21 47 43
21 47 43
22 49 45
22 48 44
22 48 43
21 47 43
21 46 42
22 48 44
22 48 43
22 48 44
21 47 43
22 48 43
22 48 44
21 47 43
22 47 43
21 47 43
21 47 43
21 47 43
22 49 44
22 48 44
22 48 44
22 47 43
22 47 43
22 47 43
22 47 43
22 48 44
21 47 42
22 47 43
22 48 44
22 49 44
22 47 43
23 50 45
22 49 44
22 48 43
22 48 43
22 48 44
22 47 43
22 48 44
22 48 43
22 48 44
23 50 45
22 48 43
22 47 43
23 50 45
22 48 44
22 48 44
22 48 43
22 49 44
22 48 44
22 48 44
22 47 43
22 48 43
23 49 45
22 48 43
22 47 43
22 47 43
22 48 43
23 49 44
21 45 41
19 41 37
15 33 31
12 27 25
8 19 18
7 16 15
5 13 12
5 13 12
9 21 20
14 32 29
19 42 37
21 45 40
22 47 42
22 47 42
22 48 44
22 48 43
22 48 43
22 48 44
22 49 44
23 49 44
23 50 45
23 50 45
22 48 44
21 46 42
21 46 42
20 45 42
20 45 41
21 46 42
21 47 43
21 46 42
20 45 41
21 46 42
21 47 43
21 47 43
21 47 43
21 47 43
21 46 42
20 45 41
21 46 43
21 46 42
21 46 42
21 46 42
21 47 43
21 45 41
21 47 43
21 46 42
21 46 42
22 48 43
21 47 42
21 46 42
21 45 41
21 47 43
21 47 43
21 46 42
21 47 43
21 47 43
22 48 43
21 47 43
22 48 44
21 47 43
22 47 43
21 47 43
21 47 42
22 47 43
22 48 43
21 47 43
21 46 42
21 47 43
21 47 43
21 46 42
21 47 42
21 47 43
21 47 43
21 47 43
22 48 44
22 48 44
22 47 43
21 47 43
21 46 42
22 49 44
21 47 43
21 46 42
22 48 43
22 48 44
21 47 43
22 47 43
22 48 43
21 47 43
22 49 44
22 49 44
22 48 44
21 47 43
22 48 43
22 47 43
22 48 43
21 47 43
22 49 44
22 49 44
21 46 42
21 47 43
21 47 42
22 48 44
22 48 44
22 48 44
22 48 43
22 49 44
21 46 42
22 48 44
22 47 43
21 47 42
22 48 44
22 47 43
22 48 44
22 48 44
22 48 44
22 48 44
22 48 44
22 48 43
22 48 43
22 49 44
22 47 43
21 45 41
19 42 38
16 37 35
15 34 32
14 32 31
14 33 31
14 32 30
15 34 32
17 38 35
20 45 40
21 47 42
22 47 42
22 47 42
22 47 43
22 49 44
22 49 44
22 48 44
22 49 44
23 49 45
22 47 43
22 49 44
22 49 44
20 45 41
21 46 42
21 46 42
21 46 42
20 45 41
21 46 42
21 46 42
21 46 42
21 46 42
21 46 42
21 46 42
21 46 42
21 45 41
21 46 42
21 46 42
21 47 43
21 47 43
21 46 42
21 46 42
21 47 43
21 47 43
21 47 43
22 48 44
21 46 42
21 46 42
21 46 42
21 47 42
21 46 42
20 45 41
21 47 43
21 47 43
21 46 42
21 47 42
21 47 43
21 46 42
21 46 42
21 46 42
21 46 42
22 49 45
21 47 43
22 47 43
21 47 43
21 47 43
21 47 43
21 47 42
21 46 42
21 46 42
21 47 42
21 47 43
21 47 43
21 46 42
21 47 42
21 47 43
21 47 43
21 46 42
21 47 43
22 48 44
22 48 44
22 48 43
22 48 43
22 48 43
22 47 43
22 48 44
22 48 43
22 48 44
22 48 44
22 47 43
22 48 43
22 48 44
22 48 44
22 49 45
22 48 43
22 47 43
22 48 43
21 47 43
22 49 44
21 47 43
22 48 43
22 48 44
22 49 44
22 48 44
22 48 43
22 48 43
22 47 43
21 46 42
22 47 43
22 48 44
22 48 43
22 48 43
22 48 44
21 47 42
22 49 45
22 47 43
22 48 43
22 48 44
22 49 44
21 47 42
22 48 44
22 48 43
22 48 44
21 46 41
21 46 42
21 46 42
22 48 43
21 47 42
22 48 43
22 47 43
22 47 43
23 49 44
22 48 43
22 48 44
21 47 42
23 50 45
22 49 44
23 49 45
22 49 44
22 49 44
22 48 43
23 50 45
22 48 43
21 46 42
21 46 42
21 46 42
20 45 41
20 45 41
20 44 41
21 47 43
20 45 41
20 45 41
21 46 42
21 46 42
21 46 42
20 45 41
21 46 42
21 46 42
21 46 42
21 46 42
21 47 43
21 46 42
21 47 43
21 47 43
21 46 42
21 46 42
21 46 42
21 47 43
21 47 43
21 46 42
21 47 43
21 46 42
22 48 44
21 47 43
21 46 42
21 47 43
21 47 43
21 46 42
21 47 43
21 46 42
22 48 44
21 46 42
21 47 43
21 46 42
21 46 42
21 46 42
22 48 44
22 48 44
21 46 42
22 48 44
21 47 43
21 46 42
21 47 42
21 47 43
21 47 43
21 47 43
22 48 44
21 46 42
22 48 43
22 48 44
21 46 42
21 47 42
21 47 43
22 48 43
21 47 42
22 48 43
22 48 44
22 48 43
21 47 43
21 47 43
21 47 43
22 49 45
22 47 43
22 48 44
22 49 44
21 47 42
22 48 43
22 49 44
21 47 43
21 47 43
22 48 43
22 48 43
22 48 44
22 48 43
22 49 45
22 49 44
22 48 43
22 49 44
22 47 43
21 47 42
22 48 43
21 47 43
22 48 44
22 48 44
21 47 43
22 48 43
22 48 43
21 47 43
21 47 42
22 48 43
22 48 44
22 48 44
22 49 44
22 48 44
21 47 42
22 47 43
22 47 43
22 48 44
22 49 44
22 48 43
22 48 43
22 48 43
22 48 43
22 49 45
23 50 45
22 49 44
22 48 44
22 48 44
22 48 43
22 49 44
22 48 44
22 49 44
22 48 44
20 45 41
21 46 42
21 46 42
20 45 41
20 45 41
21 46 42
20 45 41
21 46 42
21 46 42
21 46 42
21 45 41
21 46 42
21 46 42
21 46 42
21 46 42
21 46 42
21 46 42
21 46 42
21 47 42
21 47 43
21 46 42
21 46 42
21 47 43
21 46 42
21 46 42
21 46 42
21 47 43
21 47 43
21 46 42
21 46 42
21 46 42
21 47 43
21 46 42
21 47 43
21 47 43
21 46 41
21 46 42
21 46 42
21 46 42
21 47 43
21 47 43
21 46 42
21 47 43
21 46 42
21 47 43
21 47 43
21 47 43
21 45 41
21 46 42
22 48 43
21 47 43
22 47 43
21 47 43
21 46 42
22 48 43
22 48 44
21 47 43
21 47 43
22 48 43
21 47 43
21 47 43
21 47 43
21 47 43
22 49 45
22 48 44
22 48 43
21 47 43
21 47 43
21 46 42
21 47 43
22 48 44
22 48 43
22 48 43
22 49 44
22 48 43
21 47 42
22 49 44
22 49 44
21 47 43
22 49 44
22 48 44
21 47 42
22 47 43
22 48 43
22 47 43
21 47 43
22 47 43
22 47 43
22 49 45
22 49 45
22 49 44
22 48 43
22 48 43
22 48 44
22 47 43
22 48 43
22 48 43
21 47 42
22 49 44
22 48 43
22 47 43
22 48 44
21 47 43
22 48 44
22 48 44
22 48 43
22 49 44
23 50 45
22 49 44
22 49 44
22 49 44
22 49 44
22 48 44
22 48 44
22 48 43
22 49 45
22 48 43
23 50 45
22 49 45
22 49 44
20 45 41
21 46 42
20 45 41
21 45 42
21 45 41
21 46 42
20 44 41
21 46 42
21 46 42
21 46 42
20 45 41
21 47 43
21 45 41
21 46 42
21 47 43
21 46 42
21 47 43
21 46 42
21 46 42
21 46 42
21 46 42
21 47 43
22 48 44
21 46 42
21 46 42
21 46 42
21 47 43
21 45 42
21 46 42
21 47 43
21 47 43
21 46 42
21 46 42
21 46 42
21 47 43
21 47 43
21 46 42
21 47 43
22 48 44
21 46 42
21 45 41
21 46 42
21 47 43
22 48 44
21 47 43
21 47 42
21 47 42
21 46 42
21 47 42
21 47 42
21 47 42
21 46 42
22 48 44
22 49 44
21 47 42
22 48 44
21 47 43
21 47 43
21 47 43
21 46 42
22 48 43
22 48 43
22 48 43
21 46 42
22 48 43
22 48 43
22 48 43
22 48 43
21 46 42
21 47 43
22 48 44
22 47 43
22 48 43
22 48 43
22 49 45
22 48 44
21 46 42
21 47 43
22 48 44
22 48 43
22 48 44
22 48 44
21 46 42
21 46 41
22 48 44
22 48 44
22 47 43
22 48 44
21 47 43
22 47 43
22 48 44
22 49 44
22 48 43
22 48 43
22 48 44
22 49 44
22 48 43
22 48 44
22 48 44
22 47 43
22 47 43
23 49 45
22 48 44
22 48 43
21 47 42
22 47 43
22 48 43
22 49 44
22 48 44
21 47 43
22 48 44
22 49 44
22 47 43
23 50 45
22 48 44
21 47 42
22 48 43
22 49 44
22 48 44
21 47 43
20 45 41
20 44 40
21 46 42
21 46 42
21 47 43
21 46 42
21 46 42
21 47 43
21 46 42
21 47 43
21 46 42
21 46 42
20 45 42
21 47 43
21 46 42
21 46 42
21 46 42
20 45 41
21 47 43
21 47 43
21 46 42
21 46 42
21 46 42
21 46 42
21 45 41
21 46 42
21 47 43
21 47 43
21 47 43
20 44 41
21 46 42
21 47 43
21 47 43
21 47 43
21 47 43
21 46 42
22 48 43
21 47 43
21 46 42
21 46 42
21 47 43
21 47 43
21 46 42
21 46 42
21 47 43
22 48 43
21 47 42
21 47 43
21 47 43
21 47 43
21 47 42
21 47 43
21 47 42
22 48 44
21 46 42
21 47 43
21 47 42
21 47 43
22 48 43
22 48 44
21 46 42
21 47 42
21 47 42
21 46 42
22 48 44
22 47 43
22 48 43
21 47 43
22 48 44
21 47 43
21 47 43
21 47 43
23 49 45
22 48 44
21 46 42
22 48 43
22 48 44
22 49 44
22 49 44
22 49 44
22 49 44
22 47 43
22 48 43
22 48 44
21 47 43
22 48 44
22 48 44
21 47 43
22 47 43
22 48 44
22 49 44
22 48 43
22 49 44
22 49 44
21 47 43
21 47 43
22 49 44
22 48 44
22 48 44
21 47 43
22 48 44
22 47 43
22 48 43
22 49 44
22 48 43
21 47 43
22 47 43
22 48 43
22 48 44
22 49 44
22 48 43
22 48 43
23 50 45
22 49 44
22 48 44
22 48 44
22 48 43
22 48 44
22 49 44
21 47 43
20 45 41
20 44 40
21 45 42
21 46 42
20 45 41
20 45 41
21 47 43
21 46 42
21 46 42
21 46 42
20 45 41
20 45 41
21 47 43
21 46 42
21 47 43
20 45 41
21 46 42
21 46 42
21 46 42
21 46 42
21 46 42
21 46 42
20 45 41
20 45 41
21 46 42
21 46 42
21 45 42
21 46 42
21 46 42
21 47 43
21 46 42
21 47 43
21 47 43
21 47 43
21 46 42
21 46 42
21 46 42
21 46 42
21 46 42
21 47 43
21 46 42
21 47 43
21 46 42
21 47 43
21 46 42
22 47 43
21 46 42
21 47 43
21 47 43
21 46 42
21 46 42
22 48 44
21 47 43
21 47 43
21 47 43
21 47 43
21 46 42
21 47 43
21 46 42
21 47 43
21 47 42
21 47 43
20 45 41
21 47 43
21 47 43
21 46 42
21 47 43
21 47 43
22 48 43
22 48 43
22 48 44
21 47 43
21 46 42
22 48 44
22 48 44
21 46 42
22 47 43
21 47 43
22 48 43
21 46 42
22 48 44
21 47 43
22 49 44
21 47 43
21 47 43
22 47 43
22 49 44
22 48 43
22 49 44
21 47 43
21 47 43
21 47 42
22 49 45
21 46 42
22 47 43
22 47 43
21 47 42
22 48 44
22 49 44
22 48 43
22 48 43
22 48 44
22 48 44
22 48 44
22 47 43
22 48 43
22 49 44
21 47 43
22 48 44
22 48 44
22 47 43
22 48 44
22 48 43
22 49 45
22 48 44
22 48 44
22 48 43
21 47 43
22 49 44
22 47 43
21 47 43
20 45 41
21 46 42
20 44 40
20 45 42
20 45 41
21 46 42
20 45 41
21 46 42
20 44 40
21 45 42
21 46 42
21 46 42
21 46 42
21 46 42
21 46 42
21 46 42
21 46 42
21 46 42
21 46 42
21 47 43
20 45 41
21 46 42
21 46 42
21 47 42
21 46 42
21 46 42
21 46 42
21 46 42
21 47 43
21 46 42
21 46 42
22 48 43
21 47 43
21 46 42
21 47 43
21 47 43
21 47 43
20 45 41
21 46 42
21 46 42
21 47 43
21 46 42
21 46 42
21 46 42
21 46 42
21 46 42
21 47 43
21 47 43
21 47 43
21 47 42
21 47 43
21 47 42
21 47 43
21 47 43
21 47 42
21 47 43
21 47 42
21 47 43
21 47 43
22 47 43
21 46 42
22 48 44
21 47 43
21 47 43
21 47 43
21 47 43
21 47 43
21 46 42
21 47 43
21 46 42
21 47 43
21 47 43
22 47 43
22 48 43
22 48 43
21 47 43
21 47 43
22 48 44
22 47 43
22 47 43
22 48 44
21 47 43
22 48 43
22 48 44
22 48 44
22 48 44
22 47 43
22 48 43
21 46 42
22 47 43
22 48 44
22 48 44
22 48 44
22 49 44
22 48 44
22 49 44
22 48 43
21 47 43
21 47 43
22 48 44
22 49 44
22 48 43
22 48 43
22 48 43
22 48 44
22 49 44
22 48 44
22 48 44
22 47 43
22 47 43
21 47 43
22 48 44
21 47 43
22 48 44
22 49 45
22 47 43
22 48 44
22 48 44
22 48 44
20 45 41
20 45 41
20 45 42
20 45 41
20 45 42
20 45 42
21 46 42
21 46 42
20 45 41
20 45 41
20 44 41
21 46 42
20 45 41
21 46 42
20 45 41
20 44 41
21 45 42
21 46 42
21 46 42
20 45 41
21 47 43
21 46 42
20 45 41
20 45 41
21 46 42
21 46 42
21 46 42
21 46 42
21 45 42
21 46 42
21 46 42
21 46 42
20 45 41
21 46 42
21 46 42
21 47 43
21 47 43
21 47 43
21 46 42
21 47 43
21 46 42
21 46 42
21 46 42
21 47 43
22 48 43
21 46 42
21 47 43
20 45 41
21 47 43
21 47 43
21 46 42
21 47 43
21 47 43
21 46 42
22 48 43
21 46 42
21 47 43
21 47 43
21 47 43
21 47 43
21 47 42
21 46 42
21 47 43
21 46 42
21 47 43
21 47 43
21 45 41
22 47 43
22 48 44
22 48 43
21 47 43
21 47 43
21 46 42
21 47 43
21 47 43
22 49 44
21 46 42
21 47 43
21 46 42
22 48 43
22 48 43
21 47 43
22 48 43
21 47 43
21 47 43
22 48 43
22 48 44
21 47 43
22 48 44
22 48 43
21 47 42
21 47 43
22 48 44
21 47 43
21 46 42
21 46 42
22 49 44
21 47 43
22 48 44
21 47 43
22 48 43
22 48 44
21 47 43
22 48 44
21 47 43
21 47 43
21 46 42
22 47 43
22 48 43
22 48 43
22 48 44
22 48 44
21 47 43
22 48 44
21 47 43
21 47 43
22 48 44
22 49 44
21 47 43
22 48 44
21 47 43
20 45 41
20 45 41
20 45 41
20 44 40
20 45 41
20 44 40
20 45 41
21 46 42
21 46 42
20 44 41
20 45 41
21 46 42
21 46 43
21 46 42
21 46 42
20 45 42
21 46 42
20 45 41
20 45 41
21 46 42
21 46 42
21 46 42
21 47 43
21 47 43
21 46 42
20 45 41
21 47 43
20 45 41
21 47 43
21 46 42
20 45 41
21 46 42
21 47 43
21 47 43
21 46 42
21 46 42
21 47 43
21 47 43
20 45 41
21 47 43
20 45 41
21 47 43
20 45 41
21 47 43
21 47 43
21 47 42
21 45 41
21 45 41
21 47 43
21 47 43
21 46 42
21 47 43
21 47 43
21 47 43
21 47 43
21 46 42
21 47 43
22 49 45
21 47 43
21 47 43
21 47 43
22 48 44
21 46 42
22 48 44
21 47 43
21 47 43
21 47 43
22 47 43
21 47 43
22 49 44
21 46 42
21 47 42
22 48 43
21 47 43
21 47 43
21 47 43
22 48 44
21 47 43
22 48 44
21 47 43
21 47 43
22 47 43
21 46 42
21 47 43
21 47 43
21 47 42
22 48 44
21 47 42
21 47 43
21 46 42
21 47 43
22 48 43
22 48 43
22 48 44
22 49 45
21 46 42
22 48 44
21 46 42
21 46 42
22 48 44
21 47 43
22 48 43
22 48 44
21 47 42
21 47 43
21 47 43
21 46 42
22 48 43
22 49 44
22 47 43
22 48 43
22 47 43
22 48 44
22 49 44
22 48 43
21 47 43
21 47 42
22 48 43
21 47 43
21 46 42
20 45 41
20 45 42
20 45 41
21 46 42
20 45 41
20 45 41
21 46 42
20 45 42
21 46 42
21 46 42
20 45 41
21 46 42
21 46 42
21 46 42
20 45 41
21 45 42
21 46 42
21 46 42
21 46 42
21 46 42
21 46 42
21 46 42
21 46 42
21 47 43
20 45 41
21 46 43
21 46 42
21 47 43
21 47 43
20 45 42
21 46 42
21 45 42
21 46 42
21 46 42
21 46 42
21 46 42
21 46 42
21 46 42
21 46 42
21 46 42
21 45 41
22 48 44
21 47 43
21 46 42
21 47 43
22 48 43
21 47 43
21 47 43
21 46 42
20 45 41
21 46 42
20 45 41
21 46 42
21 46 42
22 48 43
21 46 42
22 48 44
21 46 42
21 47 43
21 46 42
21 47 43
21 46 42
21 47 43
21 46 42
22 48 44
21 46 42
21 46 42
22 48 43
21 47 43
22 48 43
22 48 43
22 48 44
21 47 43
22 48 44
21 46 42
21 46 42
21 46 42
21 47 42
21 47 43
21 47 43
21 47 42
21 47 43
21 47 43
21 47 43
21 47 43
21 47 43
21 46 42
21 47 43
22 48 43
21 46 42
22 47 43
22 48 44
21 46 42
21 47 43
22 48 43
21 47 42
21 47 43
21 46 42
21 47 43
21 47 43
22 48 43
21 47 43
22 48 43
22 49 44
22 47 43
21 47 43
22 48 43
21 47 43
21 47 43
22 48 43
22 48 44
23 50 45
22 47 43
21 47 43
21 47 43
22 47 43
21 47 43
21 47 43
22 47 43
20 44 41
20 45 41
21 45 42
21 46 42
21 46 42
20 45 42
21 46 42
20 44 41
20 45 42
20 45 41
21 46 42
21 46 42
21 46 42
21 46 42
20 45 41
20 45 41
20 45 41
21 47 43
21 46 42
20 45 41
21 47 43
20 45 41
21 46 42
21 46 42
21 46 42
21 47 43
21 46 42
21 46 42
21 46 42
21 47 43
21 45 42
20 45 41
21 46 42
21 47 43
21 46 42
21 46 42
20 45 41
21 47 43
21 47 43
21 46 42
21 46 42
21 47 43
21 47 43
21 46 42
21 47 43
21 46 42
21 46 42
21 47 43
21 46 42
21 46 42
21 46 42
21 47 43
20 45 41
21 46 42
21 47 42
21 46 42
21 47 43
21 46 42
21 46 42
21 46 42
21 46 42
21 47 43
21 45 41
21 47 43
21 47 43
21 47 43
21 46 42
21 46 42
21 47 43
21 47 43
21 46 42
22 47 43
21 47 42
21 47 43
21 47 43
21 47 43
22 47 43
21 46 42
21 46 42
21 46 42
21 47 42
21 46 42
21 47 43
21 46 41
21 46 42
21 46 42
22 47 43
21 47 43
21 47 42
21 46 42
22 48 44
21 47 43
21 46 42
21 46 42
21 47 43
21 47 43
21 47 42
21 47 43
21 46 42
21 47 43
22 48 44
21 47 43
22 48 44
22 49 44
22 47 43
21 46 42
21 46 42
22 48 44
21 46 42
21 47 43
21 46 42
22 48 43
21 46 42
21 47 43
22 48 44
22 48 44
22 48 44
22 48 43
22 48 43
21 47 42
20 45 42
21 47 43
20 45 41
21 46 42
20 44 40
20 45 41
20 45 41
20 45 41
20 45 42
21 46 42
21 47 43
20 45 42
20 45 41
20 45 42
21 46 42
20 45 41
21 46 42
21 46 43
21 46 42
21 47 43
20 45 41
21 46 42
21 46 42
20 44 40
21 45 42
21 46 42
21 47 43
22 48 44
20 45 41
21 47 43
21 46 42
20 44 41
21 46 42
20 45 41
21 46 42
21 46 42
21 46 42
21 46 42
21 46 42
21 46 42
21 46 42
21 45 42
21 47 43
20 45 41
21 47 43
20 45 41
20 45 41
21 46 42
21 47 43
21 46 42
21 47 43
21 47 43
21 46 43
21 47 43
21 46 42
20 45 41
20 45 41
21 46 42
21 46 42
21 45 41
21 47 43
21 47 43
21 46 42
21 46 42
21 46 42
22 48 44
21 46 42
22 48 44
21 46 42
21 47 43
21 47 43
21 46 42
21 46 42
21 47 43
21 46 42
21 47 43
22 48 43
21 47 43
21 46 42
21 46 42
21 47 43
21 46 42
21 47 43
21 46 42
22 47 43
21 47 43
22 48 44
21 47 43
22 48 44
21 47 42
21 47 43
21 47 43
21 47 43
22 48 44
21 47 43
21 47 43
21 47 42
22 49 44
22 47 43
22 48 44
21 47 43
22 48 44
21 47 43
22 48 43
22 49 44
21 46 42
22 49 45
21 46 42
21 47 43
22 48 44
21 47 43
22 47 43
21 47 43
21 46 42
21 47 43
22 48 44
21 46 42
22 47 43
22 47 43
21 46 42
20 45 41
21 46 42
20 45 41
21 45 42
20 44 40
20 45 42
21 46 42
21 46 42
21 46 42
21 46 42
20 44 40
20 44 41
20 45 41
21 46 42
21 46 42
21 46 42
21 46 42
21 46 42
20 45 41
21 47 43
21 46 42
21 47 43
21 46 42
21 46 42
21 46 42
20 44 41
20 45 41
20 45 41
21 46 42
21 47 43
21 46 42
21 46 42
20 45 41
21 46 42
21 46 42
21 47 43
21 46 42
21 46 42
21 47 43
21 46 42
21 46 42
20 45 41
21 45 41
21 46 42
20 45 41
21 46 42
21 46 42
21 46 42
20 45 42
20 45 41
21 47 43
21 46 42
21 46 42
21 46 42
21 46 42
21 47 43
21 47 43
21 46 42
21 47 43
21 46 42
21 46 42
21 46 42
21 45 41
21 46 42
21 46 42
21 46 42
21 46 42
21 47 43
21 46 42
21 46 42
21 47 43
21 45 42
21 46 42
21 46 42
22 48 44
21 47 43
21 46 42
21 47 43
21 47 43
21 47 43
21 46 42
21 47 43
21 46 42
21 46 42
21 47 42
21 46 42
21 47 43
21 47 43
21 47 43
21 47 43
21 47 43
22 47 43
22 48 43
21 47 42
22 47 43
21 46 42
22 47 43
22 47 43
21 47 43
21 46 41
22 47 43
21 45 41
21 46 42
21 47 43
22 48 44
22 48 44
21 47 43
22 47 43
21 46 42
22 47 43
22 47 43
22 47 43
21 46 42
21 47 43
22 47 43
21 47 43
21 47 43
21 46 42
22 47 43
22 47 43
20 44 40
20 46 42
21 47 43
21 46 42
21 46 42
21 46 43
20 44 41
21 45 42
21 46 42
20 45 41
20 45 41
20 45 41
20 44 41
21 46 42
21 46 42
21 46 42
20 45 41
20 45 42
21 46 42
21 46 42
20 45 42
20 44 40
20 44 41
21 46 42
21 46 42
21 47 43
21 47 43
21 46 42
21 47 43
21 46 42
21 46 42
20 45 42
21 46 42
20 45 41
20 44 40
21 46 42
21 46 42
21 46 42
20 45 41
21 45 42
21 46 42
21 46 42
21 46 42
21 46 42
21 47 43
20 45 41
21 46 42
21 47 43
21 46 42
21 46 42
21 45 42
21 47 43
21 46 42
20 45 41
21 45 41
21 46 42
21 46 42
21 46 42
21 46 42
20 45 41
21 47 43
22 48 44
21 45 41
21 47 43
20 45 41
21 46 42
21 47 43
21 46 42
21 46 42
21 45 41
21 46 42
21 47 43
21 46 42
21 47 43
21 46 42
21 47 43
21 46 42
21 47 43
20 45 41
21 46 42
21 46 42
21 47 43
22 48 43
21 46 42
21 47 43
21 47 43
21 46 42
21 47 43
22 48 43
21 47 43
21 47 43
22 47 43
21 45 41
22 48 43
22 47 43
21 47 43
22 47 43
22 47 43
22 48 44
22 47 43
21 47 42
21 46 42
21 47 43
21 47 43
21 46 42
22 47 43
22 47 43
22 48 44
21 46 42
21 46 42
22 48 44
22 47 43
21 47 43
22 48 44
22 48 43
21 46 42
21 46 42
22 47 43
22 48 43
21 45 41
21 46 42
20 45 41
21 46 42
20 45 41
20 45 41
20 45 41
20 45 41
20 45 41
20 45 41
21 46 42
20 45 41
20 44 40
20 45 41
21 46 42
20 45 41
20 45 41
20 45 41
20 45 41
21 46 42
21 46 42
20 45 41
20 44 41
20 45 41
20 45 41
21 47 43
21 45 42
20 45 41
20 45 41
21 46 42
20 45 41
20 45 41
21 46 42
21 46 42
20 45 41
20 45 42
21 46 42
21 46 42
21 46 42
21 46 42
21 46 42
21 46 42
20 45 41
21 45 42
21 46 42
21 46 42
22 48 44
20 45 41
21 47 43
21 46 42
21 46 42
20 45 41
21 46 42
20 45 41
21 46 42
21 46 42
21 46 42
21 47 43
21 46 42
21 46 42
21 45 42
21 46 42
21 46 42
21 46 42
21 46 42
21 46 42
21 47 43
20 45 41
21 46 42
21 47 43
20 45 41
21 47 43
21 46 42
21 47 43
21 47 43
22 48 43
21 47 43
21 47 43
21 46 42
21 47 43
21 46 42
22 48 44
21 47 43
21 47 43
21 47 43
22 49 45
21 47 43
21 47 42
21 46 42
21 46 42
21 47 43
21 46 42
21 46 42
21 46 42
22 47 43
21 45 41
22 48 44
22 48 44
22 48 44
21 46 42
21 46 42
22 47 43
21 46 42
22 47 42
22 48 44
22 48 44
21 46 42
21 46 42
22 47 43
22 47 42
22 48 44
22 48 44
22 47 43
22 47 43
22 47 43
21 47 42
22 48 44
22 47 43
21 45 41
22 47 43
22 48 44
21 46 42
20 44 41
20 45 41
20 45 41
20 45 42
20 45 41
20 46 42
21 46 42
20 45 42
20 45 41
20 45 41
21 46 42
20 45 41
20 44 41
20 45 41
21 46 42
20 45 41
20 45 42
20 45 41
20 44 40
20 45 42
21 46 42
20 45 41
21 46 42
21 46 42
21 46 42
20 44 41
20 44 41
20 45 42
20 45 41
21 47 43
21 46 42
20 45 41
21 46 42
21 46 42
21 46 42
21 47 43
21 47 43
21 46 42
20 45 41
20 45 41
21 46 42
21 46 42
21 47 43
21 47 43
21 46 42
20 45 41
21 46 42
20 45 41
21 46 42
21 46 42
20 45 41
21 47 43
21 46 42
21 46 42
20 45 41
21 47 43
21 47 43
21 47 43
21 46 42
21 47 43
21 46 42
21 47 43
21 46 42
20 45 41
21 47 43
21 47 43
21 46 42
20 45 41
22 48 44
21 45 42
22 47 43
20 45 41
21 46 42
21 46 42
21 46 42
21 46 42
22 48 43
22 47 43
21 47 43
21 46 42
21 47 43
22 47 43
21 45 41
21 46 42
21 45 41
21 46 42
22 47 43
21 46 42
21 46 42
22 47 43
22 47 43
21 45 41
22 47 43
21 46 42
22 47 43
22 47 43
22 47 43
22 47 42
22 47 43
22 47 43
21 46 42
22 47 42
22 48 44
22 47 43
21 46 42
22 46 42
22 47 43
22 47 43
22 48 44
22 46 42
22 47 43
22 47 43
22 47 43
22 47 43
22 47 43
22 47 43
22 47 43
22 48 44
22 47 43
20 45 42
20 45 41
20 45 41
21 47 43
20 45 41
20 45 42
20 45 41
20 45 41
21 46 42
20 44 40
21 46 42
20 45 41
21 46 42
21 46 42
20 45 41
20 45 41
21 46 42
21 46 42
20 45 41
21 46 42
21 46 42
21 47 43
21 45 42
21 46 42
21 46 42
21 46 42
21 46 42
21 46 42
21 46 42
20 45 41
20 45 41
20 45 41
21 47 43
21 46 42
21 46 42
20 45 41
21 45 42
20 45 41
20 45 41
21 46 42
20 44 41
20 45 41
20 45 42
21 46 42
21 46 42
21 46 42
21 47 43
21 46 42
21 45 42
21 46 42
20 45 41
20 45 41
21 46 42
21 45 41
21 46 42
20 45 41
20 44 40
21 47 43
21 46 42
21 46 42
21 46 42
21 47 43
20 45 41
21 47 43
21 47 43
21 45 42
21 46 42
21 46 42
21 47 43
21 47 43
21 46 42
20 45 41
20 45 41
21 47 43
21 46 42
21 46 42
20 45 41
21 46 42
21 46 42
21 45 41
21 46 42
21 46 42
22 47 43
21 47 42
22 48 43
22 47 43
22 47 43
21 46 42
22 47 43
22 47 43
21 46 42
22 47 43
22 47 43
22 47 43
22 47 43
22 46 42
22 47 43
22 47 43
22 47 43
22 46 42
23 48 44
22 46 42
22 46 42
22 47 43
22 47 43
22 46 42
23 48 44
23 48 43
22 46 42
22 46 42
22 47 43
22 47 43
22 46 42
22 47 42
22 47 43
22 47 43
22 47 43
22 47 43
22 46 42
22 47 43
20 45 41
20 45 41
20 45 41
21 47 43
20 45 41
20 44 40
21 46 42
21 46 42
21 46 42
20 44 41
21 46 42
20 45 41
21 46 42
20 44 40
20 45 41
20 44 41
20 45 41
21 47 43
20 45 41
21 46 42
21 46 42
21 46 42
20 45 41
21 46 42
21 46 42
20 45 41
21 47 43
20 45 41
20 45 42
20 45 41
21 46 42
21 47 43
21 47 43
20 45 41
21 46 42
21 45 42
20 45 41
21 46 42
21 46 42
21 46 42
21 46 42
20 45 42
21 45 42
21 46 42
21 46 42
21 46 42
21 46 42
20 44 40
21 46 42
22 48 44
21 45 42
21 47 43
21 47 43
20 45 41
22 48 44
20 45 41
21 46 42
20 45 41
21 46 42
21 46 42
20 45 41
21 46 42
21 46 42
21 46 42
21 46 42
21 46 42
20 45 41
21 46 42
21 46 42
21 45 42
21 47 43
21 46 42
21 45 42
21 46 42
21 46 42
21 47 43
21 47 43
21 46 42
21 46 42
21 46 42
22 47 43
22 47 43
21 45 41
22 47 43
22 47 43
21 46 42
22 46 42
21 46 42
22 46 42
22 47 43
22 47 43
22 47 43
22 47 43
22 47 42
22 47 43
22 46 42
22 47 43
22 47 43
22 47 43
23 47 43
22 47 43
23 48 44
22 46 42
23 48 44
23 48 43
23 47 43
22 46 42
23 47 43
23 47 43
22 46 42
23 47 43
23 47 43
23 48 43
23 47 43
23 47 43
23 48 43
23 47 43
22 46 42
22 47 42
23 48 44
19 43 40
20 45 41
21 46 43
20 45 41
20 45 41
20 45 42
20 45 42
21 46 42
20 45 42
20 44 40
20 44 41
20 44 41
20 44 40
20 45 41
20 45 41
20 45 41
20 45 41
20 44 41
21 46 42
20 44 41
20 45 41
21 45 42
21 46 42
20 45 42
20 45 42
20 45 41
20 44 40
21 46 43
21 47 43
20 44 41
21 47 43
20 45 41
21 46 43
20 45 41
21 46 42
21 46 42
21 45 42
20 45 41
21 46 42
20 45 41
21 46 42
21 46 42
20 45 42
21 46 42
20 45 41
21 47 43
21 46 42
21 46 42
21 47 43
20 45 41
21 46 42
20 45 41
21 47 42
21 46 42
21 47 43
21 46 42
20 45 41
20 45 41
20 45 41
21 46 42
20 45 41
20 45 41
21 46 42
21 47 43
21 46 42
21 46 42
21 45 42
21 47 43
21 46 42
21 46 42
21 47 43
22 47 43
22 48 43
21 46 42
21 45 41
21 47 43
22 47 43
21 47 43
22 47 43
22 47 42
21 45 41
21 46 42
22 47 43
22 47 43
22 46 42
22 46 42
22 47 43
22 47 43
22 46 42
22 47 43
22 47 43
23 48 43
23 48 44
23 47 43
22 46 42
23 48 43
23 47 42
23 47 42
23 47 43
23 47 43
23 47 43
23 47 43
24 48 44
23 47 42
24 49 45
23 47 43
23 47 43
23 46 42
23 47 43
24 48 43
24 47 43
24 48 44
23 47 42
24 49 44
23 47 43
24 48 44
24 48 43
23 46 42
23 47 43
23 48 43
20 44 41
20 44 41
20 45 41
21 46 42
20 46 42
20 45 41
20 44 41
20 44 41
21 46 42
20 45 42
20 44 41
21 46 42
20 45 41
20 45 41
20 45 42
20 44 40
20 45 41
20 44 41
21 46 42
20 44 41
20 44 41
20 45 41
21 46 42
21 47 43
21 46 42
21 46 42
20 45 42
20 44 40
20 45 41
21 46 43
20 45 41
20 45 42
21 47 43
21 45 42
21 46 42
21 46 42
21 45 42
21 46 42
20 45 41
20 44 40
21 46 42
20 45 42
21 46 42
21 46 42
21 46 42
20 45 41
20 45 41
21 46 42
20 45 41
21 46 42
21 46 42
20 45 41
20 45 41
21 47 43
21 46 42
20 45 41
21 47 43
20 45 41
21 46 42
20 45 41
21 46 42
21 46 42
21 46 42
21 47 43
21 46 42
21 46 42
21 46 42
20 45 41
21 46 42
21 46 42
21 47 43
21 47 43
21 45 42
21 45 41
21 46 42
21 46 42
21 46 42
21 46 42
22 47 43
22 47 43
21 45 41
21 46 42
21 45 42
22 47 43
22 47 43
22 46 42
23 47 43
22 45 41
22 46 42
23 47 42
22 46 42
23 46 42
23 47 43
24 48 44
23 47 43
23 47 43
23 47 43
24 47 43
24 47 43
24 47 43
24 48 44
24 47 43
24 47 43
24 47 42
24 48 43
24 48 43
24 47 43
25 49 44
24 47 43
24 47 43
25 48 44
24 48 43
25 48 44
24 48 43
25 48 44
24 47 42
25 49 44
24 49 44
24 47 43
24 47 42
20 45 41
20 44 41
20 45 42
20 45 41
19 43 39
20 45 41
21 47 43
20 45 41
20 45 41
20 45 41
20 44 40
20 44 41
20 45 41
20 45 41
20 45 41
21 46 42
21 46 42
20 45 42
20 45 41
20 45 41
21 46 42
20 45 42
20 45 41
20 45 41
20 45 41
20 45 42
20 45 41
21 46 42
20 44 40
20 45 41
20 45 42
21 47 43
21 46 42
21 46 42
20 45 41
20 45 41
20 46 42
20 45 41
21 46 42
20 45 41
20 45 41
21 46 42
20 45 41
20 45 41
20 45 42
20 45 41
21 46 42
21 46 43
20 45 41
21 47 43
20 44 40
21 48 44
20 44 41
20 45 41
20 45 41
20 45 41
20 45 41
20 44 41
21 46 42
21 47 43
21 46 42
21 46 42
21 47 43
20 45 41
21 46 42
21 45 41
21 46 42
21 45 41
21 45 41
22 47 43
21 45 42
21 45 41
21 45 41
22 47 43
22 47 43
22 47 43
22 47 43
21 45 41
22 46 42
22 46 42
22 46 42
23 48 44
22 47 43
23 47 43
22 46 42
23 48 44
23 47 43
23 47 43
23 47 43
23 47 43
24 47 43
24 48 43
24 48 43
24 47 42
25 48 44
24 47 43
25 48 43
25 48 43
25 48 44
25 48 43
25 48 43
25 48 44
25 47 43
26 49 44
25 46 42
26 49 44
25 47 43
26 48 44
25 47 43
26 49 45
25 47 43
25 48 43
25 47 43
25 48 44
26 49 44
25 48 43
25 48 44
25 48 44
25 48 44
25 48 43
20 45 41
20 45 41
20 45 41
21 46 42
20 44 40
21 46 42
20 44 40
20 44 41
20 45 41
20 44 41
20 45 42
20 44 40
20 45 41
20 45 41
20 45 41
20 45 42
20 44 41
21 46 42
20 45 41
21 46 42
20 45 41
20 45 41
20 45 42
20 45 41
20 45 41
20 45 42
20 44 40
20 44 40
20 44 41
20 45 41
20 45 41
20 45 42
21 46 42
20 44 40
20 45 42
21 46 42
21 46 42
21 46 42
20 45 41
20 45 41
21 46 42
20 45 41
20 45 41
20 44 41
21 47 43
20 45 42
20 45 41
20 45 41
20 44 41
21 46 42
20 45 41
21 46 42
21 46 42
20 45 41
20 45 41
20 45 42
21 46 42
21 46 42
21 46 42
20 45 41
21 46 42
20 45 41
21 46 42
21 46 42
21 45 41
20 45 41
21 46 42
21 47 42
21 46 42
22 47 43
21 45 41
21 46 42
22 47 43
22 46 42
21 46 42
22 46 42
22 46 42
22 46 42
22 47 43
22 47 43
22 46 42
22 46 42
23 47 43
23 47 42
24 48 43
23 47 43
23 47 43
24 47 43
24 46 42
24 48 43
25 48 44
25 48 44
25 47 43
26 49 44
26 49 45
26 48 44
26 48 44
25 47 42
27 50 45
26 48 43
27 49 44
26 48 43
26 48 44
27 49 44
27 48 43
27 48 44
27 49 45
27 48 44
27 48 43
27 49 45
27 48 44
27 49 45
27 49 44
27 48 43
27 49 44
27 49 45
26 48 44
27 49 45
27 50 45
26 48 43
20 45 41
20 45 41
20 45 42
20 45 41
20 45 42
20 45 42
20 45 41
21 46 42
20 45 41
20 45 41
20 45 41
20 44 40
21 46 42
20 45 41
20 44 41
21 46 42
20 45 41
21 46 42
21 46 42
20 45 41
20 45 41
20 44 41
20 45 41
21 46 42
20 44 41
20 45 41
20 44 41
20 45 41
21 46 42
21 45 42
20 44 41
20 45 41
20 45 41
20 45 41
20 44 41
21 46 42
20 45 41
20 45 42
20 45 42
20 45 41
20 45 41
20 44 40
20 44 40
21 46 42
21 47 43
20 45 41
20 45 41
20 44 41
20 45 41
21 46 42
20 44 41
21 46 42
20 44 41
21 46 42
21 46 42
21 45 41
20 45 41
21 46 42
21 45 41
21 46 42
21 46 42
21 45 41
21 47 43
20 44 41
21 45 41
21 45 41
21 46 42
21 46 42
21 45 41
21 46 42
22 47 43
21 46 42
22 46 43
22 46 42
22 46 42
22 47 43
23 47 43
22 46 42
23 47 43
23 46 42
23 46 42
23 47 43
23 47 43
24 47 43
24 46 42
24 47 43
25 49 44
25 48 44
25 49 44
25 47 43
25 48 43
26 48 43
26 49 44
27 49 44
27 48 44
27 48 44
27 48 44
27 48 43
28 50 45
28 49 44
28 49 44
28 50 45
29 50 45
28 49 44
28 48 44
29 50 45
28 49 44
29 49 45
29 49 45
29 49 44
29 50 45
29 51 46
29 50 45
28 49 44
29 50 45
29 50 45
28 48 44
28 48 43
28 49 44
27 48 44
20 44 40
20 45 41
20 45 41
20 45 41
20 45 41
20 45 41
20 45 42
20 45 41
20 44 40
20 45 41
21 47 43
21 46 42
19 43 40
20 45 42
20 44 41
20 45 41
20 44 40
20 45 41
20 45 41
20 44 40
20 45 41
20 45 41
20 45 41
21 46 42
20 46 42
21 46 42
20 45 42
20 44 41
20 45 42
21 46 42
20 45 41
20 44 41
20 45 41
21 46 42
20 45 41
21 46 42
20 45 41
20 45 42
21 45 42
20 45 41
21 46 42
20 45 41
20 45 41
20 45 41
20 45 41
20 45 41
21 46 42
21 46 42
20 45 41
20 45 41
21 46 42
20 45 41
21 46 42
20 45 41
20 45 41
20 45 41
21 46 42
21 46 42
20 45 41
21 45 41
21 46 42
21 45 42
20 45 41
21 47 43
21 46 42
21 45 41
21 45 41
22 47 43
21 46 42
21 46 42
22 46 42
21 45 41
22 47 43
22 46 42
22 46 42
23 47 43
23 47 43
22 45 41
24 48 44
23 46 42
24 47 43
24 46 42
25 48 44
25 47 43
25 48 44
26 50 45
25 47 43
26 47 43
26 47 43
26 48 44
27 48 43
27 49 44
27 48 44
28 49 44
28 50 45
28 49 44
29 50 45
29 49 44
29 49 44
30 50 45
30 50 45
30 50 45
30 51 46
31 51 46
31 50 46
30 50 45
31 50 45
31 52 47
32 53 47
31 50 45
31 50 46
31 52 47
31 50 45
31 50 45
31 51 46
31 52 47
30 50 45
30 50 45
30 50 45
30 50 45
20 45 41
20 45 41
20 45 41
20 44 41
20 45 41
20 45 41
20 45 41
20 44 41
20 44 40
20 45 41
20 44 41
20 45 41
20 45 42
20 45 42
20 45 42
20 45 41
20 44 41
20 45 41
20 45 41
20 44 40
20 45 41
20 44 40
20 44 40
20 45 41
20 45 41
20 44 41
20 45 41
20 45 41
20 45 41
20 45 41
20 45 41
21 46 42
20 44 41
20 44 41
20 45 41
20 45 42
20 45 42
21 46 42
20 45 41
20 44 41
20 44 40
20 45 41
20 45 42
20 45 41
20 44 41
20 45 41
21 45 42
20 45 41
21 46 42
21 46 42
21 46 42
21 45 42
20 45 41
20 45 41
21 47 43
20 45 41
21 46 42
21 46 42
21 46 42
21 46 42
20 45 41
21 46 42
20 44 40
22 47 43
21 46 42
21 46 42
22 47 43
22 46 42
21 44 40
22 46 42
22 45 41
22 46 42
22 46 42
23 46 42
23 47 43
23 47 42
24 47 43
24 47 43
24 47 42
24 46 42
24 47 42
25 48 44
25 46 42
26 48 43
26 49 44
27 49 45
27 48 43
27 49 45
27 47 43
28 48 44
29 50 45
29 49 44
29 50 45
30 50 45
30 50 45
30 50 45
31 51 46
31 51 46
32 51 46
32 51 46
32 51 46
32 51 46
32 50 45
33 51 46
33 52 47
33 52 47
33 51 46
33 51 46
33 51 46
33 52 46
33 52 47
33 51 46
33 51 46
33 52 47
33 51 46
33 52 46
32 51 46
32 51 46
32 51 46
31 50 45
20 45 42
21 46 43
20 45 41
20 44 41
20 44 40
20 45 41
20 45 41
20 45 41
20 44 40
20 45 41
20 44 40
20 45 41
20 45 42
21 46 42
20 44 40
20 45 42
20 45 41
20 45 41
21 46 42
20 45 41
20 45 42
21 46 42
20 45 41
20 45 41
20 45 41
20 45 41
20 45 41
20 44 40
20 44 40
20 45 41
20 45 41
20 45 42
20 44 41
20 45 41
21 46 42
20 45 42
20 45 41
20 45 41
20 45 42
19 43 39
20 45 41
20 45 42
21 46 42
20 45 41
20 45 42
21 46 43
21 46 42
21 45 42
20 45 41
21 45 42
20 44 41
21 47 43
21 46 42
21 45 41
20 45 41
21 46 43
21 46 42
20 45 41
21 45 41
21 46 42
21 46 42
22 47 43
22 47 43
21 46 42
21 45 41
21 46 42
21 45 41
22 47 43
22 46 42
22 45 42
22 45 41
23 47 43
23 47 43
23 46 42
24 48 44
24 47 43
24 47 43
25 49 44
25 48 43
25 48 43
26 48 44
26 48 43
26 48 44
27 48 43
27 48 44
28 49 45
28 48 44
29 50 45
29 49 44
30 51 46
30 50 45
31 50 45
31 51 46
32 51 46
32 52 47
32 51 46
33 51 46
33 51 46
34 52 47
34 52 46
34 52 47
34 52 47
35 52 46
36 54 49
35 52 47
36 54 48
36 53 48
35 52 47
36 54 48
36 54 48
36 53 48
36 54 48
35 52 47
36 54 48
36 54 48
35 54 49
35 52 47
35 52 47
34 52 47
34 53 47
20 44 40
20 45 41
20 45 41
20 44 40
20 44 41
20 45 41
20 44 40
20 44 41
19 43 40
20 45 41
20 45 41
20 45 41
20 45 41
20 45 41
20 44 41
21 46 42
20 44 40
20 45 41
20 45 42
21 46 43
20 46 42
19 43 40
20 45 41
20 45 42
20 44 41
21 46 42
20 45 41
21 46 42
20 45 41
20 45 41
21 46 42
21 46 42
20 44 40
21 46 42
21 45 42
20 44 40
20 44 40
21 46 42
21 46 42
20 45 41
20 45 42
20 45 41
20 45 41
21 45 42
20 44 40
21 45 42
20 45 41
21 46 42
20 45 42
20 45 41
20 45 41
20 44 41
20 45 41
20 45 41
21 45 42
20 45 41
21 46 42
20 44 40
21 45 41
22 47 43
21 45 41
21 46 42
21 45 41
21 45 41
22 46 42
22 46 42
22 47 43
22 47 43
22 46 42
23 47 43
23 46 42
23 46 42
23 47 42
24 47 43
24 48 43
25 48 43
26 49 45
26 48 44
26 49 44
26 48 43
27 49 45
27 49 44
28 48 44
28 49 45
29 49 45
30 50 45
30 50 45
30 49 45
31 50 45
31 50 45
32 50 45
33 51 46
33 52 47
34 53 47
34 52 47
35 52 47
35 53 47
36 53 48
36 54 49
37 53 48
37 54 49
37 53 48
37 54 48
38 54 48
38 54 48
38 55 49
38 54 48
39 56 50
39 55 49
39 55 49
39 55 49
39 55 49
39 55 49
38 55 49
38 54 48
38 54 48
37 53 48
37 54 48
37 54 48
37 55 49
20 45 41
20 44 40
20 44 41
20 45 42
20 44 41
20 46 42
20 44 40
20 45 41
20 44 40
20 44 40
20 45 41
20 45 41
20 46 42
20 44 40
20 44 40
20 45 41
19 42 39
19 43 40
20 46 42
20 44 40
20 45 41
20 45 41
19 43 40
20 45 41
20 45 42
20 45 41
20 45 41
20 45 42
20 45 42
20 45 41
20 44 41
20 45 42
20 45 41
21 46 42
20 45 41
21 46 42
20 45 41
20 45 41
20 43 40
20 44 40
20 45 41
21 46 42
20 44 40
20 45 41
21 47 43
20 45 41
21 46 42
20 44 41
20 44 40
20 43 40
20 45 41
21 45 42
21 45 42
20 44 41
21 45 41
20 45 41
21 45 42
20 44 41
20 44 41
21 45 41
21 46 42
21 45 41
21 45 41
21 45 41
22 45 41
22 46 42
22 46 42
23 46 42
23 47 43
23 46 42
24 47 43
23 46 42
25 48 44
24 46 42
25 47 43
25 47 43
26 47 43
26 47 43
27 48 44
27 48 44
28 49 44
29 49 44
29 49 45
30 50 45
30 50 45
31 51 46
32 51 46
33 51 46
33 51 46
33 51 46
34 52 47
35 53 47
36 55 49
36 54 48
37 53 48
38 56 50
38 53 47
39 55 49
39 55 49
39 55 49
40 56 50
40 56 50
41 56 50
41 55 49
41 57 51
41 57 50
41 56 50
42 57 51
42 57 51
42 58 52
41 56 49
42 57 51
42 56 50
41 57 51
41 56 50
41 56 50
41 57 50
40 56 49
40 56 50
40 55 49
20 45 41
19 43 40
20 44 41
21 46 42
20 45 41
20 44 41
20 45 41
20 45 41
20 45 41
20 45 41
20 44 40
20 44 40
20 44 41
20 44 41
20 44 41
20 45 41
20 45 42
21 46 42
20 44 40
20 44 40
20 45 41
20 45 41
20 45 41
21 46 42
20 45 41
20 44 41
20 45 41
20 45 41
20 44 41
21 46 42
21 46 42
21 45 42
21 46 42
20 45 41
21 46 42
21 46 42
20 43 40
20 45 42
20 45 41
21 46 42
21 46 42
20 45 42
20 45 41
21 46 42
20 45 41
20 45 41
21 47 43
21 46 42
20 45 41
21 46 42
21 46 42
20 45 41
21 45 42
21 46 42
20 44 40
21 46 42
20 44 40
21 46 42
21 46 42
22 46 42
22 46 42
21 45 41
22 45 42
22 45 42
22 46 42
23 48 44
23 47 43
23 46 42
23 46 42
24 47 43
24 46 42
25 47 43
25 47 43
26 47 43
26 48 43
26 48 43
27 49 44
27 47 43
28 48 43
29 50 45
30 50 45
31 51 46
31 51 46
32 51 46
33 51 46
33 52 46
34 51 46
35 53 48
36 53 48
36 53 48
37 53 48
37 54 48
38 54 48
39 55 49
40 55 49
40 56 50
41 56 50
42 57 51
42 56 50
43 58 51
43 57 51
43 58 52
44 59 52
44 58 51
45 59 53
45 59 53
45 59 52
45 59 52
45 58 52
45 60 53
45 59 52
45 59 52
45 58 51
45 58 51
45 59 52
44 59 52
44 57 51
43 57 51
43 57 51
43 57 51
20 44 40
19 43 40
20 44 41
20 44 41
20 44 40
20 44 41
20 45 41
20 44 40
20 44 41
20 45 41
19 43 39
20 44 41
20 45 41
20 45 42
20 45 41
20 44 41
21 46 42
20 44 41
21 46 42
21 46 43
20 45 41
20 45 41
20 45 42
21 46 42
20 45 42
20 44 40
20 45 41
20 44 40
20 44 41
20 45 41
20 44 41
20 45 41
21 47 43
20 45 41
20 45 42
21 47 43
20 45 41
20 45 42
21 46 42
20 45 41
20 45 41
20 43 40
20 45 41
21 46 42
20 44 41
20 45 41
20 44 41
20 45 41
20 45 41
21 45 41
20 44 41
20 45 41
21 46 42
21 46 42
21 45 41
22 47 43
21 45 42
21 45 41
21 45 41
22 47 43
22 47 43
22 45 42
22 46 42
23 46 42
23 46 42
23 46 42
24 47 43
24 47 43
24 46 42
25 48 44
25 48 44
25 47 43
26 47 43
26 47 43
27 48 44
28 49 44
28 48 44
29 50 45
30 50 45
31 50 45
31 50 45
32 51 46
33 51 46
34 53 47
35 52 47
35 53 47
36 54 48
37 53 48
38 53 48
39 55 49
40 56 50
40 55 49
41 56 50
42 56 50
42 57 50
43 57 51
44 58 51
45 59 52
45 59 53
46 60 53
46 59 52
47 59 52
47 60 53
48 61 54
48 61 53
48 60 53
48 61 54
48 61 53
49 62 55
49 62 55
49 62 54
49 61 54
48 60 53
48 61 54
48 61 54
48 61 54
47 60 53
47 61 54
47 61 54
46 59 52
20 44 41
20 44 40
20 44 40
21 46 43
20 44 40
20 44 40
21 47 43
20 44 40
20 44 41
20 44 40
20 45 42
20 45 41
20 44 41
21 46 42
20 45 41
20 44 41
20 44 41
20 45 41
20 44 40
20 44 41
20 44 41
20 45 41
20 45 42
20 45 42
20 44 41
20 45 41
20 45 41
20 45 41
20 44 41
20 45 41
20 43 40
19 43 39
20 45 41
20 44 41
20 45 41
21 46 42
20 44 40
20 44 41
20 44 40
20 45 41
20 45 41
20 45 41
20 45 42
20 44 41
20 44 40
20 45 42
20 44 40
21 46 42
21 45 42
20 45 41
21 47 43
21 45 41
21 46 42
21 45 41
21 46 42
21 45 41
21 46 42
21 46 42
22 46 42
21 45 41
22 46 42
22 46 42
23 46 42
23 48 43
23 46 42
23 46 42
24 47 43
24 46 42
25 48 44
25 47 42
26 48 43
26 47 43
27 47 43
28 48 44
28 48 44
29 48 44
30 49 45
31 50 45
31 50 45
33 51 46
33 52 46
34 53 47
35 52 47
36 54 48
37 53 48
38 55 49
39 54 48
40 55 49
41 56 49
41 56 49
43 57 51
43 57 51
44 59 52
45 58 51
46 59 52
47 60 53
47 60 53
48 61 54
49 62 55
49 61 54
50 62 54
50 62 55
51 63 56
51 62 55
52 63 55
52 64 57
52 64 56
52 64 56
52 63 55
53 64 56
52 63 55
52 63 55
52 63 56
52 64 56
52 63 56
51 62 55
51 63 55
50 62 54
50 62 55
50 62 55
20 44 41
20 44 41
20 44 41
20 44 41
19 43 40
20 44 40
20 44 40
20 45 41
20 45 41
21 46 42
20 46 42
21 46 42
20 44 40
20 44 41
20 45 41
20 44 40
20 44 41
20 44 40
20 45 42
20 45 42
20 44 41
21 46 42
20 45 42
20 45 41
20 44 40
20 45 41
20 44 41
20 44 41
21 46 42
20 44 41
20 45 41
20 45 42
20 44 40
20 45 41
20 44 40
20 45 42
20 44 41
20 44 41
20 44 41
20 45 41
20 44 40
20 45 41
20 45 41
21 45 42
21 47 43
20 45 41
20 44 41
21 46 42
21 45 41
21 46 42
21 46 42
21 46 42
21 45 42
21 44 41
22 46 42
21 45 41
22 46 42
21 45 41
22 45 41
22 45 41
22 45 41
22 45 41
23 47 42
24 47 43
24 46 42
25 49 44
25 49 44
25 48 43
26 48 44
27 49 44
27 49 44
28 49 44
29 49 44
29 49 44
30 51 46
31 50 45
31 50 45
33 51 46
33 51 46
34 51 45
35 52 47
36 52 46
37 53 48
38 53 48
39 55 49
40 55 49
42 57 51
42 56 50
43 57 51
45 58 52
45 59 52
46 59 52
47 60 53
48 60 53
50 63 55
50 63 55
51 64 56
52 64 56
53 65 57
53 64 56
54 65 57
54 65 57
55 66 57
55 65 57
55 66 57
56 65 57
56 67 59
56 66 58
57 67 59
56 66 58
56 67 59
56 66 58
56 67 58
56 67 58
56 66 58
55 65 57
55 66 58
55 65 57
54 66 58
54 65 57
20 45 41
20 45 41
20 45 41
20 44 40
20 46 42
20 44 41
20 44 41
20 44 41
20 45 42
20 45 41
20 45 42
20 44 40
20 44 41
20 45 42
20 44 41
20 45 42
20 45 41
19 43 40
20 44 41
21 46 42
20 45 41
20 45 41
20 44 40
20 45 42
20 45 41
20 44 40
20 45 41
20 45 41
21 46 42
20 45 41
21 46 42
20 45 42
20 44 41
20 44 41
20 44 41
20 45 42
21 46 42
20 45 41
20 45 41
21 46 42
20 45 41
21 46 42
20 45 41
20 45 41
21 46 42
20 44 41
21 46 42
21 45 42
20 44 40
20 44 40
21 45 42
22 47 43
21 44 41
21 45 41
22 46 42
21 45 42
22 47 43
22 46 42
23 47 43
23 47 43
22 45 41
23 46 42
24 47 43
24 47 43
24 46 42
25 48 44
26 48 43
26 48 43
27 48 43
27 47 42
28 49 45
29 49 45
30 50 45
31 50 45
31 50 45
33 51 46
34 52 47
34 51 46
35 52 47
36 53 47
38 54 48
39 55 49
40 55 49
41 56 50
42 56 50
43 56 50
44 58 51
45 59 52
46 59 52
47 60 53
49 61 53
50 62 54
51 62 55
52 63 55
52 63 55
53 64 56
54 65 57
56 67 59
56 66 58
57 67 58
57 66 58
58 68 60
59 68 60
59 68 60
59 68 60
60 69 60
60 70 61
60 70 61
61 69 61
61 70 61
61 70 61
61 70 61
60 69 60
60 69 61
60 69 60
60 69 60
59 69 61
58 68 59
58 68 60
57 67 58
20 44 41
20 44 40
19 43 40
20 44 41
20 45 41
20 44 40
19 43 40
20 45 41
20 45 41
20 45 41
20 44 40
20 44 40
20 44 40
20 44 40
21 46 42
20 44 40
20 44 41
20 45 41
20 45 41
20 45 41
20 45 41
20 44 40
20 45 42
20 45 41
20 44 41
20 45 41
20 44 40
20 44 41
20 44 41
20 45 41
21 46 42
19 43 40
20 44 41
20 44 41
20 45 41
20 45 41
20 45 41
20 44 40
20 45 41
21 46 42
20 45 41
20 45 41
20 45 41
21 46 42
20 44 41
20 44 40
21 45 42
20 44 41
21 45 41
21 44 41
21 44 41
21 44 41
21 45 41
21 45 41
21 45 41
22 45 42
22 47 43
22 46 42
23 46 42
23 47 43
24 47 43
24 48 43
25 48 44
25 47 43
25 47 43
26 47 43
27 49 44
27 48 43
28 48 43
29 49 44
29 49 44
30 49 44
31 50 45
32 50 45
33 52 47
34 51 46
35 52 47
37 54 49
38 54 48
39 55 49
40 56 50
41 55 49
42 56 49
43 57 50
45 58 51
46 59 53
47 59 53
48 60 53
49 61 54
51 62 55
52 63 56
53 64 56
54 65 57
55 67 59
56 66 58
57 67 59
58 68 60
59 68 59
60 69 60
61 69 60
61 70 62
62 70 61
63 71 62
63 72 63
64 72 63
64 72 62
64 72 62
65 73 63
65 73 63
65 72 63
65 73 63
65 73 63
65 73 63
64 72 63
64 72 62
64 72 63
63 71 62
63 71 62
62 71 62
61 70 61
19 43 39
20 44 40
19 43 39
20 45 41
20 45 41
19 43 40
20 44 40
19 43 40
20 45 42
20 44 40
20 43 40
20 46 42
20 45 42
20 44 41
20 44 40
20 45 42
20 45 41
20 45 41
20 45 41
20 44 40
20 44 41
20 45 41
19 43 40
20 44 41
20 44 40
20 45 41
20 44 41
20 44 41
20 45 41
20 44 41
20 45 42
20 45 41
20 45 41
20 45 41
21 45 42
19 43 40
20 45 42
20 45 41
20 45 41
20 45 41
20 45 41
20 45 41
20 43 40
21 46 42
20 44 41
20 44 40
20 44 40
21 46 42
20 44 40
21 46 42
20 43 40
21 44 40
21 46 42
22 46 42
22 46 42
22 46 42
22 45 41
23 46 42
23 47 43
24 47 43
23 45 41
24 47 43
25 48 43
25 47 43
27 49 44
27 48 44
28 49 45
29 49 45
29 49 45
30 48 44
30 49 44
32 50 45
33 51 46
34 52 46
35 53 48
36 53 48
37 52 47
39 55 49
40 55 49
41 56 50
42 57 51
44 58 51
45 59 53
46 59 52
47 59 52
49 60 53
50 62 55
51 62 55
53 64 56
54 65 57
55 66 58
56 66 57
58 67 59
59 68 60
60 68 60
61 70 61
62 70 61
63 71 62
64 73 63
65 72 63
66 74 64
66 75 65
67 75 65
67 75 65
68 75 65
68 75 65
69 75 65
69 76 66
69 76 66
69 76 66
69 76 66
69 76 66
69 76 66
68 75 65
68 75 65
68 75 65
67 75 65
67 74 65
66 74 65
66 73 64
20 45 41
20 45 41
20 44 41
20 44 40
20 45 41
20 45 41
19 43 40
20 44 41
20 44 41
20 44 41
20 44 41
20 44 41
20 44 40
20 45 41
21 47 43
19 43 39
21 46 42
20 44 41
20 44 40
20 44 41
19 43 39
20 46 42
20 45 41
20 45 41
20 45 41
20 44 41
20 45 41
20 45 41
20 43 40
20 44 40
20 44 40
20 45 41
20 44 41
20 44 41
20 45 42
20 45 42
20 45 41
20 44 41
20 45 41
21 45 42
21 45 42
20 44 41
21 45 42
20 45 41
20 45 41
21 45 41
20 44 40
20 44 41
20 44 40
21 46 42
21 44 40
22 46 42
22 45 41
22 46 42
23 47 43
23 46 42
22 45 41
23 45 42
23 45 41
24 47 43
25 47 43
25 47 42
26 47 43
27 49 44
27 49 44
28 49 45
29 48 44
30 49 45
31 50 46
31 50 45
33 51 46
34 52 46
35 52 47
36 53 47
37 53 48
38 55 49
40 55 49
41 55 49
42 57 51
43 57 51
44 57 50
46 59 53
48 60 53
49 62 55
51 62 55
52 63 56
53 64 57
55 65 57
56 67 59
57 67 59
59 68 60
60 69 60
61 70 61
63 71 62
64 72 63
65 73 63
66 73 64
67 74 64
68 75 65
69 77 67
70 76 66
70 77 67
71 77 66
72 77 67
72 78 68
72 78 68
73 79 68
73 78 68
74 80 69
74 79 68
73 79 68
74 79 68
73 79 69
73 79 69
73 80 69
73 79 69
72 79 68
71 78 67
71 78 68
70 76 66
20 44 41
20 45 41
19 43 40
21 46 42
20 44 41
20 45 41
20 44 41
20 44 41
20 45 41
19 43 40
20 45 41
20 44 40
19 43 40
20 45 41
20 45 41
19 43 40
20 44 40
20 44 40
20 44 41
19 43 39
21 46 42
20 44 41
20 44 41
20 44 40
20 44 41
19 43 40
20 44 40
20 44 41
20 46 42
20 43 40
20 45 41
20 45 41
20 44 40
20 44 41
20 44 41
20 44 40
21 46 42
20 44 41
20 45 41
20 45 41
20 44 41
20 45 41
20 44 41
20 45 41
20 44 41
21 45 41
21 45 42
21 46 42
21 45 41
21 44 41
21 45 41
22 45 41
22 45 42
22 45 41
22 44 40
23 45 41
23 46 42
24 47 43
24 45 41
25 47 43
25 47 43
25 46 42
27 48 43
27 47 43
28 49 44
29 48 44
30 50 45
31 51 46
32 50 45
33 52 47
34 51 46
35 51 46
37 53 48
38 54 48
39 54 48
40 55 49
41 55 49
43 56 50
45 58 51
46 59 52
47 59 52
49 61 54
50 62 55
52 62 55
54 64 56
55 65 57
57 66 58
58 68 59
60 69 61
61 69 60
63 71 62
64 73 64
65 73 64
66 73 64
68 75 65
69 76 66
70 77 66
71 77 67
72 78 68
73 79 68
74 80 69
75 80 69
76 81 70
76 81 70
77 82 71
77 82 71
77 83 71
78 82 71
78 83 72
78 83 72
78 83 72
78 84 72
78 83 71
78 83 72
77 82 71
77 82 71
77 83 72
76 82 71
75 80 69
75 80 70
20 44 40
19 43 40
20 44 41
20 44 41
20 44 40
21 46 42
21 46 42
19 43 40
20 43 40
19 43 39
20 45 41
20 45 41
20 45 41
20 45 41
20 44 41
20 45 41
20 44 41
20 45 41
20 44 40
19 43 39
21 46 42
20 45 41
20 44 40
20 44 40
20 44 41
20 45 41
20 45 41
20 44 40
20 45 41
20 45 42
20 45 41
20 45 41
20 45 41
20 45 41
20 44 41
20 45 41
20 45 42
20 44 40
21 45 42
20 45 41
21 46 42
21 46 42
20 44 40
21 46 43
21 45 41
21 45 41
21 46 42
21 45 41
21 45 41
22 46 42
23 47 43
22 46 42
22 45 42
23 46 42
23 46 42
23 45 41
24 47 43
24 46 42
25 46 42
26 48 44
26 47 43
27 48 43
27 48 44
28 48 43
29 49 44
30 49 44
31 50 46
32 49 44
33 51 46
34 52 47
36 52 47
37 54 49
38 53 48
40 54 48
41 56 50
43 57 51
44 58 52
46 59 52
47 60 53
49 61 54
50 62 54
52 62 54
53 64 56
55 65 57
57 66 58
58 67 59
60 69 61
61 70 61
63 72 62
65 73 63
66 74 64
68 74 65
69 76 66
71 77 67
72 77 67
73 78 68
74 78 68
75 81 70
76 81 70
77 82 71
78 82 71
79 84 72
80 85 73
81 85 74
81 86 74
82 86 74
82 87 75
82 86 74
83 86 75
83 87 75
83 87 75
83 86 74
82 86 74
82 86 74
82 86 74
82 86 74
81 85 74
80 85 73
80 84 72
79 83 72
20 44 40
20 44 40
20 44 40
21 46 42
20 44 40
20 45 41
20 44 41
19 43 40
20 44 41
20 44 40
20 44 40
20 44 41
20 44 41
20 45 41
20 45 42
20 45 41
20 44 41
19 43 40
20 44 41
20 45 41
20 44 41
20 44 40
20 45 41
20 44 40
20 45 41
20 44 40
20 44 41
20 45 41
20 44 40
20 45 42
20 45 42
20 43 40
20 44 40
20 45 42
20 45 41
20 45 41
20 43 40
21 45 42
21 45 42
20 44 41
21 45 42
22 47 44
21 46 42
21 46 42
20 44 40
20 44 40
21 44 41
21 45 41
21 45 41
21 45 41
22 45 41
22 46 42
22 45 41
23 47 43
23 45 41
23 45 41
25 47 43
25 47 43
26 47 43
26 47 43
27 48 44
28 48 44
28 48 44
30 49 45
30 49 45
31 49 44
33 51 46
33 50 45
35 52 47
36 53 48
37 53 48
39 55 49
40 55 49
42 56 50
43 57 51
45 58 51
46 59 52
48 60 54
50 61 54
51 63 55
53 64 56
55 65 57
57 67 58
58 67 59
60 70 61
62 70 61
63 71 62
65 73 63
67 74 64
68 75 65
70 76 66
72 78 68
73 79 69
74 80 69
76 81 70
77 83 71
79 84 72
79 83 72
81 85 73
82 86 74
83 87 75
84 87 75
85 88 76
86 89 77
86 90 77
86 90 77
87 90 77
87 90 77
88 91 78
88 91 78
88 90 78
88 91 78
87 91 78
87 90 77
87 91 78
86 90 78
86 89 77
85 89 76
84 87 75
83 87 75
20 45 41
20 44 41
20 44 41
20 44 41
20 45 41
20 44 41
19 43 40
19 43 40
20 44 41
21 46 42
20 44 41
20 44 40
20 44 41
20 44 41
20 45 42
20 44 40
20 45 41
20 45 41
20 44 41
20 45 41
21 47 43
20 45 41
20 45 41
20 44 40
20 44 40
20 45 41
20 44 40
20 45 41
20 45 42
20 43 40
20 44 40
20 45 41
19 43 39
20 45 42
20 45 41
20 43 40
20 44 40
20 45 41
20 44 41
21 45 42
21 46 42
21 46 42
21 46 42
21 45 41
21 45 42
21 44 41
22 46 42
21 44 41
22 46 42
22 45 41
22 45 41
22 45 41
24 48 44
23 46 42
24 47 43
25 47 43
25 46 42
26 47 43
26 47 43
27 47 43
28 49 44
29 48 43
30 50 45
31 51 46
32 50 45
34 53 48
34 51 46
35 51 46
37 54 48
38 53 48
39 54 49
41 56 50
42 56 50
44 58 51
45 58 52
47 59 52
49 60 53
51 64 56
52 64 56
54 65 57
56 66 58
58 67 58
60 69 60
61 70 61
63 71 62
65 72 63
67 73 64
69 76 66
70 77 66
72 78 68
74 80 69
75 81 70
77 82 71
79 84 72
80 84 73
81 85 74
83 87 75
84 87 75
85 89 76
86 89 77
87 91 78
88 91 78
89 92 79
90 93 80
91 94 80
91 93 80
91 93 80
92 94 81
92 95 81
92 94 81
92 94 80
92 95 81
92 94 81
92 94 81
91 94 81
91 93 80
90 93 80
90 93 80
89 92 79
88 91 78
20 45 41
20 45 42
20 43 40
20 45 41
20 45 41
20 44 41
19 43 40
21 46 42
20 44 40
20 44 41
20 44 41
20 44 40
21 46 42
20 44 41
20 46 42
20 45 41
20 44 40
20 44 40
20 44 40
20 44 41
20 44 40
20 44 41
20 45 41
20 45 42
20 45 42
20 45 41
20 44 41
20 45 41
20 44 40
21 46 42
20 44 41
20 45 41
20 43 40
20 44 40
20 44 40
21 46 42
20 44 40
21 45 42
20 44 41
21 45 41
21 45 41
21 46 42
21 45 41
20 43 39
21 44 40
21 46 42
22 46 42
22 45 41
22 45 41
22 45 42
23 46 42
23 45 41
24 46 42
24 47 43
24 45 41
24 46 42
26 47 43
27 48 44
27 47 43
28 49 45
29 49 44
29 48 44
31 49 45
32 50 45
33 52 47
34 52 47
36 52 47
37 53 47
38 53 47
40 55 49
42 57 50
43 57 51
44 58 51
46 58 51
48 60 53
49 61 54
51 62 55
53 63 56
55 66 58
57 67 58
59 68 59
61 69 60
62 71 62
64 71 62
66 74 64
68 75 65
70 77 67
72 77 67
74 80 69
76 80 69
78 83 71
79 84 72
81 86 74
82 86 74
84 88 76
86 89 77
87 90 78
88 92 79
89 92 79
91 93 80
92 94 81
93 95 81
93 95 81
94 96 82
95 98 84
96 98 84
96 97 83
96 98 84
97 98 84
97 99 84
97 98 84
97 99 84
97 98 84
96 97 83
96 98 84
96 97 83
95 97 83
94 96 83
94 96 82
92 94 81
19 44 40
20 44 40
20 45 41
20 45 41
20 45 41
20 44 40
20 46 42
20 44 40
20 44 40
20 45 41
20 44 40
20 44 40
20 45 41
20 44 40
20 45 41
20 44 41
20 45 41
20 44 41
20 45 42
20 45 41
20 44 40
20 45 41
21 46 42
20 45 42
20 44 40
20 44 41
19 43 40
20 45 41
20 45 41
20 44 40
20 43 40
20 44 40
19 43 40
20 43 40
20 45 41
20 43 40
20 45 41
21 45 42
20 43 40
21 45 42
20 44 41
21 44 41
20 44 40
21 44 41
21 45 41
21 44 41
21 44 40
22 46 42
23 46 43
23 46 42
23 46 42
23 45 42
24 46 42
25 47 43
25 46 42
26 47 43
27 48 44
27 48 43
28 47 43
29 48 44
30 50 45
31 49 44
32 50 45
34 52 47
34 52 47
36 52 47
37 54 48
39 54 48
40 55 49
41 56 50
43 57 50
45 57 50
47 60 53
48 60 53
50 62 54
52 63 55
54 64 57
56 66 58
58 67 58
60 70 61
62 71 62
64 72 63
66 73 63
68 75 65
70 75 65
72 78 68
74 79 69
76 81 70
78 82 71
79 83 72
81 85 74
83 87 75
85 89 76
87 90 77
88 90 78
90 92 79
91 94 81
93 95 81
94 96 82
95 97 83
96 98 84
97 98 84
98 100 85
99 100 86
100 100 86
101 102 87
101 102 87
102 102 88
102 102 87
102 102 87
102 102 87
102 102 87
102 102 87
101 102 87
101 102 87
100 101 86
100 101 87
99 100 86
98 99 85
97 99 85
19 43 39
20 44 40
20 44 40
20 45 41
20 44 41
20 44 41
20 44 40
20 44 41
19 43 39
20 44 40
20 44 40
20 44 40
20 44 40
20 45 42
20 45 42
20 44 41
20 44 41
20 44 41
20 44 40
20 44 41
20 45 41
20 44 41
20 45 41
20 45 41
20 44 40
20 45 41
20 44 41
20 44 40
19 43 40
20 45 41
21 46 42
20 44 40
20 44 41
21 45 42
20 45 41
20 44 40
20 44 41
20 44 41
21 46 42
20 44 40
20 43 39
20 43 39
21 45 41
21 45 41
22 46 42
22 46 42
22 44 41
22 46 42
22 45 41
23 46 42
23 45 41
24 46 42
24 45 41
24 45 41
25 46 42
26 47 43
27 48 43
28 48 44
29 48 44
30 49 45
31 49 44
32 51 46
33 51 46
35 52 47
36 53 47
37 53 48
39 55 49
40 55 49
42 56 50
44 57 51
45 59 52
47 60 53
49 60 53
51 62 55
53 64 56
55 65 57
57 67 59
59 68 59
60 68 60
63 70 61
65 72 63
67 74 64
69 75 65
71 77 67
73 79 68
76 82 71
77 82 71
79 83 71
81 85 73
83 87 75
85 89 76
87 90 77
89 91 79
91 93 80
93 95 81
94 96 82
96 98 84
97 98 84
99 100 85
100 101 86
101 102 87
102 103 88
103 103 88
104 104 89
105 105 90
105 105 90
106 106 91
106 106 90
106 106 90
106 106 90
107 106 91
107 106 91
106 107 91
106 106 91
106 106 90
105 106 90
105 105 90
104 104 89
103 103 88
102 103 88
20 44 40
19 43 39
19 43 40
20 44 41
20 45 42
20 44 41
20 45 42
20 44 41
20 44 40
20 44 41
19 43 39
21 46 43
20 44 40
20 45 41
20 45 42
20 44 40
20 44 40
20 44 41
20 44 40
20 44 41
20 45 41
20 44 40
20 44 40
19 43 39
20 44 40
20 43 40
20 45 41
20 45 41
20 45 41
20 44 40
20 45 41
21 45 42
21 47 43
20 45 41
20 44 41
20 45 41
20 43 40
20 45 41
21 45 41
21 45 41
20 43 39
20 43 39
21 45 41
22 45 42
22 47 43
22 44 41
22 45 41
22 45 41
23 46 42
23 46 42
24 46 42
24 46 42
25 46 42
25 46 42
26 46 42
27 48 43
29 50 46
29 50 45
30 48 44
31 50 46
32 50 46
33 51 46
35 52 47
36 53 48
37 54 48
38 53 47
40 55 49
42 57 51
44 57 51
45 58 52
47 59 52
49 62 54
51 63 56
53 64 56
55 66 58
57 67 59
59 68 59
62 70 61
63 71 62
65 72 63
68 75 65
70 76 66
72 78 67
74 80 69
77 82 71
79 83 72
81 85 73
83 87 75
85 89 76
87 91 78
89 92 79
91 94 81
93 95 82
95 97 83
97 98 84
98 99 85
100 101 86
101 102 87
103 103 88
104 104 89
106 106 90
106 106 90
107 107 91
109 108 93
109 109 93
110 109 93
110 110 93
111 110 94
111 110 94
111 111 94
112 111 95
111 111 94
111 111 95
111 111 94
110 110 93
110 109 93
109 109 93
108 108 92
107 107 92
107 107 92
20 44 41
20 44 41
20 45 41
20 44 40
20 45 41
20 45 42
20 43 40
20 45 41
20 44 40
20 45 42
19 43 40
19 43 39
20 45 42
20 44 40
20 45 41
20 44 40
20 43 40
20 44 40
20 44 41
20 45 41
20 45 42
19 43 39
20 44 41
20 44 40
19 43 40
19 43 39
20 45 41
19 43 39
21 47 43
20 45 41
20 45 41
20 44 40
21 46 42
20 45 41
20 45 41
20 43 40
21 46 43
21 45 41
21 46 42
21 45 41
21 44 41
21 45 41
22 46 42
21 45 41
22 45 41
22 44 41
23 46 42
23 46 42
23 45 41
24 46 42
24 45 41
24 45 41
26 47 43
26 48 43
27 47 43
28 48 43
29 49 44
29 47 43
31 49 45
32 50 45
33 52 47
34 51 46
36 52 47
37 53 47
39 54 48
40 55 49
42 56 49
44 58 51
45 57 51
47 59 53
49 60 53
51 62 55
53 63 56
56 66 58
57 66 58
60 68 60
62 70 61
64 71 62
66 73 64
69 75 66
71 77 67
73 79 68
75 81 70
78 82 71
80 84 73
82 86 74
85 88 76
87 90 78
89 91 79
91 94 80
93 95 82
95 97 83
97 98 84
99 100 86
101 101 87
102 103 88
104 104 89
106 106 91
107 107 91
108 107 92
110 110 93
111 110 94
112 111 95
113 112 96
114 112 96
114 114 97
115 114 97
115 114 97
116 114 98
116 115 98
116 115 98
116 114 97
116 114 97
115 114 97
115 114 97
114 113 96
114 113 96
113 112 95
112 111 95
111 110 94
19 43 40
20 44 40
20 44 41
20 44 40
19 43 40
20 44 41
19 43 40
20 44 41
20 45 41
20 44 41
20 44 41
19 42 39
20 44 40
20 44 41
19 43 40
20 44 41
20 44 41
20 46 42
20 44 40
20 44 40
21 46 42
20 44 40
20 45 41
20 45 41
20 44 41
20 44 41
20 44 40
20 44 40
20 44 40
20 45 41
21 46 42
20 44 41
20 44 41
20 45 41
20 44 41
20 44 41
20 43 40
22 47 43
20 44 40
21 44 41
21 44 40
21 45 42
21 44 41
22 45 41
22 45 41
22 45 41
23 46 42
23 45 41
24 46 42
24 45 41
25 47 43
25 47 43
26 47 43
27 48 44
28 48 44
29 48 44
30 48 44
30 49 44
32 50 46
33 51 46
35 52 47
36 52 47
37 54 48
38 53 48
41 56 50
42 55 49
44 57 50
45 57 51
48 60 53
50 62 54
52 62 55
53 64 56
56 66 57
58 67 59
60 68 59
62 70 62
65 72 63
67 74 65
69 76 66
72 78 67
74 79 68
76 81 70
79 83 72
81 85 74
83 87 75
86 89 77
88 91 78
90 92 79
93 95 81
95 96 83
97 98 84
99 100 86
101 102 87
103 103 88
105 104 89
106 106 90
109 108 92
110 109 93
111 111 95
113 112 96
114 113 96
115 114 97
117 115 98
117 115 98
118 117 100
119 117 99
120 117 100
120 118 100
120 118 101
121 119 101
121 118 101
121 118 101
120 118 101
120 118 101
120 118 100
119 117 100
118 116 99
118 116 99
117 115 98
116 115 98
