P3
120 80
255
17 39 37
17 39 36
17 38 36
17 39 37
17 39 36
17 39 36
17 38 36
17 39 37
17 39 36
17 39 37
17 40 38
17 39 37
17 39 36
17 38 36
17 39 36
17 39 37
17 39 37
17 39 36
17 38 36
17 39 37
17 39 37
17 39 36
17 39 37
17 38 36
17 39 37
17 39 37
17 39 37
17 39 37
17 39 37
18 40 38
17 38 36
17 39 37
17 39 37
17 39 37
17 39 37
17 40 37
17 39 36
17 38 36
17 39 36
17 39 37
17 39 37
17 39 37
17 39 37
17 39 37
17 39 37
17 40 37
17 39 37
17 38 36
17 38 36
17 39 37
17 38 36
17 39 37
17 39 37
17 39 36
17 39 37
16 37 35
17 38 36
17 39 37
16 38 36
17 39 36
17 38 36
17 39 37
17 40 38
17 39 37
17 39 37
17 39 37
17 39 37
17 40 37
17 39 36
17 39 37
17 40 37
17 39 36
17 40 37
17 39 37
17 40 37
17 40 38
17 38 36
18 40 38
17 39 37
17 39 37
17 39 37
17 38 36
17 39 37
17 39 37
17 39 36
17 39 37
17 38 36
17 39 37
17 39 37
17 39 37
17 40 38
17 39 37
17 40 38
17 39 36
17 40 37
17 39 37
17 39 37
17 39 37
17 39 37
17 39 37
17 39 37
18 40 38
17 39 37
17 38 36
17 38 36
17 39 37
17 38 36
17 38 36
17 39 37
17 39 37
17 39 37
17 39 37
17 39 37
17 39 37
17 39 37
17 38 36
17 40 38
17 39 36
17 38 36
17 39 36
17 39 37
17 40 38
17 40 37
17 40 37
17 39 37
17 38 36
17 40 37
17 39 37
17 39 37
17 40 37
17 40 37
17 39 37
17 38 36
17 39 37
17 39 37
17 39 36
17 40 37
17 39 37
17 39 37
17 39 37
17 40 38
17 40 37
17 40 37
17 39 37
17 40 38
17 39 36
17 39 37
17 39 36
17 40 38
17 39 37
17 39 37
17 39 37
17 39 37
17 39 37
17 40 37
18 41 38
17 40 37
17 40 38
18 40 38
18 40 38
17 40 37
17 40 37
17 40 37
17 40 38
17 39 37
17 39 37
17 39 36
17 39 36
18 40 38
17 39 37
17 39 37
17 39 36
17 39 37
17 39 37
17 39 36
17 39 37
17 40 37
17 39 36
17 39 37
17 38 36
17 39 37
17 39 36
17 40 38
17 39 36
17 39 37
17 39 37
17 40 38
17 39 37
18 40 38
17 39 37
17 38 36
17 39 37
18 41 38
17 39 37
17 39 37
17 39 37
17 39 37
17 39 37
17 39 36
17 38 36
17 39 37
18 40 38
17 38 36
17 39 37
17 39 37
17 39 36
17 39 36
17 39 36
17 39 37
17 39 37
17 39 37
17 40 37
17 39 37
17 40 37
18 40 38
17 39 37
17 39 37
17 40 37
17 39 37
17 39 37
17 39 37
17 39 37
17 39 36
17 39 37
17 39 37
17 39 37
17 39 37
17 38 36
17 39 36
18 40 38
17 39 36
17 39 37
17 39 36
17 39 37
17 39 37
17 40 38
17 40 37
17 39 37
17 38 36
17 39 37
17 39 37
17 39 37
17 39 36
17 39 37
17 39 36
17 39 37
18 40 38
17 39 37
17 38 36
17 39 37
17 39 37
17 39 37
17 39 37
17 39 37
18 40 38
17 40 37
17 39 37
17 40 37
17 39 37
17 38 36
17 39 37
17 39 37
17 39 37
18 40 38
17 39 36
18 40 38
18 40 38
17 39 37
18 40 38
18 40 38
17 39 37
17 39 37
18 40 38
17 38 36
17 39 36
17 40 37
17 39 37
18 40 37
17 39 36
18 40 38
18 40 38
17 39 36
17 39 37
18 40 38
17 39 37
17 39 37
17 39 37
18 40 38
18 40 37
17 40 37
17 39 37
17 40 37
17 39 36
17 40 37
17 39 37
17 39 36
17 39 36
17 39 37
17 39 37
17 39 37
17 39 37
17 39 37
17 40 37
17 39 37
17 39 37
17 40 37
17 39 36
18 40 38
17 39 37
17 39 37
17 39 37
17 39 37
17 40 37
17 39 36
17 39 37
18 41 38
17 40 37
17 39 37
17 38 36
17 39 37
17 40 37
18 40 38
17 39 37
17 39 37
17 40 37
17 39 37
17 39 37
17 40 37
17 39 36
17 39 37
17 38 36
17 39 37
17 40 37
17 38 36
18 40 38
17 39 37
17 39 37
17 39 37
18 40 38
17 39 37
17 39 37
17 39 37
17 39 37
17 40 37
17 39 37
17 39 37
17 38 36
17 38 36
17 39 37
17 39 37
17 39 37
17 39 37
17 39 37
17 39 37
17 39 37
17 39 37
17 40 38
17 39 37
17 39 36
17 39 37
17 39 37
17 39 37
17 39 37
17 39 37
17 39 36
17 40 37
18 40 38
17 40 37
17 39 37
18 40 38
17 40 37
17 39 37
17 39 36
17 40 37
17 39 37
17 39 37
18 40 38
17 39 37
17 39 37
17 40 37
17 39 36
17 39 37
17 39 37
17 39 37
17 39 36
17 40 37
17 39 37
18 40 38
17 39 37
17 39 37
17 39 37
18 41 38
17 39 37
17 40 37
17 40 38
17 39 37
18 40 38
17 39 37
18 41 38
17 40 37
18 40 38
17 40 37
17 40 37
17 39 37
17 38 36
17 39 37
17 39 37
17 39 37
18 41 38
17 39 37
18 41 38
17 39 37
18 40 38
17 39 37
17 39 37
17 38 36
17 40 37
18 41 38
17 38 36
17 39 36
17 39 37
17 39 37
18 40 37
17 39 36
17 40 37
17 38 36
17 39 37
17 39 37
17 39 37
17 40 37
18 40 38
18 41 38
18 40 38
17 39 37
17 39 37
17 39 37
17 40 37
18 40 38
17 38 36
17 39 37
17 40 37
17 39 37
17 40 37
17 39 37
18 40 38
17 39 36
17 40 38
18 40 38
17 39 36
18 40 38
17 40 38
18 41 39
18 41 38
17 39 36
17 39 37
18 40 38
17 39 37
17 39 36
17 38 36
17 39 37
17 40 37
17 38 36
17 39 37
17 39 37
17 40 37
17 39 37
17 40 37
17 39 37
17 39 37
17 39 37
17 39 37
17 39 37
17 40 37
18 41 38
17 39 36
17 38 36
17 39 37
17 40 37
17 40 37
17 38 36
17 40 37
17 40 37
17 40 37
18 40 38
17 39 37
18 40 37
18 40 38
18 40 38
17 40 37
17 39 37
17 40 38
17 39 37
17 39 37
17 39 37
18 40 38
17 39 36
17 40 37
17 39 37
17 39 36
17 40 38
18 40 38
17 40 37
18 40 38
17 40 38
17 39 37
17 40 37
17 39 37
18 40 37
17 39 37
17 39 37
18 40 38
17 39 37
18 41 38
17 40 37
17 39 37
17 39 37
18 40 38
17 40 37
17 39 37
18 41 38
18 40 38
17 39 37
18 40 38
18 40 38
17 40 37
17 40 37
17 40 37
18 40 38
17 39 37
17 39 37
17 40 37
18 40 37
18 40 38
17 39 37
18 41 39
18 40 37
17 40 37
17 39 37
18 40 38
17 40 37
17 40 37
17 40 37
17 40 38
18 41 38
17 39 37
17 39 37
17 40 37
18 40 37
17 40 37
18 40 38
17 39 37
17 39 37
18 40 38
17 40 37
18 40 38
18 40 38
18 41 38
18 40 38
17 40 37
17 39 37
17 40 37
18 40 37
17 39 37
17 39 37
18 40 38
17 40 37
17 40 37
17 39 37
18 40 38
18 40 38
18 40 38
18 41 39
17 40 37
18 40 37
17 39 37
17 40 37
18 40 38
17 40 37
17 39 36
18 40 38
18 40 38
17 39 37
17 39 37
17 39 37
17 39 37
17 39 37
17 40 37
17 40 37
18 41 38
17 40 37
17 39 37
17 39 37
17 39 37
17 40 37
18 40 38
17 39 37
18 40 38
17 39 37
17 39 37
17 39 37
17 39 37
17 40 38
17 40 37
17 40 37
18 40 37
17 40 37
17 39 37
17 39 36
18 40 38
18 41 39
18 40 37
17 39 37
17 40 37
17 40 37
17 40 37
17 40 37
18 40 38
17 40 37
18 40 38
18 40 38
18 40 37
17 39 37
17 40 37
17 40 37
17 39 37
17 39 37
18 41 38
17 40 37
17 40 37
17 39 37
18 40 38
17 40 37
18 40 38
18 41 38
17 39 37
17 40 38
18 41 38
17 40 37
18 40 38
18 40 38
17 40 37
18 41 38
18 41 38
17 40 37
18 40 38
17 40 37
17 40 37
17 39 37
18 40 37
17 39 37
17 40 37
18 40 38
18 40 38
18 40 38
18 40 37
18 41 38
18 40 38
17 40 37
17 39 37
18 40 37
18 40 38
17 39 37
18 40 38
17 39 37
18 40 37
17 39 37
17 40 37
17 40 37
18 40 37
18 40 38
17 40 37
17 39 37
18 41 39
17 40 37
17 40 37
18 40 38
18 40 38
18 40 38
17 40 37
17 40 37
18 40 38
17 40 37
18 40 37
17 39 37
17 40 37
18 41 38
18 40 38
17 39 37
17 39 37
17 39 37
18 40 38
17 39 37
17 38 36
17 39 37
18 40 38
17 40 37
17 38 36
17 39 37
17 39 37
18 40 38
18 40 38
17 40 37
17 40 37
17 39 37
17 40 37
17 40 37
17 39 36
18 41 39
17 39 37
18 40 38
17 39 37
17 39 37
17 39 37
17 39 37
17 40 37
18 40 38
17 40 37
17 39 37
17 39 37
17 39 37
18 41 38
17 40 37
17 40 37
18 41 38
18 40 38
18 40 38
17 39 37
17 39 37
17 39 37
17 40 37
18 40 38
17 39 36
18 41 38
18 40 38
18 40 38
17 40 37
17 39 37
18 40 38
18 41 38
17 40 37
18 40 37
17 40 37
17 39 37
17 39 37
18 40 37
18 41 38
18 40 37
18 41 38
18 40 38
18 40 38
17 39 37
17 40 37
18 41 38
18 40 38
18 40 37
18 41 39
17 40 37
18 40 38
18 41 38
17 40 37
17 39 37
18 40 38
17 40 37
17 40 37
18 40 38
17 39 37
18 40 38
17 39 37
18 40 38
18 40 38
18 40 38
18 40 37
18 40 37
18 40 38
18 41 39
17 40 37
17 39 37
17 40 37
18 41 38
17 39 37
18 40 38
17 39 37
18 40 38
18 40 38
17 39 37
18 40 38
18 41 39
18 40 38
18 40 37
18 40 38
18 41 38
17 39 37
18 41 39
18 40 38
18 40 37
17 40 37
17 40 37
18 40 38
18 40 38
18 40 38
18 40 38
17 39 37
18 40 38
18 40 38
17 39 37
17 38 36
18 40 38
18 40 38
18 40 38
18 41 38
18 40 38
17 40 37
17 39 36
18 40 38
17 39 37
17 39 37
18 41 38
18 40 38
18 40 38
17 39 37
18 41 38
17 40 37
18 40 38
17 40 37
17 39 37
18 40 38
17 40 37
17 39 37
17 40 37
17 39 37
17 39 37
17 39 37
17 40 37
18 40 38
18 41 38
17 39 37
18 41 38
18 40 38
17 39 37
17 39 37
17 39 37
17 40 37
18 40 38
18 40 38
17 40 37
18 41 38
18 41 38
17 39 37
18 40 38
18 40 38
18 41 38
18 40 38
18 40 38
18 40 38
18 40 37
18 40 38
18 40 38
18 40 38
17 40 37
18 40 38
18 40 37
17 40 37
17 40 37
18 40 38
18 41 38
18 40 38
17 39 37
18 40 37
18 40 38
18 40 38
18 40 37
18 40 38
18 40 38
18 41 38
17 39 37
18 40 38
18 40 38
18 40 37
18 40 38
18 40 38
18 40 37
17 39 37
18 41 38
17 40 37
18 40 38
17 40 37
18 40 38
17 40 37
18 40 38
17 40 37
18 40 37
17 39 37
18 40 37
18 40 38
18 41 39
18 41 38
17 40 37
18 41 38
17 40 37
18 41 38
18 40 38
17 40 37
18 40 37
18 41 38
18 40 37
18 41 38
18 41 38
18 40 38
18 40 37
18 40 37
18 41 38
18 41 38
18 41 38
18 41 38
18 40 37
18 41 39
18 40 38
18 40 37
18 40 38
18 40 38
18 40 38
18 40 38
18 40 37
17 39 37
18 41 38
18 40 38
18 40 38
18 40 37
18 40 38
18 40 38
18 41 38
18 40 38
17 39 37
18 40 38
18 40 38
18 40 37
17 40 37
18 40 38
18 41 38
17 39 37
18 41 38
18 40 38
18 41 39
17 39 37
18 40 37
18 40 38
17 39 37
18 41 38
18 40 38
17 39 36
18 40 38
17 39 37
18 40 38
18 40 37
18 41 38
18 40 38
18 41 38
17 39 37
17 39 37
18 40 38
18 41 38
18 40 38
18 40 38
18 41 38
17 39 37
17 40 37
17 40 37
18 40 38
18 41 38
18 41 38
18 40 37
18 41 38
18 40 38
18 40 38
18 40 38
18 41 39
17 39 37
18 40 37
18 40 37
18 40 38
17 39 37
18 40 37
17 39 37
18 40 38
18 40 38
18 41 38
18 40 38
18 40 38
18 41 38
18 41 38
18 40 37
18 40 37
18 40 38
18 40 38
18 41 38
18 40 38
18 40 38
17 40 37
18 40 38
18 40 38
17 40 37
18 41 38
18 41 38
18 40 38
18 40 38
18 41 38
18 41 38
18 40 38
17 40 37
18 42 39
18 40 37
18 40 38
18 41 38
18 40 38
18 40 38
18 41 38
18 40 38
18 40 38
17 40 37
18 41 38
18 41 38
18 40 38
18 40 37
17 39 37
17 40 37
17 40 37
18 41 38
17 39 36
18 40 37
18 41 38
18 41 39
17 40 37
18 40 38
18 41 38
18 41 38
18 40 37
17 39 37
18 41 38
18 40 37
18 41 38
18 40 38
17 39 37
18 40 38
18 40 37
17 40 37
18 40 38
18 41 38
18 40 38
18 40 38
18 41 38
18 41 38
18 40 37
18 42 39
18 40 38
18 41 38
18 40 37
18 40 38
18 41 38
18 40 37
17 39 36
18 40 38
18 40 38
17 39 37
18 40 38
17 39 37
17 39 37
18 41 38
18 41 38
18 41 38
18 41 38
18 40 38
18 40 38
17 39 37
18 40 38
18 40 38
18 40 38
18 40 38
18 41 39
18 41 38
18 40 37
18 40 38
18 40 37
18 40 38
18 41 38
17 40 37
17 40 37
18 40 38
17 39 37
18 40 38
18 40 37
18 40 38
17 40 37
17 40 37
18 40 37
18 40 38
18 40 38
18 40 37
18 41 38
18 40 38
18 40 38
18 41 39
18 40 38
18 40 37
18 41 39
18 41 38
18 40 38
17 40 37
18 40 37
17 40 37
18 40 37
18 40 38
18 41 38
18 41 39
18 41 38
18 40 38
18 40 38
18 40 38
18 41 39
18 41 38
18 41 38
18 41 38
18 41 38
18 40 38
17 40 37
17 39 37
18 40 38
18 41 39
18 40 38
18 40 38
18 41 38
18 41 39
18 40 38
18 41 39
18 41 38
18 41 38
18 41 38
18 42 39
18 40 37
18 41 39
18 41 38
18 41 38
18 41 38
18 40 38
18 41 38
18 40 37
18 41 38
17 40 37
19 42 39
18 40 37
18 40 38
18 41 39
18 41 39
18 41 38
18 41 39
18 41 38
18 40 37
18 41 38
18 40 38
18 40 38
18 40 38
18 40 37
18 40 38
18 41 38
18 40 38
18 42 39
18 41 38
18 40 38
18 40 38
18 40 38
18 40 38
18 41 39
18 41 39
17 39 37
18 40 38
18 40 38
17 40 37
18 40 38
18 40 38
18 40 37
17 40 37
18 41 38
18 40 38
18 41 38
17 40 37
18 41 38
18 40 38
18 41 38
18 40 38
18 41 38
18 41 38
18 40 38
18 41 38
18 40 38
18 41 38
18 41 38
18 41 38
18 40 37
18 41 38
17 40 37
18 41 38
17 40 37
18 40 37
18 40 37
18 42 39
18 41 38
18 40 38
18 41 38
18 40 37
18 40 38
18 41 38
17 40 37
18 41 38
18 40 38
18 41 38
18 40 38
18 41 38
18 41 38
18 40 38
18 41 38
18 40 37
18 41 38
18 40 37
18 41 38
19 42 39
18 40 38
18 41 38
18 41 38
18 41 38
18 41 39
18 41 38
18 41 38
18 40 38
18 41 38
18 41 38
18 41 38
18 40 38
18 41 39
18 41 39
18 41 38
18 41 38
18 40 37
18 40 38
18 40 37
18 41 39
18 41 39
18 41 38
18 41 39
18 41 38
18 40 38
18 41 38
18 42 39
18 40 37
18 42 39
18 40 38
18 40 37
18 40 38
18 40 37
18 40 38
18 41 39
19 42 39
18 40 37
18 41 39
18 41 39
18 41 38
18 40 37
18 41 38
18 42 39
18 41 38
18 41 38
18 41 39
18 41 38
19 42 40
18 40 37
18 40 38
18 41 38
18 40 38
18 41 38
18 41 38
18 41 38
18 40 38
18 41 39
18 40 38
18 40 38
18 41 38
17 40 37
18 40 38
18 40 38
18 41 38
18 40 37
18 41 38
17 40 37
18 41 38
18 40 38
18 41 38
18 41 38
18 42 39
18 41 39
18 41 38
18 40 38
17 40 37
18 40 38
18 40 37
18 40 38
18 40 37
18 41 38
18 40 38
18 41 39
18 40 37
18 41 38
18 41 38
18 40 37
18 41 38
18 41 38
18 40 37
18 41 38
18 41 39
18 40 38
18 41 38
18 40 38
17 39 37
18 40 38
18 41 38
18 41 38
18 40 38
18 41 38
18 40 37
18 41 38
18 41 38
18 40 38
18 41 38
18 41 38
18 41 38
18 41 39
18 41 38
18 41 38
18 40 38
18 42 39
18 41 38
18 40 38
18 41 38
18 41 38
18 41 39
18 41 38
18 40 37
18 41 38
18 42 39
18 41 39
18 42 39
18 41 39
19 42 39
18 41 38
18 40 38
18 41 38
18 42 39
18 41 38
18 40 38
19 42 39
18 41 39
18 41 38
19 42 39
18 42 39
18 41 38
19 42 39
18 41 38
18 41 38
18 40 38
18 40 38
19 42 39
18 41 38
18 41 39
18 41 38
19 42 39
18 40 38
18 40 38
18 40 37
18 41 38
18 40 38
18 40 38
18 41 38
18 41 38
18 42 39
18 41 38
18 41 39
18 40 38
18 40 37
18 40 38
18 41 38
18 40 38
18 40 38
18 41 38
18 40 38
17 40 37
19 42 39
18 40 37
18 42 39
18 42 39
18 40 37
18 41 38
18 40 38
18 41 38
18 41 38
18 41 38
18 40 38
19 42 39
18 42 39
18 41 38
18 41 38
18 40 37
18 41 38
18 41 38
18 41 39
18 41 38
18 41 38
18 40 37
18 42 39
18 40 38
18 41 39
18 41 38
18 40 38
18 41 38
18 41 38
18 40 37
18 41 38
18 41 39
18 40 38
18 41 38
18 40 37
18 41 38
18 40 38
18 41 38
18 40 38
18 41 38
18 41 38
18 40 38
18 40 37
18 40 37
18 41 38
18 41 38
18 41 38
18 40 37
18 41 38
17 40 37
18 40 38
18 40 37
18 41 38
18 41 38
18 41 39
18 41 38
18 41 39
18 41 38
18 41 39
18 41 39
18 40 37
19 42 39
18 40 38
18 41 39
18 41 38
18 41 39
18 40 38
18 41 38
18 40 38
18 41 38
18 41 38
18 41 38
18 40 37
18 41 38
18 41 38
18 41 39
18 41 38
18 41 38
18 41 38
18 42 39
19 42 39
19 42 39
18 40 38
18 42 39
18 41 38
18 41 38
18 42 39
18 41 38
18 41 39
19 43 40
18 42 39
19 42 39
18 41 38
18 40 37
18 41 38
18 41 39
18 41 38
18 41 38
18 41 38
18 42 39
18 41 38
18 41 38
18 40 38
18 40 37
18 41 38
18 41 39
18 40 38
19 42 39
18 41 38
18 42 39
18 41 38
18 41 38
18 41 39
18 40 38
19 43 40
18 42 39
18 41 39
18 41 38
18 40 38
18 41 38
18 41 38
18 40 38
18 41 38
18 41 38
18 41 39
18 40 38
18 41 38
18 41 38
18 40 38
18 40 38
18 40 38
18 41 38
19 42 40
19 42 40
18 41 38
18 41 38
18 41 39
18 41 38
18 41 39
18 41 38
18 40 38
18 41 38
18 40 38
18 40 37
18 41 38
18 41 38
18 41 38
18 40 38
18 41 38
18 40 38
18 41 38
18 41 39
18 41 39
18 40 38
18 40 38
18 42 39
18 40 38
18 40 38
19 42 39
18 41 38
18 40 37
18 40 37
18 40 38
18 40 38
18 41 39
17 40 37
18 40 37
18 40 38
19 42 39
18 41 38
18 42 39
18 41 39
18 41 38
18 40 38
18 41 38
18 41 38
18 42 39
19 42 39
19 42 39
18 41 38
18 41 38
18 41 38
18 41 38
18 41 38
18 42 39
18 41 38
18 41 39
18 41 39
19 42 39
18 41 38
18 42 39
18 41 38
18 41 38
18 41 38
19 42 39
18 41 38
18 41 38
18 42 39
18 41 38
19 43 40
18 41 38
18 41 38
19 42 39
18 41 38
18 42 39
18 42 39
18 41 39
18 41 38
18 41 38
18 41 38
18 41 39
18 41 38
18 41 38
18 41 38
18 41 38
18 41 39
19 42 39
19 42 39
19 42 40
18 41 38
19 42 39
19 43 40
18 41 38
18 41 38
18 42 39
18 41 38
18 41 38
18 42 39
18 41 39
19 42 39
18 41 38
18 42 39
18 42 39
18 40 37
18 41 39
18 41 38
18 41 38
18 41 38
18 41 38
18 41 38
19 42 39
18 41 38
18 41 38
19 42 39
18 41 39
18 41 38
19 42 40
18 41 38
18 41 38
18 41 38
18 41 39
18 41 38
18 42 39
18 41 39
18 41 38
18 40 37
18 42 39
18 41 38
18 41 38
18 41 39
18 41 38
18 40 38
18 41 38
19 42 39
18 41 38
18 41 38
18 41 38
18 42 39
19 42 39
18 42 39
18 42 39
18 41 38
18 41 38
19 42 39
18 41 39
18 41 38
18 40 37
18 41 38
18 41 39
18 41 38
18 41 39
18 41 38
18 40 38
18 41 39
18 41 39
18 41 39
18 41 38
18 41 38
18 41 38
18 41 38
18 41 39
18 41 38
19 42 39
18 41 38
18 41 38
18 41 38
18 42 39
18 42 39
18 41 38
19 43 40
19 42 39
18 41 38
18 41 39
18 42 39
18 41 38
18 41 38
18 41 38
18 42 39
18 41 38
18 40 38
18 41 38
18 42 39
18 42 39
19 43 40
18 41 38
18 41 39
19 42 39
19 42 39
18 41 38
19 42 39
19 42 39
18 41 38
18 41 38
18 41 38
18 42 39
19 42 39
18 41 38
19 42 39
18 41 38
19 42 39
18 42 39
18 42 39
18 41 38
18 41 38
18 41 38
18 41 38
18 42 39
19 42 39
19 42 39
19 42 39
18 42 39
18 42 39
18 41 38
18 41 38
18 41 38
18 41 39
18 41 39
18 41 38
19 42 39
18 42 39
18 41 39
18 41 38
18 41 38
18 41 38
19 42 40
18 42 39
18 41 38
19 42 39
19 42 39
19 42 39
18 42 39
18 41 38
18 41 38
18 41 38
18 41 38
18 42 39
18 41 38
18 41 38
18 42 39
18 41 39
18 42 39
19 42 39
18 40 38
18 41 38
18 41 38
18 41 39
18 41 39
18 41 38
18 41 38
19 42 40
18 41 38
18 41 38
18 41 38
18 42 39
19 42 39
19 43 40
18 41 38
18 41 39
18 41 38
19 42 39
18 42 39
18 42 39
18 41 38
18 41 39
18 40 38
18 40 38
18 41 38
18 41 38
18 41 38
18 41 38
18 40 37
18 41 39
18 41 38
18 41 38
18 41 39
18 40 38
18 41 38
18 40 38
19 42 39
19 42 39
18 41 38
18 41 38
18 41 39
19 42 39
19 42 39
18 41 39
18 41 39
18 42 39
19 43 40
19 42 39
19 42 39
18 41 38
18 41 38
18 41 38
19 42 39
18 41 38
18 41 38
18 41 38
18 41 39
18 41 38
18 41 38
18 40 37
18 42 39
19 42 39
19 42 39
18 41 38
19 42 39
18 41 39
18 42 39
19 42 39
18 41 38
18 41 38
18 41 38
18 41 38
18 41 39
19 42 39
19 42 39
19 42 39
19 42 39
18 41 38
19 42 39
18 41 38
18 41 39
19 42 39
18 41 38
19 42 39
18 42 39
18 41 38
18 41 38
18 42 39
18 41 38
18 41 38
18 41 39
18 41 38
18 42 39
18 41 38
19 42 39
18 41 38
19 42 39
18 41 38
18 41 39
19 42 40
19 43 40
18 41 38
18 41 38
18 41 39
19 42 39
18 41 38
19 42 39
18 41 38
18 42 39
18 41 38
19 42 39
19 42 39
18 41 38
18 41 38
19 42 39
19 42 39
18 41 38
19 42 39
18 41 38
18 41 39
18 41 38
18 40 38
18 41 38
18 41 38
18 42 39
18 42 39
18 40 38
19 42 39
18 41 38
18 41 38
18 41 38
18 41 38
18 41 38
18 41 38
19 42 39
18 41 38
18 42 39
18 41 38
18 41 38
18 42 39
18 41 38
18 41 39
18 40 37
18 41 38
18 41 39
18 41 38
18 42 39
19 42 39
18 41 38
19 42 39
18 41 38
18 41 38
19 43 40
18 41 38
18 41 38
18 41 38
18 41 38
19 43 40
18 41 38
18 41 38
18 41 38
19 43 40
19 42 39
18 42 39
19 42 39
19 43 40
19 43 40
18 41 38
19 42 39
19 42 39
18 42 39
18 42 39
19 42 39
19 43 40
18 41 38
18 41 38
18 42 39
18 42 39
19 42 39
19 42 39
18 41 39
18 41 38
18 42 39
19 42 39
19 42 39
19 43 40
19 42 40
19 42 39
18 41 38
18 41 38
18 41 38
18 41 38
19 42 40
18 41 38
18 41 39
18 41 38
19 42 39
18 42 39
19 42 39
19 42 39
19 42 39
19 42 39
19 42 39
18 41 38
19 42 39
19 42 39
18 42 39
18 41 39
19 42 39
18 41 38
19 43 40
19 43 40
19 42 39
19 43 40
19 42 39
19 42 39
19 42 39
19 42 39
19 43 40
19 42 39
18 40 38
18 41 38
18 41 38
18 41 39
19 43 40
19 42 39
18 41 38
18 41 38
19 42 39
19 43 40
19 42 39
18 41 38
19 42 39
18 42 39
18 41 38
18 42 39
18 41 38
18 41 38
18 41 38
19 42 39
18 42 39
19 42 39
19 42 39
19 42 39
18 40 38
19 42 39
18 41 39
19 42 39
19 42 39
19 42 39
18 41 39
19 42 39
19 42 39
18 41 38
18 42 39
19 42 39
19 42 39
19 42 39
18 41 38
19 42 39
18 41 38
19 42 40
18 41 38
19 42 39
19 42 39
19 42 39
18 41 39
18 41 38
18 41 38
19 42 39
18 41 39
18 42 39
18 41 38
18 40 37
18 41 38
18 42 39
19 42 39
19 42 39
19 42 39
19 42 39
19 43 40
19 42 39
19 42 39
18 41 38
19 42 39
18 42 39
19 42 39
19 42 39
18 42 39
19 42 39
18 41 38
19 42 39
19 43 40
19 42 39
18 41 39
19 42 39
19 43 40
18 41 38
19 42 39
18 40 37
19 42 39
19 42 39
19 42 39
19 43 40
18 42 39
19 42 39
19 43 40
18 42 39
18 41 38
19 43 40
18 41 38
18 41 38
18 42 39
19 42 39
19 42 39
19 42 39
19 42 39
19 42 39
19 42 39
19 42 39
18 41 38
19 43 40
19 42 39
19 43 40
19 42 39
19 42 39
19 43 40
19 43 40
19 43 40
19 42 39
19 42 39
19 43 39
19 42 39
18 41 38
19 42 39
18 41 38
19 42 39
19 42 40
19 42 39
19 42 39
19 42 39
19 42 39
18 42 39
19 43 40
19 42 39
19 43 40
19 43 40
19 42 39
18 41 38
18 41 38
19 42 39
18 41 38
19 42 39
19 43 40
19 42 39
19 42 39
18 42 39
19 42 39
19 42 39
18 42 39
19 42 39
19 43 40
19 42 39
18 41 38
19 42 39
19 42 39
18 41 38
18 41 39
19 43 40
18 42 39
19 42 39
18 42 39
18 42 39
19 42 39
19 42 39
19 43 40
18 41 38
19 42 39
18 41 38
19 42 39
19 42 40
19 42 39
19 42 39
19 42 39
19 42 39
19 42 39
18 41 38
19 42 39
19 42 39
19 42 39
19 42 39
18 41 39
18 40 38
18 41 38
18 41 38
19 42 39
19 43 40
19 43 40
19 42 39
19 43 40
19 42 39
19 42 39
19 42 39
19 42 39
18 41 38
18 41 39
19 42 39
19 42 39
19 42 39
18 42 39
19 42 39
19 43 40
19 42 39
19 42 39
19 42 39
18 42 39
19 42 39
19 42 39
19 43 40
19 42 39
19 42 39
19 42 39
19 43 40
18 41 38
19 42 39
19 42 39
19 42 39
19 42 39
19 43 40
19 42 39
19 42 39
19 42 39
19 42 39
20 44 41
19 43 39
19 42 39
18 42 39
19 42 39
19 42 39
18 41 38
19 42 39
19 43 40
19 42 39
18 42 39
19 42 39
19 42 39
19 43 40
19 42 39
18 41 38
19 42 39
19 42 39
19 42 39
19 42 39
19 42 39
19 42 39
19 42 39
19 42 39
19 42 39
19 43 40
19 43 40
19 43 40
19 42 39
19 42 39
18 42 39
19 42 39
19 42 39
19 42 39
19 42 39
19 42 39
19 42 39
18 41 38
18 41 38
18 41 39
19 43 39
19 43 40
19 42 39
19 43 40
18 41 38
19 43 40
18 41 39
19 42 39
18 41 38
19 42 39
19 42 39
19 43 40
19 43 40
18 41 38
19 43 40
19 42 39
19 42 39
19 42 39
18 42 39
18 41 38
19 42 39
18 41 38
18 41 38
18 41 39
19 43 39
19 42 39
18 40 37
18 41 39
19 42 39
19 43 40
18 41 39
19 43 40
18 42 39
19 42 39
18 42 39
18 41 38
18 42 39
18 42 39
18 41 38
19 42 39
19 43 40
18 42 39
19 42 39
18 41 39
19 42 39
19 42 39
19 42 39
19 42 39
19 42 39
19 42 39
19 42 39
19 42 39
19 42 39
18 41 38
19 43 39
19 43 40
19 43 40
19 43 40
19 42 39
19 42 39
19 43 40
18 41 38
19 42 39
19 42 39
18 41 39
19 42 39
19 42 39
19 42 39
19 43 40
19 42 39
18 41 38
19 42 39
19 42 39
19 42 39
19 42 39
19 43 40
19 42 39
18 41 38
19 42 39
19 42 39
19 43 40
19 42 39
19 43 40
19 42 39
19 42 39
19 43 40
19 42 39
19 42 39
18 41 38
19 42 39
19 43 40
19 42 39
19 43 40
19 43 40
19 43 39
19 42 39
19 42 39
19 42 39
19 42 39
19 43 40
19 42 39
19 42 39
19 42 39
18 41 38
19 43 39
19 42 39
19 42 39
19 43 40
19 42 39
19 42 39
19 42 39
18 41 39
19 43 40
19 42 39
19 42 39
19 42 39
19 42 39
19 42 39
19 43 40
19 42 39
19 42 39
19 42 39
19 43 40
19 42 39
19 43 40
19 42 39
19 42 39
19 43 40
19 42 39
19 43 40
19 42 39
19 42 39
19 43 40
19 42 39
19 42 39
19 42 39
19 42 39
19 43 40
19 42 39
19 42 39
19 43 40
19 42 39
19 43 39
19 42 39
19 43 40
19 43 40
19 43 40
19 42 39
18 41 38
19 43 40
19 42 39
19 42 39
19 43 40
19 42 39
18 41 38
19 43 40
19 42 39
19 42 39
19 42 39
19 42 39
18 41 38
18 42 39
19 43 40
19 42 39
19 42 39
19 42 39
18 42 39
19 42 39
19 43 40
19 42 39
19 43 40
19 42 39
19 43 40
19 43 40
19 43 40
18 41 38
19 43 40
19 42 39
19 43 40
19 42 39
19 43 40
19 43 40
19 43 39
19 42 39
19 42 39
19 43 40
19 43 40
19 43 40
19 42 39
19 42 39
19 43 40
19 42 39
19 43 40
19 43 39
19 43 39
19 43 40
19 42 39
19 42 39
19 42 39
19 43 40
19 42 39
19 43 40
19 43 40
19 43 40
19 42 39
19 43 40
19 42 39
19 43 40
19 43 39
19 43 40
19 42 39
19 42 39
19 43 39
19 43 40
19 43 40
19 42 39
19 43 40
19 43 40
19 43 40
19 43 40
19 42 39
19 42 39
19 42 39
19 42 39
19 42 39
19 42 39
19 43 40
19 44 40
19 43 40
19 43 40
19 43 40
19 43 40
19 42 39
19 42 39
19 43 39
19 42 39
19 42 39
19 43 40
19 42 39
19 43 40
19 43 40
19 42 39
19 42 39
19 42 39
19 42 39
19 42 39
19 42 39
19 44 40
19 43 40
19 42 39
19 43 40
19 42 39
19 43 39
19 42 39
19 42 39
19 43 40
19 42 39
19 43 40
19 42 39
19 42 39
19 42 39
19 42 39
19 42 39
19 42 39
18 41 38
19 42 39
18 41 38
19 42 39
19 42 39
18 41 38
19 43 40
19 42 39
19 42 39
19 42 39
19 42 39
19 42 39
19 42 39
19 43 40
18 41 38
19 43 40
19 43 40
19 42 39
19 42 39
19 42 39
19 43 40
19 43 40
19 42 39
19 42 39
18 41 38
19 42 39
19 42 39
19 43 39
19 42 39
19 44 40
19 43 40
19 42 39
19 42 39
19 42 39
19 43 40
19 42 39
19 42 39
19 43 40
19 42 39
19 43 40
19 42 39
19 43 40
19 43 40
19 42 39
19 43 40
19 43 39
19 43 40
19 43 40
19 43 40
19 43 40
19 43 40
19 42 39
19 42 39
19 43 40
19 43 39
19 44 41
19 43 40
19 43 40
19 43 40
19 42 39
19 43 39
19 43 40
19 42 39
19 43 40
19 42 39
19 42 39
19 43 40
19 43 40
19 43 40
19 42 39
19 43 40
19 43 40
19 43 40
19 43 40
19 43 40
19 43 40
19 43 39
19 43 40
19 42 39
19 43 40
19 42 39
19 43 39
19 42 39
19 43 39
19 43 40
19 42 39
19 42 39
19 42 39
19 42 39
20 44 41
19 42 39
19 42 39
19 43 40
19 42 39
19 43 39
19 43 40
19 42 39
19 43 40
19 43 40
20 44 41
19 43 40
19 42 39
19 42 39
19 43 39
19 43 40
19 42 39
19 43 39
19 42 39
20 44 40
19 43 40
19 42 39
19 43 40
18 41 38
19 42 39
19 43 39
19 42 39
19 43 40
18 41 38
19 42 39
19 42 39
19 43 40
19 42 39
19 43 39
19 42 39
19 44 40
19 42 39
18 41 38
18 41 38
19 42 39
20 44 41
19 42 39
19 43 40
19 43 40
18 41 38
19 43 40
19 44 40
19 43 40
18 41 38
19 42 39
19 43 39
19 44 40
19 42 39
19 42 39
19 44 40
19 43 40
19 42 39
19 42 39
19 42 39
19 43 39
19 43 40
19 43 40
19 42 39
19 43 40
19 44 40
19 43 40
19 42 39
19 42 39
19 43 40
19 43 40
19 43 39
19 44 40
19 43 39
19 42 39
19 43 40
19 43 39
19 42 39
19 43 40
19 42 39
19 43 40
19 43 40
19 43 40
19 43 39
19 42 39
19 42 39
19 43 40
19 43 40
19 42 39
19 43 40
19 43 40
19 43 40
19 43 40
19 43 40
19 42 39
19 42 39
19 42 39
19 43 40
19 42 39
19 42 39
19 43 40
19 43 40
19 44 40
19 42 39
19 42 39
19 43 40
19 43 40
19 44 40
19 43 40
19 42 39
19 43 40
19 43 40
19 42 39
19 43 40
19 42 39
19 43 40
19 43 40
19 42 39
19 43 40
19 43 39
19 42 39
19 43 40
20 44 41
19 43 40
19 42 39
19 42 39
19 43 39
19 42 39
19 42 39
19 43 39
19 43 40
19 42 39
19 43 40
18 41 38
19 43 39
19 43 40
19 42 39
19 43 40
19 43 40
19 43 39
19 43 40
19 43 40
19 43 40
19 43 40
19 43 40
19 42 39
20 44 41
19 42 39
20 44 41
19 43 39
19 43 40
19 42 39
19 43 39
18 42 38
19 42 39
19 43 40
19 43 39
19 43 40
19 43 40
19 42 39
19 42 39
18 41 38
19 43 40
19 43 40
19 43 40
19 43 40
19 43 40
19 43 40
19 42 39
19 43 40
19 43 40
19 43 40
19 42 39
19 42 39
19 43 39
19 43 40
19 43 40
19 44 40
19 43 40
19 43 39
19 42 39
19 42 39
19 44 40
19 43 40
19 42 39
19 44 40
19 42 39
19 43 40
19 43 40
20 44 40
19 43 40
19 43 39
19 43 40
20 44 40
19 43 40
19 44 40
19 44 40
19 43 39
20 44 41
19 42 39
20 44 41
19 44 40
19 43 40
20 44 41
19 43 40
19 43 40
19 43 40
19 43 40
19 43 40
19 43 40
19 43 40
19 43 40
20 44 41
19 43 40
19 42 39
19 43 40
19 43 40
20 45 41
20 44 41
19 42 39
19 42 39
19 43 40
19 42 39
19 43 40
19 43 40
19 43 40
20 44 41
19 43 40
19 43 40
19 44 40
19 42 39
19 43 40
19 43 40
20 44 41
19 43 40
20 44 41
19 43 40
19 44 40
19 43 40
19 43 39
20 44 40
19 43 40
19 43 39
19 43 40
19 43 40
19 43 40
19 42 39
20 44 41
19 43 39
19 42 39
19 43 40
20 44 41
19 43 40
19 43 40
19 42 39
19 43 40
19 43 40
19 42 39
19 43 40
19 43 39
19 42 39
19 43 39
19 42 39
19 43 40
19 42 39
18 41 38
19 43 40
19 43 40
19 43 39
19 44 40
19 43 40
19 42 39
19 44 40
19 43 40
19 42 39
19 42 39
19 43 39
19 43 40
19 42 39
19 42 39
19 42 39
19 43 40
19 43 40
19 43 40
19 42 39
19 42 39
19 43 40
19 42 39
19 43 40
18 42 39
19 43 40
19 42 39
19 43 40
19 43 40
19 42 39
19 43 40
20 44 41
19 42 39
19 43 40
19 43 39
19 42 39
19 43 40
19 42 39
19 43 40
19 42 39
19 43 40
19 44 40
19 42 39
19 43 40
20 44 41
20 44 40
20 44 41
20 45 41
19 43 40
19 43 40
19 43 40
19 43 40
19 43 40
19 43 40
19 43 40
19 43 40
19 43 40
19 42 39
19 43 40
20 45 41
20 45 41
19 43 40
19 43 40
20 44 41
19 43 40
19 43 40
19 43 40
19 42 39
19 42 39
19 43 40
20 44 41
19 42 39
20 44 40
19 42 39
19 42 39
19 43 40
19 44 40
19 43 40
20 44 40
20 44 41
20 44 40
19 43 40
19 43 40
20 44 41
19 42 39
19 42 39
19 44 40
20 44 41
19 43 40
20 44 40
20 44 41
19 44 40
19 43 39
19 42 39
19 43 40
19 43 40
19 43 40
19 43 40
19 43 40
20 44 40
19 43 39
19 43 40
19 43 40
19 43 40
19 43 40
19 44 40
19 43 40
19 42 39
19 42 39
19 43 40
19 43 40
19 43 40
19 43 39
19 43 40
19 43 40
19 43 40
19 43 40
19 44 40
19 43 39
19 43 40
20 44 41
19 43 39
19 42 39
19 42 39
19 43 39
20 44 41
19 43 39
20 44 41
19 42 39
19 43 40
19 43 40
20 44 41
20 44 41
19 42 39
19 43 40
19 43 40
19 43 40
19 42 39
19 43 40
19 42 39
19 43 40
19 43 40
19 44 40
19 42 39
19 42 39
20 44 40
19 43 40
19 44 40
20 44 40
19 43 40
19 43 40
19 43 39
19 42 38
19 43 40
20 44 40
19 43 39
19 43 39
19 42 39
20 44 40
19 43 40
20 44 40
19 43 39
19 43 39
20 44 40
19 42 39
19 43 40
20 44 41
19 43 40
20 44 41
20 44 41
20 44 40
19 43 40
20 44 41
19 42 39
19 43 40
19 42 39
19 43 39
20 44 41
20 44 40
20 44 41
19 43 40
19 43 40
20 45 41
19 43 40
19 42 39
19 43 40
20 44 41
20 44 40
20 44 41
20 44 41
19 43 40
19 43 40
19 43 40
19 43 40
20 44 40
19 42 39
19 43 40
20 44 41
19 43 40
20 44 41
19 42 39
19 43 39
19 43 40
19 43 40
19 42 39
19 43 40
20 44 41
20 44 40
19 44 40
19 43 39
19 43 40
19 43 40
19 43 40
19 43 40
19 43 40
19 42 39
19 43 40
20 44 41
19 43 39
19 43 40
19 43 39
19 43 39
19 43 40
19 43 39
20 44 41
19 42 39
19 44 40
20 44 41
19 43 39
19 43 40
19 43 40
20 44 40
19 42 39
19 42 38
19 43 40
19 43 40
19 43 39
19 43 40
19 43 40
20 44 41
20 44 41
19 43 39
20 44 41
19 42 39
19 43 40
19 42 39
19 43 40
19 43 40
19 43 40
20 44 41
19 42 39
19 43 40
19 43 40
19 42 39
19 43 40
19 43 40
19 43 40
19 44 40
19 43 39
19 44 40
19 43 40
19 43 40
19 43 39
19 43 40
19 43 40
19 43 40
20 44 41
19 43 39
19 42 39
20 44 41
19 43 39
19 43 40
20 44 41
20 44 41
20 45 41
19 43 40
19 43 40
20 44 41
19 43 40
20 44 41
19 43 40
19 43 39
19 43 40
19 44 40
19 43 40
20 44 40
19 43 40
19 43 40
20 45 41
19 43 39
19 43 40
19 43 40
20 44 41
19 43 40
19 43 40
20 44 41
19 43 40
20 44 41
20 44 40
19 43 39
20 44 41
19 43 40
19 43 40
20 44 41
19 43 40
19 42 39
20 44 40
20 44 40
20 44 41
20 44 41
19 43 40
19 43 39
19 43 40
19 43 40
20 44 40
20 44 41
20 44 40
20 44 41
19 43 40
19 43 40
20 44 40
19 43 40
19 44 40
20 44 40
19 43 40
19 43 40
20 44 41
20 44 40
19 43 40
20 44 41
20 44 41
20 44 40
20 44 40
20 44 40
20 44 40
20 44 40
19 42 39
19 43 40
19 42 39
19 43 40
19 43 39
19 43 40
20 44 41
20 44 40
19 43 40
20 45 41
19 43 39
20 44 41
19 44 40
19 43 40
20 44 40
20 44 40
19 43 40
20 45 42
19 43 40
20 44 41
19 42 39
19 43 40
20 44 40
19 43 40
19 43 40
19 43 40
20 44 41
19 43 40
20 44 41
19 43 40
20 44 41
20 44 41
19 43 40
19 42 39
19 43 39
19 43 40
19 43 40
19 42 39
20 45 41
19 43 40
19 43 40
19 42 39
19 43 40
19 43 39
19 43 40
20 44 41
19 43 40
19 43 39
19 43 40
19 43 40
19 43 40
19 44 40
20 44 41
20 44 40
19 43 40
20 44 40
19 43 40
19 43 40
20 44 41
19 43 40
19 43 40
20 44 41
19 43 40
19 44 40
19 43 40
19 43 40
20 45 41
19 43 40
19 42 39
20 44 41
19 43 40
20 44 41
20 44 41
20 44 40
19 43 40
20 45 41
19 43 39
19 44 40
19 43 40
20 44 40
19 43 40
19 43 40
20 45 41
20 44 40
19 42 39
19 43 40
20 44 41
19 43 39
19 43 40
20 44 41
20 44 41
20 44 40
20 44 41
19 43 39
20 44 41
19 43 39
20 44 40
20 45 41
20 44 41
20 44 41
19 43 40
19 44 40
20 44 40
19 43 40
19 43 39
19 43 40
19 43 39
20 44 40
20 44 41
20 44 40
20 45 41
20 44 41
20 44 41
20 43 40
19 43 39
19 43 40
20 45 41
19 43 40
19 43 40
20 44 41
20 45 41
20 44 41
20 44 41
20 44 40
19 43 40
19 43 40
20 44 40
20 44 41
19 43 40
20 44 40
19 43 40
19 43 40
20 44 41
20 44 40
19 43 40
20 44 41
19 42 39
20 44 40
19 43 40
20 44 40
19 43 40
20 44 41
20 44 41
20 44 41
19 43 40
19 43 40
19 42 39
19 43 40
19 43 40
20 44 40
19 44 40
19 43 39
20 44 41
19 43 40
20 44 40
19 43 40
19 43 39
19 43 39
19 43 40
19 42 39
19 43 40
19 42 39
20 44 40
19 43 40
20 44 41
20 44 41
19 42 39
19 42 39
20 44 40
19 43 40
19 43 40
20 44 41
19 43 40
19 43 39
19 42 39
20 44 40
19 43 40
19 43 40
20 44 41
19 43 40
20 44 40
19 43 40
19 43 40
19 43 39
20 45 41
20 44 41
20 44 41
20 45 41
19 43 39
20 44 41
20 44 40
19 44 40
20 45 41
20 44 40
20 44 41
20 44 41
19 43 40
20 44 41
20 44 41
19 43 40
19 43 40
20 45 42
20 45 41
19 44 40
19 43 40
20 44 41
20 44 41
20 44 40
20 44 41
20 44 40
19 43 40
19 43 40
20 44 40
20 45 41
20 44 40
20 44 40
20 44 41
19 43 40
20 45 42
20 44 41
20 44 40
20 44 40
20 43 40
20 45 41
20 44 41
19 43 40
19 43 40
20 44 40
20 44 40
20 45 41
19 43 40
20 44 41
20 44 41
20 44 40
20 44 40
19 43 40
19 43 39
20 44 40
20 44 40
20 45 41
19 43 40
20 44 41
19 43 39
19 43 40
20 44 40
20 44 40
20 44 40
20 44 41
20 44 41
20 44 40
19 43 40
20 44 40
19 43 39
19 44 40
19 43 40
20 44 40
19 43 40
19 43 40
19 43 40
20 44 41
20 44 41
20 44 40
20 44 41
19 43 39
19 43 40
19 43 40
19 43 40
19 43 40
20 44 40
20 44 41
20 44 40
20 44 41
19 43 39
20 44 41
19 43 40
19 43 40
19 43 40
19 43 40
19 43 39
20 44 40
19 43 39
20 44 40
19 43 40
20 44 40
19 43 40
19 44 40
19 43 40
19 42 39
19 42 39
20 44 41
20 44 41
20 44 41
20 44 40
20 44 41
19 43 40
19 43 40
19 43 40
20 44 41
19 43 40
20 44 40
20 44 41
20 45 41
20 44 40
19 43 40
20 44 41
20 44 40
20 44 41
20 44 40
20 44 40
20 45 41
19 43 40
20 45 42
20 44 41
20 44 41
20 44 40
20 45 41
20 44 41
20 44 40
20 44 41
20 44 40
20 44 41
20 44 40
20 44 40
20 44 41
20 44 41
20 45 41
20 44 40
20 45 41
19 43 40
19 44 40
20 44 41
20 45 41
20 44 41
20 44 41
20 44 41
21 46 42
20 44 41
20 44 41
20 44 40
19 43 40
20 44 41
20 45 42
20 44 41
20 44 41
20 44 40
20 44 41
20 44 40
20 45 41
19 43 40
20 45 41
20 45 42
20 44 40
20 44 41
19 43 40
19 43 40
20 44 41
20 45 42
20 44 40
19 43 40
19 43 40
20 44 41
19 43 40
19 43 40
19 43 40
19 43 40
20 45 41
20 44 40
20 44 40
20 44 41
19 43 40
20 44 40
20 44 40
19 43 40
20 45 41
20 45 41
20 45 41
20 44 40
19 43 40
19 43 40
19 42 39
20 45 41
19 43 40
20 44 41
20 45 41
19 43 40
20 45 42
20 44 41
20 44 41
19 43 40
20 44 41
20 45 42
20 44 40
19 43 40
20 44 41
20 44 41
20 44 40
19 43 40
19 43 40
20 44 40
20 44 41
19 43 40
20 44 41
20 44 40
19 43 40
20 45 41
19 43 40
19 43 39
20 44 41
19 43 40
19 43 40
20 44 41
20 45 41
20 45 42
20 44 41
20 45 42
20 44 40
20 44 40
20 44 40
19 43 39
20 44 41
20 44 41
19 43 40
20 44 41
20 44 40
20 44 41
19 43 40
20 44 41
20 44 40
20 44 41
20 45 42
19 43 40
20 45 41
20 45 41
20 44 41
19 43 39
20 44 41
20 44 40
20 44 40
20 45 41
20 45 41
20 45 41
19 43 40
20 44 40
20 44 41
20 44 40
20 44 40
20 44 41
20 44 41
20 44 41
20 45 41
20 44 41
20 45 41
20 45 41
20 44 41
19 43 40
20 45 41
20 44 41
20 45 41
20 45 41
20 45 42
20 44 40
20 44 41
20 44 41
20 45 42
19 43 40
20 44 40
20 45 41
20 45 41
19 43 40
20 44 40
20 45 41
20 45 41
20 44 41
20 44 41
20 45 41
20 45 42
19 43 40
20 44 41
20 45 41
20 44 40
20 44 40
20 44 41
20 44 41
20 45 41
19 43 40
19 43 40
20 45 41
20 44 40
20 44 40
20 44 40
20 44 40
20 44 41
20 45 41
19 42 39
20 44 41
20 44 41
19 43 40
20 44 40
19 43 39
20 45 42
20 44 41
20 44 40
20 44 40
20 44 41
19 43 40
20 45 41
20 44 41
20 45 41
20 44 41
19 42 39
20 45 42
20 44 41
20 44 41
20 45 41
20 44 40
20 44 41
19 43 40
19 43 40
20 45 41
20 44 41
19 43 40
20 44 41
19 43 39
20 44 41
19 43 40
20 44 40
20 44 40
19 43 40
19 43 40
20 44 41
19 43 40
19 43 40
20 44 40
20 44 41
20 44 40
19 43 40
20 44 41
20 44 41
20 44 40
20 44 41
20 44 41
20 44 41
20 44 40
20 44 41
20 44 40
20 44 41
20 44 41
20 45 41
19 43 40
20 45 41
20 44 40
20 44 41
20 45 41
20 45 41
20 44 40
20 44 41
20 44 41
20 45 41
20 44 41
20 44 41
20 44 41
20 44 41
20 44 41
20 44 40
20 45 41
20 44 41
20 46 42
20 44 40
20 44 40
20 44 41
20 44 41
20 45 41
20 44 41
20 44 41
20 45 42
20 45 41
20 45 41
20 44 41
21 46 42
20 44 41
20 44 40
20 44 40
20 44 41
20 44 41
19 43 40
20 44 40
20 45 42
20 44 40
20 45 41
20 44 41
20 45 41
19 43 40
20 44 41
20 45 41
19 43 40
20 45 41
20 44 40
20 44 40
20 45 41
20 44 40
20 44 40
20 45 41
20 44 41
20 44 41
20 45 41
20 45 42
20 44 40
20 44 41
19 43 40
20 44 40
20 44 41
20 44 40
19 42 39
20 44 41
20 45 42
20 44 40
20 44 40
20 45 41
20 44 40
20 44 40
20 44 41
20 44 40
20 44 41
19 43 40
20 44 41
20 45 42
20 45 41
20 44 40
19 43 40
20 44 40
20 44 40
20 45 41
20 45 41
20 45 41
20 44 40
19 43 40
20 44 40
20 45 41
20 45 41
19 43 40
20 44 40
20 44 40
19 43 40
19 43 40
19 43 40
20 44 41
20 44 40
20 44 41
19 43 40
19 43 40
20 45 41
20 44 40
20 45 41
21 46 42
20 44 41
20 44 41
20 44 40
20 44 40
20 44 41
20 44 40
20 44 41
20 44 40
20 45 41
19 43 40
20 44 41
20 44 40
20 44 41
20 45 42
20 44 40
20 44 40
20 45 41
20 44 41
20 45 41
20 45 41
19 44 40
19 43 40
20 44 41
20 45 41
20 44 41
20 45 41
20 44 40
19 43 40
20 44 41
20 45 42
20 45 41
20 45 41
20 44 40
20 45 41
21 46 43
20 44 41
20 44 41
20 45 41
20 44 41
19 43 39
20 45 41
20 45 41
20 44 40
20 45 41
20 44 41
20 44 41
20 45 41
20 44 40
20 45 41
20 45 41
20 45 41
19 43 40
20 45 41
20 45 42
20 44 40
20 44 41
20 45 41
20 45 41
21 46 42
20 45 42
20 45 41
20 46 42
20 45 42
20 44 41
20 45 42
20 44 41
20 44 41
20 44 41
20 44 40
20 44 41
20 45 41
20 45 42
20 44 41
20 44 41
20 45 41
20 45 41
20 44 40
20 44 41
20 45 41
20 45 42
20 43 40
20 44 40
20 44 40
20 45 41
20 44 41
20 44 41
20 45 41
20 45 41
20 43 40
20 45 41
20 44 41
20 45 41
20 45 42
19 43 40
20 44 40
19 43 40
19 43 40
20 44 40
20 45 41
20 44 41
20 45 41
20 43 40
20 44 41
19 43 39
20 44 40
20 44 41
20 44 40
20 45 42
20 44 41
20 44 41
20 44 40
20 45 41
20 44 41
20 45 41
19 43 40
20 44 41
20 45 41
20 45 41
19 43 39
20 44 40
20 45 41
20 45 41
20 45 41
20 45 41
19 43 40
20 44 41
19 43 40
20 45 41
20 45 41
20 44 41
20 44 41
20 45 41
20 45 41
21 46 42
20 44 41
20 45 41
20 45 41
20 45 41
20 45 41
20 44 40
20 45 41
20 45 41
20 45 41
20 45 41
20 44 41
20 44 41
20 45 41
20 45 41
20 45 41
20 45 41
20 44 40
20 45 42
20 45 42
20 45 42
20 44 40
20 45 41
20 45 41
20 45 41
20 45 41
20 45 41
20 44 40
20 45 41
21 46 42
20 45 41
20 45 41
20 45 41
20 44 40
20 45 41
20 44 41
20 44 40
20 45 42
21 46 42
20 45 41
20 44 41
20 44 40
20 45 41
19 43 40
20 45 41
21 46 42
20 45 41
20 45 41
20 44 41
20 44 40
20 44 41
20 45 41
20 45 41
20 45 42
20 45 41
20 45 41
20 44 41
20 44 40
20 44 40
20 44 40
20 45 42
19 43 40
20 44 41
20 45 41
19 43 40
20 43 40
20 44 41
20 44 41
20 45 42
20 45 41
20 45 41
20 44 41
20 45 41
20 44 40
20 44 41
20 44 40
20 44 41
20 45 41
20 45 41
20 45 41
19 43 40
20 45 42
20 44 41
20 44 41
19 43 40
20 44 40
20 43 40
19 43 40
20 44 41
20 45 41
20 45 42
20 45 41
20 45 42
20 44 40
20 44 41
20 44 40
20 44 41
20 44 41
20 44 41
20 45 41
19 43 40
20 44 41
20 44 40
20 44 41
20 44 40
20 44 40
20 44 40
21 46 42
20 44 41
20 45 41
20 44 41
20 44 41
20 45 41
20 45 41
21 46 42
20 45 41
20 45 41
20 44 41
20 44 40
20 44 40
20 44 41
21 46 42
20 45 41
20 44 41
20 45 41
20 45 41
21 46 42
20 45 41
20 44 40
20 45 42
20 45 41
20 45 42
20 45 42
20 44 41
20 44 40
20 45 42
20 44 41
20 44 40
21 46 42
21 46 42
20 45 41
20 45 42
20 45 42
20 44 41
21 46 42
20 45 41
21 46 42
20 45 41
20 45 41
20 45 42
20 44 41
20 45 41
20 43 40
20 44 41
21 46 43
20 43 40
20 44 41
20 45 41
20 44 40
20 45 41
20 46 42
20 45 41
21 46 42
20 45 41
20 45 41
21 46 42
20 45 41
20 44 41
20 45 41
20 44 40
20 45 41
20 45 41
20 44 41
20 44 40
20 44 41
20 45 41
20 44 41
21 46 42
20 45 41
21 46 43
21 46 42
20 46 42
20 44 40
20 45 42
20 45 41
20 44 41
20 45 41
20 44 41
20 44 41
21 46 42
20 44 41
20 44 40
20 45 41
20 45 41
20 45 42
21 46 42
20 44 41
20 45 41
20 45 41
20 45 41
20 46 42
20 44 41
20 45 41
20 45 42
20 45 41
20 45 41
21 46 42
20 44 41
20 44 41
20 45 41
20 44 40
20 44 40
20 44 40
20 44 40
20 45 41
20 44 40
20 44 40
20 44 41
20 44 41
20 44 41
21 46 42
20 44 40
20 44 41
20 45 41
20 45 41
21 46 42
20 45 42
20 45 41
21 46 42
20 45 41
20 45 41
20 44 41
20 44 41
20 45 41
20 46 42
20 44 41
20 44 40
20 45 41
20 44 41
19 43 40
20 45 41
20 45 42
20 45 41
20 45 41
20 45 41
20 45 41
21 46 42
20 45 42
21 46 42
20 45 41
21 45 42
21 46 42
20 45 41
20 45 41
21 46 42
20 44 40
20 45 41
20 44 41
20 44 40
20 45 41
21 46 42
20 45 41
20 45 41
20 45 41
21 46 42
21 46 42
20 45 42
20 45 41
20 45 42
21 46 42
20 45 42
20 45 41
20 45 41
20 45 41
20 45 41
20 45 41
20 45 41
20 45 41
20 45 42
20 45 41
20 44 41
20 45 41
21 46 42
20 45 41
20 45 41
21 46 42
20 45 42
21 46 42
20 45 41
21 46 42
20 45 41
21 46 42
20 44 41
20 45 42
21 46 42
21 46 42
20 45 41
20 44 40
20 45 41
20 45 41
20 45 42
20 45 41
21 46 42
20 45 41
20 44 41
21 46 42
20 45 41
20 45 42
20 45 41
20 44 41
20 44 41
20 44 41
20 44 41
20 45 41
20 45 41
21 46 42
20 45 41
20 45 41
20 45 41
20 45 42
20 45 41
21 46 42
20 46 42
20 44 41
20 45 41
20 45 42
20 44 40
20 45 41
20 45 42
20 45 42
20 44 41
20 44 40
20 45 41
19 43 40
20 45 41
20 45 41
21 46 42
20 44 40
20 45 41
21 45 42
20 45 41
20 45 41
20 45 41
20 45 41
20 44 41
20 45 41
20 45 41
21 46 42
21 47 43
20 44 41
20 45 41
20 45 42
20 45 41
20 44 40
21 46 42
20 44 41
21 46 42
21 46 42
20 45 41
20 45 41
20 45 42
20 45 42
20 45 41
20 44 41
21 47 43
20 45 41
21 46 42
20 45 41
20 44 41
20 45 41
20 45 41
20 45 41
21 46 42
20 45 41
20 45 42
20 45 41
20 45 41
21 46 42
20 45 41
20 45 41
20 45 41
20 45 41
21 47 43
20 45 41
20 45 42
20 45 42
20 44 41
20 45 41
21 46 42
21 46 42
20 44 40
21 46 42
20 44 41
20 44 41
21 46 42
21 46 42
20 45 41
21 46 42
20 45 41
20 45 41
21 46 42
20 45 41
20 45 41
21 46 42
21 46 42
20 45 42
20 45 41
21 46 42
20 45 41
20 45 41
20 44 41
20 44 40
20 45 41
21 46 42
20 44 41
20 44 41
20 45 41
20 45 41
20 45 42
21 46 42
20 44 40
20 43 40
20 45 42
20 46 42
20 45 41
20 44 40
20 44 41
21 46 42
20 45 41
21 46 42
21 46 42
20 44 41
20 44 40
20 45 41
20 44 40
20 44 40
20 45 41
20 45 42
20 45 41
20 45 41
20 44 40
20 45 41
20 45 41
20 45 41
20 46 42
20 45 41
20 44 40
20 45 41
20 44 41
21 46 42
20 45 41
21 46 42
20 45 41
20 44 40
20 45 41
20 45 41
20 45 41
20 45 41
20 45 41
20 45 41
20 45 41
20 44 41
20 45 41
20 45 41
20 44 41
20 44 40
21 46 42
21 46 42
20 45 41
20 45 41
21 46 42
21 46 42
20 45 41
20 45 41
20 45 41
20 45 42
21 46 42
20 45 42
20 45 41
20 45 41
20 44 41
20 45 41
20 44 41
20 45 41
20 44 40
20 44 41
20 44 40
21 46 42
21 47 43
21 46 42
21 46 42
20 45 41
20 45 42
20 45 42
21 46 42
20 44 40
20 44 41
21 46 43
20 45 41
21 46 42
20 45 41
21 46 42
21 46 42
21 46 42
20 44 40
20 45 41
20 45 41
20 45 41
20 45 42
21 46 42
20 45 41
21 46 42
20 45 41
20 45 42
20 44 40
20 45 41
21 46 42
20 45 41
21 46 42
20 44 41
20 44 40
20 45 42
21 46 42
20 45 41
21 46 42
21 46 42
20 45 41
21 46 42
20 44 40
20 44 40
20 45 41
20 45 41
21 46 42
21 46 42
20 44 41
20 44 40
20 45 41
20 45 41
20 45 41
21 46 43
20 44 41
20 45 41
20 45 42
20 45 41
21 46 42
21 46 42
20 45 41
20 45 41
20 45 42
20 44 40
20 45 42
20 45 42
20 45 42
21 46 42
20 44 41
20 44 41
21 46 42
20 44 41
20 45 42
20 45 41
20 45 41
20 44 41
20 44 41
21 46 42
21 46 42
21 46 42
20 45 42
21 46 42
20 44 41
21 46 42
20 45 41
20 44 41
20 45 41
20 44 41
20 44 41
21 46 42
20 45 41
20 45 42
20 45 41
20 45 41
20 45 42
20 45 41
19 43 40
20 44 40
22 48 44
21 46 42
20 45 42
20 45 41
20 45 41
20 45 42
20 45 41
20 45 42
20 45 41
20 45 41
21 47 43
20 45 41
20 45 41
21 46 42
20 44 41
20 45 41
20 45 41
21 46 42
20 44 41
20 45 41
21 46 42
20 45 41
20 44 41
20 44 41
20 45 41
20 45 41
21 46 43
20 45 41
20 44 41
21 46 42
21 47 43
20 44 41
20 45 41
21 46 42
21 46 42
21 46 42
21 46 42
21 45 42
21 46 42
20 45 41
21 46 42
20 45 41
21 46 42
21 46 42
21 46 42
21 46 42
21 46 42
20 45 41
20 45 41
21 47 43
21 46 42
21 47 43
21 46 42
21 46 42
21 46 42
21 46 42
21 46 42
20 45 41
20 45 41
20 45 41
20 44 40
20 45 41
20 45 41
20 45 41
21 46 42
21 46 42
21 46 42
20 45 41
20 45 41
21 46 42
21 46 42
20 45 41
21 45 42
20 45 41
21 46 42
21 46 42
20 45 41
20 45 41
20 45 41
20 45 41
20 45 42
21 46 42
20 45 42
21 46 42
20 44 41
21 45 42
21 46 42
20 45 42
21 45 42
20 44 41
21 46 42
20 45 42
20 44 41
21 46 42
20 45 41
20 45 41
20 45 41
20 45 41
20 45 41
20 45 41
20 45 41
20 45 41
20 44 40
21 46 42
21 46 42
20 45 41
20 45 41
21 46 42
20 45 41
20 45 42
20 45 41
20 45 41
20 45 41
21 47 43
20 45 42
20 45 42
20 45 42
20 45 41
20 45 41
20 44 40
20 45 41
20 45 41
21 46 42
20 45 42
20 45 42
21 46 42
20 45 41
21 46 42
20 45 41
21 46 42
20 45 41
21 46 42
21 46 42
21 46 42
20 45 41
20 45 41
20 45 41
21 46 42
20 45 41
20 45 41
21 45 42
20 44 41
20 45 41
21 46 42
20 45 41
20 45 41
20 45 41
21 45 42
21 46 42
20 45 41
21 46 42
21 46 42
20 45 41
21 46 42
21 46 42
21 46 42
20 45 41
21 46 42
21 46 42
20 45 41
21 46 42
21 46 42
21 46 42
20 45 41
21 46 42
20 45 42
20 45 42
20 44 41
21 46 42
20 45 41
21 46 42
20 45 41
21 46 42
21 46 42
20 44 41
20 45 41
21 47 43
21 46 42
20 45 41
20 45 41
20 45 41
21 46 42
21 46 42
20 45 41
21 46 42
21 46 42
20 45 41
20 45 41
20 45 41
21 46 42
20 45 41
21 46 42
21 46 42
20 45 41
21 46 42
21 46 42
20 45 41
20 45 41
20 45 41
21 46 42
21 46 42
21 46 42
21 47 43
20 45 41
20 45 41
21 46 42
20 45 41
21 46 42
20 44 41
21 46 42
20 45 41
21 46 42
20 44 41
20 45 41
20 45 42
20 45 41
21 46 42
21 46 42
20 44 41
21 46 43
21 46 42
21 46 42
20 45 41
21 46 42
20 45 41
20 45 41
20 44 41
20 45 41
20 44 40
20 45 42
20 45 42
20 45 41
21 46 42
21 46 42
20 45 41
20 45 41
21 46 42
20 45 41
20 45 41
20 45 41
20 45 42
21 46 42
20 45 41
20 45 42
20 45 41
21 46 42
21 46 42
21 46 42
20 45 41
21 46 42
21 46 42
21 46 42
20 45 41
20 45 41
20 45 41
21 46 42
20 45 41
20 44 40
21 46 42
20 45 41
21 46 42
20 45 42
20 45 41
21 45 42
21 46 42
21 46 42
21 46 42
21 45 42
21 47 43
21 46 42
21 46 42
21 46 42
21 46 42
21 46 42
21 46 42
21 46 42
21 47 43
21 46 42
21 46 42
21 46 42
21 46 42
20 45 41
20 44 41
21 46 42
21 46 42
21 47 43
21 46 42
21 46 42
21 46 42
21 46 42
21 47 43
21 46 42
20 45 41
20 45 41
21 46 42
21 47 43
21 45 42
21 46 42
21 47 43
21 46 42
21 46 42
21 46 42
21 46 42
20 45 41
20 45 41
20 45 41
21 46 42
21 46 42
21 46 42
21 46 42
21 46 42
21 46 42
21 46 42
21 45 42
21 46 42
21 46 42
20 45 41
20 45 42
21 46 42
21 46 42
20 45 41
20 45 41
21 47 43
20 45 42
21 47 43
20 45 41
21 47 43
21 46 42
21 46 42
21 46 42
21 46 42
21 46 42
20 45 42
21 46 42
21 46 42
20 44 41
21 46 42
20 44 41
21 47 43
21 46 42
21 46 42
21 46 42
21 46 42
20 45 42
20 45 41
21 46 42
20 45 41
20 45 41
20 45 42
21 46 42
21 46 42
20 45 41
20 45 41
21 46 42
20 45 41
20 45 41
20 44 40
20 45 42
21 46 42
20 44 41
21 46 42
21 47 43
21 46 42
21 46 42
20 45 41
20 45 41
20 45 41
21 46 42
21 46 42
21 46 42
21 45 42
20 45 41
21 46 42
21 46 42
20 45 42
21 47 43
21 46 42
21 47 43
20 45 42
21 47 43
20 45 41
20 45 41
21 46 42
21 46 42
20 45 41
21 46 42
21 46 42
21 46 42
21 46 42
21 46 42
21 47 43
21 46 42
21 46 42
21 46 42
21 46 42
21 46 42
20 45 41
20 45 41
20 45 41
21 46 42
21 45 42
21 47 43
21 46 42
21 47 43
21 46 42
21 46 42
21 46 42
21 46 42
21 46 42
21 46 42
21 47 43
21 46 42
21 47 43
21 46 42
21 46 42
20 45 41
21 46 42
21 46 42
20 45 42
21 48 43
20 45 41
21 46 42
21 46 42
21 46 42
20 45 41
21 46 42
20 45 42
21 46 42
21 46 42
21 46 42
21 47 43
20 45 41
21 46 42
21 47 43
21 47 43
21 46 42
21 46 42
20 45 41
21 47 43
21 46 42
20 45 41
21 46 42
21 45 42
21 46 42
21 46 42
20 45 41
21 46 42
21 46 42
21 46 42
21 46 42
21 47 43
21 45 41
21 47 43
21 46 42
21 46 42
20 45 42
21 46 42
21 47 43
20 45 41
20 45 41
20 45 41
20 45 41
20 45 41
21 46 42
20 45 41
21 46 42
20 45 41
20 45 41
21 46 42
21 48 43
21 46 42
20 45 41
21 46 42
21 47 43
20 45 41
21 46 42
20 45 41
20 45 41
20 45 41
21 47 43
21 46 42
21 47 43
21 46 42
21 47 43
21 46 42
21 46 42
21 47 43
21 46 42
21 46 42
21 46 42
21 46 42
21 46 42
21 46 43
21 47 43
21 46 42
21 47 43
21 46 42
21 47 43
22 48 44
20 45 41
21 46 42
21 47 43
20 45 41
21 47 43
21 47 43
21 46 42
20 45 41
21 46 42
21 46 42
21 46 42
21 46 42
21 47 43
21 46 42
21 46 42
21 45 42
21 46 42
21 46 42
21 46 42
21 46 42
21 46 42
21 46 42
20 45 41
20 45 41
21 46 42
21 46 42
21 46 42
21 46 43
21 47 43
21 46 42
21 47 43
21 46 42
21 46 42
21 46 42
21 47 43
21 46 42
20 45 41
21 46 42
21 46 42
20 45 41
21 46 42
21 47 43
21 46 42
20 45 41
20 45 41
20 45 41
21 46 42
21 46 42
21 46 42
21 46 42
21 46 42
21 46 42
20 45 41
21 47 43
21 46 42
21 46 42
20 45 41
21 46 42
21 46 42
21 45 41
21 46 42
21 46 42
21 46 42
68 73 67
160 146 133
200 180 164
181 164 150
126 117 108
24 47 44
21 46 42
20 45 41
21 47 43
21 46 42
21 46 43
20 45 42
21 46 42
20 45 41
21 46 42
21 46 42
21 46 42
21 47 43
20 45 41
21 46 42
21 47 43
20 44 41
20 45 41
21 46 43
20 45 42
20 45 42
21 46 42
21 46 42
20 45 41
20 45 41
20 45 42
21 46 42
20 45 41
20 45 41
21 46 42
20 45 41
21 46 42
21 47 43
20 45 41
20 45 41
21 46 42
21 46 42
20 45 41
21 46 42
21 47 43
20 45 41
21 47 43
21 46 42
21 47 43
21 47 42
21 46 42
21 46 42
21 46 42
21 46 42
20 45 41
21 45 41
21 46 42
21 46 42
21 45 42
21 46 42
21 46 42
21 47 43
21 47 43
21 46 42
21 46 42
21 46 42
21 46 42
21 46 42
21 46 42
21 47 43
21 46 42
21 47 43
21 46 42
21 47 43
21 46 42
20 45 41
21 47 42
21 46 42
21 46 42
21 47 43
21 46 42
21 46 42
21 47 43
21 46 42
21 47 43
21 46 42
21 46 42
21 47 43
21 45 41
21 46 42
21 47 43
21 46 42
21 46 42
21 47 42
21 46 42
21 46 42
21 46 42
21 46 42
21 45 41
21 45 42
21 46 42
21 46 42
21 46 42
21 46 42
20 45 41
22 48 43
21 46 42
21 46 42
21 46 42
21 46 42
21 46 42
20 45 41
21 46 42
21 46 42
21 46 42
21 45 41
21 46 42
21 45 41
21 47 43
107 102 93
229 203 184
243 216 197
244 217 198
241 215 196
225 200 185
88 64 94
30 47 47
20 45 41
20 45 41
21 46 42
20 45 41
21 45 42
21 46 42
21 46 42
21 46 42
21 46 42
21 46 42
21 47 43
21 46 42
21 46 42
20 45 41
21 46 42
21 47 43
21 46 42
21 47 43
21 45 42
21 47 43
21 46 42
20 45 41
20 44 41
20 45 41
20 45 41
20 45 41
21 46 42
20 45 42
20 45 41
20 45 42
20 45 41
21 46 42
20 45 41
21 47 43
21 45 41
21 47 43
20 45 41
21 47 42
21 46 42
21 46 42
21 47 43
21 48 43
20 45 41
21 47 43
21 47 43
21 46 42
21 46 42
21 46 42
20 45 41
21 47 43
21 46 42
21 46 42
21 47 43
21 46 42
21 45 41
21 45 41
21 46 42
21 47 43
21 46 42
21 47 43
20 44 41
21 46 42
21 46 42
22 48 44
21 47 43
21 46 42
22 48 43
21 46 42
21 47 43
21 46 42
21 46 42
21 47 43
20 45 41
21 47 43
21 47 42
20 45 41
21 46 42
21 46 42
21 46 42
21 45 42
21 47 43
21 46 42
21 47 43
21 47 43
21 46 42
21 47 43
21 46 42
21 46 42
21 46 42
21 47 43
21 46 42
21 47 43
21 46 42
21 47 43
21 47 43
21 46 42
21 46 42
20 45 41
21 47 43
20 45 41
21 45 42
21 46 42
21 46 42
21 46 42
21 47 43
21 46 42
20 45 41
21 46 42
21 46 42
21 47 43
20 45 41
43 56 50
203 180 162
242 214 193
249 220 199
252 223 202
246 218 198
191 164 161
96 64 103
69 53 78
21 47 43
21 47 43
21 46 43
21 46 42
21 46 42
21 46 42
21 46 42
21 46 42
21 46 43
21 46 42
21 46 42
21 47 43
21 47 43
21 46 42
21 46 42
21 46 42
20 45 41
21 46 42
21 46 42
21 46 42
21 46 42
21 46 42
21 47 43
21 47 43
21 45 42
20 45 41
21 46 42
21 46 42
20 45 41
20 45 41
21 46 42
21 46 42
20 45 41
21 47 43
21 47 42
21 46 42
21 46 42
21 47 43
21 46 42
21 47 43
21 47 43
21 47 43
21 45 41
21 46 42
21 46 42
21 47 43
21 47 43
21 46 42
21 46 42
21 46 42
22 48 43
21 46 42
21 47 43
21 47 43
21 46 42
21 46 42
21 47 43
21 46 42
21 46 42
21 47 43
20 45 41
22 48 44
21 46 42
21 46 42
22 48 44
21 47 42
21 46 42
21 46 42
21 47 43
21 46 42
21 46 42
21 47 43
21 46 42
21 47 42
21 46 42
21 47 43
21 46 42
21 46 42
22 48 43
21 46 42
21 47 43
21 47 42
21 47 43
22 48 44
22 48 44
21 47 43
21 46 42
21 47 43
21 46 42
21 46 42
21 46 42
21 47 42
21 47 42
21 47 43
21 46 42
22 47 43
21 46 42
21 47 43
21 46 42
21 46 42
21 46 42
21 46 42
21 46 42
21 47 42
21 47 43
21 46 42
20 45 41
22 48 44
21 45 41
21 46 42
21 46 42
115 108 97
213 187 167
236 207 185
246 216 193
255 251 222
216 188 175
104 70 107
95 62 99
80 53 85
27 45 45
21 46 42
21 46 42
21 46 42
20 45 41
21 46 42
21 46 43
20 45 41
21 45 42
21 46 42
20 45 41
21 47 43
20 45 41
21 46 42
20 45 41
20 45 41
21 47 43
21 46 42
21 46 42
20 45 41
21 46 42
21 47 43
21 46 42
21 45 41
21 45 42
20 45 41
20 45 41
21 46 42
21 47 43
20 45 41
21 46 42
21 46 42
21 46 42
21 46 42
20 45 41
21 47 43
21 46 42
21 47 43
21 47 43
21 47 43
20 45 41
20 45 41
21 47 43
21 47 42
21 47 43
21 45 41
21 46 42
21 47 43
21 47 43
21 47 43
21 46 42
21 47 43
21 46 42
21 47 43
21 46 42
21 46 42
21 47 43
21 47 43
21 47 43
21 46 42
22 47 43
20 45 41
21 47 43
21 46 42
21 47 43
21 46 42
22 48 44
21 47 43
21 45 41
22 48 43
21 46 42
21 47 42
21 46 42
21 47 43
21 45 42
21 46 42
21 46 42
21 47 42
21 46 42
21 47 43
21 47 43
22 47 43
21 47 43
21 47 43
21 47 43
21 47 43
21 47 43
21 47 43
21 46 42
21 47 42
21 47 42
21 46 42
21 46 42
21 47 43
21 47 43
22 48 43
21 47 43
21 46 42
21 47 43
21 47 42
21 47 43
21 46 42
21 46 42
21 46 42
22 48 44
21 46 42
21 47 43
21 46 42
21 47 43
21 46 42
21 46 42
123 112 100
197 173 153
220 192 170
223 194 173
177 150 145
152 127 127
177 154 140
125 102 107
73 48 77
34 43 47
22 48 43
21 46 42
20 45 41
21 46 42
21 47 43
21 46 42
21 46 42
21 47 43
21 45 42
21 47 43
21 47 43
21 46 42
21 46 42
21 46 42
21 47 43
21 46 42
20 45 42
21 46 42
21 46 42
20 45 41
20 45 41
21 47 43
21 46 42
21 45 42
21 47 43
20 45 41
21 47 43
21 46 42
20 44 41
21 47 43
21 46 42
21 47 43
21 47 43
21 46 42
20 45 41
21 47 43
21 47 43
21 46 42
21 46 42
21 47 42
21 46 42
21 46 42
22 48 43
22 48 44
21 46 42
22 48 44
21 47 43
21 47 43
21 46 42
21 47 43
21 47 43
21 46 42
21 47 43
21 46 42
22 48 43
21 47 43
21 46 42
21 46 42
21 47 43
22 47 43
21 47 43
22 47 43
21 47 42
21 47 43
21 47 43
22 48 44
21 46 42
22 48 43
21 46 42
22 47 43
22 48 43
21 47 42
21 46 41
21 47 43
21 46 42
21 47 43
21 47 42
21 47 43
21 46 42
21 47 42
21 46 42
21 46 42
21 47 43
21 47 43
21 47 43
21 47 43
21 47 43
21 47 43
22 48 44
21 47 43
21 47 43
21 47 43
21 46 42
21 47 43
21 46 42
22 48 43
21 47 43
21 47 43
21 46 42
21 46 42
21 47 43
21 46 42
21 47 43
21 47 42
22 47 43
21 47 43
21 46 42
21 46 42
21 46 42
21 45 41
67 65 64
146 125 116
142 119 115
103 77 94
114 89 100
180 157 137
155 135 119
156 136 121
73 56 72
35 50 48
21 46 42
21 46 42
21 46 42
22 48 44
21 46 42
21 46 42
21 47 43
21 46 42
21 46 42
21 46 42
21 47 43
22 48 44
20 45 41
21 46 42
21 47 43
21 47 43
21 46 42
21 46 42
21 46 42
21 47 42
21 47 42
21 46 42
21 47 43
21 46 42
21 46 42
21 46 42
21 46 42
21 45 42
21 46 42
21 46 42
21 47 43
20 45 41
21 47 43
21 47 43
21 47 42
21 46 42
21 46 42
21 46 42
21 47 42
21 46 42
21 47 42
22 48 44
21 46 42
21 47 43
21 46 42
21 47 43
21 47 42
21 47 43
21 46 42
22 48 43
21 46 42
21 46 42
21 47 43
21 47 42
21 47 43
21 46 42
21 46 42
21 47 43
21 47 42
21 47 43
22 48 44
21 46 42
22 48 43
21 46 42
22 48 43
21 47 43
22 48 43
21 47 43
21 46 42
21 46 42
22 48 44
21 46 42
21 47 43
21 47 43
21 47 43
21 47 43
21 47 42
21 47 43
21 46 42
22 48 43
21 47 43
22 47 43
21 47 42
21 46 42
21 47 43
21 47 42
21 46 42
22 48 43
22 48 44
21 47 43
22 47 43
21 47 43
21 47 42
22 48 44
21 47 43
21 46 42
21 47 43
21 47 43
22 48 43
21 46 42
21 47 43
22 48 43
21 46 42
21 46 42
21 46 42
21 46 41
21 46 42
21 47 43
21 45 41
20 44 40
24 44 42
52 34 52
68 44 67
71 45 69
93 73 78
153 132 113
133 115 100
103 89 82
55 53 53
18 41 38
20 44 41
21 46 42
21 45 41
21 46 42
21 46 42
21 45 41
21 46 42
21 47 43
21 47 43
21 47 43
21 47 43
21 46 42
21 45 41
21 46 42
21 47 43
21 47 42
21 46 42
21 46 42
21 47 43
21 46 42
21 46 42
21 46 42
21 47 43
20 45 41
21 46 42
21 45 41
20 45 41
21 46 42
21 47 43
21 47 43
21 45 41
21 47 43
21 47 43
21 46 42
21 47 43
22 48 44
21 46 42
21 46 42
21 47 43
21 47 43
21 47 42
22 48 44
21 47 43
21 46 42
21 47 43
22 48 44
22 48 43
21 47 43
21 47 43
22 49 44
21 47 43
21 47 43
21 47 43
22 48 44
22 48 43
22 48 44
21 47 43
21 46 42
21 47 43
22 48 43
22 48 44
22 48 43
21 47 43
22 48 44
21 47 43
21 47 43
21 47 42
21 47 43
21 46 42
21 47 42
21 47 42
20 45 41
21 46 42
21 47 43
21 47 43
21 47 43
21 47 43
22 47 43
21 46 42
22 48 43
21 47 43
22 48 44
21 46 42
21 47 42
21 47 43
21 46 42
21 47 43
21 46 42
21 47 43
22 48 44
22 48 44
21 47 43
22 48 43
22 48 44
22 47 43
21 46 42
21 46 42
22 48 43
22 48 44
21 47 42
21 47 43
21 46 42
21 47 43
21 46 42
21 47 42
21 47 43
21 46 42
20 44 40
20 44 40
20 43 39
19 43 39
22 29 31
39 26 38
49 31 46
47 30 45
63 50 51
56 48 44
54 52 47
23 36 33
16 36 34
19 43 39
21 46 41
20 45 41
21 46 42
21 46 42
21 46 42
21 47 43
21 47 43
21 46 42
21 47 43
21 46 42
21 47 43
21 46 42
21 47 43
20 45 41
21 46 42
21 46 42
20 45 42
21 46 42
21 47 43
21 46 42
21 46 42
21 47 43
21 47 42
21 46 42
21 46 42
21 46 42
21 46 42
21 47 43
21 47 43
21 47 43
21 47 43
21 47 43
21 46 42
21 47 43
21 47 43
22 48 43
21 47 43
21 47 43
22 48 44
22 49 44
21 46 42
21 47 42
21 46 42
22 48 43
22 48 43
21 47 42
21 47 43
21 47 43
22 47 43
21 46 42
21 47 43
22 48 43
21 47 42
22 48 44
22 48 43
22 48 44
22 48 44
21 47 43
21 47 43
21 47 42
22 47 43
21 46 42
22 48 44
22 49 44
22 48 43
21 47 43
21 47 43
22 47 43
22 48 43
21 47 43
21 46 42
21 47 42
21 47 43
21 47 43
21 47 42
22 47 43
22 48 44
21 47 43
21 47 43
22 47 43
22 48 43
21 47 43
21 47 43
21 47 43
22 47 43
22 47 43
21 47 43
21 46 42
21 46 42
22 47 43
22 47 43
21 47 43
22 48 44
21 47 42
21 47 42
21 46 42
22 48 43
21 47 43
22 48 44
21 47 43
22 48 44
22 47 43
21 45 41
21 46 42
20 45 40
21 46 42
21 45 41
19 42 38
20 44 40
20 43 39
15 33 30
12 19 19
20 16 18
30 24 23
30 29 24
30 33 25
12 24 22
14 31 29
17 38 35
20 44 39
20 44 40
21 45 41
21 47 42
21 47 42
22 47 43
21 47 42
21 46 42
21 47 42
21 46 42
21 46 42
21 46 42
21 46 42
21 45 41
21 47 43
22 48 44
21 46 42
21 45 42
21 46 42
22 48 44
21 46 42
21 46 42
21 46 42
21 46 42
21 47 43
21 46 42
21 46 42
21 46 42
21 46 42
21 47 43
21 46 42
21 47 43
21 47 43
21 47 43
21 46 42
21 47 43
21 46 42
21 47 43
21 47 43
21 46 42
21 47 43
22 47 43
21 47 43
22 48 44
21 46 42
22 49 45
21 47 43
21 47 42
21 47 42
22 48 43
21 47 43
22 49 44
22 48 44
21 47 43
21 47 43
22 48 43
21 46 42
21 47 43
21 47 43
22 48 44
22 48 43
22 47 43
21 47 43
21 46 42
22 48 43
21 47 42
21 47 43
22 48 44
22 47 43
22 48 43
22 48 44
22 48 43
21 47 43
21 47 43
22 48 43
21 47 43
21 47 43
22 48 44
22 48 43
21 47 43
21 46 42
21 47 43
21 47 43
21 47 43
22 49 44
22 47 43
21 47 43
22 48 44
21 47 43
21 46 42
21 46 42
21 47 43
21 47 43
22 47 43
22 48 43
22 48 44
21 46 42
21 47 43
22 48 43
21 46 42
21 47 43
21 47 43
22 48 44
21 47 42
21 47 42
21 46 42
21 46 42
21 46 42
21 46 42
20 45 40
20 43 39
19 42 38
18 39 35
17 37 33
15 33 29
15 33 29
16 35 31
18 38 33
19 40 36
20 43 39
20 44 39
20 44 40
21 45 41
21 46 42
20 45 41
21 46 42
21 46 42
22 47 43
21 46 42
21 47 43
21 47 43
21 46 42
22 48 43
21 46 42
21 47 43
21 47 43
21 47 43
22 48 43
21 47 43
21 46 42
21 46 42
21 46 42
21 47 43
21 47 43
21 46 42
21 47 43
20 45 41
21 46 42
21 46 42
21 46 42
21 47 42
21 47 43
21 47 43
21 47 42
21 47 43
21 47 43
22 49 44
21 46 42
22 48 44
22 48 43
21 46 42
21 46 42
21 47 43
21 47 42
22 48 43
22 48 43
22 48 43
22 49 45
21 46 42
21 47 43
21 47 43
22 47 43
21 47 43
21 47 43
22 48 43
22 48 43
21 47 43
21 46 42
22 47 43
22 48 44
21 47 43
21 47 43
22 48 43
21 47 43
21 47 43
22 48 44
22 47 43
21 47 43
21 47 43
22 48 43
21 47 42
21 46 42
22 47 43
21 47 43
21 47 43
21 47 43
22 47 43
21 46 42
21 47 43
21 47 42
21 47 43
21 47 43
21 46 42
21 47 43
22 48 43
21 46 42
22 48 43
21 47 43
21 47 43
21 47 42
22 48 43
22 49 45
22 48 43
21 47 43
21 47 43
21 47 43
22 48 44
22 48 44
21 46 42
21 46 42
22 48 43
21 46 42
21 47 42
21 46 42
21 47 43
21 46 42
21 46 42
21 47 42
21 46 41
20 45 41
21 45 41
20 43 39
20 44 39
20 45 40
20 43 39
19 42 37
20 44 39
21 46 42
21 46 41
20 45 41
21 46 41
20 45 40
21 46 42
22 47 43
20 45 41
21 47 42
21 46 42
21 45 41
21 47 43
21 46 42
21 47 43
22 47 43
21 46 42
21 46 42
21 47 43
21 46 42
21 46 42
21 47 43
21 46 42
21 46 42
21 46 42
21 47 42
21 47 43
21 47 43
21 47 42
21 46 42
21 46 42
21 47 43
22 48 43
21 47 43
21 47 43
22 49 44
22 48 43
22 48 44
21 47 43
22 49 45
22 49 44
21 46 42
21 47 43
21 47 43
22 49 44
21 47 43
21 47 42
22 48 44
22 48 44
22 48 44
22 48 43
21 47 43
22 47 43
21 47 43
21 47 43
21 46 42
22 48 43
21 47 42
21 47 43
21 47 43
22 48 44
22 47 43
22 48 43
22 47 43
22 48 44
21 47 43
22 48 43
21 47 43
22 47 43
22 48 43
22 48 43
22 48 44
21 47 42
21 47 43
21 47 43
22 48 44
22 47 43
21 47 43
22 48 43
22 48 43
22 48 43
21 46 42
22 47 43
22 47 43
22 47 43
22 48 44
22 48 44
22 48 43
22 48 44
22 48 43
22 49 44
22 48 44
22 47 43
22 48 44
21 47 43
21 47 42
21 46 42
22 47 43
21 47 42
22 48 43
21 47 43
21 47 43
22 48 43
22 47 43
22 48 44
21 46 42
22 47 43
22 48 44
22 48 43
21 47 43
22 48 43
22 48 43
22 48 44
22 47 43
21 45 41
21 46 42
21 47 43
22 47 43
21 45 41
21 47 42
21 46 41
21 46 42
21 46 41
21 46 42
21 46 42
22 47 43
22 47 43
22 48 44
21 46 41
21 46 42
21 47 43
21 47 43
21 46 42
21 47 43
21 47 42
21 47 43
21 47 42
22 48 43
21 47 43
21 47 43
22 48 44
21 46 42
21 46 42
21 46 42
21 46 42
20 45 41
22 48 43
21 47 43
22 49 45
21 47 43
21 46 42
21 47 43
21 47 43
22 49 45
21 46 42
21 47 43
21 47 43
22 48 44
22 49 44
22 48 44
21 47 43
22 48 44
22 48 44
22 48 44
21 47 42
21 46 42
21 47 43
22 48 43
22 48 44
22 48 44
22 47 43
22 47 43
22 48 43
21 47 43
21 46 42
22 48 44
22 48 43
21 47 43
22 47 43
21 47 43
22 48 44
22 49 44
22 47 43
22 48 43
21 47 43
21 47 43
22 48 43
22 49 45
22 48 44
22 48 43
21 47 43
22 49 44
21 46 42
22 49 44
22 48 43
22 48 44
21 47 42
21 47 43
22 48 44
22 48 43
22 47 43
22 48 44
22 49 44
22 48 43
22 48 43
21 47 43
22 48 44
21 47 43
22 48 44
22 48 43
21 46 42
22 49 45
21 47 43
22 48 44
22 47 43
23 49 45
21 47 43
22 47 43
21 46 42
22 48 44
22 47 43
22 48 44
21 46 42
22 49 44
22 47 43
22 48 44
22 48 43
21 47 43
22 47 43
22 47 43
22 48 44
22 47 43
22 48 43
22 48 43
21 46 42
21 46 42
21 46 42
21 47 42
21 47 42
21 47 42
21 46 42
21 46 42
22 47 43
21 47 43
21 47 43
22 48 44
22 47 43
22 48 44
22 48 43
21 46 42
22 47 43
21 46 42
21 47 42
21 47 42
21 46 42
21 47 43
21 46 42
21 47 42
22 48 44
21 47 43
21 47 43
22 48 44
21 46 42
21 46 42
21 47 43
22 47 43
21 47 43
21 46 42
21 47 43
22 48 43
22 48 43
21 47 43
21 46 42
22 48 44
22 48 44
21 47 42
22 48 43
22 47 43
22 47 43
22 48 43
22 47 43
22 49 44
22 49 44
22 49 44
22 47 43
21 47 43
21 47 42
21 47 43
22 48 43
21 47 43
21 46 42
21 47 42
21 46 42
22 48 43
22 47 43
21 47 43
21 47 43
21 47 43
22 48 44
22 48 44
22 48 44
22 47 43
22 49 44
22 48 44
22 48 44
22 48 43
22 47 43
21 47 43
22 48 44
21 47 43
22 47 43
21 47 43
22 48 43
22 48 44
22 48 44
21 47 43
22 48 43
22 48 44
22 48 44
21 47 42
22 48 44
21 47 43
22 48 43
21 47 43
22 47 43
22 48 43
22 48 43
21 47 43
21 47 43
22 49 45
22 48 43
22 48 43
22 48 43
22 48 44
21 47 43
21 46 42
22 49 44
21 47 43
22 48 43
21 47 43
21 46 42
22 48 43
22 48 44
22 47 43
22 48 44
21 47 43
21 47 42
21 47 42
21 47 43
22 47 43
22 48 43
21 46 42
21 46 42
21 47 43
22 47 43
21 47 42
21 46 41
22 48 43
21 47 43
21 46 42
22 48 44
21 47 42
21 47 42
22 47 43
22 47 43
22 48 44
21 46 42
22 47 43
22 48 43
21 47 43
21 47 43
21 47 43
22 47 43
22 48 44
22 48 43
21 46 42
21 47 43
21 47 43
22 47 43
22 48 44
22 47 43
21 47 43
21 47 43
22 48 44
21 46 42
21 47 43
21 47 43
21 47 43
21 47 43
21 47 43
21 46 42
22 47 43
21 47 43
21 47 43
22 48 44
22 48 44
21 47 42
22 48 44
22 48 44
22 48 43
22 48 43
21 47 43
21 47 43
22 48 44
22 48 44
22 48 44
22 48 43
22 48 43
22 48 44
21 47 43
21 47 43
22 48 44
21 46 42
22 48 43
22 48 44
22 47 43
22 48 43
21 47 43
22 49 44
21 47 43
22 48 44
21 47 43
22 48 44
21 47 43
22 47 43
21 47 43
22 48 43
22 48 43
23 49 45
22 49 44
22 47 43
21 47 43
21 47 43
22 48 44
22 48 44
22 48 43
21 47 43
21 47 43
22 48 44
22 48 43
22 48 43
22 48 44
22 48 43
22 49 44
22 48 44
21 46 42
22 48 44
22 48 44
22 48 43
21 46 42
21 47 42
21 47 42
21 47 43
22 48 43
22 48 43
21 47 43
22 47 43
22 49 44
22 48 44
22 48 44
21 47 43
22 49 44
22 48 44
21 47 43
22 48 44
22 48 44
22 48 44
22 48 43
22 49 44
21 47 42
22 49 44
21 47 43
21 47 43
22 47 43
22 48 43
22 48 43
21 47 42
21 47 43
22 48 43
22 48 44
21 47 42
22 49 45
22 48 44
22 48 44
22 48 44
22 49 44
22 48 44
22 47 43
22 48 43
22 47 43
22 48 44
21 47 43
22 48 44
21 46 42
22 48 43
22 47 43
22 48 44
21 46 42
22 48 43
21 47 43
21 46 42
21 47 43
21 47 43
22 48 43
21 47 42
21 47 43
22 48 44
21 46 42
22 47 43
22 48 43
21 47 42
21 47 43
71 75 68
22 48 44
22 48 44
22 48 44
22 48 43
21 47 43
21 47 43
22 48 43
22 47 43
22 48 43
22 48 43
22 48 44
22 47 43
22 48 44
22 49 44
22 48 44
21 47 43
22 48 44
22 48 43
22 49 44
22 48 43
22 48 44
22 48 44
22 48 44
22 47 43
22 48 44
21 47 43
22 47 43
21 46 42
22 49 44
22 48 44
22 48 43
21 47 43
22 48 44
21 47 43
22 48 44
22 48 43
22 48 43
21 47 43
22 47 43
28 45 43
32 45 45
34 44 45
32 44 45
50 60 55
23 50 45
22 48 43
22 49 44
22 48 43
22 48 44
22 48 44
22 47 43
22 47 43
22 49 44
22 47 43
22 48 44
22 49 44
22 47 43
22 48 43
22 48 43
22 48 43
22 48 43
21 46 42
22 48 43
22 47 43
22 48 44
22 48 44
22 48 43
22 49 44
22 48 43
22 48 44
22 47 43
22 48 44
22 47 43
22 48 43
22 49 44
22 49 44
22 49 44
21 47 43
21 47 43
22 48 44
21 47 43
22 47 43
22 49 44
22 48 44
22 49 44
22 48 44
22 49 44
21 47 43
22 48 44
21 46 42
22 48 44
21 47 43
22 47 43
22 48 43
22 48 44
22 48 44
21 47 43
22 49 45
22 47 43
22 48 44
22 48 44
22 48 43
21 47 42
22 49 45
21 47 43
21 46 42
21 47 43
22 47 43
21 47 43
22 48 44
21 47 43
21 47 43
22 48 44
21 47 43
21 46 42
21 46 42
21 47 43
72 76 68
192 172 156
241 214 194
21 47 43
23 50 45
22 49 44
22 48 43
22 48 44
22 48 44
22 48 44
21 47 43
21 47 43
22 49 44
21 47 43
22 48 43
22 48 44
22 49 44
22 49 44
22 48 44
22 49 44
22 49 45
22 47 43
22 48 43
22 48 44
22 49 44
22 48 44
22 49 44
22 48 43
22 49 44
22 48 43
22 48 43
22 49 44
22 48 44
22 47 43
22 48 43
22 49 44
22 48 43
22 47 43
22 47 43
22 49 44
79 81 74
99 92 86
40 43 46
40 43 47
40 43 47
40 43 47
148 133 122
191 172 156
55 65 59
22 48 43
22 48 44
22 48 44
22 47 43
22 48 43
22 48 44
22 48 44
22 48 44
22 48 43
22 48 44
22 48 43
22 49 44
22 48 44
22 48 44
22 48 43
22 48 44
22 48 44
21 46 42
21 47 43
22 48 44
22 47 43
22 49 44
22 49 44
22 48 44
22 48 44
21 47 43
22 49 44
21 47 43
22 49 44
21 47 42
22 48 44
21 47 43
22 48 44
22 48 44
22 47 43
22 48 44
22 48 43
22 47 43
22 48 43
22 48 43
22 48 44
22 48 44
22 48 43
22 48 43
22 47 43
21 46 42
22 48 43
22 48 43
22 49 44
22 49 44
21 46 42
22 47 43
22 48 44
22 48 43
21 47 43
21 46 42
22 49 44
22 49 44
22 48 44
21 47 43
22 49 44
22 49 44
21 47 43
22 48 43
21 46 42
21 47 43
22 48 44
21 47 43
22 48 44
22 48 43
74 77 69
217 193 174
247 218 196
248 219 199
21 47 43
22 49 45
22 48 44
22 48 44
22 48 44
22 48 43
22 49 44
21 47 42
22 49 44
22 47 43
22 47 43
22 49 44
22 49 44
22 48 44
22 48 44
22 48 43
22 48 43
22 48 44
22 49 44
22 49 44
21 46 42
23 49 45
22 49 44
22 49 44
22 48 44
22 48 44
22 48 43
22 49 45
22 48 43
21 47 43
22 47 43
22 49 44
21 47 42
22 48 43
22 49 44
22 48 43
52 62 56
206 184 167
107 98 92
40 43 47
42 44 48
44 46 49
41 43 47
147 132 121
234 208 189
169 152 138
23 49 44
21 47 43
22 48 44
22 48 44
22 48 44
21 47 43
22 49 44
22 48 43
22 48 44
22 48 44
22 47 43
22 48 43
22 47 43
22 48 44
22 49 45
22 48 44
22 48 44
22 47 43
22 48 43
23 49 45
22 48 44
22 49 44
22 49 44
22 48 44
21 47 43
23 50 45
22 48 43
22 48 43
21 46 42
22 48 44
22 48 43
21 47 42
22 48 43
23 49 45
21 47 43
22 48 44
22 48 44
22 48 43
22 47 43
22 49 44
21 47 42
22 48 44
22 49 44
22 48 44
22 48 43
22 47 43
22 48 44
22 48 43
21 47 43
22 47 43
22 48 44
21 46 42
22 47 43
21 47 43
21 46 42
21 47 43
22 48 44
22 48 44
22 48 44
22 48 43
21 47 43
21 47 43
22 49 44
21 46 42
22 48 44
21 47 42
21 47 43
22 49 44
21 47 42
22 48 43
183 163 146
235 206 185
248 216 194
251 148 128
22 48 43
21 47 43
22 48 43
22 48 44
22 49 44
22 48 43
22 48 43
22 47 43
21 46 42
22 49 44
22 48 44
22 48 44
22 49 44
22 48 44
22 48 44
22 48 44
22 49 44
22 48 44
22 48 44
23 50 46
22 49 45
22 48 44
22 48 43
22 48 43
22 49 44
22 47 43
23 50 45
22 49 45
22 48 44
22 48 43
22 48 43
21 47 43
22 48 44
22 48 44
22 48 44
22 48 44
137 125 113
224 198 179
105 96 90
40 43 47
90 85 78
140 131 114
49 50 51
135 121 112
233 205 185
217 191 172
100 97 88
23 49 45
22 49 44
22 48 43
22 48 43
22 48 44
21 46 42
22 47 43
22 47 43
22 49 45
22 49 44
22 47 43
22 48 43
22 47 43
22 48 43
22 48 43
22 49 44
22 48 44
22 48 44
22 49 45
22 48 44
22 49 44
22 48 43
22 48 44
21 47 43
22 48 44
22 49 44
22 49 44
22 48 43
22 48 44
23 49 45
22 47 43
22 48 44
22 48 44
22 49 44
21 46 42
22 48 43
22 49 45
22 49 45
22 48 44
22 48 44
22 48 44
22 48 43
22 47 43
21 47 43
22 49 44
21 47 43
22 48 43
21 47 42
22 47 43
22 49 44
22 48 43
22 48 44
22 48 44
22 48 43
22 48 43
22 48 43
22 47 43
22 48 43
22 47 43
21 47 43
22 49 44
21 46 42
21 47 43
22 47 43
22 49 44
21 47 43
21 46 42
22 47 43
74 77 69
214 187 167
230 197 176
243 127 107
252 95 71
22 48 43
22 48 44
22 48 44
22 47 43
22 47 43
22 48 43
22 48 43
22 47 43
22 48 44
22 48 43
22 49 44
22 47 43
22 48 43
21 47 43
21 47 43
22 48 43
22 48 43
22 48 44
22 48 43
23 50 45
23 49 45
22 49 44
22 48 44
21 47 42
22 48 44
22 48 43
22 48 44
23 49 45
23 49 45
22 48 44
22 48 43
22 49 44
22 48 44
22 48 43
22 48 43
27 51 47
173 155 140
216 191 171
116 104 95
39 42 45
60 59 57
90 85 77
43 45 47
130 117 107
227 200 181
208 182 164
132 120 108
22 48 44
22 48 43
22 49 44
22 49 44
22 48 43
22 48 43
21 46 42
22 47 43
22 48 44
22 47 43
22 47 43
22 48 44
22 48 43
22 49 44
22 48 43
22 49 44
23 49 45
22 49 44
22 48 44
22 47 43
76 59 47
146 79 54
158 84 56
133 94 77
44 60 54
22 49 44
22 48 44
22 48 43
22 48 43
22 48 44
23 49 45
22 48 43
23 50 45
22 49 44
22 48 43
22 48 44
22 47 43
22 47 43
22 49 44
22 49 44
22 49 44
22 48 44
22 48 43
21 47 43
22 48 43
22 49 44
22 48 43
21 47 43
21 47 42
22 48 43
22 48 44
22 48 44
21 47 43
22 49 44
22 48 43
22 48 44
21 47 43
22 49 44
22 47 43
21 47 43
22 47 43
21 47 42
21 47 42
22 48 44
22 48 44
21 46 42
22 48 43
22 48 44
87 85 76
194 165 145
219 124 105
227 74 51
234 76 53
22 48 43
22 48 44
22 49 44
22 48 44
21 47 43
22 49 44
22 49 44
22 49 44
22 48 44
22 48 43
22 49 44
22 47 43
22 48 43
23 49 45
22 49 45
23 50 45
21 47 42
21 47 42
22 48 43
22 47 43
22 49 44
22 48 44
22 49 44
22 49 44
22 47 43
22 48 43
22 48 44
22 47 43
22 48 43
22 49 44
21 47 42
22 48 44
22 49 44
22 48 43
22 49 44
30 52 47
163 145 130
200 177 158
123 110 100
37 39 42
37 40 42
37 39 42
37 39 41
102 91 83
205 179 159
181 159 141
127 116 104
22 48 44
22 47 43
22 49 44
22 48 44
21 47 42
22 48 44
22 48 43
22 49 44
22 49 44
22 48 44
22 48 43
22 49 44
22 49 44
23 49 45
22 48 43
22 47 43
21 47 43
22 48 44
72 56 45
201 99 62
255 124 73
255 127 75
255 126 74
255 126 75
231 152 124
135 123 112
22 48 44
22 48 43
22 48 43
22 48 44
22 47 43
23 49 45
22 48 43
22 48 44
22 48 44
23 49 45
21 47 43
23 51 46
22 48 44
22 47 43
22 48 43
22 48 43
22 48 44
22 49 45
22 48 44
22 48 43
22 48 44
22 49 44
22 48 44
22 47 43
22 48 44
22 49 44
22 48 44
22 48 44
22 49 44
22 49 44
21 47 43
21 47 43
22 49 45
22 49 44
21 47 43
22 48 44
22 47 43
22 48 44
21 47 42
21 47 43
22 48 43
22 48 43
75 77 69
180 102 86
195 63 43
210 68 47
215 69 48
22 47 43
22 49 44
22 49 44
22 48 43
22 48 43
22 48 44
22 49 45
23 50 45
22 49 44
22 48 44
22 48 44
22 48 43
21 47 43
22 48 44
22 48 44
22 48 43
22 48 44
22 49 44
22 49 44
22 47 43
21 47 43
22 48 44
22 48 44
22 47 43
22 48 44
22 48 43
22 49 44
22 48 44
23 49 45
23 49 45
22 48 43
22 49 44
22 48 44
22 48 43
21 47 43
26 50 45
130 117 105
176 155 138
118 105 96
33 34 36
33 35 37
33 35 37
32 34 36
75 66 61
183 160 142
159 137 121
108 98 88
22 47 43
22 47 43
22 48 44
22 47 43
23 50 45
22 48 44
22 48 43
22 47 43
22 48 44
22 48 44
22 49 44
22 47 43
22 49 44
22 48 43
22 48 44
21 47 43
22 47 43
56 52 44
221 107 64
255 126 74
255 127 75
255 128 75
255 127 75
255 126 74
255 124 73
244 163 135
141 130 118
22 49 44
22 49 44
22 49 44
22 48 43
22 48 43
22 47 43
22 49 44
22 47 43
22 49 45
22 49 44
22 49 45
22 49 44
22 48 44
23 49 45
22 49 44
22 48 43
22 49 44
22 48 44
22 48 44
22 48 43
22 48 43
22 48 43
22 48 44
22 48 43
22 49 44
22 49 45
22 48 43
22 48 43
22 48 44
21 47 42
22 47 43
22 48 43
22 48 44
21 47 42
22 47 43
22 48 43
21 47 42
21 46 42
22 48 43
21 47 42
21 47 42
29 46 42
137 45 30
169 54 37
184 59 40
190 61 42
23 50 45
22 48 44
22 48 43
22 47 43
22 48 44
22 48 43
22 48 43
22 48 43
22 49 44
22 48 44
22 48 44
22 48 44
22 49 44
22 48 44
22 48 44
23 50 45
22 48 44
22 49 44
22 47 43
22 48 44
22 48 43
22 49 45
22 48 44
22 49 44
22 49 44
22 49 44
22 48 43
22 49 44
22 49 44
22 49 44
22 47 43
22 47 43
22 48 43
22 48 43
22 47 43
22 48 43
99 94 86
141 126 111
114 101 90
28 30 31
28 30 32
28 29 31
28 30 32
40 38 37
142 125 110
122 108 96
58 63 57
21 47 43
22 48 43
22 47 43
22 47 43
22 48 43
22 48 44
22 47 43
22 48 43
23 49 45
22 49 44
23 49 45
22 48 44
22 48 44
22 48 44
22 48 43
23 50 45
22 47 43
172 147 131
235 195 173
255 173 143
255 128 77
255 147 97
255 145 95
255 126 74
255 124 73
253 122 73
220 172 151
85 86 78
22 49 44
23 50 45
22 49 44
21 46 42
23 49 45
22 48 44
22 47 43
22 47 43
22 49 44
22 49 45
22 49 44
23 49 45
22 49 44
22 48 44
22 48 43
21 47 42
22 48 44
21 47 42
22 48 44
22 48 44
22 49 45
22 48 43
22 49 44
22 48 44
22 47 43
22 48 44
22 47 43
22 48 43
22 48 44
22 49 44
22 47 43
21 46 42
21 46 42
22 48 44
22 48 43
21 47 42
21 47 42
21 46 42
22 47 43
21 45 41
21 45 40
82 37 29
122 39 26
148 47 32
160 51 34
22 49 44
22 49 44
22 49 44
22 49 44
22 48 44
22 49 44
22 49 44
22 49 44
22 48 44
22 48 43
24 51 47
23 50 46
23 49 45
22 48 44
22 47 43
22 49 44
22 48 44
22 49 44
22 47 43
23 50 45
22 48 44
22 49 44
22 49 44
22 48 43
23 50 45
22 49 44
22 49 44
21 47 43
22 47 43
22 49 44
22 48 44
22 47 42
22 49 44
22 47 42
22 47 42
21 46 41
41 52 47
95 88 77
83 75 65
21 23 24
23 24 25
22 23 24
21 22 23
19 20 21
99 84 71
83 73 63
19 40 37
21 46 41
21 46 42
22 48 43
22 48 43
22 48 44
22 48 43
22 48 43
22 48 43
22 49 44
22 48 44
22 48 44
22 48 43
22 49 44
22 48 43
22 48 44
22 48 44
49 61 55
205 181 162
229 202 181
240 212 191
252 185 157
255 160 111
255 163 114
255 125 73
255 122 71
249 118 69
223 124 90
152 136 123
22 48 44
22 48 43
22 48 43
22 49 44
22 49 44
22 47 43
22 48 44
22 49 44
22 48 44
22 49 44
23 50 45
22 49 45
22 48 44
22 48 44
22 49 44
22 49 44
22 48 43
22 49 44
23 49 45
22 49 44
22 49 44
22 49 45
23 50 45
22 48 43
21 47 43
22 48 44
22 48 44
22 47 43
22 48 44
22 48 43
22 48 44
21 47 43
22 48 44
22 48 43
22 48 43
21 47 42
22 47 42
21 47 42
21 46 42
21 45 40
20 44 39
22 38 34
62 25 19
88 29 19
99 32 21
21 47 43
21 47 43
22 49 44
22 48 43
22 49 44
22 48 44
22 48 43
23 49 45
23 50 45
22 48 44
22 49 44
22 49 44
23 49 45
22 49 44
22 48 44
22 48 44
22 49 44
22 49 44
22 48 43
23 49 45
23 50 45
22 48 44
23 50 45
22 49 45
22 49 44
23 49 45
22 49 44
22 48 43
21 47 42
22 49 44
22 48 44
22 48 44
22 47 43
22 47 42
22 47 42
20 43 39
16 37 34
34 40 35
44 45 35
12 13 13
13 14 14
11 12 12
10 11 11
9 10 10
44 44 35
21 31 27
15 34 32
20 43 39
22 47 42
21 46 41
21 46 41
21 47 42
21 47 42
22 48 43
23 50 45
22 49 44
22 48 44
22 48 43
22 48 43
23 50 45
22 48 44
22 48 44
22 49 44
91 89 80
196 172 154
209 184 164
227 199 179
229 202 181
244 168 139
253 120 71
249 118 68
246 116 68
229 120 81
211 110 73
165 131 115
22 48 43
21 47 42
22 49 44
22 48 44
22 49 44
22 49 44
21 47 42
22 48 43
22 48 44
22 48 43
22 47 43
22 49 44
22 48 44
22 48 43
22 49 44
22 48 44
22 48 44
22 48 43
22 48 43
23 50 45
22 49 44
22 48 44
22 48 44
22 48 44
22 48 44
22 48 43
22 48 43
22 48 44
22 48 44
22 48 43
22 49 44
22 48 44
23 49 45
22 48 43
22 47 42
22 48 43
22 48 43
21 47 42
21 44 40
22 46 41
20 42 38
19 40 36
16 28 25
36 17 13
41 17 11
22 49 44
23 50 45
22 49 44
22 47 43
22 48 44
23 50 46
22 49 45
23 50 45
22 49 44
22 48 43
22 48 44
22 48 44
22 48 44
22 49 44
22 49 44
22 48 44
22 49 44
22 48 43
22 49 44
22 48 43
22 48 44
22 48 44
23 49 45
23 50 45
23 50 46
23 49 45
22 47 43
22 49 44
22 49 44
22 48 44
21 46 42
23 50 45
21 46 42
22 48 43
22 47 42
21 46 41
17 38 34
12 27 25
22 28 23
6 11 10
5 7 6
7 8 7
7 8 7
6 10 10
8 19 18
12 28 26
18 39 35
20 44 39
21 46 41
22 47 42
22 47 42
22 48 43
22 48 44
22 47 42
22 48 43
22 49 44
22 48 44
23 49 44
22 49 44
22 47 42
21 46 42
22 47 43
22 49 44
68 72 64
171 151 135
194 171 152
205 180 161
216 190 169
217 190 169
232 124 86
229 108 63
199 117 87
175 153 137
145 126 113
148 105 89
22 48 43
22 47 42
22 49 44
22 48 44
23 49 45
23 50 45
22 48 44
22 48 44
22 49 44
22 49 44
22 48 44
22 48 44
22 48 43
22 48 44
22 49 44
22 48 43
22 47 43
23 49 45
22 49 44
22 48 44
22 48 43
22 48 44
22 49 44
23 49 45
22 49 44
22 48 43
22 49 44
22 48 43
22 48 43
22 47 43
22 48 44
21 46 42
22 49 44
22 49 44
22 47 43
22 47 42
21 46 42
22 47 42
21 45 41
21 45 40
21 44 39
20 42 38
19 40 35
16 34 30
18 27 24
22 48 43
22 49 45
22 49 44
22 49 44
22 49 44
22 48 44
22 48 44
22 48 44
22 48 44
22 49 44
21 47 43
23 50 45
22 48 44
22 49 45
22 48 44
23 50 45
23 50 45
22 48 43
23 50 45
22 49 44
23 50 45
23 49 45
22 49 44
23 50 45
22 49 44
23 49 45
22 48 43
22 48 44
23 49 45
22 48 43
22 48 43
22 47 42
21 46 42
22 48 43
22 47 42
21 45 40
19 42 37
18 39 35
14 30 27
11 25 23
8 19 17
9 19 18
11 24 22
12 27 25
17 37 33
19 42 37
21 45 40
22 47 42
22 47 42
22 47 43
22 47 42
23 49 44
21 46 42
22 48 43
22 48 44
22 48 44
22 48 44
21 47 42
22 48 43
21 47 42
22 48 43
22 49 44
22 48 44
44 57 52
139 124 109
169 150 133
183 161 143
192 169 150
194 171 152
200 149 126
205 104 68
153 131 116
156 138 123
125 112 101
99 76 65
22 47 43
22 49 44
22 48 44
23 50 45
22 49 44
23 50 45
22 49 44
23 50 45
22 49 44
22 48 44
22 49 44
22 48 44
22 48 44
22 49 44
22 47 43
23 49 45
23 50 45
22 48 44
22 48 43
22 48 44
22 49 44
22 49 44
23 50 45
22 48 44
23 50 45
22 48 43
22 48 44
22 48 44
22 49 44
22 48 44
22 49 44
22 48 44
21 47 43
22 48 43
22 48 43
23 49 44
21 46 41
22 48 43
22 47 42
21 45 40
21 46 41
21 45 40
20 43 38
21 45 40
20 42 37
22 48 44
22 49 44
22 49 44
22 49 44
23 49 45
23 50 45
22 48 44
23 51 46
22 49 44
22 49 44
23 50 45
23 50 45
22 49 44
23 50 45
22 48 44
22 49 44
22 48 44
22 49 44
22 48 44
22 48 43
22 48 43
22 48 43
23 49 45
22 48 44
22 48 44
22 48 43
22 48 43
22 48 43
22 48 44
22 48 44
22 49 44
22 48 43
22 47 43
22 47 42
22 47 42
21 46 42
21 45 41
21 46 41
20 44 39
20 43 38
20 43 38
20 43 38
20 44 39
21 45 40
21 46 41
21 45 40
22 47 41
22 47 42
22 48 43
22 48 43
22 48 44
23 49 44
22 48 43
22 49 44
22 48 43
22 47 43
23 49 44
22 48 44
22 49 44
22 48 43
22 47 43
22 48 43
21 46 42
21 46 42
91 86 76
134 120 106
146 129 113
164 144 128
170 150 133
161 138 121
170 99 73
123 110 97
93 84 75
98 89 81
80 54 42
21 47 42
22 47 42
22 49 44
23 49 44
22 49 44
22 48 44
23 50 45
22 48 43
21 47 43
22 48 44
22 49 45
22 49 45
22 49 44
22 48 44
22 48 44
23 50 45
22 48 44
23 50 45
21 47 43
23 49 45
22 49 44
22 48 44
22 49 44
22 47 43
22 49 44
22 49 44
22 48 44
23 50 45
22 48 44
22 49 44
22 49 44
22 48 43
22 47 43
22 47 43
22 48 44
21 46 42
22 47 42
22 48 43
22 48 43
22 47 42
21 47 42
22 47 43
22 47 42
21 46 41
21 45 41
22 49 44
22 48 44
22 48 43
22 49 44
22 49 44
22 49 44
22 48 44
22 49 44
23 50 45
22 48 43
22 49 44
22 48 43
23 50 46
22 49 44
22 49 44
22 47 43
23 49 45
22 48 44
22 49 44
23 49 44
22 49 44
22 49 44
22 49 44
23 49 45
22 47 43
23 49 44
22 49 44
22 48 43
22 48 44
23 50 45
22 48 43
22 49 44
22 48 43
22 48 43
22 47 42
22 48 43
21 46 41
22 47 42
22 47 42
22 48 43
22 47 42
22 47 42
21 46 41
21 46 41
22 48 43
22 47 42
22 48 43
22 49 44
22 49 44
22 49 44
22 48 43
22 48 43
23 49 44
22 48 43
22 49 44
22 48 43
22 48 43
23 49 44
22 48 43
22 49 44
21 46 42
22 48 43
22 48 43
21 46 41
36 47 40
90 82 71
108 97 84
110 98 83
119 106 92
120 107 92
117 69 50
83 74 64
65 62 54
62 47 38
38 39 34
19 41 37
20 45 40
22 47 43
22 48 43
22 48 44
22 48 43
21 47 42
22 48 43
22 49 44
22 47 43
22 49 44
22 48 44
22 47 43
22 48 43
22 48 44
22 48 44
23 50 45
23 49 45
23 50 45
22 49 44
22 48 44
22 48 43
22 49 44
22 48 43
22 49 44
22 48 44
22 48 43
22 49 44
22 48 44
22 48 43
22 48 44
22 48 43
22 48 44
23 49 45
22 48 43
22 47 43
22 48 44
22 48 43
22 48 44
22 48 44
22 48 43
22 48 44
22 48 44
22 48 43
22 47 42
22 49 44
22 48 44
23 49 45
23 50 45
22 47 43
22 49 44
22 49 44
23 49 45
23 51 46
22 49 44
23 50 45
22 48 44
22 49 44
22 49 44
23 50 45
23 51 46
23 50 45
23 50 45
23 50 45
22 48 44
22 49 44
23 50 45
22 49 44
23 49 45
23 50 45
22 48 43
22 48 43
23 50 45
22 49 44
23 49 44
22 48 43
22 48 43
22 49 44
22 49 44
22 48 43
22 49 44
22 48 44
22 48 44
22 47 42
23 50 45
22 47 42
21 47 42
22 48 43
22 49 44
23 49 45
22 48 43
22 49 44
22 48 44
22 48 43
22 48 44
22 47 42
21 46 42
22 48 43
22 48 43
23 49 44
22 49 44
22 48 44
22 47 43
21 47 42
22 48 44
22 48 43
21 46 41
21 46 41
20 44 40
16 35 32
44 45 39
53 52 40
59 56 44
60 56 44
60 57 46
57 38 27
58 31 16
63 39 27
22 27 24
14 32 30
16 36 33
21 46 41
21 46 41
21 47 42
22 49 44
22 49 44
22 49 44
22 48 44
21 47 42
22 48 43
22 48 44
23 51 46
22 48 43
22 49 44
22 49 44
23 50 45
23 49 45
22 48 44
22 48 44
23 50 45
22 48 43
21 47 42
22 48 43
22 49 45
22 49 44
22 48 43
22 47 43
22 47 43
22 48 43
22 47 43
22 48 43
22 49 44
21 47 42
22 47 42
22 49 45
22 47 43
23 49 44
22 48 43
22 47 43
22 48 43
22 48 43
22 47 43
22 48 43
22 47 43
22 47 43
23 50 45
22 48 44
22 48 44
22 49 44
23 51 46
22 48 44
23 50 45
22 49 45
22 48 44
22 49 44
22 48 44
22 49 44
23 50 45
23 50 45
23 50 46
23 49 45
23 49 45
22 48 43
23 50 45
22 48 44
22 49 44
23 51 46
23 51 46
22 49 45
23 50 45
22 47 43
22 49 44
23 50 45
22 48 43
22 48 43
23 50 45
22 49 44
22 49 44
22 47 43
22 48 43
23 49 44
22 49 44
22 48 44
22 47 43
22 48 44
22 49 44
22 48 43
22 49 44
22 49 44
22 48 43
22 49 44
22 48 43
22 49 44
22 48 44
22 49 44
23 49 45
22 48 43
23 50 45
22 47 43
22 47 43
23 49 44
22 49 44
22 48 43
21 46 42
22 48 43
22 48 43
22 49 43
21 46 41
21 45 40
18 40 36
12 27 25
16 23 19
28 32 24
31 35 25
38 38 27
41 26 15
24 17 11
12 23 22
11 25 24
14 32 29
19 41 37
21 46 41
22 48 43
22 48 43
22 48 43
23 49 44
22 48 44
22 48 43
23 50 45
21 47 42
23 49 45
22 47 43
22 48 43
22 49 44
22 48 44
23 49 45
22 49 44
22 49 44
23 49 45
23 50 45
22 49 44
22 48 44
23 50 45
22 48 43
22 49 44
22 49 45
22 48 43
22 49 44
22 49 44
23 49 45
22 49 44
22 49 44
22 48 44
22 48 44
22 48 44
22 48 44
22 48 43
22 48 43
22 49 45
22 48 43
23 49 44
22 48 44
21 46 42
22 48 44
21 47 42
23 49 45
22 48 43
22 48 44
22 49 45
22 49 44
22 49 44
22 49 44
23 49 44
22 48 43
22 48 44
23 50 45
22 48 43
23 50 45
22 49 44
22 48 44
22 48 44
23 50 45
22 49 44
22 49 44
22 49 44
22 49 44
22 49 44
22 49 44
22 48 44
23 50 45
22 48 43
23 49 45
22 49 44
22 48 43
22 49 44
23 50 45
22 49 44
23 49 45
22 48 44
23 50 45
21 47 42
22 49 44
23 49 44
22 48 43
22 48 43
23 50 45
22 47 43
22 49 44
23 49 44
22 49 44
23 50 45
22 49 44
22 49 44
22 49 44
22 49 44
22 49 44
23 50 45
22 48 44
22 49 44
22 48 43
22 48 43
22 47 42
22 48 43
23 49 44
22 49 44
22 48 43
22 48 43
21 47 42
21 46 40
21 45 40
19 42 37
15 33 29
12 27 25
10 22 20
8 18 17
10 23 21
11 24 22
14 29 27
17 36 33
19 42 37
21 46 41
21 45 41
21 46 41
22 47 43
22 48 43
22 49 44
23 50 45
22 49 44
22 49 44
23 49 45
22 49 44
22 48 44
23 49 45
23 50 45
22 48 43
22 47 43
23 50 45
22 49 44
22 48 44
23 49 45
22 49 44
22 49 44
22 49 45
22 48 44
22 48 44
22 48 44
22 49 44
23 49 45
23 50 46
22 48 44
22 49 44
22 49 44
22 48 43
22 48 43
21 47 42
22 48 43
22 49 44
22 47 43
22 48 44
22 48 44
22 48 43
22 47 42
22 48 43
22 48 44
22 49 45
22 49 45
23 49 45
23 49 45
23 50 45
23 49 45
23 50 45
22 48 43
22 49 44
23 49 45
23 49 44
22 49 44
23 50 46
22 48 44
22 49 44
23 50 45
23 50 45
23 50 45
23 49 45
23 50 45
22 48 43
23 50 45
22 48 43
22 48 43
22 48 43
22 48 44
22 49 44
23 49 45
23 50 45
23 50 45
22 49 44
23 49 44
23 49 45
22 48 43
22 49 44
22 49 44
22 49 44
23 49 44
22 49 44
23 49 45
22 48 43
22 49 44
22 49 44
24 52 47
21 47 42
22 48 44
22 48 43
23 50 45
22 49 44
23 50 45
22 48 44
22 49 44
22 49 44
23 51 46
22 49 44
23 51 46
22 49 44
22 48 44
22 49 44
22 48 44
22 48 43
22 49 44
22 49 44
23 49 44
22 47 42
21 45 40
21 45 40
21 45 40
21 45 40
20 43 38
19 41 36
21 44 39
21 45 40
21 45 40
21 45 40
22 48 43
21 46 41
22 48 43
23 50 44
21 46 41
22 49 44
22 49 44
22 48 43
23 50 45
22 48 43
22 48 44
23 50 45
22 49 44
22 47 43
23 50 45
22 48 44
22 49 44
22 49 44
22 49 44
23 50 45
23 50 45
22 48 43
22 49 44
23 49 45
22 48 43
22 49 45
23 50 45
22 49 44
22 49 44
21 47 42
22 49 44
22 49 44
23 49 45
21 47 42
22 48 43
22 49 44
23 49 45
22 48 44
22 47 43
22 48 44
22 47 43
22 48 44
22 48 43
22 48 44
22 48 44
22 48 44
22 49 44
22 49 44
22 48 43
22 49 44
22 49 44
23 50 45
22 49 44
23 50 45
22 48 44
23 50 45
23 50 45
22 49 44
22 48 44
22 49 44
22 47 43
23 50 45
23 49 45
22 49 44
22 49 44
23 50 45
22 49 44
23 50 45
22 49 44
22 49 44
22 49 44
22 49 44
22 48 44
23 50 45
22 49 44
22 49 44
22 48 44
22 49 44
23 50 45
23 49 45
23 49 45
22 48 44
22 48 44
22 49 44
22 49 44
23 50 45
23 50 45
22 49 44
22 49 44
22 48 43
22 48 44
23 50 45
23 50 45
22 49 44
22 49 44
23 49 44
23 50 45
23 50 45
23 49 45
22 48 44
23 49 44
22 48 43
22 49 44
22 48 44
22 49 44
23 50 45
22 48 44
23 49 44
22 48 43
22 48 43
22 47 42
22 48 43
21 46 41
22 48 43
22 48 42
21 46 41
22 47 42
22 48 43
22 47 42
22 47 42
22 47 42
22 48 43
22 47 42
22 48 43
23 49 44
23 49 44
22 49 44
22 48 44
22 48 43
22 48 43
22 48 44
23 49 45
23 50 45
22 48 44
22 47 43
22 48 44
23 49 45
22 48 44
22 48 44
22 49 44
23 50 45
22 49 44
22 48 44
22 49 44
22 48 43
22 49 44
22 47 43
22 48 44
22 49 44
23 49 45
22 49 44
22 47 43
22 47 42
22 49 44
22 48 43
22 48 44
22 48 44
23 50 45
22 48 44
22 48 43
21 46 42
22 49 44
21 47 43
22 48 43
22 48 43
22 48 43
23 49 45
22 49 45
22 49 44
22 48 43
23 49 45
23 51 46
22 49 44
23 49 45
22 49 44
22 49 44
23 50 45
23 50 45
22 49 44
22 49 44
22 49 44
23 49 44
23 50 45
22 48 44
23 49 45
22 48 44
22 49 44
22 48 43
23 50 45
23 50 45
22 49 44
23 51 46
23 50 45
24 52 47
22 49 44
23 50 46
22 48 44
23 50 46
22 49 44
23 49 44
23 50 45
23 51 46
22 49 44
23 50 45
22 49 44
23 49 45
23 49 45
23 49 45
23 50 45
22 49 44
23 50 45
23 50 45
23 49 44
23 51 46
22 48 43
22 49 44
22 49 44
23 49 45
22 49 44
23 50 45
22 49 44
23 50 45
23 49 44
23 51 46
22 48 43
22 49 44
22 49 44
22 49 44
23 50 45
22 47 42
23 49 44
21 47 42
22 48 44
21 46 41
22 47 43
22 49 44
22 47 43
22 47 42
21 46 42
23 49 44
22 48 43
22 48 43
23 49 44
22 47 42
23 50 45
22 49 44
22 48 44
22 48 43
22 49 44
21 46 42
22 49 44
22 48 44
23 49 45
22 49 44
23 49 45
23 49 44
22 49 44
23 50 45
22 49 44
22 49 44
23 51 46
22 48 44
23 50 45
22 48 43
22 49 44
23 51 46
23 49 45
22 49 44
22 49 44
22 48 44
22 48 44
23 49 45
22 48 44
23 50 45
22 49 45
23 50 45
22 47 43
22 48 43
22 48 43
23 50 45
22 49 44
22 47 43
22 47 43
22 48 43
22 48 44
22 48 44
23 50 45
22 49 44
22 49 44
23 50 45
23 51 46
23 51 46
22 48 43
22 48 43
23 49 45
22 49 44
23 49 45
22 49 44
22 48 43
22 48 43
22 48 43
22 49 44
23 51 46
22 48 43
23 49 45
22 48 44
23 50 45
22 49 44
23 50 45
23 50 45
23 50 46
23 50 45
22 47 43
23 50 45
23 50 45
22 49 44
23 50 45
22 49 44
22 49 44
23 50 46
23 50 45
22 49 44
23 49 45
22 48 44
23 50 45
22 49 44
23 50 45
22 49 44
22 49 44
23 51 46
23 49 45
23 49 45
22 49 44
22 49 44
22 49 44
23 49 45
21 47 43
23 50 45
22 49 44
23 49 45
23 50 45
22 48 44
23 49 44
22 48 43
23 50 45
22 48 43
23 50 45
23 50 45
23 50 45
23 49 44
22 48 44
22 49 44
23 49 44
23 50 45
23 50 45
23 49 44
22 48 43
22 48 44
22 49 44
23 49 44
22 48 44
22 49 44
23 50 45
22 47 43
23 49 45
22 49 44
22 48 43
23 49 44
22 49 44
22 49 44
22 48 43
22 49 44
22 49 44
22 48 44
22 48 44
23 50 45
22 48 44
23 51 46
23 49 45
23 49 44
22 49 44
22 49 44
22 49 44
22 47 43
23 50 46
22 49 44
22 48 43
22 48 44
22 49 44
22 49 44
22 49 44
22 48 44
22 49 44
23 50 45
23 49 45
22 49 44
22 48 44
22 47 43
22 48 44
22 49 44
23 51 46
23 50 45
22 48 43
22 48 43
23 50 45
23 49 45
23 50 45
22 48 44
22 49 44
22 49 45
23 49 44
23 49 45
22 49 44
22 48 44
23 49 45
23 50 45
23 50 45
22 48 44
23 49 45
23 50 45
23 50 45
22 49 44
22 48 43
23 49 45
23 50 45
23 50 45
23 50 45
23 49 45
23 50 45
23 50 45
23 50 45
22 49 44
23 50 45
23 51 46
23 51 46
23 49 45
23 50 45
23 50 45
23 51 46
23 51 46
22 49 44
22 48 44
22 49 44
22 48 44
22 48 44
23 50 45
23 50 45
22 49 44
23 50 45
22 48 43
22 49 44
23 49 45
23 49 45
23 50 45
23 50 45
23 50 45
23 51 46
22 48 43
22 49 44
23 49 45
22 48 44
23 50 45
24 52 47
22 48 44
22 48 43
23 50 45
23 49 44
23 50 45
23 49 44
22 48 43
23 50 45
23 49 44
22 48 44
23 49 44
23 50 45
22 47 43
23 49 44
23 49 44
22 48 43
23 50 45
22 48 43
23 49 44
22 49 44
23 49 45
23 50 45
23 49 44
23 50 45
23 49 45
23 50 45
22 49 44
23 49 45
22 49 44
23 49 45
22 48 43
23 50 45
22 48 44
23 50 45
23 49 44
23 49 44
22 49 44
22 49 44
23 50 45
22 49 44
22 49 44
23 50 45
22 49 44
23 49 44
22 49 44
22 48 44
23 50 45
23 50 45
22 49 45
22 48 43
23 49 45
22 49 44
22 49 44
23 49 45
23 50 45
22 49 44
23 50 46
22 49 44
22 48 44
22 48 43
22 48 44
22 49 44
23 49 45
22 49 44
23 49 45
23 49 45
22 48 43
23 51 46
23 50 45
22 49 44
23 50 45
23 50 46
22 49 44
23 50 46
23 50 45
23 50 45
23 51 46
23 49 45
23 49 44
23 50 45
23 50 45
23 50 45
22 49 44
23 49 44
23 50 45
24 51 46
23 49 45
23 50 45
23 49 45
23 49 45
22 48 43
22 49 44
23 49 45
22 48 44
22 48 43
23 50 45
23 49 45
23 49 45
23 50 45
23 51 46
23 50 45
23 49 45
23 51 46
23 50 45
23 50 46
23 50 45
22 49 44
23 50 45
23 50 45
23 50 46
22 49 44
23 50 45
22 48 43
24 51 46
23 49 45
23 50 45
23 50 45
23 50 45
22 49 44
23 50 45
23 50 45
23 51 46
22 48 43
23 49 45
23 50 45
23 50 45
23 49 44
23 50 45
23 50 45
23 49 44
22 48 43
23 50 45
23 50 45
23 49 44
23 51 46
22 49 44
23 51 46
23 51 46
22 49 44
22 49 44
22 49 44
23 50 45
22 49 44
22 49 44
22 49 44
22 48 44
22 49 44
22 48 44
23 50 45
22 49 44
22 49 45
22 48 43
23 50 45
23 51 46
23 50 45
22 48 44
23 49 45
22 48 43
23 50 46
22 49 44
23 50 45
22 49 44
22 49 44
23 50 45
23 49 44
23 49 45
23 49 45
23 51 46
22 49 44
23 51 46
23 50 45
22 49 44
23 50 45
22 48 44
22 48 44
21 47 42
22 49 44
23 49 45
22 49 44
22 48 44
22 48 43
23 49 45
22 49 44
