P3
120 80
255
17 40 38
17 40 37
17 38 36
17 39 37
17 39 37
17 40 37
17 40 37
17 39 37
17 39 37
17 39 37
17 39 37
17 39 37
17 39 37
17 40 38
17 39 36
17 38 36
17 39 37
17 39 36
17 39 37
17 39 37
18 40 38
17 40 37
17 39 37
17 39 36
17 39 36
17 40 37
18 40 38
17 40 37
17 39 37
17 40 38
17 40 38
17 38 36
17 39 37
17 39 37
17 38 36
17 39 37
17 39 37
17 39 37
17 39 37
18 40 38
17 38 36
17 40 38
17 40 38
17 40 37
17 39 37
17 39 37
17 39 37
17 40 37
17 39 37
17 40 37
17 38 36
17 39 37
17 38 36
17 39 37
17 40 37
17 39 37
17 39 37
17 39 37
17 38 36
18 40 38
17 40 37
17 39 37
17 39 37
17 39 37
17 40 37
18 41 38
17 39 36
17 38 36
17 39 36
17 39 37
17 39 36
17 39 37
17 38 36
17 39 36
17 39 37
17 39 36
17 39 37
17 39 37
17 40 37
17 39 37
17 40 37
17 39 37
17 40 37
17 39 37
17 39 37
17 39 37
17 39 37
17 38 36
17 39 37
17 39 37
17 39 36
17 39 37
17 39 37
17 39 36
17 39 36
17 39 37
17 39 37
17 39 36
17 39 37
17 39 37
17 39 37
17 39 37
17 39 37
17 39 37
17 39 37
17 38 36
17 40 37
17 40 37
17 39 37
17 39 36
17 39 37
17 40 37
17 39 37
17 39 37
17 39 37
17 40 38
17 39 37
17 39 37
17 39 37
17 40 37
17 39 37
17 39 36
17 39 37
17 40 38
17 40 37
17 40 37
17 38 36
17 40 37
18 40 38
17 39 37
17 40 37
17 39 37
17 39 37
17 39 37
18 41 38
17 40 37
17 39 37
17 39 37
17 39 37
18 40 38
17 40 37
17 39 37
17 40 37
17 40 37
17 39 36
18 40 38
17 39 37
17 39 37
17 39 37
18 40 37
17 40 37
18 40 38
17 38 36
17 39 37
17 39 37
17 40 37
17 39 37
17 39 37
17 39 36
17 40 38
17 39 37
18 40 38
17 40 37
17 40 38
18 40 38
17 39 37
17 39 37
17 40 37
17 39 37
17 39 36
17 39 37
17 39 37
17 39 37
17 40 37
17 39 37
17 39 37
17 39 37
17 39 37
17 39 37
17 40 37
17 39 37
18 40 38
17 40 38
17 39 36
17 38 36
17 40 37
18 40 38
17 39 36
17 39 37
17 39 37
18 40 38
17 39 37
17 39 37
18 41 38
17 38 36
18 40 38
17 40 38
17 39 37
17 39 37
18 40 38
17 39 37
17 40 37
17 40 37
17 38 36
17 40 37
17 39 37
17 39 37
18 40 38
18 41 38
17 39 36
17 39 37
17 38 36
17 39 37
17 38 36
17 40 37
17 40 37
17 40 37
17 39 37
17 40 37
17 39 37
17 39 37
17 40 37
17 39 37
18 41 38
17 39 37
17 39 37
17 39 37
17 39 36
17 39 37
17 39 36
17 39 37
18 41 38
17 40 37
18 40 38
17 40 37
17 39 37
17 39 37
17 39 37
17 40 37
17 39 37
17 40 37
17 40 37
18 41 38
17 39 37
17 39 37
17 39 37
18 40 38
18 40 38
17 40 38
17 39 37
17 40 37
17 40 37
17 40 37
17 40 37
17 40 37
17 40 37
18 40 38
17 40 37
17 39 36
17 40 37
17 40 37
17 39 37
18 40 38
17 39 37
17 40 38
18 41 38
17 40 37
17 39 37
17 39 37
17 40 37
18 40 38
17 40 37
17 39 36
17 39 37
17 39 37
18 40 38
17 40 37
18 40 38
17 40 38
17 39 37
17 39 37
18 40 38
18 40 37
17 39 37
17 39 37
17 40 37
18 40 37
17 39 37
17 40 37
17 40 37
17 40 37
17 39 36
17 40 37
17 39 37
17 40 37
17 39 37
17 39 37
17 40 37
17 39 37
17 40 37
17 39 37
18 40 38
17 40 37
18 41 38
18 40 38
17 39 37
17 40 37
17 39 36
17 39 37
17 38 36
18 40 38
17 40 37
17 39 37
17 39 37
17 39 37
18 40 38
17 39 37
17 39 36
17 40 37
18 40 38
17 39 37
18 40 38
18 40 38
17 39 36
18 41 38
17 39 37
17 39 36
17 40 37
17 40 37
17 40 37
17 40 37
17 39 37
17 39 37
18 40 38
18 40 38
17 39 36
18 40 38
17 39 37
18 40 38
17 39 37
18 40 38
17 39 37
17 40 37
17 39 37
17 40 38
18 40 38
17 39 37
18 40 38
17 39 37
18 40 38
17 39 37
18 40 38
17 40 37
17 40 37
17 40 38
17 39 36
17 40 37
17 39 37
17 38 36
17 39 37
17 40 37
17 39 37
17 40 37
17 39 37
17 39 37
17 39 37
18 40 38
17 39 37
17 39 37
17 39 37
17 40 37
18 40 38
17 39 37
18 40 38
17 39 37
17 39 37
18 40 38
18 40 38
17 39 37
17 39 37
17 40 37
18 40 38
17 39 37
17 39 37
17 40 37
18 40 38
18 40 38
18 40 38
17 40 37
17 39 37
17 40 37
18 40 37
17 39 37
17 40 37
18 40 38
18 40 38
17 39 37
18 41 38
18 40 38
18 40 38
17 39 37
17 39 37
18 40 38
17 40 37
17 39 37
17 39 37
18 40 38
17 39 37
17 40 37
18 40 38
18 41 38
18 40 37
17 40 37
17 39 37
18 40 37
17 39 36
17 40 37
17 39 37
17 39 37
18 40 38
18 40 38
17 40 37
17 40 37
17 40 37
17 40 37
18 40 38
17 40 37
17 39 36
17 40 37
17 39 37
17 40 37
18 40 38
17 40 37
17 40 37
17 39 37
18 40 38
18 41 38
18 41 38
17 40 37
18 40 37
18 40 38
18 40 38
17 40 37
18 40 38
18 41 38
17 40 37
17 39 36
17 40 38
17 40 37
17 39 37
17 40 37
17 39 37
17 39 37
18 40 38
17 39 37
18 40 37
17 39 37
17 40 37
18 40 37
18 40 37
17 39 37
17 39 37
17 39 37
17 39 37
17 40 37
17 40 37
17 39 36
18 41 38
17 39 36
17 40 38
17 40 37
17 39 37
17 39 37
17 39 37
17 40 37
17 40 37
18 41 38
17 40 37
17 39 37
17 39 37
17 39 36
17 39 37
17 40 37
18 40 38
17 40 37
18 40 38
17 39 37
17 39 37
17 40 37
17 38 36
18 40 38
18 40 38
18 40 38
17 40 37
18 40 38
17 40 37
17 39 36
17 40 37
17 40 37
17 38 36
17 40 37
18 40 38
17 39 37
18 41 38
17 39 37
17 38 36
18 41 38
18 40 38
17 40 37
17 39 36
17 40 37
17 39 37
18 41 38
17 39 36
17 39 37
18 41 38
18 40 38
17 39 37
17 39 37
17 39 37
18 40 38
18 40 38
17 39 37
18 40 38
18 40 38
18 41 38
17 39 37
18 40 37
18 40 38
18 40 38
18 40 38
17 39 36
18 41 38
18 40 38
18 40 37
17 39 37
18 40 38
18 40 37
17 39 37
17 39 37
18 41 38
18 41 38
17 40 37
18 40 38
17 40 37
18 40 38
18 41 38
18 40 37
18 40 37
17 40 37
18 41 38
18 40 37
17 39 36
17 39 36
18 40 37
18 41 38
17 40 37
18 40 37
17 40 37
18 40 38
17 39 37
18 40 38
18 40 38
17 40 37
17 39 37
17 39 37
17 40 37
18 40 38
17 40 37
17 39 37
17 40 37
17 39 36
17 39 37
17 40 37
18 41 38
18 40 38
18 40 38
17 40 37
18 40 38
17 40 37
18 40 38
17 40 37
17 39 37
17 39 37
17 39 37
18 40 38
17 40 37
17 40 37
18 40 38
17 40 37
18 40 38
17 39 36
17 40 37
18 40 38
17 40 38
18 40 38
17 40 37
18 41 38
18 40 37
17 39 37
17 40 37
17 39 37
18 40 38
17 39 37
17 39 37
17 40 37
17 39 36
17 39 37
18 41 38
18 40 38
18 40 38
17 40 37
18 40 38
18 40 38
17 40 37
17 40 37
17 39 37
18 41 38
17 40 37
18 40 38
17 40 37
17 39 37
18 42 39
17 40 37
18 40 38
18 40 38
17 39 37
18 40 38
17 39 36
18 40 37
18 40 37
18 40 37
18 41 38
17 40 37
17 40 37
18 40 38
18 40 37
18 40 37
18 40 37
18 40 38
17 40 37
18 40 37
18 41 38
18 40 38
18 40 37
17 40 37
18 40 37
18 40 38
18 40 38
18 40 38
17 40 37
17 39 37
18 41 38
18 41 38
18 40 37
18 40 38
18 40 38
18 40 38
18 40 38
18 40 38
18 40 38
18 40 38
18 40 37
18 40 37
18 40 38
18 40 38
18 40 38
18 40 37
18 41 38
18 40 38
18 40 38
18 40 38
18 40 38
18 40 37
18 40 38
18 40 38
18 41 38
17 39 37
18 41 38
18 40 38
18 41 38
17 40 37
18 40 38
18 41 38
18 40 38
18 41 38
18 40 37
18 41 38
18 40 38
18 40 38
18 40 37
18 40 37
18 40 38
18 40 37
18 40 37
18 40 38
18 40 37
18 40 38
18 41 38
17 39 37
18 40 38
17 40 37
18 40 38
18 40 38
17 39 37
18 41 39
17 40 37
18 40 38
18 40 38
18 40 38
18 40 37
17 40 37
17 39 37
17 39 36
17 39 37
17 40 37
18 40 38
17 40 37
18 40 38
18 40 38
18 40 38
17 40 37
18 41 38
18 40 37
18 41 38
18 41 39
18 41 38
18 40 38
18 40 38
17 39 36
18 40 38
17 39 37
18 40 38
18 41 39
18 41 38
18 41 38
17 38 36
18 40 38
18 40 38
18 40 38
18 40 38
18 40 38
18 41 38
18 41 38
18 40 37
17 40 37
18 41 38
17 39 37
18 40 38
18 40 38
18 40 38
18 41 38
18 40 38
17 39 37
17 40 37
17 39 36
18 40 38
18 41 38
18 41 39
17 39 37
18 40 37
18 41 38
18 40 37
17 39 36
18 40 38
18 40 38
17 39 37
18 40 38
17 39 37
17 39 37
18 41 38
17 39 37
18 41 38
18 40 37
18 40 38
18 40 37
17 40 37
18 40 37
18 41 38
18 40 38
18 40 38
18 40 37
18 41 39
18 41 38
18 40 38
18 40 38
17 40 37
18 40 37
18 41 38
18 40 38
18 40 38
18 41 38
17 40 37
18 40 37
18 40 37
18 40 38
18 40 37
17 39 37
18 40 38
18 41 39
18 40 38
17 40 37
18 40 38
18 41 38
18 41 38
18 41 38
17 40 37
17 40 37
17 40 37
18 42 39
18 41 38
17 40 37
18 41 38
18 40 37
17 40 37
18 41 39
17 40 37
18 41 38
18 40 37
17 40 37
17 40 37
17 40 37
18 41 39
18 40 37
18 41 38
17 40 37
18 41 38
18 40 38
18 40 38
17 39 36
17 40 37
18 40 38
18 40 37
18 40 38
18 41 38
18 40 37
18 41 38
18 40 38
18 40 37
18 40 38
17 39 37
18 40 38
18 40 38
18 40 38
18 41 38
17 39 37
18 40 38
18 40 37
17 39 36
18 40 37
18 40 38
18 40 37
17 39 37
17 39 37
18 41 38
18 41 38
18 41 38
18 40 38
18 41 38
18 40 38
17 39 37
18 40 38
17 39 37
18 41 38
18 41 38
18 41 38
18 40 38
18 40 38
18 40 38
17 40 37
18 40 37
18 40 38
18 41 38
18 41 38
18 40 38
18 40 38
18 41 38
18 42 39
18 40 38
18 40 37
18 40 37
18 40 37
18 41 38
18 41 39
18 40 38
18 41 38
18 41 38
18 40 38
18 41 39
18 41 38
18 41 38
18 40 38
18 41 38
17 40 37
18 41 38
18 40 38
18 41 39
18 42 39
18 40 37
18 41 38
18 41 38
18 40 38
18 41 38
18 41 38
18 40 37
18 41 38
18 40 38
18 40 37
18 41 38
18 41 38
18 40 38
18 41 38
18 40 38
18 40 37
18 41 38
18 41 38
18 40 37
18 40 38
18 40 37
18 41 38
18 42 39
18 42 39
18 41 38
18 41 38
18 40 37
18 40 38
18 40 37
18 41 38
18 41 39
18 40 37
18 40 38
18 40 38
18 40 37
18 40 38
17 39 37
18 40 37
18 41 39
18 40 38
18 40 37
18 40 38
17 40 37
18 40 37
18 40 38
18 40 37
18 40 38
17 39 37
18 41 38
18 41 38
18 40 37
18 42 39
18 40 37
18 41 38
18 40 37
18 40 37
17 40 37
18 40 38
18 41 38
18 40 37
18 40 38
18 40 38
18 40 37
18 40 37
17 40 37
18 41 38
18 40 38
17 40 37
18 42 39
18 41 38
18 40 37
18 41 38
18 40 37
18 40 38
18 41 38
17 39 37
18 40 37
18 40 37
18 41 38
18 41 38
18 41 38
18 40 37
18 40 38
18 41 39
17 39 36
18 41 39
18 41 38
18 41 39
18 41 38
18 41 38
18 41 38
18 41 38
18 40 37
18 41 39
17 40 37
18 41 39
18 41 38
18 41 38
18 40 38
18 40 37
18 41 38
18 40 38
18 40 38
18 41 39
18 40 37
18 41 38
18 41 38
19 42 39
18 41 39
18 41 38
18 41 39
18 41 38
18 40 38
18 41 38
18 41 38
18 42 39
18 41 38
18 41 38
18 41 38
18 41 38
18 40 38
18 40 37
18 40 38
18 41 38
18 40 38
18 40 38
18 41 38
18 41 38
18 41 38
18 40 37
18 40 38
18 42 39
18 41 38
17 40 37
18 40 37
18 41 38
18 41 38
18 41 38
17 39 37
18 40 38
18 41 39
18 41 38
18 40 38
18 41 38
18 41 38
18 41 38
18 40 37
18 42 39
18 41 38
18 41 38
18 40 38
18 40 38
18 41 39
18 41 38
18 40 38
18 41 38
18 41 38
18 40 38
18 41 38
18 40 38
18 41 38
18 41 38
17 40 37
18 40 37
18 41 39
18 40 37
18 40 37
18 40 37
17 40 37
17 39 37
18 41 38
18 41 38
18 40 38
18 41 38
18 41 38
18 40 38
18 40 38
18 40 38
18 40 38
18 40 38
17 40 37
18 41 38
18 40 37
18 40 38
18 41 38
18 40 38
18 41 39
18 41 38
18 41 38
18 40 37
18 41 38
18 40 37
18 41 39
18 40 38
18 41 39
18 40 38
18 41 38
19 42 39
18 42 39
17 40 37
18 41 38
18 40 38
18 40 37
18 41 39
18 40 37
18 41 38
18 41 38
18 40 38
18 41 39
18 42 39
18 41 38
18 42 39
18 41 38
18 41 38
19 42 39
18 40 37
18 41 38
18 41 39
18 41 38
18 41 39
18 40 38
18 41 38
18 40 38
18 40 38
18 40 37
18 42 39
18 40 38
18 40 37
18 41 38
18 41 39
18 41 38
18 40 38
18 41 38
18 41 38
18 41 38
19 42 39
18 41 38
18 41 38
18 41 38
18 40 37
18 41 38
19 42 39
18 40 37
18 41 38
18 40 37
18 42 39
18 41 38
18 40 37
18 41 38
18 41 39
18 41 39
18 40 38
18 42 39
18 41 38
18 41 38
19 42 39
18 40 37
18 40 38
18 40 38
18 40 38
18 40 37
18 41 38
18 42 39
18 42 39
18 41 38
18 41 39
18 40 37
19 42 40
18 40 38
18 40 38
18 41 38
18 41 38
17 40 37
18 40 37
18 40 38
18 42 39
18 41 38
18 41 38
18 42 39
18 41 38
18 41 38
18 40 37
18 41 38
18 41 38
18 40 37
18 41 38
19 42 39
18 40 38
17 39 37
18 40 38
18 40 38
18 40 38
18 41 38
18 40 38
18 40 38
18 41 38
18 41 38
18 40 38
17 40 37
17 39 37
18 41 39
18 41 38
18 40 37
19 42 39
18 41 38
18 41 38
18 40 37
18 41 39
18 41 39
18 40 38
18 41 38
18 41 38
18 40 37
18 41 38
18 41 38
18 40 38
18 41 39
18 41 38
18 41 39
18 41 38
18 40 38
18 41 38
18 40 38
18 41 38
18 41 39
18 41 38
19 42 39
18 42 39
18 41 39
18 40 37
18 41 38
18 40 37
18 40 38
18 42 39
18 41 38
18 41 38
18 41 39
18 41 38
18 40 37
18 40 37
18 42 39
18 41 39
18 41 39
18 40 38
18 42 39
18 41 38
18 40 38
18 41 38
18 41 38
18 41 38
18 41 38
18 41 38
18 41 38
18 41 38
18 41 38
18 40 38
18 41 38
18 42 39
18 41 38
19 42 39
18 42 39
18 41 38
18 41 38
19 42 39
18 40 38
18 41 38
18 41 39
18 40 38
18 42 39
18 41 38
18 40 38
18 41 39
18 41 38
18 42 39
19 42 40
18 41 38
18 40 38
18 40 38
18 41 39
18 41 38
18 40 37
18 41 38
18 40 37
18 41 38
18 41 38
18 41 38
18 42 39
18 41 38
18 40 38
18 41 39
18 40 37
18 40 37
18 41 38
18 40 38
18 41 38
18 42 39
18 41 39
18 41 38
18 41 38
17 40 37
18 41 38
18 41 38
18 41 38
18 41 38
18 41 38
17 40 37
18 40 37
18 41 38
18 41 39
18 42 39
19 42 40
18 40 38
18 41 38
18 40 37
18 41 38
18 41 38
18 41 39
18 41 38
18 41 38
18 41 38
18 41 38
18 41 38
18 41 39
18 40 37
18 41 39
18 40 38
18 40 38
18 41 39
18 41 38
18 41 38
18 41 38
18 41 38
18 41 39
18 41 38
18 41 38
18 41 38
18 41 38
18 41 38
18 40 37
18 40 37
18 42 39
18 41 38
19 42 39
18 42 39
18 42 39
18 41 38
18 41 38
18 41 39
18 40 37
18 42 39
18 41 39
18 41 38
18 41 39
18 41 38
18 41 38
18 41 39
18 40 37
18 41 38
18 41 38
18 41 39
18 41 39
18 41 38
19 42 39
18 40 38
19 42 39
18 42 39
19 42 39
18 41 38
18 40 37
19 42 39
18 41 39
18 42 39
18 41 38
18 41 38
18 41 38
18 41 39
18 41 38
18 41 38
18 41 38
19 42 39
18 41 38
18 42 39
18 41 39
18 42 39
19 42 39
18 42 39
18 41 38
18 41 38
18 41 39
18 40 38
18 41 38
18 41 38
18 40 38
18 41 39
18 41 38
18 40 38
18 41 38
18 42 39
18 41 38
18 41 38
18 42 39
18 41 38
18 41 38
18 42 39
19 42 39
18 41 38
18 41 38
18 40 38
18 41 38
19 42 39
18 41 38
18 41 39
18 40 38
18 42 39
18 41 38
19 42 39
18 41 38
18 41 38
18 41 38
18 41 38
18 41 38
18 41 38
18 41 39
18 42 39
18 41 39
18 41 38
18 41 38
18 40 38
18 40 37
18 41 38
18 41 38
18 42 39
18 41 39
18 41 38
18 41 38
18 42 39
18 41 39
18 41 39
18 41 38
18 40 38
18 41 38
18 41 38
18 41 38
18 40 37
18 42 39
18 41 38
18 40 37
18 41 38
17 40 37
18 41 38
18 41 38
18 40 38
18 40 38
18 40 38
18 41 39
18 41 39
18 42 39
18 42 39
19 42 39
18 41 38
18 41 38
18 41 38
18 40 37
19 42 39
18 41 38
18 41 38
18 41 38
18 41 39
18 41 38
18 41 39
18 41 38
19 42 39
19 42 39
19 42 39
18 40 37
19 42 40
18 41 38
18 42 39
18 42 39
18 41 38
18 41 38
18 41 38
18 41 38
18 41 38
18 41 38
18 41 38
18 41 38
18 42 39
18 41 38
18 41 38
18 41 38
19 42 39
18 42 39
18 40 37
18 41 39
18 41 39
18 41 39
18 42 39
18 42 39
18 41 39
19 42 39
18 41 38
18 42 39
18 41 38
18 41 38
18 41 38
18 40 38
18 41 38
18 41 39
18 41 38
18 41 38
18 41 38
18 40 38
18 41 38
18 40 38
18 41 38
19 42 39
18 42 39
18 41 38
18 41 38
18 41 39
18 41 39
18 41 38
18 41 38
19 42 39
19 43 40
18 41 38
18 41 38
18 41 38
18 41 38
18 42 39
18 42 39
18 41 39
18 41 38
18 41 38
18 41 38
18 41 38
18 41 38
18 41 38
18 41 39
18 40 37
19 42 39
18 41 38
18 40 38
18 42 39
18 41 38
18 41 38
18 41 38
18 41 38
18 41 38
18 41 38
18 41 38
18 41 38
18 41 38
18 42 39
18 41 39
18 42 39
18 40 38
18 41 38
18 42 39
18 40 37
18 41 38
18 42 39
18 41 38
18 42 39
18 41 38
19 42 39
18 41 38
18 41 39
18 41 38
19 42 39
18 41 38
18 41 38
18 41 38
18 42 39
19 42 39
17 40 37
18 41 38
18 40 37
18 40 38
18 41 38
18 41 38
19 42 39
18 41 39
18 41 39
18 41 39
18 41 38
18 41 38
18 41 38
19 42 39
18 40 38
18 40 38
18 41 38
19 42 39
18 42 39
18 41 38
19 42 39
18 41 38
18 41 39
19 43 40
18 41 38
18 41 38
18 41 38
18 41 38
18 41 38
18 41 38
18 41 38
19 42 39
18 41 38
18 41 38
18 41 38
18 41 38
18 41 38
18 41 38
19 42 39
18 41 38
19 42 39
18 41 38
18 41 38
18 42 39
18 41 39
19 42 39
19 42 39
19 42 39
18 41 38
19 42 39
19 42 39
18 41 38
18 41 38
18 41 38
18 41 39
19 42 39
18 41 38
19 42 39
18 41 39
18 41 39
18 41 38
18 41 38
19 42 39
19 42 39
19 42 39
18 41 38
19 42 39
18 41 38
18 41 38
18 41 38
18 41 38
18 42 39
18 41 38
18 41 39
19 42 40
19 42 39
18 41 39
19 42 39
18 42 39
19 42 39
18 42 39
19 42 39
18 42 39
19 42 39
19 42 39
18 41 38
18 40 38
18 41 38
18 42 39
18 40 38
18 41 38
18 41 39
19 42 39
18 42 39
18 41 39
19 42 39
18 41 38
18 41 38
18 41 39
18 41 38
18 42 39
18 41 38
19 42 39
19 42 39
18 42 39
18 41 38
18 41 38
18 41 38
18 41 38
18 41 38
18 41 38
18 41 38
18 41 39
18 42 39
18 41 38
19 42 39
18 41 39
18 41 38
18 41 38
18 42 39
18 41 38
18 41 38
18 42 39
18 42 39
19 42 39
18 41 38
18 41 39
19 42 39
19 42 39
18 41 39
18 41 38
19 43 40
18 42 39
19 42 39
19 42 39
19 42 39
18 42 39
18 41 39
18 41 38
18 41 39
19 42 39
19 42 39
18 41 39
18 41 39
19 42 39
19 43 40
19 43 40
18 42 39
18 42 39
19 42 40
18 40 37
18 41 38
19 42 39
19 42 39
18 42 39
19 42 39
18 41 38
19 42 39
19 42 39
18 42 39
18 41 38
19 42 39
18 41 38
19 42 39
18 41 39
18 41 38
19 42 39
19 43 40
18 41 38
18 41 38
18 42 39
19 43 40
19 43 40
19 42 39
19 42 39
18 41 38
18 42 39
19 42 39
19 42 39
18 41 38
18 41 38
18 41 38
18 41 38
19 42 39
18 42 39
18 42 39
18 41 38
18 41 39
18 41 38
18 41 38
19 42 39
18 42 39
19 42 39
18 41 39
18 41 38
18 41 38
18 41 38
19 42 40
18 41 38
19 43 40
19 42 40
19 42 39
18 41 38
18 41 39
18 41 38
18 42 39
18 41 39
18 42 39
18 41 38
18 41 38
19 42 39
18 42 39
18 41 38
19 42 39
19 42 39
19 42 39
18 41 39
19 42 39
19 42 39
18 42 39
18 41 38
18 41 38
19 42 39
18 41 39
18 41 38
18 41 38
18 41 38
19 43 40
18 41 38
18 41 38
18 42 39
18 42 39
19 43 40
18 42 39
18 41 39
19 42 39
19 42 39
19 42 39
18 42 39
18 42 39
18 41 38
19 42 39
19 42 39
18 41 38
18 42 39
18 42 39
18 42 39
19 42 39
19 42 39
19 42 39
18 41 38
19 42 39
18 41 39
18 42 39
19 43 40
19 42 39
18 41 38
19 42 39
18 41 38
18 42 39
18 42 39
19 43 40
18 41 38
18 42 39
19 42 39
18 41 38
19 42 39
19 42 39
18 42 39
19 42 40
19 42 39
19 42 39
19 43 40
19 42 39
19 42 39
18 41 38
18 41 38
19 42 39
19 43 40
19 42 39
19 42 39
18 41 38
19 42 39
18 41 38
19 42 39
18 42 39
18 42 39
18 42 39
19 42 39
19 42 39
19 42 39
18 41 38
19 42 39
19 42 39
19 42 39
18 42 39
19 42 39
19 42 39
18 41 38
19 42 39
19 42 39
18 41 38
19 43 40
18 42 39
18 41 38
19 43 40
18 41 38
19 42 39
19 42 39
19 43 40
19 42 39
18 41 38
18 41 38
19 42 39
18 41 38
18 41 38
18 41 38
19 42 39
19 42 39
19 42 39
18 41 38
18 41 39
19 43 40
19 43 40
18 41 38
18 41 39
18 41 38
18 41 38
18 42 39
19 42 39
19 42 39
19 42 39
19 42 39
19 42 39
19 43 40
18 42 39
19 42 40
18 41 38
18 41 38
18 41 38
18 41 38
18 42 39
18 41 38
18 41 38
19 42 39
19 42 39
18 41 39
19 43 40
19 42 39
19 42 39
18 42 39
18 42 39
19 42 39
18 41 39
18 41 38
19 42 39
19 42 39
19 42 39
18 42 39
18 41 38
18 41 38
19 43 40
19 42 39
18 41 38
18 41 38
19 42 39
19 42 39
18 41 38
19 42 39
19 42 39
19 42 39
18 42 39
19 42 39
18 41 39
19 42 39
18 41 38
19 42 39
19 42 39
18 40 38
19 43 40
18 41 38
19 42 39
19 42 39
19 42 39
19 43 40
19 42 39
19 42 39
19 42 39
19 42 39
19 43 40
19 42 39
19 42 39
19 42 39
19 43 40
19 42 39
18 41 38
19 42 39
19 42 39
19 43 40
19 43 40
19 42 39
19 42 39
18 41 38
18 42 39
19 42 39
18 41 38
18 42 39
18 42 39
19 42 39
19 42 39
18 42 39
19 43 40
18 41 39
19 43 40
19 42 39
19 42 39
18 42 39
19 42 39
19 42 39
19 43 39
18 41 38
19 42 39
19 42 39
19 42 39
19 43 40
19 42 39
19 42 39
19 43 40
18 41 38
18 42 39
18 41 38
18 41 38
19 42 39
18 41 38
18 42 39
19 43 40
19 42 39
19 42 39
19 42 39
19 42 39
19 42 39
19 42 39
19 42 39
19 42 40
19 42 39
18 42 39
18 41 38
18 41 38
19 42 39
19 42 39
19 42 39
18 41 38
19 42 39
19 42 39
19 42 39
19 42 39
18 41 38
18 41 38
18 41 38
18 42 39
19 42 39
19 42 39
18 41 39
19 42 39
18 42 39
19 42 39
19 43 40
19 43 40
19 43 40
19 42 39
18 41 38
19 42 39
19 42 39
19 42 39
19 42 39
19 43 40
19 42 39
19 42 39
19 43 40
18 41 39
19 43 40
19 43 40
19 42 39
18 41 38
19 43 40
18 41 38
18 42 39
19 42 39
18 41 38
19 42 39
18 42 39
19 42 39
18 41 38
19 43 40
18 41 38
19 42 39
19 42 39
19 42 39
19 42 39
19 42 39
18 42 39
19 42 39
18 42 39
19 42 39
19 42 39
19 42 39
19 42 39
19 43 39
19 43 40
19 42 39
19 42 39
18 42 39
19 42 39
18 41 38
19 43 39
19 43 40
19 42 39
19 42 39
18 41 38
19 43 40
19 43 40
19 42 39
18 42 39
19 42 39
19 43 40
19 43 40
19 42 39
19 42 39
18 41 38
19 43 40
19 43 40
18 41 39
19 43 39
19 42 39
19 42 39
19 42 39
19 43 40
19 42 39
19 42 39
18 41 38
19 42 39
19 42 39
19 42 40
19 44 41
19 42 39
19 42 39
19 42 39
19 42 39
19 42 39
19 42 39
19 43 40
19 42 39
19 43 40
19 42 39
18 41 38
19 43 40
19 43 40
18 42 39
19 43 40
19 42 39
19 42 39
19 42 39
18 41 38
19 42 39
19 43 40
19 42 39
19 43 40
19 42 39
19 42 39
19 42 39
19 42 39
19 42 39
19 43 40
19 43 40
19 42 39
18 41 38
18 41 38
18 41 38
19 42 39
19 42 39
18 42 39
19 42 39
19 42 40
19 43 40
18 41 38
18 41 38
19 42 39
18 41 38
19 42 39
19 42 39
19 42 39
19 42 39
18 41 38
18 42 39
19 42 39
19 44 40
19 42 39
19 42 39
18 41 38
19 42 39
19 42 39
19 43 40
19 42 39
19 43 40
19 42 39
19 42 39
19 42 39
19 43 39
19 42 39
19 42 39
18 41 38
19 43 40
19 42 39
18 41 38
19 43 39
18 42 39
18 41 39
19 42 39
19 42 39
19 43 40
19 42 39
19 43 40
19 42 39
19 42 39
19 42 39
18 41 38
19 42 39
19 43 40
19 42 39
19 43 40
19 43 40
19 43 40
18 41 38
19 42 39
19 42 39
19 42 39
19 42 39
19 43 40
19 42 39
19 42 39
19 42 39
19 42 39
19 42 39
19 42 39
19 43 40
19 42 39
19 42 39
19 43 40
19 43 40
19 42 39
19 42 39
19 42 39
19 43 40
19 42 39
19 42 39
19 42 39
19 42 39
19 42 39
19 42 39
19 43 40
19 43 40
19 42 39
19 42 39
19 42 39
19 42 39
19 43 40
19 42 39
19 42 39
19 43 40
19 42 39
19 42 39
19 43 39
19 42 39
19 42 39
19 42 39
19 43 39
19 42 39
19 43 40
19 42 39
19 43 40
18 42 39
19 43 40
19 43 40
18 41 39
19 42 39
19 42 39
19 43 40
19 43 40
19 43 40
19 42 39
19 42 39
18 41 38
19 42 39
19 42 39
19 42 39
19 42 39
19 42 39
19 42 39
19 42 39
19 42 39
18 41 38
19 42 39
19 42 39
19 43 40
19 42 39
19 42 39
19 42 39
19 42 39
19 42 39
19 43 39
19 42 39
19 43 40
19 42 39
19 42 39
19 42 39
19 42 39
19 42 39
19 42 39
19 42 39
19 43 40
19 42 39
19 42 39
19 42 39
19 42 39
19 43 40
19 42 39
18 41 38
19 42 39
19 43 40
19 42 39
19 43 40
19 42 39
19 42 39
19 42 39
19 42 39
19 42 39
19 43 40
19 42 39
19 42 39
18 41 38
19 42 39
19 43 39
19 42 39
20 44 41
19 43 40
19 43 39
19 42 39
19 42 39
19 43 40
19 43 40
19 43 39
19 43 40
18 42 39
19 43 40
19 43 40
19 42 39
19 42 39
19 42 39
19 42 39
19 43 40
19 43 39
19 42 39
19 42 39
19 43 40
19 42 39
19 42 39
19 43 40
19 43 39
19 42 39
19 42 39
19 42 39
19 43 40
19 43 39
19 43 40
19 43 40
19 43 40
19 42 39
19 42 39
18 42 39
19 42 39
18 41 38
19 42 39
19 43 40
19 42 39
19 43 40
19 42 39
19 42 39
19 42 39
19 42 39
19 43 40
19 43 40
19 43 40
19 43 39
19 42 39
19 42 39
19 43 40
20 44 41
18 42 39
18 41 38
19 43 40
18 41 38
19 43 40
19 42 39
19 42 39
19 42 39
19 42 39
19 42 39
19 42 39
19 42 39
19 43 40
19 43 40
19 43 39
19 43 40
19 43 40
19 43 40
19 42 39
19 43 40
19 43 40
19 42 39
19 43 40
19 43 40
19 43 39
19 43 40
19 43 40
19 42 39
19 43 40
19 43 39
19 42 39
19 42 39
18 42 39
19 42 39
19 42 39
19 43 40
19 43 40
19 42 39
19 42 39
19 43 40
19 42 39
18 41 38
19 43 39
19 43 40
19 43 40
19 43 40
19 42 39
19 43 40
19 42 39
19 42 39
19 43 40
18 41 38
19 42 39
19 42 39
19 42 39
19 43 40
19 43 40
19 42 39
19 42 39
19 42 39
19 42 39
19 43 40
19 43 40
19 42 39
19 42 39
19 42 39
19 42 39
19 42 39
19 42 39
19 43 40
19 42 39
19 43 40
20 44 41
19 42 39
19 43 40
20 44 41
19 43 40
19 42 39
18 41 38
19 43 40
19 43 40
19 44 40
19 43 40
19 42 39
19 42 39
19 42 39
19 42 39
19 43 40
19 42 39
18 41 38
19 42 39
19 42 39
19 42 39
19 43 40
19 43 40
19 42 39
19 42 39
19 43 39
19 44 40
19 43 40
19 42 38
19 43 40
19 43 40
19 43 40
19 43 40
19 43 40
19 43 39
20 44 41
19 42 39
19 43 40
19 43 40
19 42 39
19 43 40
19 44 40
19 42 39
19 42 39
19 43 40
19 42 39
19 42 39
19 43 40
19 43 40
19 42 39
19 42 39
19 43 40
19 42 39
19 43 40
19 44 41
19 42 39
19 43 40
19 43 40
20 44 41
19 43 40
19 43 39
19 43 40
19 43 40
19 43 40
19 43 40
19 42 39
19 42 39
19 42 39
19 42 39
19 43 40
19 42 39
19 42 39
19 42 39
19 42 39
19 43 40
19 42 39
19 42 39
19 43 40
19 43 40
19 42 39
19 42 39
19 42 39
19 42 39
19 42 39
19 43 40
19 42 39
18 41 39
19 42 39
19 43 40
19 42 39
19 43 40
19 42 39
19 42 39
19 42 39
19 42 39
19 43 40
19 43 40
19 43 40
19 43 40
19 42 39
19 43 40
19 42 39
19 43 39
19 42 39
19 43 39
19 43 40
19 43 39
19 43 40
19 43 40
19 42 39
19 42 39
19 42 39
19 43 40
19 43 40
19 43 40
19 43 40
19 43 40
19 43 40
19 43 40
19 43 39
19 43 40
19 43 40
19 42 39
19 42 39
19 43 40
19 43 39
19 43 39
19 43 40
19 43 40
19 43 40
20 44 41
19 43 39
19 43 40
18 41 38
19 43 40
19 44 40
19 43 39
19 43 40
19 42 39
19 43 40
19 43 40
19 43 40
19 43 40
19 42 39
19 43 40
19 43 40
19 42 39
19 43 39
19 42 39
19 43 40
19 43 39
19 43 40
19 43 39
19 43 40
20 44 41
19 43 40
19 43 40
19 43 40
19 42 39
19 43 40
19 42 39
19 43 40
19 42 39
20 44 40
19 43 39
19 42 39
19 43 39
19 43 40
19 43 39
19 42 39
19 43 40
19 43 39
19 42 39
19 43 40
19 43 40
19 42 39
19 42 39
19 43 40
19 43 40
19 43 40
19 42 39
19 42 39
19 43 40
19 42 39
19 43 39
19 43 39
19 43 40
19 42 39
19 42 39
19 43 40
18 41 38
19 43 40
19 43 39
19 43 39
19 43 40
19 43 40
19 42 39
19 43 40
19 42 39
19 43 39
19 42 39
18 41 38
19 42 39
19 42 39
19 43 40
19 43 40
19 42 39
19 43 39
19 43 39
19 43 40
19 43 40
19 42 39
19 43 40
20 44 40
19 43 40
19 43 40
19 44 40
19 42 39
19 43 39
19 43 40
19 42 39
19 42 39
19 43 40
19 44 40
19 44 40
19 43 40
19 43 40
19 43 39
20 44 41
19 43 40
19 42 39
19 43 39
20 44 41
19 42 39
19 43 40
19 43 39
19 43 40
19 42 39
19 43 40
19 44 40
19 43 40
19 43 39
19 43 40
19 43 40
19 43 40
19 43 39
19 43 40
19 42 39
20 44 40
19 42 39
19 42 39
19 42 39
19 42 39
19 42 39
19 43 40
19 43 39
19 43 39
19 43 40
19 42 39
19 43 40
20 44 40
19 43 40
19 43 40
19 43 40
20 44 40
19 43 40
19 43 40
19 43 40
19 43 40
19 43 40
20 44 41
19 43 40
19 43 39
20 44 40
19 43 40
19 43 40
19 42 39
19 43 40
19 43 40
20 44 40
19 43 39
19 43 40
19 43 40
19 42 39
19 42 39
19 44 40
20 44 41
19 43 40
19 42 39
19 43 40
19 43 40
19 42 39
19 43 40
19 43 40
19 43 40
19 42 39
19 43 40
19 43 40
19 43 40
19 43 40
19 43 39
19 43 39
19 42 39
19 42 39
19 43 40
19 43 40
19 43 40
19 42 39
19 42 39
19 43 39
19 43 40
19 43 39
19 43 40
19 43 39
19 43 40
19 43 39
19 42 39
19 42 39
19 43 40
18 41 38
19 43 40
19 43 40
18 41 38
19 43 40
19 42 39
19 42 39
19 43 39
20 44 41
19 43 40
19 43 40
19 43 40
20 44 40
19 43 40
19 43 40
19 42 39
19 43 40
20 45 41
19 43 39
19 43 40
19 43 40
19 43 39
19 44 40
19 43 39
19 43 40
19 43 40
20 44 41
19 42 39
20 44 40
19 42 39
20 44 40
19 43 40
19 42 39
19 44 40
18 41 38
19 43 40
19 43 40
19 44 40
19 43 40
20 44 40
20 44 40
19 43 40
19 42 39
19 43 39
19 42 39
20 44 40
19 43 40
19 43 40
19 43 40
19 43 40
19 43 40
20 44 41
19 43 40
20 44 40
20 44 41
19 44 40
20 44 41
19 43 40
19 43 40
19 43 40
19 43 40
19 43 40
19 42 39
20 44 41
19 44 40
19 43 40
19 43 40
19 43 39
20 44 41
19 42 39
19 43 40
19 43 39
20 44 40
19 43 39
19 43 40
19 43 40
19 44 40
19 43 40
20 44 40
20 44 41
19 42 39
19 42 39
19 43 40
19 43 40
19 43 40
19 42 39
19 43 40
19 43 40
19 42 39
19 43 40
19 43 40
19 44 40
19 43 40
19 43 40
20 44 41
19 42 39
19 42 39
20 44 40
20 45 41
20 44 41
19 43 40
19 43 40
19 43 40
20 45 41
20 44 40
19 42 39
19 43 40
19 43 40
19 43 40
19 42 39
19 43 40
19 42 39
19 43 40
19 42 39
19 42 39
19 43 40
19 43 40
20 44 40
19 43 40
20 44 40
19 44 40
19 42 39
19 42 39
20 44 41
20 44 41
19 43 39
20 44 40
19 42 39
19 42 39
20 45 41
20 44 41
19 42 39
19 42 39
19 42 39
19 42 39
19 42 39
19 42 39
19 43 40
19 43 40
19 44 40
20 44 40
19 43 40
19 43 39
19 43 39
20 44 40
19 43 40
19 43 40
19 43 39
19 43 40
19 43 39
19 43 40
20 44 41
20 44 41
19 43 39
19 43 39
19 43 40
20 44 40
19 43 40
19 43 39
19 43 40
19 43 40
19 42 39
20 44 40
19 44 40
19 42 39
19 42 39
19 43 40
19 43 40
19 43 40
19 43 40
20 44 41
19 42 39
19 43 40
19 43 39
20 44 41
19 43 40
19 43 40
20 44 41
19 43 40
19 43 40
19 43 39
19 43 40
19 43 40
19 42 39
19 43 40
19 43 39
20 44 40
20 44 41
19 43 40
20 44 41
20 44 41
19 42 39
19 44 40
19 43 40
20 44 41
19 44 40
19 43 40
19 43 40
19 42 39
19 43 40
19 44 40
19 43 40
20 44 40
19 43 40
20 44 40
20 44 40
19 43 39
19 43 40
20 45 41
19 43 40
19 42 39
20 44 41
20 44 40
20 44 41
19 43 40
19 43 40
20 44 41
19 43 40
18 41 38
19 43 40
19 42 39
19 42 39
19 43 40
19 43 39
19 42 39
19 43 40
20 44 41
19 43 40
19 44 40
20 44 40
20 44 41
19 43 39
19 43 40
19 42 39
19 44 40
19 42 39
19 43 40
19 43 40
19 43 40
20 44 41
19 43 40
19 43 39
19 43 40
19 44 40
19 43 40
20 44 40
19 43 39
19 43 40
19 43 39
19 43 40
19 43 40
19 43 40
20 44 41
19 43 40
20 44 41
19 43 39
19 43 40
19 43 39
19 43 39
19 43 39
20 44 40
20 43 40
20 44 40
19 43 40
19 41 38
19 43 39
19 43 40
19 43 40
20 44 40
20 44 41
20 44 40
20 44 41
20 44 40
19 43 39
19 43 40
20 44 40
20 44 41
19 43 40
19 43 40
19 44 40
20 44 41
19 44 40
19 43 40
20 44 40
20 44 41
20 44 41
19 42 39
20 44 40
19 42 38
20 45 41
20 44 41
20 44 40
19 43 39
19 44 40
19 43 40
19 42 39
20 45 41
20 44 40
19 43 40
20 44 40
20 44 40
19 43 40
19 43 40
19 43 40
19 43 40
19 43 40
20 44 40
20 44 40
19 43 40
20 44 40
19 42 39
20 44 40
19 43 40
19 43 40
19 43 40
19 43 40
20 44 41
20 45 41
20 44 41
19 43 40
19 43 40
19 43 39
19 43 39
20 44 41
20 44 40
19 43 40
20 44 40
19 43 39
19 43 40
19 43 40
19 43 39
20 45 41
20 44 41
20 44 40
20 44 41
19 43 40
19 43 40
19 44 40
20 44 40
19 42 39
19 43 39
19 43 40
20 44 41
19 44 40
20 44 41
19 43 40
20 44 40
20 44 40
19 43 40
20 44 40
20 44 40
19 43 39
19 43 40
19 44 40
19 43 40
19 44 40
20 44 41
20 44 41
19 44 40
19 43 40
19 43 40
19 42 39
20 44 40
19 43 40
20 44 40
19 42 38
19 42 39
19 42 39
19 43 40
20 44 40
19 43 40
19 43 40
19 43 40
19 43 40
19 43 40
19 43 39
20 44 40
19 43 39
19 43 39
19 43 40
19 43 40
19 42 39
19 43 40
20 44 41
19 43 40
20 44 40
20 45 41
19 43 40
19 43 40
19 43 39
20 44 40
20 44 40
19 42 39
19 43 39
20 44 41
19 43 40
19 43 40
19 43 40
20 44 40
20 44 41
20 44 41
20 44 40
20 44 40
20 45 41
19 43 39
20 44 40
19 43 40
19 43 40
20 45 41
19 43 40
19 43 39
20 44 41
20 45 41
19 43 40
20 44 40
20 44 41
19 43 39
19 43 40
19 43 40
20 45 41
19 43 40
19 43 40
20 44 41
20 44 40
19 43 40
20 44 40
19 43 40
19 43 40
19 43 39
19 43 40
20 44 40
20 44 41
19 43 40
19 43 40
20 44 41
20 44 40
20 45 41
20 44 40
19 43 39
20 44 40
19 43 40
19 43 40
19 43 39
19 43 39
20 44 40
19 44 40
20 44 41
19 43 39
20 44 40
20 45 41
20 44 41
20 44 41
20 44 40
19 43 40
20 44 40
19 43 40
19 43 40
20 44 41
20 44 40
20 45 42
19 42 39
20 44 41
19 43 40
20 44 41
19 44 40
20 44 41
20 44 41
19 43 40
20 44 40
19 43 40
20 44 41
20 44 41
19 44 40
19 43 40
19 43 40
19 44 40
19 43 40
20 44 40
19 43 40
20 44 40
19 43 39
19 43 40
19 43 40
19 43 40
19 43 40
19 43 40
20 44 40
20 44 41
20 44 41
20 45 41
19 43 40
20 44 41
19 44 40
20 44 40
19 43 40
20 44 41
20 44 41
20 44 41
19 43 40
19 43 39
20 44 40
20 44 41
19 43 40
20 44 41
20 44 41
20 44 41
19 43 40
20 45 41
19 44 40
20 44 40
20 44 41
19 43 40
19 43 39
20 45 41
20 44 40
19 43 40
19 43 40
20 44 40
19 43 39
19 43 40
19 43 39
20 45 42
20 44 40
19 43 40
20 44 40
19 43 40
20 44 40
19 44 40
20 44 41
20 45 41
20 45 41
20 44 40
20 45 42
20 44 41
20 44 40
20 45 41
20 44 40
19 43 40
20 45 41
20 45 41
19 43 40
20 44 40
19 43 40
20 44 41
20 44 41
20 44 40
20 45 41
20 44 41
20 45 41
20 44 40
20 44 41
20 44 40
20 44 41
20 45 41
20 44 40
20 44 41
20 44 40
20 44 41
19 42 39
19 43 40
19 43 40
20 44 41
20 44 40
20 44 40
20 44 40
20 44 40
20 45 41
20 44 40
19 43 40
19 43 39
20 44 41
19 43 40
20 45 41
20 44 41
20 44 40
20 44 40
20 44 40
20 44 40
19 44 40
19 43 40
20 44 41
19 43 40
19 43 40
19 43 40
19 43 40
19 43 40
20 44 40
20 44 40
20 44 40
19 43 40
20 44 41
19 43 40
20 44 41
20 44 40
19 43 39
19 43 39
20 44 41
20 44 41
20 44 40
20 44 40
19 43 40
20 45 41
19 43 40
20 45 41
19 43 40
19 43 40
19 43 40
19 43 40
19 43 40
19 43 40
20 44 41
20 44 41
19 43 40
19 42 39
20 44 41
20 44 40
20 45 41
20 44 40
19 43 40
20 44 41
19 43 40
20 44 40
20 44 40
20 44 40
19 43 40
19 43 40
20 44 41
20 44 41
19 43 40
19 43 40
20 44 40
19 43 40
20 44 41
19 43 40
20 44 40
20 44 40
19 42 39
20 44 40
20 44 41
19 43 40
20 45 41
20 45 41
20 45 41
20 44 41
20 45 41
20 44 40
20 44 41
19 43 40
20 44 41
19 43 39
20 44 41
20 44 40
20 44 40
20 44 40
19 43 40
20 44 40
20 45 41
20 44 41
20 44 40
20 44 40
19 43 40
20 44 40
19 43 40
20 44 40
20 45 41
20 44 40
19 43 40
20 45 41
20 44 40
19 43 40
20 44 41
20 44 41
19 43 40
19 43 40
20 44 41
20 44 41
19 43 40
19 43 40
20 45 41
19 43 40
20 44 40
20 44 41
20 44 40
19 43 40
20 44 41
20 44 40
20 44 40
19 43 40
20 44 40
19 43 40
19 43 40
19 43 40
20 44 40
20 45 41
20 44 41
20 44 41
19 43 40
19 43 40
19 43 40
20 44 41
20 44 41
20 44 40
20 44 40
20 44 41
20 45 42
19 43 40
20 45 41
20 44 41
20 44 40
20 44 41
19 43 40
20 44 41
20 44 40
20 44 40
20 44 40
19 43 40
20 44 41
20 44 41
20 44 40
19 43 40
19 43 40
19 43 40
20 44 40
19 43 39
19 43 40
19 43 40
19 43 39
19 43 40
20 45 41
20 44 40
20 44 41
19 43 40
20 44 41
20 45 41
19 44 40
20 44 41
19 43 40
19 42 39
20 44 41
20 44 41
20 44 41
20 44 41
20 44 41
20 44 40
20 44 40
19 43 40
20 45 41
20 44 40
20 45 41
20 44 41
20 44 40
20 44 41
20 44 40
20 45 41
20 44 41
20 44 40
20 44 41
20 44 40
20 44 41
19 43 39
20 44 40
20 45 41
20 44 40
20 44 40
20 44 40
20 44 41
20 44 40
20 45 41
20 44 40
20 45 41
20 45 42
20 44 41
20 45 41
20 45 41
20 44 40
20 43 40
19 43 40
20 45 41
20 45 41
19 43 40
20 45 41
20 44 41
20 44 41
20 44 41
19 43 40
20 44 41
19 42 39
19 43 40
20 44 41
20 45 42
20 44 40
20 44 40
20 44 41
21 46 42
19 43 40
20 44 40
20 44 41
20 45 41
20 44 41
19 43 40
20 44 40
20 44 41
19 43 40
20 44 40
20 44 41
20 44 40
20 44 41
20 45 42
19 43 40
20 44 40
20 44 41
19 43 40
20 45 42
20 44 40
20 44 40
20 44 41
19 43 40
19 43 39
19 43 40
20 45 41
20 44 41
20 44 40
20 44 41
20 44 41
20 44 41
20 45 42
20 44 41
19 42 39
20 44 41
19 43 39
19 42 39
20 45 41
20 44 40
19 43 40
20 44 41
20 44 40
20 44 41
19 43 40
20 45 41
20 44 41
19 43 40
19 43 39
20 44 41
20 44 41
20 44 41
20 45 41
20 45 41
20 44 41
20 45 42
20 44 40
20 44 40
19 43 40
20 44 41
20 45 42
20 44 41
20 44 40
20 44 40
20 44 41
20 44 40
20 45 41
19 43 40
19 43 39
20 45 41
20 44 40
20 44 40
20 44 40
19 43 40
20 44 41
20 45 42
20 44 41
20 45 41
19 43 40
20 45 42
20 45 42
20 44 40
20 45 42
20 45 41
20 44 41
20 44 40
20 45 41
20 44 41
20 44 40
20 45 41
20 44 40
20 45 41
20 44 41
20 44 41
20 45 42
20 45 42
20 45 41
20 44 41
20 45 41
20 44 40
20 45 41
20 44 40
20 44 41
20 44 40
19 42 39
20 44 41
20 45 41
20 44 40
20 44 40
20 44 40
19 43 40
20 44 40
20 45 42
20 44 40
20 44 41
20 44 41
20 44 41
19 43 40
20 44 40
20 44 40
19 43 39
20 44 40
20 45 41
20 44 41
20 44 41
20 45 41
20 44 41
20 44 40
20 44 40
20 45 41
20 45 41
20 44 41
20 44 40
20 44 40
20 44 40
20 44 41
19 43 40
20 45 41
20 45 41
20 44 41
20 44 41
19 43 40
20 44 41
20 44 41
20 45 42
20 44 41
20 45 41
20 44 41
20 45 41
19 43 40
20 44 41
20 44 40
20 45 42
20 44 40
20 44 40
20 44 40
20 44 41
20 44 41
20 44 40
20 44 40
20 44 41
20 44 41
20 45 41
20 44 41
20 44 41
20 44 41
20 44 41
20 44 40
20 44 40
19 43 40
19 43 40
20 44 40
20 45 41
20 44 40
20 44 41
20 45 41
20 44 41
20 45 41
20 44 40
21 46 42
20 45 42
20 44 40
20 44 41
20 44 41
20 44 41
20 44 41
20 45 42
20 45 42
20 44 40
20 44 40
20 45 41
20 45 41
20 44 41
20 44 40
20 45 41
20 44 40
20 45 41
20 45 41
19 43 40
20 46 42
20 44 41
20 45 41
20 45 41
20 44 41
20 44 40
20 45 42
19 43 40
20 45 42
20 44 40
20 44 41
20 44 40
20 45 42
20 44 40
20 44 41
20 45 41
20 44 41
20 44 40
20 44 40
20 44 40
20 44 40
20 45 41
21 46 42
20 45 41
20 45 41
20 44 40
20 44 41
20 44 40
20 44 41
20 44 41
20 45 41
20 44 41
20 45 41
20 45 42
19 43 40
20 45 41
20 44 40
20 44 40
20 45 41
20 44 41
20 45 41
19 43 39
20 46 42
20 44 40
20 44 41
20 44 40
20 45 41
20 45 41
20 44 41
20 44 41
21 46 42
20 44 41
20 44 40
20 44 40
20 45 41
20 44 40
20 44 41
21 46 42
20 44 40
21 46 42
20 44 40
20 44 41
20 44 40
20 45 42
20 44 41
19 43 40
20 45 41
20 44 40
20 44 41
20 44 41
20 45 41
20 44 40
20 44 41
20 44 40
20 43 40
20 45 41
20 45 41
20 45 42
20 45 41
21 46 42
20 44 41
20 44 41
20 45 41
19 43 40
20 44 40
20 44 41
20 44 41
20 45 41
20 44 40
20 44 40
20 46 42
20 44 41
19 43 40
20 45 41
20 45 41
20 44 41
19 43 40
20 46 42
20 44 40
20 44 41
20 44 41
20 45 41
20 45 42
21 46 42
20 44 40
20 45 41
20 44 40
20 45 41
19 43 40
20 44 41
20 44 41
20 45 41
20 45 41
20 44 41
20 45 42
20 45 41
20 44 41
20 45 41
20 45 42
20 44 41
20 44 40
20 44 41
20 44 41
20 45 41
20 45 42
20 44 40
20 44 40
20 44 41
20 45 41
20 45 41
20 44 40
20 44 40
20 44 40
20 45 42
20 45 41
20 44 41
20 45 42
20 45 42
21 46 42
20 44 41
20 45 41
20 44 41
21 46 42
20 45 41
20 44 41
20 44 41
20 43 40
20 45 41
20 45 41
20 44 41
20 44 40
20 45 41
20 45 41
20 44 41
20 45 42
20 44 41
20 44 40
20 45 41
20 45 41
20 44 41
20 45 41
20 45 41
20 44 40
20 45 41
20 45 41
20 44 41
20 44 40
20 45 41
19 43 40
20 44 40
20 45 41
20 44 40
19 43 40
20 45 41
20 44 40
20 45 41
20 45 42
20 45 41
20 44 40
20 45 41
20 44 41
20 44 41
20 44 41
20 45 41
20 44 41
20 45 41
20 45 41
20 45 41
19 43 40
20 44 41
20 45 42
20 44 41
20 44 40
20 44 41
21 46 42
20 44 40
20 45 42
20 45 41
20 44 41
20 45 41
20 45 41
20 45 42
20 44 40
20 44 41
19 43 40
19 43 40
20 43 40
20 44 41
20 45 41
19 43 40
20 44 41
20 45 41
20 44 41
20 45 41
20 44 41
20 45 41
20 44 40
19 43 40
20 46 42
20 44 41
20 45 41
20 44 41
20 44 40
20 44 41
20 44 41
20 45 41
20 44 41
20 44 41
20 44 41
20 45 42
20 43 40
20 45 41
20 45 42
20 44 41
20 45 41
20 45 41
20 44 40
20 45 42
20 45 41
20 45 42
20 44 41
20 45 41
21 46 42
20 45 41
20 45 41
19 43 40
20 45 42
20 44 40
20 45 41
20 45 42
20 44 41
21 46 42
20 45 41
20 45 42
21 46 42
20 45 41
20 45 41
20 44 41
20 44 41
20 45 41
21 46 42
20 45 42
20 45 41
20 45 41
20 44 41
21 46 42
20 45 41
20 45 41
20 45 41
20 45 41
20 45 41
21 46 42
20 44 40
20 45 42
20 44 41
20 45 41
20 45 41
20 44 40
21 46 42
20 44 40
20 44 40
20 45 41
20 44 41
20 45 42
20 45 41
20 45 42
20 45 41
20 45 41
21 46 42
20 44 41
20 45 41
20 45 42
21 46 42
20 44 41
21 46 42
20 45 41
20 44 40
20 45 41
20 45 41
20 45 41
20 44 40
20 45 41
20 45 41
20 44 40
20 45 41
20 44 40
20 45 41
20 44 40
20 44 40
20 44 40
20 45 41
20 45 41
20 45 42
20 44 40
20 44 40
21 46 42
20 45 41
20 44 40
20 45 41
20 45 41
20 44 41
20 44 41
20 44 40
20 45 41
20 44 40
20 44 40
20 46 42
20 44 41
20 44 41
20 44 41
20 45 41
20 45 41
20 44 41
20 44 41
20 45 41
19 43 40
20 44 41
20 45 41
20 45 41
20 44 41
20 44 41
20 44 41
20 44 40
20 45 41
19 43 40
20 45 41
20 44 40
20 44 41
20 44 40
20 45 42
20 44 41
21 46 42
20 45 41
20 45 42
20 45 41
20 44 41
20 45 41
20 44 41
20 45 42
20 44 41
20 44 41
20 45 41
20 46 42
20 45 41
20 45 41
20 45 41
20 45 41
20 45 42
20 45 41
20 44 41
20 45 41
20 45 41
20 44 40
20 44 41
20 45 41
20 44 40
20 45 41
20 45 41
21 46 42
21 46 42
20 45 41
21 46 42
21 46 42
21 46 42
20 45 42
20 45 41
21 46 42
21 46 42
20 44 41
20 45 41
20 45 41
21 46 42
20 45 41
20 44 40
21 46 42
20 45 41
20 45 42
21 46 42
20 45 41
20 45 42
20 45 41
20 45 41
21 46 42
20 45 41
20 44 40
20 45 41
20 44 40
21 46 42
20 44 40
20 44 41
20 45 42
20 45 41
20 45 41
20 45 41
20 45 41
21 46 42
20 45 41
20 45 41
20 44 41
20 45 41
20 44 41
21 46 42
20 45 41
20 45 41
20 44 41
20 45 41
20 45 41
20 45 42
20 45 41
21 46 42
20 44 41
20 44 41
20 45 41
20 45 42
20 45 42
20 44 41
20 45 41
20 45 41
20 44 41
21 46 42
19 43 40
20 45 42
20 46 42
20 44 41
19 43 40
20 45 41
20 44 41
20 43 40
20 45 41
20 44 41
20 45 41
20 45 41
20 45 41
21 46 42
20 44 41
20 45 42
20 44 41
20 45 41
20 45 41
20 44 40
20 44 41
20 44 41
20 45 41
20 45 41
20 45 41
20 44 41
20 45 41
20 45 42
20 45 41
20 44 40
21 46 42
20 45 42
20 45 41
20 45 41
20 44 41
20 45 42
20 45 41
21 46 42
20 45 41
20 45 42
20 44 40
20 45 41
20 45 41
20 45 41
20 45 42
20 45 41
20 45 42
20 45 41
21 46 42
21 46 42
20 45 41
20 45 41
21 46 42
20 45 41
20 45 41
20 45 41
21 46 42
20 45 41
20 45 41
21 47 43
21 46 42
21 46 42
20 44 41
21 46 42
20 44 41
20 45 41
20 44 41
20 45 41
20 45 42
21 45 42
20 45 41
20 45 42
20 44 41
20 45 41
20 44 41
20 45 41
20 45 41
20 45 41
20 45 42
20 45 41
20 45 41
21 46 42
20 45 41
21 46 43
20 45 41
20 44 41
20 45 41
20 44 41
20 45 41
20 45 41
20 45 41
20 45 42
20 45 41
20 45 41
21 46 42
20 46 42
20 45 41
20 45 41
20 45 41
20 45 42
20 44 41
20 45 42
20 45 42
21 46 42
20 44 41
20 45 41
20 45 41
20 44 40
20 44 41
20 45 41
20 44 40
20 45 42
20 44 41
20 45 41
21 46 42
20 45 41
20 45 41
21 45 42
20 45 41
21 46 43
20 44 40
20 44 41
20 46 42
20 45 41
20 44 41
20 45 41
20 44 41
20 44 41
20 45 41
20 44 41
21 46 42
20 45 41
20 45 41
20 45 41
20 45 41
20 45 41
20 46 42
20 45 41
21 46 42
20 44 41
20 44 41
20 44 41
21 46 42
20 45 41
20 45 41
20 44 40
20 44 41
20 45 41
20 45 41
21 46 42
20 44 41
20 45 41
20 45 42
20 45 41
21 46 42
20 45 42
20 45 41
20 45 41
20 45 41
20 45 41
20 45 41
21 46 42
20 45 42
20 45 42
20 44 41
20 45 41
20 44 40
21 46 42
20 44 41
21 46 42
20 45 41
20 45 41
20 45 42
20 45 41
21 46 42
20 44 40
20 45 42
20 45 42
20 45 41
20 45 41
20 45 41
20 45 42
20 44 41
21 46 42
21 46 42
20 45 41
20 45 41
21 46 42
20 45 41
21 46 42
20 45 41
20 45 42
21 46 42
20 45 42
21 46 42
20 45 41
20 45 41
20 45 41
20 45 42
21 46 42
20 45 41
20 45 41
20 44 41
20 46 42
20 45 41
20 45 41
20 45 41
20 45 41
20 44 40
20 45 41
20 45 41
21 46 42
21 46 42
21 46 42
21 46 42
20 45 41
21 46 42
20 45 41
21 46 42
20 45 41
21 46 42
20 44 40
20 45 41
20 45 41
20 45 42
21 46 42
20 45 41
20 44 41
21 46 42
20 44 41
20 45 41
20 45 41
20 44 40
21 46 42
20 45 42
20 45 41
20 44 40
20 45 41
20 44 41
20 44 40
20 45 42
20 44 40
20 45 41
20 44 40
21 46 43
20 45 42
20 45 41
20 46 42
20 44 40
20 44 40
20 45 41
20 45 41
20 45 42
20 45 41
20 45 42
20 45 41
20 45 41
21 46 42
20 45 42
20 45 41
21 47 43
21 46 42
21 46 42
20 45 42
21 47 43
20 44 41
20 45 42
21 46 42
21 46 42
21 46 42
20 45 41
20 45 41
20 45 41
20 44 40
20 45 41
20 45 41
20 45 41
21 46 42
20 45 41
20 45 41
21 46 42
20 45 41
20 45 41
20 45 41
20 45 41
20 44 41
21 46 42
21 46 42
21 46 42
21 46 42
21 46 42
20 44 41
21 46 42
20 45 41
20 44 41
20 45 42
20 45 41
20 45 42
20 45 41
21 46 42
21 46 42
20 45 41
20 45 41
20 45 41
20 45 41
20 45 42
20 45 41
20 45 41
21 46 42
21 46 42
21 46 42
20 45 41
20 45 41
20 45 41
20 45 41
21 46 42
20 45 41
21 46 42
21 46 42
20 45 42
21 46 43
21 46 42
20 45 41
20 45 42
21 47 43
20 45 41
21 45 42
21 46 42
21 46 42
20 45 41
21 46 42
20 45 41
20 45 42
20 46 42
20 45 42
21 46 42
20 45 41
21 46 42
20 45 41
20 45 42
21 46 42
20 45 41
20 44 41
20 45 41
20 45 42
21 45 42
21 45 42
21 46 42
20 44 41
21 46 42
21 46 42
20 45 41
21 46 42
20 45 41
20 46 42
20 45 41
20 45 41
20 45 41
20 45 42
20 45 41
21 47 43
20 44 41
20 45 41
20 45 41
20 45 41
20 45 42
21 46 42
20 44 41
20 45 41
20 45 42
20 44 41
20 45 41
20 45 41
21 46 42
20 45 41
20 45 41
20 45 41
21 46 42
20 45 41
21 46 42
20 44 40
21 46 42
20 45 41
20 45 41
20 44 40
20 45 41
20 45 41
21 46 42
21 46 42
20 45 41
20 45 41
21 46 42
20 45 41
20 45 41
21 47 43
20 45 42
20 44 41
21 46 42
20 44 41
21 46 42
20 45 41
21 46 42
20 45 41
20 45 41
21 46 42
21 46 42
21 46 42
20 45 41
21 46 42
21 46 42
20 45 41
21 45 42
20 45 41
21 46 42
21 46 42
21 46 42
21 46 42
21 46 42
21 46 42
20 45 41
20 45 41
20 45 42
21 46 42
20 45 41
21 46 42
20 45 41
20 44 41
21 46 42
21 46 43
20 45 41
21 46 42
20 45 42
20 45 41
21 46 42
20 45 41
20 45 41
20 45 41
21 47 43
20 45 41
20 45 41
20 45 41
20 45 41
20 45 42
21 46 42
20 45 42
21 47 43
21 46 42
20 45 41
21 46 42
21 47 43
20 45 41
20 45 41
20 45 41
21 46 42
21 47 43
20 45 41
20 45 41
21 46 42
21 46 42
21 47 43
20 45 42
20 45 41
21 46 42
20 45 42
20 44 41
21 46 42
21 46 42
21 45 42
21 46 42
21 46 42
21 46 42
20 45 41
21 46 42
20 45 41
21 46 42
20 45 41
21 46 42
21 46 43
20 45 41
20 45 41
20 45 41
21 46 42
20 45 41
20 44 40
21 45 42
20 45 41
20 45 41
20 44 41
20 44 41
21 45 42
21 46 42
20 44 40
20 45 41
21 46 42
21 46 42
20 45 41
20 46 42
20 45 41
21 46 42
21 47 43
20 44 40
20 44 40
20 45 41
21 46 42
21 46 43
21 46 42
20 45 41
20 45 41
20 45 41
20 45 41
20 45 41
20 45 42
21 46 42
21 46 42
20 45 41
21 46 42
21 46 42
20 45 42
20 45 41
21 46 42
21 45 41
21 46 42
20 45 41
21 46 42
20 45 41
21 46 42
21 46 42
21 46 42
21 46 42
20 45 42
20 45 42
20 45 42
20 45 41
20 45 41
21 46 42
21 46 43
21 46 42
20 45 41
20 44 40
21 46 42
20 45 41
20 45 41
21 46 42
21 46 42
21 46 42
21 46 42
21 46 42
20 45 41
20 44 40
21 46 42
20 45 41
20 45 41
21 46 42
20 45 41
21 46 42
20 45 41
21 46 42
20 45 41
21 46 42
20 44 41
21 46 42
21 46 42
21 46 42
20 45 41
21 46 42
21 46 42
21 46 42
21 46 42
20 45 42
21 46 42
20 45 41
21 46 42
21 47 43
21 46 42
21 46 42
21 47 43
20 45 41
21 46 42
20 45 41
20 45 41
21 46 42
21 46 42
21 47 43
20 44 41
21 46 42
20 45 42
21 47 43
21 47 43
21 46 42
20 45 42
20 45 42
20 45 42
21 46 42
21 46 42
20 44 41
20 45 41
20 45 41
21 46 42
20 45 41
20 45 41
21 47 43
20 45 42
21 46 42
20 45 41
20 45 42
20 45 42
21 46 42
20 44 41
21 46 42
21 46 42
20 45 41
21 46 42
21 46 42
20 45 42
21 46 42
21 46 42
20 44 40
21 46 42
20 45 41
20 45 41
20 45 41
21 46 42
20 44 41
20 45 41
20 45 41
21 46 42
21 46 42
21 46 42
20 45 41
21 46 42
21 46 42
20 45 41
21 46 42
20 45 41
20 45 41
20 45 41
20 45 41
20 45 41
20 45 41
21 47 43
21 45 42
21 46 42
20 45 41
21 47 43
21 46 42
21 46 42
21 46 42
21 46 43
21 46 42
21 46 42
21 46 42
21 47 43
20 45 42
20 45 41
20 45 41
20 45 41
21 47 43
21 46 42
21 46 42
21 47 43
21 46 42
21 46 42
20 45 41
21 46 42
20 45 41
21 47 43
21 46 43
21 46 42
21 46 42
21 46 42
21 47 43
21 46 42
20 45 41
21 46 42
21 46 42
21 46 42
21 46 42
21 46 42
21 47 43
21 46 42
21 46 42
21 46 42
21 46 42
21 47 43
21 46 42
21 46 42
21 46 42
21 45 41
21 46 42
20 45 41
21 47 43
21 46 42
21 46 42
21 46 42
21 47 43
20 45 41
21 46 42
20 45 41
20 44 41
21 46 43
20 45 41
20 45 41
20 44 40
21 46 43
20 45 41
21 47 43
21 46 42
21 46 42
20 45 41
20 45 41
21 46 42
21 47 43
21 46 42
20 45 41
20 44 41
21 46 43
21 47 43
20 44 41
21 46 42
20 45 41
21 46 42
21 46 42
21 46 42
21 46 42
21 46 43
20 45 41
21 46 42
20 45 41
21 46 42
21 46 42
21 46 42
20 45 42
21 46 42
21 46 43
20 45 41
21 46 42
21 46 42
20 45 41
21 47 43
21 47 43
20 45 41
20 44 41
21 47 43
21 46 42
20 45 41
21 46 42
20 45 41
21 46 42
21 46 42
21 47 43
20 45 41
21 46 42
21 46 42
21 46 42
20 45 41
21 46 42
21 46 42
21 46 42
20 45 41
21 46 42
20 45 42
21 46 42
21 47 43
21 46 42
21 46 42
20 45 41
20 45 41
21 46 42
21 46 42
21 46 42
21 46 42
20 45 41
20 45 41
20 45 41
21 46 42
21 46 42
21 46 42
21 46 42
21 45 42
21 45 42
20 45 42
21 47 43
21 46 42
21 46 42
21 46 42
21 46 42
21 46 42
21 47 43
21 47 43
21 46 42
21 46 42
21 47 43
20 45 41
21 46 42
21 46 42
21 47 43
21 46 42
21 45 42
21 46 42
21 47 43
21 46 42
21 46 42
21 46 43
21 46 42
21 47 43
21 47 43
20 45 42
21 46 42
21 46 42
21 46 42
21 46 42
21 47 43
21 46 42
99 96 87
191 172 157
204 184 169
204 183 168
139 128 118
29 47 47
20 45 41
21 46 42
20 45 41
20 45 41
21 47 43
21 46 42
20 45 41
21 46 42
21 46 42
21 46 42
21 46 42
21 46 42
21 46 42
21 46 42
21 46 42
20 45 41
21 46 42
21 46 42
21 45 41
21 46 42
21 46 42
20 45 41
21 46 42
21 46 42
21 46 42
20 45 41
20 45 41
20 44 41
20 45 41
21 46 42
20 45 41
20 45 41
21 46 42
20 45 41
20 45 41
21 46 42
21 46 42
20 45 41
20 45 41
20 45 41
21 46 42
20 44 41
21 46 42
20 45 41
20 45 42
20 45 42
21 46 42
20 45 42
20 45 41
21 46 42
21 46 42
21 46 42
21 47 43
20 45 41
21 47 43
21 46 42
21 46 42
21 47 43
21 46 42
21 46 42
21 47 43
21 46 42
21 47 43
21 45 42
20 45 41
21 46 42
21 47 43
21 46 42
21 46 42
21 47 43
21 47 43
21 47 43
21 46 42
21 46 42
20 45 41
21 46 43
21 46 42
21 46 42
21 47 43
21 46 42
21 47 43
21 46 42
21 47 43
21 46 42
20 45 41
21 46 42
21 47 43
21 46 42
21 47 43
21 46 42
21 45 42
20 45 41
21 46 42
21 46 42
21 46 42
21 47 43
21 47 43
21 46 42
21 46 42
21 46 42
21 47 43
21 46 42
21 47 43
21 47 43
20 45 41
20 45 41
21 47 43
20 45 41
21 46 42
21 46 42
21 46 42
20 45 41
21 47 42
131 122 111
231 205 187
242 215 196
244 218 198
243 217 197
236 211 193
116 94 111
32 47 49
21 47 43
20 45 41
20 45 41
21 46 42
21 46 42
21 46 42
21 46 42
20 45 41
21 46 42
21 46 42
21 45 41
21 47 43
21 46 42
21 46 42
20 45 42
21 46 42
21 46 42
21 46 42
21 46 42
21 47 43
20 45 42
21 46 42
21 46 42
21 46 42
21 46 42
20 45 41
20 45 41
21 46 42
21 46 42
21 46 42
20 45 41
21 46 42
21 47 43
20 45 41
21 47 43
21 46 42
20 45 41
21 46 42
21 46 42
20 45 41
21 45 42
21 47 43
21 46 42
21 46 42
21 46 42
21 46 42
21 46 42
21 47 43
21 46 42
21 46 42
21 46 42
21 47 43
20 45 41
21 46 42
21 46 42
21 47 43
21 46 42
21 47 43
21 46 42
21 46 42
21 46 42
21 46 42
21 46 42
21 46 42
21 45 42
21 47 43
20 45 41
21 46 42
21 46 42
21 46 42
21 47 43
21 46 42
21 47 42
21 47 43
21 46 42
21 47 43
21 47 43
21 47 43
21 46 42
21 45 42
21 47 43
20 44 41
21 46 42
21 46 42
20 45 41
21 46 42
21 46 42
21 46 42
21 47 43
21 46 42
21 46 42
21 46 42
21 47 43
20 45 41
21 46 42
21 46 42
21 46 42
20 45 41
22 48 44
21 46 42
21 46 42
21 46 42
21 46 42
21 46 42
21 46 42
21 47 43
21 46 42
20 45 41
21 46 42
21 47 43
22 48 43
74 77 70
217 193 175
240 212 192
248 219 198
252 223 202
249 221 200
229 202 186
105 73 107
71 54 79
20 45 41
21 46 42
21 47 43
20 45 41
21 46 42
21 47 43
21 47 42
21 46 42
21 46 42
21 46 42
20 45 41
21 46 42
22 48 43
21 47 43
21 47 43
21 46 42
21 46 42
21 47 43
20 45 41
21 46 42
21 46 42
21 46 42
21 46 42
21 46 42
21 46 42
21 46 42
21 46 42
21 46 42
20 45 41
21 46 42
21 46 42
21 46 42
21 46 42
20 45 41
21 46 42
21 46 42
21 46 42
21 46 42
21 47 43
21 46 42
20 45 41
21 47 43
21 46 42
21 46 42
21 46 42
21 46 42
21 46 42
21 47 43
21 46 42
21 46 42
21 47 43
21 46 42
20 45 41
21 46 42
21 47 43
21 46 42
21 46 42
21 46 42
20 45 41
21 47 43
21 47 43
20 45 41
21 47 43
21 46 42
21 47 43
21 46 42
21 46 42
21 46 42
21 45 41
21 47 43
21 47 43
21 47 43
21 47 43
21 47 43
21 47 43
21 46 42
21 47 43
21 47 43
21 46 42
21 47 43
21 45 42
21 47 43
21 47 43
20 45 41
20 45 41
21 46 42
21 47 43
21 47 43
21 46 42
21 47 43
21 47 43
21 46 42
21 47 43
21 46 42
21 46 42
21 47 43
20 45 41
21 47 43
21 46 42
21 47 43
21 47 43
21 47 43
22 48 44
21 47 43
21 47 43
21 46 42
21 46 42
20 45 41
21 46 42
21 47 42
21 46 42
135 123 111
215 190 170
231 203 182
247 217 194
255 250 221
255 226 202
168 139 143
97 64 102
81 54 85
34 46 49
21 46 42
21 47 43
21 46 42
22 48 43
21 46 42
21 47 43
20 45 41
21 46 42
20 45 41
21 46 42
20 45 41
21 46 42
21 46 42
21 47 43
21 46 42
21 46 42
21 46 42
21 46 42
21 46 42
21 47 43
21 47 43
22 48 43
21 46 42
22 48 44
21 47 43
21 47 43
21 46 43
21 46 42
21 46 42
20 44 41
20 45 41
21 46 42
20 45 41
21 46 42
21 46 42
21 46 42
21 47 43
20 45 41
21 47 43
21 47 43
21 47 43
21 46 42
21 46 42
20 45 41
21 47 43
21 46 42
21 46 42
21 47 43
21 46 42
21 46 42
21 47 43
21 46 42
21 46 42
21 47 43
21 46 42
21 46 42
21 47 43
20 45 41
21 46 42
21 46 42
21 47 43
21 46 42
21 46 42
21 47 43
20 45 41
21 46 42
21 47 43
21 47 43
21 47 43
21 47 43
21 46 42
20 45 41
21 46 42
21 47 43
21 47 43
21 46 42
21 47 42
21 47 43
21 46 42
21 47 43
21 47 43
21 47 42
22 48 43
21 46 42
21 46 42
21 46 42
21 46 42
21 47 43
21 47 43
21 47 43
20 45 41
21 47 43
21 47 43
20 45 41
21 47 43
21 47 43
22 48 43
21 46 42
21 47 43
21 46 42
21 46 42
21 46 42
22 48 43
22 47 43
21 45 41
21 45 41
21 47 43
21 46 42
21 47 43
21 46 42
147 132 119
191 167 148
218 191 169
228 199 177
219 191 170
152 124 128
163 139 130
164 142 132
88 64 86
38 45 51
21 46 42
21 47 43
21 47 43
21 47 43
21 47 43
20 45 41
21 47 43
21 47 43
21 46 42
21 47 43
20 45 41
21 46 42
21 47 43
21 46 42
21 47 43
21 47 43
21 46 42
21 47 43
21 46 42
21 46 42
21 46 42
21 46 42
21 45 41
21 46 42
21 46 42
21 46 42
21 47 43
21 46 42
22 48 44
21 46 42
21 46 42
21 46 42
21 46 42
20 45 41
21 47 43
21 46 42
21 46 42
21 46 42
21 46 42
21 46 42
21 47 43
21 47 43
22 48 44
21 47 43
21 46 42
21 46 42
21 46 42
21 46 42
21 46 42
21 47 43
21 47 43
21 46 42
21 47 43
21 46 42
21 46 42
21 46 42
21 47 43
21 46 42
22 48 43
21 46 42
21 47 42
21 46 42
21 47 43
21 47 43
21 47 43
21 46 42
21 46 42
21 46 42
21 47 43
21 47 43
21 47 42
21 46 42
21 46 42
20 45 41
21 46 42
21 47 43
21 47 43
21 46 42
21 46 42
21 45 41
21 47 43
21 47 43
21 47 43
21 46 42
21 45 41
21 47 43
21 47 43
21 47 43
21 47 43
21 46 42
21 47 43
21 46 42
21 47 43
21 47 42
21 47 42
21 47 43
21 46 42
21 47 43
21 47 43
21 46 42
21 46 42
21 47 42
21 46 42
21 46 42
21 47 43
21 46 42
21 47 43
21 46 42
21 46 42
21 46 42
83 76 74
156 135 122
169 145 132
146 122 119
97 68 93
127 104 105
165 144 126
166 145 127
105 88 89
35 48 47
21 47 43
21 47 43
21 47 43
21 46 42
21 46 42
21 46 42
21 46 42
20 44 41
21 46 42
21 47 43
21 46 42
21 46 42
21 46 42
21 46 42
21 46 42
21 46 42
21 46 42
21 46 42
21 46 42
21 46 42
21 46 42
21 45 42
21 46 42
21 46 42
21 46 42
20 45 41
21 47 43
21 47 43
21 47 43
20 45 41
22 48 44
21 47 42
22 47 43
21 47 43
21 47 43
20 45 41
21 47 43
21 46 42
21 46 42
21 47 43
21 47 43
21 46 42
21 46 42
21 46 42
21 47 43
21 47 42
21 47 43
21 46 42
21 46 42
22 47 43
21 46 42
21 46 42
21 46 42
21 47 43
21 46 42
22 48 44
21 47 43
21 46 42
21 47 43
21 47 43
21 46 42
21 47 43
21 47 43
21 45 41
21 46 42
21 46 42
21 47 43
21 47 43
21 47 43
21 47 43
21 46 42
21 47 43
21 47 43
21 46 42
21 46 42
21 47 43
21 46 42
22 48 43
21 46 42
21 46 42
21 46 42
21 47 43
21 47 42
21 46 42
21 46 42
21 47 43
21 47 43
21 47 42
21 46 42
21 46 42
21 46 42
21 46 42
22 47 43
21 46 42
22 47 43
21 46 42
21 47 43
21 46 42
21 46 42
21 46 42
21 47 42
21 46 42
21 46 42
21 47 43
21 47 43
21 46 42
21 46 42
20 45 41
21 46 42
21 46 42
29 38 41
52 34 53
65 42 64
73 46 71
76 49 75
116 95 93
164 143 123
113 99 86
67 58 59
20 44 40
21 47 43
21 45 41
21 47 43
21 46 42
21 46 42
21 46 42
21 45 41
21 47 43
22 48 43
21 46 42
21 46 42
21 47 43
21 46 42
21 46 42
20 45 41
21 47 43
21 46 42
21 46 42
21 46 42
21 46 42
21 47 43
21 46 42
21 46 42
21 46 42
22 48 44
21 47 43
21 46 42
21 47 43
21 46 42
21 46 42
21 47 43
21 46 42
21 46 42
20 45 41
21 46 42
21 46 42
21 46 42
21 47 43
21 47 43
21 45 41
20 45 41
21 47 43
21 46 42
21 47 43
22 47 43
22 48 44
21 47 43
21 47 43
21 47 43
22 48 43
21 47 42
21 47 43
21 47 43
21 47 43
21 47 43
21 46 42
21 46 42
21 47 43
21 47 42
21 47 43
21 46 42
21 47 43
21 47 43
21 46 42
21 47 43
21 47 43
22 48 44
21 46 42
21 46 42
21 46 42
21 46 42
21 47 43
21 47 43
21 47 43
21 47 43
21 47 43
21 47 42
21 46 42
21 47 43
22 48 43
21 46 42
22 48 43
21 47 43
21 46 42
21 47 43
21 47 42
21 47 42
21 46 42
21 47 43
22 48 44
21 47 43
21 47 42
20 45 41
21 46 41
22 48 43
22 47 43
22 49 44
21 47 43
22 48 44
22 48 43
20 45 41
21 46 42
21 46 42
21 46 42
21 46 42
21 46 41
21 45 41
20 45 41
21 45 41
19 42 38
16 36 33
20 22 26
42 27 41
48 31 46
52 33 49
57 41 52
78 66 61
55 49 46
25 37 34
18 41 37
21 46 42
21 46 42
21 45 41
22 47 43
21 46 42
21 47 43
20 45 41
21 46 42
21 46 41
21 47 42
21 46 42
22 48 43
21 47 43
21 47 43
21 47 42
21 46 42
21 46 42
21 46 42
21 45 41
21 46 42
21 47 43
21 46 42
21 46 42
21 47 43
21 46 42
21 46 42
21 46 42
21 46 42
21 46 42
21 46 42
21 47 43
21 46 42
22 48 43
21 46 42
21 46 42
21 47 43
21 47 43
21 47 43
21 47 43
21 46 42
21 46 42
21 46 42
21 47 43
21 47 43
21 46 42
21 47 43
21 47 43
21 46 42
21 46 42
21 47 42
21 47 43
21 45 41
21 46 42
21 47 43
22 48 43
22 47 43
21 47 43
21 46 42
21 47 43
21 46 42
21 46 42
22 47 43
22 48 44
21 46 42
21 47 43
21 47 43
21 47 43
22 48 43
22 47 43
21 47 42
21 46 42
21 47 43
21 46 42
22 48 43
21 47 43
21 47 43
21 46 42
21 46 42
21 46 42
21 47 43
21 47 43
22 49 44
22 48 43
21 46 42
21 47 43
21 46 42
21 47 43
21 46 41
21 47 43
21 47 43
21 47 43
21 47 43
20 45 41
22 48 44
21 46 42
21 46 42
21 47 43
22 47 43
21 47 43
21 46 42
21 46 42
21 46 42
21 47 42
21 46 42
21 45 41
20 45 41
21 46 41
20 44 40
20 44 40
19 42 38
18 39 36
13 29 27
12 16 17
21 16 20
26 19 22
22 21 22
26 28 23
24 32 28
15 34 31
19 42 38
20 44 40
21 46 41
21 46 42
21 46 42
20 44 40
21 46 42
21 45 41
21 46 42
21 46 42
21 47 43
21 46 42
22 48 44
21 47 43
21 47 43
21 47 43
21 46 42
22 48 44
21 45 41
21 45 41
21 47 43
21 47 43
21 47 43
21 47 43
21 46 42
21 46 42
20 45 41
21 47 43
22 48 44
22 48 44
21 47 43
21 46 42
21 47 42
21 47 43
21 47 43
21 46 42
21 47 43
21 46 42
21 47 43
21 47 43
21 46 42
21 46 42
21 46 42
21 46 42
21 47 43
21 46 42
21 47 43
21 46 42
21 47 43
21 46 42
21 47 43
21 46 42
21 47 43
21 46 42
21 47 42
21 47 43
22 47 43
21 47 43
21 47 43
21 47 42
21 46 42
21 47 43
21 46 42
21 46 42
21 46 42
22 48 43
22 47 43
21 46 42
22 47 43
22 48 44
21 47 43
21 47 43
21 46 42
22 48 44
21 46 42
22 48 44
22 47 43
21 47 43
21 47 43
21 46 42
21 46 42
22 48 44
22 47 43
21 47 42
21 47 43
21 47 42
21 47 43
21 46 42
22 49 44
22 48 43
21 47 43
21 47 42
21 47 43
21 47 43
21 46 42
22 48 43
21 47 43
21 46 42
22 48 43
21 47 43
21 47 43
21 47 43
22 49 44
21 47 43
21 47 43
21 47 42
21 46 42
21 46 42
21 45 41
21 45 41
20 43 39
20 43 39
19 41 36
18 38 34
15 32 29
15 31 27
15 29 25
15 33 29
18 38 34
20 43 38
20 43 39
20 44 39
21 45 41
21 46 42
22 47 43
21 47 42
21 46 42
21 47 43
21 46 42
22 48 44
21 47 43
21 47 43
21 47 43
22 48 44
21 47 43
21 47 43
21 47 43
22 48 44
22 48 43
21 47 43
21 47 43
22 48 44
21 46 42
21 46 42
21 46 42
21 46 42
21 46 42
21 46 42
21 47 43
21 47 43
21 47 42
21 47 43
21 47 43
21 46 42
21 46 42
21 46 41
21 47 43
22 48 43
21 47 42
21 46 42
21 47 43
21 46 42
21 47 43
22 48 43
22 48 43
21 46 42
21 47 43
22 48 44
21 47 43
22 48 44
21 47 43
21 46 42
21 46 42
21 47 43
21 47 43
21 46 42
21 46 42
22 48 43
22 47 43
22 48 43
21 46 42
21 47 43
21 47 43
21 46 42
21 47 43
21 47 42
21 47 43
21 46 41
21 46 42
22 48 44
21 47 43
22 48 44
21 47 43
21 47 43
22 48 44
21 46 42
22 47 43
22 48 44
21 47 43
21 47 42
21 47 43
21 47 43
22 48 43
21 47 42
22 48 43
22 48 43
21 46 42
21 47 42
22 48 44
21 47 43
21 47 43
22 48 44
21 47 43
22 48 44
21 46 42
21 46 42
22 48 44
22 48 43
21 47 43
22 48 44
21 47 42
21 47 43
21 46 42
21 47 43
21 47 43
21 47 43
21 46 42
21 45 41
21 47 42
21 47 42
21 46 41
21 45 41
21 46 41
20 45 40
20 44 39
20 43 38
20 43 39
20 44 40
21 45 40
21 46 42
21 45 41
21 45 41
20 45 41
21 45 41
21 46 42
21 46 42
21 46 42
21 47 43
21 46 42
21 46 42
21 47 42
21 47 42
21 47 43
22 48 44
21 46 42
21 47 43
21 47 43
22 47 43
21 47 43
21 45 41
21 47 42
21 47 43
21 46 42
21 47 42
22 48 43
22 48 43
21 47 43
21 46 42
21 47 43
21 47 43
21 47 43
21 46 42
21 46 41
21 46 42
21 47 43
21 47 43
21 47 43
21 46 42
22 48 44
21 47 43
22 48 43
21 46 42
22 48 44
21 47 43
21 47 43
22 49 45
22 48 43
21 47 43
21 46 42
22 48 44
21 47 43
21 47 43
22 47 43
22 48 44
21 46 42
21 47 43
22 47 43
22 48 44
21 46 41
21 47 43
22 48 44
21 46 42
21 47 43
22 47 43
21 47 43
22 48 43
21 47 42
22 47 43
22 47 43
21 47 43
22 48 44
21 46 42
21 47 43
21 47 43
21 47 43
21 47 43
22 48 44
22 48 44
22 49 44
21 47 42
22 48 43
21 46 42
21 47 43
22 48 43
21 47 43
21 47 43
21 46 42
22 47 43
22 48 44
21 47 43
21 47 43
22 48 44
22 48 44
22 47 43
22 48 44
21 47 43
22 48 44
22 48 43
21 46 42
22 47 43
21 46 42
21 47 42
21 47 42
22 47 43
21 47 43
21 47 43
22 47 43
22 48 43
22 48 43
21 46 42
21 46 42
22 47 43
21 46 42
21 47 43
21 47 42
21 46 42
20 44 39
22 48 44
21 47 42
21 46 41
21 46 41
21 46 41
21 47 42
21 45 41
22 48 44
21 47 43
21 46 42
21 46 42
21 47 43
21 47 43
22 47 43
21 47 42
21 46 42
21 47 42
21 47 43
21 46 42
21 47 42
21 46 42
21 46 42
21 47 43
21 46 42
21 47 43
21 47 43
22 48 43
21 47 43
21 46 42
21 46 42
21 47 43
21 47 43
21 47 43
22 48 43
21 47 42
21 47 43
21 47 43
21 46 42
21 45 41
21 47 43
21 47 42
21 46 42
21 46 42
21 47 42
21 46 42
22 48 44
21 47 43
21 47 43
21 46 42
21 46 42
21 46 42
21 47 43
21 46 42
22 48 44
22 47 43
21 46 42
21 47 43
22 48 44
21 46 42
22 48 43
22 47 43
21 46 42
22 47 43
22 48 43
21 47 43
22 48 44
22 48 44
21 47 43
22 48 44
21 47 43
22 48 44
22 48 44
22 48 43
21 47 42
22 47 43
21 46 42
21 47 42
21 47 43
21 47 43
22 47 43
21 46 42
22 47 43
21 46 42
21 47 42
22 48 43
22 47 43
22 48 43
21 47 43
21 47 43
21 47 43
22 48 43
22 48 43
21 46 42
21 47 43
22 47 43
22 48 43
22 48 43
21 46 42
22 48 44
21 46 42
22 48 43
21 47 42
22 49 45
22 48 44
21 46 42
22 48 43
21 46 42
22 48 44
21 46 42
21 47 42
21 46 42
22 48 44
21 47 43
21 47 43
21 46 42
22 47 43
21 47 43
21 46 42
21 46 42
22 48 43
21 47 43
21 46 42
22 48 43
21 46 42
22 48 43
22 48 43
21 45 41
21 47 43
22 47 43
21 47 42
21 47 43
21 46 42
22 48 44
22 48 43
21 46 42
21 46 42
22 47 43
22 47 43
21 46 42
21 47 42
21 47 43
21 47 42
21 47 43
21 46 42
21 46 42
22 47 43
21 46 42
21 47 42
21 47 43
21 47 43
22 48 44
21 47 43
22 48 43
21 46 42
22 47 43
21 47 43
21 47 43
21 46 42
21 47 43
22 48 44
21 46 42
21 47 43
21 47 43
22 48 43
22 48 43
21 47 43
21 47 43
21 47 42
21 46 42
22 48 44
22 47 43
21 47 42
21 47 42
21 47 43
22 48 44
21 46 42
21 47 43
21 47 43
21 47 43
21 47 43
22 47 43
22 48 44
21 47 43
21 47 43
22 47 43
22 48 43
21 46 42
21 46 42
21 47 43
22 48 44
22 48 44
21 47 43
21 47 43
22 47 43
22 48 44
21 47 43
22 47 43
21 47 43
22 48 43
22 49 45
22 48 43
21 46 42
22 48 44
21 47 43
22 47 43
22 48 43
22 48 44
22 48 43
21 47 43
22 47 43
21 47 43
22 48 44
21 47 42
21 47 43
21 45 41
22 49 45
21 47 42
22 48 44
22 48 43
21 47 43
22 49 44
21 47 42
21 47 43
22 49 44
22 48 44
21 47 43
22 49 44
22 48 44
22 48 43
21 46 42
22 47 43
21 47 43
22 48 44
21 46 42
21 47 43
21 47 43
22 48 43
22 48 43
21 46 42
22 47 43
22 48 44
21 47 43
21 47 42
21 47 43
21 47 43
21 47 43
21 47 43
22 48 43
21 47 43
21 47 43
21 47 43
21 46 42
22 48 43
22 49 45
22 47 43
22 48 44
21 46 42
22 48 44
21 47 42
21 47 43
21 47 42
22 48 43
21 47 43
22 48 43
22 48 44
21 47 42
21 46 42
21 47 43
22 48 44
21 46 42
21 46 42
21 46 42
21 47 43
21 47 43
21 47 42
21 47 43
22 48 43
22 48 44
21 47 43
21 46 42
21 47 43
22 48 44
22 48 44
21 46 42
21 47 43
22 47 43
21 47 43
22 48 44
21 47 43
21 47 43
21 47 43
21 47 43
22 48 44
22 48 44
21 47 42
21 46 42
22 48 44
22 48 43
22 48 43
21 47 43
21 47 43
22 49 44
21 47 43
22 48 44
21 45 41
21 47 43
22 49 44
22 48 43
22 47 43
22 48 43
21 47 42
22 49 44
22 48 44
21 46 42
21 47 43
22 49 44
21 47 43
22 48 44
22 48 43
22 48 44
21 47 43
22 48 44
21 47 42
22 48 44
22 47 43
22 48 44
21 47 42
22 49 45
23 50 45
22 48 44
22 48 43
22 48 43
21 47 43
22 49 44
21 47 43
21 47 43
22 48 43
22 48 43
21 47 42
22 48 43
21 47 42
23 50 45
22 48 43
22 47 43
22 47 43
22 48 43
22 49 44
22 48 43
21 47 43
22 48 44
22 48 44
22 47 43
22 48 43
22 48 43
21 47 43
22 49 44
22 47 43
21 47 43
22 48 44
21 46 42
21 46 42
22 47 43
21 47 43
22 47 43
22 47 43
22 48 43
22 48 44
22 48 44
22 47 43
21 46 42
22 48 44
22 48 43
22 48 44
21 47 43
22 47 43
22 48 43
22 48 43
22 48 43
22 48 44
21 47 43
22 48 43
22 48 44
21 46 42
22 48 43
21 47 43
22 48 44
21 46 42
22 48 43
21 47 43
21 46 42
21 46 42
22 48 43
21 47 42
21 47 43
21 46 42
21 47 43
21 47 43
22 48 44
21 46 42
21 47 43
22 48 43
22 47 43
22 48 44
22 48 44
21 46 42
22 48 43
22 48 44
21 47 43
21 47 42
22 49 44
21 47 43
21 47 43
22 47 43
21 46 42
21 47 43
22 48 43
21 47 42
22 49 44
22 47 43
22 48 44
21 46 42
22 48 43
22 47 43
21 47 43
22 48 43
21 47 43
22 47 43
21 47 43
22 48 44
22 47 43
22 48 43
21 47 43
22 47 43
22 47 43
21 47 43
22 48 43
22 47 43
22 49 44
22 48 44
22 48 44
22 48 43
22 48 43
21 47 43
21 47 43
22 48 43
22 49 44
22 48 44
22 48 43
23 50 45
22 47 43
22 48 43
22 48 44
21 47 43
22 48 43
22 47 43
22 48 43
21 47 43
22 48 44
22 48 44
22 49 45
21 47 43
22 47 43
21 47 42
21 47 43
22 48 44
22 48 44
21 47 42
21 47 43
22 49 45
22 48 43
22 48 43
21 47 42
21 47 43
21 47 42
22 47 43
22 49 45
21 47 43
21 47 43
22 49 45
22 49 45
22 48 43
22 47 43
22 48 43
22 48 44
22 47 43
22 48 44
22 47 43
21 47 43
21 47 43
21 47 43
22 48 44
22 48 43
22 48 44
21 47 43
21 47 42
22 48 44
21 47 42
22 48 44
22 48 44
22 48 44
21 47 43
21 47 43
21 47 43
21 47 42
22 49 45
22 47 43
22 48 43
21 47 43
22 48 44
21 47 42
21 47 43
22 48 44
21 47 42
22 48 43
21 47 42
22 48 43
21 47 42
22 47 43
22 47 43
22 48 44
22 48 43
21 47 43
22 48 44
22 48 43
22 49 45
22 48 44
22 48 44
22 47 43
21 47 43
22 48 43
22 48 43
21 47 43
21 46 42
22 48 43
21 47 43
22 48 44
22 48 43
21 47 43
22 49 44
22 48 43
22 48 44
21 47 43
22 49 44
21 47 43
22 48 44
22 48 43
22 48 44
22 48 43
22 48 44
21 47 43
22 48 43
22 48 44
22 48 43
22 48 44
22 49 44
22 48 43
22 48 43
23 50 45
21 47 43
22 48 43
22 47 43
22 49 45
22 47 43
22 48 43
22 48 44
22 48 44
22 48 43
22 48 43
22 48 44
22 48 43
22 48 43
22 47 43
22 48 43
22 47 43
22 47 43
22 47 43
22 49 44
22 48 44
22 48 43
21 47 43
22 48 43
22 48 43
22 48 43
21 47 43
22 49 44
21 47 43
22 48 44
21 47 43
22 49 44
22 48 44
22 48 43
22 48 44
22 48 44
22 48 44
22 48 44
22 47 43
22 47 43
22 48 43
22 47 43
22 49 44
21 47 43
22 48 44
22 48 44
22 48 43
21 47 43
21 47 43
22 47 43
22 48 44
22 48 44
22 48 43
22 48 43
22 47 43
22 48 43
22 47 43
21 47 43
22 48 43
22 47 43
22 47 43
21 47 43
21 47 43
22 48 43
22 47 43
21 47 43
21 47 43
21 47 43
22 48 44
22 48 44
21 47 43
21 47 43
22 48 44
22 48 44
22 48 44
21 47 43
22 48 44
22 48 44
22 47 43
21 47 43
21 47 42
22 47 43
21 47 43
22 48 44
21 47 43
21 47 43
22 47 43
22 48 43
21 47 43
21 45 41
22 49 44
22 48 44
22 47 43
22 47 43
22 49 44
21 47 42
22 48 43
22 48 44
21 47 43
22 48 43
22 49 44
21 47 42
22 48 43
22 48 43
22 48 44
22 48 43
22 48 44
22 49 44
22 49 44
22 47 43
22 48 44
21 47 43
22 48 44
22 48 43
22 49 44
22 48 44
21 47 43
22 49 44
22 48 43
21 47 43
22 48 43
22 49 44
22 49 45
21 47 43
22 49 44
22 49 45
23 49 45
22 48 43
21 47 42
22 47 43
22 47 43
22 49 44
22 48 44
22 48 44
21 47 43
22 48 44
21 47 43
22 49 44
22 48 44
22 49 45
22 49 45
22 49 44
22 48 43
22 48 44
22 48 43
22 48 44
22 49 44
22 49 44
22 47 43
21 47 42
22 47 43
21 47 42
22 48 43
21 47 42
23 49 45
22 48 43
22 48 44
22 48 43
23 49 45
22 48 43
22 48 43
22 47 43
22 48 44
22 48 43
22 47 43
22 48 44
21 47 43
22 48 44
22 48 44
22 48 44
22 48 43
21 47 42
22 48 44
21 47 42
21 47 42
22 49 44
22 48 43
22 48 44
22 47 43
22 48 44
22 48 43
22 49 44
22 48 43
22 48 43
22 48 43
22 49 44
22 47 43
22 48 43
22 48 44
21 47 42
21 46 42
22 49 44
21 47 43
22 47 43
21 47 43
22 48 44
22 48 43
21 47 42
21 47 43
22 48 43
22 48 44
21 47 43
22 48 44
21 47 43
21 47 42
21 46 42
22 48 44
22 48 43
21 47 43
22 48 44
22 49 45
22 49 44
22 48 44
22 48 44
22 47 43
22 48 44
21 47 43
21 47 42
22 48 44
22 48 43
21 47 43
21 47 43
21 46 42
21 47 43
22 47 43
21 47 43
22 49 44
22 47 43
22 48 44
22 48 44
22 47 43
22 49 44
22 47 43
22 48 43
22 47 43
22 48 43
22 48 44
22 48 44
22 48 44
22 49 45
22 48 44
22 49 45
21 47 43
23 49 45
27 47 44
30 45 44
33 45 45
30 46 45
36 54 49
22 49 44
22 47 43
21 47 43
22 47 43
22 49 44
22 47 43
22 49 44
21 47 43
23 49 45
22 48 44
22 48 43
22 47 43
22 48 44
22 48 44
21 47 43
22 48 43
22 48 43
21 47 43
23 50 45
23 50 45
22 49 44
22 48 44
22 48 43
21 47 43
22 47 43
21 47 43
22 48 43
22 48 43
23 49 45
22 48 44
22 48 43
22 48 44
21 47 43
22 47 43
22 49 44
21 47 43
22 48 43
22 48 44
22 47 43
22 48 43
21 46 42
21 46 42
21 47 43
22 48 44
22 47 43
22 49 44
22 48 43
22 48 44
22 48 43
22 48 43
21 47 42
21 47 43
22 48 44
21 47 42
22 49 44
22 47 43
21 47 43
22 48 44
22 48 43
22 48 43
22 49 44
22 48 44
22 48 43
21 47 42
21 47 43
21 47 43
22 49 45
21 47 43
22 47 43
21 47 42
22 48 43
22 48 43
22 48 44
22 48 43
21 47 43
22 49 44
22 49 45
22 48 44
22 48 43
21 47 43
22 48 43
21 47 43
22 48 43
22 49 44
21 46 42
22 48 44
22 48 44
22 48 44
22 48 44
22 48 44
22 47 43
22 48 44
22 48 44
21 47 43
22 48 43
22 48 44
22 48 44
22 47 43
22 48 43
21 47 43
21 47 43
22 48 43
22 48 44
22 49 45
22 48 43
22 48 44
22 48 44
22 49 45
22 49 44
22 48 44
22 48 44
22 48 44
22 48 44
78 80 73
35 42 44
39 42 46
40 43 47
40 43 47
40 43 47
100 91 86
171 154 140
40 57 51
22 48 43
22 48 43
22 48 44
22 48 43
22 49 44
22 47 43
22 48 44
22 48 43
22 48 44
22 48 44
22 49 44
22 49 44
22 48 43
21 47 43
21 47 42
22 48 44
22 48 43
22 48 44
22 49 44
22 48 44
21 47 43
22 47 43
22 49 44
22 48 43
22 48 43
22 49 44
22 49 44
24 52 47
22 47 43
22 48 44
22 48 43
21 47 43
22 48 44
22 48 44
22 48 44
22 48 43
22 48 44
22 48 44
21 47 43
22 48 43
22 47 43
22 49 44
22 48 44
22 48 43
22 48 44
22 48 43
22 49 44
22 48 43
22 48 44
22 49 44
22 48 44
23 49 45
22 48 43
22 48 43
22 48 43
22 48 43
22 48 43
22 48 44
22 48 43
22 48 43
22 48 44
22 48 43
21 47 43
22 49 44
22 47 43
22 48 44
22 48 43
22 48 43
21 47 43
21 46 42
22 48 44
21 47 43
22 48 44
22 48 44
22 48 44
22 48 43
22 47 43
22 48 44
22 49 44
23 50 45
22 49 44
22 48 43
22 48 43
22 47 43
22 48 44
23 50 45
22 48 44
22 49 44
22 48 43
22 49 44
21 47 43
22 48 43
22 48 44
22 48 44
22 48 43
22 48 44
22 48 43
22 48 43
22 48 44
22 47 43
22 48 43
21 47 43
22 47 43
22 48 43
22 48 43
22 49 44
22 48 44
22 48 43
22 48 43
21 47 43
85 86 78
212 189 173
122 110 103
40 43 46
41 43 47
41 44 48
41 43 47
40 43 47
220 195 177
169 151 136
23 48 43
22 48 44
21 47 43
22 47 43
22 49 44
22 48 43
22 48 44
22 49 44
22 48 44
22 49 44
22 49 44
22 48 44
22 48 43
22 48 44
22 47 43
22 49 45
22 48 43
22 48 44
22 48 43
22 48 44
22 49 45
22 48 43
22 48 44
22 49 44
21 47 43
22 49 44
22 49 44
22 48 43
22 49 44
22 48 43
22 49 44
22 48 44
22 48 44
22 48 43
22 48 43
22 49 45
22 49 44
22 48 43
22 49 44
22 48 43
22 49 44
22 48 43
22 48 44
21 46 42
22 48 43
22 47 43
22 48 44
21 47 43
22 48 43
22 48 44
22 49 44
22 48 44
23 49 45
22 48 44
22 48 43
22 48 43
22 48 44
21 47 42
21 47 42
21 47 42
21 46 42
22 47 43
22 48 43
21 47 43
21 47 43
21 47 43
21 47 43
22 48 43
21 47 43
22 48 43
22 49 44
22 48 44
22 48 43
22 48 44
22 48 44
22 48 44
22 48 44
22 48 44
22 47 43
22 49 44
22 48 44
22 48 43
22 48 43
22 48 44
22 49 44
22 48 43
22 49 44
22 48 43
22 49 45
22 48 44
22 49 45
22 48 43
22 48 43
22 48 43
21 46 41
22 49 44
21 47 43
22 48 43
22 48 44
21 47 43
22 48 43
22 48 43
22 48 43
22 48 43
22 47 43
21 47 42
22 48 43
23 50 45
22 48 44
21 47 42
178 160 145
226 200 182
168 149 137
40 43 46
58 58 57
112 106 94
58 58 57
40 43 47
190 168 153
226 198 179
109 103 93
22 47 43
22 48 44
22 48 44
22 48 43
21 47 43
22 49 44
22 49 45
22 48 43
22 48 44
22 49 44
22 48 44
22 47 43
23 50 45
22 48 44
23 50 45
22 48 44
22 48 43
22 49 44
22 48 43
21 47 43
22 48 44
22 48 44
22 49 44
119 70 50
188 95 60
214 105 65
202 102 65
158 106 86
73 76 69
22 49 44
22 48 44
22 48 44
22 48 44
22 48 43
22 48 44
22 49 44
22 48 44
22 48 43
21 47 42
22 49 44
22 49 44
22 48 43
22 47 43
22 48 44
22 49 44
22 48 43
22 48 43
22 48 43
22 48 44
22 48 43
22 48 43
22 48 43
22 48 43
22 48 44
22 48 44
21 46 42
22 48 44
22 48 43
22 47 43
21 47 43
22 48 43
22 48 44
22 48 43
22 48 43
22 48 43
22 49 44
22 48 44
22 48 43
22 48 43
22 49 44
22 49 44
22 49 45
22 47 43
22 48 43
22 48 44
22 48 44
21 46 42
22 49 44
22 49 45
22 48 43
21 47 42
22 48 43
22 48 43
22 48 44
22 48 43
22 49 44
22 48 43
22 48 44
22 48 44
22 49 44
22 48 44
22 48 44
22 48 44
22 49 45
22 48 44
22 49 44
22 49 44
22 49 44
22 49 44
22 48 44
22 48 43
22 48 44
22 47 43
22 48 43
22 48 43
22 48 44
22 48 44
22 48 44
64 71 64
194 173 156
217 193 174
199 176 160
40 42 45
68 66 63
134 126 110
66 65 62
40 42 45
151 134 122
220 193 173
163 146 131
22 48 43
22 48 44
22 48 44
22 49 45
21 47 43
22 48 44
22 48 44
21 47 43
23 49 45
22 49 44
22 47 43
22 48 43
22 47 43
22 48 43
22 48 43
22 49 44
22 48 44
22 48 44
22 48 44
22 48 44
22 47 43
46 51 44
193 96 60
255 123 72
255 126 74
255 127 75
255 127 75
255 126 74
248 142 105
151 124 110
22 49 44
22 49 44
22 48 43
22 48 44
22 47 43
23 51 46
23 49 45
22 48 44
22 48 43
22 49 44
22 48 44
21 47 43
22 48 44
23 50 46
22 48 44
23 50 45
22 47 43
22 49 44
22 48 43
22 48 43
21 47 43
22 49 44
22 48 44
22 48 44
22 48 43
22 48 43
22 47 43
23 49 45
22 47 43
22 48 43
22 48 44
22 48 44
22 48 44
21 46 42
22 48 44
22 47 43
21 47 43
22 48 43
22 49 44
22 49 44
22 48 43
22 49 44
22 48 44
21 47 43
21 47 43
23 49 45
22 48 43
22 48 44
22 49 44
22 48 44
22 48 44
22 49 44
22 48 43
22 47 43
22 48 44
22 47 43
22 48 43
22 48 44
22 47 43
21 47 42
22 49 44
21 47 43
22 49 44
21 47 42
22 48 44
22 48 44
21 47 42
22 49 44
22 48 44
22 49 44
22 48 44
22 49 44
22 48 43
22 49 44
22 48 44
22 48 43
22 48 44
22 48 44
100 97 88
183 163 148
209 186 168
217 191 173
44 45 46
38 40 43
43 45 47
39 42 45
38 40 43
116 103 94
211 183 163
165 145 130
21 47 42
22 48 44
22 48 44
22 48 44
22 48 43
22 49 44
22 47 43
22 48 44
22 48 43
22 49 44
22 49 44
22 49 44
22 49 44
22 48 43
22 49 44
22 48 44
23 50 45
22 48 44
22 48 44
22 48 43
27 49 44
188 94 58
255 121 71
255 125 74
255 127 75
255 128 75
255 128 75
255 127 75
255 125 74
250 138 99
152 126 112
22 49 44
23 50 45
22 48 43
22 49 44
22 48 44
23 50 45
23 50 45
22 49 44
22 48 43
22 47 43
22 49 44
22 48 43
22 49 44
22 48 44
22 49 44
22 48 43
23 49 45
22 48 43
22 47 43
22 49 44
22 47 43
22 47 43
22 49 44
22 48 44
22 47 43
22 48 43
22 48 43
22 48 43
22 49 44
22 48 44
22 48 44
22 48 44
22 47 43
22 49 44
22 48 44
22 47 43
22 49 45
22 48 44
22 48 44
22 48 43
22 49 44
22 47 43
22 48 44
22 48 44
22 48 44
22 48 43
22 49 45
22 48 43
22 48 44
22 47 43
22 49 44
22 49 44
22 48 43
22 48 44
22 48 44
22 48 43
22 49 44
22 49 44
22 48 43
22 49 44
23 50 45
22 47 43
22 48 43
23 49 45
23 50 45
22 48 43
22 48 44
21 47 42
22 48 44
22 48 43
22 48 44
21 47 42
22 48 44
22 48 43
22 48 43
22 49 44
22 49 44
76 78 71
160 143 128
187 165 148
201 177 158
66 61 57
35 37 39
36 38 40
36 38 40
35 36 39
71 65 61
191 166 148
154 136 121
21 46 41
22 48 43
22 47 43
22 48 44
23 50 46
22 48 44
22 49 44
21 47 42
22 48 43
23 50 45
22 48 43
22 48 44
22 48 43
22 49 44
22 49 45
22 49 44
22 48 43
22 48 44
22 48 43
22 48 44
112 90 77
225 174 151
241 194 171
253 175 146
255 138 92
255 157 108
255 149 99
255 127 75
255 125 73
255 122 71
228 138 106
79 81 73
22 49 44
22 49 44
22 48 44
22 49 44
22 49 44
22 48 44
22 48 43
22 48 43
22 49 44
22 48 43
22 48 44
22 48 44
22 47 43
22 49 44
22 48 43
22 49 44
23 50 45
22 48 43
22 49 44
22 49 44
23 49 45
22 49 44
21 47 42
22 48 44
22 48 43
22 48 44
22 47 43
22 48 43
21 47 43
22 48 43
22 47 43
22 48 44
22 48 44
22 49 45
22 48 43
22 48 43
22 48 44
21 47 43
22 47 43
21 47 42
22 49 44
22 48 44
21 47 42
22 48 44
22 47 43
22 48 43
22 49 44
22 49 45
22 48 44
22 48 44
22 48 43
22 49 44
22 48 44
22 48 44
22 48 44
22 47 43
22 48 44
22 49 44
22 49 44
22 49 45
22 48 43
22 48 43
22 47 43
21 46 42
23 50 45
23 50 45
22 49 44
23 50 45
22 48 43
22 48 43
22 49 44
22 48 43
21 47 43
22 49 44
22 49 44
22 48 44
58 66 60
131 119 107
158 140 125
176 155 138
92 83 75
31 33 35
32 34 36
31 33 35
30 32 34
41 39 39
153 134 118
101 92 81
22 48 43
22 48 43
22 48 44
22 48 44
22 47 43
22 48 43
23 50 45
22 48 43
22 48 43
22 48 43
22 49 44
22 48 44
22 49 44
22 47 43
22 49 44
22 48 44
22 48 44
22 48 43
23 50 45
22 48 44
155 139 125
210 185 167
228 201 181
237 210 189
244 210 188
255 187 149
255 158 109
255 125 74
255 122 71
248 117 68
228 108 63
155 112 95
22 48 43
23 50 46
21 47 43
22 48 43
22 48 44
23 49 45
22 48 44
22 49 44
22 48 44
22 49 44
22 48 43
22 48 43
22 48 44
23 51 46
23 49 45
22 49 44
22 48 43
23 49 45
22 49 44
23 49 45
22 48 43
22 47 43
23 50 46
22 48 44
22 49 44
22 48 43
22 48 43
22 48 44
22 48 43
21 47 43
21 47 43
22 48 43
22 49 45
22 48 44
22 48 43
22 48 43
22 49 44
22 48 43
22 48 44
22 48 43
22 49 44
23 50 46
23 50 45
22 48 44
22 48 44
22 48 44
22 48 44
22 49 44
22 48 44
22 49 44
22 49 44
22 48 44
23 49 45
22 49 44
22 48 43
23 50 45
22 48 43
22 47 43
22 48 43
22 49 44
22 48 43
23 51 46
22 48 43
22 49 44
22 49 44
22 48 43
22 48 43
22 49 44
22 49 44
22 47 43
22 48 44
22 48 43
22 48 43
22 47 42
21 47 42
21 46 41
20 43 39
93 87 79
121 110 97
139 124 109
83 74 67
26 28 29
27 29 30
26 27 28
25 26 27
24 25 26
113 99 86
59 64 57
21 46 42
21 47 42
23 50 45
22 48 43
21 47 42
22 48 43
22 49 44
22 48 43
22 48 43
22 48 43
22 48 44
22 48 44
22 47 43
22 49 44
22 47 43
22 48 44
22 49 44
22 48 44
23 50 45
22 49 44
151 135 121
200 176 158
218 192 173
224 197 177
232 204 184
235 205 184
248 150 116
252 119 69
248 117 68
239 116 70
201 115 85
162 105 84
23 49 44
22 48 43
22 47 43
22 48 43
22 48 44
23 49 45
21 47 42
22 49 44
22 49 44
22 49 44
23 50 45
21 47 42
22 48 44
22 49 44
22 48 44
22 47 43
22 49 44
23 50 45
22 49 44
23 50 45
22 49 44
22 49 44
23 50 45
22 48 44
22 48 44
22 48 44
22 48 43
22 48 44
22 48 43
22 48 43
22 48 43
22 47 43
22 47 43
22 48 43
23 50 45
22 49 44
22 49 44
22 49 45
22 48 44
22 48 44
22 48 44
22 48 44
22 49 45
22 48 44
23 50 45
22 49 44
22 48 43
22 48 44
22 48 43
22 47 43
22 49 44
22 49 44
22 48 44
22 48 43
22 48 43
21 47 43
22 49 44
22 49 45
22 48 43
22 48 43
22 49 44
22 48 43
22 48 44
23 50 45
22 49 45
22 49 44
22 48 44
23 50 45
22 48 43
22 48 43
22 48 43
22 48 43
22 48 43
22 48 43
22 47 43
19 43 39
17 37 35
28 38 34
62 60 51
98 90 79
67 61 53
20 21 22
20 22 22
20 21 22
18 20 20
15 17 17
60 56 46
19 41 37
21 45 40
22 47 42
22 48 43
22 48 44
22 47 42
22 48 43
22 49 44
22 49 44
23 49 45
22 49 44
23 49 45
22 47 43
22 49 44
22 48 44
21 46 42
22 47 42
22 48 44
21 47 42
22 48 44
22 47 43
144 129 116
173 152 135
194 170 152
207 183 163
216 190 170
214 188 168
219 189 168
232 123 85
227 107 62
184 127 105
178 157 141
127 98 84
22 49 44
22 48 44
23 50 46
22 49 44
22 49 44
22 49 44
22 47 43
22 48 44
23 50 45
22 49 44
22 49 44
22 48 44
22 49 44
22 48 43
23 49 45
22 48 43
23 50 45
23 49 44
22 48 44
22 48 44
22 48 44
22 48 43
22 48 44
22 49 44
23 49 45
22 48 43
22 48 43
22 48 44
22 48 44
22 49 45
22 48 43
22 48 44
22 48 44
22 49 44
21 47 42
22 49 44
21 47 42
22 49 44
22 48 44
22 49 44
22 49 44
22 49 44
21 47 43
22 48 44
22 48 43
21 47 43
22 48 44
21 47 42
22 49 44
22 48 44
22 49 44
22 49 44
22 48 43
22 48 43
22 49 44
23 50 45
22 49 44
22 49 44
22 47 43
22 48 43
23 50 45
22 48 44
22 48 44
22 48 43
23 49 45
22 49 44
22 48 44
22 48 43
22 47 43
22 48 44
22 48 43
21 47 43
21 47 42
22 47 42
21 46 41
19 43 38
16 35 33
13 29 28
42 44 38
45 47 37
34 33 27
9 11 10
10 11 10
9 11 10
8 9 8
9 14 13
13 29 27
17 37 34
20 44 40
21 46 41
21 46 41
21 46 41
22 49 44
22 47 42
22 49 44
22 48 43
23 49 44
22 47 43
22 48 44
22 49 44
22 48 44
22 48 44
22 48 43
22 48 44
22 48 43
22 48 43
22 48 43
23 49 44
113 104 93
148 131 115
172 152 135
182 160 142
193 169 150
192 168 149
200 175 156
199 142 118
200 98 60
155 137 122
142 126 113
98 87 77
21 47 42
23 49 45
22 48 43
22 49 44
22 48 43
22 48 43
22 48 44
22 49 44
23 49 45
22 48 43
22 49 44
22 48 44
22 48 44
22 49 44
22 49 44
23 49 44
23 49 45
22 48 44
22 49 45
22 48 43
21 47 43
22 49 44
22 49 44
22 49 44
22 48 43
22 49 44
22 47 43
22 48 43
22 48 44
23 50 45
22 48 44
22 49 44
22 48 44
23 50 46
22 49 44
23 50 46
22 48 44
23 50 45
22 48 44
23 49 45
22 49 44
23 49 45
22 49 44
22 48 44
22 48 44
22 47 43
22 48 43
22 49 44
23 50 45
22 49 45
23 50 45
22 48 44
22 48 43
22 49 44
23 49 45
23 50 45
22 47 43
22 48 44
22 49 44
22 49 44
22 49 44
22 49 44
22 48 43
22 49 44
22 48 44
22 49 44
22 48 43
22 48 44
22 49 44
22 48 43
22 47 43
22 48 43
22 47 43
21 46 42
21 46 42
21 46 41
19 42 38
14 32 29
11 24 23
11 22 19
14 19 15
6 9 8
5 7 6
6 10 9
5 11 11
10 24 22
15 33 30
20 43 38
21 46 41
21 46 41
21 46 41
22 47 42
22 48 43
22 48 43
22 48 44
22 48 43
22 49 44
22 48 43
22 48 43
22 48 43
22 49 44
22 48 43
22 48 43
22 48 43
23 49 44
22 47 43
22 48 43
21 46 41
55 59 52
109 99 88
139 124 110
154 136 120
163 144 127
164 144 127
171 151 133
168 139 121
158 88 63
118 105 93
92 85 76
49 51 45
22 49 44
22 48 43
22 49 44
21 46 42
22 49 44
22 49 44
23 50 45
22 48 44
22 49 44
23 49 45
22 48 44
23 49 45
22 48 44
22 49 44
22 48 44
22 48 43
22 47 43
22 49 44
22 49 44
22 49 44
22 49 44
22 49 44
22 49 44
23 50 45
21 47 42
23 49 45
22 47 43
21 47 43
22 48 43
21 46 42
22 49 45
22 49 44
22 49 44
21 47 43
23 49 45
22 49 44
22 48 43
22 48 44
22 48 44
23 50 45
23 50 45
22 48 44
21 47 42
22 49 44
22 49 45
23 50 45
22 47 43
22 48 43
22 49 44
22 49 45
22 48 43
22 49 45
22 48 43
23 49 45
23 50 45
22 49 44
23 49 45
22 49 44
22 48 44
22 48 43
22 49 44
23 50 45
22 48 44
23 49 45
22 49 44
23 50 45
22 49 44
23 49 44
22 48 44
21 47 42
22 48 43
22 47 43
22 47 42
22 48 43
22 47 42
21 46 41
21 45 40
20 44 39
17 37 33
15 33 30
12 28 25
11 25 23
11 24 22
12 27 24
16 34 30
18 39 34
21 45 40
21 45 40
22 47 42
22 47 42
22 47 42
22 48 43
21 46 42
22 48 43
22 48 44
21 47 42
22 48 44
22 48 43
22 48 43
22 49 44
22 49 44
22 48 43
22 48 43
22 48 44
22 47 42
22 47 42
22 47 42
20 43 39
20 38 35
68 65 57
91 83 71
102 92 79
120 106 92
125 112 97
126 112 97
130 116 102
123 72 52
83 73 64
73 62 54
27 42 38
21 45 41
22 48 43
22 48 43
22 48 43
23 50 45
22 48 43
22 48 44
21 47 42
22 48 43
22 48 44
23 50 45
22 48 44
22 48 43
22 49 44
23 50 45
22 48 43
22 49 45
22 48 44
22 47 43
22 48 43
23 50 45
22 49 45
23 50 45
22 47 43
22 49 45
22 49 44
22 49 44
22 48 43
22 48 44
21 47 43
23 49 45
22 48 44
22 48 44
22 48 44
22 49 44
21 47 42
22 49 45
22 48 43
22 47 43
22 49 44
22 49 44
22 49 44
22 48 44
23 51 46
22 49 44
23 50 45
22 49 44
23 50 45
22 48 44
22 48 44
22 48 44
21 47 43
22 49 44
22 49 44
22 48 43
22 48 44
22 48 44
22 49 44
22 49 44
22 49 44
22 49 44
22 49 44
23 50 45
23 50 45
22 49 44
22 48 43
22 49 44
23 50 45
22 47 43
23 49 44
22 49 44
22 48 43
23 49 44
22 49 44
22 48 43
22 48 43
22 48 43
21 45 40
21 45 40
21 45 40
21 44 39
20 44 39
20 42 37
20 43 38
21 45 40
21 46 41
21 46 41
22 47 42
21 46 42
22 47 42
21 46 42
22 48 43
21 47 42
23 49 44
22 49 44
22 49 44
22 48 43
22 48 43
22 48 43
22 48 44
22 48 43
22 48 43
22 47 42
22 48 43
22 47 42
21 46 41
21 45 40
19 42 38
15 35 32
20 29 26
46 47 37
61 59 47
60 58 46
75 70 58
79 73 62
76 70 59
71 42 28
56 31 18
21 28 25
17 37 34
20 43 39
22 47 42
22 47 43
22 48 44
23 49 45
22 48 44
22 48 43
22 48 43
22 48 43
22 47 43
22 48 43
22 49 44
22 48 43
23 49 45
22 49 44
22 49 44
22 49 44
22 49 44
22 49 44
22 48 43
22 48 43
22 48 43
22 48 44
22 49 44
22 47 43
23 50 45
22 49 45
22 49 44
22 49 45
22 49 44
22 49 44
22 49 44
22 49 44
22 49 44
21 47 42
22 49 45
22 48 44
22 49 44
22 48 44
23 49 45
22 49 44
22 47 43
22 48 43
22 49 45
22 49 44
22 48 44
23 50 45
22 49 44
23 50 45
22 48 43
23 50 45
22 48 44
23 49 45
23 50 46
22 48 43
22 49 44
22 48 44
23 50 45
22 49 44
22 48 44
22 48 43
23 50 45
22 48 43
22 49 44
22 49 44
22 49 44
22 48 44
23 49 44
22 48 44
22 48 43
22 49 44
22 49 44
22 49 44
22 48 43
22 48 43
22 48 43
22 48 43
22 47 42
22 48 43
21 46 41
22 47 42
21 46 41
21 46 41
21 45 41
21 46 41
21 46 41
22 48 43
22 48 43
22 47 42
23 49 44
22 49 44
21 47 42
22 48 43
22 48 43
22 49 44
22 49 44
22 48 43
22 48 44
22 49 44
22 48 43
23 49 44
21 46 41
21 46 42
22 48 44
21 45 40
21 46 41
22 47 42
21 45 40
17 37 34
12 27 25
14 24 21
30 32 24
36 38 28
34 38 28
41 41 30
40 34 23
37 22 13
15 23 21
12 28 26
17 37 34
21 44 40
22 47 42
22 48 43
22 47 43
22 48 43
23 50 45
22 49 44
22 48 44
22 48 44
23 49 44
23 50 45
22 48 43
22 48 43
22 49 44
23 49 45
22 49 44
23 49 45
22 49 44
23 51 46
22 48 44
22 48 43
22 48 44
22 48 44
22 49 44
23 49 45
22 48 43
23 49 45
22 48 43
22 48 44
22 49 45
22 49 44
22 48 43
22 49 44
21 47 43
22 48 43
22 49 44
23 50 45
22 48 43
22 48 44
22 49 44
22 48 44
23 50 45
22 49 44
22 48 43
22 49 45
23 49 45
23 50 45
22 49 45
22 49 44
22 48 44
22 48 44
23 50 45
22 49 44
22 49 44
22 49 44
23 50 45
23 50 45
22 48 44
23 51 46
22 48 44
23 49 45
23 49 45
22 49 44
22 49 44
22 49 44
22 49 44
22 48 43
23 51 46
22 47 43
23 50 45
23 49 45
23 49 44
23 49 44
22 49 44
22 48 44
22 48 43
22 48 44
22 49 44
22 47 42
22 48 43
22 47 43
22 48 43
22 48 43
22 47 42
21 46 42
22 47 42
22 47 43
23 49 44
22 48 44
22 47 43
22 48 43
22 48 44
22 49 44
22 49 44
22 48 43
23 49 45
22 49 44
22 48 43
23 50 45
22 48 43
22 47 43
22 47 42
23 49 44
22 48 44
22 47 42
22 48 43
21 45 40
21 46 41
20 44 39
19 42 37
15 33 30
12 26 24
9 21 19
14 18 16
8 17 15
9 20 18
10 23 21
13 29 26
18 38 34
21 44 39
22 47 43
21 45 40
21 46 41
22 48 43
22 48 43
22 48 43
22 49 44
23 49 44
22 47 43
22 48 43
22 49 44
22 49 44
22 48 44
22 49 44
22 48 43
22 49 44
22 49 44
22 49 44
22 48 43
23 50 46
23 49 45
22 48 44
22 49 45
22 48 44
22 49 44
22 48 43
22 49 44
22 49 44
22 48 44
22 48 44
22 48 43
22 48 43
22 48 44
22 48 44
23 50 45
22 48 43
22 48 43
23 49 45
22 49 44
22 49 44
22 48 44
22 49 44
23 50 45
23 50 46
22 49 44
22 48 44
22 47 43
23 50 45
23 51 46
22 48 43
22 49 44
23 50 45
22 48 44
23 50 45
23 50 45
22 48 44
22 49 44
23 50 45
23 51 46
22 49 44
23 50 45
22 49 44
22 48 44
22 48 44
23 49 45
22 49 44
23 51 46
22 49 44
23 50 45
23 50 45
23 50 45
22 49 44
22 49 44
22 48 43
22 48 44
22 48 43
22 48 43
22 48 43
22 47 43
22 48 43
22 47 43
23 50 45
22 48 44
21 47 42
22 47 42
22 48 43
22 48 43
22 49 44
22 49 44
22 49 44
23 49 44
22 49 44
22 49 44
23 49 44
22 47 43
22 48 43
22 48 44
22 47 43
22 49 44
22 49 44
22 48 43
22 47 43
22 48 44
22 48 44
22 49 44
23 49 44
22 48 43
22 46 41
22 47 42
21 45 40
21 45 40
20 43 38
19 41 36
19 40 35
18 39 34
19 40 35
20 42 37
21 44 39
21 46 41
21 45 40
22 47 42
22 47 42
22 48 43
22 47 42
22 47 42
22 49 44
22 48 44
23 49 45
22 48 43
22 48 43
23 50 45
23 49 45
23 49 44
23 50 45
22 49 44
22 49 44
22 48 43
23 50 45
22 48 43
23 49 44
23 50 45
23 49 45
22 47 43
22 49 44
22 48 43
22 48 43
22 48 44
23 49 45
22 49 44
22 49 44
22 48 44
22 49 44
22 48 43
23 50 45
22 48 44
22 48 44
22 48 44
23 50 45
22 49 45
23 49 45
22 49 44
22 48 43
22 48 43
23 49 45
23 50 45
22 48 43
22 49 44
22 47 43
22 48 44
23 50 45
22 48 44
22 49 44
23 50 45
23 50 46
22 49 44
23 50 45
23 50 45
23 50 45
22 48 44
22 49 44
22 49 44
22 48 43
22 49 44
22 49 44
22 48 44
22 49 44
23 50 45
22 48 43
22 48 44
22 49 44
22 49 44
22 49 44
23 50 45
23 50 45
23 50 45
22 48 43
22 48 43
22 49 44
22 49 44
22 48 43
22 48 43
22 49 44
22 48 43
22 49 44
22 49 44
22 48 43
22 48 44
22 47 43
22 48 43
22 48 43
23 49 45
23 50 46
22 48 44
23 50 45
22 49 44
22 48 43
23 49 44
22 49 44
22 47 43
22 48 43
22 48 43
24 51 46
22 49 44
22 48 43
22 48 43
22 47 42
22 49 44
22 48 43
23 49 44
21 46 41
22 48 43
21 46 41
23 49 43
22 47 41
21 46 40
22 47 41
21 45 41
21 46 41
22 47 42
21 45 41
22 48 43
22 48 43
23 50 45
22 48 43
23 49 44
22 49 44
22 47 43
22 48 44
22 49 44
22 49 44
22 48 43
23 50 45
23 49 45
23 50 45
23 50 45
22 48 43
22 49 44
23 50 45
23 51 46
23 49 44
22 49 44
23 51 46
23 50 45
22 49 44
22 49 44
22 48 44
22 49 44
22 48 43
23 49 45
22 48 43
22 48 43
22 49 44
23 50 45
22 48 44
22 49 44
23 51 46
22 49 45
23 50 45
22 48 43
22 49 44
22 49 45
22 49 44
22 48 44
23 50 45
23 50 45
22 49 44
22 49 44
23 50 45
23 50 46
22 48 44
22 48 43
22 48 43
23 49 45
22 48 44
23 50 45
23 50 45
22 48 44
22 49 44
22 49 44
22 49 45
22 48 44
22 48 44
22 49 45
22 49 44
23 49 45
23 51 46
22 49 44
22 49 44
23 50 45
23 49 44
22 49 44
22 48 43
23 50 45
22 48 43
22 48 43
22 48 43
23 49 45
23 50 45
23 49 44
22 49 44
23 49 44
22 49 44
22 48 43
22 48 43
22 48 44
23 50 45
22 48 44
23 50 45
22 48 44
22 48 44
22 49 44
23 49 45
23 50 46
22 48 43
23 49 44
22 49 44
22 47 43
22 49 44
23 50 45
22 48 44
22 48 43
22 49 44
23 50 45
22 48 44
22 48 44
22 48 43
23 50 45
23 51 46
22 48 43
22 48 43
22 49 44
22 48 43
21 47 42
22 48 43
22 48 43
22 48 43
22 48 43
22 48 43
23 49 44
22 48 43
23 49 44
22 49 44
21 47 42
23 49 44
22 49 44
23 50 45
22 48 43
22 48 43
23 49 44
22 48 43
22 49 44
22 49 44
22 48 44
23 50 45
22 48 44
22 48 44
23 51 46
23 51 46
23 49 44
22 49 44
23 49 44
23 49 45
22 49 44
22 49 44
22 47 43
23 50 46
22 48 43
22 48 43
22 48 43
22 48 44
22 49 44
22 49 45
22 47 43
22 47 43
23 50 45
22 49 44
23 50 45
22 49 44
23 50 45
23 50 45
22 49 44
22 48 44
22 48 43
22 48 44
23 50 45
22 48 44
23 49 45
22 49 44
23 50 45
22 49 44
22 49 44
22 47 43
22 49 45
22 49 44
22 49 44
22 49 44
23 49 45
22 49 44
23 51 46
22 48 44
22 48 44
22 47 43
22 49 45
22 49 44
22 49 44
23 49 45
22 49 44
23 50 45
23 50 45
22 49 44
22 49 44
23 49 44
23 50 45
22 49 44
23 49 44
22 48 43
23 49 45
22 48 44
22 48 43
23 50 46
22 49 44
22 48 43
23 50 45
23 49 45
23 49 45
22 47 43
22 48 43
22 49 44
23 50 45
23 50 45
22 48 43
22 48 44
23 50 46
22 49 44
22 49 44
23 49 44
23 50 45
23 50 45
22 48 43
23 49 44
22 48 43
23 49 45
22 48 44
22 49 44
23 50 45
22 49 44
22 49 44
22 49 44
23 50 45
23 50 45
22 48 43
22 48 43
21 46 42
23 49 44
22 49 44
22 48 44
22 49 44
22 48 44
22 47 43
22 47 43
22 49 44
23 50 45
23 49 44
23 49 44
22 48 43
22 48 43
22 49 44
22 49 44
23 49 44
23 50 45
22 49 44
22 48 44
22 49 44
22 48 44
22 49 44
23 49 44
23 50 45
22 49 44
23 50 45
23 49 45
23 50 45
22 49 45
22 49 44
23 50 45
23 50 46
23 50 45
22 48 43
23 49 45
23 50 45
22 48 43
22 48 43
23 49 45
22 48 43
22 49 44
22 47 43
22 48 43
22 48 43
22 47 43
23 49 45
23 50 45
22 49 44
22 48 44
22 49 44
22 49 44
22 48 43
23 50 45
22 49 44
23 49 45
22 49 44
22 49 44
22 48 44
23 50 45
22 48 44
23 51 46
23 50 46
22 49 44
23 50 45
22 48 44
23 49 45
23 51 46
23 50 46
23 50 45
22 48 43
23 51 46
22 48 43
22 49 44
22 48 44
23 50 46
23 50 45
23 50 45
22 49 44
22 48 44
23 49 45
23 51 46
23 49 45
22 48 43
22 49 44
22 48 44
23 51 46
22 49 44
22 49 44
22 48 43
23 50 45
22 49 44
22 48 44
23 49 45
23 50 45
22 48 44
23 50 45
23 50 45
23 50 45
23 50 45
22 48 43
22 49 44
22 49 44
23 50 45
23 49 44
22 48 43
22 49 44
22 49 44
22 48 44
22 49 44
22 48 44
23 50 45
23 49 45
23 49 44
23 49 44
22 49 44
23 50 45
22 48 44
22 49 44
22 49 44
23 49 45
23 50 45
22 48 43
23 49 44
23 50 45
22 48 43
23 51 46
22 49 44
23 49 44
23 49 45
23 50 45
23 49 44
23 49 44
22 49 44
23 49 44
23 50 45
22 49 44
22 48 43
23 50 45
22 48 43
23 49 45
22 48 43
23 49 44
23 50 45
22 49 44
22 49 44
24 51 47
23 50 45
22 49 45
22 48 44
23 50 45
22 49 44
23 50 45
23 49 45
23 50 45
23 50 45
