P3
120 80
255
17 39 37
17 38 36
16 37 35
17 39 36
17 39 36
17 38 36
17 38 36
17 39 37
17 40 37
17 39 36
17 38 36
17 38 36
17 39 37
17 39 37
17 39 37
17 38 36
16 37 35
17 39 37
17 39 37
17 39 37
17 39 37
17 39 36
17 39 37
17 39 37
17 40 38
17 38 36
17 39 36
17 39 37
17 39 37
17 39 37
17 39 36
17 38 36
17 39 37
17 38 36
17 40 38
17 39 36
17 38 36
17 38 36
17 39 37
17 39 37
17 39 37
17 39 37
17 39 37
17 40 38
17 39 37
17 40 37
17 38 36
17 40 37
17 39 36
17 39 37
17 39 36
17 39 37
17 39 37
17 39 37
17 39 37
16 38 35
17 38 36
17 39 37
17 39 37
17 39 37
16 38 35
17 39 37
17 39 37
17 39 37
17 38 36
17 38 36
17 39 37
17 38 36
17 38 36
17 38 36
17 39 37
17 39 37
17 39 36
17 39 37
17 39 37
17 39 37
17 39 37
16 38 36
17 38 36
17 39 37
17 40 37
17 39 37
17 38 36
17 38 36
17 38 36
17 39 36
17 38 36
17 39 36
17 38 36
17 38 36
17 38 36
17 39 37
17 39 37
17 38 36
17 38 36
17 38 36
17 39 37
16 38 36
17 39 37
17 38 36
17 39 37
17 39 37
17 39 37
17 39 37
16 38 36
17 39 37
17 39 37
17 39 37
17 38 36
17 39 37
17 39 37
16 38 36
17 40 37
17 39 37
17 38 36
17 39 36
17 39 37
17 39 37
17 39 37
17 38 36
17 40 37
17 39 36
17 40 38
17 39 37
17 40 37
17 39 37
17 39 37
17 39 36
17 38 36
17 39 37
17 39 37
17 39 37
17 39 37
17 38 36
17 39 37
17 39 37
17 39 37
17 39 37
17 39 36
17 39 37
17 38 36
17 39 37
17 38 36
17 39 37
17 38 36
17 39 37
17 39 37
17 38 36
17 38 36
17 38 36
17 39 37
17 39 37
17 39 36
17 39 37
17 40 38
17 39 37
17 39 37
17 39 37
17 39 36
17 39 37
17 39 37
17 39 37
17 39 37
17 38 36
17 39 36
17 39 37
17 39 37
17 39 37
17 39 37
17 39 37
17 39 37
17 40 38
17 38 36
17 39 37
17 38 36
17 38 36
17 39 37
17 39 37
17 39 36
17 38 36
17 39 37
17 39 37
17 39 37
17 40 37
17 39 37
17 39 37
17 39 37
17 39 37
17 38 36
17 38 36
17 39 36
17 39 37
17 40 37
17 39 37
17 40 38
17 39 37
17 39 36
17 39 36
17 39 37
17 40 37
17 38 36
17 38 36
17 40 38
17 38 36
17 39 37
17 39 37
17 39 37
17 39 37
17 39 37
17 38 36
16 37 35
17 38 36
17 38 36
17 39 37
17 39 37
17 39 37
17 39 37
17 39 36
17 40 38
17 39 37
17 39 37
17 38 36
16 37 35
17 39 36
17 39 37
17 38 36
17 38 36
17 40 38
17 39 37
17 40 38
17 39 37
17 39 37
17 39 37
16 37 35
17 38 36
17 40 37
17 39 37
17 38 36
17 39 37
17 40 37
17 39 37
17 38 36
17 39 37
17 39 37
17 40 37
17 39 37
17 38 36
17 38 36
17 40 38
17 40 37
17 39 36
17 39 36
17 39 37
17 39 36
17 38 36
17 40 37
17 39 37
17 39 37
17 40 37
17 40 37
17 40 37
17 39 37
17 40 38
17 39 37
17 39 37
18 40 38
17 38 36
16 38 35
17 40 37
17 39 37
17 39 36
17 39 37
17 39 37
18 40 38
17 39 37
17 39 37
17 39 37
17 39 37
17 40 37
17 39 36
17 40 37
17 39 37
17 39 37
17 39 36
17 39 36
17 39 37
17 39 37
17 38 36
17 39 37
17 40 38
17 38 36
17 39 37
17 40 38
17 39 37
17 39 37
17 39 37
17 39 37
17 39 37
17 39 36
17 39 37
17 39 37
17 39 37
17 39 37
17 40 37
17 40 37
17 39 37
17 39 37
17 39 37
17 40 38
18 40 38
17 38 36
17 39 37
17 39 36
17 39 37
17 39 37
17 39 37
17 40 37
17 39 37
17 39 37
17 39 37
17 39 36
17 39 37
17 39 37
17 38 36
17 38 36
17 39 37
17 39 37
17 39 37
17 38 36
17 38 36
17 39 37
18 40 38
17 39 37
17 38 36
17 38 36
17 38 36
18 40 38
17 40 37
17 39 36
17 39 37
17 39 36
17 39 37
17 38 36
17 40 37
17 39 37
17 39 37
17 38 36
17 39 37
17 40 38
17 39 37
17 38 36
17 38 36
17 39 36
17 39 37
17 39 37
17 40 37
17 39 37
17 39 37
17 38 36
17 39 37
17 39 37
17 39 37
17 40 37
17 39 37
17 39 37
17 39 37
17 39 36
17 38 36
17 39 37
17 39 37
17 39 36
17 39 37
17 39 37
17 39 36
17 39 37
17 39 37
17 39 37
17 38 36
17 39 37
17 40 38
17 39 37
17 39 37
17 40 37
17 39 37
17 39 36
18 40 38
18 40 38
17 39 36
17 39 37
17 39 37
17 39 36
17 40 37
18 40 38
17 39 37
18 40 38
17 39 37
17 38 36
17 39 37
17 39 37
17 39 37
17 39 36
17 39 37
17 39 37
17 39 37
17 39 37
17 39 37
17 39 37
18 40 38
17 39 37
17 40 37
17 39 37
17 39 37
17 39 37
17 39 36
18 40 38
17 40 37
17 39 37
17 39 37
17 39 37
17 39 37
17 39 37
16 38 36
17 40 37
17 39 37
17 39 37
17 39 36
17 38 36
17 39 37
17 39 37
17 39 37
17 38 36
17 39 37
17 39 36
17 40 37
17 38 36
17 38 36
17 39 37
17 39 37
17 39 37
17 40 37
17 40 38
17 40 37
17 39 37
17 38 36
17 39 37
17 38 36
17 38 36
17 39 37
17 40 38
17 40 37
17 39 37
17 38 36
17 40 38
17 39 37
17 40 37
17 39 36
17 39 37
17 39 37
17 39 37
17 38 36
17 40 37
17 39 37
17 40 37
17 39 37
17 39 37
17 39 37
17 39 37
17 38 36
17 39 37
17 38 36
17 40 38
17 39 37
17 38 36
17 40 37
17 40 37
18 40 38
17 39 36
17 40 37
17 38 36
17 38 36
17 39 37
17 39 37
17 39 37
17 40 37
17 40 37
17 40 37
17 39 36
17 39 36
17 40 37
17 39 37
17 39 37
17 39 37
17 39 37
17 39 37
17 40 37
18 40 38
17 39 37
17 39 37
17 40 37
17 39 36
17 39 37
17 40 37
17 39 37
18 40 38
17 39 37
17 39 37
17 40 37
18 40 38
18 41 38
17 40 38
17 39 36
18 40 38
17 39 37
17 40 37
17 39 37
17 39 37
17 39 37
17 39 37
18 40 38
18 40 38
17 40 37
17 40 38
17 39 37
17 40 37
17 39 37
17 40 37
18 40 38
18 40 37
17 39 37
17 39 37
17 39 37
17 40 38
18 40 38
17 39 37
17 39 37
17 40 37
17 39 37
17 39 37
17 39 37
17 39 37
18 40 38
17 40 37
17 40 37
17 39 37
18 40 38
17 39 37
17 40 37
17 39 37
17 39 37
18 40 38
17 40 37
17 39 37
17 40 37
17 40 37
17 39 37
17 39 36
18 41 38
17 39 37
17 39 37
18 40 38
17 40 38
17 40 38
17 39 37
17 39 37
17 38 36
17 39 37
17 39 37
17 40 37
17 39 37
17 39 37
17 39 37
17 39 37
17 40 37
17 40 37
17 39 37
17 39 37
17 39 37
18 40 38
17 39 37
18 40 38
18 40 38
17 39 36
18 40 38
17 39 37
18 40 38
17 39 37
18 40 38
17 39 37
17 38 36
17 39 37
17 39 37
17 39 36
17 39 37
17 40 37
17 40 37
17 39 37
17 39 37
17 39 37
17 39 37
17 39 37
17 40 37
18 40 38
18 40 38
17 39 37
17 39 37
18 40 38
17 40 37
18 40 37
17 40 37
17 38 36
17 40 37
17 39 37
18 40 38
18 40 38
18 40 38
17 39 37
17 39 37
17 39 37
18 40 38
17 40 37
17 40 37
18 40 38
18 40 37
17 39 37
17 39 37
17 40 38
18 40 38
18 40 38
17 39 37
18 41 38
17 39 37
17 39 37
17 39 37
17 40 37
17 40 37
17 39 37
17 39 37
17 39 36
17 39 37
17 39 37
18 40 38
17 38 36
17 39 37
18 41 39
18 40 38
17 39 37
18 41 38
17 39 37
17 39 37
18 40 37
17 39 37
17 39 37
18 40 38
17 40 37
17 39 37
18 40 38
18 41 38
17 40 37
17 39 37
17 39 37
17 39 37
17 40 37
17 39 37
17 39 37
17 39 37
17 40 38
17 39 37
18 40 38
17 39 37
17 40 37
17 40 37
17 40 37
18 41 38
18 41 38
17 39 36
17 39 37
17 40 38
17 39 37
18 40 38
17 39 37
17 39 36
17 40 37
17 39 37
18 41 38
17 39 37
17 38 36
17 39 37
17 39 37
18 40 38
17 40 37
17 39 37
17 38 36
17 39 37
17 39 36
17 39 37
17 39 37
17 39 37
18 40 38
17 39 37
18 41 38
17 40 37
18 40 38
17 39 37
17 39 36
17 39 37
17 39 36
17 39 36
17 39 37
17 40 37
17 39 37
17 39 37
17 39 36
18 40 38
17 39 37
17 39 37
17 39 36
17 39 37
17 39 36
17 38 36
18 40 38
17 40 37
17 39 37
17 39 37
18 40 38
18 40 37
17 39 37
17 40 37
18 40 38
18 40 37
17 39 37
18 40 37
17 39 36
18 41 38
17 39 37
18 40 37
18 40 38
18 40 38
18 40 38
17 40 37
17 38 36
17 40 37
18 40 38
18 40 38
18 40 38
17 40 37
18 40 38
17 39 37
18 40 37
17 40 37
17 40 37
17 39 37
17 39 37
18 40 38
17 39 37
18 41 38
17 39 37
17 39 37
17 39 37
17 39 36
18 42 39
18 40 38
17 40 37
17 39 37
18 40 38
17 39 37
17 39 36
17 39 37
17 40 37
18 40 38
17 39 37
18 40 38
18 40 37
18 40 38
18 41 38
18 40 38
18 40 38
17 40 37
18 40 38
17 39 37
17 40 37
18 41 38
18 40 38
17 39 37
18 40 38
18 40 38
18 40 38
17 39 37
18 40 38
17 39 37
17 40 37
18 40 37
17 38 36
17 39 37
17 40 37
17 39 37
17 39 37
18 40 38
17 39 37
17 39 37
17 40 37
18 40 38
17 39 37
17 39 37
17 40 37
17 39 37
17 40 37
17 40 37
17 39 37
18 40 38
18 41 39
18 40 38
17 39 37
17 39 37
17 39 37
17 39 37
17 39 37
17 39 37
17 40 37
18 42 39
17 39 37
17 39 37
17 39 37
17 39 37
17 39 37
18 40 37
17 40 37
17 40 37
18 40 37
18 40 38
17 39 37
18 40 38
18 40 38
18 40 38
17 39 37
17 39 37
17 40 37
18 41 38
17 40 38
17 40 37
17 40 37
17 40 37
18 40 38
17 40 37
17 39 37
18 40 38
18 40 38
18 40 38
18 40 38
18 40 38
17 40 37
18 40 38
17 40 37
18 40 38
18 40 38
17 40 37
18 40 38
17 40 37
17 40 37
17 40 37
17 39 37
18 40 38
18 40 38
18 40 38
17 40 37
18 41 38
17 40 37
18 40 37
17 40 37
17 39 37
18 41 38
18 41 38
17 40 37
17 39 37
18 41 39
18 40 38
17 40 37
18 40 38
17 39 37
18 40 38
18 41 38
18 40 38
17 40 38
18 41 38
17 40 37
18 41 39
17 40 37
18 41 38
17 39 36
17 39 37
17 40 37
18 40 38
17 40 37
17 40 37
17 39 36
18 40 38
17 39 37
18 40 37
17 40 37
17 39 36
17 39 37
18 40 38
17 40 37
18 40 38
18 41 38
17 39 37
17 40 37
17 39 37
17 39 37
18 40 38
17 40 37
18 41 38
18 41 38
18 40 38
17 40 37
18 41 38
17 40 37
18 40 37
18 40 37
18 41 38
18 40 38
18 40 37
18 40 37
17 39 37
17 40 37
18 40 38
18 40 38
18 40 37
17 40 37
17 39 37
18 40 38
17 39 36
17 39 37
17 40 37
18 40 38
18 40 38
17 40 38
17 40 37
17 39 37
17 39 37
17 39 37
17 40 37
17 39 37
17 39 37
17 40 37
17 40 37
18 40 38
17 40 37
18 40 38
18 40 38
18 40 38
17 40 37
17 40 37
18 41 38
18 41 38
18 41 38
17 40 37
17 39 37
17 40 37
17 39 37
17 39 37
18 41 38
18 40 38
18 40 37
18 41 38
17 39 36
17 39 37
17 39 37
18 40 37
18 40 38
18 40 38
18 40 37
18 40 38
18 40 38
18 40 37
17 40 37
18 40 37
18 40 37
17 40 37
18 41 38
17 39 37
17 40 37
18 40 37
17 39 37
18 41 39
18 40 38
18 40 38
18 40 37
18 40 37
18 40 38
17 40 37
18 41 38
18 40 37
17 40 37
18 40 38
17 39 37
18 40 38
18 40 38
18 40 38
18 40 38
18 40 38
18 41 38
18 41 38
18 41 38
18 41 38
18 40 38
18 41 38
17 39 37
18 41 38
18 40 37
17 40 37
18 40 38
18 41 39
18 40 37
17 40 37
18 41 39
18 41 38
17 40 37
18 42 39
18 40 38
18 40 38
17 39 37
18 40 37
17 39 37
17 39 37
18 40 37
18 40 38
18 41 38
17 39 37
17 39 37
18 41 39
18 40 38
17 40 37
18 41 38
18 40 37
17 40 37
18 40 37
17 40 37
17 40 37
18 41 38
18 40 37
17 40 37
17 40 37
18 40 37
18 41 39
17 40 37
18 41 38
18 41 38
18 40 38
17 39 37
18 40 38
18 41 38
18 40 38
18 40 37
17 39 37
18 40 38
17 40 37
18 40 38
17 40 37
17 40 37
18 40 38
18 40 37
18 40 38
18 41 39
18 40 38
18 40 38
17 39 37
18 41 38
18 40 38
17 39 37
17 40 37
17 40 37
18 40 38
17 40 37
18 40 38
18 40 38
17 39 37
18 40 38
17 39 36
18 40 38
18 40 38
18 40 37
18 41 38
18 41 38
18 40 37
18 41 38
18 41 38
18 40 38
18 40 38
18 40 37
18 40 38
18 40 38
18 41 38
18 40 38
18 40 37
17 39 37
18 41 38
18 40 38
18 41 38
18 41 38
18 40 37
17 40 37
17 40 37
18 41 38
18 40 37
18 41 39
18 40 37
18 41 38
17 40 37
18 41 38
18 40 38
18 41 38
18 40 38
18 40 38
18 40 37
18 41 39
18 40 37
18 41 38
18 41 38
18 40 38
18 40 38
18 40 38
17 40 37
17 40 37
17 40 37
17 40 37
17 39 37
18 41 39
18 40 38
18 40 38
18 41 38
18 40 38
18 40 38
18 40 37
18 40 37
18 40 38
18 40 37
18 41 38
17 40 37
18 42 39
18 40 38
18 41 38
17 40 37
18 41 38
17 40 37
18 40 38
17 40 37
18 40 38
18 40 38
18 40 38
18 41 38
18 40 38
18 41 38
18 41 38
18 41 39
17 40 37
18 40 38
18 41 38
17 40 37
18 41 38
18 40 38
18 41 39
18 41 38
18 40 38
18 40 38
18 40 37
18 40 38
18 41 38
17 39 37
18 41 38
18 41 39
18 41 38
18 41 38
17 40 37
18 41 39
17 39 37
18 41 38
18 40 38
18 40 38
18 40 38
18 40 38
18 40 38
18 41 38
17 39 37
18 40 38
18 40 38
17 39 36
17 40 37
17 39 37
17 40 37
18 40 38
18 40 37
18 40 38
17 40 37
18 40 38
18 40 38
18 41 38
18 40 37
18 40 38
18 40 38
18 40 37
18 41 39
17 40 37
18 40 38
18 40 38
18 40 38
18 41 38
18 40 37
18 41 38
18 41 38
18 41 39
18 41 38
18 40 38
18 41 38
18 40 38
17 39 37
18 40 38
19 42 39
18 40 38
18 40 38
18 41 38
18 40 38
18 41 38
18 41 38
18 41 38
18 41 38
18 41 38
18 40 37
18 40 37
17 39 37
18 40 37
18 40 38
18 40 38
18 41 39
18 41 38
18 41 39
18 40 37
18 40 38
18 42 39
17 40 37
18 41 38
18 41 38
18 40 38
18 41 38
17 40 37
18 41 38
18 41 38
18 41 38
18 40 37
18 41 38
18 41 38
18 40 38
17 40 37
18 41 38
18 41 38
18 41 38
18 40 38
19 42 39
18 40 38
17 40 37
18 40 38
18 40 38
18 40 38
18 40 38
18 40 38
18 41 38
18 41 39
17 40 37
18 41 38
18 41 38
18 41 39
17 39 37
18 40 37
18 40 38
18 41 39
18 40 37
17 40 37
18 41 38
17 39 37
18 40 38
18 41 39
18 40 37
18 40 37
18 41 38
18 40 38
18 40 37
17 39 37
18 40 38
18 40 37
18 41 38
18 41 39
18 40 37
17 40 37
17 40 37
18 41 38
17 40 37
18 41 38
18 41 38
18 41 38
18 41 38
17 40 37
18 41 38
18 41 38
18 40 37
18 41 38
18 40 37
18 40 38
18 40 38
17 40 37
18 40 38
18 41 38
17 40 37
18 41 38
17 39 37
18 40 38
17 40 37
18 41 38
18 40 38
18 41 38
18 41 38
17 39 37
17 40 37
18 40 37
18 41 39
17 40 37
18 41 39
18 41 38
18 40 37
18 40 38
18 40 38
18 41 38
18 41 38
18 41 38
18 41 39
18 41 38
17 39 37
18 40 38
18 41 39
18 42 39
18 41 38
18 41 39
18 41 39
18 41 38
18 41 38
17 40 37
18 40 37
18 40 38
18 40 38
18 41 38
18 41 38
18 40 38
18 40 38
18 41 38
18 40 37
18 41 38
18 40 38
18 41 39
18 41 38
17 40 37
18 41 38
18 40 38
18 42 39
18 41 38
18 40 38
18 41 38
18 41 39
18 41 38
18 41 38
18 40 37
18 40 37
18 41 38
18 40 38
18 40 37
18 41 38
18 40 38
18 41 39
18 41 38
18 40 38
19 42 39
18 40 38
18 41 38
18 41 38
19 42 39
18 41 39
18 41 38
18 41 38
18 41 39
18 40 38
18 41 38
18 40 38
18 41 38
17 40 37
18 41 39
18 41 38
18 41 38
18 41 38
18 41 38
18 41 38
18 41 38
18 40 38
18 42 39
18 40 37
18 41 38
18 40 37
18 40 38
18 40 38
18 41 38
18 41 38
18 40 37
18 40 38
18 40 38
18 41 39
18 41 38
18 40 38
18 41 39
18 41 38
18 41 38
17 39 37
18 40 38
18 41 39
18 40 37
18 41 38
18 40 38
17 39 37
18 41 38
18 41 38
18 40 37
17 40 37
18 40 38
18 40 37
18 40 38
18 41 38
18 40 38
18 41 38
17 40 37
18 41 38
17 39 37
18 40 38
18 40 37
18 40 38
18 41 38
18 40 37
18 42 39
18 41 38
18 41 38
18 41 38
19 42 39
18 42 39
18 41 38
18 41 38
18 40 38
18 40 38
18 41 38
18 41 38
18 41 38
18 40 37
18 41 38
18 41 38
18 41 38
18 41 38
17 40 37
18 41 38
18 41 38
18 42 39
18 41 38
18 41 38
18 41 38
18 41 38
18 42 39
18 40 38
18 41 38
18 40 37
18 41 39
18 41 38
18 41 38
18 40 37
18 41 38
18 41 38
18 41 38
18 41 38
18 41 39
18 40 38
18 41 38
19 42 39
18 41 38
18 40 38
18 41 39
18 41 38
18 40 38
18 41 38
18 41 38
18 41 38
18 41 38
18 41 38
18 41 38
18 42 39
18 41 38
18 40 37
18 41 38
18 40 37
18 40 37
18 41 38
18 42 39
18 41 38
18 41 38
18 41 38
18 40 38
18 41 38
18 41 38
18 41 38
18 40 37
18 40 37
18 41 38
18 42 39
18 40 37
18 41 38
18 41 38
18 41 38
18 41 38
18 40 38
18 41 38
18 41 38
18 41 38
18 41 38
18 41 38
18 41 38
18 41 39
18 40 37
18 40 37
18 41 38
18 41 38
18 41 38
18 41 38
18 41 38
18 41 38
18 41 38
17 39 37
18 41 39
18 40 38
18 40 38
18 40 38
18 40 38
18 40 38
18 41 38
18 40 38
18 41 38
18 40 37
18 40 38
18 41 38
18 41 38
18 41 38
17 40 37
18 41 38
18 40 37
18 40 38
18 42 39
18 40 38
18 40 38
18 41 38
18 40 38
18 40 38
18 41 38
18 40 38
18 40 38
18 41 38
18 41 39
18 41 38
18 41 38
18 41 38
18 41 38
18 41 38
18 41 38
18 40 37
18 41 38
18 41 38
18 41 38
18 40 38
18 42 39
19 42 39
18 41 38
18 40 38
18 40 38
18 40 38
18 42 39
19 42 39
18 41 38
18 41 38
18 41 38
18 41 38
18 40 38
18 41 39
18 41 38
19 42 39
18 42 39
18 40 37
18 41 38
18 41 38
18 41 38
18 41 38
18 41 38
18 41 39
18 42 39
18 41 39
18 40 37
18 40 38
18 41 39
18 41 38
18 41 39
18 41 38
18 41 38
18 41 38
18 41 38
18 41 39
18 40 38
18 42 39
18 42 39
19 42 39
18 42 39
18 40 38
18 40 38
18 41 38
18 42 39
18 41 39
18 41 38
18 40 38
18 41 38
18 40 37
18 41 38
18 41 38
18 41 38
18 42 39
18 41 38
18 41 38
18 40 38
18 41 38
18 42 39
18 41 39
19 42 39
18 41 38
18 41 39
18 42 39
18 41 38
18 41 39
18 41 39
18 42 39
18 41 38
18 40 37
18 41 39
18 41 38
18 42 39
18 41 38
18 42 39
18 41 38
18 41 38
18 41 38
18 41 38
18 41 38
18 41 38
18 41 39
18 41 39
18 41 38
18 41 38
18 41 39
18 40 37
19 42 39
18 41 38
17 39 36
18 40 38
18 40 38
18 41 38
18 41 38
18 40 37
18 41 38
18 41 38
18 40 37
18 41 38
18 40 38
18 41 38
18 41 38
18 41 38
18 40 37
18 41 39
18 41 38
18 41 38
18 40 38
18 41 39
18 40 38
18 40 38
18 41 38
18 41 39
18 41 38
18 41 38
18 41 38
18 42 39
18 42 39
18 41 39
18 41 39
19 42 39
18 41 38
18 41 38
18 41 38
18 41 38
18 41 38
18 41 38
19 42 39
19 42 39
18 41 38
18 41 38
18 41 38
18 42 39
18 41 38
18 41 39
19 42 39
18 41 38
18 41 38
18 41 38
18 41 39
19 42 39
18 41 39
18 41 39
18 40 38
18 41 38
18 41 38
18 42 39
18 42 39
19 42 39
18 41 39
19 43 40
18 42 39
18 41 39
18 42 39
18 41 39
18 40 38
18 41 39
19 42 39
18 40 38
19 42 39
18 41 38
18 41 38
18 41 38
18 41 38
18 41 38
18 41 38
18 41 38
18 41 38
19 42 39
18 41 38
18 41 38
18 42 39
18 41 38
18 41 38
18 41 38
19 42 39
18 41 38
18 41 39
18 41 38
18 41 38
18 42 39
18 41 39
19 42 39
18 41 38
18 41 39
19 43 40
18 41 39
18 42 39
18 42 39
18 41 38
18 41 38
19 42 39
18 41 38
18 42 39
18 41 38
18 40 38
17 39 37
18 41 38
18 40 38
18 41 38
18 41 38
18 41 38
18 41 39
18 41 39
18 40 37
18 41 38
18 41 39
18 41 38
18 41 38
19 42 39
18 41 38
18 42 39
18 41 39
17 40 37
18 41 38
18 42 39
18 41 38
18 41 38
18 42 39
18 41 38
18 41 39
18 41 38
18 41 38
18 40 38
19 42 39
18 41 38
18 41 38
19 42 39
19 42 39
18 40 38
18 41 39
18 41 38
18 41 38
18 41 38
18 41 38
18 42 39
19 42 39
18 41 38
18 42 39
18 41 38
19 42 39
18 41 38
18 41 38
18 41 38
19 42 39
18 41 38
19 42 39
19 42 39
19 42 39
18 41 38
19 42 39
18 41 38
19 42 39
18 41 38
18 41 39
19 42 39
18 41 38
19 42 39
18 41 38
18 41 38
18 40 38
18 41 38
19 42 40
18 41 38
19 42 39
19 42 39
18 42 39
18 41 38
19 43 40
18 41 38
18 41 39
18 41 39
18 41 38
18 41 39
18 41 39
18 41 39
18 42 39
18 41 38
18 41 38
18 41 38
18 40 38
18 41 38
18 41 39
18 41 38
18 41 38
18 41 38
18 41 38
18 40 38
18 41 38
19 42 39
19 42 39
18 41 38
18 42 39
18 41 38
19 42 39
18 41 38
18 42 39
19 42 39
18 41 38
18 41 38
18 41 39
19 43 40
18 41 39
18 42 39
18 41 38
19 42 39
18 42 39
18 41 38
19 42 40
18 41 38
19 42 40
18 41 38
18 40 37
18 41 39
18 41 38
18 41 38
18 41 38
19 42 39
18 40 38
19 42 39
18 41 38
18 41 38
18 42 39
18 40 37
18 41 38
18 42 39
18 41 38
18 41 39
18 41 39
18 41 38
18 41 38
18 41 39
18 41 38
18 41 38
18 41 38
18 41 39
18 41 38
18 41 38
19 42 39
18 40 38
18 41 39
18 41 38
18 40 38
18 41 38
19 42 39
18 41 38
18 41 38
18 42 39
19 42 39
19 42 39
19 42 39
18 41 39
19 42 39
18 41 38
18 41 38
18 42 39
18 41 39
18 42 39
19 42 39
19 42 39
19 42 39
18 42 39
18 41 38
18 41 39
18 42 39
19 42 39
19 42 39
18 41 39
19 42 39
18 41 39
18 41 39
18 41 38
18 40 37
19 42 39
18 41 38
18 41 38
18 41 38
19 43 40
19 42 39
19 43 40
18 41 38
18 41 39
19 42 39
18 42 39
18 41 38
18 41 38
19 42 39
18 41 38
18 41 38
19 42 39
18 41 38
19 42 39
18 42 39
18 41 39
18 42 39
19 42 39
19 42 39
18 42 39
18 41 38
18 42 39
18 41 38
18 41 38
18 42 39
19 42 39
18 41 38
19 42 39
18 41 38
18 42 39
19 42 39
18 42 39
19 42 39
19 42 40
18 41 38
18 41 39
18 41 38
18 41 38
18 41 38
18 41 39
19 42 39
18 41 38
19 42 39
18 41 39
18 42 39
18 41 39
18 41 38
18 41 38
18 42 39
18 41 38
18 41 38
19 42 39
18 42 39
18 42 39
19 42 39
19 42 39
18 41 38
18 42 39
18 41 38
18 41 38
18 41 38
18 42 39
19 43 40
18 41 38
18 41 38
18 42 39
18 41 38
18 41 38
18 41 39
18 41 39
18 41 38
18 42 39
18 40 38
18 41 38
18 41 38
18 41 38
18 42 39
18 41 38
18 41 39
18 40 38
18 42 39
18 40 38
18 41 38
18 42 39
18 41 38
18 41 38
19 42 39
19 42 39
19 42 39
19 43 40
19 42 39
18 41 38
19 42 39
19 43 40
19 42 39
18 41 38
19 42 39
19 42 39
19 42 39
18 41 39
18 42 39
19 42 39
19 42 39
19 43 40
18 41 38
19 42 39
19 42 39
19 42 39
19 42 39
18 41 39
18 41 38
19 43 40
19 42 39
19 43 40
19 43 40
18 41 38
19 42 39
18 42 39
19 42 39
18 41 38
19 42 39
19 42 39
18 41 38
18 40 38
18 42 39
19 42 39
18 42 39
19 42 39
18 42 39
18 42 39
18 41 38
19 42 39
18 41 38
18 41 38
18 42 39
19 42 39
18 41 38
19 42 39
19 42 39
18 41 38
19 42 39
18 41 38
19 42 39
19 42 39
19 43 40
19 42 39
19 42 39
19 42 39
19 43 40
19 42 39
19 42 39
19 42 39
19 42 39
18 41 38
18 41 39
19 42 39
18 41 38
18 42 39
19 42 39
19 42 39
18 42 39
18 41 38
18 41 38
19 42 39
19 42 39
18 41 39
18 42 39
18 41 38
19 42 39
18 41 39
18 42 39
19 42 39
19 42 39
18 42 39
19 42 39
19 42 39
18 41 38
19 42 39
18 41 38
18 41 38
18 41 38
18 41 38
18 42 39
19 42 39
18 41 39
18 42 39
19 42 39
18 41 38
19 42 39
18 41 38
18 41 38
18 41 39
19 42 39
19 42 39
19 42 39
19 42 39
18 41 39
19 43 40
18 41 38
18 41 38
18 41 39
19 42 39
18 41 38
18 41 39
18 41 39
18 41 38
18 41 38
18 41 38
18 41 38
18 41 38
19 42 39
19 42 39
18 42 39
18 41 39
19 42 39
19 42 39
19 42 39
18 41 38
19 42 39
19 42 39
19 42 39
18 41 38
19 42 39
19 42 39
18 41 38
19 42 39
19 42 39
18 41 38
19 42 39
18 41 39
19 42 39
19 42 39
19 43 40
19 42 39
18 41 38
19 42 39
19 42 39
18 42 39
19 42 39
19 42 39
18 41 38
19 42 39
19 42 39
18 42 39
19 42 39
19 42 39
19 42 39
19 42 39
19 42 39
19 42 39
19 42 39
18 42 39
19 43 40
19 42 39
19 43 40
18 41 38
19 43 40
19 43 40
19 43 40
19 42 40
19 42 39
19 43 40
18 40 38
19 43 40
18 42 39
18 42 39
19 42 39
19 42 39
19 42 39
19 42 39
18 41 38
19 42 39
19 43 40
19 42 39
18 41 39
18 42 39
19 42 39
19 43 40
19 42 39
19 43 40
19 43 40
19 43 40
19 42 39
19 42 39
18 41 38
19 42 39
19 43 40
18 41 39
18 41 39
19 43 40
19 42 39
19 42 39
19 43 40
18 40 37
18 41 38
19 42 39
19 42 39
19 42 39
18 42 39
18 42 39
19 42 39
19 42 39
19 42 39
19 43 40
18 42 39
18 41 38
18 41 38
18 41 38
18 40 38
19 42 39
19 43 40
19 42 39
18 41 38
18 41 38
19 42 39
18 41 39
18 41 39
19 42 39
18 41 38
19 42 39
19 42 39
18 42 39
18 41 38
18 41 38
18 41 38
18 41 38
19 42 39
19 43 40
18 41 38
19 42 39
19 42 39
19 42 39
18 42 39
18 41 38
19 42 39
19 42 39
19 42 39
19 44 40
19 43 40
19 42 39
19 42 39
19 43 40
19 43 40
19 42 39
19 42 39
19 42 39
18 41 39
18 41 39
19 43 40
19 42 39
19 43 40
18 41 38
19 43 40
19 43 40
19 43 40
19 43 40
19 42 39
19 42 39
19 42 39
19 42 39
19 43 40
19 43 40
19 42 39
18 41 38
19 42 39
18 41 39
19 42 39
19 42 39
19 43 40
19 42 39
19 42 39
18 42 39
19 43 40
19 43 40
19 43 40
19 43 40
19 42 39
19 42 39
19 42 39
18 41 38
18 41 38
19 43 40
18 41 39
19 42 39
18 41 38
18 42 39
19 43 40
19 42 39
19 42 39
19 42 39
19 42 39
19 43 40
19 42 39
19 42 39
19 42 39
19 42 39
19 42 39
19 42 39
18 42 39
19 42 39
19 42 39
19 42 39
18 41 38
19 42 39
19 43 40
19 43 39
18 41 38
19 42 39
19 42 39
19 42 39
19 42 39
18 42 39
19 42 39
18 41 38
18 41 38
19 42 39
18 41 38
18 41 38
19 42 39
19 42 39
19 42 39
18 41 38
19 43 40
18 42 39
18 41 39
18 41 38
19 42 39
19 42 39
18 41 38
19 43 40
19 43 40
19 43 40
19 42 39
19 43 40
19 42 39
18 41 38
18 42 39
19 42 39
19 42 40
18 41 38
19 42 39
18 41 38
18 41 38
19 42 39
18 41 38
19 42 39
19 42 39
18 42 39
19 42 39
19 42 39
18 41 38
18 41 38
19 43 40
19 43 40
18 41 38
19 43 40
19 42 39
19 42 39
19 43 40
19 43 40
19 43 40
19 42 39
19 42 39
19 43 40
19 42 39
19 42 39
19 43 40
19 42 39
19 42 39
19 42 39
19 43 40
20 44 41
19 43 40
19 43 40
19 43 40
19 43 40
19 42 39
19 43 40
19 42 39
19 43 40
19 43 40
19 43 40
19 43 40
19 42 39
18 42 39
19 42 39
19 43 40
19 43 40
19 42 39
19 42 39
19 42 39
19 43 39
19 43 40
19 42 39
19 43 40
19 43 40
19 42 39
19 44 40
19 43 39
19 42 39
19 42 39
19 44 40
19 42 39
19 43 40
19 42 39
18 41 38
19 43 40
19 42 39
18 41 38
19 43 40
19 43 40
19 42 39
19 43 40
19 42 39
19 42 39
19 42 39
19 43 40
19 42 39
19 42 39
19 43 40
19 42 39
19 42 39
19 42 39
19 43 40
19 43 39
19 42 39
18 41 38
19 43 39
19 42 39
19 42 39
19 42 39
18 42 39
19 43 39
19 43 40
18 41 38
19 42 40
19 42 39
19 43 39
19 42 39
19 43 40
19 42 39
19 42 39
18 41 38
18 41 38
19 42 39
19 42 39
19 42 39
19 43 40
18 41 39
19 42 39
19 42 39
19 43 40
19 43 40
19 42 39
19 42 39
19 42 39
19 42 39
18 41 38
19 42 39
18 42 39
18 41 39
19 42 39
19 42 39
19 42 39
19 42 39
19 42 39
19 42 39
19 42 39
18 41 38
19 42 39
19 42 39
19 42 39
19 42 39
19 43 40
19 42 39
19 43 40
19 43 39
19 43 40
19 42 39
19 43 40
19 43 40
19 43 40
19 42 39
18 41 38
19 43 39
19 43 40
19 43 40
19 43 39
19 43 40
19 43 40
19 43 40
19 43 39
19 42 39
19 43 40
19 42 39
19 43 40
19 42 39
19 42 39
19 43 40
19 43 40
19 42 39
19 42 39
19 42 39
19 42 39
19 42 39
19 42 39
19 43 40
19 43 39
19 43 40
19 42 39
19 43 40
19 43 40
19 42 39
19 42 39
19 42 39
18 41 38
19 42 39
19 43 40
19 43 40
18 41 38
19 42 39
19 42 39
20 44 40
19 42 39
19 42 39
19 42 39
18 41 38
19 42 39
18 41 38
19 43 40
19 43 40
19 43 40
19 43 40
19 42 39
19 42 39
19 43 40
19 43 40
19 43 40
18 41 38
19 43 40
19 42 39
19 42 39
19 42 39
19 42 39
19 43 40
19 43 40
19 43 40
19 42 39
19 42 39
19 42 39
20 44 41
19 42 39
19 42 39
19 42 39
18 42 39
18 41 38
19 42 39
19 42 39
19 42 39
19 43 40
19 42 39
19 43 40
19 42 39
19 42 39
18 41 38
19 43 40
19 42 39
19 42 39
18 41 38
19 43 39
19 42 39
19 42 39
19 42 39
19 42 39
19 42 39
19 42 39
19 42 39
19 42 39
18 42 39
19 43 40
19 42 39
19 43 40
19 42 39
19 42 39
19 42 39
19 42 39
18 41 38
19 44 41
19 43 40
19 42 39
19 43 40
19 42 39
19 42 39
19 42 39
19 43 40
19 43 40
19 43 40
19 42 39
19 42 39
19 43 40
19 42 39
19 42 39
19 42 39
19 43 40
19 42 39
20 44 41
19 43 40
19 43 40
20 44 41
19 42 39
19 42 39
19 43 40
19 43 40
19 42 39
19 42 39
19 43 39
19 43 40
19 43 40
19 43 40
19 42 39
19 42 39
19 43 39
19 43 40
19 43 40
19 43 40
19 44 40
19 43 39
19 42 39
19 42 39
19 44 40
19 42 39
19 43 40
19 43 40
19 43 40
19 43 40
19 43 39
19 42 39
19 42 39
19 43 40
19 42 39
19 43 40
19 43 40
20 44 41
19 43 39
19 43 39
19 42 39
19 42 39
19 43 40
19 43 40
19 42 39
19 42 39
19 43 40
19 43 39
20 44 41
20 44 41
19 43 39
19 42 39
19 43 40
19 42 39
19 43 39
19 42 39
19 42 39
19 42 39
19 42 39
18 42 38
19 43 40
19 42 39
19 43 40
19 42 39
19 43 40
19 43 40
19 42 39
19 43 39
19 42 39
19 43 40
19 42 39
19 42 39
18 41 38
20 44 41
19 42 39
19 43 40
19 42 39
19 43 40
19 42 39
19 43 40
19 43 40
18 42 39
19 43 40
18 41 39
19 42 39
19 43 40
18 41 38
19 42 39
19 43 40
19 42 39
19 42 39
19 43 39
19 44 40
18 42 39
19 43 40
19 43 39
19 43 40
18 42 39
19 43 40
19 44 41
19 42 39
19 43 40
19 43 39
19 43 40
19 43 40
19 43 39
19 43 39
20 44 40
19 43 39
19 43 40
19 43 40
20 44 41
19 43 40
19 42 39
19 43 40
19 42 39
19 43 40
20 44 40
20 44 41
19 43 40
19 43 40
19 43 39
19 43 39
19 43 39
19 42 39
19 43 40
19 42 39
19 43 39
20 44 41
19 43 40
19 43 40
20 44 40
19 43 39
19 43 39
19 43 40
19 42 39
19 44 40
19 43 39
19 43 39
19 43 40
19 43 40
20 44 41
19 43 40
19 43 40
19 44 40
19 43 39
19 42 39
19 43 40
19 43 40
19 43 40
19 42 39
19 43 40
19 43 40
19 43 40
19 43 40
20 44 41
19 43 40
19 43 40
19 43 40
19 42 39
19 43 40
19 43 40
19 43 40
19 43 40
19 43 40
19 43 40
19 43 40
19 42 39
19 43 39
20 44 41
19 43 40
19 42 39
19 42 39
19 43 40
19 42 39
19 42 39
19 42 39
18 41 38
20 44 41
20 44 40
19 43 40
19 42 39
19 43 40
19 43 40
19 43 40
19 43 39
19 43 40
19 43 40
19 43 39
19 43 39
19 42 39
19 43 40
19 43 40
19 43 40
19 42 39
19 42 39
19 42 39
19 42 39
19 43 40
19 42 39
18 41 38
19 42 39
18 41 38
19 44 40
18 41 38
19 43 40
19 42 39
19 43 40
19 43 39
19 42 38
19 43 39
19 42 39
19 43 40
18 42 39
19 42 39
19 42 39
19 43 40
19 42 39
18 41 38
19 42 39
19 42 39
19 42 39
19 43 40
20 44 41
19 43 40
19 43 39
19 43 40
19 43 40
19 44 40
19 43 40
19 43 40
19 43 40
19 42 39
19 43 40
19 43 40
19 42 39
19 43 39
19 43 40
19 43 40
19 43 40
19 43 40
19 43 40
19 42 39
19 43 40
19 43 40
19 44 41
19 43 40
20 44 41
19 42 39
20 44 40
19 43 39
19 43 39
19 42 39
19 43 39
19 42 39
19 43 39
19 43 40
20 44 41
19 43 40
19 43 40
19 43 40
20 44 41
20 44 40
19 43 39
19 42 39
20 44 40
19 43 40
19 43 40
19 43 40
19 43 40
19 43 40
19 42 39
20 44 40
19 44 40
19 43 40
19 42 39
19 43 40
19 43 40
19 43 40
19 43 40
19 43 40
19 43 40
19 43 39
19 43 39
20 44 41
19 43 40
19 43 40
20 44 41
19 43 40
19 43 40
19 43 40
20 44 40
19 42 39
19 42 39
19 43 40
19 43 40
19 42 39
19 44 40
19 42 39
19 42 39
20 44 40
19 43 39
20 44 41
19 43 40
19 43 39
19 42 39
19 42 39
19 43 40
19 43 40
19 42 39
20 44 40
20 44 41
19 42 39
19 42 39
20 44 41
19 43 40
19 42 39
19 43 39
19 43 40
19 42 39
19 43 39
19 41 38
19 43 40
19 43 40
19 43 40
19 43 39
19 43 40
19 43 40
19 42 39
19 42 39
19 43 40
19 43 40
19 42 39
19 43 40
19 43 40
19 43 39
19 42 39
19 42 39
19 43 40
19 42 39
19 42 39
19 43 40
19 43 40
19 43 40
19 43 40
20 44 41
19 43 40
19 43 40
19 43 40
19 43 39
19 43 40
20 44 41
20 44 41
20 44 40
19 43 40
19 43 39
19 43 39
19 43 39
19 43 40
19 43 40
19 43 40
20 44 41
19 44 40
19 43 40
19 43 40
20 44 40
20 44 41
19 44 40
20 44 40
19 44 40
19 43 40
20 44 41
19 42 39
20 45 41
19 43 40
19 44 40
19 43 40
19 43 39
19 43 40
20 44 41
19 43 40
19 43 40
19 43 40
19 43 40
19 44 40
19 42 39
19 44 40
19 42 39
19 43 40
19 43 40
20 44 40
20 44 40
19 44 40
19 42 39
20 44 41
19 43 40
20 44 40
19 43 40
19 43 40
19 42 39
20 44 41
19 43 40
19 43 40
19 43 40
19 42 39
19 43 40
19 43 39
19 43 40
19 42 39
19 44 40
20 44 40
19 43 40
19 43 40
19 43 39
19 43 40
19 43 40
19 43 40
19 43 39
20 44 40
19 44 40
20 44 41
19 43 40
19 43 40
19 41 38
19 43 40
19 43 40
19 42 39
19 44 40
19 42 39
19 43 40
19 43 40
19 42 39
19 42 39
19 43 39
19 43 40
19 43 40
19 43 40
19 43 39
19 42 39
19 43 40
19 42 39
19 43 39
19 42 39
19 42 39
18 41 38
19 43 40
19 43 39
19 42 39
19 42 39
19 43 40
19 43 40
19 42 39
19 42 39
19 42 39
19 43 39
18 42 39
19 42 39
19 43 40
19 43 40
19 43 40
19 42 39
19 43 40
20 44 40
19 43 40
20 44 40
19 43 40
19 43 40
19 42 39
20 44 41
19 42 39
19 43 40
20 44 40
19 43 40
20 44 41
20 44 40
19 43 40
19 43 39
20 44 40
20 44 40
20 44 41
20 45 41
20 44 41
20 44 41
19 43 39
19 43 40
20 44 40
20 45 42
20 44 41
19 43 40
19 43 40
19 43 40
20 44 41
19 43 40
19 43 40
20 44 41
20 44 40
20 44 40
19 43 40
19 42 39
20 44 41
19 43 39
20 44 40
19 44 40
19 43 40
19 43 40
19 42 39
19 43 40
19 44 40
20 44 40
20 44 41
19 43 40
20 44 40
20 44 41
19 44 40
19 42 39
19 43 39
19 42 39
20 45 42
20 44 40
20 44 41
20 44 40
19 44 40
20 44 40
19 44 40
20 44 41
19 43 40
20 44 40
19 44 40
19 43 40
20 44 40
19 44 40
20 44 40
20 44 41
19 43 39
19 43 39
19 43 39
19 43 39
19 42 39
20 44 40
19 42 39
20 44 41
20 44 40
20 44 41
19 43 40
19 43 40
20 44 40
19 44 40
19 43 40
19 43 40
20 44 40
19 42 39
19 42 39
19 43 40
20 44 41
19 43 40
19 43 40
19 43 40
19 43 40
19 43 40
20 44 40
19 42 38
19 43 40
19 43 40
19 43 39
19 42 39
19 43 40
19 43 40
19 43 40
19 43 40
19 42 39
19 43 40
19 43 39
19 43 40
19 43 40
20 44 40
19 42 39
19 43 40
18 41 38
19 42 39
19 43 40
19 43 40
20 44 40
19 43 40
19 43 40
20 44 40
19 43 40
20 44 41
20 44 40
20 44 41
19 43 40
19 43 40
19 42 39
20 44 40
20 45 42
19 43 40
19 44 40
19 43 40
19 42 39
20 44 41
20 44 40
19 44 40
19 43 40
20 45 41
20 44 40
19 43 40
20 44 40
19 43 40
20 44 41
20 44 41
19 43 40
19 43 40
20 44 40
20 44 41
19 43 40
20 44 40
19 44 40
20 44 40
20 45 41
20 45 41
20 44 40
19 43 40
20 44 41
20 44 40
19 43 40
19 43 40
20 44 41
20 44 40
19 43 40
19 43 40
20 45 41
20 43 40
20 45 41
20 44 40
19 43 40
20 44 40
20 44 41
19 43 39
20 44 41
20 44 40
20 44 40
19 43 40
19 43 40
20 44 40
20 45 41
19 43 40
19 43 40
20 44 41
20 44 40
20 44 40
19 43 40
20 44 40
19 43 40
20 44 40
19 43 40
19 43 39
19 43 40
20 44 41
20 44 41
20 44 41
20 46 42
19 42 39
20 44 41
20 44 40
20 44 40
20 44 40
20 44 41
19 43 40
19 43 40
19 43 40
19 43 39
20 44 40
20 44 40
20 44 41
20 44 40
19 43 40
19 43 40
19 43 40
19 43 40
20 44 40
20 44 40
20 44 41
19 43 39
20 44 41
19 43 40
19 43 40
19 43 40
19 43 40
19 42 39
19 43 40
19 43 40
20 44 41
19 43 39
19 43 40
19 43 40
19 42 39
19 42 39
19 43 40
19 44 40
19 43 40
19 42 39
19 43 40
19 43 40
20 44 41
20 44 40
19 43 40
20 44 40
20 44 40
19 43 39
19 43 40
20 45 41
20 44 40
19 43 40
20 45 42
20 44 40
19 43 40
20 44 41
19 43 40
19 43 40
20 44 40
19 43 40
20 44 40
19 43 40
20 45 41
19 43 40
19 43 40
20 44 40
20 44 41
19 43 40
20 44 40
19 43 40
20 44 40
20 44 41
19 43 40
19 43 40
20 44 41
19 43 40
19 43 39
20 45 41
20 44 40
19 43 40
19 43 40
19 43 39
20 44 41
19 43 40
19 43 40
20 44 41
20 46 42
20 45 41
19 43 40
19 43 39
20 45 41
19 43 40
19 43 40
20 44 40
20 44 40
20 44 41
20 45 42
19 42 39
19 43 40
20 44 40
19 43 40
20 44 40
20 45 41
20 44 41
20 44 40
20 44 41
20 44 40
19 43 40
20 44 41
20 44 40
20 45 41
20 44 40
19 43 40
20 44 40
19 43 40
19 43 40
20 44 41
20 44 41
20 44 41
20 44 40
19 43 39
20 44 40
19 43 40
19 43 39
19 43 40
19 43 40
19 44 40
19 42 39
20 44 41
19 43 40
19 42 39
19 43 39
19 43 40
19 43 40
19 43 40
19 43 40
19 43 40
20 44 41
19 43 40
19 43 40
19 43 40
19 43 40
19 43 40
19 43 40
19 43 40
19 43 39
19 43 40
19 43 40
19 43 39
19 43 40
20 44 41
20 44 41
20 45 41
19 42 39
19 42 39
19 43 40
19 43 40
19 43 40
19 43 40
20 44 40
19 43 40
20 44 41
20 44 41
19 43 40
20 44 41
20 45 41
20 44 41
20 44 40
20 44 40
20 44 40
20 44 41
19 43 40
19 43 39
20 44 40
19 43 40
20 44 41
20 45 41
20 45 41
19 43 40
20 44 41
20 44 40
19 43 40
20 45 41
20 44 40
20 44 40
20 45 41
20 44 40
20 44 40
20 44 40
20 44 41
20 44 40
19 43 39
20 45 42
20 44 41
19 43 40
20 45 41
19 43 40
20 44 40
20 45 41
20 44 40
20 43 40
19 43 40
19 44 40
20 44 40
20 45 41
20 45 41
20 44 41
19 43 40
20 44 40
20 45 41
20 44 41
20 44 41
19 42 39
19 43 39
19 43 40
20 44 41
19 43 40
20 44 40
20 43 40
20 44 40
20 44 41
19 43 40
19 43 40
21 46 42
20 45 41
20 45 41
20 44 41
19 43 40
20 44 40
20 45 41
19 43 40
20 44 41
20 44 41
19 43 40
19 43 40
20 45 41
20 44 41
19 44 40
20 44 40
19 43 40
20 45 41
19 43 40
19 43 40
20 44 40
19 43 40
20 44 41
19 43 40
20 44 40
20 44 41
19 43 39
20 44 41
20 44 41
20 44 41
19 43 40
19 43 40
20 44 41
20 44 41
19 43 40
19 43 40
19 43 39
20 44 40
19 44 40
19 43 40
19 43 40
19 43 40
20 44 40
20 44 40
19 43 40
19 43 40
20 44 40
19 43 40
19 43 40
20 44 41
19 43 40
19 43 40
19 43 40
20 45 41
19 43 40
19 43 40
20 45 41
19 42 39
20 44 41
19 43 39
20 44 40
20 45 41
20 44 41
19 43 40
19 43 40
20 44 40
20 44 41
20 45 41
20 44 40
19 43 40
20 44 40
20 45 41
20 44 41
20 44 41
20 45 41
20 44 40
20 45 41
20 44 40
20 44 40
20 44 41
20 44 40
20 45 41
19 43 40
20 44 41
20 45 41
20 44 41
20 44 41
20 45 42
20 45 41
20 44 41
20 45 41
20 45 41
20 44 41
20 44 41
20 44 41
20 45 41
20 44 40
20 45 41
20 44 41
20 44 41
20 44 40
20 44 41
20 44 41
20 44 41
20 44 41
21 46 42
20 45 41
19 43 40
20 44 41
20 44 41
19 43 40
19 43 40
19 43 40
19 43 39
20 45 41
20 44 40
20 44 41
20 44 41
20 44 40
20 44 40
20 44 40
20 44 40
20 44 40
20 44 41
20 44 41
20 44 41
20 45 41
19 43 39
20 45 41
20 44 41
20 45 41
20 44 41
20 45 41
20 44 40
20 44 41
20 44 41
19 42 39
19 43 40
19 43 39
20 45 42
20 44 41
20 44 40
19 43 40
20 45 41
20 45 41
20 44 41
19 43 40
19 43 40
20 45 41
20 44 40
19 43 40
20 44 40
20 44 41
20 44 41
20 45 41
20 44 41
20 44 41
20 44 41
20 45 41
19 43 40
19 42 39
19 43 40
19 43 40
20 44 41
20 44 41
19 43 40
19 43 40
20 44 41
19 43 40
20 44 41
20 44 40
19 43 40
20 44 40
19 42 39
20 44 40
19 43 40
19 43 40
20 44 41
20 44 40
20 45 41
19 43 40
20 45 41
20 44 40
20 44 41
20 45 41
20 44 41
20 44 40
19 43 40
20 44 40
20 45 41
20 44 40
20 45 41
20 44 40
20 44 41
20 44 40
20 45 41
20 44 40
20 45 41
19 43 40
20 45 41
20 45 41
20 45 41
19 43 40
20 45 41
20 45 41
20 45 42
20 45 41
20 45 41
20 45 41
20 45 41
20 44 41
20 45 41
20 45 41
20 44 41
20 44 41
20 45 41
20 45 41
19 43 40
20 44 41
20 45 41
20 45 41
20 45 41
20 44 41
20 44 41
20 44 41
20 45 41
20 45 41
20 44 40
20 44 41
20 44 40
20 44 41
20 44 41
20 44 40
20 44 41
20 44 40
20 44 40
20 45 41
20 44 40
20 44 40
20 44 40
20 44 41
20 44 41
20 44 40
20 44 41
20 45 41
20 45 42
20 45 41
20 45 41
20 44 41
20 44 41
20 45 41
20 44 40
20 44 41
20 45 41
20 44 40
20 44 40
19 43 39
20 44 40
19 43 39
20 44 41
19 43 40
20 45 41
20 44 40
20 44 40
19 43 40
20 45 41
19 43 40
20 45 41
20 44 40
20 44 41
20 45 41
20 44 41
20 44 40
19 43 40
20 44 40
20 44 41
20 44 41
20 44 41
20 45 41
19 43 40
20 45 41
20 45 41
20 44 40
20 44 40
20 44 40
19 43 40
20 44 41
19 43 40
20 44 41
19 44 40
19 43 39
19 43 40
20 44 40
19 43 39
19 44 40
20 44 41
20 44 41
20 44 40
20 45 41
20 45 41
20 44 41
20 45 41
20 45 41
20 45 42
20 44 41
20 44 41
20 45 41
20 44 40
20 44 40
20 44 41
20 44 40
20 45 41
20 44 40
20 45 42
20 45 41
20 44 40
20 45 41
20 44 41
20 45 41
20 44 41
20 45 41
20 44 40
20 44 41
20 45 42
20 45 42
20 44 40
20 44 40
19 43 40
20 44 41
20 45 41
20 45 41
20 45 41
20 44 40
20 45 41
20 44 41
20 44 41
20 45 41
20 44 41
20 44 41
20 45 41
20 45 42
20 45 41
20 45 41
20 45 41
20 45 41
20 44 41
20 45 41
20 44 40
20 44 40
20 45 42
20 43 40
20 45 41
20 45 41
20 45 41
20 44 40
20 44 40
20 44 40
20 44 41
20 45 41
20 45 41
20 44 40
20 44 41
20 44 41
20 45 41
20 44 40
20 44 40
20 44 41
20 45 41
20 45 41
20 45 41
20 45 41
20 44 41
20 45 41
20 44 41
20 45 41
20 44 40
20 45 41
19 43 39
20 45 41
20 44 41
20 44 40
20 44 40
20 45 41
20 44 41
20 45 41
20 45 41
20 44 40
19 43 40
20 44 41
20 44 40
20 44 41
20 45 41
20 44 40
20 44 40
20 44 41
20 45 41
20 44 41
20 44 41
19 43 40
19 43 40
20 44 40
20 44 41
20 44 41
20 44 40
20 44 41
20 44 41
20 44 41
20 44 40
19 43 40
20 44 40
19 43 40
20 45 42
20 44 40
20 44 40
20 44 40
20 44 41
20 45 41
19 43 40
20 44 41
20 45 41
20 44 41
20 45 41
19 43 40
20 44 41
20 44 40
20 44 41
21 45 42
20 45 41
20 44 41
20 45 42
20 44 41
20 44 41
20 44 40
20 45 41
20 44 40
20 45 41
20 44 41
20 44 40
20 44 40
20 44 40
20 44 40
20 45 41
20 44 40
20 45 41
20 45 41
20 44 40
20 45 41
20 44 40
20 45 42
20 45 41
20 44 40
20 44 40
20 44 41
20 44 40
20 44 41
20 45 41
20 45 41
20 45 42
20 45 41
20 44 40
20 45 42
20 45 41
20 45 41
20 45 41
20 45 41
20 44 41
20 45 41
20 45 42
20 45 41
20 44 40
20 45 41
20 45 41
20 45 41
20 44 41
20 45 41
21 46 42
20 44 41
20 45 41
20 45 41
20 45 41
20 44 41
20 45 41
20 44 41
20 44 41
20 45 41
20 44 40
20 45 41
20 44 40
20 45 42
19 43 40
20 44 41
20 45 41
20 45 41
20 44 40
20 45 41
20 44 41
20 44 41
20 45 41
20 45 41
20 45 41
20 44 41
20 45 42
20 44 40
20 45 42
20 44 41
20 45 41
20 45 41
20 44 41
20 44 40
20 44 41
20 45 42
20 44 41
20 45 42
20 43 40
20 45 42
20 44 41
20 44 40
19 43 40
20 45 41
20 45 42
20 45 41
20 44 41
20 44 40
19 43 40
20 44 40
20 45 41
20 44 40
20 44 41
20 45 41
20 44 41
20 44 41
20 45 42
20 44 41
20 44 41
20 44 41
20 45 41
20 44 40
19 43 40
20 45 41
20 45 42
20 45 41
21 46 42
20 44 41
20 45 42
20 45 41
20 45 41
20 45 41
20 44 41
20 44 41
20 45 41
20 44 41
20 44 41
20 45 42
20 44 41
20 44 41
20 46 42
20 45 41
20 45 41
20 44 40
20 45 41
20 44 41
20 44 41
20 45 41
20 45 42
20 44 41
20 45 41
21 46 42
20 45 41
20 46 42
20 45 42
20 45 42
21 45 42
20 45 42
20 45 41
20 45 42
20 45 41
20 44 41
20 44 41
20 45 42
20 45 41
20 45 41
21 46 42
21 46 42
20 45 42
20 45 41
20 45 42
21 46 42
20 45 41
20 45 41
21 46 42
20 45 42
20 44 41
20 45 41
20 45 42
20 45 41
20 45 41
21 46 42
20 45 41
20 45 42
20 44 41
20 44 41
20 45 41
20 45 41
21 46 42
20 44 40
20 45 41
20 45 41
21 45 42
21 46 42
20 45 41
20 44 41
20 45 41
20 45 41
20 45 41
20 45 42
20 45 41
20 44 41
20 45 41
20 44 41
20 45 42
20 45 42
20 44 41
20 45 41
20 45 41
20 45 41
20 44 40
19 43 40
20 44 41
20 44 40
20 44 40
20 45 42
20 45 41
20 44 41
20 45 41
20 45 41
19 43 40
20 44 40
20 44 41
21 46 42
20 44 41
20 45 41
20 44 40
20 44 40
20 44 41
20 45 41
20 44 40
20 44 41
20 44 41
20 45 41
20 45 41
19 43 40
20 44 41
20 44 41
20 44 41
19 43 40
20 44 41
20 44 41
20 44 40
20 45 41
20 45 42
21 46 42
20 45 41
21 46 43
20 46 42
20 45 41
21 46 42
20 44 40
19 43 40
20 44 41
20 45 41
20 45 41
20 45 41
20 44 41
21 46 42
20 44 40
20 45 41
20 45 42
21 46 42
20 44 41
20 44 40
20 45 41
20 44 40
21 46 42
21 46 42
20 45 41
20 45 41
20 45 41
20 44 41
20 44 41
20 45 42
21 46 42
21 46 42
21 46 42
20 45 42
20 45 41
20 44 41
20 44 41
20 45 41
20 45 42
20 45 41
21 46 42
20 45 41
20 46 42
21 46 42
20 45 41
21 46 42
20 45 42
20 45 42
20 45 41
20 45 41
21 46 42
20 45 41
20 45 41
20 44 40
20 45 41
20 45 41
20 45 41
20 45 41
20 44 40
21 46 42
21 46 42
20 45 42
20 44 41
20 45 41
20 45 41
21 46 42
20 44 40
21 46 43
20 45 41
20 45 41
20 44 41
20 45 41
20 45 41
21 46 42
20 45 41
21 46 42
20 45 41
20 45 41
20 45 41
20 45 42
20 44 40
21 46 42
21 46 42
20 44 40
20 44 41
20 44 41
20 45 42
20 45 41
20 44 41
20 45 41
20 45 41
20 45 41
20 44 40
20 44 41
20 45 41
20 45 41
20 44 41
20 45 41
20 45 41
20 45 41
20 44 40
20 44 40
20 45 41
19 43 40
20 44 41
20 44 40
20 44 40
20 44 41
20 45 41
20 45 41
20 45 41
20 45 42
20 45 42
20 45 41
20 44 41
20 44 40
20 45 41
20 44 40
20 44 41
21 46 42
20 45 41
20 44 40
21 46 42
20 45 42
21 46 42
20 45 42
21 46 42
20 45 41
20 45 41
21 46 42
21 46 42
21 46 42
21 47 43
20 45 41
20 45 41
20 44 41
20 45 42
20 45 41
20 45 41
20 44 41
21 46 42
21 46 42
20 45 41
20 45 42
20 45 42
20 44 40
20 45 41
20 45 41
21 45 42
20 45 41
20 45 41
20 44 40
20 45 41
20 45 41
20 45 41
20 44 41
21 45 42
21 46 42
20 45 42
21 46 42
21 46 42
20 45 41
20 45 41
20 45 42
20 45 42
20 45 41
20 44 41
20 45 41
21 46 42
20 45 41
21 46 42
20 45 41
21 46 42
20 45 42
20 45 41
21 46 42
20 45 41
21 46 42
20 45 41
21 46 42
21 46 42
21 46 42
21 46 42
21 46 42
20 45 41
20 44 41
20 45 41
20 45 41
21 47 43
21 45 42
20 45 41
21 46 42
20 45 41
20 45 41
20 45 41
20 45 41
20 45 41
20 44 40
20 44 40
20 44 40
20 45 42
20 43 40
20 45 41
20 45 41
21 46 42
20 45 42
20 45 42
20 45 41
20 44 41
20 44 41
20 45 41
20 45 41
20 45 41
20 45 41
20 44 40
20 45 41
20 44 41
20 45 41
20 43 40
20 44 41
20 44 41
20 45 41
20 45 41
20 45 42
19 43 40
20 44 40
20 44 40
20 45 42
20 45 41
20 44 41
20 45 41
20 45 41
20 44 40
20 44 41
20 44 40
20 45 41
20 44 41
20 44 41
20 45 41
21 46 42
20 45 41
20 45 42
20 45 41
20 45 41
20 45 41
20 45 41
21 46 42
20 45 41
20 45 41
20 45 41
20 45 41
20 45 41
21 46 42
20 45 42
20 45 41
21 46 42
20 45 41
21 46 42
21 46 42
20 45 41
21 46 42
21 46 42
21 46 42
21 46 42
20 45 41
21 46 42
21 46 42
21 47 43
20 44 41
21 46 42
20 45 42
20 45 41
20 45 41
20 45 41
20 44 40
20 46 42
20 45 41
21 46 42
20 45 41
20 45 41
21 46 42
20 45 41
20 45 42
21 46 42
20 45 42
20 45 42
20 45 42
20 44 40
21 46 42
20 45 41
20 44 40
21 46 42
21 47 43
20 45 41
20 45 41
20 44 41
20 45 41
21 46 42
20 44 41
21 46 42
21 46 42
20 45 41
20 44 41
20 45 41
20 45 41
20 45 41
20 45 41
20 45 41
20 45 42
20 45 41
20 44 41
20 44 41
20 45 42
21 46 42
20 45 41
20 45 41
20 45 42
20 45 41
20 44 40
20 44 41
20 45 42
20 45 42
20 45 41
21 46 42
20 44 41
20 45 42
20 44 41
20 45 41
20 45 41
20 45 42
20 45 41
21 46 42
21 46 42
21 46 42
20 45 41
20 45 41
20 45 41
20 45 41
20 45 41
20 44 40
20 44 41
20 44 41
20 45 41
20 45 41
20 45 41
20 45 41
20 44 41
20 45 41
21 46 42
20 44 41
20 45 42
20 44 41
20 44 41
20 44 41
20 44 40
20 45 41
20 44 41
20 43 40
20 44 40
21 46 42
21 46 42
21 45 42
21 47 43
20 45 41
21 46 42
21 46 42
20 45 41
21 46 42
21 46 42
20 45 41
22 48 44
20 45 41
20 45 41
21 46 42
21 47 43
21 46 42
21 46 42
20 45 41
21 46 42
21 46 42
21 46 42
21 46 42
21 46 42
20 45 41
21 45 42
20 45 41
21 46 42
20 45 41
21 46 42
20 45 41
21 46 42
20 45 42
21 46 42
20 46 42
21 46 42
20 45 41
21 46 42
20 45 41
21 46 42
20 45 41
21 46 42
21 45 42
20 45 41
20 45 41
21 46 42
21 46 42
20 45 42
21 46 42
20 45 41
21 47 43
20 45 41
20 44 41
20 45 41
20 45 41
20 45 41
21 46 42
21 46 42
21 45 42
20 45 41
21 46 42
20 45 41
21 46 42
20 45 41
20 45 41
21 46 42
20 44 40
20 45 42
21 46 42
20 45 41
20 45 41
20 45 42
21 46 43
20 45 41
21 46 43
20 45 41
20 45 41
20 45 42
20 45 41
21 46 42
21 46 42
21 46 42
20 45 42
21 46 43
20 45 41
21 46 42
21 46 42
20 44 40
20 45 42
21 46 42
20 45 41
20 45 41
20 45 42
20 44 40
20 44 40
21 46 42
21 45 42
21 46 42
21 46 42
20 46 42
20 44 41
20 44 41
20 45 41
20 44 41
20 45 41
20 44 41
20 45 41
20 45 42
20 44 41
19 43 40
20 45 41
20 44 40
20 44 41
20 45 42
20 45 41
20 44 41
20 44 40
21 46 42
20 45 42
20 45 41
20 45 41
20 44 40
21 45 42
21 46 42
20 45 41
21 46 42
20 45 41
21 47 43
21 47 43
21 46 42
21 46 42
21 46 42
20 45 42
21 46 42
20 45 41
20 45 41
21 46 42
20 45 41
21 46 42
21 46 42
21 46 42
21 46 42
21 46 42
20 45 41
20 45 41
20 45 41
21 46 42
21 46 42
21 45 42
20 45 42
20 45 41
20 45 41
21 46 42
20 45 41
20 45 42
21 46 42
21 46 42
21 46 42
21 46 42
20 45 41
21 46 42
21 47 43
21 46 42
20 45 41
21 46 42
21 45 42
21 46 42
21 46 42
20 45 41
20 45 41
20 45 41
21 46 42
21 46 42
21 46 42
21 46 42
20 45 41
21 47 43
20 45 41
21 46 42
20 45 41
21 46 42
21 46 43
21 46 42
21 47 43
21 46 42
21 47 43
21 46 42
21 46 42
21 45 42
21 46 42
20 45 41
21 46 42
20 45 41
21 47 43
20 45 41
21 46 42
21 46 42
20 44 41
20 45 41
20 44 40
21 46 42
20 45 41
21 46 42
20 45 41
21 45 42
20 45 41
21 46 42
20 45 42
21 46 42
21 46 42
20 45 41
20 44 40
21 46 42
20 44 40
21 46 42
20 44 41
20 45 41
21 46 42
20 45 41
20 44 40
20 45 41
20 45 41
20 45 41
20 45 41
20 44 41
20 45 41
20 44 41
20 45 41
20 45 41
20 44 41
20 45 41
20 44 40
20 44 41
20 44 40
20 45 41
20 44 40
20 45 41
20 45 42
20 44 40
21 46 42
21 46 42
21 46 42
21 46 42
21 46 42
20 45 41
21 46 42
21 46 42
21 47 43
21 46 42
21 45 41
21 46 42
21 45 41
21 46 42
21 46 42
20 45 41
21 46 42
21 46 42
21 46 42
21 46 42
20 45 41
21 46 42
21 46 42
20 45 41
21 46 42
20 45 41
21 47 42
21 46 42
21 47 42
21 46 42
21 46 42
21 46 42
21 46 42
21 47 43
21 45 42
21 46 42
21 46 42
21 46 42
21 46 42
21 46 42
21 46 42
21 47 43
21 46 42
21 45 41
21 46 42
21 46 42
21 46 42
21 46 42
21 46 42
21 46 42
21 46 42
21 46 42
21 47 43
21 46 42
21 46 42
21 46 42
21 45 41
21 47 43
21 46 42
21 46 42
22 48 44
21 46 42
20 45 41
21 46 42
21 46 42
21 46 42
21 46 42
21 45 41
21 46 42
21 46 42
20 45 41
21 46 42
21 46 42
20 45 41
20 45 41
21 46 42
20 45 41
20 45 41
21 46 42
21 46 42
21 46 42
21 46 42
21 46 42
20 45 42
21 46 42
21 46 42
22 48 44
20 45 41
20 44 40
21 46 42
21 46 42
20 45 41
20 45 41
20 44 41
21 46 42
21 46 42
21 46 42
20 45 41
20 45 42
21 46 42
20 45 41
20 45 42
20 45 41
21 46 42
20 45 41
20 45 42
21 46 42
20 45 41
20 45 41
21 46 42
21 46 42
20 44 41
20 45 42
20 44 41
20 45 41
20 45 41
21 46 42
20 45 41
20 45 41
20 45 42
21 46 42
21 47 43
20 45 41
21 46 42
20 45 41
22 48 44
21 46 42
21 47 43
21 47 43
20 45 41
21 46 42
21 46 42
21 46 42
21 46 42
21 46 42
20 44 41
21 47 43
20 45 41
21 46 42
20 45 41
21 46 42
21 46 42
21 46 42
21 46 42
20 45 41
21 45 42
21 47 43
21 47 43
21 46 42
21 46 42
21 46 42
20 45 41
21 46 42
21 46 42
20 45 41
21 47 43
21 46 42
20 45 42
21 47 43
21 46 42
21 46 42
21 47 42
21 46 42
21 47 43
21 46 42
21 47 43
21 46 42
20 45 41
21 46 42
21 46 42
21 47 43
20 44 41
21 45 42
21 46 42
21 45 42
21 47 43
21 46 42
21 45 41
21 47 43
21 46 42
20 45 41
21 46 42
21 46 42
21 46 42
20 45 42
21 47 43
20 45 41
21 46 42
21 46 42
21 47 43
21 46 42
20 45 41
21 46 42
20 45 41
20 45 41
20 45 42
21 46 42
21 46 42
20 45 41
21 46 42
21 45 42
21 46 42
21 46 42
21 46 42
21 46 42
21 46 42
21 46 42
20 45 41
20 45 41
21 46 42
20 45 41
21 46 42
20 45 41
21 46 42
21 46 42
20 45 42
21 46 42
20 45 41
21 46 42
21 46 42
20 45 41
20 45 41
20 45 41
21 46 42
20 45 41
21 46 42
20 45 41
20 44 41
20 45 41
21 46 42
20 46 42
21 46 42
20 44 41
20 45 42
20 44 41
20 45 42
20 45 41
20 44 41
20 45 42
21 46 42
20 45 41
21 45 42
21 46 42
21 46 42
20 45 41
21 47 43
20 45 41
21 45 42
21 46 42
21 46 42
21 46 42
20 45 41
22 48 44
21 46 42
21 47 43
21 46 42
20 45 41
21 47 43
21 46 42
20 45 41
21 47 43
21 47 43
21 46 42
21 45 41
21 46 42
21 45 42
21 46 42
21 47 43
21 47 43
22 48 43
21 46 42
21 46 42
21 47 43
22 48 43
21 46 42
21 46 42
21 46 42
21 47 43
21 46 42
21 46 42
21 46 42
21 46 42
21 46 42
21 46 42
20 45 41
21 47 43
21 46 42
21 45 42
21 46 42
21 46 42
21 45 42
21 47 43
21 46 42
21 46 42
21 45 41
21 46 42
21 46 42
21 46 42
21 46 42
21 47 43
21 46 42
21 46 42
21 47 43
21 46 42
21 46 42
21 47 43
21 46 42
21 47 43
21 46 42
21 46 42
21 46 42
20 45 42
21 46 42
21 45 41
21 46 42
21 46 42
21 46 42
21 46 42
21 46 42
21 46 42
21 46 42
34 51 47
21 46 42
20 45 41
21 46 42
21 46 42
20 45 41
21 46 42
21 46 42
20 45 41
21 46 43
21 46 42
21 46 42
20 45 41
21 46 42
21 46 42
21 47 43
20 45 41
21 47 43
21 47 43
20 45 42
20 45 41
21 46 42
21 46 42
20 45 41
20 45 41
21 46 42
20 44 41
21 46 42
20 45 41
21 46 42
21 46 42
20 45 42
20 44 41
20 45 41
20 45 42
20 45 41
21 46 43
20 44 41
21 46 42
21 46 42
20 45 41
21 47 43
21 47 42
21 47 43
21 46 42
21 46 42
21 46 42
21 46 42
21 47 43
21 46 42
21 46 42
22 48 44
22 48 43
21 45 42
20 45 41
21 47 43
20 45 41
21 46 42
20 45 41
21 47 43
21 47 43
22 48 43
21 47 43
21 46 42
21 46 42
21 45 41
21 46 42
21 47 43
21 47 43
21 47 43
21 46 42
21 46 42
21 47 43
22 48 44
22 48 43
21 46 42
21 45 41
21 46 42
22 48 44
21 47 42
21 47 43
21 46 42
21 47 43
21 46 42
21 46 42
21 46 42
21 47 43
21 47 43
21 47 43
21 46 42
21 46 42
21 46 42
21 46 42
21 47 43
21 47 43
20 45 41
21 47 42
21 46 42
21 47 43
20 45 41
22 48 43
21 47 43
20 45 41
21 46 42
21 47 42
21 46 42
21 47 43
21 46 42
21 47 43
21 47 43
21 45 41
21 46 42
21 47 43
21 46 42
20 45 41
21 47 43
21 46 42
34 52 47
159 144 131
205 184 168
220 197 180
197 178 164
95 89 88
21 45 42
21 46 42
21 46 42
20 45 41
20 45 41
21 46 42
21 46 42
21 47 43
21 46 42
20 45 41
21 46 42
21 47 43
20 45 41
20 45 41
20 45 41
21 47 43
21 46 42
21 46 42
21 47 43
20 44 40
21 46 42
21 45 42
21 46 42
21 46 42
21 45 42
20 45 41
20 45 41
20 45 42
21 46 42
20 45 41
21 46 42
20 45 41
21 46 42
20 45 41
20 44 40
20 45 41
21 47 42
21 46 42
21 46 42
21 47 43
21 46 42
21 46 42
21 46 42
21 46 42
21 46 42
21 46 42
21 47 43
21 47 43
21 47 42
21 47 43
21 46 42
21 46 42
21 47 43
21 47 43
21 47 43
21 47 43
21 46 42
22 48 44
21 46 42
21 47 42
21 47 43
21 47 43
21 46 42
21 46 42
21 46 42
21 45 41
21 46 42
22 48 43
21 47 43
21 47 43
21 47 42
22 48 43
21 46 42
21 47 43
22 48 44
21 47 42
21 47 43
21 46 42
21 46 42
21 47 43
21 47 43
21 47 43
21 47 43
21 46 42
21 46 42
21 46 42
21 46 42
21 47 43
21 46 42
21 46 42
21 46 42
21 47 43
21 46 42
21 46 42
21 46 42
22 48 43
21 46 42
21 47 43
21 45 41
21 47 43
21 46 42
21 46 42
21 47 43
21 46 42
20 45 41
20 45 41
21 47 43
21 46 42
21 46 42
21 46 42
21 46 42
21 45 42
21 46 42
28 49 45
200 178 161
245 217 197
246 219 199
244 217 198
234 208 191
125 99 120
63 52 74
21 46 42
21 46 42
21 46 42
20 45 41
21 46 42
21 46 42
21 45 42
21 47 43
20 44 41
21 46 42
20 45 41
21 46 42
21 46 42
20 45 41
21 47 43
20 45 41
21 45 42
21 46 42
21 46 42
21 46 42
20 45 41
21 46 42
20 45 41
21 46 42
21 46 42
20 45 42
20 45 42
21 46 42
20 45 41
20 45 41
21 46 42
20 45 41
20 45 41
19 43 40
20 45 41
21 46 42
21 47 43
21 46 42
21 46 42
22 48 44
21 46 42
21 47 43
21 45 41
21 47 42
21 47 42
21 47 43
21 47 43
22 47 43
21 47 43
21 47 43
21 47 43
21 46 42
21 47 43
21 46 42
21 47 43
21 46 42
22 48 43
21 47 43
21 47 43
21 46 42
21 47 43
21 46 42
21 46 41
21 47 43
21 47 43
21 47 43
22 48 43
21 47 42
21 46 42
21 47 43
21 46 42
21 46 42
22 48 43
21 47 42
21 47 43
21 46 42
21 46 42
21 46 42
22 48 44
22 48 43
21 47 43
21 47 43
20 45 41
21 47 42
21 47 43
21 47 43
22 48 44
21 46 42
22 47 43
21 47 43
21 46 42
21 47 43
21 46 42
21 47 43
21 47 43
21 47 43
21 46 42
21 46 42
21 46 42
21 47 42
21 46 42
21 47 43
21 46 42
21 45 41
21 47 43
21 47 43
20 45 41
21 46 42
21 47 43
21 47 43
21 46 42
21 47 43
125 116 104
237 208 187
249 219 198
255 229 206
250 222 200
178 151 153
97 64 104
87 58 94
41 46 54
21 46 42
21 46 42
21 46 42
21 47 43
21 46 42
20 45 41
21 46 42
21 47 43
21 47 43
21 46 42
20 45 41
21 46 42
21 46 42
21 46 42
21 47 43
21 45 42
21 46 42
21 46 42
22 48 44
21 46 42
20 45 41
21 47 43
21 46 42
21 46 42
21 46 42
21 46 42
20 45 41
20 45 41
21 47 43
21 46 42
20 44 41
21 46 42
20 45 41
20 45 42
21 47 43
21 47 43
21 47 43
21 47 42
21 47 42
22 48 43
21 46 42
22 48 44
22 48 44
21 47 43
21 46 42
22 48 43
21 47 43
21 46 42
22 48 43
21 46 42
21 47 43
21 47 43
22 48 44
21 47 43
21 46 42
22 48 44
20 45 41
22 48 44
21 47 43
21 47 43
21 47 43
21 47 43
21 47 43
21 46 42
22 48 43
21 46 42
21 47 43
21 47 43
21 47 43
21 46 42
22 48 44
21 47 43
21 46 42
21 47 43
21 47 43
21 46 42
21 47 43
21 46 42
21 47 42
21 47 43
21 47 43
21 47 43
21 47 42
22 48 43
21 46 42
22 48 44
22 47 43
22 48 43
21 46 42
21 47 43
21 47 43
21 46 42
22 48 43
21 46 42
21 46 42
22 48 43
22 47 43
21 47 43
21 47 43
21 46 42
21 46 42
21 47 43
21 46 42
22 48 44
21 46 42
21 46 42
21 47 43
21 46 42
21 46 42
20 45 41
21 46 42
176 156 139
226 198 176
235 206 183
255 225 200
189 162 158
118 88 113
94 62 99
81 54 86
52 45 62
22 48 44
22 48 43
21 47 43
21 46 42
21 46 42
21 46 42
21 46 42
21 46 42
21 46 42
20 45 41
21 46 42
21 46 42
21 46 42
21 46 42
21 45 41
21 46 42
21 46 42
21 46 42
21 46 42
20 45 41
21 46 42
21 45 42
21 46 42
21 46 42
20 45 42
20 45 41
21 46 42
21 47 43
20 44 41
20 45 42
21 46 42
21 46 42
21 46 42
21 46 42
21 46 42
21 46 42
21 46 42
21 46 42
21 47 42
21 47 43
22 48 43
21 46 42
21 47 42
22 47 43
21 47 43
22 48 44
22 48 44
22 48 43
22 48 43
21 47 43
21 47 43
21 47 43
21 47 43
21 45 41
21 47 43
21 47 43
21 47 43
21 46 42
22 48 43
22 48 44
21 47 42
22 49 44
21 47 42
22 48 43
21 46 42
21 47 43
22 48 44
21 46 42
22 48 43
21 47 43
22 48 44
21 47 43
21 47 43
21 47 43
22 48 44
22 48 43
21 47 42
21 47 43
22 47 43
21 46 42
21 47 43
21 47 42
21 47 43
21 46 42
22 48 43
21 47 43
21 47 43
22 48 43
21 47 43
21 47 43
22 47 43
22 47 43
21 47 43
21 47 42
22 48 44
21 46 42
21 46 42
21 47 42
21 47 43
21 47 43
21 47 43
21 47 43
21 47 42
21 47 43
21 45 41
21 47 43
21 47 43
21 47 43
21 46 42
21 47 42
21 47 43
154 136 120
202 175 155
176 150 140
126 99 113
169 147 133
182 159 141
134 112 113
74 49 79
58 52 62
21 47 43
22 48 44
21 45 42
21 46 42
21 46 42
21 46 42
21 45 41
21 47 43
21 46 42
21 46 42
21 46 42
21 46 42
21 47 43
21 46 42
21 46 42
21 46 42
21 47 43
21 46 42
21 46 42
21 46 42
21 47 43
20 45 41
21 46 42
21 47 43
21 46 42
20 45 41
21 47 43
20 45 42
21 47 43
21 45 42
20 45 41
20 45 41
20 45 41
21 46 42
21 47 43
21 47 42
21 47 42
22 48 43
21 46 42
21 47 43
21 47 43
21 47 42
22 47 43
21 47 43
21 47 42
21 47 43
21 46 42
21 46 42
21 46 42
22 47 43
22 47 43
21 46 42
22 48 43
21 47 43
21 47 43
22 48 43
21 47 43
22 47 43
21 47 42
21 46 42
21 47 43
22 48 43
21 46 42
21 47 43
21 47 43
22 48 44
22 48 44
21 46 42
21 47 43
21 47 43
21 47 43
21 47 43
22 47 43
22 48 44
21 46 42
21 47 43
21 47 42
21 47 43
22 48 44
21 47 43
21 47 43
22 48 44
22 48 44
21 47 43
21 47 43
22 48 43
21 47 43
22 48 44
22 47 43
21 46 42
21 47 43
22 48 44
22 48 43
22 48 43
22 47 43
21 47 43
21 47 43
21 47 43
22 47 43
21 47 43
21 46 42
21 47 43
21 47 42
21 46 42
21 47 43
21 46 42
21 46 42
21 46 42
21 46 42
21 45 41
21 46 42
54 47 60
79 54 76
80 51 80
114 92 96
176 152 133
144 125 110
130 113 101
68 52 67
58 61 58
20 44 41
21 46 42
21 46 42
21 45 42
21 46 42
22 48 43
21 46 42
20 45 41
21 47 43
21 47 43
21 47 43
21 47 43
21 47 43
21 46 42
21 46 42
21 46 42
21 47 43
21 47 43
21 47 42
21 46 42
21 47 43
21 46 42
21 47 43
20 45 41
21 46 42
20 45 41
21 47 43
20 44 41
20 45 41
21 46 42
21 47 43
21 45 41
20 45 42
21 45 42
21 47 43
22 48 44
21 47 42
21 46 42
21 47 43
21 47 43
21 46 42
21 46 42
21 47 43
22 48 43
22 48 44
21 47 42
21 46 42
21 47 43
22 48 43
22 48 43
21 47 43
22 48 43
22 48 44
21 47 43
22 48 44
22 48 44
22 48 43
22 47 43
21 47 43
22 48 43
21 47 43
22 48 44
22 47 43
22 48 44
21 47 42
21 47 43
22 48 44
22 48 43
21 47 43
21 47 43
22 49 44
22 49 44
21 47 43
21 47 43
21 46 42
21 47 43
21 47 43
22 47 43
21 46 42
21 46 42
21 46 42
21 47 43
22 48 43
22 48 43
22 47 43
21 47 43
21 47 43
21 47 43
22 48 44
21 47 42
21 47 43
21 47 43
21 47 43
22 48 44
21 47 43
21 47 43
22 48 44
21 47 42
21 47 43
21 47 42
21 47 43
21 47 43
21 46 42
21 45 41
22 48 44
21 47 43
21 46 42
21 46 42
21 45 41
21 46 42
21 46 41
30 43 44
51 34 51
63 40 60
83 64 69
129 111 96
125 109 94
70 60 57
70 66 61
32 42 39
17 40 37
19 42 39
20 45 41
21 47 43
21 46 42
21 46 42
21 47 43
21 46 42
21 46 42
21 46 42
21 47 43
21 45 42
21 46 42
21 47 43
21 46 42
21 46 42
21 46 42
21 46 42
21 46 42
21 46 42
21 47 42
21 47 43
21 47 43
21 47 43
21 46 42
21 46 42
21 46 42
21 46 42
21 47 43
21 47 43
21 46 42
21 45 41
21 46 42
21 46 42
22 48 43
21 47 43
22 47 43
22 47 43
22 48 44
22 48 43
22 49 44
22 47 43
22 48 43
22 48 44
21 47 43
22 48 44
22 48 44
21 47 42
21 47 43
22 48 44
21 47 43
22 48 43
21 47 43
21 47 43
21 47 43
21 46 42
21 47 42
22 48 44
22 47 43
22 47 43
22 49 44
21 47 43
21 46 42
21 47 43
22 48 44
21 47 43
22 48 43
21 47 43
22 48 44
22 48 44
21 47 43
21 47 43
22 48 44
21 47 43
22 47 43
22 49 45
22 47 43
21 46 42
21 47 43
21 47 42
21 47 43
22 48 44
22 48 44
21 46 42
22 48 44
21 46 42
21 47 43
22 48 44
22 48 43
21 46 41
21 47 43
21 47 43
22 49 44
22 48 43
21 47 43
22 47 43
21 46 42
21 47 43
22 49 44
21 47 43
21 47 43
22 48 44
21 47 43
22 47 43
21 46 42
21 46 41
21 46 42
21 46 42
21 45 41
20 44 40
20 43 38
19 41 37
19 28 28
30 20 29
37 24 34
44 34 38
43 38 36
38 40 32
23 33 30
13 30 28
16 36 34
18 41 37
21 46 42
20 45 41
21 47 43
21 47 43
21 47 42
21 46 42
21 46 42
21 47 42
21 47 43
21 46 42
21 46 42
21 46 42
20 45 41
22 48 44
21 46 42
21 47 43
21 45 41
21 47 42
21 46 42
21 47 43
21 47 43
21 47 43
21 46 42
21 47 43
21 47 43
21 47 43
21 46 42
21 47 43
21 46 42
21 46 42
21 46 42
21 46 42
21 46 42
22 48 44
21 47 43
21 47 43
22 48 44
22 49 45
22 48 44
22 48 44
21 47 43
22 48 43
21 47 42
22 49 44
21 47 43
22 48 44
22 48 44
21 47 43
22 48 44
22 47 43
22 48 43
22 47 43
21 47 43
22 48 43
21 47 43
22 49 44
22 48 44
22 48 44
22 48 44
22 48 43
21 46 42
22 48 44
21 45 41
22 48 44
21 47 43
21 47 42
22 48 44
22 47 43
22 47 43
21 47 43
22 48 44
21 47 43
22 48 43
22 48 44
21 47 42
21 46 42
21 47 42
22 48 43
22 48 44
21 47 43
22 48 44
22 48 44
22 48 44
21 46 42
21 47 43
22 48 43
22 48 43
21 47 43
22 48 43
22 48 44
22 48 44
22 48 43
21 46 42
22 48 44
21 47 42
22 48 43
22 48 44
21 47 43
21 46 42
21 47 43
21 47 43
21 47 43
22 47 43
21 47 43
20 45 41
21 45 41
21 46 42
20 44 40
20 43 39
19 41 36
18 40 35
13 27 24
15 22 20
27 29 22
22 25 19
11 24 22
13 29 26
16 36 32
20 44 40
21 45 41
21 46 42
21 45 41
20 45 41
21 46 42
21 46 42
21 47 42
21 46 41
21 47 43
21 46 42
21 46 42
21 47 43
22 48 43
22 48 44
21 47 43
21 46 42
22 48 43
21 46 42
20 45 41
21 45 41
21 46 42
21 46 42
21 47 43
21 47 43
21 47 42
20 45 41
21 46 42
21 46 42
21 46 42
21 47 42
21 46 42
21 46 42
21 46 42
22 48 44
22 47 43
21 47 43
22 48 43
22 48 43
21 46 42
21 47 43
22 48 43
22 48 44
21 46 42
22 48 44
22 49 44
22 48 43
22 48 43
21 47 43
21 47 42
22 49 44
21 47 43
22 48 44
22 48 43
22 48 43
21 47 43
21 46 42
22 48 43
22 48 43
22 48 44
22 48 44
22 48 44
22 48 43
21 47 43
22 48 44
22 49 44
22 48 43
22 49 44
22 49 45
22 48 43
22 47 43
22 48 43
22 48 44
22 48 44
22 48 44
21 47 43
22 49 44
22 48 43
22 48 44
22 48 43
22 47 43
22 48 43
22 47 43
22 48 43
22 48 43
22 48 44
21 47 43
22 48 43
21 47 42
22 47 43
22 47 43
21 47 43
22 47 43
21 47 43
21 47 42
21 47 42
22 48 43
21 47 42
22 48 44
21 47 43
22 47 43
22 48 43
22 48 43
21 47 42
22 48 44
22 48 44
22 48 43
22 47 43
21 47 42
21 45 41
20 45 40
21 45 41
21 45 40
19 41 37
20 43 39
18 40 35
19 42 38
20 42 38
20 44 39
21 45 40
20 44 40
20 44 40
21 46 42
21 46 42
21 46 42
21 46 42
21 47 43
22 48 43
20 45 41
21 46 42
21 45 41
21 46 42
21 47 43
21 47 43
21 47 43
21 46 42
21 47 43
21 47 43
21 45 41
22 48 43
21 46 42
21 47 43
21 45 41
21 46 42
21 47 43
21 47 43
21 46 42
21 47 43
21 46 42
21 46 42
21 46 42
21 47 43
20 45 41
21 46 42
21 46 42
21 47 43
22 48 43
22 47 43
22 47 43
22 48 44
22 48 44
22 48 43
22 49 44
22 48 43
22 49 44
21 47 43
22 48 44
22 48 44
21 47 43
22 47 43
21 47 43
22 48 43
22 48 43
22 48 43
22 49 44
22 48 44
22 48 43
22 48 44
22 49 44
21 47 43
22 48 44
21 47 42
22 47 43
22 48 44
22 48 43
22 48 43
22 48 44
22 48 44
22 48 44
22 49 45
22 49 45
21 47 43
22 47 43
22 48 43
21 47 43
21 47 43
22 48 43
22 48 43
22 48 44
22 48 44
21 46 42
22 47 43
22 48 43
22 48 43
22 49 45
22 47 43
22 49 45
22 48 43
22 48 43
22 47 43
22 48 43
22 48 44
22 48 44
22 48 43
22 47 43
22 48 44
22 48 44
21 47 43
21 46 42
21 47 43
22 48 44
22 48 44
21 47 42
21 47 43
21 47 43
22 48 43
22 47 43
21 46 42
21 46 42
22 48 43
21 46 41
21 46 42
21 46 42
20 44 40
21 46 42
21 45 41
20 44 40
21 45 41
21 46 41
21 45 41
21 45 41
21 46 41
22 47 43
21 47 43
22 48 44
21 47 42
21 46 42
21 46 42
21 46 42
21 47 43
21 46 42
21 47 43
21 47 43
22 49 45
21 47 43
21 47 43
22 47 43
21 47 43
22 48 43
21 47 43
21 46 42
21 47 43
21 47 43
21 46 42
21 47 43
21 47 42
21 47 43
21 46 42
21 46 42
21 46 42
21 46 42
21 46 42
21 46 42
21 46 42
22 49 45
21 47 43
22 48 44
23 50 45
21 47 43
22 48 44
22 48 44
22 47 43
21 47 43
22 48 44
22 49 44
22 49 44
22 49 44
21 47 43
22 48 43
21 47 43
22 49 45
22 48 44
22 49 44
22 48 43
22 48 44
21 47 43
22 48 44
21 46 42
22 49 44
22 47 43
22 49 44
22 48 43
22 48 43
22 47 43
25 47 44
24 49 45
22 49 45
22 47 43
22 47 43
21 47 43
22 49 44
22 48 43
22 48 43
22 48 43
22 49 45
22 47 43
22 47 43
22 48 44
22 47 43
22 48 44
22 48 44
22 48 44
21 47 43
22 48 44
22 48 43
21 47 42
22 48 44
22 48 43
21 47 42
22 48 44
22 48 44
22 48 43
22 48 44
22 48 43
22 49 44
22 49 45
22 47 43
22 48 44
21 47 42
22 48 44
21 47 43
22 47 43
22 48 43
22 48 43
21 47 43
21 47 43
22 48 43
21 47 42
21 47 43
21 47 43
22 48 44
21 47 42
21 46 42
21 47 42
21 46 42
21 47 42
21 47 42
22 47 43
22 47 43
22 48 43
22 47 43
21 46 42
22 49 45
21 47 42
21 46 42
21 47 43
22 48 44
21 46 42
21 46 42
21 46 42
21 46 42
21 46 42
22 47 43
22 48 43
21 46 42
21 46 42
21 47 43
21 46 42
21 45 41
21 47 43
22 48 44
21 47 43
21 46 42
21 46 42
21 46 42
21 46 42
21 46 42
21 46 42
21 46 42
21 46 42
21 47 43
21 46 42
21 46 42
21 47 43
21 47 42
22 48 44
21 47 43
22 47 43
21 47 43
21 47 42
22 48 43
22 49 44
22 47 43
21 47 43
22 48 44
22 48 43
22 48 44
22 47 43
22 48 43
22 49 44
22 48 44
22 47 43
21 47 43
22 48 44
22 48 44
22 48 44
22 48 43
22 48 44
22 49 45
21 47 42
22 48 44
41 56 51
36 48 47
38 43 46
40 43 47
40 43 46
72 69 67
154 141 128
30 51 46
22 47 43
22 49 45
22 49 45
21 47 42
21 47 42
21 47 43
22 49 44
22 49 44
22 49 44
22 48 43
22 48 44
22 49 44
22 48 44
22 48 44
21 47 43
22 49 44
22 49 44
21 47 43
21 47 42
22 48 43
22 48 44
22 48 44
22 47 43
22 49 44
22 48 44
22 48 43
21 47 43
21 47 43
21 47 42
21 47 43
22 49 45
22 48 44
22 48 43
22 49 44
21 47 43
21 47 43
22 47 43
22 48 44
22 48 44
21 47 43
22 48 44
21 46 42
22 47 43
22 48 43
22 47 43
22 48 44
22 49 44
22 48 43
21 47 42
21 47 43
22 47 43
21 46 42
21 46 42
21 46 42
21 47 43
22 47 43
22 47 43
22 48 43
21 46 42
21 47 42
21 47 43
21 47 42
21 46 42
21 47 43
21 47 42
21 47 43
21 46 42
21 46 42
22 48 44
21 46 42
21 46 42
21 46 42
22 48 44
21 46 42
21 47 42
22 48 43
21 46 42
21 47 43
21 47 43
21 47 43
21 46 42
21 47 43
21 45 41
21 46 42
21 46 42
22 48 44
22 49 44
22 47 43
21 47 43
22 48 44
22 48 44
22 48 44
22 48 43
23 50 45
22 49 44
21 47 43
22 48 44
22 48 44
22 47 43
22 48 44
22 47 43
22 47 43
22 48 44
22 48 44
22 48 44
21 47 43
22 48 43
22 47 43
22 49 44
22 49 44
22 49 44
36 53 48
157 142 129
40 43 47
41 43 47
41 44 47
40 43 47
160 143 132
232 207 189
167 151 137
28 50 46
22 49 44
21 47 43
22 49 44
22 49 44
22 49 44
22 49 44
22 48 44
22 48 43
21 47 43
21 47 42
22 49 44
21 47 43
22 47 43
22 48 44
22 48 43
21 47 43
22 49 44
22 48 44
22 48 43
22 48 43
22 49 44
21 47 43
22 49 45
22 47 43
21 47 43
22 49 44
21 47 43
22 48 43
22 48 43
21 47 43
22 48 44
21 47 43
22 48 43
21 47 43
22 48 43
21 46 42
22 47 43
22 48 43
22 48 43
21 47 43
21 47 43
21 47 42
21 46 42
21 47 43
22 48 44
21 47 43
22 48 44
21 47 43
21 47 43
22 48 44
22 47 43
22 47 43
22 48 43
21 46 42
21 46 42
21 46 42
22 47 43
21 47 43
22 48 44
21 47 43
21 46 42
21 46 42
21 46 42
21 47 43
21 47 42
22 48 43
21 46 42
22 48 44
21 47 43
22 48 44
21 47 42
21 46 42
21 47 43
21 47 43
21 47 42
22 48 44
21 47 43
21 46 42
21 47 43
21 46 42
21 46 42
21 46 42
21 46 42
21 46 42
22 48 43
22 48 44
22 48 43
22 49 45
23 50 45
22 49 45
22 47 43
22 48 44
21 47 43
22 48 43
22 49 44
22 48 43
22 48 43
22 48 44
22 48 44
22 48 44
22 47 43
22 49 44
22 48 43
22 49 44
22 48 43
22 49 44
22 48 44
22 48 44
22 48 43
22 48 44
152 137 123
155 139 127
40 43 46
50 51 52
115 108 96
63 62 60
180 161 147
234 207 188
214 190 173
99 96 86
22 49 44
22 48 44
22 48 44
22 49 44
22 48 43
22 48 44
21 47 43
22 49 44
22 49 44
22 48 43
22 48 43
22 49 44
22 47 43
22 48 44
23 49 45
22 49 44
22 47 43
22 48 43
22 49 45
21 47 42
22 49 44
22 49 44
22 47 43
22 49 44
22 48 44
21 47 43
22 49 44
22 48 43
22 48 43
22 47 43
22 48 44
22 48 43
22 48 44
22 48 44
22 47 43
22 47 43
22 48 43
21 46 42
22 48 44
22 47 43
22 48 44
21 47 43
22 48 43
21 46 42
22 47 43
22 48 43
22 48 43
21 47 43
22 48 43
21 47 43
22 49 44
21 47 42
21 46 42
22 47 43
22 48 44
22 48 44
22 48 44
21 46 42
21 47 42
21 47 42
22 48 44
21 47 43
21 47 43
22 48 44
22 47 43
21 47 43
21 46 42
21 47 42
21 47 43
22 48 43
22 47 43
22 48 43
21 46 42
22 47 43
22 47 43
21 47 43
21 47 43
22 48 44
21 46 42
22 48 43
21 47 43
21 47 42
21 46 42
21 46 42
22 48 43
22 49 44
22 48 43
22 48 44
22 48 44
22 48 44
22 48 43
22 48 43
22 48 43
22 49 44
22 47 43
22 48 43
22 49 44
21 47 43
22 48 43
22 49 44
22 48 43
22 48 43
22 49 44
22 48 44
23 49 45
22 49 44
22 48 43
22 49 44
22 49 44
34 52 48
198 175 157
129 116 107
39 41 45
53 53 53
109 103 91
57 57 55
197 174 157
229 201 181
204 180 162
152 138 126
22 48 43
22 48 44
23 49 45
23 49 45
23 50 45
22 48 44
22 48 44
21 46 42
22 47 43
22 48 43
22 49 44
22 48 44
22 48 43
22 48 43
22 49 44
21 47 43
22 49 44
22 48 43
22 48 44
22 48 44
22 48 43
22 48 44
22 47 43
22 48 44
22 47 43
21 47 43
22 48 44
22 48 43
22 48 43
22 48 43
21 46 42
22 48 44
22 49 44
22 48 44
22 49 45
22 48 44
21 47 42
22 47 43
22 48 44
22 48 44
22 48 44
22 48 43
22 48 43
22 47 43
22 48 43
21 47 42
22 49 44
22 48 43
22 48 44
21 47 43
22 48 43
21 47 43
21 47 43
22 47 43
21 47 43
22 47 43
22 49 45
21 47 43
21 47 43
21 47 42
22 48 43
21 45 41
22 47 43
22 48 44
21 47 43
21 47 43
21 47 42
22 48 44
43 57 52
163 148 134
207 185 168
203 176 160
187 123 109
122 56 46
34 47 43
21 46 42
21 46 42
21 47 43
21 47 43
22 48 44
22 48 43
21 47 43
21 47 43
21 47 43
22 48 43
22 49 45
23 50 45
22 49 44
22 48 44
22 47 43
22 48 43
21 47 43
22 49 44
22 48 43
22 49 44
22 49 44
22 49 44
22 47 43
22 48 44
22 49 44
22 49 44
22 48 44
22 48 44
22 48 43
22 48 43
22 49 44
22 48 43
22 48 44
22 49 44
61 68 62
192 169 152
127 113 102
36 38 41
38 40 43
38 40 43
38 40 43
184 162 146
206 181 162
191 168 150
140 127 114
22 48 44
22 48 44
22 48 43
22 48 43
22 49 44
22 49 44
22 48 44
22 48 44
22 49 44
22 47 43
22 47 43
22 48 44
22 49 44
22 48 44
22 48 44
22 48 43
22 48 44
22 49 44
28 49 44
22 48 43
23 50 45
22 48 43
22 48 43
22 48 43
22 49 44
22 47 43
22 48 44
22 49 44
22 48 43
22 48 44
22 48 44
22 49 44
22 47 43
22 48 43
21 47 43
22 48 43
22 48 43
22 48 43
22 48 44
22 49 44
22 49 44
22 47 43
22 48 44
22 49 45
22 48 43
21 47 43
22 49 44
22 48 43
22 48 43
21 47 43
21 47 43
21 46 42
21 47 42
22 48 43
22 49 44
22 49 45
21 47 43
21 46 42
22 48 44
21 47 42
21 47 43
22 48 44
21 47 42
22 47 43
21 47 43
22 48 43
22 48 44
115 108 96
230 203 183
247 218 198
246 187 168
242 104 85
237 78 56
227 75 54
187 66 49
53 48 43
21 47 43
22 47 43
21 46 42
21 47 43
21 47 43
22 48 44
22 48 43
21 47 43
22 49 44
22 48 44
22 48 43
22 49 44
22 49 44
22 49 44
22 49 44
22 48 44
22 48 44
22 49 44
22 48 44
22 48 43
22 49 44
22 48 44
22 49 44
22 48 44
22 49 45
22 49 44
23 50 45
22 48 44
22 48 44
22 49 44
22 48 44
21 47 43
22 48 44
50 60 55
160 142 126
99 89 81
33 35 37
33 35 38
33 35 38
33 35 37
160 139 124
177 152 135
161 140 124
106 97 87
22 49 44
22 49 44
22 47 43
21 47 43
22 48 43
22 48 44
22 49 44
22 48 43
22 48 44
22 48 44
22 48 44
22 48 43
23 50 45
22 48 43
22 49 44
109 67 49
206 102 63
246 118 71
252 121 72
226 131 98
150 137 125
41 56 51
22 49 44
22 48 44
22 48 44
22 47 43
22 49 45
22 48 44
21 47 43
22 48 44
21 47 43
22 49 45
22 48 44
22 49 44
22 48 44
21 47 42
21 46 42
22 48 44
23 49 45
22 48 43
22 48 44
22 48 44
22 48 43
22 47 43
22 48 44
22 49 44
21 47 43
21 47 42
22 48 43
22 48 43
22 48 43
22 49 45
21 47 43
22 48 44
22 48 44
22 48 44
21 47 42
21 47 43
21 47 43
22 48 43
22 48 43
21 47 43
22 48 43
21 47 42
22 47 43
21 47 43
76 78 70
226 199 178
248 219 197
250 148 129
250 86 62
244 81 58
238 79 56
231 76 55
220 73 52
167 60 45
34 47 43
21 46 42
21 47 42
21 47 42
22 48 43
21 47 43
22 47 43
21 46 42
22 48 44
22 49 44
23 50 45
22 48 43
22 49 44
23 50 45
22 48 44
23 49 45
22 48 44
22 47 43
22 48 44
23 49 45
22 48 43
22 49 44
22 49 44
22 48 44
22 48 44
22 49 44
22 49 45
22 48 44
22 49 44
22 48 43
22 49 44
22 48 43
22 49 44
23 49 44
118 107 96
96 85 76
27 28 30
27 29 30
29 31 32
28 30 32
120 106 94
151 133 117
115 103 92
67 68 61
21 47 43
22 48 43
21 46 41
22 48 43
22 47 43
22 48 43
22 48 44
22 48 44
22 48 44
22 48 43
22 49 44
23 50 45
23 49 45
22 48 44
167 86 56
255 124 73
255 128 75
255 128 75
255 127 75
255 124 73
245 161 132
201 180 164
62 69 63
22 49 44
22 48 43
22 49 44
22 48 43
22 49 44
22 48 44
21 47 43
21 47 42
21 47 43
22 48 43
22 48 44
22 48 44
22 48 44
22 49 44
21 47 43
22 48 43
22 48 44
22 48 44
23 50 45
23 50 45
21 47 42
23 49 45
22 47 43
22 48 43
21 46 42
21 47 43
22 48 43
22 48 44
22 48 43
22 49 45
22 48 43
22 47 43
22 47 43
22 48 43
21 47 43
22 48 44
21 47 43
22 47 43
22 49 44
22 48 44
22 48 43
22 47 43
22 48 44
160 144 129
237 198 176
246 120 99
255 97 73
255 159 128
246 89 66
239 78 56
230 76 54
218 72 52
193 64 46
87 48 40
22 48 43
21 46 42
21 46 42
22 47 43
21 47 43
21 46 42
21 47 42
22 49 44
22 49 45
22 49 44
22 49 44
22 49 44
22 48 43
22 49 44
22 49 45
23 49 45
22 48 44
23 49 45
22 48 43
22 49 44
23 49 45
22 48 44
22 49 44
21 46 42
22 48 44
22 48 43
22 48 44
22 49 44
22 49 44
21 47 42
21 46 41
22 47 43
22 47 43
57 62 56
81 74 65
21 22 23
22 23 24
21 23 23
20 22 22
63 56 48
85 77 65
69 63 54
39 44 40
18 40 37
21 46 41
22 47 42
22 47 42
22 48 43
22 48 43
22 48 44
22 48 44
22 49 44
22 49 44
22 48 43
23 49 45
21 46 42
114 106 95
236 185 161
255 136 90
255 128 76
255 141 91
255 131 80
255 124 73
253 124 76
229 185 164
167 151 138
22 48 43
23 50 45
22 48 44
21 47 42
23 49 45
22 47 43
22 48 44
22 49 44
22 48 44
22 48 43
22 49 44
22 49 44
22 48 44
22 48 44
22 49 44
22 48 44
22 47 43
21 47 43
22 48 44
22 48 43
22 48 44
22 47 43
22 48 44
22 48 44
22 47 43
22 48 44
22 48 44
22 49 44
22 48 43
22 48 43
22 48 44
22 47 43
22 48 44
22 48 44
22 48 43
21 47 42
22 48 43
21 47 43
21 46 42
22 47 43
21 47 43
22 48 44
22 48 44
175 152 135
224 114 95
230 74 51
240 81 58
248 100 75
237 80 57
229 75 53
223 73 52
207 68 49
183 90 76
116 85 77
22 48 43
21 47 43
21 47 43
22 48 43
22 49 45
21 47 43
22 48 43
22 48 44
22 48 44
22 48 44
22 48 44
22 49 44
22 49 44
22 48 43
22 48 44
23 50 45
22 48 43
22 48 44
22 48 43
22 49 44
23 50 46
23 50 45
22 49 44
23 50 45
22 47 43
22 49 45
22 48 43
22 48 43
23 49 44
22 49 44
22 47 43
22 47 43
21 46 41
18 39 36
34 39 34
9 11 10
11 12 11
10 11 11
9 10 10
18 19 16
40 43 34
28 35 30
13 31 29
17 38 35
20 44 40
21 47 42
22 48 43
22 48 43
22 47 43
22 49 44
22 49 44
22 49 45
22 48 43
22 48 43
22 48 43
22 49 44
184 163 146
229 202 181
250 187 161
255 131 80
255 186 137
255 139 90
255 122 72
250 119 70
230 141 110
190 170 155
84 84 78
22 49 44
22 48 43
22 48 44
22 48 44
22 48 44
22 49 44
23 50 45
22 49 44
22 48 44
22 48 44
22 48 44
22 49 44
22 49 45
21 47 43
21 47 43
21 47 43
22 47 43
22 48 44
22 48 44
22 48 44
22 48 44
21 47 42
22 49 44
22 48 43
22 47 43
22 48 44
21 47 43
22 48 43
22 48 44
21 47 43
22 48 43
22 49 44
22 48 44
21 45 41
21 47 42
21 46 42
22 48 44
22 47 43
21 47 42
22 49 44
22 48 43
21 46 42
170 96 80
206 67 46
217 70 48
217 70 49
220 71 50
219 71 50
213 70 49
208 80 62
190 129 114
159 143 131
122 114 106
21 47 43
21 46 41
22 48 44
21 47 43
21 47 43
21 47 43
21 46 42
23 50 45
22 49 44
23 49 45
22 48 43
22 49 44
23 50 45
22 49 45
22 48 44
23 49 45
22 48 43
22 49 44
23 49 45
22 49 44
22 48 44
22 48 44
22 48 44
23 49 45
22 49 44
22 48 44
22 49 44
22 48 43
22 47 43
22 48 43
21 46 41
21 46 42
21 45 40
19 40 36
16 29 27
9 19 18
6 10 9
6 8 7
6 8 7
5 11 10
9 19 17
12 26 24
17 37 33
19 42 38
21 46 41
22 47 42
22 47 42
22 48 44
22 48 43
22 48 44
22 48 44
22 48 44
22 48 43
22 48 43
22 47 43
40 56 51
196 172 153
218 191 171
230 203 182
249 153 120
255 123 73
255 121 71
246 116 68
237 112 66
221 106 62
183 153 137
101 97 89
22 48 44
22 47 43
22 47 43
22 48 44
22 49 44
22 48 44
22 48 43
22 48 44
22 49 44
22 48 43
22 48 44
22 48 44
22 48 44
22 48 44
22 48 43
22 49 44
21 47 42
22 47 43
21 47 43
22 48 43
22 49 44
22 49 44
22 48 44
22 48 44
22 48 43
22 48 44
22 48 44
22 49 44
22 47 43
22 48 43
21 47 43
22 48 43
22 48 44
22 48 44
22 48 44
22 48 43
22 47 43
22 47 43
21 46 42
21 47 42
22 48 43
22 47 43
133 48 35
184 59 40
193 62 43
198 64 44
201 65 45
194 63 44
187 103 87
176 145 130
162 145 131
134 122 112
107 102 95
21 46 41
21 47 43
21 47 42
22 48 44
21 45 41
21 47 43
22 47 43
23 49 45
22 49 44
23 50 45
22 49 44
22 49 45
22 49 44
23 50 45
23 50 45
23 50 45
22 49 44
22 49 44
22 48 44
22 48 44
22 48 43
22 49 44
22 49 44
22 49 44
22 48 44
22 48 43
22 48 43
22 49 44
23 49 44
22 47 42
22 48 43
22 48 43
21 45 41
20 44 39
19 40 35
16 35 31
14 29 26
13 27 25
12 27 24
15 32 29
17 37 33
20 43 39
21 45 40
21 46 41
22 47 42
22 47 42
22 48 43
22 47 43
22 48 43
22 48 44
22 48 43
22 48 43
22 49 44
22 48 43
22 48 43
65 71 64
181 160 142
197 174 155
213 188 168
216 178 156
235 112 65
231 110 65
196 123 97
163 139 123
163 118 100
159 111 92
84 83 76
22 48 43
23 50 45
22 48 43
22 48 43
23 49 44
22 49 44
22 48 43
23 50 45
22 48 43
22 48 43
22 49 45
22 49 44
22 48 43
22 48 43
22 49 44
22 48 43
23 50 45
22 48 43
22 47 43
23 50 45
22 47 43
22 48 43
22 49 44
22 48 43
22 48 43
22 49 44
21 47 43
23 50 45
21 46 42
22 47 43
22 49 44
22 48 44
21 47 43
21 46 41
22 47 43
22 48 43
22 48 43
22 48 43
21 45 41
22 48 43
21 45 41
21 46 42
79 46 38
148 48 32
163 52 35
161 52 35
167 54 37
158 94 78
158 137 122
139 125 112
118 107 97
109 100 92
68 69 64
19 42 39
21 46 42
21 46 42
22 47 43
22 48 44
21 47 43
21 47 42
23 50 45
22 49 44
22 48 43
22 49 44
22 49 44
22 48 44
22 49 44
22 49 44
22 48 44
21 47 43
22 49 44
22 49 44
22 49 45
22 48 43
22 48 43
22 49 44
22 48 43
22 48 43
23 49 45
22 48 43
22 48 44
22 49 44
22 47 43
22 47 43
22 48 44
21 46 41
22 47 42
21 46 41
21 45 40
20 43 38
20 44 39
21 45 41
21 45 40
21 46 41
21 45 40
22 47 42
22 48 43
22 48 43
22 47 42
22 48 44
22 47 42
22 49 44
22 47 43
22 49 44
23 51 46
23 51 46
22 49 44
22 48 44
30 52 47
151 134 119
174 153 136
188 165 147
187 165 146
203 123 94
186 111 84
168 149 133
170 151 135
127 114 102
117 83 70
76 78 71
22 48 43
22 47 43
22 49 44
22 49 44
23 50 45
22 48 44
21 47 42
22 49 44
22 49 44
22 48 44
22 49 44
22 48 43
23 50 45
23 50 45
22 48 44
22 48 44
22 48 43
22 48 44
21 47 43
23 49 45
22 49 44
22 47 43
22 48 44
22 49 44
22 47 43
22 49 45
22 49 44
22 48 43
22 47 43
22 47 43
22 48 44
22 47 43
22 48 43
22 48 43
22 49 44
22 48 43
21 47 42
21 46 42
21 46 41
21 46 42
21 46 41
21 45 40
28 43 39
74 31 23
122 39 26
125 40 26
124 70 56
124 109 95
112 101 88
98 91 81
88 83 74
65 64 57
19 35 33
16 36 34
18 40 37
19 42 39
21 47 42
22 48 43
21 46 42
22 47 43
23 49 45
22 49 44
22 49 44
23 50 45
22 49 44
22 48 44
23 51 46
22 49 44
23 50 45
21 47 42
23 49 45
22 49 44
22 49 44
22 49 44
22 49 44
22 48 44
22 48 43
22 48 44
23 49 45
22 48 43
22 48 44
22 49 44
22 47 43
22 48 44
22 48 43
22 47 42
22 48 43
22 48 43
21 46 41
21 46 41
22 47 42
21 45 41
22 47 42
22 49 44
23 49 44
22 49 44
22 47 43
22 48 43
22 48 43
22 48 43
22 48 43
22 49 44
22 48 43
22 47 43
23 50 45
21 47 42
22 47 43
22 48 43
23 49 44
95 89 78
132 117 102
155 137 121
155 136 120
160 117 97
143 95 76
130 116 103
84 76 67
101 92 83
98 62 48
34 48 43
21 46 42
22 48 44
22 49 44
22 47 43
22 48 43
22 49 44
23 51 46
22 48 44
22 49 44
22 49 44
22 48 44
22 48 44
22 48 44
22 48 44
22 49 44
22 48 44
22 48 43
22 48 44
23 49 45
22 49 44
22 49 44
23 49 45
22 49 44
22 48 44
22 48 43
23 50 45
23 49 45
22 49 44
22 47 43
22 47 43
22 48 44
22 49 44
22 49 44
22 47 42
22 48 43
22 48 43
21 47 42
21 46 42
21 46 42
21 46 42
21 45 40
20 44 39
20 43 39
23 35 31
36 17 13
58 29 20
62 56 43
64 60 48
53 52 41
43 45 37
41 44 38
19 33 31
13 31 30
13 31 29
15 35 33
18 40 37
20 43 40
21 46 42
21 47 43
21 46 42
22 49 44
22 48 44
23 49 45
23 49 45
23 50 45
22 49 44
23 50 45
22 48 43
22 49 44
22 49 44
23 50 45
23 50 45
22 49 44
22 48 44
22 49 45
22 49 44
22 48 43
22 49 44
23 49 45
22 48 44
22 49 44
22 48 43
22 48 43
23 49 45
22 48 43
22 48 43
22 48 43
22 49 44
22 48 43
22 48 44
22 48 44
22 48 43
22 49 44
22 47 43
22 47 43
22 49 44
22 47 43
22 49 44
22 48 43
23 49 44
23 49 44
22 49 44
22 47 43
22 47 42
22 48 43
22 49 44
22 48 43
22 48 43
22 47 42
37 52 46
89 82 71
100 90 78
110 98 85
111 91 76
116 65 45
85 78 68
79 74 66
63 49 41
64 35 24
15 35 33
18 41 37
20 45 40
22 48 43
22 48 43
23 50 45
23 50 45
22 48 44
21 47 43
22 48 43
22 48 44
22 47 42
22 48 44
22 47 43
23 51 46
22 49 44
22 49 44
22 49 45
22 48 44
22 49 44
22 48 44
22 48 43
22 49 44
23 49 45
22 49 44
22 47 43
22 48 43
22 48 44
22 49 44
22 47 43
22 49 44
22 48 43
22 49 44
22 48 43
22 49 44
22 49 44
21 46 42
22 48 43
21 46 42
22 47 43
21 46 41
21 45 41
21 44 39
20 42 37
19 40 36
15 31 28
21 24 19
25 28 21
30 30 22
33 33 25
17 24 20
11 25 23
12 28 26
13 31 29
14 32 30
16 37 34
20 45 41
21 45 41
22 47 43
21 47 43
21 47 42
22 49 44
22 49 44
23 49 45
23 50 45
22 49 44
22 49 44
22 49 44
23 51 46
23 49 45
22 48 43
22 49 44
23 50 45
23 49 44
22 49 44
23 49 45
22 48 43
23 50 45
22 49 44
22 48 43
23 50 45
22 49 44
22 48 43
22 49 44
22 48 44
23 50 45
22 47 43
22 48 44
22 49 44
22 48 43
22 48 44
22 49 44
22 48 44
22 48 44
22 49 44
23 50 45
23 49 44
22 48 43
21 47 42
22 48 44
22 48 44
22 48 43
22 49 44
23 50 45
22 48 44
22 48 43
22 49 44
21 47 42
22 48 43
21 46 41
19 42 38
26 35 29
50 49 38
53 52 41
45 46 35
54 32 18
55 30 16
45 29 17
32 25 18
12 27 26
13 29 28
16 36 33
20 44 40
21 46 41
22 47 42
22 48 43
21 47 42
22 47 42
22 48 43
22 49 44
23 49 45
23 50 45
22 47 43
22 48 44
22 48 43
22 48 44
22 47 43
22 49 44
23 50 45
22 49 44
22 48 44
22 48 43
22 49 44
22 48 44
22 49 44
21 47 42
23 50 45
22 49 45
22 49 45
21 46 42
22 49 44
22 48 44
23 50 45
22 49 44
23 49 45
23 49 44
21 46 42
22 48 43
22 47 43
21 46 41
21 46 41
21 46 41
21 44 40
21 44 40
21 44 39
20 43 38
19 40 35
17 36 31
14 31 28
13 29 26
14 31 28
15 34 31
16 35 32
17 38 35
20 43 39
20 44 39
21 46 41
21 46 42
21 47 42
21 47 42
21 47 43
22 49 44
22 48 43
22 49 44
22 49 44
23 50 45
23 50 45
23 50 45
23 50 45
23 51 46
22 49 44
23 50 45
22 47 43
22 49 44
22 49 44
23 50 45
23 50 45
23 50 45
23 49 45
22 49 44
23 49 45
23 50 45
23 49 45
22 49 44
22 48 43
23 51 46
22 48 44
22 48 44
23 50 45
23 50 45
22 49 44
23 49 45
22 48 43
22 49 44
22 48 43
23 50 45
23 49 44
22 48 44
22 49 44
22 48 44
22 48 44
22 47 43
22 48 43
23 49 44
22 48 44
22 49 44
22 48 43
22 47 42
21 44 40
21 45 40
20 43 38
14 31 28
16 26 23
23 28 22
33 33 24
31 19 11
22 16 10
17 16 13
10 23 22
12 27 26
14 33 30
18 40 36
21 47 42
22 47 43
21 46 42
22 49 44
22 48 44
22 48 44
22 49 44
22 48 44
23 50 45
22 49 45
23 50 45
22 48 43
22 48 44
23 49 45
22 49 44
22 49 44
22 49 44
23 50 45
22 48 44
22 48 44
22 47 43
22 47 43
22 49 44
22 49 44
22 49 44
22 48 43
22 48 43
22 48 43
22 48 43
22 49 44
22 49 44
22 47 43
22 48 44
22 47 42
22 47 43
21 46 42
22 48 44
22 47 42
22 47 42
22 46 42
22 47 43
21 44 40
22 47 42
21 45 40
21 44 40
20 44 39
20 44 39
20 44 39
21 44 40
21 44 40
22 47 42
21 46 41
21 46 42
21 46 42
21 46 42
21 47 42
22 49 44
22 47 43
21 45 41
22 48 43
22 48 43
23 49 45
22 48 44
22 48 44
23 50 45
23 50 45
23 50 45
22 48 44
23 49 45
22 49 44
23 50 45
23 50 45
22 49 44
23 51 46
23 50 45
23 50 45
22 48 44
22 49 44
23 49 44
23 50 46
23 50 45
23 50 45
22 49 44
23 51 46
23 50 45
23 49 45
22 47 42
23 50 45
22 49 44
22 49 44
22 49 44
23 50 45
22 47 43
22 48 43
23 50 45
23 50 45
22 49 44
22 49 44
22 48 44
22 48 43
22 49 44
22 48 44
22 47 42
22 48 43
22 48 43
22 49 43
22 47 42
21 45 40
21 46 40
21 45 40
18 40 35
15 33 29
12 27 24
11 25 23
13 29 26
14 31 28
17 37 33
19 42 37
21 45 40
22 46 42
22 47 42
22 47 42
22 49 44
22 49 44
22 49 44
22 47 43
22 48 43
21 46 41
23 50 45
22 48 43
23 49 45
22 48 43
22 49 44
22 49 44
22 48 44
22 49 44
22 48 43
22 49 44
22 49 44
22 48 43
23 50 45
22 48 44
22 48 43
22 48 44
23 50 45
22 48 43
22 47 43
22 48 43
21 47 42
22 47 43
22 49 44
22 48 44
22 48 44
22 48 44
22 47 43
22 48 44
22 47 43
22 48 43
21 47 42
22 48 43
22 47 42
22 47 43
21 46 42
21 46 41
21 46 42
21 46 42
21 46 41
21 46 41
21 46 41
21 47 42
22 47 43
21 46 41
21 45 41
22 47 43
21 47 42
21 46 42
22 49 44
21 47 42
22 47 43
23 49 45
22 49 44
23 49 45
22 49 44
22 49 44
23 50 45
23 50 45
23 51 46
22 49 44
23 50 45
23 50 45
23 50 45
22 49 44
23 50 45
22 49 44
23 50 45
22 48 43
23 50 45
22 49 44
23 50 45
23 50 45
22 48 44
23 51 46
22 49 44
22 49 44
22 48 44
22 49 44
23 49 44
23 50 45
23 49 45
22 49 44
22 49 44
23 49 44
22 48 43
22 49 44
22 48 44
22 49 44
23 49 44
23 49 45
23 49 44
23 49 44
22 49 44
22 48 43
22 49 44
23 50 45
22 49 44
22 48 44
21 46 41
22 47 42
22 47 42
21 46 41
21 46 41
21 46 40
21 45 40
20 43 38
21 44 39
21 46 41
21 46 41
21 46 41
21 46 41
22 49 44
22 47 42
22 47 43
22 48 43
22 48 43
22 49 44
22 48 43
22 47 43
23 49 45
22 48 43
22 49 44
22 48 44
23 49 45
22 48 43
22 49 44
22 49 44
23 49 45
23 49 45
22 49 44
22 48 44
22 49 44
23 51 46
22 48 43
22 48 44
23 49 45
22 49 44
22 49 45
22 47 43
22 49 45
22 49 44
23 49 45
23 50 46
22 48 43
21 47 43
22 49 44
22 49 45
22 48 43
22 47 43
22 47 43
21 46 42
22 48 44
22 47 43
21 46 41
21 47 42
22 47 42
21 47 42
22 47 42
21 46 42
21 46 41
22 47 43
22 48 44
21 47 42
21 47 43
22 48 43
22 47 43
21 47 42
21 47 43
22 47 43
22 48 43
21 47 43
23 51 46
22 49 44
22 49 44
23 50 45
23 50 45
22 49 44
22 48 43
23 50 45
24 51 47
23 50 45
23 50 45
23 50 45
22 49 44
22 49 44
23 50 45
23 50 45
23 50 45
23 51 46
22 48 43
22 49 44
23 49 44
22 49 44
22 48 44
23 51 46
22 49 44
22 48 44
23 50 45
23 50 45
23 50 45
23 50 45
22 49 44
22 48 43
22 49 44
22 48 44
22 48 44
22 49 44
22 49 44
23 50 45
23 50 45
22 49 44
22 48 44
23 50 45
23 49 44
22 48 43
22 49 44
23 49 44
22 49 44
22 48 43
23 49 44
22 48 43
22 47 42
23 49 44
22 48 43
22 48 43
22 48 43
22 48 43
22 47 43
22 47 42
22 48 43
22 48 43
22 48 43
22 49 44
23 49 44
22 48 43
22 49 44
23 49 45
22 49 44
22 49 44
23 50 45
22 49 44
22 49 44
22 49 44
22 48 43
22 49 44
23 50 46
22 48 44
22 47 43
23 50 45
23 49 45
22 49 44
22 49 44
23 49 45
22 48 44
23 49 45
23 49 45
22 48 44
23 50 45
23 49 45
22 49 44
22 48 43
23 49 45
22 48 44
22 48 44
21 47 43
23 49 45
21 47 42
23 49 44
22 49 44
22 48 43
22 48 44
22 48 43
22 47 43
22 48 43
22 48 43
22 48 43
22 48 43
22 48 44
22 47 43
21 46 42
22 48 43
21 46 42
21 46 41
21 47 43
21 47 42
21 47 43
22 48 43
21 47 42
21 46 42
22 47 43
22 49 44
23 50 45
22 49 44
23 50 45
23 50 45
23 51 46
23 50 46
23 50 45
23 50 45
23 51 46
23 50 45
23 50 45
23 50 45
23 50 45
22 48 44
22 48 44
23 49 45
23 50 45
22 49 44
23 49 45
22 49 44
23 50 45
23 50 45
23 50 45
23 49 44
22 49 44
23 50 46
23 49 45
23 49 45
23 50 45
22 49 44
23 50 45
23 50 45
23 50 45
23 50 45
22 48 43
22 48 44
22 49 44
22 48 43
23 50 45
23 50 45
22 49 44
23 49 44
23 50 45
22 49 44
24 51 46
23 49 44
23 50 45
22 48 43
23 50 45
22 49 44
23 49 44
22 49 44
23 49 44
22 47 42
22 48 43
22 48 43
22 49 44
22 49 44
22 49 44
22 48 44
22 49 44
22 47 43
22 48 43
22 48 43
22 48 44
22 48 43
22 48 43
23 50 45
22 49 44
23 49 45
22 49 44
22 48 44
22 49 44
22 49 44
22 49 44
22 49 44
22 49 44
23 50 45
22 49 44
22 49 44
22 48 44
23 49 45
22 49 44
23 49 44
23 50 45
23 50 45
23 50 45
23 49 44
22 49 44
22 48 44
22 48 43
22 49 44
22 49 44
22 48 43
23 50 45
22 48 44
23 50 45
22 48 43
22 48 44
22 48 44
23 49 45
22 48 43
22 49 44
22 48 44
22 47 43
22 48 43
22 47 43
22 48 43
22 48 44
22 48 43
21 47 43
22 48 44
22 48 44
22 48 44
22 49 44
21 47 42
22 47 43
22 47 43
22 49 44
22 48 44
23 50 45
22 48 43
23 51 46
22 48 44
23 50 45
23 50 46
23 50 45
23 51 46
23 49 45
23 49 44
23 50 46
23 50 45
23 51 46
22 49 44
22 49 44
22 49 44
23 51 46
22 48 43
23 51 46
23 50 45
23 51 46
23 50 45
22 49 44
23 50 45
23 49 45
23 49 45
23 50 45
22 49 44
23 51 46
23 50 45
23 50 45
23 50 45
22 49 44
23 50 45
23 50 45
23 50 45
23 50 45
23 49 45
23 50 45
23 49 44
23 50 45
22 49 44
23 50 45
23 50 45
22 48 44
22 49 44
22 48 43
23 49 45
22 48 44
23 49 45
22 48 43
23 50 45
22 49 44
22 48 44
22 48 43
22 49 44
23 49 44
22 49 44
23 51 46
22 49 44
22 49 44
22 48 43
23 49 44
22 49 44
22 48 43
23 49 45
22 48 44
23 50 45
23 50 45
22 49 44
22 49 44
23 49 44
23 49 44
22 49 44
22 49 44
23 49 45
22 49 44
22 48 43
22 49 44
21 47 42
22 48 44
22 49 44
22 48 43
22 48 43
22 48 44
22 48 44
23 49 45
22 49 44
22 48 43
22 48 44
22 48 43
22 48 44
22 48 44
22 49 44
22 49 44
22 48 43
22 48 43
22 49 44
22 48 44
22 48 43
22 48 44
22 49 44
22 48 44
22 48 44
22 49 44
22 49 44
22 48 43
22 48 43
23 51 46
22 48 43
21 46 42
22 47 43
22 47 43
22 47 43
22 48 44
22 49 44
22 48 44
21 47 43
22 48 43
21 47 43
23 50 45
23 50 45
22 49 44
23 51 46
23 49 45
23 49 44
23 49 45
23 50 45
22 48 44
23 50 45
23 50 45
22 49 44
22 49 44
23 50 45
24 52 47
23 50 45
22 49 44
23 50 45
23 50 45
22 48 44
23 51 46
23 50 45
23 50 45
23 50 45
23 50 45
22 49 44
23 50 45
23 49 45
23 50 45
23 51 46
22 49 44
23 49 44
23 49 45
23 50 45
23 49 44
23 50 45
22 49 44
23 49 45
23 50 45
23 49 45
22 49 44
23 50 45
23 49 44
22 48 44
23 49 45
23 49 44
22 48 43
22 48 43
23 50 45
23 49 44
22 48 43
22 49 44
23 49 44
22 49 44
22 49 44
22 49 44
23 49 45
23 50 45
23 49 44
23 49 44
23 49 44
22 48 43
23 50 45
23 50 45
22 48 43
22 48 44
23 50 45
22 49 44
22 48 43
22 48 44
23 49 45
22 49 44
23 50 45
22 48 44
22 49 44
23 50 45
23 49 45
22 49 44
22 49 44
23 49 45
23 49 45
22 48 43
22 49 44
23 49 45
22 48 44
22 49 44
22 48 43
23 50 45
23 49 44
23 49 45
22 48 44
22 48 43
22 48 43
22 47 43
23 50 45
22 48 43
22 49 44
22 47 43
22 48 43
22 48 43
22 49 44
22 48 44
22 48 43
22 49 44
22 49 44
23 50 45
22 49 44
22 48 43
22 48 44
22 49 44
21 46 42
22 48 44
22 48 44
22 48 43
22 48 44
22 48 43
22 48 43
22 49 44
22 48 44
21 47 43
23 49 45
23 51 46
23 49 45
22 49 44
23 50 45
23 50 45
23 50 45
22 49 44
23 50 45
23 49 45
23 50 45
22 49 44
22 48 43
24 53 48
22 49 44
23 51 46
23 51 46
23 51 46
23 49 45
22 49 44
23 50 45
23 51 46
23 50 45
23 50 45
22 48 44
23 49 45
22 49 44
23 50 45
22 48 43
23 51 46
23 49 45
23 49 45
23 50 45
23 50 45
23 50 45
23 49 44
23 49 44
22 49 44
22 49 44
23 49 44
23 50 45
23 50 45
23 50 45
23 50 45
23 50 45
23 50 45
23 49 45
23 49 44
22 49 44
23 50 45
23 50 45
23 50 45
23 49 45
23 50 45
23 50 45
23 49 44
22 49 44
23 49 44
23 49 45
23 50 45
23 50 45
23 50 45
22 48 44
22 48 43
23 49 44
22 49 44
22 49 44
23 50 45
23 49 44
22 48 43
23 49 45
23 49 45
22 49 44
22 48 44
22 49 44
23 50 45
22 48 44
22 49 44
22 49 44
23 50 46
22 48 44
23 50 45
23 50 45
22 48 43
22 48 43
22 49 45
22 49 44
22 48 44
22 49 44
23 50 45
22 48 44
22 48 44
22 49 44
22 48 43
22 48 43
23 51 46
22 49 44
22 47 43
22 48 43
22 49 45
22 48 44
22 48 43
22 48 43
22 49 45
22 49 44
22 49 45
22 48 44
22 49 44
22 49 44
22 49 44
22 49 44
22 49 44
22 48 44
22 48 44
22 49 45
22 48 44
22 48 43
22 47 43
22 48 43
22 47 43
24 52 47
22 48 44
23 50 45
22 48 44
23 50 45
23 51 46
23 50 46
23 50 45
22 49 44
22 49 44
23 49 44
23 51 46
23 50 45
23 50 45
24 52 47
22 49 44
22 48 44
23 50 45
23 51 46
23 51 46
23 50 45
23 50 45
22 49 44
23 50 45
23 51 46
23 50 45
24 51 46
23 50 45
23 50 45
23 51 46
23 50 45
22 49 44
22 49 44
23 51 46
23 50 45
23 50 45
23 50 45
23 49 44
22 48 44
23 50 45
23 51 46
22 48 43
23 49 45
23 50 45
22 48 44
22 49 44
22 48 44
23 50 45
23 50 45
23 51 46
23 50 46
22 48 43
23 49 45
23 50 45
22 48 43
23 49 45
23 51 46
22 48 43
23 49 45
22 49 44
23 49 45
23 50 45
23 50 45
22 49 44
22 49 44
22 49 44
23 50 45
22 48 43
23 50 45
23 50 45
22 49 44
23 50 45
22 48 44
23 50 45
22 49 44
23 49 45
22 47 43
23 50 45
22 49 44
22 48 43
23 50 45
22 48 44
22 48 44
23 51 46
23 50 45
22 49 44
23 50 45
23 50 45
23 49 45
23 49 45
22 49 44
22 49 44
22 48 44
22 49 44
22 49 44
23 49 44
22 49 44
22 49 44
22 48 44
22 48 43
22 49 44
22 49 45
23 50 45
22 49 44
22 48 44
22 48 44
22 49 44
22 49 44
23 51 46
22 48 44
22 48 44
22 48 43
23 49 45
22 49 44
22 48 44
22 48 44
22 47 43
22 49 44
22 48 44
22 48 44
22 49 44
22 49 44
23 51 46
22 48 43
22 48 44
23 50 45
23 49 44
23 50 45
23 49 44
23 50 45
22 49 44
23 50 45
22 49 44
23 50 45
23 50 45
23 50 45
23 49 45
24 51 46
23 50 45
23 51 46
23 50 45
22 49 44
23 50 45
23 50 45
23 50 45
23 50 45
23 50 45
23 50 45
23 50 45
22 49 44
23 50 45
22 49 44
22 49 44
23 50 45
22 48 44
23 51 46
23 50 45
22 49 44
22 49 44
23 49 44
23 49 45
22 48 44
23 49 44
23 50 45
23 50 45
23 50 46
23 50 45
22 49 44
22 48 44
23 50 45
23 50 45
23 50 45
22 49 44
23 50 45
23 50 45
23 49 45
22 49 44
22 48 43
23 50 45
23 50 45
22 49 44
22 48 44
22 49 44
23 49 45
22 49 45
22 49 44
23 50 45
23 50 45
22 49 45
23 50 45
23 49 45
23 50 45
23 50 46
23 50 45
22 48 44
23 50 46
22 48 43
22 48 44
22 48 44
22 49 44
22 48 43
22 48 44
23 50 45
22 49 44
22 47 43
23 49 45
23 51 46
22 48 43
23 50 45
22 49 44
22 49 44
22 48 43
22 49 44
22 49 44
22 49 44
22 48 44
22 48 44
22 49 44
22 49 44
21 47 43
22 48 44
22 48 43
22 49 45
22 49 45
23 49 45
22 49 44
22 48 44
22 48 44
22 47 43
22 48 43
22 48 43
22 48 44
22 48 44
22 49 44
22 47 43
22 47 43
22 49 44
22 49 44
22 48 44
22 48 44
