P3
120 80
255
18 41 38
18 40 37
18 41 38
18 40 37
18 40 38
18 40 38
18 40 37
17 39 36
18 41 38
18 40 38
18 41 39
18 41 38
18 40 37
18 42 39
18 41 38
18 41 38
18 40 38
18 41 38
18 40 38
18 41 38
18 40 38
18 41 38
18 42 39
18 40 38
18 42 39
18 41 39
18 41 38
18 42 39
18 41 39
18 41 38
18 42 39
18 41 39
18 41 38
18 42 39
18 41 38
18 41 38
18 41 38
19 42 39
18 41 38
18 41 39
18 41 38
18 41 38
18 41 38
18 41 38
18 41 38
18 41 38
18 41 39
18 40 37
18 42 39
18 41 38
19 42 39
18 41 38
18 40 38
18 42 39
18 42 39
18 42 39
19 42 39
18 42 39
18 41 39
18 42 39
18 41 39
18 41 38
19 42 39
18 41 38
18 41 38
18 41 38
19 42 39
19 42 39
18 41 38
18 41 38
19 42 39
18 41 38
18 41 38
19 42 39
18 41 38
18 41 38
18 41 39
18 41 38
18 41 38
19 42 39
18 41 39
18 41 38
19 42 39
18 41 39
19 42 39
19 42 39
19 43 40
18 41 38
18 42 39
19 42 39
18 41 38
18 41 39
18 42 39
19 42 39
19 42 39
19 43 40
18 41 39
19 42 39
19 42 39
19 42 39
18 42 39
18 41 38
18 41 38
18 41 38
19 43 40
18 41 39
19 42 39
18 42 39
18 41 38
18 42 39
18 42 39
18 42 39
18 41 39
19 43 40
19 42 39
18 41 38
18 41 38
18 42 39
18 41 38
18 41 38
18 41 38
18 40 38
19 42 39
18 41 38
18 41 38
18 41 38
18 41 39
18 41 38
19 42 39
18 40 37
18 41 38
18 41 38
18 41 38
18 41 39
18 42 39
18 41 38
18 41 38
18 41 38
18 41 38
18 41 39
18 41 39
19 42 39
19 42 39
18 40 37
19 42 39
18 41 38
18 42 39
18 42 39
18 41 38
18 41 38
18 42 39
18 42 39
18 41 38
19 42 39
18 41 38
18 42 39
18 42 39
19 42 39
19 42 39
19 42 39
18 41 38
19 42 39
18 41 38
19 42 39
18 41 38
19 42 39
19 43 40
19 42 40
18 41 39
18 41 39
19 42 39
18 41 38
18 42 39
19 42 39
19 42 39
19 43 40
18 41 38
19 42 39
19 42 39
19 42 39
19 42 39
19 42 39
18 41 39
19 42 39
19 42 39
19 42 39
19 42 39
19 43 40
19 43 40
19 42 39
19 42 39
19 42 39
19 42 39
19 42 39
18 41 38
19 42 39
19 42 39
18 41 38
18 42 39
19 42 39
19 42 39
19 42 39
19 42 39
18 41 38
19 42 39
19 42 39
19 43 40
19 43 39
19 42 39
19 43 39
18 41 38
19 43 40
18 42 39
19 42 39
19 43 40
19 43 40
19 42 39
19 43 39
18 41 38
19 42 39
19 42 39
19 43 40
18 41 38
19 43 40
19 42 39
19 42 39
19 43 40
18 41 38
19 42 39
19 42 39
19 42 39
19 42 39
19 42 39
19 42 39
19 42 39
18 42 39
18 41 38
19 42 39
19 44 41
18 42 39
18 41 38
18 41 38
18 42 39
19 42 39
18 41 38
19 43 40
18 42 39
18 41 38
19 42 39
19 42 39
18 41 38
19 42 39
19 42 39
19 43 40
18 41 39
19 42 39
18 41 38
18 41 38
19 42 39
19 42 39
18 41 38
19 42 39
19 43 40
19 42 39
18 41 38
19 42 39
19 42 39
18 41 38
19 42 39
18 41 39
18 41 38
19 43 40
19 42 39
18 41 39
19 43 40
19 43 40
18 41 38
19 42 39
19 43 40
19 42 39
18 42 39
18 41 38
18 41 38
18 40 37
19 43 40
19 42 39
19 43 40
19 43 40
19 42 39
19 42 39
19 42 39
18 41 38
19 42 39
19 43 40
19 42 39
19 42 39
19 42 39
19 43 40
19 42 39
19 43 40
19 42 39
19 42 39
19 43 40
19 42 39
19 43 40
19 42 39
19 42 39
18 41 38
19 42 39
19 44 40
19 43 40
19 42 39
19 43 40
19 42 39
19 42 39
19 42 39
19 42 39
19 42 39
19 43 39
19 42 39
19 42 39
19 42 39
19 44 40
19 42 39
19 43 40
19 42 39
19 42 39
19 42 39
19 43 39
19 43 39
19 43 39
19 42 39
19 43 40
19 43 40
18 41 38
19 42 39
19 44 40
19 43 40
19 43 39
19 42 39
19 42 39
19 42 39
19 42 39
19 43 40
19 43 40
19 43 40
19 42 39
19 42 39
19 43 40
19 42 39
19 42 39
19 43 39
19 42 39
19 43 39
19 42 39
19 43 40
19 42 39
19 42 39
19 42 39
19 42 39
18 41 38
19 42 39
18 40 37
18 41 38
19 42 39
19 42 39
18 40 38
19 42 39
18 41 38
19 43 40
18 41 38
18 41 38
18 41 38
19 42 39
19 42 39
19 42 39
19 42 39
19 42 39
18 41 39
19 42 39
19 43 40
18 42 39
19 42 39
19 43 40
19 42 39
19 43 40
18 41 38
19 43 40
19 42 39
18 42 39
19 42 39
18 41 39
19 43 40
18 41 38
19 43 40
19 43 40
19 43 40
19 42 39
19 42 39
18 41 38
19 42 39
19 42 39
19 42 39
19 42 39
19 43 39
19 43 40
19 42 39
19 43 40
19 42 39
19 43 40
19 42 39
19 42 39
19 42 39
19 43 40
19 42 39
19 42 39
19 43 39
19 43 39
19 43 40
19 43 39
19 42 39
19 43 40
19 42 39
19 43 40
19 43 39
20 44 41
19 43 40
19 43 40
19 43 40
19 43 40
19 43 40
19 44 40
20 44 40
19 42 39
19 42 38
19 43 40
19 42 39
19 43 40
19 43 40
19 42 39
19 42 39
19 43 40
19 43 40
19 43 40
19 43 40
19 43 39
19 43 40
19 44 40
20 44 40
19 43 40
19 42 39
19 43 40
20 44 40
19 42 39
19 43 40
19 43 40
19 43 39
19 43 40
19 43 39
19 43 40
19 43 39
20 44 41
19 42 39
19 43 40
20 44 40
19 43 39
19 43 40
19 43 40
20 44 41
19 44 40
19 43 40
19 42 39
20 44 41
19 42 39
19 42 39
20 44 41
19 43 40
19 43 39
19 42 39
19 43 40
19 42 39
19 42 39
19 42 39
19 42 39
19 42 39
19 42 39
19 43 40
19 42 39
19 43 40
18 41 38
18 40 38
19 43 40
18 42 39
18 42 39
19 43 40
19 43 40
19 42 39
19 42 39
19 43 40
19 43 40
19 42 39
19 43 40
19 43 40
19 42 39
19 42 39
19 42 39
19 42 39
19 43 39
19 43 40
19 43 40
19 43 39
19 43 40
19 42 39
19 43 39
19 42 39
19 43 40
19 43 40
19 43 40
19 42 39
19 42 39
20 44 40
19 43 40
19 43 40
19 43 40
19 43 39
19 43 40
19 43 40
19 43 40
20 44 41
20 44 40
19 43 40
19 43 40
20 44 41
19 43 40
19 43 40
19 43 40
19 43 40
19 44 40
20 44 41
19 43 40
19 43 40
20 44 40
19 43 40
19 44 40
20 44 40
19 43 40
20 44 40
19 43 39
20 44 41
19 43 40
20 44 40
19 42 39
19 44 40
20 44 41
19 43 40
19 43 40
20 44 41
20 44 40
19 43 40
20 44 40
19 43 40
20 44 41
19 43 40
20 44 41
19 43 40
20 44 40
19 43 40
20 44 41
20 44 41
19 43 40
19 43 39
20 44 41
20 44 40
19 43 40
20 44 41
19 43 40
20 44 41
20 44 40
19 43 40
19 43 40
19 43 40
20 44 41
20 44 41
19 43 40
20 44 41
19 43 40
20 44 41
20 44 41
19 43 40
20 44 40
20 44 41
19 43 40
19 44 40
20 44 40
20 44 41
19 43 40
20 44 41
20 44 41
19 43 40
19 43 39
19 43 40
19 42 39
19 42 39
18 42 39
19 42 39
19 43 39
19 42 39
19 42 39
19 43 40
19 43 40
19 43 40
19 42 39
19 43 40
18 42 39
19 42 39
18 42 39
19 42 39
19 42 39
19 43 40
19 43 40
19 42 39
19 43 40
19 43 40
20 44 40
19 43 39
19 43 40
19 44 40
20 44 40
19 43 39
20 44 41
20 45 41
19 43 40
19 43 40
19 43 40
19 43 40
19 44 40
19 43 40
19 43 40
19 43 40
20 44 41
20 44 41
19 43 40
19 42 39
19 43 40
20 44 40
20 45 41
20 44 41
19 43 39
19 43 39
19 43 40
20 44 40
19 43 40
20 44 40
19 43 40
19 43 40
19 43 40
20 44 40
19 43 39
19 43 40
19 43 40
20 44 40
20 44 40
19 43 39
20 44 41
20 45 42
20 44 40
19 43 40
19 44 40
20 44 40
20 44 41
20 45 41
20 44 41
19 43 40
19 43 40
20 45 41
20 44 40
20 45 41
20 44 41
20 44 40
19 43 39
20 44 40
20 45 41
20 45 41
20 45 41
20 44 41
20 44 41
20 44 41
20 45 42
20 45 41
20 45 41
20 44 40
20 44 40
20 44 41
20 44 41
20 44 41
20 45 41
19 43 39
20 45 41
20 44 41
20 45 41
20 45 41
20 45 41
20 44 40
20 44 41
19 43 39
20 44 41
19 43 40
20 45 42
20 43 40
20 44 41
19 43 40
20 44 40
19 43 40
20 44 41
20 44 40
20 44 41
20 45 41
20 44 40
20 44 41
20 45 42
19 43 39
19 42 39
19 43 40
19 43 40
19 42 39
19 42 39
18 41 39
19 42 39
19 42 39
19 43 40
19 43 39
19 44 41
19 43 40
19 43 40
19 43 40
19 44 40
19 42 39
19 43 40
19 43 40
19 43 39
19 43 40
20 44 40
19 42 39
20 44 40
19 43 40
19 43 40
19 44 40
19 43 40
20 44 41
19 43 40
19 43 40
19 43 39
20 44 40
20 44 40
19 42 39
19 43 39
19 43 40
20 44 40
20 44 40
19 43 40
20 45 41
20 44 40
20 44 41
20 44 41
20 44 41
20 44 41
20 44 41
20 44 40
20 44 41
20 44 41
20 44 41
20 44 40
19 44 40
20 45 41
20 44 41
20 44 41
20 44 41
19 43 40
20 44 40
20 45 42
20 44 40
20 45 41
20 44 41
20 44 40
20 44 40
20 45 41
20 44 41
20 44 41
20 45 41
20 44 41
20 44 40
20 44 40
20 45 42
20 44 41
20 45 42
20 44 41
20 45 42
20 44 41
20 45 41
19 43 40
20 45 41
19 43 40
20 45 42
20 44 41
20 45 41
21 46 42
20 44 41
20 44 40
20 44 40
20 44 41
20 45 41
20 45 42
20 45 41
20 44 41
20 45 42
20 45 41
20 44 40
20 45 41
20 45 42
20 45 41
20 45 41
20 44 41
20 44 41
20 44 40
20 44 41
20 45 41
20 44 40
20 44 41
20 45 42
20 44 41
20 45 41
20 44 41
20 44 41
20 44 40
20 43 40
20 45 41
20 45 42
20 45 41
20 44 41
20 45 41
19 43 40
19 42 39
19 42 39
20 44 40
19 43 39
19 43 40
19 42 39
19 43 40
19 43 40
19 42 39
19 44 40
19 43 40
19 42 39
19 43 40
20 44 40
20 44 41
19 44 40
19 42 39
19 42 39
19 43 39
19 43 40
19 43 40
20 45 42
19 44 40
20 44 41
20 44 41
20 44 40
20 44 41
20 44 41
19 43 40
20 44 41
20 44 41
20 44 41
19 43 40
20 44 41
19 43 40
20 45 41
19 43 39
20 45 41
20 44 41
19 43 40
20 44 40
20 45 41
20 44 41
20 44 41
20 45 42
20 45 41
20 44 41
20 44 41
19 42 39
20 44 41
20 44 41
20 45 41
20 44 40
20 44 41
20 45 41
20 44 41
20 45 41
20 44 41
20 46 42
20 45 41
20 45 41
20 45 41
20 45 41
21 46 42
20 44 40
20 45 41
20 45 42
21 46 42
20 44 40
20 45 42
20 46 42
20 45 41
20 45 41
20 45 41
20 45 42
20 45 41
20 45 41
21 46 42
21 46 42
21 46 42
20 44 41
20 45 41
21 46 42
21 46 42
20 44 41
20 44 41
20 45 41
20 45 41
20 45 41
20 45 42
20 45 41
20 45 42
21 46 42
20 45 41
20 44 41
20 46 42
21 46 42
21 46 42
20 45 41
20 45 42
21 46 42
21 46 42
21 46 42
21 46 42
21 46 42
20 45 41
20 45 41
20 45 41
21 46 42
20 45 41
20 45 41
20 45 42
21 46 42
21 46 42
20 45 41
20 45 42
20 45 41
20 45 42
20 44 41
19 43 39
19 43 40
19 43 40
19 43 40
19 44 40
19 43 40
19 44 40
20 44 40
20 44 40
19 43 40
19 43 39
19 43 40
19 43 40
20 44 40
19 43 40
20 44 41
19 43 40
20 44 41
19 43 40
20 44 40
19 43 40
20 45 41
20 45 41
20 45 41
20 44 41
19 43 39
20 44 41
20 45 42
20 44 40
19 43 40
20 45 41
20 44 41
20 45 41
20 44 40
20 44 40
20 45 41
20 44 41
20 45 41
20 46 42
20 45 41
20 45 41
20 44 40
20 44 41
20 45 42
20 44 40
20 44 40
20 45 41
20 44 40
20 45 42
20 44 40
20 45 42
20 45 41
20 44 40
20 45 41
20 44 41
20 45 41
21 46 42
20 45 42
20 45 42
21 46 42
21 46 42
20 45 41
20 45 41
20 45 42
21 46 42
20 45 41
20 44 40
20 45 41
20 44 41
20 45 41
20 45 41
21 46 42
20 45 41
20 45 41
21 45 42
21 46 42
21 46 42
20 45 41
20 45 41
20 45 42
21 46 42
20 45 41
21 46 42
20 45 41
21 47 43
21 47 43
21 46 42
21 46 42
20 45 41
21 46 42
20 45 41
21 46 42
21 46 42
20 45 41
21 47 43
21 46 42
21 47 43
21 46 42
21 46 42
21 46 42
21 46 42
20 45 41
21 46 42
21 46 42
21 46 42
20 45 42
21 45 42
21 45 41
21 46 42
21 47 43
20 45 41
21 46 42
21 46 42
20 45 41
21 46 42
20 45 41
21 46 42
21 46 42
20 45 41
20 45 41
20 45 41
19 43 40
20 44 41
19 42 39
19 43 39
19 43 40
19 43 40
20 44 41
19 43 40
20 44 41
20 44 40
19 44 40
19 43 40
20 44 41
20 44 40
20 44 41
20 44 41
20 44 41
20 44 40
20 44 40
20 44 41
20 44 41
20 43 40
20 44 41
20 45 41
20 45 42
20 44 41
20 45 41
20 44 40
20 45 41
20 44 41
20 45 41
20 44 41
20 45 41
20 44 41
19 43 40
20 45 41
20 44 40
20 44 40
20 45 41
20 44 41
20 45 41
19 43 40
20 45 41
20 44 41
20 45 41
20 45 41
20 45 42
20 45 42
21 46 42
20 45 42
20 45 41
20 45 41
21 46 42
20 45 41
20 45 41
20 45 41
21 46 42
21 46 42
20 45 42
21 45 42
20 45 41
21 46 42
20 45 41
20 45 41
20 44 41
21 47 43
21 46 42
21 46 42
21 47 43
20 45 41
21 46 42
21 46 42
21 46 42
21 46 42
21 47 43
21 47 43
22 48 44
21 46 42
21 45 42
21 46 42
21 46 42
21 46 42
21 45 42
21 47 43
21 46 42
21 47 43
21 46 42
21 46 42
21 46 42
20 45 41
21 46 42
20 45 41
21 46 42
21 46 42
21 47 43
21 47 43
21 46 42
21 46 42
21 45 41
21 46 42
21 46 42
21 47 43
21 46 42
21 46 42
21 46 42
21 47 43
21 46 42
21 45 42
21 46 42
21 46 42
21 47 42
21 47 43
21 47 43
21 46 42
21 47 43
21 46 42
21 46 42
20 45 41
21 47 43
19 43 40
19 43 39
20 44 41
19 43 40
19 43 40
20 44 40
20 44 40
19 43 40
20 45 42
20 44 41
20 44 40
20 44 40
20 44 41
20 44 40
20 44 40
20 44 41
20 44 41
20 44 41
20 44 41
20 45 41
20 44 40
20 45 41
19 43 40
20 45 41
20 44 41
20 44 41
21 46 42
20 45 41
20 44 41
20 44 41
20 45 42
20 44 41
20 44 41
20 45 42
21 46 42
20 45 41
20 45 41
20 45 41
20 45 42
20 45 42
20 45 41
20 45 42
20 45 42
20 45 41
20 45 41
20 45 41
20 45 41
21 46 42
20 45 41
21 46 42
21 46 42
20 44 40
20 45 42
21 46 42
20 45 41
20 45 42
21 47 43
20 45 42
21 46 42
21 46 42
21 46 42
20 45 41
21 46 42
21 46 42
21 46 42
21 46 42
21 47 43
21 46 42
21 46 42
21 46 42
21 47 43
21 47 43
21 46 42
20 45 41
21 47 43
21 46 42
21 46 42
21 46 42
21 46 42
21 46 42
21 47 43
22 48 43
21 47 43
21 47 43
22 47 43
21 47 43
21 47 43
21 47 43
21 47 43
21 47 43
22 48 44
21 47 43
22 48 44
22 48 43
21 46 42
21 47 43
22 48 44
21 47 42
21 46 42
22 48 44
21 46 42
21 46 42
21 46 42
21 46 42
21 47 42
21 47 43
21 47 43
21 47 42
21 46 42
21 47 43
21 47 43
21 47 43
21 46 42
21 46 42
21 47 43
21 47 43
21 46 42
21 46 42
21 47 43
21 47 43
20 44 40
20 44 40
19 43 40
20 44 40
20 44 41
20 45 41
20 44 41
20 45 41
20 45 41
20 44 41
21 46 42
19 43 40
20 44 41
20 44 40
20 44 40
20 44 41
20 45 42
20 44 41
20 45 42
20 43 40
20 44 40
20 45 41
20 45 41
20 45 41
20 45 41
20 45 41
20 46 42
20 45 42
20 44 41
20 45 42
20 45 41
20 45 41
21 46 42
20 45 41
20 45 41
21 46 42
21 46 42
20 45 41
20 45 41
21 46 42
20 45 41
20 45 41
21 46 42
20 45 41
21 46 42
21 47 43
21 46 42
21 46 42
21 46 42
21 46 42
21 46 42
21 46 42
21 46 42
20 45 41
21 45 42
20 45 41
21 46 42
21 46 42
21 47 43
21 47 43
21 47 43
21 46 42
21 47 43
21 46 42
20 45 41
21 46 42
21 47 43
21 47 43
21 46 42
21 47 43
21 46 42
21 47 43
21 46 42
22 48 44
21 46 42
21 47 43
21 47 43
21 47 43
21 46 42
21 47 43
22 48 44
21 47 43
21 47 43
22 48 44
21 47 43
21 47 43
21 47 42
21 46 42
21 46 42
21 47 43
22 48 43
21 47 43
22 47 43
21 46 42
22 48 44
21 47 43
22 48 43
21 47 43
21 47 43
22 48 44
21 46 42
21 47 43
22 48 44
22 48 43
22 48 43
21 47 43
22 48 44
22 49 45
21 47 43
21 47 43
22 48 44
22 48 44
22 48 44
21 47 43
22 48 44
22 47 43
21 46 42
21 46 42
21 47 43
21 47 43
20 44 41
19 43 40
20 44 41
20 44 40
20 44 41
20 44 41
20 44 40
20 45 42
20 44 41
20 45 41
20 44 41
20 44 40
20 45 41
20 45 42
20 45 42
21 46 42
20 45 41
20 45 41
20 44 41
20 45 41
20 45 42
20 45 41
20 45 41
20 45 41
21 46 43
20 45 42
21 46 42
21 46 42
21 46 42
20 45 42
21 46 42
21 46 42
20 45 41
20 45 41
21 45 42
20 45 42
21 45 42
21 47 43
21 46 42
21 46 42
20 45 41
21 47 43
21 47 43
21 46 42
20 45 41
20 45 41
21 46 42
21 45 41
21 46 42
21 46 42
21 47 43
21 47 42
21 46 42
21 47 43
21 46 42
21 46 42
21 46 42
21 46 42
21 46 42
21 46 42
21 46 42
21 46 42
21 47 43
22 48 43
21 47 43
21 47 43
21 47 43
21 47 43
21 46 41
21 47 43
21 46 42
21 47 43
21 47 43
22 48 43
22 48 43
21 47 43
21 46 42
21 47 43
22 47 43
21 47 43
21 47 43
21 46 42
22 48 43
22 47 43
22 48 44
22 49 44
21 47 43
22 47 43
22 48 43
21 47 43
21 47 43
22 48 44
21 47 43
22 49 44
22 48 44
22 49 44
22 48 44
22 48 44
21 47 42
21 46 42
22 47 43
21 47 43
22 48 44
22 48 43
21 47 43
22 49 45
22 47 43
21 47 43
22 48 44
22 49 44
22 48 43
22 49 44
22 48 44
22 47 43
22 47 43
22 49 44
22 49 44
21 47 43
22 47 43
22 49 44
20 44 40
20 45 41
20 43 40
20 44 41
20 44 41
20 44 41
20 44 41
20 45 42
20 45 41
20 45 41
20 45 41
21 46 42
20 45 41
20 45 42
20 45 41
20 44 41
20 45 41
20 45 41
20 45 41
21 46 42
20 45 41
20 44 40
20 45 41
20 45 41
20 45 41
20 45 41
20 45 41
21 46 42
21 46 42
20 45 41
21 47 43
21 46 42
20 45 41
20 45 41
20 45 41
21 46 42
21 46 42
20 45 41
21 47 43
21 46 42
21 46 42
21 46 42
21 46 42
21 47 43
21 46 42
21 47 43
21 46 42
21 46 42
21 46 42
21 47 43
21 47 43
21 46 42
21 46 42
21 47 42
21 47 42
21 46 42
21 47 43
22 48 43
21 46 42
21 47 43
21 47 43
22 48 43
21 47 43
22 48 44
21 46 42
21 47 43
22 49 44
22 48 43
21 47 43
21 47 43
21 47 42
21 47 43
22 47 43
21 47 43
21 47 42
21 47 43
22 48 44
21 47 43
22 49 44
22 48 43
21 47 43
22 49 44
21 47 43
22 48 44
22 48 43
21 47 42
22 48 43
22 47 43
22 49 45
22 48 44
22 48 43
21 47 42
22 49 45
22 48 44
22 48 44
22 48 44
22 48 43
22 48 43
22 48 43
22 49 44
22 49 44
22 48 43
22 49 44
22 48 44
22 49 45
22 49 44
22 48 44
22 48 43
22 47 43
22 49 44
22 49 44
22 48 43
22 47 43
22 49 44
22 49 44
22 48 44
22 48 44
22 49 44
21 47 43
22 48 44
20 44 40
20 45 42
20 45 41
20 44 41
20 45 41
20 45 41
20 45 41
21 46 42
20 45 41
20 45 41
20 45 42
20 45 42
20 44 41
20 45 42
20 45 41
20 45 41
20 45 41
20 45 41
20 45 41
20 45 41
20 44 41
21 46 42
20 45 41
20 45 42
21 46 42
21 47 43
21 46 42
20 45 41
20 45 41
20 45 41
21 46 42
20 45 41
21 47 43
21 46 42
21 46 42
21 46 42
21 46 42
21 47 43
21 46 42
21 46 42
21 47 43
21 47 43
21 45 42
21 47 43
21 47 43
21 47 43
21 46 42
22 48 43
21 46 42
21 46 42
21 47 43
21 47 43
22 48 43
21 47 42
22 49 44
22 47 43
22 48 43
21 47 43
21 47 43
22 47 43
21 47 43
21 46 42
22 47 43
22 48 44
21 47 42
21 47 43
21 47 43
21 47 42
22 48 44
21 46 42
22 48 43
21 46 42
21 47 43
22 49 44
21 47 43
22 47 43
22 48 43
22 48 43
22 48 44
22 48 44
22 48 44
22 48 44
21 47 42
22 49 44
22 49 44
22 48 43
23 49 45
22 49 44
22 49 44
22 48 43
22 49 44
22 47 43
22 47 43
22 48 44
22 48 44
22 49 44
22 48 44
22 48 44
22 48 44
22 49 44
22 48 44
22 49 44
23 49 45
22 48 44
22 49 44
22 49 44
22 49 44
22 49 44
22 48 44
22 48 44
23 50 45
22 49 44
22 49 44
22 48 43
22 49 44
22 48 43
22 49 44
23 49 45
22 47 43
23 50 45
21 46 42
20 45 41
20 45 42
20 44 41
20 44 41
20 44 40
20 45 41
20 45 41
20 45 41
20 45 42
20 45 41
20 44 41
20 44 40
20 45 42
20 45 42
20 44 41
20 45 42
21 46 42
20 45 41
20 45 41
20 45 41
21 45 42
20 45 41
20 45 42
20 45 41
21 46 42
21 47 43
21 47 43
21 46 42
20 45 41
21 46 42
21 47 43
21 47 43
21 47 43
21 45 42
21 45 42
21 46 42
21 46 42
21 47 43
21 47 43
21 46 42
21 46 42
21 47 43
21 47 43
21 46 42
21 47 43
21 46 42
21 46 42
21 46 42
21 47 43
21 47 43
21 47 43
22 48 43
22 48 44
22 48 43
21 47 43
21 47 43
21 47 43
22 48 44
21 47 42
22 48 44
21 47 42
22 48 43
21 47 43
22 47 43
22 48 44
22 47 43
22 49 44
22 49 44
22 47 43
22 49 44
22 48 44
22 48 43
22 48 43
21 47 43
22 49 44
22 48 44
22 48 44
22 49 44
22 48 44
22 48 44
22 49 44
22 49 44
22 48 44
22 48 43
22 49 45
22 48 44
22 48 44
22 49 44
22 48 44
22 48 44
22 48 44
22 48 44
22 49 44
22 48 44
23 50 45
22 49 44
22 49 44
23 50 45
23 50 45
23 49 45
23 50 45
22 49 44
23 50 45
23 50 45
22 49 44
23 49 45
22 49 44
22 49 44
23 50 45
23 50 45
22 49 44
22 48 43
23 50 45
23 51 46
23 50 45
22 48 43
23 49 45
22 49 44
23 50 45
20 44 41
20 45 42
20 45 41
20 45 41
20 45 42
20 45 41
20 45 41
20 45 41
20 45 42
21 45 42
20 45 41
21 46 42
21 46 42
20 45 42
20 45 41
21 47 43
20 44 40
20 44 40
21 47 43
21 46 42
21 46 42
20 45 41
21 47 43
21 46 42
20 45 41
21 46 42
20 45 41
21 47 43
21 46 42
21 46 42
21 45 42
21 46 42
21 47 43
22 48 44
21 46 42
21 47 43
21 47 43
21 47 43
21 46 42
21 47 43
21 47 43
21 47 42
21 46 42
21 46 42
22 48 43
21 47 43
21 46 42
21 47 43
21 47 43
21 46 42
22 48 44
21 47 43
21 47 43
21 47 43
21 47 43
22 48 44
22 48 44
22 49 45
22 49 44
22 48 43
22 48 43
22 48 43
22 49 45
21 47 43
22 49 45
21 47 43
21 47 43
22 48 44
22 48 44
22 47 43
22 48 44
22 48 44
22 49 44
22 49 44
22 48 43
22 49 44
22 49 44
23 49 45
22 48 43
22 49 45
22 49 44
22 49 44
22 49 44
23 50 45
23 50 45
22 48 43
22 48 43
22 48 44
22 49 44
22 49 44
22 49 44
22 49 44
22 49 44
23 49 45
22 48 43
23 50 45
23 50 46
22 48 44
22 48 44
23 49 45
23 50 45
22 49 44
22 49 44
22 49 44
23 51 46
22 48 44
23 50 45
23 50 45
23 49 45
23 49 45
23 50 45
22 48 44
22 48 43
22 49 44
23 49 45
23 50 45
22 49 44
23 51 46
22 49 44
22 49 44
20 45 42
20 44 41
20 45 41
21 47 43
20 45 41
21 46 42
20 45 42
20 46 42
20 44 40
21 46 42
20 45 41
21 46 42
20 45 41
21 46 42
20 45 41
21 46 42
21 46 42
20 45 41
21 46 42
21 46 42
20 45 41
21 46 42
20 45 41
21 46 42
21 46 42
21 46 42
22 48 44
21 46 42
21 47 43
21 46 42
21 46 42
20 45 41
22 48 43
21 47 43
21 46 42
21 46 42
21 46 42
21 46 42
21 46 42
22 48 43
21 47 43
22 48 44
22 47 43
22 48 44
21 47 43
21 47 42
21 47 43
21 46 42
21 47 42
22 49 44
22 48 44
22 48 44
22 48 43
21 46 42
22 48 44
22 48 44
21 47 43
22 48 44
22 48 44
22 49 44
22 47 43
22 48 44
22 48 44
22 48 44
21 47 43
22 48 44
21 47 43
22 47 43
22 48 44
22 48 44
22 48 43
22 49 44
22 49 44
22 48 44
22 48 43
22 48 44
22 49 44
22 48 44
22 49 45
22 48 44
23 51 46
22 49 44
22 48 43
22 49 45
23 50 45
22 49 44
22 49 44
23 50 45
22 49 44
22 48 44
22 49 44
23 50 45
22 49 45
23 50 45
23 49 45
23 50 45
22 49 44
23 50 45
22 49 44
22 49 44
23 50 45
23 49 45
23 50 45
23 49 45
23 50 45
23 50 45
23 50 45
23 50 45
23 50 45
23 50 45
23 50 45
23 51 46
23 50 45
22 49 44
22 49 44
23 50 45
23 49 45
23 50 45
23 49 45
23 50 45
20 44 41
21 46 42
20 45 41
20 44 41
21 46 42
20 45 41
20 45 42
21 46 42
21 46 42
20 44 40
20 45 41
21 46 42
20 45 41
21 46 42
21 46 42
20 45 42
20 44 41
20 45 41
21 46 42
21 46 42
21 46 42
21 46 42
21 47 43
21 46 42
21 47 43
21 46 42
21 46 42
21 46 42
21 46 42
21 47 43
21 46 42
21 46 42
21 46 42
21 46 42
21 47 43
21 47 43
22 48 43
21 47 43
21 46 42
21 47 43
21 46 42
21 47 43
21 47 43
22 49 44
21 47 43
22 48 44
22 48 44
21 47 43
22 48 44
22 49 44
22 47 43
22 48 43
22 48 44
22 47 43
31 51 46
59 66 60
33 48 44
22 49 44
21 47 43
22 48 44
22 49 44
22 48 44
22 48 43
22 49 44
22 49 45
22 49 44
22 49 45
22 48 44
22 49 44
22 48 44
22 49 44
22 49 44
22 48 43
22 49 44
22 49 45
22 48 43
22 49 45
22 48 44
23 49 45
22 48 44
22 49 44
23 49 45
22 49 44
22 49 44
23 49 45
23 49 45
22 49 44
23 51 46
23 50 45
22 48 44
23 49 45
23 50 45
23 49 45
23 50 45
23 50 45
22 49 44
23 50 45
22 49 44
23 51 46
23 50 45
23 50 45
23 49 45
22 48 44
23 50 45
23 50 45
23 50 45
23 50 45
23 49 45
23 50 45
23 49 45
22 49 44
23 50 45
22 49 44
23 50 45
22 49 44
23 50 45
23 50 45
22 49 44
23 50 45
23 50 45
20 45 41
20 45 41
20 45 42
20 45 41
20 45 41
20 44 41
20 45 41
21 45 42
21 46 42
20 45 41
20 45 42
21 46 42
20 45 41
20 45 41
21 47 43
21 47 43
21 46 42
20 45 41
21 46 42
20 45 41
21 47 43
21 46 42
21 46 42
21 46 42
21 46 42
21 47 43
21 46 42
21 46 42
22 48 43
21 47 43
21 45 41
21 47 43
21 46 42
22 48 43
21 47 43
22 48 44
20 45 41
21 47 43
21 47 43
22 48 43
22 48 43
22 48 43
22 48 44
22 48 44
21 47 43
21 47 43
22 48 44
22 47 43
22 48 43
22 49 44
22 48 44
21 47 42
46 59 55
149 125 115
201 126 112
223 106 89
213 75 55
126 58 47
22 49 44
22 48 44
22 47 43
21 47 43
22 49 45
22 49 44
22 49 44
22 48 44
22 49 44
23 49 45
23 50 45
22 49 44
23 50 45
23 50 46
22 47 43
22 47 43
23 49 45
22 49 44
23 50 45
22 49 44
23 50 45
22 49 44
23 49 45
23 50 45
23 50 45
22 48 44
22 48 44
23 51 46
23 49 45
23 50 45
23 50 45
22 49 44
23 50 45
23 49 44
22 48 44
23 50 45
23 50 45
23 49 44
23 50 45
23 50 45
23 49 45
23 50 45
22 49 44
23 50 45
23 50 45
22 49 44
23 50 45
22 49 44
23 51 46
23 50 45
23 49 44
23 51 46
23 51 46
23 49 44
23 50 45
23 51 46
23 49 44
23 50 45
23 50 45
23 51 46
23 51 46
23 51 46
20 45 41
21 46 42
21 46 42
20 45 42
21 46 42
21 46 42
21 46 42
20 45 41
20 45 41
21 46 42
21 46 42
20 45 41
21 46 42
21 46 42
21 46 42
20 45 41
20 45 41
21 45 41
21 46 42
21 45 42
21 46 42
21 46 42
21 46 42
21 46 42
21 45 41
21 47 43
21 47 43
21 46 42
21 47 43
21 46 42
22 48 44
21 47 42
21 47 42
20 45 41
21 47 42
21 45 41
21 46 42
21 46 42
21 47 42
21 47 43
21 47 43
22 48 44
22 48 43
22 48 43
22 48 44
21 47 43
22 48 44
22 49 44
21 47 43
22 49 44
22 48 44
22 49 44
138 107 99
188 83 69
199 67 49
214 73 53
253 127 101
239 90 67
103 54 45
22 49 44
22 48 44
22 48 43
21 47 43
22 48 44
23 50 45
22 49 44
22 48 43
22 48 44
22 49 44
22 49 44
22 49 45
22 48 43
22 48 43
23 50 45
23 50 45
23 51 46
23 49 45
23 50 45
22 48 44
22 48 44
23 50 46
23 50 45
22 48 44
22 49 44
22 48 43
23 51 46
22 49 44
23 50 45
23 49 45
22 49 44
23 50 45
23 50 45
22 48 43
22 49 44
22 49 44
23 50 45
23 50 45
23 51 46
23 51 46
23 50 45
23 49 44
24 52 47
23 49 44
23 50 45
23 50 45
23 50 45
23 51 46
22 49 44
23 50 45
23 51 46
23 51 46
23 51 46
23 49 44
24 52 47
23 49 45
23 50 45
23 50 45
23 50 45
23 50 46
23 50 45
21 46 42
20 45 41
20 45 41
20 45 41
21 46 42
20 45 41
21 46 42
20 45 41
21 46 42
21 47 43
21 46 42
21 47 43
21 46 42
21 46 42
21 46 42
21 47 43
20 45 41
21 47 43
20 45 41
21 47 43
21 46 42
21 47 43
21 47 43
21 46 42
21 47 43
21 47 43
21 45 42
21 46 42
22 48 44
21 46 42
21 47 42
21 47 43
21 45 41
21 47 43
21 46 42
22 48 43
21 47 43
21 47 43
21 47 42
21 46 42
22 48 44
21 47 43
22 48 44
22 48 43
21 47 43
21 47 43
22 47 43
22 48 43
22 48 44
22 48 44
22 49 45
62 64 59
141 80 72
161 58 45
178 61 44
193 64 47
205 81 64
221 117 100
186 98 83
22 48 43
22 47 43
22 48 43
22 49 44
22 48 43
22 49 44
22 49 44
23 49 45
102 100 92
176 161 148
197 178 164
197 177 161
102 99 90
22 49 44
22 49 44
23 49 44
22 48 43
23 49 45
23 49 44
22 48 44
22 49 44
22 49 44
22 49 44
22 49 45
22 49 44
23 50 45
23 49 45
23 51 46
23 50 45
23 50 45
54 66 60
167 104 81
203 102 64
213 109 70
151 82 56
54 54 46
23 51 46
24 52 47
23 50 46
23 50 45
23 50 45
23 50 45
23 50 45
22 49 44
23 49 44
23 50 45
23 50 46
23 51 46
23 51 46
23 49 45
23 49 44
23 50 45
23 50 45
23 49 44
23 50 45
23 50 45
23 50 45
23 50 45
23 50 46
23 50 45
23 51 46
21 46 42
21 45 42
20 45 41
20 45 41
21 46 42
20 45 41
20 45 42
20 45 41
21 46 42
21 46 42
21 46 42
20 45 41
20 45 41
21 46 42
21 46 42
21 46 42
20 45 41
21 47 43
21 46 42
21 47 43
21 46 42
21 46 42
21 46 42
21 46 42
21 46 42
21 47 43
21 46 42
21 46 42
21 46 42
21 46 42
21 45 41
21 46 42
22 48 43
21 47 43
21 46 42
22 47 43
22 48 44
21 47 43
22 48 43
22 48 43
22 47 43
21 46 42
21 47 43
22 48 44
22 47 43
22 47 43
22 49 45
22 49 45
22 48 43
21 47 43
22 48 44
80 62 56
116 107 100
128 71 62
140 54 42
157 101 90
168 147 134
179 159 143
173 152 135
22 48 44
22 49 44
23 49 45
22 48 44
22 48 43
22 48 43
23 50 46
114 109 102
191 174 163
200 183 171
210 191 178
245 222 201
239 213 193
126 117 107
23 50 45
22 48 44
23 49 45
23 49 45
22 47 43
22 48 44
23 50 45
23 49 45
23 50 45
23 50 45
22 49 44
23 49 45
23 49 45
23 49 45
23 50 45
61 68 63
189 166 152
218 118 82
227 111 68
255 148 105
253 134 89
201 161 141
37 56 50
23 51 46
23 50 45
23 50 45
23 50 46
22 49 44
23 51 46
23 50 45
23 50 45
23 51 46
23 50 45
23 51 46
23 50 45
23 51 46
23 51 46
23 49 45
22 49 44
23 51 46
23 50 45
23 50 45
23 51 46
23 51 46
23 50 45
22 48 44
23 50 45
20 45 41
20 45 41
21 46 42
20 44 41
20 45 41
20 44 41
21 46 42
21 46 42
21 46 42
21 46 42
21 46 42
21 46 42
21 46 42
21 47 43
21 46 42
21 46 42
21 47 43
21 46 42
21 46 42
21 46 42
21 46 42
21 46 43
21 46 42
21 47 43
20 45 41
21 47 43
21 47 43
21 47 43
21 47 43
21 46 42
22 48 44
21 47 43
22 49 44
21 47 42
21 47 43
22 48 44
21 47 43
22 48 44
21 47 43
22 48 44
22 48 43
22 48 43
21 47 43
22 48 44
22 48 44
22 47 43
22 48 44
21 47 43
22 48 44
22 48 43
21 47 43
58 49 44
98 90 83
98 71 64
115 83 74
112 104 96
109 100 91
131 116 104
127 113 99
22 49 44
22 48 44
22 48 44
22 49 44
22 48 43
22 48 43
30 49 49
123 110 113
139 125 127
136 120 125
140 122 127
141 120 127
138 114 125
98 71 97
24 49 45
23 49 45
23 50 45
22 48 44
23 50 45
22 49 44
23 49 44
22 49 44
22 49 44
23 49 44
23 50 45
23 51 46
22 49 44
22 49 44
23 50 45
130 122 114
175 141 129
196 96 58
204 100 60
212 103 62
215 132 103
208 185 169
141 130 118
23 51 46
22 49 44
22 49 44
23 49 45
23 50 46
23 50 45
23 49 45
23 49 45
23 51 46
23 50 45
23 51 46
23 51 46
23 50 45
23 50 45
23 50 45
23 51 46
23 50 45
23 51 46
23 50 46
23 51 46
23 50 45
23 50 45
23 50 45
23 50 45
20 45 41
20 45 42
20 45 41
21 47 43
21 46 42
20 45 41
21 46 42
21 46 42
21 46 42
21 46 42
21 46 42
21 45 42
21 45 42
21 47 43
21 47 43
21 46 42
21 46 42
21 46 42
21 47 43
21 47 43
21 46 42
21 47 43
21 47 43
21 46 42
22 48 43
21 46 42
21 46 42
21 46 42
21 46 42
21 47 43
21 47 43
21 47 43
21 47 42
21 47 43
21 47 43
21 47 43
22 48 44
21 47 43
22 48 43
22 48 44
21 47 42
21 47 43
22 48 43
22 47 43
21 47 43
22 48 44
22 47 43
21 46 42
21 46 42
21 47 42
21 47 42
21 46 42
66 48 42
57 39 33
64 63 55
64 63 56
52 53 45
74 68 57
63 66 59
22 47 43
22 47 42
22 48 43
22 49 44
22 49 44
22 48 44
35 44 49
63 43 72
62 43 71
65 45 75
68 47 78
71 48 80
74 49 80
80 53 84
43 49 55
22 49 44
22 49 44
22 47 43
23 50 45
22 48 44
23 49 45
23 50 46
23 50 45
23 50 45
22 49 44
22 49 44
23 49 45
23 50 46
34 54 49
139 127 119
162 111 94
139 96 82
151 109 95
171 90 61
178 129 111
172 154 141
143 129 117
23 50 45
23 50 45
23 50 45
22 49 44
23 50 45
23 49 45
23 49 45
23 50 45
23 51 46
24 50 46
68 74 68
99 98 89
40 58 52
23 51 46
23 50 45
23 50 45
23 50 45
23 51 46
24 51 46
23 50 45
23 50 45
23 50 45
23 51 46
22 49 44
20 45 41
20 45 42
21 46 42
21 46 42
21 46 42
21 47 43
21 46 42
21 46 42
20 45 41
20 45 42
21 46 42
21 46 42
21 47 43
21 47 43
21 46 42
21 46 42
21 46 42
21 46 42
21 47 43
21 46 42
21 47 43
21 46 42
21 47 43
21 47 43
21 46 42
21 46 42
21 47 43
21 47 43
21 46 42
21 46 42
21 47 42
21 47 43
21 46 42
21 47 43
21 47 42
21 47 43
21 46 42
22 48 43
21 47 43
21 47 43
22 48 43
22 48 44
21 47 43
21 47 42
21 47 43
22 49 44
21 47 43
22 48 44
21 47 43
20 44 40
20 43 40
20 43 39
17 35 32
13 22 18
18 27 21
26 32 24
33 36 26
32 44 36
21 45 40
21 46 41
22 47 43
21 46 42
22 48 44
22 47 43
21 46 42
33 43 47
52 35 59
53 37 61
52 36 59
55 38 63
57 39 64
54 37 60
63 42 67
41 49 54
22 49 44
22 49 44
23 50 45
22 48 43
23 49 45
22 48 44
23 49 45
23 49 45
23 49 45
23 50 45
23 49 44
22 49 44
22 48 43
32 53 48
110 101 94
118 86 74
106 98 92
116 107 100
128 89 76
128 107 97
122 112 103
115 108 98
23 50 45
23 50 45
23 49 44
23 50 45
23 50 45
23 51 46
23 50 45
23 50 45
37 51 49
161 147 136
219 198 183
247 223 203
231 208 189
170 155 141
32 54 49
22 48 43
23 51 45
23 51 46
23 50 45
23 51 46
23 50 45
23 50 45
22 49 44
23 50 45
21 46 42
21 46 42
21 47 43
20 45 41
21 47 43
20 45 41
20 45 41
21 46 42
21 46 42
20 45 41
21 47 43
21 46 42
21 47 43
21 47 43
21 46 42
21 46 42
21 47 43
21 46 42
21 47 43
21 46 43
21 46 42
21 47 43
21 47 43
21 47 43
21 46 42
21 46 42
22 48 44
21 46 42
21 46 42
21 47 43
21 47 43
21 47 43
21 47 43
22 48 44
22 48 44
22 48 43
21 47 43
22 49 44
22 48 44
21 47 43
22 47 43
21 47 43
21 46 42
21 46 42
22 48 43
22 48 43
22 47 43
20 44 40
18 41 38
16 35 33
15 35 33
14 31 29
13 29 27
11 25 24
10 23 22
11 25 23
14 31 27
19 41 36
21 44 40
20 44 39
21 46 41
21 46 42
22 48 43
21 46 41
22 48 43
24 45 42
40 28 45
40 28 45
38 27 43
39 27 44
37 26 42
39 27 44
45 36 48
23 48 44
22 49 44
22 48 44
22 49 44
22 48 43
22 49 44
22 49 44
22 48 43
22 49 44
22 49 44
23 49 45
22 49 44
23 49 44
23 50 45
22 49 44
76 74 68
87 56 43
90 83 75
88 83 75
91 63 51
80 74 66
98 91 82
72 74 67
23 49 44
23 49 45
23 49 44
23 49 44
23 50 45
23 50 45
23 50 45
26 43 41
131 121 115
193 177 166
193 177 167
199 182 170
206 188 174
214 192 177
145 133 121
23 50 45
23 50 45
23 50 45
23 50 45
24 51 46
22 49 44
23 50 45
23 49 45
23 50 45
20 45 41
21 46 42
20 45 41
21 46 42
21 45 41
21 46 42
21 47 43
20 45 41
21 46 42
21 46 42
21 47 43
21 45 42
21 46 42
20 45 41
20 45 41
21 46 42
21 46 42
21 46 42
21 45 41
21 47 43
21 47 43
21 47 43
21 46 42
22 48 44
21 47 43
21 47 43
22 47 43
21 46 42
21 47 43
21 47 42
20 45 41
21 47 43
21 46 42
21 46 42
22 47 43
21 47 42
21 47 43
21 47 43
22 49 44
21 47 42
22 47 43
21 47 43
21 47 43
21 47 43
21 46 41
22 48 44
22 48 44
22 48 44
21 47 43
21 46 41
21 46 42
21 46 42
20 45 40
21 46 42
21 46 42
21 46 42
21 46 42
21 46 42
22 47 43
21 46 41
22 48 43
21 46 41
22 49 44
21 47 42
22 47 42
22 47 42
24 37 35
30 30 30
27 29 29
29 33 29
29 35 29
50 50 41
39 51 45
22 47 42
22 48 43
22 48 44
22 48 44
22 49 44
22 48 43
22 48 43
22 48 43
22 48 43
22 48 44
22 47 43
22 48 43
22 48 44
22 47 43
22 47 43
40 52 47
29 22 15
40 26 17
32 26 19
30 23 13
42 45 37
55 58 49
30 51 46
23 50 45
22 49 44
23 50 45
22 49 44
23 49 44
23 50 45
23 48 43
25 30 33
134 124 118
169 156 147
172 159 151
174 161 152
181 166 156
183 167 155
182 164 150
49 62 56
23 49 44
23 50 45
23 50 46
23 50 45
23 50 45
23 50 45
22 48 43
23 50 45
20 45 41
21 46 42
20 45 42
21 46 42
21 47 43
20 45 41
21 46 42
21 46 42
20 45 41
21 46 42
21 47 43
21 46 42
20 45 41
21 46 42
21 47 43
21 47 43
21 46 42
21 46 42
21 46 42
21 46 42
21 47 43
21 46 42
21 46 42
22 48 44
21 46 42
21 47 43
21 47 43
21 46 42
22 48 44
22 48 43
21 47 43
21 47 42
21 46 42
21 47 42
22 47 43
21 47 43
21 46 42
21 47 43
21 47 43
21 47 42
22 48 43
21 47 43
21 47 43
22 48 43
21 47 42
21 47 42
21 46 42
21 46 42
21 47 43
22 48 43
21 47 42
21 47 42
21 46 42
21 46 42
22 48 44
21 47 43
21 46 42
21 47 43
22 48 44
21 46 42
21 46 42
22 48 43
21 46 42
19 42 38
16 37 34
16 36 33
14 31 29
10 22 19
9 17 14
9 17 13
17 25 19
25 36 31
21 44 39
21 45 41
21 47 42
21 47 42
22 49 44
22 48 43
22 47 43
22 49 44
22 48 43
22 49 44
22 47 43
22 47 43
21 47 42
22 47 43
19 43 39
17 37 34
14 32 30
11 23 21
10 13 10
10 10 6
11 13 8
13 26 22
21 42 37
21 46 41
22 48 43
21 46 41
23 49 44
23 49 44
23 50 45
23 49 44
23 46 42
22 25 28
111 103 97
147 137 129
153 141 132
144 134 126
149 137 129
152 141 132
153 140 130
70 74 68
23 51 46
23 50 45
23 49 44
23 50 45
23 50 45
22 49 44
22 49 44
23 50 45
21 46 42
21 46 42
20 45 41
21 46 42
21 46 42
21 46 42
21 47 43
21 45 42
21 46 42
21 47 43
21 46 42
21 46 42
21 47 43
21 46 42
21 46 42
21 47 43
21 47 43
21 47 42
21 47 43
21 47 43
21 47 42
21 46 42
21 46 42
21 46 42
21 46 42
21 46 42
21 46 42
21 46 42
21 46 42
21 46 42
21 46 42
21 47 43
21 47 43
21 47 43
21 47 42
21 47 43
21 46 42
22 49 45
21 47 43
22 48 44
21 47 43
21 47 43
21 46 42
21 46 42
21 47 43
22 47 43
21 47 43
22 48 43
21 47 42
21 47 43
21 47 43
22 47 43
22 48 44
22 48 43
22 48 44
22 48 43
22 48 43
21 47 43
22 48 44
21 47 43
21 47 43
21 45 41
19 43 39
18 41 38
16 36 34
15 35 33
14 33 32
14 33 31
13 30 28
14 31 29
16 35 31
19 42 38
21 45 40
22 47 42
21 46 41
21 47 42
21 47 42
22 48 43
22 49 44
22 47 43
22 48 43
22 49 44
22 48 43
22 48 43
21 47 42
21 46 41
19 42 38
16 37 34
15 34 32
13 30 29
14 31 29
12 27 25
13 29 27
14 32 29
19 42 38
21 45 40
22 47 43
22 48 43
22 48 43
23 49 44
22 48 43
22 49 44
22 45 41
18 20 22
51 49 46
116 108 100
129 119 111
128 119 110
118 110 102
130 120 111
126 117 108
41 56 50
23 50 45
23 50 46
23 50 45
23 50 45
23 50 45
23 50 45
22 49 44
22 49 44
20 45 41
21 47 43
20 45 41
21 46 42
20 44 41
21 47 43
21 46 42
21 46 42
21 46 42
21 46 42
21 46 42
21 45 42
21 46 42
21 47 43
21 46 42
21 46 42
21 46 42
21 47 43
21 47 43
21 46 42
21 46 42
21 47 42
21 46 42
21 46 42
21 46 42
21 47 43
21 46 42
21 47 42
21 47 43
21 47 43
21 46 42
21 47 43
22 48 44
22 47 43
21 46 42
21 46 42
21 47 42
21 47 43
21 46 42
21 46 42
22 48 43
21 46 42
21 47 43
22 48 43
22 48 43
21 46 42
21 46 42
21 47 43
22 47 43
21 47 43
21 47 43
22 48 43
22 48 44
22 47 43
21 47 43
21 47 43
22 48 43
22 49 44
21 47 43
21 47 42
21 46 42
21 47 42
22 47 43
21 47 43
21 46 42
22 47 43
21 47 42
21 46 42
21 47 42
22 48 43
22 47 43
21 46 42
22 48 44
22 48 44
22 48 44
22 47 43
22 48 44
22 48 44
22 48 43
22 49 45
22 49 44
22 47 43
22 48 44
22 48 44
22 47 43
22 48 43
22 47 43
22 48 43
22 48 44
22 48 43
22 47 43
21 47 42
22 48 43
22 48 43
22 48 43
22 48 43
22 48 43
22 48 43
22 48 43
22 49 44
22 49 44
22 49 44
22 47 42
14 19 19
15 16 18
64 60 55
96 90 82
96 90 82
106 99 90
105 97 89
74 72 66
22 49 44
22 49 44
22 49 44
22 49 44
23 50 45
23 49 45
23 50 45
22 49 44
23 49 45
21 47 43
20 45 41
21 47 43
20 45 41
21 46 42
21 46 42
21 46 42
20 45 41
21 47 43
21 46 42
21 46 42
21 46 42
21 46 42
21 46 42
21 46 42
20 45 41
21 46 42
21 47 43
21 46 42
21 46 42
21 46 42
21 47 43
21 47 43
21 47 43
21 47 43
21 47 43
21 47 43
21 47 43
21 46 42
21 46 42
21 46 42
22 47 43
21 47 43
21 47 43
21 47 43
21 46 42
21 46 42
21 46 42
21 47 43
22 48 44
22 48 44
21 46 42
21 47 43
21 47 43
22 49 44
22 48 44
21 47 43
22 48 43
22 48 43
22 47 43
22 48 44
21 47 43
22 48 43
21 47 43
21 47 43
21 47 43
22 47 43
21 47 43
22 48 44
22 48 43
22 49 44
21 47 43
23 50 45
21 47 43
22 48 43
22 48 43
22 47 43
21 47 43
21 46 42
22 48 43
22 48 43
22 48 43
22 48 44
22 48 44
22 48 43
22 47 43
22 48 43
22 48 43
22 48 44
22 49 44
22 48 43
22 49 44
22 49 45
22 48 43
22 49 44
22 48 43
22 48 43
22 49 45
22 48 43
22 49 44
22 48 44
21 47 42
22 48 43
22 49 44
22 48 43
22 48 43
22 48 43
22 49 44
22 48 43
22 47 43
21 47 42
22 48 43
22 48 44
18 38 34
6 9 9
5 7 8
24 24 22
44 43 38
40 41 36
48 47 42
20 41 37
22 47 42
22 49 44
22 48 43
22 49 44
23 50 45
22 49 44
22 48 44
22 49 44
22 49 44
21 46 42
21 45 42
21 46 42
21 46 42
21 46 42
21 45 42
21 46 42
20 45 41
21 46 42
20 45 41
20 45 41
21 46 42
20 45 41
21 46 42
21 46 42
21 46 42
21 46 42
21 46 42
21 46 42
21 46 42
20 45 41
20 45 41
21 47 43
21 46 42
21 46 42
20 45 41
21 47 43
21 47 43
21 47 43
21 46 42
21 46 42
22 48 44
21 47 43
22 48 44
21 47 43
21 47 43
21 47 43
21 47 43
21 46 42
21 47 43
21 46 42
22 47 43
21 47 43
22 47 43
21 47 43
21 47 43
21 46 42
21 47 43
21 47 43
21 47 43
21 47 43
22 47 43
22 48 43
21 47 43
22 47 43
21 47 43
21 47 43
22 49 44
22 48 43
21 47 43
22 47 43
21 47 42
21 47 43
21 47 42
22 48 43
21 47 43
22 48 44
22 48 43
22 48 43
22 49 44
22 48 44
22 48 44
22 48 44
22 49 44
22 49 44
21 47 43
23 49 45
22 48 43
22 47 43
22 49 44
22 49 44
21 47 43
21 47 42
22 48 44
22 48 44
22 49 44
22 47 43
22 48 44
22 48 44
22 49 44
22 48 43
22 48 43
21 47 43
22 48 43
22 48 44
22 48 44
22 48 44
22 48 44
22 47 42
22 49 44
21 46 41
21 45 41
19 41 37
16 34 31
11 24 22
3 8 7
2 5 4
1 3 3
4 10 9
16 35 31
21 45 40
22 46 41
22 48 43
22 48 43
23 50 45
22 48 44
22 48 44
22 48 44
22 49 44
23 49 45
21 46 42
20 45 41
21 46 42
20 45 42
20 45 41
21 47 43
21 46 42
21 46 42
21 46 42
21 46 42
20 44 40
21 46 42
21 46 42
20 45 41
21 46 42
21 47 43
21 46 42
21 47 43
21 46 42
21 46 42
20 45 41
20 45 41
21 47 43
21 45 41
20 45 41
21 46 42
21 47 43
21 47 43
21 47 43
21 46 42
21 47 43
21 47 43
22 48 43
21 46 42
21 46 42
21 46 42
21 46 42
21 47 43
21 46 42
21 46 42
22 47 43
21 46 42
21 47 42
22 48 44
22 49 44
21 47 42
22 48 43
21 47 43
21 46 42
21 47 43
21 46 42
22 48 44
22 48 43
22 48 43
21 47 43
21 47 43
22 47 43
22 48 44
22 48 43
22 48 43
21 47 42
22 48 44
22 48 44
22 48 43
21 47 42
22 48 44
21 47 43
22 48 44
22 48 44
22 49 45
22 48 43
22 48 43
21 47 43
22 48 43
21 46 42
21 47 42
21 47 43
22 48 44
22 48 43
22 48 43
21 46 42
22 48 44
22 49 44
22 47 43
22 49 44
23 49 45
22 48 43
22 49 44
21 47 43
22 48 44
22 48 44
22 49 44
23 50 45
22 49 44
22 48 44
22 49 44
22 47 43
22 48 43
21 47 42
22 47 42
21 47 42
19 41 38
15 33 32
12 28 27
10 25 24
11 26 25
9 22 21
10 23 22
10 24 23
12 28 27
18 40 36
21 46 41
21 46 41
21 46 42
22 48 43
22 49 44
22 48 43
22 48 43
23 50 45
22 48 44
21 46 42
21 46 42
20 45 41
21 46 42
20 45 41
20 45 41
21 46 42
21 47 43
20 45 41
20 45 41
21 46 42
21 46 42
21 46 42
21 45 42
21 46 42
21 46 42
21 47 43
21 47 43
21 46 42
21 46 42
21 46 42
21 46 42
21 46 42
21 46 42
21 46 42
21 46 42
21 47 43
21 46 42
21 46 42
21 47 43
21 46 42
21 46 42
22 48 43
21 46 42
21 47 43
22 48 44
21 46 42
22 48 43
22 48 44
21 46 42
21 46 42
21 47 43
21 45 42
22 47 43
21 46 42
21 47 43
22 48 44
21 46 42
22 48 44
22 48 43
21 47 43
22 48 43
21 47 43
21 47 43
22 48 43
22 47 43
21 47 43
22 48 44
22 49 44
22 47 43
21 47 43
22 48 44
21 47 43
22 48 43
21 47 42
21 47 43
22 48 44
22 48 44
22 48 43
21 47 43
22 48 43
22 48 43
22 48 43
22 48 44
22 48 44
21 47 43
22 48 44
22 49 44
22 48 43
22 49 44
22 48 44
22 48 44
22 48 43
22 48 43
23 49 45
22 47 43
22 48 44
22 49 44
22 49 44
22 49 44
23 49 45
22 49 44
23 50 45
22 48 44
22 48 43
22 48 44
22 49 44
22 47 43
22 48 43
22 48 43
22 48 43
22 48 43
21 46 42
19 43 39
19 42 38
18 40 37
19 41 38
18 41 38
19 42 39
20 44 40
21 45 41
22 47 43
22 48 43
22 48 43
23 49 45
22 48 44
22 49 44
22 47 43
22 48 43
22 48 44
21 46 42
21 46 42
21 46 42
20 45 41
21 47 43
21 46 42
20 45 41
21 46 42
21 46 43
21 46 42
21 46 42
21 46 42
21 46 42
21 46 42
20 45 41
21 46 43
20 45 41
21 46 42
21 46 42
21 47 42
21 47 43
21 46 42
21 46 42
20 45 41
21 46 42
21 46 42
21 45 41
21 47 43
21 47 43
21 46 42
20 45 41
21 46 42
21 46 42
21 47 43
21 47 43
21 46 42
21 46 42
21 47 43
21 46 42
21 47 43
21 47 42
21 47 43
21 47 43
22 48 44
21 47 43
22 48 44
21 47 42
21 46 42
22 47 43
21 47 43
21 46 42
21 47 43
21 46 42
21 47 43
22 47 43
22 48 44
21 47 43
22 48 44
21 47 43
22 48 43
22 48 43
22 48 44
21 47 42
22 48 43
21 47 43
21 47 43
21 47 43
21 47 43
22 48 44
22 48 43
22 48 44
21 47 43
22 47 43
22 47 43
22 48 43
22 47 43
22 48 43
22 49 44
22 48 44
22 49 45
21 47 43
22 47 43
22 49 44
22 47 43
21 47 43
22 48 43
22 48 43
22 49 44
22 47 43
22 48 44
22 48 44
22 49 44
22 48 44
22 49 44
22 47 43
22 49 45
22 48 43
21 47 42
22 49 44
22 49 45
22 47 43
22 48 43
21 47 43
22 48 43
22 48 44
21 47 43
22 48 43
22 48 43
22 49 44
22 48 44
22 49 44
22 48 43
22 48 44
22 48 43
22 47 43
22 49 45
22 49 44
22 49 44
22 48 43
22 49 44
20 45 41
21 47 43
21 47 43
21 46 42
21 47 43
21 46 42
21 46 42
21 46 42
21 46 42
21 46 42
21 46 42
21 46 42
20 45 41
21 47 43
21 46 42
21 46 42
21 46 42
21 45 42
21 45 41
21 46 42
21 47 43
20 45 41
21 47 43
21 46 42
21 46 42
21 46 42
21 47 43
21 46 42
21 45 41
21 46 42
21 45 41
21 46 42
21 47 43
21 47 43
21 46 42
21 47 42
21 46 42
21 45 41
21 47 43
21 47 43
21 45 41
21 47 43
22 48 44
21 45 41
21 47 43
21 47 43
22 47 43
21 47 43
22 48 44
21 46 42
21 47 42
22 48 43
22 48 43
22 48 43
21 47 43
22 48 43
21 46 42
22 48 44
22 48 44
22 47 43
22 48 43
21 47 42
21 47 43
22 49 44
21 47 43
22 48 43
21 46 42
22 48 44
22 47 43
22 47 43
22 48 43
22 48 43
22 48 44
22 47 43
21 47 42
22 48 44
22 49 45
21 47 43
22 48 44
21 47 43
22 47 43
22 48 43
22 48 44
22 48 44
22 48 44
22 48 43
22 48 43
21 47 43
22 49 44
23 50 45
22 49 44
22 49 44
22 48 43
22 47 43
22 48 44
21 47 42
22 48 43
22 49 44
23 49 45
21 47 42
21 47 43
22 48 43
22 47 43
22 47 43
22 48 43
22 48 43
22 49 44
22 48 44
22 47 43
22 48 44
22 47 43
22 47 43
22 48 44
22 48 44
21 47 43
23 49 45
22 48 44
22 48 44
22 49 44
23 50 45
20 45 42
20 45 41
20 45 41
20 45 41
21 46 42
21 46 42
21 46 42
21 47 43
21 46 42
21 46 42
20 45 41
21 47 43
20 45 41
21 46 42
21 46 42
20 44 40
21 46 42
21 46 42
21 47 43
21 46 42
21 46 42
21 46 42
21 46 42
20 45 41
21 47 43
21 46 42
20 45 41
21 46 42
21 46 42
21 47 43
21 47 43
21 46 42
21 46 42
21 47 43
21 46 42
21 46 42
21 47 43
21 46 42
21 47 42
21 47 43
20 45 41
21 46 42
21 47 43
21 47 43
21 47 43
22 47 43
21 47 43
21 46 42
21 47 43
21 46 42
21 47 43
22 48 44
21 47 43
22 48 44
22 48 44
21 46 42
22 48 44
21 47 43
22 48 44
21 47 43
21 47 43
22 48 43
21 47 43
22 48 44
21 47 43
22 47 43
21 47 42
21 47 43
21 47 43
21 46 42
21 47 43
22 47 43
22 49 44
21 47 43
22 48 43
22 48 43
21 46 42
22 48 43
21 47 43
22 48 44
22 49 44
22 48 44
22 48 44
21 47 43
22 48 44
22 48 43
21 47 42
21 47 43
22 48 43
22 47 43
22 48 43
22 48 44
22 48 44
22 48 44
22 48 44
22 48 43
22 48 44
22 48 44
22 48 43
22 48 44
22 48 44
22 48 44
22 49 44
23 50 45
23 50 45
22 48 44
22 48 44
22 48 44
21 46 42
22 48 43
22 48 44
22 48 44
21 47 43
22 48 43
22 48 43
22 48 44
22 49 44
22 49 45
22 49 44
22 49 44
20 45 41
20 45 41
20 45 41
20 45 41
21 46 42
20 45 41
20 45 41
21 47 43
21 47 43
20 44 41
21 47 43
21 47 43
21 46 42
21 47 43
20 45 41
20 45 41
20 45 41
21 46 42
20 45 41
21 45 41
21 46 42
21 46 42
21 47 43
21 46 42
21 46 42
21 46 42
20 45 41
21 46 42
21 46 42
21 46 42
22 48 43
21 47 43
21 46 42
20 45 41
21 46 42
21 46 42
21 46 42
21 46 42
22 48 43
21 47 43
21 47 43
21 46 42
21 46 42
21 47 43
21 45 41
21 47 43
22 48 44
21 47 43
21 46 42
22 48 44
21 46 42
22 48 44
21 47 43
21 46 42
21 47 43
21 47 43
21 46 42
21 46 42
21 47 43
21 47 42
21 46 42
21 46 42
21 47 43
22 48 44
21 47 43
22 47 43
21 47 43
22 48 43
22 47 43
22 48 43
21 47 43
22 48 44
22 48 43
21 47 43
22 48 43
21 47 43
21 46 42
22 48 43
21 47 43
22 48 44
21 47 43
22 48 44
21 47 43
21 47 42
22 47 43
22 47 43
22 48 43
22 48 44
22 48 44
22 49 44
22 47 43
21 46 42
22 48 44
22 48 43
21 47 43
22 49 44
22 48 43
22 48 44
22 48 44
22 48 43
22 48 43
22 49 44
22 48 43
22 48 43
22 48 44
23 49 45
22 49 44
22 47 43
22 49 44
22 48 43
22 47 43
22 49 45
22 48 43
22 48 44
22 48 44
22 48 43
22 47 43
22 48 43
22 49 44
22 47 43
21 46 42
20 45 42
20 45 41
20 45 41
21 46 43
20 45 41
21 46 42
21 46 42
21 45 42
20 45 41
21 47 43
21 46 42
21 46 42
20 45 41
21 46 42
21 46 42
21 46 42
20 45 42
20 45 41
21 46 42
21 46 42
21 47 43
20 45 41
21 46 42
21 46 42
20 45 41
21 47 43
21 46 42
20 45 41
20 45 41
21 47 43
21 46 42
21 46 42
20 45 41
21 46 42
21 46 42
21 47 43
21 46 42
21 46 42
21 47 43
20 45 41
21 46 42
21 47 43
22 48 43
21 47 43
22 47 43
21 47 43
21 46 42
21 47 42
21 46 42
21 47 43
21 46 42
21 47 43
21 47 43
21 47 42
21 47 43
21 47 43
21 47 43
21 46 42
21 47 43
21 46 42
21 46 42
22 48 44
21 46 42
22 48 44
21 47 43
22 48 43
21 47 42
22 48 44
21 47 43
21 47 43
21 47 43
22 48 43
21 47 43
21 47 42
21 47 43
22 49 44
22 48 44
22 48 44
22 47 43
22 47 43
21 47 43
21 47 43
22 48 43
22 48 43
22 48 44
22 48 44
21 47 43
21 47 43
22 48 43
22 48 44
22 48 43
22 47 43
21 47 43
22 48 44
22 47 43
21 47 43
22 47 43
22 48 44
22 48 43
22 49 44
22 48 43
22 49 44
21 46 42
22 48 43
22 48 44
22 48 44
22 48 44
22 47 43
22 47 43
22 47 43
22 47 43
22 49 45
22 47 43
22 47 43
22 47 43
22 48 44
22 49 44
22 48 43
22 48 44
20 45 41
21 46 42
21 46 42
20 45 42
21 47 43
20 45 41
20 45 41
20 45 41
21 46 42
20 44 41
20 45 41
20 45 41
21 46 42
21 46 42
20 45 42
20 45 41
21 46 42
21 46 43
21 46 42
20 45 41
21 46 42
20 45 41
21 47 43
21 46 42
21 48 43
21 46 42
21 46 42
20 44 40
21 46 42
21 47 43
21 46 42
21 46 42
21 46 42
20 45 41
20 45 41
21 46 42
21 46 42
21 46 42
21 47 43
21 46 42
21 46 42
21 46 42
21 46 42
20 45 41
21 47 43
21 47 43
22 47 43
21 47 43
21 47 43
22 48 43
21 46 42
21 47 43
22 48 44
21 46 42
21 47 43
21 47 43
21 47 43
21 47 43
21 47 43
21 47 43
21 47 43
21 47 43
21 46 42
21 46 42
21 46 42
21 46 42
21 47 43
21 47 43
22 49 44
21 47 43
22 48 43
21 47 43
22 48 43
22 48 43
21 47 43
22 48 44
22 48 44
22 48 43
22 47 43
22 48 44
22 48 44
21 47 43
21 47 43
21 47 43
21 47 43
22 47 43
21 47 43
21 47 43
21 47 43
21 47 43
21 46 42
21 47 43
22 48 44
21 47 43
21 47 43
22 48 44
22 48 44
21 47 43
22 48 44
22 48 44
22 48 44
22 48 43
21 47 43
22 48 43
22 48 44
21 47 43
22 47 43
22 48 44
22 49 44
22 48 44
22 48 43
22 48 44
22 48 43
22 49 44
22 48 43
22 49 45
22 49 44
22 48 44
21 47 43
22 49 45
21 47 43
20 45 42
21 47 43
21 45 42
20 45 42
20 45 42
21 47 43
21 46 42
20 45 41
20 44 41
21 45 42
20 46 42
21 46 42
21 47 43
21 46 42
21 47 43
21 46 42
21 45 42
21 46 42
20 45 41
20 45 41
20 45 41
20 45 41
21 47 43
21 46 42
20 45 41
21 45 41
21 47 43
21 46 42
21 46 42
21 46 42
21 47 43
21 46 42
20 45 41
21 46 42
21 46 42
21 46 42
21 47 43
21 46 42
21 46 42
21 46 42
21 46 42
20 45 41
21 46 42
21 46 42
21 46 42
21 45 41
21 47 43
21 47 43
21 47 43
21 47 43
21 47 43
21 46 42
21 46 42
21 47 43
21 47 43
21 47 43
21 46 42
21 47 43
21 47 43
22 48 43
22 47 43
21 47 43
21 46 42
21 46 42
21 47 42
21 46 42
21 47 43
21 47 43
22 48 44
22 48 44
21 47 43
21 47 43
21 46 42
22 48 44
21 47 43
22 48 43
22 48 44
21 46 42
21 47 42
21 47 43
21 47 43
21 47 43
21 47 43
22 47 43
22 48 44
21 47 43
22 48 43
21 47 43
22 48 44
22 47 43
22 48 44
22 48 43
22 48 44
21 46 42
21 47 43
22 47 43
22 48 43
21 47 43
21 47 43
22 48 44
22 48 43
21 47 43
21 47 43
22 48 44
21 47 42
21 47 43
22 48 44
22 48 44
22 47 43
22 48 44
21 47 43
22 47 43
22 48 44
22 49 44
21 47 43
21 47 43
22 48 44
22 49 44
22 48 43
21 46 42
20 45 41
21 46 42
20 44 41
20 45 41
21 47 43
20 45 41
20 45 41
20 45 41
20 45 41
20 45 41
20 45 42
20 45 41
21 47 43
21 47 43
21 46 42
21 46 42
21 46 42
20 45 42
20 45 41
20 45 41
20 45 41
21 46 42
21 46 42
21 46 42
21 46 42
21 47 43
21 46 42
21 46 42
21 46 42
21 46 42
21 46 42
21 46 42
21 47 43
21 47 42
21 47 43
21 47 43
22 48 43
21 47 43
21 47 43
21 46 42
21 46 42
20 45 41
21 46 42
21 46 42
21 47 43
21 46 42
21 46 42
21 46 42
21 47 43
21 46 42
21 46 42
21 46 42
21 46 42
21 46 42
21 46 42
21 47 43
21 47 43
21 46 42
21 46 42
21 47 43
22 48 43
21 47 43
22 48 44
21 47 43
22 48 43
21 47 42
21 46 42
21 45 41
21 47 43
21 47 43
21 47 43
20 45 41
21 47 43
21 45 41
21 47 43
22 48 44
22 48 44
21 46 42
22 48 43
21 46 42
22 48 43
21 47 43
21 46 42
22 48 44
21 46 42
21 47 43
21 47 43
22 47 43
21 47 43
22 48 43
21 47 43
21 47 43
21 47 43
21 47 43
21 47 42
22 48 44
21 47 42
22 47 43
22 48 44
21 46 42
22 49 44
22 48 44
21 47 43
22 48 44
22 47 43
22 48 44
22 48 44
22 48 44
21 47 42
22 49 44
21 46 42
22 48 43
22 49 44
22 49 44
22 49 44
22 48 44
22 47 43
22 48 44
21 47 43
21 46 42
21 46 43
20 45 41
21 46 42
21 46 42
20 45 42
20 45 42
20 45 41
20 45 41
20 45 41
21 46 43
20 45 42
20 45 41
21 46 42
21 47 43
20 45 41
21 46 42
20 45 41
21 46 42
21 46 42
21 46 42
21 47 43
20 45 41
20 45 41
21 46 42
21 47 43
21 46 42
21 46 42
21 46 42
21 46 42
20 45 41
21 46 42
21 46 43
21 46 42
20 45 41
20 45 41
21 47 43
21 47 42
21 46 42
21 47 43
20 44 41
21 46 42
21 47 43
21 46 42
21 46 42
21 47 43
21 47 43
20 45 41
21 47 43
21 47 43
21 46 42
21 45 41
21 47 43
21 47 43
21 47 43
21 47 43
20 45 41
21 47 43
21 46 42
21 47 43
21 46 42
22 48 43
21 47 43
22 48 43
21 46 42
21 47 43
21 47 42
22 48 43
21 47 43
22 48 43
21 45 41
22 48 44
21 47 43
21 47 43
22 48 44
21 46 42
21 46 42
21 46 42
21 47 43
21 47 43
21 46 42
21 47 43
21 47 43
21 47 43
21 47 42
22 48 43
21 46 41
21 47 43
21 46 42
21 46 42
22 48 44
22 48 43
21 47 43
22 47 43
22 48 44
22 49 44
21 47 43
21 47 43
22 47 43
22 48 44
22 48 44
22 47 43
21 47 43
21 47 43
22 47 43
22 48 43
22 48 43
22 48 44
22 47 43
22 47 43
21 47 43
22 47 43
21 47 43
21 47 43
22 48 43
21 47 43
22 49 44
22 49 45
21 46 42
22 47 43
20 45 41
21 46 42
20 45 41
20 45 42
20 45 41
21 46 42
20 45 41
21 46 42
20 44 41
20 45 41
21 46 42
20 45 41
20 45 42
21 46 42
20 44 41
20 45 42
20 45 41
21 46 42
21 45 42
21 47 43
21 46 42
20 45 41
21 46 42
20 44 41
20 45 41
21 46 43
21 47 43
21 47 43
21 47 43
21 47 43
21 47 43
20 45 41
21 46 42
21 46 42
21 46 42
21 46 42
21 46 42
21 46 42
21 46 42
21 46 42
21 46 42
21 46 42
21 46 42
21 46 42
21 47 43
21 46 42
21 47 43
21 46 42
21 46 42
21 46 42
21 46 42
21 47 43
21 46 42
21 45 41
21 46 42
21 46 42
21 46 42
21 47 43
21 47 43
22 48 44
21 46 42
21 47 43
21 47 43
21 47 43
21 47 43
21 47 43
21 46 42
22 48 44
21 47 43
22 48 43
21 47 43
22 48 44
21 47 42
21 46 42
21 47 42
21 47 43
21 46 42
21 47 42
21 47 43
22 48 43
21 46 42
21 46 42
21 47 42
21 47 43
21 46 42
21 47 43
21 47 43
21 47 42
22 48 44
22 48 43
22 48 44
22 48 44
21 47 43
22 48 43
21 47 43
22 48 44
21 47 43
21 46 42
21 47 43
21 47 42
22 48 43
21 47 43
22 47 43
21 47 43
21 47 42
21 47 42
22 48 44
22 49 44
22 48 43
21 47 43
22 48 43
22 48 44
21 47 43
22 48 43
21 47 43
21 46 42
21 46 42
22 47 43
22 48 44
22 48 43
21 46 42
21 46 42
21 46 42
21 46 42
20 44 40
20 45 41
21 45 42
21 46 42
21 46 42
20 45 41
21 46 42
20 45 41
21 46 42
20 45 41
20 45 41
20 45 41
21 46 42
20 44 41
21 45 42
21 46 42
21 46 43
21 46 42
21 46 42
21 46 42
21 45 41
21 47 43
20 44 41
21 46 42
21 45 42
21 46 42
21 46 42
21 45 42
21 46 42
21 46 42
21 46 42
21 47 43
21 46 42
21 46 42
21 47 43
21 46 42
21 46 42
21 46 42
21 47 43
21 47 43
21 46 42
21 47 43
21 46 42
21 46 42
20 45 41
21 46 42
22 48 43
21 47 43
21 46 41
21 46 42
21 47 43
21 46 42
21 46 42
21 46 42
21 47 43
21 47 43
21 47 43
21 46 41
21 46 42
22 48 44
21 46 42
22 47 43
22 48 44
21 47 42
21 46 42
21 47 43
21 46 42
21 46 42
20 45 41
21 47 43
21 46 42
21 47 43
22 48 44
21 47 43
21 47 43
21 47 43
22 48 43
21 47 43
22 49 45
21 46 42
22 48 44
21 47 42
21 47 43
21 47 42
21 47 43
21 47 43
21 46 42
21 46 42
21 46 42
21 47 42
21 47 43
21 47 43
22 47 43
21 47 43
21 47 42
22 49 45
21 47 43
22 48 44
21 46 42
21 46 42
22 48 43
21 46 42
22 48 44
21 46 42
22 48 43
22 48 43
21 47 43
22 49 44
21 47 43
22 47 43
21 47 43
21 46 42
22 47 43
22 48 43
22 48 44
22 48 43
21 46 42
20 44 41
20 45 41
21 46 42
21 46 42
20 45 42
20 45 41
21 46 42
20 45 41
20 45 41
20 45 41
20 44 40
20 45 41
20 45 42
20 45 42
21 46 42
21 46 42
21 47 43
20 45 41
21 46 42
20 45 42
20 45 41
20 45 41
21 46 42
21 46 42
21 47 43
21 45 42
20 44 41
20 45 41
21 46 42
21 46 42
21 47 43
21 47 43
20 45 42
21 46 42
21 46 42
20 45 41
22 48 44
21 46 42
21 46 42
21 46 42
20 45 41
21 46 42
21 46 42
20 45 41
21 46 42
21 46 42
21 47 43
21 46 42
21 46 42
21 46 42
21 47 43
22 48 44
22 48 44
21 47 43
21 46 42
21 46 42
21 46 42
22 48 44
21 46 42
21 45 42
22 48 44
21 45 42
21 46 42
21 47 43
21 47 43
21 46 42
21 46 42
21 47 43
21 47 43
21 47 43
21 47 43
21 47 43
21 46 42
21 47 43
21 46 42
21 47 43
21 46 42
21 47 43
21 46 42
21 46 42
21 47 42
22 47 43
21 46 42
21 46 42
21 46 42
21 47 42
22 47 43
22 48 44
22 47 43
21 47 43
21 47 43
21 46 42
21 47 43
21 47 42
21 47 42
21 47 43
21 47 43
21 47 42
21 46 42
21 46 42
22 47 43
22 47 43
22 48 43
21 46 42
21 46 42
22 48 44
21 47 43
21 47 42
22 47 43
21 47 43
22 48 44
21 47 42
21 46 42
21 47 42
22 47 43
21 46 42
22 48 43
22 48 43
21 47 43
20 45 42
20 45 41
20 45 41
20 45 41
20 45 41
20 45 41
20 44 41
20 46 42
20 45 41
21 46 42
20 45 42
20 45 42
21 46 42
21 46 42
20 45 41
21 46 42
20 45 41
21 46 42
21 46 42
21 46 42
21 46 42
21 45 42
21 46 42
20 45 41
20 45 42
20 45 42
21 46 42
21 46 43
20 45 41
21 46 42
21 46 42
21 46 42
20 45 41
21 46 42
20 45 41
21 46 42
21 46 42
21 47 43
20 45 41
20 45 41
21 46 42
21 47 43
21 46 42
21 46 42
22 48 44
21 47 43
20 45 41
21 46 42
21 46 42
21 46 42
21 47 43
21 47 43
21 47 43
21 46 42
21 46 42
21 47 43
21 46 42
21 46 42
20 44 41
21 46 42
21 46 43
21 47 42
20 45 41
21 46 42
21 46 42
21 46 42
21 47 43
21 47 43
21 46 42
21 46 42
22 48 44
22 48 44
21 47 42
21 47 43
21 47 43
21 46 42
21 47 43
21 46 42
21 47 43
21 46 42
21 46 42
21 46 42
21 46 42
22 48 43
21 47 43
21 46 42
21 47 43
21 47 43
21 47 43
21 46 42
22 47 43
21 47 43
21 47 43
22 48 44
21 47 42
22 47 43
22 47 43
21 46 42
21 47 43
21 47 42
22 48 44
21 47 43
21 47 43
22 48 43
22 48 44
22 48 44
21 47 42
21 47 43
21 47 43
22 48 44
22 48 43
22 47 43
21 46 42
22 47 43
21 46 42
21 47 43
22 47 43
22 47 43
22 48 43
21 46 42
20 45 41
20 45 41
21 46 42
20 44 40
21 47 43
20 45 41
21 46 42
20 45 41
21 47 43
20 45 42
20 45 41
20 45 41
20 45 41
20 44 41
21 46 42
20 45 41
20 45 41
20 45 41
21 47 43
20 45 41
21 47 43
20 45 42
20 45 42
20 45 41
21 46 42
21 46 42
21 46 42
21 46 42
20 45 41
20 45 42
21 45 42
20 45 41
20 44 40
20 45 41
20 45 41
21 46 42
21 46 42
21 46 42
21 46 42
20 45 41
21 46 42
21 46 42
21 46 42
21 46 42
21 46 42
21 46 42
21 46 42
21 47 43
21 46 42
21 47 43
21 46 42
21 46 42
21 45 41
21 46 42
20 45 41
20 45 41
21 46 42
21 47 43
21 46 42
21 46 42
21 47 43
21 47 43
21 46 42
21 45 41
21 47 43
21 46 42
21 46 42
21 46 42
21 47 43
21 46 42
20 45 41
21 46 42
21 46 42
21 47 43
21 46 42
21 45 41
21 46 42
21 46 42
21 47 43
21 46 42
21 46 42
21 47 42
21 47 43
22 48 43
21 47 43
22 47 43
22 47 43
21 47 43
21 47 43
21 47 43
22 47 43
21 47 43
22 48 43
21 47 43
22 47 43
22 47 43
22 48 44
22 49 44
22 48 44
21 47 43
22 49 44
21 46 42
21 46 42
21 46 42
21 46 42
22 47 43
22 48 43
22 48 43
22 47 43
21 46 42
22 47 43
22 48 44
22 48 44
21 47 43
22 48 44
22 47 43
21 47 43
22 48 43
21 46 42
22 47 43
20 45 41
20 45 42
20 44 41
20 45 41
19 43 40
20 44 41
20 45 42
20 44 41
20 45 41
20 45 41
20 44 41
20 44 41
20 45 41
20 45 41
21 46 42
21 46 42
20 45 41
21 46 42
20 45 41
21 47 43
21 46 42
20 45 41
20 45 41
21 46 42
20 45 42
20 45 41
21 46 42
21 46 42
20 44 41
20 44 41
20 45 42
21 46 42
21 46 42
21 46 42
21 46 42
21 45 42
21 47 43
21 46 42
21 46 42
21 45 42
21 46 42
21 46 42
21 46 42
21 46 42
21 46 42
21 46 42
21 46 42
21 46 42
20 45 41
21 47 43
21 46 42
21 46 42
21 46 42
21 46 42
21 46 43
21 47 43
21 46 42
21 46 42
21 45 41
21 47 43
21 46 42
21 45 41
21 47 43
21 46 42
21 47 43
21 46 42
21 46 42
20 45 41
21 46 42
21 46 42
21 47 43
20 45 41
21 46 42
21 45 42
21 46 42
21 47 43
22 48 44
21 47 43
21 47 42
21 47 42
21 46 42
21 47 42
21 45 41
21 46 42
21 47 43
21 47 43
21 46 42
21 47 43
21 47 43
21 46 42
22 47 43
21 46 42
21 47 42
21 46 42
21 46 42
22 48 43
22 48 44
22 47 43
21 47 42
21 46 42
21 46 42
22 48 43
21 46 42
22 47 42
22 47 43
21 47 42
22 47 42
22 48 44
22 47 42
22 47 43
22 47 43
21 46 42
22 47 42
22 47 43
22 47 43
22 48 43
22 47 43
22 47 43
22 47 43
22 48 43
20 44 41
20 45 41
20 45 41
20 45 41
20 44 41
20 44 41
20 45 41
21 47 43
20 45 41
20 45 41
21 46 42
20 45 41
20 45 41
20 45 41
20 44 40
20 45 42
20 45 41
20 45 41
20 45 41
21 46 42
21 46 42
21 47 43
21 46 42
20 45 42
20 44 41
20 45 41
20 45 41
20 44 41
20 44 40
21 45 42
21 46 42
21 46 42
21 46 42
21 46 42
21 46 42
21 46 42
20 45 41
21 46 42
21 46 42
20 45 41
21 46 42
21 47 43
20 44 41
20 45 41
21 47 43
21 47 43
20 45 41
21 46 42
21 47 43
20 45 41
21 46 42
21 45 41
20 45 41
21 47 43
21 46 42
21 46 42
21 46 42
21 46 42
21 46 42
21 46 42
21 45 42
21 46 42
21 46 42
21 47 43
21 47 43
21 46 42
21 46 42
21 47 43
20 45 41
21 46 42
21 46 42
21 46 42
21 47 43
21 46 42
21 47 42
20 45 41
21 47 43
21 46 42
20 45 41
21 46 42
21 45 41
21 46 42
21 46 42
21 45 42
21 47 43
21 47 43
21 46 42
21 46 42
21 46 42
21 46 42
22 48 44
22 47 43
22 47 43
22 47 43
22 47 43
22 47 43
21 46 42
22 47 43
22 47 43
22 47 43
22 46 42
22 48 44
22 46 42
22 47 43
22 47 43
22 47 42
22 47 43
22 47 43
22 47 42
22 48 44
22 47 43
22 47 43
22 47 43
23 48 44
22 47 43
22 47 43
22 47 42
22 48 43
22 48 43
23 49 44
20 44 40
20 45 42
21 46 42
20 46 42
20 44 41
20 45 41
20 45 41
20 44 41
21 46 42
21 46 42
21 46 42
20 45 41
21 46 42
20 44 40
20 45 41
21 47 43
21 46 42
20 45 41
21 46 42
21 46 42
20 44 41
21 46 42
21 46 42
20 44 40
20 45 41
21 46 42
21 46 42
21 47 43
20 45 41
21 46 43
21 46 42
20 45 42
21 46 42
20 45 41
20 45 41
21 46 42
21 45 42
21 46 42
20 45 42
21 46 42
21 46 42
20 45 41
21 46 42
20 45 41
21 46 42
20 45 41
21 46 43
21 47 43
21 45 42
21 47 43
21 45 42
21 46 42
21 48 43
21 46 42
20 44 41
21 46 42
21 47 42
21 47 43
21 46 42
21 46 42
20 45 41
20 45 41
20 45 42
21 46 42
21 46 42
21 46 42
20 45 41
21 46 42
21 46 42
21 47 43
21 46 42
21 46 42
21 46 42
20 45 41
21 46 42
21 45 42
21 47 43
21 45 41
21 46 42
21 46 42
21 47 43
21 47 43
22 47 43
21 46 42
22 48 44
20 45 41
21 46 42
22 47 43
21 47 43
21 46 42
22 47 42
21 46 42
22 48 44
22 47 43
22 47 43
22 47 43
22 47 43
22 46 42
22 47 43
22 47 43
21 45 41
22 47 43
22 47 42
23 48 44
22 46 42
24 50 46
22 47 43
22 47 43
21 45 41
22 47 43
22 47 43
22 47 43
22 46 42
22 46 42
22 46 42
22 47 43
23 48 44
22 47 43
22 47 43
22 47 42
20 44 40
20 45 41
20 45 41
21 46 42
20 44 40
20 44 40
20 45 41
20 45 41
21 46 42
20 44 40
20 45 41
20 45 42
20 45 41
21 46 42
20 45 41
20 45 41
20 45 42
20 45 42
20 45 41
21 45 42
20 45 41
21 46 42
21 46 42
21 46 42
20 45 41
20 44 40
20 45 41
21 46 43
20 44 40
20 46 42
20 44 41
20 45 41
20 45 41
21 47 43
21 47 43
21 47 43
21 46 42
21 46 43
21 47 43
20 45 42
20 45 42
21 46 42
20 45 41
20 45 42
21 47 43
21 46 42
21 46 42
21 45 42
20 45 41
21 46 42
20 45 41
21 47 43
21 47 43
21 47 43
20 45 41
21 47 43
20 45 41
21 46 42
20 45 42
21 46 42
21 45 41
21 47 43
21 46 42
21 47 43
20 45 41
21 45 42
20 45 41
20 45 41
21 47 43
21 46 42
21 47 43
21 46 42
21 45 41
21 47 43
21 47 43
21 46 42
21 46 42
21 46 42
21 47 43
21 46 42
21 46 42
21 45 41
21 46 42
22 47 43
21 46 42
22 47 43
21 46 42
22 47 43
22 47 43
22 47 43
22 47 43
22 46 42
22 48 44
23 49 44
22 46 42
23 48 44
22 46 42
22 47 43
22 47 43
23 48 44
23 48 44
22 47 43
23 47 43
22 46 42
22 46 42
23 47 43
23 47 43
23 47 43
22 46 42
23 47 43
23 47 43
23 47 43
23 48 44
23 47 43
23 48 43
23 48 44
23 47 43
23 49 44
23 48 44
23 48 43
20 45 41
20 45 41
20 45 42
20 45 41
21 46 42
21 47 43
20 45 41
20 45 42
20 45 42
21 46 42
20 44 41
21 46 42
21 47 43
20 45 41
20 44 41
20 45 41
20 45 42
20 45 41
20 45 41
21 46 42
20 45 41
20 45 41
21 46 42
21 46 42
21 46 42
20 45 41
20 45 41
20 45 41
21 47 43
21 46 42
21 46 42
21 46 42
20 45 41
20 44 40
21 46 42
20 45 42
21 46 42
20 45 41
20 44 41
21 46 42
21 46 42
21 45 42
20 45 41
20 45 41
20 44 41
21 47 43
21 46 42
20 45 41
21 46 42
20 45 41
21 46 42
20 45 41
21 45 42
20 45 41
21 46 42
20 45 41
20 44 41
21 46 42
20 45 41
21 46 42
21 46 42
21 46 43
20 45 41
21 46 42
21 47 43
21 46 42
21 46 42
21 46 42
21 47 43
21 46 42
21 46 42
21 46 42
21 47 43
20 45 41
21 46 42
21 46 42
21 46 42
21 46 42
21 46 42
21 46 42
21 46 42
21 45 42
21 46 42
22 47 43
21 46 42
21 46 42
21 46 42
21 45 41
22 47 43
22 46 42
22 46 42
22 47 43
22 46 42
22 46 42
22 47 43
22 47 43
23 47 43
22 46 42
23 48 44
22 45 41
23 48 44
23 47 43
23 48 44
23 47 43
23 46 42
23 47 42
24 48 44
23 46 42
24 48 44
23 47 43
23 47 43
24 48 43
24 49 44
23 47 43
24 48 43
23 47 43
23 47 43
24 48 44
24 48 43
24 49 44
20 45 42
20 44 41
20 44 41
21 46 42
21 46 42
20 45 41
21 46 42
20 45 41
20 44 40
20 45 41
20 45 41
20 45 42
20 45 41
20 44 41
20 45 42
21 46 42
20 45 41
20 44 40
20 45 41
20 45 41
20 45 42
20 45 41
20 45 41
20 44 40
20 45 41
20 45 41
20 45 41
21 46 42
20 44 41
20 45 41
21 46 42
20 45 41
20 45 41
21 45 42
21 46 42
20 45 42
20 45 41
20 45 41
20 45 41
21 47 43
21 46 42
21 46 42
21 46 42
20 45 42
21 46 42
21 46 42
20 45 41
20 45 41
20 45 41
21 47 43
20 45 41
20 45 41
20 45 41
20 45 41
21 46 42
20 45 41
21 46 42
21 46 42
21 46 42
21 47 43
21 47 43
21 47 43
20 45 41
21 47 43
20 45 41
21 45 42
21 46 43
21 46 42
21 46 42
21 46 42
21 46 42
21 47 43
21 46 42
21 46 42
21 45 41
21 47 43
21 46 42
21 46 42
21 45 41
22 47 43
22 49 44
21 46 42
22 47 43
22 46 42
21 46 42
22 46 42
22 47 42
22 47 43
22 48 44
22 46 42
23 47 43
23 47 43
22 47 43
22 46 42
23 47 43
22 46 42
23 47 43
24 48 44
23 48 43
23 47 43
24 47 43
24 47 43
24 47 43
23 46 42
24 48 43
24 48 43
24 48 44
25 49 44
24 48 44
24 48 43
24 48 43
24 47 43
25 48 44
24 46 42
24 48 43
24 48 43
25 48 44
25 49 44
24 47 43
24 48 43
20 45 41
20 45 42
20 45 41
20 45 41
20 44 41
20 46 42
20 44 40
20 44 40
20 46 42
20 44 41
20 45 42
20 45 41
20 43 40
19 43 40
20 45 42
21 47 43
20 45 41
20 44 41
20 44 41
20 45 42
21 46 42
21 46 43
20 45 41
20 44 40
20 45 41
20 45 41
20 45 41
20 45 42
21 46 42
20 44 41
20 45 41
21 46 42
20 45 42
21 46 42
20 45 41
20 45 41
20 45 41
20 45 41
21 46 42
20 44 40
20 45 42
20 45 41
20 44 41
20 45 41
20 45 41
21 46 42
21 46 42
21 46 42
20 45 41
21 46 42
21 46 42
20 45 41
20 45 41
20 45 41
21 46 42
20 45 41
20 45 41
20 45 41
21 46 42
21 46 42
21 46 42
21 46 42
21 46 42
21 46 42
21 46 42
21 45 42
21 47 43
21 46 42
21 46 42
21 46 42
21 47 42
21 47 43
21 47 43
21 46 42
21 46 42
21 45 42
21 47 43
21 46 42
21 45 41
22 47 43
22 47 43
21 46 42
22 47 43
22 46 42
22 46 42
22 47 43
22 46 42
22 46 42
22 46 42
22 46 42
23 47 43
23 46 42
23 47 43
23 47 43
24 48 43
24 48 43
23 46 42
24 47 43
24 47 43
24 47 43
25 48 44
24 46 42
25 47 43
25 48 44
25 48 44
25 48 43
25 48 43
25 48 43
25 48 43
26 49 44
26 50 45
26 48 44
25 48 44
25 48 44
26 48 44
27 51 46
26 48 44
25 47 43
26 49 44
26 49 45
20 45 41
20 45 41
21 46 42
20 44 41
21 46 42
21 47 43
20 44 41
20 45 41
21 46 42
20 45 42
20 46 42
21 46 42
20 45 41
20 45 41
20 44 40
20 44 41
20 44 40
20 44 41
20 44 41
20 44 41
20 44 41
20 45 42
21 46 42
21 46 42
21 47 43
20 44 40
20 45 42
19 43 40
20 45 41
20 45 41
20 45 41
21 46 42
20 45 41
20 45 42
20 45 42
20 45 42
21 47 43
20 45 41
21 46 42
20 45 42
20 44 41
21 46 42
21 45 42
20 45 41
20 45 41
21 47 43
20 45 41
21 46 42
21 46 42
20 45 41
21 45 42
21 45 42
21 46 42
21 46 42
20 45 41
21 46 42
21 46 42
21 47 43
21 46 42
21 46 42
21 46 42
20 44 40
20 44 40
20 45 41
20 45 41
21 47 43
20 45 41
21 47 43
21 46 42
21 46 42
20 45 41
21 45 41
21 46 42
22 48 43
21 46 42
21 46 42
22 47 43
22 46 42
21 46 42
22 47 43
22 46 42
22 47 43
22 47 43
22 47 43
22 46 42
23 47 43
22 46 42
23 47 43
23 47 42
23 47 43
23 46 42
24 48 44
24 48 43
24 48 44
24 47 43
24 47 43
25 48 43
25 47 43
25 48 44
25 47 43
25 48 43
26 48 44
26 48 43
26 49 45
26 49 44
26 48 44
26 48 44
27 49 44
27 48 44
27 49 44
27 48 44
27 50 45
27 48 44
27 49 45
27 50 45
27 50 45
27 49 44
27 49 44
27 49 44
27 49 45
20 43 40
20 44 41
20 45 41
20 45 41
20 45 41
20 44 40
20 44 41
20 45 41
20 45 41
20 45 41
20 45 41
21 46 42
20 45 41
20 45 42
20 44 41
20 44 41
20 45 41
20 44 41
20 45 41
20 44 40
20 45 41
21 46 42
21 46 42
20 45 42
20 45 41
20 44 40
20 45 42
20 45 41
20 45 42
20 44 41
21 46 42
20 45 41
21 45 42
20 44 41
20 44 41
20 45 42
21 46 42
21 46 43
21 46 42
20 45 41
21 46 42
20 45 41
21 46 42
21 46 42
20 45 41
21 46 42
20 45 41
21 46 42
21 46 42
21 47 43
20 45 41
21 46 42
21 47 43
21 47 43
21 47 43
20 44 41
20 44 41
21 46 42
20 45 41
20 45 41
21 46 42
21 46 42
21 46 42
21 46 42
21 46 42
21 47 43
21 46 43
21 46 42
21 46 42
21 46 42
21 46 42
21 46 42
21 46 42
22 47 43
21 46 42
22 46 42
22 46 42
21 45 41
22 47 43
22 47 43
22 46 42
22 47 42
23 47 43
23 47 42
23 47 43
23 46 42
24 48 43
23 46 42
25 49 45
24 47 43
24 46 42
25 48 44
25 48 44
25 48 44
25 48 44
26 48 44
26 48 44
26 49 44
26 47 43
27 50 45
27 48 44
27 48 44
27 48 44
28 49 44
28 49 45
28 49 44
28 49 44
28 49 44
28 48 44
29 51 46
29 50 45
29 50 45
28 49 44
29 50 45
28 48 44
29 49 45
28 49 44
29 50 45
28 50 45
28 50 45
20 44 41
20 45 42
20 44 40
20 44 41
20 44 40
19 43 40
20 45 41
20 44 41
20 44 40
20 44 41
20 44 41
20 45 41
20 45 41
20 44 40
20 44 41
20 45 41
20 44 41
20 45 41
20 45 42
20 45 41
20 44 41
20 45 41
20 45 41
20 45 41
21 46 42
20 45 41
20 45 41
20 44 41
20 45 41
21 46 42
20 45 41
20 44 40
20 45 41
20 45 41
20 45 41
20 45 41
20 44 40
20 45 42
20 45 42
20 44 40
20 44 41
21 46 42
20 44 41
20 44 41
20 44 41
21 46 42
20 45 41
20 44 40
20 44 41
20 45 41
20 45 41
21 46 42
21 46 42
21 46 42
21 46 43
20 45 41
21 46 42
20 45 41
21 46 42
21 45 41
21 46 42
21 46 42
21 47 43
20 44 40
21 47 43
21 46 42
21 45 41
21 45 42
21 46 42
22 47 43
22 47 43
21 46 42
22 46 42
21 45 41
22 46 42
22 47 43
21 45 41
22 46 42
22 46 42
22 46 42
23 46 42
23 48 44
23 47 42
23 47 43
24 47 43
24 47 43
24 46 42
24 47 43
25 47 43
25 48 43
25 48 43
25 47 43
26 49 44
26 48 44
27 49 44
27 49 44
28 50 45
27 48 44
28 49 44
28 49 45
28 48 43
29 51 46
29 50 45
29 50 45
29 50 45
30 51 46
30 50 45
30 51 46
30 51 46
31 51 46
31 51 46
30 50 45
30 50 45
30 50 45
31 51 46
31 51 46
30 50 45
30 50 45
30 50 45
30 50 45
20 44 40
20 46 42
20 45 42
20 45 41
20 45 41
20 44 40
20 45 42
20 45 41
20 45 41
20 45 41
20 44 40
20 45 41
20 44 41
20 44 40
20 45 41
20 44 41
20 45 42
21 46 42
21 46 43
20 45 41
21 46 42
20 45 42
20 45 42
19 43 39
20 45 42
20 45 42
20 45 41
20 45 41
21 46 43
20 44 41
21 46 42
21 46 42
20 45 41
20 45 41
21 46 42
21 46 42
20 45 41
20 44 41
20 45 42
21 46 42
21 46 42
21 46 42
21 46 43
20 45 41
20 45 41
20 44 41
21 46 42
20 45 41
20 45 41
21 46 42
20 44 41
20 45 41
21 46 42
21 46 42
20 45 41
20 45 41
20 45 41
20 45 41
21 46 42
21 46 42
21 46 42
21 45 41
20 45 41
21 45 41
21 45 42
21 45 41
21 46 42
21 45 41
21 45 41
21 45 41
21 46 42
21 45 42
22 47 43
21 45 41
22 46 42
22 46 42
22 46 42
23 47 43
22 46 42
23 46 42
23 46 42
23 47 42
24 47 43
24 47 42
24 48 43
25 48 44
25 48 44
26 48 44
26 48 43
26 48 43
27 50 45
27 48 44
27 49 44
27 48 44
28 49 44
29 50 45
29 50 45
29 50 45
30 50 45
30 50 45
30 50 45
31 51 46
31 50 45
31 49 44
32 51 46
31 50 45
32 51 46
32 51 46
33 52 47
33 52 47
32 50 45
33 51 46
33 53 47
33 52 46
33 52 46
33 51 46
33 52 46
33 51 46
32 51 46
32 50 45
20 45 41
20 45 41
20 45 42
20 44 41
20 44 41
20 44 41
20 45 41
20 46 42
20 45 41
21 46 42
20 45 41
20 44 41
21 46 42
20 44 40
20 44 41
21 46 42
20 45 41
20 45 41
20 45 41
19 43 40
20 44 41
20 45 41
21 46 42
20 45 41
21 46 42
20 43 40
20 44 41
20 45 41
21 46 42
20 45 41
20 45 42
20 44 41
21 46 42
20 45 42
20 44 41
20 44 40
20 45 42
20 44 41
21 46 42
20 45 41
20 45 41
21 46 42
21 46 42
20 45 41
21 46 43
21 47 43
20 44 40
21 46 42
20 45 41
20 44 40
20 45 41
20 45 41
21 45 42
21 46 42
20 45 41
21 46 42
21 45 41
20 45 41
20 45 41
21 47 43
21 45 41
20 45 41
21 46 42
21 46 42
21 45 41
21 45 41
22 47 43
21 45 41
21 45 41
22 46 42
22 46 42
22 48 43
22 47 43
22 46 42
22 46 42
22 46 42
23 46 42
23 48 43
23 47 43
24 48 43
24 48 44
24 47 42
24 47 43
25 47 43
25 48 43
25 46 42
26 48 43
27 49 44
26 47 43
28 49 44
28 49 44
29 50 45
29 49 44
29 49 44
30 50 45
30 49 45
30 50 45
31 50 45
32 51 46
32 51 46
33 52 47
33 52 47
33 51 46
33 52 47
33 51 46
34 53 47
34 52 47
34 52 47
35 53 47
35 54 48
35 53 47
35 53 48
35 54 48
36 54 49
36 54 48
36 54 48
35 52 47
35 53 48
35 53 47
35 53 47
20 44 40
20 45 42
21 46 42
20 44 41
20 44 41
20 45 41
20 44 41
20 44 41
20 45 42
20 44 41
20 45 41
20 45 41
20 45 41
20 44 41
20 45 41
20 44 41
20 44 41
20 45 41
21 46 42
21 46 42
20 45 41
20 44 41
20 45 41
20 45 41
20 45 41
20 45 41
20 45 41
20 45 41
20 45 41
21 46 42
21 45 42
20 44 41
20 45 41
20 44 41
20 44 41
20 44 41
20 45 42
20 46 42
20 45 41
20 45 42
20 45 41
21 47 43
21 45 42
20 45 42
20 45 42
20 44 40
20 44 41
21 46 42
21 46 42
20 44 40
20 44 41
20 45 41
20 45 41
20 45 42
20 45 41
21 46 42
20 45 41
21 47 43
20 45 41
21 46 42
21 46 42
21 47 43
21 46 42
21 45 41
21 47 43
22 47 43
21 45 42
22 46 43
22 47 43
22 47 43
21 45 41
22 46 42
22 46 42
22 46 42
23 47 43
23 47 43
24 47 43
23 46 42
24 48 43
24 47 43
25 47 43
25 47 43
26 49 44
26 48 43
27 49 44
27 49 44
27 48 43
28 49 44
28 49 45
29 50 45
29 49 44
30 50 45
31 50 45
31 50 45
32 51 46
32 50 45
33 51 46
33 51 46
33 51 45
34 52 47
35 52 46
35 53 47
36 54 49
36 52 47
37 54 49
37 54 48
37 54 48
37 54 48
38 54 49
38 54 48
38 54 48
38 53 48
38 54 48
38 54 49
38 54 48
38 53 48
38 55 49
38 55 49
38 56 50
38 54 49
20 44 41
20 45 41
21 46 42
20 44 41
20 45 41
20 44 40
20 43 40
20 44 41
20 44 41
20 45 41
20 44 41
20 44 40
20 44 41
20 45 41
20 45 42
21 46 42
21 46 42
20 45 41
21 46 42
21 46 42
20 44 40
20 44 40
20 44 41
20 44 40
20 45 41
20 45 41
19 43 40
21 46 42
21 46 42
21 46 42
21 46 42
20 45 41
20 44 40
21 46 42
21 46 42
20 45 41
21 46 42
21 46 42
20 45 42
21 46 42
20 45 41
20 45 41
20 45 41
21 46 42
21 46 42
20 45 42
20 45 42
21 46 42
20 45 42
20 45 41
21 46 42
21 45 42
21 46 42
21 46 42
20 45 41
20 44 40
21 46 42
20 45 41
21 45 41
21 46 42
21 45 41
21 46 42
21 45 42
21 45 41
21 45 41
21 46 42
21 45 41
21 45 41
21 45 41
22 45 42
22 46 42
22 45 41
23 46 42
23 46 42
23 47 43
24 47 43
24 47 43
25 48 44
25 47 43
25 48 44
26 48 44
26 47 43
27 49 45
27 48 44
27 47 43
29 50 45
29 50 45
29 49 45
30 51 46
31 51 46
31 50 45
32 50 45
32 51 46
33 52 47
34 52 47
35 53 47
35 52 46
35 52 46
36 53 48
36 53 47
37 53 47
38 54 49
38 54 48
39 55 49
39 55 49
40 56 50
40 57 50
40 55 49
40 56 50
41 57 51
41 56 50
41 56 50
41 57 51
41 57 51
41 56 50
41 56 50
41 55 49
41 56 50
41 56 50
41 56 50
20 45 41
20 45 41
20 44 41
20 44 40
20 45 41
20 44 41
20 44 41
20 45 41
20 45 41
20 45 42
20 45 41
20 45 41
20 45 42
20 45 41
20 45 41
20 45 41
20 45 41
20 45 41
20 44 41
20 45 42
20 46 42
20 45 41
21 46 42
20 44 41
20 45 41
21 46 42
20 43 40
20 44 40
20 45 41
20 44 41
21 46 43
20 45 41
21 46 42
20 44 41
20 44 40
20 45 41
20 44 40
20 45 41
20 45 42
21 46 42
21 46 42
21 46 42
20 44 41
21 46 42
20 44 40
20 44 41
20 45 41
20 44 41
20 45 41
21 47 43
20 45 41
21 46 42
21 46 42
21 45 42
20 45 41
21 46 42
20 45 41
20 45 41
20 44 40
21 46 42
21 45 41
21 46 42
21 45 42
22 47 43
21 45 41
22 47 43
21 45 41
22 46 42
22 46 42
22 46 42
22 44 41
23 46 42
23 47 43
24 47 43
24 47 43
25 48 44
25 48 44
25 48 44
26 48 44
26 48 43
27 48 44
27 47 43
28 48 43
29 49 44
29 50 45
30 50 45
30 50 45
31 51 46
32 50 45
32 50 45
33 51 46
34 52 47
35 53 48
35 52 47
36 54 48
37 54 49
38 54 48
38 54 48
39 55 49
40 56 50
41 57 51
41 56 50
41 56 50
42 58 51
42 56 50
43 57 51
43 57 50
43 57 51
44 58 51
44 58 51
44 57 51
44 59 52
45 59 52
45 59 52
45 59 52
44 57 51
44 58 52
44 59 52
45 60 53
44 58 52
20 44 40
19 43 40
19 43 40
20 44 40
20 45 41
20 44 40
20 45 42
20 45 42
20 44 41
20 45 41
20 44 40
20 44 41
20 44 41
20 44 41
19 43 40
20 45 41
20 45 41
20 45 42
20 44 41
20 45 41
20 45 41
20 44 40
20 45 42
20 45 41
20 44 40
20 45 42
20 45 42
20 45 41
21 46 42
20 45 42
21 46 42
20 45 41
20 44 40
20 44 41
20 44 40
20 45 41
20 45 41
20 45 41
20 45 42
21 46 42
20 44 41
20 44 40
20 44 41
20 44 41
20 45 41
21 46 42
20 45 41
20 45 41
21 46 42
20 45 41
21 46 42
20 44 41
21 45 41
20 45 41
20 45 41
21 45 41
21 45 42
21 46 42
21 46 43
21 47 43
21 45 42
22 46 42
21 46 42
22 46 42
21 45 41
21 45 41
22 45 41
22 46 42
22 46 42
23 46 42
23 46 42
24 48 43
24 47 43
24 46 42
24 46 42
25 46 42
26 48 43
26 48 43
27 48 44
27 48 43
28 49 45
29 49 45
29 49 44
30 49 44
31 51 46
31 50 45
33 52 47
33 51 46
34 51 46
35 53 47
35 53 47
36 53 48
37 54 48
38 54 48
38 54 48
40 55 49
40 55 49
41 56 50
42 56 50
42 56 50
43 58 52
44 57 51
44 58 51
45 59 52
46 60 54
46 59 52
46 59 52
47 60 53
47 60 53
47 59 53
48 60 53
48 61 54
48 61 53
48 61 54
48 61 54
48 60 53
48 61 54
48 61 54
48 61 54
47 60 53
19 43 40
20 44 41
20 45 41
20 44 40
20 45 41
20 44 41
20 44 40
20 44 41
20 45 41
20 45 41
20 45 41
20 45 41
20 45 41
20 44 40
20 45 42
20 45 42
20 45 41
20 44 41
20 44 40
20 45 41
20 44 40
20 45 42
21 47 43
20 44 41
21 46 42
21 46 42
21 46 42
21 46 42
20 45 41
20 44 40
19 43 40
20 45 41
20 44 41
20 44 41
20 44 41
20 45 41
20 45 41
21 46 42
20 45 41
20 45 42
21 46 42
20 45 42
21 46 42
21 46 42
20 45 41
20 45 41
20 45 41
20 44 41
21 45 42
21 46 42
21 45 42
20 45 41
21 45 42
20 44 40
20 45 41
20 44 40
21 45 41
21 45 41
22 47 43
21 45 41
21 45 41
22 47 43
22 46 42
21 45 41
23 47 43
22 46 42
23 47 43
22 45 42
23 46 42
23 45 41
24 47 43
24 47 43
25 47 43
25 47 43
26 48 44
26 48 44
26 47 43
27 49 44
28 50 45
29 49 44
30 50 46
30 50 46
31 50 45
32 52 47
33 52 47
33 50 45
34 51 46
35 53 47
36 54 48
37 53 48
38 53 48
39 55 49
40 56 50
40 56 50
41 56 50
42 58 51
43 58 51
44 58 52
45 58 52
45 59 52
46 60 53
47 60 53
48 60 53
48 61 54
49 61 54
50 62 55
50 62 55
50 62 55
51 62 55
51 63 55
51 62 55
51 63 56
51 63 55
51 62 55
52 64 56
51 62 55
52 64 56
51 63 55
51 62 55
51 63 56
20 45 41
20 44 41
20 45 41
20 44 41
20 44 40
20 45 42
20 44 40
20 44 41
20 44 41
20 44 40
20 44 40
20 44 41
20 45 41
20 44 41
20 45 41
20 44 41
20 43 40
20 44 41
20 44 41
20 45 41
20 44 41
20 44 40
20 44 41
20 45 42
20 45 41
20 45 41
20 45 42
20 46 42
20 45 41
20 45 41
20 45 41
20 45 41
20 44 40
20 45 42
20 45 41
20 45 41
20 45 41
20 45 42
20 44 41
20 43 40
21 46 42
20 45 41
20 45 41
20 45 42
20 44 40
21 45 42
21 46 42
20 45 41
20 45 41
21 46 43
20 44 40
21 47 43
21 47 43
21 46 42
21 46 42
21 46 42
21 45 41
21 44 41
21 46 42
21 45 41
21 45 42
22 45 42
22 47 43
22 46 42
22 46 42
23 47 43
23 46 42
22 45 41
23 45 41
24 46 42
24 46 42
25 48 44
25 47 43
25 46 42
27 49 44
27 49 44
28 48 44
29 49 44
29 49 45
30 51 46
30 48 44
32 50 45
33 52 47
33 51 46
34 52 47
35 53 47
36 52 46
37 52 47
38 55 49
39 55 49
40 56 50
41 57 50
42 56 50
43 58 51
44 57 51
45 59 52
46 59 52
47 59 52
48 60 53
49 61 54
50 61 54
50 63 55
51 63 56
52 63 56
52 63 55
53 64 56
54 65 57
54 64 56
54 64 56
55 66 58
55 65 57
55 66 58
55 65 57
55 65 57
56 66 58
55 66 57
56 66 58
55 66 58
55 66 58
55 65 57
20 45 41
20 45 42
20 44 40
20 45 41
20 45 41
20 46 42
20 44 41
20 44 40
20 44 41
20 45 41
20 44 40
20 45 41
20 44 40
20 44 40
20 45 41
19 43 40
21 46 42
20 44 40
20 45 42
20 44 41
20 44 41
20 45 42
20 44 41
20 44 40
20 44 41
20 45 41
20 44 40
20 45 41
20 45 41
20 45 42
20 45 41
20 44 40
20 44 40
20 45 42
20 45 41
20 45 42
21 46 42
20 44 41
20 45 41
20 45 42
20 45 42
20 44 40
20 45 41
20 44 41
20 44 40
20 45 41
20 44 41
21 46 42
21 45 41
20 45 41
20 44 40
20 44 40
21 45 41
20 44 40
21 46 42
21 46 42
21 45 41
21 46 42
21 46 42
21 45 41
22 45 42
22 46 42
22 46 42
22 45 41
22 45 41
23 46 42
23 46 42
24 47 43
24 47 42
25 47 43
25 47 42
26 47 43
26 48 44
27 48 44
27 47 43
28 49 44
29 50 45
30 50 45
31 49 45
32 50 45
33 51 46
34 51 46
34 50 45
35 52 47
37 55 49
38 54 48
39 55 49
40 55 49
41 57 50
42 56 50
43 56 50
44 58 51
45 59 52
46 59 52
47 59 52
48 60 53
49 62 54
50 62 54
51 62 55
52 63 55
53 63 56
54 65 57
55 66 58
56 67 59
56 67 59
57 67 59
57 67 58
58 67 59
58 68 60
59 68 60
59 67 59
59 69 60
60 69 61
60 68 60
60 69 61
59 69 60
59 69 60
59 69 60
59 68 59
59 68 59
20 44 41
20 45 41
20 45 41
20 44 41
20 45 41
20 44 40
20 45 41
19 43 39
20 44 41
20 45 41
20 45 41
20 45 41
20 44 40
20 44 40
20 44 40
20 45 41
21 46 42
21 46 42
20 45 42
20 45 41
20 45 41
20 45 41
20 45 41
20 45 41
20 45 42
20 44 41
20 44 41
20 45 42
20 44 40
20 44 41
20 44 40
20 44 40
20 44 41
20 45 42
21 47 43
21 46 42
20 45 41
20 45 41
20 45 41
20 45 41
19 43 39
20 44 40
20 45 41
20 45 41
20 45 41
20 44 40
20 45 42
21 46 42
21 45 42
20 44 40
20 45 41
21 45 42
21 45 41
21 46 42
21 44 41
21 45 41
21 45 41
22 47 43
22 46 42
22 45 41
22 46 42
22 45 41
22 45 41
23 46 42
24 47 43
24 47 43
24 46 42
24 46 42
25 46 42
26 48 43
26 47 43
26 47 43
27 47 43
28 48 44
29 50 45
30 49 45
31 50 46
32 50 45
32 51 46
33 51 46
34 52 47
35 52 47
37 53 48
37 53 48
39 54 48
40 55 49
41 56 50
42 56 50
44 59 52
45 58 52
46 59 52
47 59 53
48 60 53
49 61 54
50 62 54
52 63 56
53 64 56
54 64 57
55 65 57
56 67 59
57 67 59
58 67 59
59 68 59
59 69 60
60 69 60
61 70 61
61 70 61
62 70 61
62 70 61
63 72 62
63 71 62
63 71 62
64 71 62
64 72 62
63 71 62
64 72 63
64 72 63
63 71 62
63 72 63
63 71 62
20 45 41
20 44 41
20 44 41
20 45 41
20 44 40
20 44 40
20 45 41
20 44 41
20 44 41
20 44 41
20 44 40
20 44 40
20 44 41
20 45 41
19 43 40
21 46 42
21 46 42
20 44 41
20 44 40
20 44 40
20 44 41
20 44 40
20 44 41
20 45 41
20 45 41
20 44 41
20 45 41
20 44 40
20 44 40
20 46 42
21 46 42
21 46 42
20 45 41
21 46 42
20 44 41
20 45 41
20 44 40
20 44 40
20 45 42
20 43 40
20 45 42
19 43 40
20 45 41
20 44 41
20 44 40
21 45 42
20 45 41
20 45 41
21 46 43
21 46 42
21 45 41
20 44 40
21 45 41
21 46 42
21 45 41
22 46 42
21 46 42
22 46 42
22 45 41
22 46 42
22 46 42
23 46 42
22 45 41
23 47 42
24 46 42
24 46 42
25 47 43
25 47 43
26 48 44
26 47 43
27 49 45
28 48 43
29 49 44
29 47 43
30 49 45
31 50 45
32 51 46
33 51 46
34 53 47
35 52 47
36 52 46
38 54 49
39 54 48
40 56 50
41 56 49
42 57 51
44 57 51
45 59 52
46 58 52
47 60 53
49 61 54
50 61 54
51 62 55
52 63 56
54 64 56
55 66 58
56 67 58
57 67 59
58 68 59
60 69 60
60 70 61
61 70 61
62 70 61
63 71 62
64 71 62
65 72 63
65 72 63
66 74 64
67 74 64
67 74 65
67 74 64
68 75 65
68 75 65
68 75 65
68 75 65
68 76 66
68 75 66
68 75 65
68 75 65
67 75 65
20 45 42
20 45 41
20 45 42
20 44 41
20 44 41
20 44 40
20 45 41
20 44 41
20 44 40
20 44 40
20 44 41
20 44 40
20 45 41
20 45 41
20 44 40
20 44 40
20 44 40
20 44 41
20 44 41
20 44 41
20 44 41
20 44 40
20 44 41
20 44 41
20 44 40
20 45 42
20 44 40
20 45 41
20 44 41
20 44 41
20 44 41
20 45 41
19 43 40
21 46 42
20 45 41
20 45 41
20 44 40
20 43 40
20 45 41
20 45 41
20 45 41
20 44 40
20 44 41
20 44 40
20 44 40
20 45 41
20 44 41
20 45 41
21 45 41
21 45 41
20 44 40
20 44 41
21 45 42
21 45 41
22 46 42
22 46 42
22 45 42
21 45 41
22 45 41
22 45 41
23 47 43
23 45 41
24 47 43
24 46 42
24 47 43
25 47 43
25 47 42
26 48 43
27 48 44
27 48 44
28 47 43
29 49 45
30 49 45
31 50 45
31 50 45
32 50 45
34 52 47
35 53 47
36 53 48
37 54 48
38 54 48
40 55 50
41 56 50
42 57 50
44 58 51
45 59 52
46 59 52
48 60 53
49 61 54
50 61 54
52 63 55
53 64 56
55 65 57
56 66 58
57 67 59
59 68 59
60 69 61
61 69 60
62 71 62
63 71 62
65 73 63
65 73 63
66 73 64
68 75 65
68 75 65
69 75 65
70 77 67
70 77 67
71 78 67
71 78 68
72 78 67
72 79 68
72 78 68
73 79 68
73 79 68
72 78 68
73 79 69
72 78 67
72 79 68
72 78 68
20 44 41
20 44 41
20 44 40
20 44 41
20 44 41
20 45 42
20 45 41
20 45 41
20 44 41
20 45 41
20 44 41
19 43 39
20 44 41
19 43 40
20 45 41
20 45 41
20 45 41
20 44 40
20 44 41
20 45 42
19 43 39
20 45 41
20 44 41
20 45 41
20 44 40
20 46 42
20 45 41
20 45 42
20 45 41
20 44 41
20 44 41
20 45 41
20 46 42
20 45 41
20 44 40
20 45 41
20 44 41
20 45 42
21 46 42
20 43 40
20 45 41
20 44 41
20 45 42
20 45 41
21 46 42
20 45 41
21 45 42
21 45 41
20 44 41
21 45 42
21 46 42
21 45 42
21 45 41
21 44 40
22 46 42
22 46 42
21 44 41
22 45 41
22 45 41
22 45 42
23 45 41
23 45 41
24 47 43
25 48 43
25 47 43
25 46 42
26 48 44
27 47 43
27 48 43
28 48 43
29 48 44
31 51 46
31 51 46
32 51 46
33 51 46
34 51 46
35 52 46
37 53 48
38 53 48
39 53 47
40 55 49
42 56 50
43 58 51
45 58 51
46 60 53
48 61 54
49 62 54
51 62 55
52 63 56
54 64 57
55 67 59
57 67 59
58 68 59
60 69 60
61 69 60
62 71 62
63 71 62
65 72 63
66 74 64
67 74 65
68 74 64
70 76 66
70 76 66
72 78 68
72 79 68
73 79 68
74 80 69
75 80 69
75 80 69
76 82 71
76 82 71
76 82 70
77 82 71
77 81 70
77 82 71
77 81 70
77 82 71
77 82 71
76 82 70
76 81 70
20 44 41
20 44 41
19 43 40
20 44 40
20 45 42
20 44 40
20 44 40
20 45 41
19 43 40
20 44 41
19 43 39
20 45 42
20 44 41
20 45 41
20 45 42
20 44 40
20 45 41
20 45 41
20 44 40
19 43 40
19 43 40
20 44 41
20 44 41
19 43 40
20 45 41
20 45 42
19 43 39
21 46 42
20 45 41
20 44 41
20 45 41
19 42 39
20 44 41
20 45 41
21 46 42
21 47 44
20 45 41
20 44 40
20 44 41
20 44 41
20 45 41
20 44 40
20 43 40
20 44 40
20 44 40
20 44 41
20 44 40
20 45 41
20 44 40
21 45 41
21 45 41
21 45 42
21 46 42
21 44 40
21 44 41
21 45 41
22 46 42
22 46 42
23 46 42
23 47 43
24 48 43
24 48 43
24 46 42
25 47 43
26 48 43
26 47 43
27 47 42
28 48 44
29 49 45
30 50 45
30 48 44
31 49 45
33 51 46
33 50 45
35 52 47
36 52 47
37 53 48
39 55 49
40 56 50
41 56 50
43 57 50
44 58 51
46 59 52
47 59 52
49 60 53
51 62 55
52 63 56
54 64 57
55 65 57
57 66 58
58 67 59
60 69 60
61 71 62
63 71 62
64 72 63
66 72 63
67 74 64
69 76 66
70 77 67
71 77 67
73 79 68
74 79 68
75 81 70
76 81 70
76 81 70
78 83 72
78 83 72
79 83 72
80 85 73
80 84 73
81 85 73
81 86 74
81 85 73
82 86 74
81 86 74
81 85 74
81 86 74
81 86 74
81 85 73
81 86 74
19 43 40
19 43 40
21 46 42
21 46 43
20 44 41
20 44 40
20 45 41
20 45 41
20 44 41
20 44 41
19 43 40
20 45 41
20 45 41
20 44 40
20 44 41
20 44 40
21 46 42
20 45 41
20 45 42
20 45 41
20 44 40
21 46 42
20 45 42
21 46 42
20 44 40
20 44 41
21 46 42
20 45 41
20 44 40
20 44 41
20 45 41
20 44 40
20 44 40
19 43 40
20 44 40
20 45 41
20 45 41
20 44 40
20 45 41
20 44 40
20 45 41
20 45 41
21 45 42
20 45 41
20 44 40
20 45 41
21 46 42
21 46 42
21 45 41
21 46 42
21 45 41
20 44 40
21 44 41
22 45 41
22 45 41
22 44 41
22 45 41
23 46 42
23 46 42
24 47 43
24 46 42
24 45 41
25 46 42
26 47 43
26 47 43
27 48 43
28 48 43
29 48 43
30 49 45
31 50 46
32 51 46
33 53 47
34 51 46
35 52 47
37 54 48
38 54 48
39 54 48
41 56 50
42 57 51
43 57 50
45 58 51
47 60 53
48 60 53
50 62 55
52 64 56
53 64 56
55 66 58
57 67 58
58 68 59
60 68 60
61 70 61
63 71 62
65 72 62
66 73 64
68 74 64
69 75 65
71 77 67
73 79 68
74 80 69
75 80 69
77 82 71
78 82 71
79 84 72
80 85 73
81 85 73
82 86 74
83 87 75
84 88 75
84 88 76
85 88 76
85 89 76
86 89 77
86 90 77
86 89 77
86 89 77
86 89 76
86 89 77
86 89 77
86 90 78
85 89 76
20 45 42
20 45 41
20 45 41
20 44 41
20 45 41
19 43 40
20 44 40
20 45 41
19 43 40
20 44 40
20 44 41
20 45 42
19 43 40
20 44 40
20 45 41
20 44 41
20 45 41
20 44 41
20 44 41
20 45 42
20 45 41
20 45 41
20 45 41
19 43 40
20 44 40
20 45 41
20 44 41
20 44 40
20 45 41
20 45 41
20 43 40
20 44 41
20 45 41
20 44 41
20 44 41
20 45 41
20 44 40
20 44 40
20 45 41
21 46 42
20 44 40
20 44 41
21 46 42
20 45 41
20 44 41
21 45 42
21 45 41
21 46 42
20 44 40
21 45 41
21 44 41
22 47 43
21 45 41
22 46 42
22 45 41
22 44 41
23 46 42
23 45 41
23 46 42
25 48 44
25 47 43
25 46 42
26 47 43
27 48 44
27 48 43
28 49 44
29 48 44
30 51 46
31 50 45
32 51 46
33 51 46
34 52 47
35 52 47
37 54 48
38 54 48
39 54 48
41 56 50
43 56 50
44 58 51
46 58 51
48 61 54
49 62 54
51 62 55
53 64 56
54 65 57
56 67 58
58 67 59
60 70 61
61 70 61
63 71 62
65 72 63
67 74 64
68 75 65
70 76 66
72 79 68
73 79 68
75 80 69
76 82 71
78 83 72
79 84 73
81 85 73
82 86 74
83 87 75
84 88 76
85 88 76
86 89 77
87 90 77
88 90 78
89 92 79
90 93 80
90 92 79
90 93 80
91 94 80
91 93 80
91 93 80
91 94 81
91 93 80
91 93 80
90 93 80
90 93 80
20 45 42
20 44 41
20 44 40
20 44 41
19 43 39
19 43 39
20 45 42
20 45 41
20 45 41
20 44 41
20 45 41
20 45 41
20 44 41
20 44 41
20 44 41
19 43 40
20 45 41
20 45 42
20 45 42
20 44 41
20 44 41
20 45 41
20 44 41
19 43 40
20 45 42
20 44 41
20 44 41
20 44 41
20 44 41
19 43 39
20 44 40
20 45 41
19 43 39
20 44 40
20 45 41
20 45 41
20 44 41
20 44 41
20 45 41
20 45 41
20 45 41
20 45 41
20 45 41
20 44 41
21 45 41
21 45 41
21 45 41
21 44 41
20 43 40
21 45 42
22 46 42
21 45 41
21 45 41
22 44 41
23 47 43
22 44 41
23 46 42
24 48 44
24 47 43
25 47 43
25 46 42
26 47 43
27 48 44
28 49 44
29 49 45
29 49 45
30 49 44
31 49 44
32 51 46
33 51 46
34 51 46
36 52 47
37 54 48
39 55 49
40 56 50
41 55 49
43 57 51
45 57 51
46 59 52
48 60 53
50 61 54
51 62 55
53 64 56
55 65 57
57 66 58
59 68 60
61 69 60
63 71 62
65 72 63
67 74 65
68 75 65
70 77 67
72 78 67
74 80 69
75 81 70
77 82 71
79 82 71
80 85 73
82 86 74
83 87 75
85 89 76
86 89 76
88 90 78
89 91 78
90 92 79
91 94 80
92 94 80
93 94 81
93 96 82
94 96 82
95 97 83
95 97 83
95 96 83
96 97 84
96 97 84
96 98 84
96 97 83
95 97 84
95 97 83
95 97 83
20 45 41
20 44 40
20 45 41
20 44 41
20 44 40
20 44 40
20 45 41
20 46 42
20 45 42
20 45 42
20 45 41
20 44 40
20 44 41
20 45 41
20 44 40
20 44 40
20 45 41
20 44 41
20 44 40
20 44 41
20 44 41
20 45 41
20 44 41
20 44 40
20 45 41
20 44 41
20 45 41
20 44 40
20 44 41
20 45 41
20 44 41
20 45 41
20 45 41
20 44 41
20 43 40
20 44 41
21 45 42
20 45 41
21 45 42
20 45 41
21 46 42
21 46 42
21 45 42
20 45 41
21 46 42
20 44 41
21 44 41
21 45 41
21 44 41
21 44 41
21 45 41
21 45 41
22 45 42
22 45 41
23 46 42
24 47 43
24 46 42
24 46 42
25 47 43
25 47 43
26 48 44
26 47 43
28 48 44
29 49 45
29 48 43
30 50 45
31 49 44
32 50 45
33 50 45
35 52 47
36 53 48
37 53 47
39 55 49
40 55 49
42 57 51
43 57 50
45 57 51
47 59 52
49 61 53
50 62 55
52 63 56
54 63 56
56 66 58
58 67 58
60 69 60
62 70 61
64 72 63
66 73 64
68 74 65
70 76 66
72 78 67
74 79 68
76 81 70
77 82 71
79 83 72
81 85 73
83 87 75
84 87 75
86 89 77
88 90 78
89 92 79
91 93 80
92 94 81
93 95 81
94 97 83
95 97 83
96 98 84
97 98 84
98 99 85
98 99 85
99 100 86
99 100 86
100 101 87
100 101 87
101 102 87
100 102 87
100 101 87
100 101 86
100 102 87
99 100 85
20 44 40
20 45 42
20 44 40
20 44 41
20 45 42
20 44 41
20 45 41
19 43 40
20 45 41
20 44 41
20 44 41
20 44 40
20 43 40
20 44 40
20 45 41
19 43 40
20 45 41
20 44 40
20 44 40
20 45 41
20 44 41
20 45 41
20 44 40
20 45 42
20 44 41
20 45 42
20 45 41
20 44 40
20 44 40
20 44 41
20 45 41
20 44 41
20 44 41
20 45 41
20 44 41
21 45 42
20 44 40
20 45 41
20 44 41
21 46 42
20 45 41
21 46 42
21 45 41
20 44 41
21 45 41
21 44 41
21 44 41
21 44 41
21 45 41
22 47 43
22 45 42
23 46 42
23 47 43
22 45 41
24 47 43
24 47 43
24 47 43
24 46 42
25 46 42
25 46 42
26 47 43
27 48 44
28 47 43
29 49 45
30 49 44
32 51 46
33 51 46
34 53 47
35 53 48
36 54 48
38 54 49
39 55 49
41 55 49
42 55 49
44 57 51
46 59 52
47 59 53
49 60 53
51 62 55
53 64 56
55 66 58
57 66 58
59 67 59
61 70 61
63 71 62
65 73 63
67 74 64
69 76 66
71 77 67
73 80 69
75 80 70
77 82 71
79 84 72
81 85 73
83 87 75
85 88 76
87 90 77
89 91 79
90 93 80
92 95 81
93 95 82
95 97 83
96 97 83
97 99 84
99 100 86
100 100 86
101 102 87
102 102 88
103 103 88
103 103 88
104 104 89
104 105 90
105 105 89
105 105 90
105 106 91
105 106 90
105 105 90
105 105 90
105 105 90
104 105 89
20 45 41
20 46 42
19 43 40
20 44 40
19 43 40
20 44 40
20 45 41
20 44 41
20 44 41
20 44 40
20 46 42
20 45 42
20 45 42
20 45 42
20 44 40
20 45 41
20 45 41
20 44 40
19 43 39
20 44 41
20 44 40
20 45 41
20 44 41
20 45 41
20 45 41
21 46 42
20 44 41
20 45 41
20 46 42
19 43 40
20 45 41
20 45 42
20 45 41
20 45 42
20 44 40
21 46 42
20 44 41
20 43 40
20 45 41
20 44 41
20 44 40
20 43 39
21 46 43
20 44 41
21 44 41
21 45 41
21 45 41
21 44 40
21 44 40
22 46 42
22 45 41
22 46 42
22 45 41
23 46 42
23 46 42
24 46 42
24 45 41
25 46 42
26 48 44
27 48 44
27 48 43
28 48 43
29 49 44
30 49 44
31 50 45
32 50 45
34 52 47
35 52 46
36 53 47
38 53 47
39 55 49
41 55 49
42 56 50
44 58 51
46 60 53
48 60 53
50 61 54
52 63 56
54 65 57
55 65 57
57 66 58
59 68 60
62 70 61
64 72 62
66 73 64
68 75 65
70 77 67
72 78 67
74 80 69
77 82 71
79 83 72
81 85 73
83 87 75
85 88 76
87 89 77
89 92 79
91 94 81
92 94 81
94 96 83
96 97 83
98 99 85
99 100 85
101 101 87
102 103 88
103 104 89
104 104 89
105 106 90
106 107 91
107 107 91
108 108 92
108 108 93
109 109 93
109 109 93
110 109 93
110 109 93
110 109 93
110 109 93
110 109 93
109 109 93
109 108 92
20 45 41
20 45 41
19 43 39
19 43 40
19 43 40
20 45 41
20 44 40
20 45 41
20 45 41
20 44 41
20 45 41
20 44 40
20 44 40
20 45 41
20 44 40
20 44 41
20 44 40
20 45 42
20 45 41
19 43 40
20 44 40
21 46 42
20 44 40
20 44 41
20 44 40
20 44 41
20 44 41
20 44 41
20 44 41
19 43 40
20 44 41
20 44 41
20 45 42
20 44 40
20 45 41
20 44 40
20 44 41
20 45 41
21 45 42
21 46 42
20 44 40
21 45 41
20 44 40
21 46 43
21 45 41
20 44 40
21 45 42
21 45 42
22 45 41
22 46 42
22 44 41
22 45 41
23 46 42
24 47 43
24 46 42
24 46 42
25 47 42
26 47 43
26 47 43
28 49 44
29 49 45
29 49 44
30 49 45
31 49 45
33 51 46
34 51 46
35 52 47
36 51 46
38 55 49
39 55 49
41 55 49
43 57 51
44 57 51
46 59 52
48 60 53
50 61 54
52 63 56
54 63 56
56 66 58
58 66 58
60 69 61
62 70 61
64 72 63
67 75 65
69 75 65
71 78 67
73 79 68
75 80 69
78 82 71
80 85 73
82 86 74
84 88 75
86 89 76
88 91 78
90 93 80
93 95 81
95 97 83
96 98 84
98 100 85
100 101 86
102 102 87
103 104 89
105 105 90
106 106 91
108 107 92
109 108 92
110 109 93
111 110 94
112 111 94
112 111 95
113 112 95
114 112 96
114 113 96
114 112 96
115 113 96
115 113 96
114 113 97
114 113 96
114 112 96
114 113 96
