P3
120 80
255
221 235 255
221 235 255
221 235 255
221 235 255
221 235 255
221 235 255
221 235 255
221 235 255
221 235 255
221 235 255
221 235 255
221 235 255
221 235 255
221 235 255
221 235 255
221 235 255
221 235 255
221 235 255
221 235 255
221 235 255
221 235 255
221 235 255
221 235 255
221 235 255
221 235 255
221 235 255
221 235 255
221 235 255
221 235 255
221 235 255
221 235 255
221 235 255
221 235 255
221 235 255
221 235 255
221 235 255
221 235 255
221 235 255
221 235 255
221 235 255
221 235 255
221 235 255
221 235 255
221 235 255
221 235 255
221 235 255
221 235 255
221 235 255
221 235 255
221 235 255
221 235 255
221 235 255
221 235 255
221 235 255
221 235 255
221 235 255
221 235 255
221 235 255
221 235 255
221 235 255
221 235 255
221 235 255
221 235 255
221 235 255
221 235 255
221 235 255
221 235 255
221 235 255
221 235 255
221 235 255
221 235 255
221 235 255
221 235 255
221 235 255
221 235 255
221 235 255
221 235 255
221 235 255
221 235 255
221 235 255
221 235 255
221 235 255
221 235 255
221 235 255
221 235 255
221 235 255
221 235 255
221 235 255
221 235 255
221 235 255
221 235 255
221 235 255
221 235 255
221 235 255
221 235 255
221 235 255
221 235 255
221 235 255
221 235 255
221 235 255
221 235 255
221 235 255
221 235 255
221 235 255
221 235 255
221 235 255
221 235 255
221 235 255
221 235 255
221 235 255
221 235 255
221 235 255
221 235 255
221 235 255
221 235 255
221 235 255
221 235 255
221 235 255
221 235 255
221 235 255
221 235 255
221 235 255
220 234 254
219 234 254
219 234 254
221 235 255
221 235 255
220 234 254
221 235 255
221 235 255
221 235 255
221 235 255
219 234 254
220 234 254
220 234 254
221 235 255
221 235 255
221 235 255
221 235 255
221 235 255
221 235 255
220 234 254
220 234 254
219 233 253
220 234 254
220 234 254
219 233 253
220 234 254
220 234 254
221 235 255
221 235 255
219 233 253
221 235 255
221 235 255
220 234 254
219 233 253
221 235 255
221 235 255
221 235 255
219 234 254
219 234 254
221 235 255
221 235 255
220 234 254
221 235 255
219 234 254
220 234 254
219 233 253
220 234 254
221 235 255
221 235 255
219 233 253
221 235 255
220 234 254
221 235 255
219 234 254
221 235 255
219 234 254
221 235 255
221 235 255
219 234 254
219 234 254
220 234 254
221 235 255
220 234 254
219 234 254
221 235 255
221 235 255
219 234 254
221 235 255
219 234 254
221 235 255
221 235 255
220 234 254
220 234 254
219 234 254
220 234 254
220 234 254
219 233 253
221 235 255
220 234 254
221 235 255
221 235 255
219 234 254
220 234 254
220 234 254
220 234 254
220 234 254
220 234 254
221 235 255
221 235 255
219 234 254
219 233 253
221 235 255
221 235 255
221 235 255
219 234 254
218 233 252
220 234 254
220 234 254
220 234 254
220 234 254
221 235 255
221 235 255
220 234 254
219 234 254
220 234 254
221 235 255
219 233 253
221 235 255
221 235 255
221 235 255
221 235 255
221 235 255
221 235 255
220 234 254
221 235 255
220 234 254
220 234 254
220 234 254
110 120 130
104 115 123
109 120 129
107 117 126
114 125 135
109 119 128
115 126 136
108 118 127
112 123 132
96 106 114
122 132 143
110 120 130
98 109 117
103 113 122
119 129 139
109 119 128
112 123 132
110 120 130
107 117 126
103 113 122
98 108 117
107 117 126
103 114 122
110 120 130
110 121 130
114 125 135
112 123 132
103 114 122
108 118 127
107 117 126
108 118 127
102 112 121
115 126 136
110 120 130
97 107 116
111 122 131
107 117 126
115 126 136
98 109 117
102 112 121
98 109 117
111 122 131
114 125 134
106 116 125
111 121 131
98 109 117
97 107 115
109 119 129
122 132 143
106 116 125
101 111 119
106 116 125
113 124 133
102 112 121
102 112 121
113 124 133
95 105 113
124 134 145
119 129 139
118 128 138
100 110 118
115 126 136
97 107 115
108 118 127
109 119 129
103 113 122
109 119 128
96 106 114
104 115 123
121 131 142
104 114 123
120 130 141
102 112 121
106 116 125
111 122 131
109 119 128
107 117 126
102 113 121
97 107 115
102 112 121
111 122 131
98 109 117
101 111 120
110 120 130
107 117 126
122 132 143
101 111 119
114 125 135
115 126 136
115 126 136
108 118 127
113 124 134
107 117 126
110 120 130
108 118 127
104 115 124
108 118 127
92 102 110
107 117 126
106 116 125
106 116 125
104 115 124
107 117 126
103 114 122
118 128 138
103 114 122
109 119 129
111 122 131
114 125 135
96 106 114
111 122 131
108 118 127
114 125 135
106 116 125
109 119 129
104 115 124
109 120 129
106 116 125
107 117 126
110 121 130
15 36 34
15 35 34
15 35 34
15 35 34
15 36 35
15 36 34
15 36 34
15 36 35
15 36 35
15 35 34
15 36 34
15 36 35
15 35 34
15 36 35
15 36 34
16 37 35
15 36 34
15 36 35
15 35 34
15 35 34
16 37 35
15 36 34
15 36 35
15 36 34
15 36 34
15 36 35
15 36 34
15 36 35
15 35 34
15 35 34
15 36 35
15 36 35
15 36 35
16 37 35
15 35 34
15 36 35
15 36 35
15 36 34
15 36 34
16 36 35
15 35 34
15 36 35
16 37 36
15 36 35
16 36 35
15 36 35
15 36 34
15 35 34
15 36 34
15 36 35
15 36 35
15 35 34
15 36 34
15 36 34
15 35 34
15 36 35
15 36 35
15 36 34
15 36 35
15 36 35
15 35 33
15 36 35
15 36 34
15 36 35
16 37 36
15 36 35
15 36 34
15 36 34
15 35 33
15 35 34
15 36 35
16 37 35
15 36 34
15 36 34
15 35 34
15 36 34
15 35 34
15 36 34
15 35 34
15 36 35
15 35 34
15 36 35
15 36 34
15 35 34
15 36 34
16 36 35
15 36 34
15 35 34
16 36 35
16 37 35
15 36 34
16 36 35
15 35 34
15 36 35
15 36 35
15 35 33
15 35 34
15 36 34
15 36 34
15 36 35
15 35 34
15 35 34
16 37 35
15 36 35
15 36 34
15 35 33
16 37 35
15 35 33
15 35 34
15 36 35
15 36 34
15 36 34
16 36 35
15 35 34
16 37 35
15 36 34
16 36 35
15 36 34
15 36 34
15 36 34
15 36 35
15 35 34
15 36 35
16 36 35
16 36 35
15 35 34
16 36 35
15 36 35
16 36 35
15 35 34
16 37 35
16 37 35
15 35 34
16 36 35
15 36 34
16 36 35
15 36 35
15 36 35
15 36 35
15 36 35
15 36 35
15 36 35
16 37 36
15 36 35
15 36 35
15 36 35
15 36 34
16 36 35
16 37 35
16 37 35
15 36 35
15 36 34
15 36 34
15 36 35
16 37 35
15 36 35
15 35 34
16 37 35
15 36 34
16 37 35
15 36 34
15 35 34
15 36 34
16 36 35
16 36 35
16 36 35
15 35 34
15 35 34
16 37 36
16 37 35
16 37 35
16 37 35
15 36 34
15 36 35
15 36 34
15 35 34
15 36 35
15 36 34
15 36 34
15 36 35
16 36 35
15 36 34
16 36 35
15 36 34
15 36 35
16 36 35
15 36 35
15 36 34
15 35 34
16 37 35
15 36 35
15 36 35
15 36 34
15 36 35
15 35 34
15 36 34
16 36 35
15 35 34
15 36 35
15 36 35
16 36 35
15 36 34
16 37 35
15 36 34
15 35 34
15 36 34
16 37 35
15 36 35
16 37 35
15 35 34
15 36 35
15 36 34
15 36 35
15 35 34
15 36 35
16 36 35
15 35 34
15 36 35
15 36 35
16 37 35
15 36 35
15 36 34
16 37 35
15 35 34
15 36 35
15 36 34
15 36 34
15 36 35
15 36 34
16 36 35
15 36 35
16 36 35
15 36 35
15 35 34
16 36 35
15 35 34
15 36 35
16 37 35
15 36 35
15 36 34
15 36 34
16 37 35
16 37 35
15 35 34
16 37 36
16 36 35
16 37 35
15 35 34
16 37 35
16 36 35
16 36 35
16 36 35
16 36 35
15 36 35
16 37 35
16 37 35
16 37 35
15 36 35
15 36 34
16 36 35
15 36 35
15 36 34
15 36 34
15 36 35
16 37 35
16 36 35
15 36 34
15 36 34
16 37 35
15 36 34
15 35 34
15 36 35
15 35 34
15 36 35
15 36 35
15 36 34
15 36 34
16 37 35
16 36 35
16 36 35
16 36 35
16 36 35
15 35 34
16 36 35
15 36 34
15 36 35
16 37 36
16 36 35
15 36 35
15 36 34
15 36 34
16 36 35
15 36 34
16 37 35
15 36 34
15 36 35
16 37 35
16 36 35
15 36 35
15 36 35
16 37 35
16 36 35
15 36 35
15 36 35
16 37 35
15 35 34
16 36 35
16 37 35
16 37 35
15 36 34
16 37 35
16 37 35
15 36 35
15 36 34
16 36 35
15 36 34
16 36 35
15 35 34
15 36 35
15 36 35
15 36 34
15 36 35
16 37 35
16 37 35
15 36 35
16 36 35
15 35 34
15 36 35
16 36 35
16 37 36
15 36 35
15 36 35
16 36 35
16 37 35
15 36 34
15 36 35
16 37 35
15 36 34
16 36 35
15 36 35
16 37 35
16 36 35
15 36 34
15 35 34
15 35 34
15 36 35
15 36 34
15 36 34
16 37 35
15 36 34
15 36 34
16 37 35
15 36 35
15 36 35
15 35 34
16 36 35
16 37 35
16 37 35
15 36 35
16 37 35
15 35 34
16 36 35
16 36 35
16 36 35
16 37 36
15 36 35
16 36 35
16 37 35
15 35 34
15 36 35
16 36 35
16 36 35
16 37 35
15 36 34
16 37 35
16 36 35
15 36 34
16 36 35
16 37 35
16 36 35
15 36 34
16 37 35
16 37 35
15 36 34
16 37 35
16 37 36
15 36 34
15 35 34
15 35 34
15 36 34
15 36 34
15 36 35
16 37 35
15 35 34
16 37 35
16 38 36
16 36 35
16 37 36
15 36 35
16 36 35
15 36 35
16 37 35
16 37 35
15 36 34
15 36 35
15 36 35
16 37 35
16 36 35
16 37 35
16 37 35
16 36 35
16 36 35
16 37 35
16 37 35
16 37 35
16 37 35
15 36 34
15 36 34
16 36 35
16 37 35
16 37 35
15 35 34
16 37 35
16 37 35
16 37 36
16 37 36
16 37 35
16 37 35
16 36 35
15 36 34
16 37 35
15 36 34
16 37 36
16 36 35
16 37 35
16 37 35
16 37 35
15 36 34
16 37 35
16 37 35
16 37 35
15 36 35
15 36 34
16 36 35
16 36 35
15 36 34
15 36 35
15 36 35
15 36 34
16 37 36
16 36 35
16 36 35
16 36 35
16 36 35
16 37 35
16 38 36
15 36 34
16 36 35
16 36 35
16 36 35
15 36 35
15 36 35
16 37 36
15 36 34
16 37 35
16 37 36
16 36 35
15 36 35
16 36 35
16 37 35
15 36 35
15 36 35
15 35 34
16 37 36
16 37 35
16 37 35
15 36 34
15 36 34
15 36 34
16 37 35
16 37 35
15 36 35
15 36 34
16 37 35
15 36 35
16 36 35
16 37 35
16 36 35
16 37 35
16 36 35
16 37 35
16 37 35
16 36 35
16 38 36
16 37 36
16 36 35
16 37 35
16 37 35
16 37 35
16 36 35
16 36 35
16 37 35
16 38 36
16 37 35
16 37 35
16 37 36
15 36 34
16 37 36
16 37 35
16 37 36
16 37 36
15 36 35
16 37 35
16 38 37
16 36 35
16 37 36
16 37 35
16 36 35
16 36 35
15 36 34
16 36 35
16 36 35
16 38 36
16 36 35
16 37 35
15 36 34
16 37 35
16 37 35
16 37 35
16 37 36
15 35 34
16 36 35
16 37 35
16 37 35
15 36 34
16 36 35
16 38 36
16 37 35
15 36 35
16 38 36
16 37 35
16 38 36
16 37 35
16 37 36
16 37 35
16 36 35
16 37 36
16 37 35
16 36 35
16 37 35
16 37 35
16 37 35
16 37 36
16 37 35
16 37 36
16 38 36
16 37 36
15 36 34
16 37 35
15 36 35
16 37 35
16 36 35
16 37 36
16 37 35
16 37 36
16 37 35
16 37 35
16 37 35
16 37 35
16 38 36
16 36 35
15 36 35
16 36 35
16 37 36
16 37 35
16 36 35
16 38 36
16 37 35
15 36 35
16 36 35
16 36 35
16 36 35
16 36 35
16 37 36
16 38 36
16 37 36
16 37 35
15 36 34
16 37 35
16 36 35
16 37 35
15 36 34
16 38 37
16 37 35
16 36 35
16 37 35
16 37 35
16 36 35
15 36 34
16 37 36
16 37 35
16 37 35
16 37 35
16 38 36
16 37 35
16 37 35
16 37 35
16 38 36
16 37 35
16 37 35
16 36 35
15 36 34
16 37 35
16 36 35
16 37 35
16 37 35
16 37 35
16 37 35
15 36 34
16 36 35
16 37 35
16 37 36
16 37 36
16 38 36
16 37 36
16 38 36
16 37 35
16 37 35
16 37 36
16 37 35
16 37 35
16 36 35
16 37 36
16 37 36
16 37 35
16 36 35
16 36 35
16 37 35
16 36 35
16 36 35
16 36 35
16 37 36
16 37 36
16 37 35
16 36 35
16 38 36
16 36 34
16 37 35
16 38 36
16 37 35
16 36 35
16 38 36
16 37 35
16 37 35
16 37 35
16 37 35
16 38 36
16 37 35
16 37 35
16 37 36
16 37 35
16 37 36
16 37 35
16 38 36
16 37 35
16 37 35
16 38 36
16 37 35
16 37 35
16 36 35
16 37 35
16 37 36
16 37 35
16 37 35
16 37 35
16 37 36
16 37 35
16 37 36
16 36 35
16 37 36
15 36 34
16 38 36
16 37 35
16 37 36
16 38 36
16 38 36
16 37 36
16 37 35
16 36 35
16 37 35
16 37 35
15 36 34
16 37 35
16 37 35
16 37 36
16 37 36
16 36 35
15 36 34
16 37 36
16 37 35
16 37 36
16 37 36
16 37 35
15 36 34
16 37 36
16 37 35
16 37 36
16 37 36
16 37 36
16 36 35
16 37 36
16 37 35
16 36 35
16 37 35
16 37 36
16 37 35
16 37 35
16 37 36
16 37 35
16 36 34
16 37 36
16 38 36
16 37 36
16 37 35
16 37 35
16 36 35
16 37 35
16 37 35
16 38 36
16 37 35
16 37 35
16 37 36
16 37 35
16 38 36
16 37 35
16 37 35
16 37 35
16 37 35
16 38 36
16 37 36
16 37 36
17 39 37
16 37 36
16 37 35
16 38 36
16 37 36
16 38 36
16 37 36
16 37 35
16 38 36
16 37 35
16 38 36
16 37 35
16 36 35
16 38 36
16 37 35
16 37 35
16 37 35
16 36 35
16 37 35
16 37 36
16 37 36
16 38 36
16 37 36
16 38 36
16 37 35
16 37 36
16 38 36
16 37 36
16 37 35
16 37 35
16 37 35
16 37 35
16 37 36
16 37 35
16 38 36
16 37 35
16 37 35
16 37 36
16 37 35
16 36 35
16 38 36
16 37 35
16 37 36
16 38 36
16 37 35
16 37 35
16 37 35
16 37 36
16 37 36
16 38 36
16 37 36
16 37 35
16 38 36
17 38 36
16 38 36
16 37 36
16 37 35
16 37 36
16 37 35
16 37 36
16 38 36
16 37 35
16 38 36
16 37 35
16 38 36
16 38 36
16 37 36
16 37 35
16 37 36
16 37 36
16 38 36
16 37 36
16 38 36
16 37 35
16 37 36
16 38 36
16 37 35
16 37 35
17 38 37
16 37 35
16 37 36
16 37 35
16 37 36
16 37 35
16 37 35
16 38 36
16 37 35
16 37 35
16 37 35
16 37 35
16 38 36
16 37 36
16 38 36
16 37 36
16 37 35
16 37 36
16 36 35
16 37 35
17 38 37
16 38 36
16 37 35
16 37 36
16 37 35
16 37 35
16 37 36
16 38 36
17 38 37
16 38 36
16 37 36
16 37 35
16 38 36
16 37 35
16 37 35
16 37 35
16 38 36
16 38 36
16 37 36
16 37 35
16 37 35
16 38 36
16 37 35
16 37 36
16 38 36
17 39 37
16 37 35
16 36 35
16 37 35
16 37 35
16 38 36
16 38 36
16 38 36
16 38 36
17 38 36
16 37 35
16 38 36
16 37 36
16 37 36
16 37 35
16 38 36
17 38 36
16 37 35
16 37 35
16 37 36
16 37 35
16 37 35
16 38 36
17 38 36
16 38 36
16 38 36
16 37 35
16 38 36
16 38 36
16 37 35
16 38 36
16 38 36
16 38 36
16 37 35
16 37 35
16 37 35
16 38 36
16 37 36
16 38 36
16 38 36
16 38 36
17 39 37
16 37 36
16 37 35
17 38 36
16 37 35
17 38 37
16 37 35
17 38 36
16 37 36
17 38 36
16 37 35
17 39 37
16 37 35
16 37 35
17 39 37
17 38 36
16 37 36
16 38 36
16 38 36
16 37 35
16 38 36
16 37 35
16 38 36
16 37 35
16 38 36
17 39 37
16 37 35
17 38 37
16 36 34
16 38 36
16 38 36
16 37 35
16 38 36
16 38 36
16 38 36
16 37 35
16 38 36
16 37 35
17 38 36
16 38 36
16 37 35
16 38 36
17 38 37
17 38 36
16 37 35
16 37 35
17 38 37
16 38 36
16 38 36
16 37 35
16 37 35
16 38 36
16 37 35
16 37 35
16 38 36
16 37 35
16 38 36
16 38 36
16 38 36
16 38 36
16 37 36
16 38 36
17 38 37
17 38 36
16 38 36
16 37 35
17 39 37
16 38 36
17 38 36
16 38 36
16 38 36
16 38 36
16 38 36
16 38 36
16 38 36
16 38 36
16 38 36
16 38 36
16 37 35
16 38 36
17 38 36
17 39 37
16 37 36
16 37 35
16 38 36
16 38 36
16 37 35
16 38 36
17 38 36
16 37 35
17 39 37
16 38 36
16 38 36
16 37 35
17 38 36
16 38 36
16 38 36
16 38 36
17 38 36
16 38 36
17 39 37
17 38 36
16 37 35
17 38 36
17 39 37
17 38 36
16 38 36
17 38 36
16 38 36
16 38 36
16 38 36
17 39 37
17 39 37
16 37 35
16 38 36
16 38 36
16 37 35
16 38 36
16 38 36
16 38 36
16 38 36
17 38 36
16 38 36
17 38 36
17 39 37
16 37 35
17 39 37
17 39 37
17 38 36
17 38 36
17 38 36
17 38 36
16 37 36
16 36 35
17 38 37
16 38 36
16 37 36
16 38 36
16 38 36
17 38 36
16 38 36
16 37 35
17 38 36
16 37 35
17 39 37
16 38 36
16 37 36
16 38 36
16 37 35
16 37 35
17 38 36
17 38 36
16 38 36
16 38 36
17 38 36
17 39 37
16 38 36
17 38 36
17 38 36
16 38 36
16 37 35
17 38 36
16 38 36
16 38 36
16 38 36
16 38 36
16 37 35
16 37 35
16 37 35
17 38 36
16 38 36
16 37 35
16 37 36
16 38 36
16 37 36
16 38 36
17 38 36
16 37 36
17 38 36
17 39 37
16 38 36
17 39 37
17 39 37
16 38 36
16 38 36
17 38 36
17 39 37
16 37 35
17 38 36
16 37 35
16 37 35
16 38 36
17 38 36
16 38 36
17 38 36
17 39 37
16 38 36
17 38 36
16 38 36
17 39 37
17 38 36
16 38 36
16 37 35
16 38 36
17 39 37
17 38 36
17 39 37
17 38 37
17 38 36
17 39 37
17 38 36
16 38 36
17 39 37
17 38 36
17 39 37
17 39 36
16 37 35
16 38 36
17 39 37
16 38 36
17 39 37
17 38 36
16 37 35
17 39 37
17 38 36
17 38 36
17 38 36
17 38 36
17 38 36
16 38 36
16 38 36
17 38 36
17 39 37
16 38 36
17 38 36
17 39 37
16 38 36
17 39 37
16 38 36
16 38 36
17 39 37
17 38 36
17 39 37
17 38 36
16 38 36
17 40 38
16 38 36
16 38 36
17 39 37
17 38 36
16 37 36
17 38 36
17 38 36
16 37 35
16 37 35
17 39 37
17 38 36
17 38 36
16 38 36
16 38 36
16 38 36
16 38 36
16 37 36
17 39 37
16 37 36
17 39 37
17 38 36
17 38 36
17 39 37
16 38 36
16 38 36
16 37 35
17 39 37
16 38 36
17 39 37
16 37 35
17 38 36
17 38 36
16 38 36
17 39 37
16 37 35
17 38 36
17 38 36
17 38 36
16 38 36
16 38 36
17 39 37
17 39 37
17 38 36
16 38 36
16 37 35
17 39 37
17 38 37
16 38 36
16 38 36
16 37 35
17 39 37
17 38 36
17 39 37
17 38 36
16 38 36
16 38 36
17 38 36
17 39 37
17 39 37
16 37 35
17 38 36
16 38 36
17 40 37
17 39 37
17 38 36
17 39 36
17 39 36
17 38 36
17 38 36
17 38 36
16 38 36
17 39 36
17 38 36
17 39 37
16 37 35
17 39 37
17 39 37
17 38 36
17 38 36
17 38 36
17 39 37
17 39 37
16 38 36
16 38 36
17 39 37
16 38 36
17 39 37
17 38 36
16 37 35
17 40 38
17 39 37
17 38 36
17 38 36
16 38 36
17 39 36
16 37 35
17 38 36
17 39 37
17 39 36
17 38 36
17 39 37
17 38 36
17 38 36
17 38 36
17 39 37
17 39 37
17 39 36
17 40 37
16 38 36
17 39 37
17 39 37
16 37 35
17 39 37
17 38 36
17 39 37
17 39 37
17 38 36
17 38 36
17 39 37
17 39 37
17 39 37
16 38 36
17 38 36
17 38 36
17 39 37
17 39 37
17 38 36
17 39 37
16 37 35
17 39 37
17 39 37
17 39 37
17 39 37
17 39 37
17 38 36
17 39 37
17 39 37
17 38 36
17 39 37
17 39 37
17 39 36
16 38 36
17 38 36
17 39 36
17 39 37
17 39 37
17 40 38
17 39 37
17 39 37
17 39 37
17 39 37
17 39 37
16 38 36
17 39 37
17 39 36
17 39 37
17 39 37
16 38 36
17 38 36
17 38 36
17 38 36
17 38 36
16 38 36
17 39 36
17 38 36
17 38 36
16 38 36
17 39 37
17 38 36
17 39 37
17 39 37
17 39 37
17 39 37
17 39 37
17 39 37
17 38 36
17 38 36
17 38 36
16 38 36
17 39 37
16 38 36
17 39 37
17 39 37
17 39 37
17 39 36
17 39 37
17 38 36
17 39 37
17 39 37
17 39 37
17 39 37
17 39 37
17 38 36
17 39 37
17 38 36
17 39 36
17 39 36
17 38 36
17 38 36
17 39 36
17 39 37
17 39 37
17 38 36
17 40 37
17 39 37
17 39 36
17 38 36
17 39 37
17 38 36
17 38 36
17 39 37
16 38 36
17 38 36
17 38 36
17 39 37
17 38 36
17 39 36
17 39 37
17 39 37
16 38 36
17 39 37
17 39 37
17 38 36
17 40 37
17 39 37
17 38 36
17 40 37
17 39 37
17 39 37
17 39 37
17 39 37
17 38 36
17 39 37
17 40 37
17 39 37
17 38 36
17 40 37
17 38 36
17 39 37
17 39 37
17 38 36
17 39 36
17 39 37
17 39 36
17 39 37
17 39 37
17 39 37
17 39 37
17 39 37
17 39 36
17 38 36
17 38 36
17 39 37
17 39 37
17 39 37
17 40 38
17 39 37
17 38 36
17 38 36
17 39 37
17 39 37
17 39 37
17 40 38
17 39 37
17 39 37
17 39 36
17 39 37
17 38 36
17 39 36
17 39 37
17 39 37
17 38 36
17 39 37
17 39 37
17 39 37
17 39 36
17 40 37
17 39 37
17 40 38
17 39 37
17 38 36
17 39 37
17 38 36
17 40 37
17 39 37
17 39 37
17 39 37
17 39 37
16 38 36
17 38 36
17 40 38
17 39 37
17 39 37
17 39 37
17 40 37
17 39 36
17 39 37
18 40 38
17 39 37
17 39 36
17 39 37
17 38 36
17 39 37
17 39 36
17 39 37
17 40 38
17 39 37
17 39 37
17 38 36
17 40 37
17 39 36
18 40 38
17 39 37
17 39 37
17 39 37
17 39 37
17 39 37
17 39 37
17 39 36
17 39 37
17 39 37
17 39 37
17 40 37
17 39 37
17 40 37
17 40 38
17 40 38
17 40 38
17 39 37
17 39 37
17 39 37
17 39 37
17 39 37
17 39 37
17 39 36
17 39 37
17 39 37
17 39 37
17 39 37
17 38 36
17 40 37
17 40 38
17 40 37
17 39 37
17 38 36
17 39 36
17 39 37
17 39 37
17 39 37
17 39 37
17 39 37
18 40 38
17 39 37
17 40 37
17 39 37
17 39 37
17 38 36
18 40 38
18 40 38
17 39 37
18 40 38
17 39 36
18 40 38
18 40 38
18 41 38
17 40 37
17 39 37
17 40 38
17 40 37
17 40 38
17 39 36
17 39 37
17 39 37
17 40 37
17 39 37
17 39 37
17 38 36
17 40 37
17 39 37
17 40 37
17 39 36
17 39 37
17 39 37
17 39 37
17 39 37
18 40 38
17 40 37
17 40 38
17 38 36
17 40 37
17 39 37
18 40 38
17 39 37
18 40 38
17 39 37
17 40 37
17 39 37
17 39 37
17 39 37
17 40 37
17 39 37
17 38 36
17 39 37
17 38 36
17 39 37
17 40 37
17 39 37
17 39 37
17 39 37
17 39 37
17 39 37
18 40 38
17 40 37
17 39 37
17 39 37
17 38 36
17 39 37
17 39 37
17 38 36
17 40 37
18 40 38
17 39 37
18 40 38
17 39 37
18 40 38
17 40 37
17 40 37
17 40 38
17 39 37
17 40 37
17 40 38
18 40 38
17 40 37
17 39 37
17 39 37
17 39 37
17 39 37
17 39 37
17 39 37
17 39 37
18 40 38
18 40 38
17 39 37
17 40 38
17 38 36
17 39 37
17 39 37
17 39 37
18 40 38
17 39 37
18 40 37
17 39 37
17 39 36
17 40 37
17 40 37
18 40 38
17 40 37
18 40 38
17 39 37
18 40 38
17 40 37
18 41 38
17 38 36
17 40 37
18 40 38
17 39 37
17 39 37
17 39 36
17 40 37
18 40 38
17 40 37
18 40 38
17 40 37
17 39 37
17 40 37
17 39 37
18 40 38
17 40 37
17 39 37
17 38 36
17 39 37
18 40 38
17 39 36
18 40 38
18 40 38
18 40 38
17 39 37
18 40 38
18 40 38
18 40 38
17 39 37
18 40 38
17 39 37
17 40 37
18 40 38
17 40 37
18 41 38
18 40 37
17 39 37
17 40 38
17 40 37
18 40 38
17 40 37
18 40 38
17 40 37
17 39 37
18 40 38
17 39 37
18 40 38
17 40 38
17 39 37
18 40 38
17 40 37
17 40 37
17 39 37
18 40 38
17 39 36
18 40 38
17 40 37
17 38 36
18 40 38
17 40 37
17 40 37
18 40 38
18 40 38
17 39 37
18 40 38
17 39 37
17 40 37
17 40 37
17 39 36
17 39 37
18 40 38
18 40 38
17 40 37
17 39 37
17 39 37
17 39 37
18 41 38
18 41 38
18 40 38
17 39 37
18 40 38
17 39 37
17 39 37
17 38 36
17 39 37
17 39 37
18 40 38
17 40 37
17 39 37
17 39 37
17 39 37
18 40 37
17 40 37
18 40 38
18 40 37
18 41 38
18 40 38
17 39 37
18 40 38
18 41 38
18 40 38
18 40 38
17 40 37
18 40 38
18 41 38
17 39 37
17 40 37
18 41 38
18 40 38
18 40 38
18 40 38
17 40 37
18 41 38
18 40 38
18 40 38
18 40 38
17 40 37
18 40 38
18 40 38
18 41 38
17 40 37
18 40 38
18 40 38
18 40 37
18 40 37
18 41 38
18 40 38
17 39 37
17 40 37
18 41 38
18 41 38
18 40 38
18 40 38
18 40 37
17 40 37
17 39 37
18 41 38
18 41 39
18 41 38
18 41 38
17 40 37
18 42 39
18 40 38
18 40 38
18 40 37
18 41 38
18 41 38
18 40 38
18 41 38
18 40 38
18 41 38
17 40 37
18 41 38
18 40 38
17 40 37
17 40 37
18 40 38
18 41 38
17 40 37
18 41 38
18 40 37
18 40 38
18 41 39
18 41 38
18 40 38
17 39 37
18 41 39
17 39 37
18 40 38
17 40 37
18 40 37
18 40 38
18 41 38
18 40 38
18 40 38
18 41 38
18 40 38
18 41 38
17 39 37
18 40 38
18 41 38
18 41 38
17 40 37
17 39 37
17 40 37
18 40 38
17 40 37
18 41 38
18 40 38
18 40 38
18 40 38
17 40 37
18 41 38
17 40 37
17 39 37
18 41 39
18 40 37
18 40 38
18 40 38
18 40 38
18 40 38
17 39 37
17 39 36
17 40 37
18 40 38
18 41 39
17 40 37
17 40 37
18 40 37
18 40 38
18 41 38
18 40 38
18 40 38
17 40 37
18 41 38
18 40 38
18 40 38
18 41 38
18 40 37
18 41 38
18 40 37
18 40 38
18 40 38
18 41 38
18 41 38
18 40 38
18 40 38
17 39 37
18 40 38
18 40 38
18 41 38
18 41 39
18 41 38
18 41 38
18 41 39
17 39 37
18 41 39
18 41 38
18 40 38
18 42 39
18 40 37
18 40 38
18 41 38
18 40 37
17 40 37
18 41 38
18 40 38
18 41 38
18 40 37
18 40 37
18 41 38
18 41 38
18 41 39
18 41 38
18 42 39
18 40 37
18 41 38
18 41 38
18 40 38
18 41 38
18 41 38
18 41 39
18 40 37
18 41 39
18 40 38
18 41 38
18 40 38
18 41 38
18 41 38
18 40 38
18 40 38
18 41 38
17 40 37
18 41 38
19 42 39
18 41 38
18 41 38
18 40 37
18 41 38
18 41 38
18 41 38
18 40 37
17 40 37
18 41 38
18 41 38
18 41 38
18 40 38
18 42 39
18 41 38
18 40 38
18 41 38
18 41 38
18 41 38
18 41 38
18 41 38
18 41 38
18 40 37
18 41 38
18 41 38
18 41 38
17 40 37
18 41 38
18 41 38
18 40 38
18 40 37
18 40 38
18 40 38
18 41 38
18 41 38
18 41 38
18 40 38
18 40 38
18 40 38
18 41 38
18 40 38
18 40 38
18 41 38
17 39 37
18 40 38
18 41 38
18 40 38
18 41 39
18 41 38
18 41 38
18 41 39
18 41 39
18 40 38
18 41 38
18 40 38
18 41 38
18 40 38
18 40 37
18 41 38
18 41 38
18 41 39
18 42 39
18 41 38
18 41 38
18 41 38
18 40 38
18 41 39
18 42 39
18 41 39
18 41 38
18 40 38
18 40 38
18 41 39
18 41 38
18 41 38
18 41 39
18 42 39
18 41 38
18 40 38
18 41 38
18 40 38
18 42 39
19 42 39
19 42 39
18 41 39
18 40 38
18 42 39
18 41 38
18 41 39
18 41 38
18 40 38
18 40 37
18 40 38
18 41 38
19 42 39
18 41 39
18 41 38
18 41 38
18 41 38
19 42 39
18 41 38
18 41 38
18 41 39
18 41 39
19 42 39
18 41 38
19 42 39
18 41 38
18 41 38
18 41 38
18 42 39
18 41 38
19 42 39
18 42 39
18 42 39
18 42 39
18 41 38
19 42 40
19 42 40
19 42 39
19 42 39
19 42 39
19 42 39
18 41 38
18 42 39
18 41 38
18 41 38
18 40 38
18 41 38
19 43 40
18 42 39
18 41 38
18 41 38
18 42 39
19 42 39
18 41 38
18 42 39
18 41 39
18 41 38
18 41 38
19 42 39
18 41 38
18 40 37
18 42 39
18 41 38
18 40 38
18 41 38
18 42 39
19 42 39
18 40 38
18 40 38
18 41 38
18 41 38
18 41 38
18 40 38
18 41 38
18 41 38
18 41 39
18 40 38
18 41 38
19 42 39
18 41 38
18 41 38
18 41 38
18 41 39
18 41 38
18 41 38
18 41 38
18 41 38
18 41 38
18 41 38
18 41 38
18 41 38
18 41 39
18 40 38
18 40 37
18 42 39
18 40 38
18 41 38
18 42 39
18 41 38
18 41 39
18 41 38
18 41 38
18 41 38
18 41 38
18 41 38
18 41 38
18 41 38
18 40 37
19 42 39
18 41 38
18 42 39
18 41 38
18 42 39
19 42 39
19 42 39
19 42 39
19 42 39
18 41 38
18 41 39
18 42 39
19 42 39
18 41 38
18 42 39
18 42 39
18 41 39
19 42 39
19 42 39
19 42 39
18 41 38
18 41 38
18 40 38
18 42 39
18 41 38
18 42 39
18 41 38
18 42 39
19 42 39
18 41 38
18 41 38
19 42 39
18 41 38
18 42 39
19 43 40
19 42 39
19 42 39
19 42 39
19 43 40
19 43 40
18 42 39
19 42 39
19 42 39
18 42 39
19 42 39
19 42 39
19 42 39
19 42 39
18 42 39
19 42 39
18 41 38
19 42 39
18 42 39
18 42 39
19 43 40
19 42 39
19 43 40
18 41 38
19 42 39
18 41 38
18 41 38
19 42 40
18 41 38
18 42 39
19 42 39
18 41 38
19 43 40
18 42 39
19 42 39
18 41 39
18 41 38
18 41 38
18 41 38
19 43 40
19 42 39
19 42 39
19 42 39
18 41 38
18 41 38
18 40 38
18 41 39
19 42 39
18 41 38
18 41 39
18 40 37
18 41 39
18 40 37
18 41 38
18 40 37
18 42 39
18 41 38
18 41 38
18 41 38
18 42 39
19 42 39
18 42 39
18 41 38
19 42 39
18 41 38
18 41 38
18 41 39
18 41 39
19 42 39
18 42 39
19 42 39
18 41 38
18 41 38
19 42 39
19 42 39
19 42 39
18 42 39
19 43 40
19 42 39
19 42 39
18 42 39
19 42 39
19 43 40
19 42 39
19 42 39
18 42 39
18 42 39
18 41 38
19 42 39
19 42 39
18 41 38
19 42 39
18 42 39
19 43 40
19 42 39
18 42 39
18 42 39
19 42 39
19 42 39
19 42 39
19 43 40
19 42 39
19 42 39
19 42 39
19 42 39
19 42 39
19 42 39
19 42 39
19 42 39
19 42 39
19 43 40
19 42 39
19 43 39
19 43 40
19 42 39
19 42 39
19 42 39
19 43 40
19 43 40
19 43 39
19 42 39
19 43 40
19 42 39
19 43 40
19 43 40
19 42 39
19 42 39
19 42 39
19 43 40
19 42 39
19 42 39
19 42 39
19 42 39
19 43 40
19 43 40
19 43 40
19 42 39
19 42 38
19 42 39
19 42 39
19 42 39
19 43 40
19 42 39
20 44 41
19 43 40
19 43 40
19 43 40
19 42 39
19 42 39
19 43 40
19 42 39
19 42 39
19 42 39
18 41 38
19 42 39
19 43 40
19 42 39
19 42 39
19 43 40
19 42 39
19 43 40
19 42 39
18 41 38
19 42 39
19 42 39
19 43 40
18 41 38
19 43 40
19 42 39
18 42 39
18 41 38
18 41 39
18 41 38
18 40 38
18 41 38
18 41 38
18 42 39
19 42 39
18 41 38
18 42 39
18 42 39
19 42 39
18 42 39
18 42 39
18 41 38
18 41 38
18 42 39
18 41 38
19 42 39
19 42 39
18 41 38
19 43 40
19 42 39
19 43 40
19 43 40
19 43 40
19 42 39
19 42 39
19 42 39
19 42 39
19 42 39
19 42 39
19 43 40
19 42 39
19 42 39
19 43 39
19 42 39
19 43 40
19 42 39
19 42 39
19 43 39
19 43 40
19 42 39
19 42 39
19 43 39
19 43 40
19 43 40
20 44 41
19 43 40
19 42 39
19 43 40
19 42 39
19 42 39
20 44 41
19 42 39
19 42 39
19 44 40
19 42 39
19 43 40
19 43 39
19 43 40
19 43 40
19 43 40
19 42 39
19 43 40
19 43 40
19 42 39
19 42 39
20 44 40
20 44 41
19 43 40
19 42 39
19 43 40
19 43 40
19 43 40
19 43 40
20 44 40
19 42 39
19 42 39
19 43 40
19 43 40
19 43 40
19 43 40
19 43 39
19 43 39
19 42 39
19 43 40
19 43 40
19 43 39
20 44 40
19 44 40
19 43 40
19 43 39
19 43 40
19 43 40
19 44 40
19 43 40
19 43 39
19 43 40
19 43 40
19 43 39
20 44 40
20 44 40
19 42 39
20 44 41
18 41 38
19 42 39
19 43 40
19 42 39
19 42 39
19 43 39
19 44 40
19 43 40
19 43 40
19 43 40
19 42 39
19 43 40
19 42 39
19 44 40
18 41 38
19 42 39
18 41 38
19 42 39
19 42 39
19 42 39
18 41 39
19 42 39
19 42 39
19 43 40
19 42 39
18 41 38
19 43 40
19 42 39
19 43 40
18 41 38
19 42 39
19 44 40
19 42 39
19 43 40
19 42 39
19 42 39
19 42 39
18 42 38
19 43 40
19 43 40
19 43 40
19 43 40
19 43 40
19 43 40
19 42 39
19 42 39
19 42 39
19 42 39
19 42 39
19 44 40
19 43 40
19 43 40
19 43 40
20 44 41
19 43 40
19 43 40
19 43 40
19 43 40
19 44 40
20 44 41
19 44 40
19 43 40
20 44 41
19 43 40
20 44 41
19 43 39
20 44 41
19 43 40
19 44 40
19 43 40
20 44 40
20 44 41
20 44 40
20 44 41
19 43 40
19 43 40
19 43 40
19 43 40
20 44 40
19 44 40
19 43 40
19 43 40
19 43 40
20 44 41
20 44 40
20 44 40
20 44 40
20 45 41
19 43 39
19 43 40
19 43 40
19 43 40
20 44 41
20 44 41
20 44 41
20 44 41
19 44 40
20 44 41
20 44 41
20 44 40
20 44 41
19 43 40
19 43 40
20 44 41
20 44 41
19 43 40
19 43 40
20 44 40
20 44 40
20 44 41
20 44 41
20 44 41
19 43 40
20 44 41
19 43 40
19 43 40
20 45 41
20 45 41
20 44 40
20 45 41
20 44 41
20 44 41
19 43 40
20 44 41
19 44 40
20 44 41
20 44 41
19 43 40
20 44 41
20 44 41
20 44 41
19 43 40
20 45 41
19 44 40
19 43 40
19 43 40
19 43 40
19 42 39
19 42 39
19 43 40
19 42 39
19 42 39
19 44 41
19 43 39
19 43 40
18 42 39
19 42 39
19 43 40
19 42 39
19 42 39
20 44 41
19 43 40
19 42 39
19 42 39
19 42 39
19 43 40
19 42 39
20 45 41
19 42 39
20 44 41
19 42 39
19 43 40
19 43 40
19 43 39
19 43 40
19 43 40
19 43 40
20 44 41
20 44 40
20 44 41
19 43 40
19 43 40
19 43 40
20 44 40
19 43 40
20 44 41
19 43 39
19 42 39
21 46 42
20 44 41
20 44 41
20 45 41
20 44 41
20 44 40
20 44 41
20 44 41
20 44 40
20 44 41
19 43 40
20 43 40
20 44 41
20 44 40
20 44 41
20 45 42
20 44 41
20 44 40
20 44 41
20 44 41
20 44 40
20 44 40
20 45 41
20 45 41
20 44 41
20 44 40
20 44 41
20 44 40
20 45 41
20 44 40
20 44 40
20 45 41
20 45 41
20 45 41
21 46 42
20 45 41
20 46 42
20 44 40
20 45 41
20 44 41
20 44 41
20 43 40
20 44 41
20 44 41
20 45 41
20 44 40
20 44 41
20 44 41
20 44 40
20 45 41
20 45 41
20 44 41
21 46 42
20 44 41
20 45 41
21 46 43
20 44 40
20 44 40
20 44 41
20 45 41
20 44 40
20 45 41
21 46 43
20 44 41
20 45 41
20 44 41
19 43 40
20 43 40
20 45 41
20 44 40
20 45 41
20 45 41
19 43 40
20 44 41
20 44 41
20 44 40
19 42 39
20 44 41
19 42 39
19 42 39
19 43 40
19 43 40
19 42 39
19 42 39
19 43 40
19 42 39
19 42 39
20 44 41
19 43 40
19 43 40
19 43 40
19 43 40
19 43 40
20 44 41
19 43 40
18 42 38
19 44 40
19 43 40
19 43 40
19 43 39
20 44 41
19 43 40
19 43 40
20 44 40
19 43 40
20 44 41
20 44 40
20 45 41
20 44 41
19 43 39
19 43 40
19 43 40
20 44 41
20 45 42
19 43 40
20 44 40
19 43 40
19 43 40
20 44 41
20 45 41
20 44 41
20 45 41
20 45 41
20 45 41
20 44 40
19 43 40
20 44 41
20 43 40
20 45 41
20 44 41
20 45 41
20 44 41
20 45 41
20 45 42
20 45 41
20 45 41
20 45 41
19 43 40
20 44 41
20 45 41
20 44 41
20 44 41
20 44 40
21 46 42
21 46 42
20 44 41
20 45 42
20 45 41
20 46 42
20 45 41
20 45 42
20 44 40
20 45 41
21 46 42
20 45 42
21 46 42
20 45 42
21 46 42
20 45 41
21 46 42
20 45 41
20 45 41
20 45 41
20 45 41
20 45 41
21 46 42
20 45 42
20 44 40
21 46 42
20 45 41
20 45 41
20 45 41
20 45 42
20 45 41
21 47 43
20 44 41
20 45 42
20 44 41
21 46 42
20 45 41
21 46 42
20 45 41
20 44 41
20 45 42
20 45 41
20 45 41
21 46 42
21 46 42
20 45 41
21 46 42
21 46 42
21 46 42
21 46 42
20 46 42
20 45 41
20 45 42
19 42 39
19 43 40
19 43 40
19 43 40
19 43 39
19 43 39
19 44 40
19 42 39
19 42 39
19 43 40
19 43 40
19 42 39
20 44 41
20 44 41
19 43 40
19 43 40
20 44 40
19 43 40
20 44 41
19 43 40
20 44 41
20 44 40
20 44 40
19 43 40
20 44 40
19 43 40
20 44 41
20 45 41
19 43 40
20 45 41
20 45 41
19 43 39
20 45 41
20 45 41
20 45 41
20 44 40
20 45 41
20 44 41
20 45 41
20 44 41
20 45 41
20 43 40
20 45 41
20 45 42
21 46 42
20 45 41
20 44 41
20 45 41
20 44 41
20 45 41
21 46 42
20 45 41
20 45 42
21 47 43
21 46 42
21 46 42
20 45 41
20 45 41
21 46 42
20 44 41
20 44 40
20 45 41
20 45 42
20 45 41
21 47 43
20 45 41
20 45 42
21 46 43
21 46 42
21 46 42
20 45 42
21 46 42
21 46 42
20 45 42
21 47 43
20 45 41
20 45 41
21 46 42
20 45 41
21 46 42
20 45 41
21 46 42
21 46 42
21 46 42
21 47 43
21 47 43
21 46 42
20 45 41
21 46 42
21 46 42
21 46 42
21 46 42
20 45 41
21 46 42
21 47 43
20 45 41
21 46 42
21 45 42
21 46 42
21 46 42
21 46 42
20 45 41
21 46 43
21 45 42
21 46 42
21 47 42
21 46 42
21 45 42
21 47 43
21 46 42
20 45 41
20 45 41
21 47 43
21 46 42
21 46 43
21 46 42
21 46 42
21 46 42
20 44 41
21 46 42
19 43 40
19 43 40
20 44 40
19 44 40
19 42 39
19 43 40
19 42 39
19 43 39
20 44 41
20 44 41
20 45 41
20 44 40
20 44 41
20 44 40
19 43 40
20 44 40
20 44 40
20 45 41
19 43 40
20 44 41
20 45 41
20 44 41
20 44 41
20 44 41
20 45 41
20 44 41
20 45 41
20 44 41
20 44 41
20 44 40
20 45 41
20 44 41
20 45 41
20 45 41
20 46 42
20 45 42
20 45 41
20 45 42
21 46 42
20 45 41
20 44 41
21 46 42
20 45 41
20 45 42
20 45 41
21 46 42
20 45 41
20 46 42
20 45 41
20 44 41
21 46 42
20 45 41
20 44 41
20 45 42
21 46 42
21 46 42
20 45 41
21 46 42
21 46 42
20 45 41
21 46 42
20 45 41
20 45 41
21 46 42
21 46 42
21 47 43
21 47 43
20 45 41
21 46 42
21 46 42
21 46 42
21 46 42
21 47 43
21 46 42
21 46 42
21 46 42
21 47 42
21 46 42
21 46 42
21 46 42
21 47 43
21 47 43
21 46 42
21 47 42
21 46 42
21 47 43
21 46 42
21 46 42
21 47 43
21 47 42
21 47 43
20 45 41
21 46 42
21 46 42
21 47 43
21 47 43
21 47 43
21 46 42
21 46 42
21 46 42
21 46 42
21 47 43
21 47 43
21 46 42
21 47 43
21 47 43
21 46 42
21 47 43
21 46 42
21 47 43
21 47 43
21 47 43
22 48 44
21 46 42
21 47 43
21 46 42
21 46 42
21 47 43
21 47 43
21 47 43
19 43 40
19 43 39
19 43 40
19 43 39
19 43 40
19 43 40
20 44 41
19 43 40
20 44 40
19 43 40
20 44 40
19 43 40
20 45 41
20 44 40
19 43 40
20 44 41
20 45 41
20 45 41
20 44 41
20 45 41
20 45 42
19 43 40
21 46 42
20 45 41
20 44 41
20 44 41
20 45 41
20 44 41
20 45 41
20 44 40
20 45 42
20 45 41
20 44 41
20 45 42
21 46 42
21 46 42
20 44 40
20 45 42
20 45 41
21 46 42
20 45 42
20 45 41
21 46 42
21 47 43
20 45 41
21 46 42
20 45 42
21 46 42
20 45 41
21 47 43
21 45 42
21 47 43
20 45 41
21 46 42
21 46 42
21 46 42
21 46 42
22 48 44
21 47 43
21 47 43
21 46 42
21 47 43
21 46 42
21 47 43
21 47 43
21 46 42
22 48 43
21 46 42
22 47 43
21 47 43
21 46 42
21 47 43
22 48 44
21 47 43
21 46 42
21 46 42
21 47 42
21 47 43
22 48 44
22 48 43
22 48 44
21 47 43
22 48 43
21 46 42
21 47 43
21 47 43
21 47 43
22 48 44
22 48 43
21 46 42
21 47 43
21 47 43
22 47 43
21 47 43
22 48 43
22 48 44
22 48 44
22 48 44
22 48 44
22 48 43
22 48 44
21 47 43
22 47 43
22 48 44
22 48 44
22 49 44
22 48 44
21 46 42
22 48 44
22 48 43
21 47 43
21 46 42
22 48 44
21 47 43
21 47 43
21 47 43
21 47 42
22 48 43
22 47 43
22 47 43
20 44 40
20 44 40
19 43 40
20 44 40
20 44 41
20 43 40
19 42 39
20 44 40
19 43 40
20 45 41
20 45 41
20 45 41
20 45 41
20 45 42
20 44 40
20 44 41
20 45 42
20 44 40
21 46 42
20 44 40
20 45 42
20 45 41
20 45 41
20 44 41
20 44 41
20 44 41
20 45 41
20 45 42
20 45 41
20 45 41
21 46 42
21 46 42
21 46 42
20 45 41
21 46 42
21 46 42
21 46 42
21 46 42
21 46 42
21 46 42
21 46 42
21 46 42
21 46 42
21 46 42
21 47 43
21 47 43
21 46 42
21 47 43
21 46 42
21 46 42
21 46 42
21 46 42
20 45 41
21 47 43
21 47 43
21 47 43
21 46 42
21 47 43
21 47 43
21 47 42
21 47 43
22 48 43
22 48 43
21 47 43
22 48 44
22 48 43
21 47 43
21 47 43
21 46 42
22 48 44
21 47 43
22 47 43
22 48 43
22 47 43
22 48 44
21 47 43
22 48 43
22 48 44
21 47 42
22 48 44
21 47 43
22 48 43
21 46 42
21 47 43
22 47 43
22 48 43
22 47 43
23 49 45
21 47 43
21 47 43
21 47 43
22 49 45
22 49 44
21 47 43
21 47 43
22 48 44
22 49 44
22 48 44
22 49 44
22 48 44
22 48 43
22 47 43
22 48 44
22 48 44
22 48 44
22 49 44
22 48 44
22 47 43
22 49 44
22 48 44
22 48 43
22 47 43
22 48 44
22 49 45
22 49 44
22 48 44
22 48 43
22 49 44
22 48 43
22 48 43
20 44 41
20 44 40
19 44 40
20 44 41
20 44 41
20 45 41
20 45 41
20 44 41
20 44 40
20 45 42
20 44 40
20 45 41
20 44 41
20 45 42
20 44 41
20 45 42
20 44 41
20 45 42
20 44 41
20 44 41
20 45 41
20 44 41
20 45 42
20 45 41
20 44 41
21 46 42
21 47 43
20 45 41
20 45 41
21 47 43
20 45 41
21 46 42
21 46 42
20 45 42
21 46 42
21 46 42
21 46 42
21 47 43
21 46 42
21 47 43
20 45 41
21 46 42
20 45 41
21 46 42
21 46 42
21 46 42
21 47 43
21 47 43
20 45 41
21 46 42
21 46 42
21 46 42
22 47 43
21 47 42
21 46 42
21 47 43
21 47 43
21 47 43
22 48 44
21 47 42
45 48 43
162 62 48
202 72 54
174 132 118
75 79 71
22 47 43
21 46 42
22 49 44
22 47 43
22 48 44
22 48 43
21 47 43
22 47 43
22 49 44
22 49 45
22 48 43
22 48 44
22 48 43
22 49 45
22 49 45
22 48 44
22 49 44
22 49 44
22 49 44
22 48 44
22 49 45
22 48 44
22 47 43
22 49 45
22 49 45
23 50 45
22 48 44
22 48 43
22 48 44
22 47 43
22 49 44
22 47 43
22 49 45
22 49 44
22 49 44
22 49 44
22 49 44
22 49 44
22 48 44
22 48 43
22 48 44
22 48 44
23 50 45
22 48 44
22 49 44
22 48 44
22 48 43
22 47 43
23 49 45
22 49 45
22 48 44
23 50 45
23 50 46
22 49 44
22 48 44
20 44 41
20 44 40
20 44 41
20 44 41
21 46 42
20 44 41
20 44 40
21 46 42
20 44 41
20 44 40
20 45 41
20 45 41
20 45 41
20 45 42
20 45 41
20 44 41
20 45 41
20 45 41
20 44 40
21 45 42
20 45 41
20 44 41
20 45 42
21 46 42
20 45 41
20 45 42
21 46 42
21 46 42
20 45 41
20 45 41
21 46 42
21 47 43
21 46 42
21 47 43
21 46 42
20 45 41
21 47 43
21 47 43
21 47 43
21 46 42
21 47 43
21 46 42
21 46 42
21 45 41
21 46 42
21 47 43
21 46 42
21 46 42
22 48 44
21 47 43
21 47 42
21 46 42
21 46 42
22 49 45
21 47 42
22 47 43
21 47 42
22 48 44
21 47 43
22 48 44
140 88 80
196 66 48
216 87 70
246 218 196
210 186 167
28 51 46
22 48 44
22 47 43
22 49 44
22 47 43
22 47 43
22 49 44
22 48 44
22 48 43
21 47 43
22 48 43
22 47 43
22 49 44
23 50 45
23 50 45
22 49 44
22 49 44
21 47 42
22 49 44
22 49 44
22 48 44
22 49 44
23 49 45
22 49 44
23 49 44
22 49 44
22 49 44
22 49 44
22 48 44
23 50 45
22 48 44
23 50 45
22 49 44
22 49 44
23 50 45
23 50 45
22 49 44
22 49 44
22 49 44
23 50 45
22 49 44
22 49 44
22 49 45
22 49 44
23 50 45
23 49 45
23 49 45
22 49 44
22 49 44
22 49 45
23 49 45
22 49 44
22 49 44
22 49 44
23 50 45
20 44 41
20 45 41
20 44 41
19 43 40
20 44 40
20 45 41
20 45 42
21 46 42
21 46 42
20 45 41
21 46 42
20 45 41
21 46 42
20 45 41
20 45 41
20 45 42
20 45 42
21 46 42
20 45 41
20 45 41
20 44 41
20 45 41
20 45 42
21 46 42
21 46 42
21 46 42
20 45 41
20 45 41
21 46 42
21 46 42
21 45 42
21 46 42
21 46 42
21 48 43
21 46 42
21 47 43
21 46 42
21 46 42
21 47 43
21 46 42
21 47 43
21 46 42
22 48 44
21 45 41
21 46 42
21 47 43
21 47 43
21 47 43
21 46 42
21 46 42
21 47 43
21 47 43
21 47 43
21 47 43
21 46 42
22 48 44
22 48 44
21 47 43
22 48 43
39 55 51
136 92 84
159 54 39
173 76 62
193 170 153
203 178 159
82 83 75
22 48 44
22 47 43
22 49 45
22 49 44
22 48 43
21 47 43
23 50 45
22 49 45
22 48 44
22 48 44
22 48 44
22 49 44
22 49 44
22 49 44
22 49 44
52 53 46
79 61 50
28 52 47
22 49 44
23 49 45
22 49 44
23 50 45
22 49 44
23 50 45
22 49 44
23 51 46
23 49 45
23 50 45
23 50 45
23 50 45
22 48 44
23 50 45
23 50 45
22 49 44
23 50 45
23 50 45
23 50 45
23 51 46
23 51 46
23 50 45
23 50 45
23 49 45
23 51 46
24 52 47
23 49 44
23 50 45
23 50 46
23 50 45
23 51 46
23 50 45
22 49 44
23 50 46
23 50 45
23 49 44
20 45 41
20 44 40
20 46 42
20 44 41
20 45 41
20 44 40
20 45 41
20 45 42
21 46 43
20 44 40
20 45 41
20 44 41
21 46 42
20 44 41
20 45 41
21 46 42
20 45 41
20 45 41
20 45 41
20 45 41
20 45 41
21 46 42
21 46 42
21 46 42
20 45 41
21 46 42
21 46 42
21 46 42
21 46 42
21 46 42
21 46 42
21 47 43
21 47 43
21 47 43
21 46 42
21 48 43
21 47 43
21 47 43
21 46 42
22 48 44
22 48 43
22 48 43
21 46 42
22 47 43
21 47 43
21 47 43
21 47 43
21 47 43
22 48 44
21 46 42
22 48 44
22 48 43
22 48 43
22 47 43
22 49 44
22 48 43
22 49 44
21 46 42
22 48 43
43 58 53
106 77 70
102 35 25
116 49 39
122 107 96
141 125 110
61 68 60
23 49 45
22 48 43
22 49 44
22 48 44
22 49 44
23 49 45
22 49 44
22 49 44
23 50 45
23 50 45
22 48 43
22 49 44
22 49 44
27 50 45
158 84 56
227 111 67
242 178 152
218 196 178
90 90 81
22 48 43
23 50 45
23 50 45
22 49 44
23 50 45
22 49 44
23 51 46
23 50 45
23 51 46
22 49 44
23 50 45
23 50 45
23 50 45
22 49 44
23 50 45
23 50 45
23 51 46
23 51 46
23 51 46
23 50 45
23 51 46
23 49 45
23 51 46
24 52 47
23 50 45
23 50 45
23 50 45
23 50 46
23 51 46
23 51 46
23 50 45
23 50 45
22 49 44
23 50 45
23 50 45
20 44 41
20 45 41
20 45 41
20 45 41
21 46 42
21 46 42
20 44 41
20 45 41
21 47 43
20 45 42
20 45 41
20 45 42
20 45 41
20 45 42
21 46 42
20 45 41
21 46 42
21 46 42
20 44 41
21 46 42
20 45 41
21 46 42
21 46 42
21 47 43
21 46 42
21 46 42
21 46 42
21 47 43
20 45 41
21 47 43
21 46 42
21 47 43
22 48 44
21 46 42
21 47 43
21 47 43
21 47 43
22 48 43
21 47 43
21 47 43
21 47 42
21 47 42
21 47 43
21 47 43
21 47 42
21 47 43
21 47 43
21 47 43
21 47 42
23 47 43
41 50 57
71 63 79
127 118 110
59 67 61
22 48 44
22 48 43
22 48 43
22 47 43
22 48 44
22 48 44
45 51 46
35 15 10
49 19 12
48 40 32
58 60 51
22 48 44
22 48 43
22 48 43
22 48 44
22 49 44
22 49 44
22 48 43
22 49 44
23 49 45
22 49 44
23 50 45
23 50 45
22 49 44
22 48 44
87 69 59
191 95 58
204 100 61
204 163 145
214 192 175
189 169 152
37 56 50
23 50 45
22 49 44
23 51 46
23 51 46
24 52 47
23 50 46
23 49 45
23 50 45
23 50 46
23 50 45
23 50 45
23 50 45
23 50 45
23 51 46
23 49 45
23 51 46
23 50 45
23 49 45
23 50 45
23 50 45
23 49 45
22 49 44
23 51 46
23 50 45
23 49 45
23 50 45
23 51 46
22 49 44
23 51 46
23 50 45
23 50 45
23 51 46
23 50 45
23 50 45
20 44 40
20 44 41
21 46 42
20 44 41
20 44 41
21 46 42
20 45 41
21 45 42
20 45 42
20 43 40
20 45 41
21 46 42
20 45 42
21 46 42
20 45 41
21 46 42
20 45 41
21 46 42
21 46 43
21 47 43
20 45 41
20 44 40
21 46 42
21 46 42
21 46 42
21 45 42
21 46 42
21 46 42
21 47 43
21 46 42
21 46 42
21 47 43
21 47 43
21 46 42
21 46 42
22 48 43
21 46 42
20 45 41
21 47 42
21 47 42
21 47 43
22 48 44
22 48 43
22 48 44
22 48 43
21 47 43
22 48 44
22 48 44
21 47 43
55 49 67
78 54 90
125 105 120
229 207 189
222 199 179
68 72 65
22 48 44
22 47 43
21 45 41
18 40 37
16 36 34
15 34 32
13 27 24
14 22 19
17 31 27
20 43 38
21 46 41
22 47 43
22 48 44
23 50 45
22 48 43
22 48 43
22 49 44
23 50 45
22 49 44
22 49 44
23 49 45
22 49 44
23 50 45
23 50 45
111 89 77
150 74 45
159 79 48
161 121 106
161 146 134
170 152 138
63 71 64
80 84 77
151 140 128
172 158 144
138 129 117
43 60 54
23 51 46
23 50 45
22 49 44
23 50 45
23 51 46
22 49 44
23 50 45
23 50 45
23 51 46
23 49 45
23 51 46
23 50 45
23 50 45
23 51 46
23 51 46
23 49 44
24 51 46
24 52 47
23 51 46
23 51 45
23 50 46
23 50 46
23 50 45
23 51 46
23 50 45
23 50 45
23 50 45
22 49 44
24 51 46
20 44 41
20 45 41
20 45 41
20 45 41
20 45 41
20 45 41
20 44 41
20 45 42
21 46 42
21 46 43
20 45 41
20 45 41
20 45 41
20 45 41
21 46 42
21 46 42
21 47 43
21 46 42
21 46 42
21 46 42
21 47 43
20 45 41
20 45 41
20 45 41
21 46 43
20 45 41
21 47 43
21 47 43
21 46 42
21 46 42
21 46 42
21 47 43
21 46 42
21 46 42
21 46 42
21 46 42
21 46 42
21 46 42
21 47 43
21 47 43
21 47 43
21 47 42
22 48 44
21 46 42
21 47 43
21 47 43
21 46 42
21 47 43
57 66 62
74 57 81
70 48 81
115 99 110
198 179 166
208 185 168
149 134 120
22 48 44
22 47 43
22 48 44
22 48 43
22 47 43
22 47 43
22 48 43
21 46 42
22 48 43
22 47 43
22 48 43
22 49 44
22 49 44
23 50 45
22 48 44
22 49 44
23 49 44
22 48 44
22 49 44
23 50 45
23 50 45
23 50 45
22 49 44
23 49 44
81 78 71
120 61 37
111 55 32
102 68 55
101 94 86
111 103 93
44 58 53
177 162 151
196 180 169
208 190 177
223 202 185
174 158 144
30 52 47
23 51 46
23 50 45
23 50 45
23 51 46
23 50 45
23 49 45
23 51 46
23 51 46
24 52 47
23 50 45
23 50 45
23 50 45
23 50 45
23 51 46
23 51 46
23 50 45
22 49 44
23 50 45
22 49 44
24 52 47
23 51 46
24 51 46
22 49 44
23 51 46
23 50 45
23 50 45
24 51 46
23 50 45
20 45 41
20 45 41
21 46 42
20 45 41
20 45 42
21 46 42
20 45 41
21 46 42
21 46 42
21 46 42
20 44 41
20 44 41
21 46 42
20 45 41
20 45 41
21 47 42
21 46 42
21 47 43
21 46 42
21 46 42
21 46 42
21 46 42
21 46 42
21 46 42
20 45 41
21 46 42
21 46 42
21 46 42
21 46 42
21 47 43
21 46 42
21 47 43
22 48 44
21 47 43
21 46 42
21 47 43
21 46 42
21 47 43
22 48 44
21 47 43
22 48 44
21 47 43
21 47 43
21 47 43
21 47 43
21 47 43
22 48 44
22 48 43
75 78 72
71 56 74
59 41 68
72 58 76
147 134 125
165 148 134
158 141 125
22 49 44
22 48 44
22 48 44
22 48 44
22 48 43
22 48 43
22 48 43
22 49 44
22 48 44
22 48 43
23 51 46
22 49 45
22 49 44
22 48 44
22 49 44
22 48 43
22 47 43
22 48 44
22 49 44
23 50 45
22 48 44
22 49 44
22 49 44
23 49 45
45 57 51
55 35 24
43 25 14
41 24 13
48 46 37
54 61 54
90 87 83
163 151 143
162 151 143
175 161 152
183 167 156
183 165 151
76 79 71
23 50 45
23 49 44
23 50 45
23 50 45
23 50 45
23 51 46
23 50 46
24 51 46
23 49 44
24 52 47
23 50 45
23 51 46
23 50 45
23 51 46
23 51 46
23 50 45
23 50 45
23 50 45
23 50 45
24 51 46
22 49 44
23 50 45
23 51 46
23 50 45
23 50 45
23 50 45
23 49 45
23 51 46
20 45 42
20 45 41
20 45 41
20 45 41
20 45 41
20 45 41
21 46 42
21 46 42
21 46 42
21 46 43
21 46 42
21 47 43
20 45 41
21 46 43
21 46 42
21 46 42
21 46 42
21 46 42
21 46 42
20 45 41
20 45 41
21 47 43
21 46 42
21 46 42
21 46 42
21 46 42
21 46 42
22 48 43
21 47 43
21 46 42
21 46 42
21 46 42
21 47 43
21 47 43
22 48 44
21 46 42
22 47 43
21 46 42
21 47 43
21 47 43
21 46 42
21 46 42
22 48 44
21 47 43
22 48 44
22 49 44
21 47 43
22 48 43
52 62 57
65 56 62
40 28 46
43 30 49
87 81 76
96 89 80
106 99 87
21 47 43
22 48 43
21 47 43
22 49 44
22 48 43
22 48 44
22 48 43
21 47 42
22 48 44
22 48 44
22 48 43
22 49 44
22 49 44
22 48 44
22 49 44
22 49 44
22 49 44
22 48 44
22 49 44
22 49 44
22 49 44
22 48 43
21 46 42
19 42 38
16 36 33
13 28 25
10 16 14
10 14 11
15 26 22
22 44 39
60 58 56
131 121 114
139 128 119
143 132 124
140 129 120
140 129 119
48 57 52
22 48 44
22 48 44
23 50 45
22 49 44
23 51 46
23 49 44
23 50 45
23 49 45
23 51 46
23 51 46
23 50 45
23 50 45
23 50 45
23 50 45
23 50 45
23 51 46
23 51 46
23 50 46
23 51 46
23 51 46
23 51 46
23 51 46
23 50 45
22 49 44
23 50 45
22 49 44
23 51 46
23 50 45
20 45 42
20 45 41
21 46 42
20 46 42
20 45 42
20 45 41
21 47 43
21 46 42
21 45 42
21 46 42
21 46 42
21 46 42
21 46 42
21 46 42
21 47 43
21 46 42
21 46 42
21 46 42
20 45 41
21 46 42
20 45 42
21 46 42
21 47 43
21 46 42
21 46 42
21 46 42
20 45 41
21 46 42
21 47 42
21 47 43
21 47 43
21 47 42
21 46 42
21 46 42
21 46 42
21 47 43
21 46 42
21 47 43
22 48 44
21 47 43
21 47 43
21 47 43
20 45 41
22 47 43
21 47 43
21 47 43
22 48 44
21 46 42
21 46 41
45 49 46
11 11 15
19 15 23
22 19 22
54 53 45
37 53 47
22 48 44
21 47 42
22 48 44
21 47 42
21 47 43
22 47 43
22 48 43
22 48 44
22 48 44
22 48 44
22 49 45
22 49 44
22 49 45
22 47 43
22 49 45
21 46 42
22 47 43
22 48 44
22 47 43
22 48 43
22 48 44
22 49 44
22 48 43
22 48 44
20 43 39
21 46 41
20 44 40
20 44 40
22 47 42
22 47 42
17 28 27
57 53 49
95 88 81
100 94 86
87 82 75
66 62 57
28 48 44
23 50 45
23 49 45
23 50 45
23 51 46
23 49 44
22 49 44
23 50 45
22 49 44
23 50 45
23 50 45
23 50 45
23 50 45
23 50 45
23 51 46
23 50 45
23 50 45
23 50 45
22 49 44
23 50 45
23 50 45
23 51 46
23 51 46
23 50 45
23 50 45
23 50 45
23 50 45
23 50 45
23 50 45
20 45 41
21 46 42
20 45 41
20 45 41
21 46 42
20 45 41
20 45 42
21 45 42
20 45 41
20 45 41
21 46 42
21 46 43
20 45 41
20 45 42
21 46 42
21 47 43
20 45 41
21 46 42
21 47 43
20 45 41
21 47 43
21 47 43
21 47 43
21 46 42
21 46 42
21 46 42
21 46 42
21 46 42
21 45 42
21 46 42
21 46 42
21 46 42
21 46 42
21 46 42
21 47 43
21 47 43
21 47 43
22 48 44
21 46 42
21 47 43
21 46 42
22 47 43
21 46 42
21 47 42
21 46 42
20 44 40
18 40 37
16 36 34
15 35 33
19 33 31
8 18 17
6 14 14
12 17 17
18 38 34
20 43 38
21 46 41
21 46 42
22 48 43
22 47 43
22 48 43
22 48 44
22 48 43
22 48 43
22 49 44
21 47 42
22 49 44
22 49 44
22 49 44
22 47 43
22 48 44
22 49 45
21 47 43
22 48 43
22 48 44
23 50 45
23 50 45
22 49 44
22 49 44
22 48 44
22 48 44
22 49 44
22 49 44
22 48 43
22 48 44
22 48 43
21 44 39
11 16 16
4 8 7
14 15 13
7 10 10
14 29 26
22 48 44
23 50 45
22 48 44
23 50 45
23 49 44
23 49 45
22 49 44
23 51 46
22 49 44
23 50 45
22 49 44
23 50 45
23 50 45
23 50 45
22 49 44
23 51 46
23 50 45
22 48 43
23 50 45
23 50 45
22 49 44
23 49 45
23 50 45
23 49 45
22 49 44
22 49 44
22 48 44
23 50 45
22 49 44
20 46 42
20 45 41
20 45 41
20 45 41
20 45 42
20 45 41
20 45 41
20 45 41
20 45 41
21 46 42
20 45 41
21 46 42
20 45 41
20 45 41
21 46 42
20 45 41
20 45 41
21 46 42
21 46 42
20 45 42
21 46 42
21 46 42
21 46 42
21 47 43
21 46 42
21 46 42
21 47 43
21 46 42
21 46 42
21 47 43
20 45 41
21 46 42
22 48 43
21 47 43
21 47 43
21 47 43
21 46 42
20 45 41
21 46 42
21 47 42
21 46 42
21 45 41
21 45 41
21 47 43
21 47 43
20 45 41
20 44 40
19 42 39
19 43 39
19 42 39
19 41 38
20 44 40
20 44 40
21 45 41
21 47 42
22 47 43
21 46 42
22 47 43
21 47 43
22 48 44
22 47 43
21 46 41
22 47 43
22 47 43
22 49 44
22 48 43
22 49 44
22 49 45
22 49 44
22 48 44
22 49 44
23 51 46
22 48 43
22 48 44
22 48 43
22 48 44
22 48 43
22 48 43
23 50 45
22 48 44
22 48 43
22 47 42
22 49 44
20 44 40
17 39 36
15 34 31
12 26 25
5 12 12
4 10 9
10 22 19
19 41 36
21 45 40
21 46 41
22 48 43
22 49 44
22 48 44
23 50 46
22 48 43
21 47 43
22 49 44
22 49 44
22 49 44
22 49 45
23 50 45
22 49 44
23 50 45
23 51 46
23 50 45
22 49 44
22 49 44
23 51 47
23 50 45
22 49 44
22 49 44
23 51 46
23 50 45
23 50 45
23 50 45
23 50 45
23 50 45
20 44 41
20 45 41
21 46 43
20 45 41
20 45 41
20 44 41
20 45 41
21 45 42
20 45 41
21 46 42
20 45 41
20 45 41
20 44 40
21 46 42
21 45 42
21 46 42
20 45 41
20 45 42
21 46 42
21 46 42
21 46 42
21 47 43
21 45 42
21 46 43
21 46 42
21 46 42
21 47 43
21 46 42
21 46 42
21 46 42
20 45 41
22 48 44
21 47 43
21 47 43
21 46 42
21 47 42
21 47 43
21 47 43
21 47 43
21 46 42
20 45 41
21 47 43
22 47 43
21 47 43
21 46 42
21 47 43
21 46 42
21 46 42
21 47 43
21 47 43
21 46 42
21 47 43
21 46 42
22 48 43
21 47 42
21 47 43
22 48 43
21 46 42
22 48 43
21 47 43
21 47 42
21 47 43
22 48 44
21 47 43
22 48 43
22 48 43
22 48 43
21 47 42
22 49 45
22 48 43
22 48 43
22 48 43
21 47 43
21 47 43
22 48 44
22 49 45
22 49 44
22 49 44
22 49 45
22 48 43
22 48 43
21 47 43
22 48 43
21 47 43
20 45 41
20 43 40
20 43 40
18 40 37
19 42 39
20 45 40
21 46 41
21 47 42
22 47 43
22 48 43
23 49 44
22 49 44
22 49 44
22 48 44
23 49 45
23 49 45
22 48 44
22 49 44
22 48 43
22 49 44
22 49 44
22 49 44
23 50 45
22 48 43
22 49 45
23 50 45
23 49 45
22 48 44
23 49 45
22 49 44
22 49 44
23 51 46
23 50 45
22 49 44
22 49 45
22 49 44
20 44 41
20 45 41
20 45 41
21 46 42
20 45 41
20 45 41
20 45 41
21 46 42
20 45 41
21 47 43
20 44 41
21 46 42
21 46 42
21 46 42
20 45 41
21 46 42
21 46 42
20 45 42
20 45 41
21 46 42
21 46 42
20 45 41
21 46 42
21 46 42
21 46 43
21 46 42
20 45 41
21 47 43
21 46 42
20 44 40
20 45 41
21 46 42
20 45 41
21 46 42
21 47 43
21 46 42
21 46 42
21 46 42
22 48 44
21 47 43
21 45 41
21 47 43
21 47 42
21 46 42
21 47 43
22 48 44
21 46 42
21 47 43
21 46 42
21 47 43
22 48 44
22 47 43
21 46 42
21 46 42
21 47 43
21 47 43
21 47 43
21 46 42
21 46 42
22 48 44
21 47 43
21 47 43
22 48 43
21 47 43
21 47 43
22 48 44
22 48 43
21 47 43
22 48 44
21 46 42
22 49 44
22 47 43
22 48 43
22 48 43
22 48 44
22 48 43
22 48 43
22 47 43
22 48 44
22 48 44
22 49 45
22 48 43
22 48 43
21 47 42
22 48 43
22 49 44
22 48 44
22 48 43
22 49 44
22 49 44
22 49 44
22 48 43
23 50 45
22 49 44
22 48 44
22 48 43
22 49 44
22 48 43
22 48 44
22 49 44
22 49 44
22 49 45
22 48 43
22 49 44
23 49 45
22 48 44
22 48 44
22 49 44
22 49 44
22 49 44
22 49 45
22 49 44
23 50 45
23 50 45
22 49 44
22 49 44
23 50 45
22 49 44
22 48 44
22 49 44
20 45 42
20 45 41
20 45 41
20 44 40
20 44 40
21 47 43
20 45 42
21 46 42
21 46 42
21 47 43
20 45 42
20 45 41
20 45 41
21 46 42
20 45 41
21 46 42
20 45 42
21 46 42
20 45 41
20 45 41
20 45 41
20 45 42
21 46 42
20 44 40
21 47 43
20 45 41
21 46 42
20 45 41
21 46 42
21 46 42
21 46 42
21 46 42
21 46 42
21 46 42
21 47 43
21 46 42
22 47 43
21 47 43
21 47 43
21 46 42
21 47 43
21 46 42
21 46 42
20 45 41
21 46 42
21 47 43
22 48 43
21 46 42
21 46 42
21 47 43
21 47 43
21 47 43
21 45 41
21 47 43
22 48 44
21 46 42
21 47 42
22 48 43
21 47 43
21 46 42
21 47 43
21 47 43
22 48 43
22 48 44
21 47 42
22 48 43
22 48 44
22 48 44
21 47 42
21 47 43
22 48 44
22 48 44
22 48 43
22 48 43
22 48 44
21 47 43
21 47 42
21 47 43
21 47 43
22 47 43
22 48 43
22 48 43
21 47 43
22 47 43
22 48 44
22 48 43
22 49 44
22 48 44
22 48 44
22 48 44
22 48 44
23 50 45
22 48 44
22 49 45
21 47 42
22 48 44
23 49 45
22 48 44
22 48 43
22 48 44
22 49 44
21 47 43
22 49 45
22 48 44
21 47 43
22 49 44
22 48 44
23 50 45
22 49 44
22 48 44
23 49 45
22 49 44
22 49 45
23 50 45
22 49 44
23 49 45
23 51 46
22 48 43
23 49 45
22 49 44
21 46 42
20 45 42
20 45 41
20 45 42
20 44 41
21 46 42
20 45 41
20 44 40
21 46 42
20 45 41
20 45 41
21 46 42
21 46 42
20 45 42
21 46 42
20 44 40
21 46 42
20 45 42
21 46 42
20 45 41
21 46 42
21 46 42
21 46 42
21 46 42
21 46 42
21 45 42
21 46 42
20 45 41
20 45 41
21 46 42
21 46 42
21 46 42
21 46 42
21 47 43
21 46 42
21 46 43
21 46 42
21 47 43
21 47 43
21 47 43
21 46 42
21 46 42
21 46 42
21 46 42
21 47 43
21 47 42
21 46 42
21 47 43
21 46 42
21 47 43
21 46 42
21 47 43
21 47 43
21 47 43
21 46 42
21 46 42
21 47 43
21 47 42
21 47 42
21 46 42
21 47 42
21 47 43
21 47 43
21 46 42
22 47 43
21 47 43
22 48 44
22 48 44
21 47 43
21 47 43
21 47 43
22 48 44
21 47 43
22 48 44
22 48 43
22 48 43
22 48 43
21 47 43
22 48 44
21 47 43
22 49 44
21 47 43
21 47 43
22 49 44
21 47 43
22 48 43
22 48 43
22 48 44
22 48 43
22 48 44
23 50 45
21 47 43
22 49 44
22 48 44
22 49 45
22 48 44
22 49 44
22 48 43
22 48 44
22 48 44
22 48 44
22 48 44
22 49 44
22 48 44
22 48 43
22 48 44
22 49 45
22 49 44
22 48 44
22 48 44
22 49 44
22 48 44
22 49 44
22 48 43
22 48 44
22 48 44
22 49 44
22 48 43
22 49 44
22 49 44
21 46 42
20 44 41
20 45 41
20 45 41
21 47 43
20 45 41
20 45 42
20 44 41
20 45 42
20 45 41
20 45 42
20 45 41
20 45 41
20 45 41
20 45 41
21 46 43
20 45 41
21 46 42
20 45 42
21 47 43
20 45 42
21 46 42
21 47 43
21 46 43
20 45 41
21 46 42
21 46 42
20 45 41
21 47 43
21 46 42
21 46 42
20 45 41
21 47 43
20 45 41
21 46 42
21 46 42
21 46 42
21 46 42
20 45 41
21 46 42
21 47 43
21 46 42
21 46 42
21 46 42
21 46 42
21 47 43
21 46 42
21 47 43
21 46 42
21 47 43
21 46 42
21 47 43
21 46 42
22 48 43
21 46 42
21 46 42
22 48 44
22 48 44
21 47 43
22 48 44
21 47 43
21 47 43
21 47 42
22 48 44
22 48 43
22 47 43
21 47 43
22 48 43
21 47 43
22 48 44
22 48 43
22 49 44
22 48 43
22 48 44
21 47 43
22 48 44
21 46 42
22 48 43
22 48 43
21 46 42
22 48 44
21 47 43
22 49 44
22 48 43
22 48 44
22 47 43
22 47 43
22 48 43
21 47 43
22 48 44
22 48 43
21 46 42
22 48 43
22 48 44
21 47 43
21 47 43
21 47 43
22 49 44
22 48 44
22 49 44
22 49 44
22 47 43
23 50 45
22 48 44
21 47 43
22 48 43
22 47 43
22 49 44
22 48 43
22 47 43
22 48 44
22 49 44
22 48 44
22 48 44
22 48 44
22 48 44
22 48 43
22 48 43
22 49 44
22 48 44
20 45 42
20 45 41
20 44 41
21 46 42
20 45 41
20 45 41
20 45 41
21 46 42
20 44 40
20 45 42
21 46 42
20 45 42
20 45 41
20 45 41
20 45 42
20 45 42
20 45 42
20 45 41
21 46 42
21 46 42
20 45 41
20 45 41
21 46 42
20 45 41
21 46 42
20 45 41
21 46 43
20 45 41
20 45 41
21 46 42
21 46 42
21 46 42
21 46 42
21 46 42
21 46 42
21 46 42
20 45 41
20 45 41
21 46 42
21 46 42
21 46 42
21 46 42
21 47 43
22 48 44
21 47 43
21 46 42
21 46 42
21 47 43
21 47 43
21 46 42
20 45 41
21 46 42
20 45 41
22 48 44
21 46 42
21 47 43
21 46 42
22 48 44
21 47 43
21 46 42
21 46 42
21 47 43
21 46 42
21 47 43
21 46 42
21 47 43
21 47 43
21 46 41
22 48 43
21 47 43
21 46 42
22 47 43
21 46 42
22 47 43
22 48 43
21 46 42
22 47 43
22 48 44
22 48 43
22 48 43
22 48 43
21 47 43
21 47 43
21 47 43
21 47 43
21 47 43
21 47 43
22 48 43
21 47 43
21 47 43
21 47 43
21 47 43
22 48 44
21 46 42
22 48 43
22 48 44
22 48 43
22 48 43
21 47 43
22 48 44
21 47 43
21 46 42
22 48 44
22 48 44
22 48 44
22 48 43
22 48 43
22 48 44
22 48 44
22 48 43
22 48 43
22 49 44
22 48 44
21 47 43
22 48 43
22 48 44
21 47 43
22 48 44
22 48 43
22 47 43
20 45 41
20 44 41
20 45 41
20 45 42
20 45 41
20 45 41
21 46 42
20 44 40
20 45 41
20 45 41
20 44 41
20 44 40
20 44 41
20 45 41
20 45 41
20 44 41
20 45 42
20 45 41
20 45 41
21 47 43
20 45 42
21 46 42
21 46 42
21 46 42
20 45 41
21 46 42
21 46 42
21 45 42
21 46 42
21 45 42
21 46 42
21 45 42
20 45 41
21 46 42
21 46 42
21 46 42
20 45 41
21 47 43
21 47 43
21 47 43
20 44 41
21 46 42
20 45 41
20 45 41
21 47 43
21 46 42
20 45 41
21 47 43
21 46 42
21 47 43
21 46 42
21 47 42
21 46 42
21 46 42
21 47 43
21 46 42
20 45 41
21 47 43
21 47 43
21 45 41
21 46 42
21 47 43
21 47 43
21 46 42
21 46 42
21 46 42
21 47 43
21 46 42
22 48 43
21 47 43
21 47 43
22 48 44
21 47 43
21 47 43
22 48 44
21 47 43
21 47 43
22 48 43
21 47 43
22 48 43
22 48 44
22 48 44
21 47 43
21 47 43
21 47 43
21 46 42
22 48 44
22 47 43
22 48 44
22 48 44
21 47 43
21 47 43
22 48 44
21 47 42
22 48 44
21 47 42
22 48 44
22 48 43
22 48 44
22 47 43
21 47 42
21 47 43
22 48 44
21 47 42
22 48 43
21 47 43
22 48 44
21 47 43
22 48 43
21 47 43
22 49 44
22 48 43
22 48 43
21 47 43
22 48 44
22 47 43
22 47 43
21 47 43
22 48 44
22 48 43
21 46 42
20 44 41
20 44 41
20 44 41
20 45 41
20 45 42
20 45 41
20 44 41
20 45 41
20 45 41
20 45 41
20 44 41
21 46 42
20 44 40
20 44 41
21 46 42
20 46 42
20 44 40
21 46 42
20 44 41
20 45 41
20 45 41
20 44 41
20 44 41
20 45 41
21 45 42
20 45 41
20 45 41
21 46 42
20 45 41
21 46 42
20 45 42
21 46 42
20 45 41
21 45 42
20 45 41
20 45 41
21 46 42
20 45 41
21 46 43
21 47 43
21 47 43
20 45 41
21 46 42
20 45 41
21 46 42
21 46 42
20 45 41
21 46 42
21 46 42
21 46 42
21 46 43
20 45 42
21 46 42
21 47 43
20 45 41
21 47 42
21 45 41
21 47 43
21 45 41
21 47 43
21 47 43
21 46 42
21 47 43
21 47 43
21 47 43
21 46 42
21 46 42
21 47 43
21 47 43
21 46 42
21 47 43
21 46 42
22 48 44
21 47 43
21 47 43
21 47 43
21 46 42
21 46 42
21 47 43
21 46 42
21 46 42
21 46 42
21 46 42
22 47 43
22 48 43
21 47 43
22 48 44
21 47 42
22 48 44
21 47 43
21 47 42
22 48 43
22 48 43
22 48 43
21 47 42
21 47 42
22 48 44
22 48 44
21 47 43
22 48 43
21 47 43
22 48 43
21 47 43
21 46 42
22 48 44
22 48 44
21 47 42
21 47 43
21 46 42
21 47 42
21 47 43
22 48 44
21 47 43
22 48 44
22 48 43
22 48 44
22 48 44
22 47 43
22 48 44
21 46 42
20 45 41
20 45 41
20 44 41
20 44 40
20 44 41
20 45 42
20 45 41
20 44 40
21 46 42
20 44 40
21 46 43
21 46 42
20 45 42
20 44 40
20 44 41
20 44 40
20 45 41
20 44 40
20 45 41
21 46 42
20 45 42
21 46 42
20 44 40
20 45 42
20 45 42
21 46 42
21 47 43
21 46 42
20 45 41
20 45 41
21 46 42
20 45 42
20 45 41
21 46 42
21 46 42
21 46 42
21 46 42
21 46 42
21 47 43
21 46 42
21 45 41
21 46 42
21 45 42
20 45 41
20 45 42
21 46 42
21 46 42
21 46 42
20 45 41
20 45 41
21 46 42
21 47 43
21 47 43
21 47 43
21 45 42
21 46 42
21 46 42
21 46 42
21 46 42
21 46 42
21 46 42
20 45 42
21 47 43
21 45 42
22 48 44
21 46 42
21 47 43
21 47 43
21 47 43
21 46 42
20 45 41
21 46 42
21 46 42
21 46 42
21 46 42
21 47 43
21 47 43
21 46 42
21 47 43
21 47 43
21 46 42
21 47 43
21 46 42
22 48 44
21 47 43
21 47 43
21 46 42
21 46 42
21 46 42
21 47 43
22 48 44
21 46 42
21 47 43
21 47 43
21 47 43
22 48 43
21 47 43
22 48 43
22 48 44
21 46 42
22 48 44
21 46 42
21 46 42
22 48 43
21 46 42
21 47 43
22 48 43
22 48 44
21 47 42
21 47 42
21 47 43
21 47 43
21 47 43
22 47 43
22 48 43
21 47 43
22 48 44
21 47 43
22 48 43
20 45 41
20 45 41
20 45 41
20 45 41
20 46 42
20 44 41
20 44 41
21 46 42
20 44 41
20 45 42
20 45 41
20 45 41
21 46 42
20 45 41
20 45 41
21 45 42
20 44 40
21 46 42
21 46 42
20 46 42
21 46 42
20 45 41
20 44 41
20 45 41
20 45 42
20 44 41
20 45 41
20 44 41
20 45 41
20 45 42
20 45 41
21 46 42
20 45 41
21 46 42
21 46 42
20 45 42
21 46 42
21 46 42
21 46 42
20 45 42
21 46 42
21 46 42
21 46 42
20 45 41
21 46 42
20 45 41
21 46 42
21 46 42
20 45 41
20 45 41
21 46 42
20 45 41
21 46 42
21 47 43
21 46 42
21 46 42
21 46 42
21 46 42
21 46 42
21 47 43
21 47 43
21 46 42
21 46 42
21 46 42
21 47 43
21 47 43
21 46 42
21 46 42
21 45 41
21 46 42
21 47 43
21 46 42
21 46 42
21 46 42
21 46 42
21 47 43
20 45 41
21 46 42
21 47 43
21 46 42
21 47 43
21 46 42
21 47 43
21 47 43
21 47 42
21 47 43
21 46 42
21 46 42
21 46 42
21 46 42
21 46 42
21 47 43
22 48 44
21 46 42
22 48 43
21 46 42
21 46 42
21 47 42
21 46 42
21 45 42
21 47 43
21 47 43
21 46 42
22 47 43
21 47 43
22 48 44
21 46 42
21 46 42
21 47 43
21 45 41
22 47 43
22 47 43
21 47 43
22 48 44
21 47 43
22 48 43
22 48 44
22 48 44
21 47 43
21 47 43
20 45 41
20 45 41
20 44 40
20 45 41
20 45 41
20 45 42
20 44 40
20 45 41
20 45 41
20 44 41
20 44 41
20 45 42
20 45 41
20 45 41
20 45 41
20 45 42
20 46 42
20 45 41
21 46 42
20 45 41
20 45 42
20 45 42
21 47 43
21 46 42
20 44 41
20 45 41
20 45 41
19 43 40
20 45 41
20 45 41
20 45 42
20 44 41
20 45 41
20 45 41
20 45 41
20 45 41
20 45 42
21 46 42
20 45 41
21 46 42
21 45 42
20 45 41
20 44 41
20 45 42
20 45 41
21 46 42
20 45 42
20 45 41
21 46 42
21 46 42
21 46 42
21 46 43
20 46 42
21 46 42
21 46 42
21 46 42
21 46 42
21 47 43
21 46 42
21 46 42
21 47 43
20 45 41
21 47 43
21 45 42
21 46 42
21 46 42
21 46 42
20 45 41
21 46 42
21 46 42
21 46 42
21 46 42
21 47 43
21 46 42
21 46 42
21 46 42
21 46 42
21 47 43
21 46 42
21 47 43
21 46 42
21 47 43
21 47 43
22 47 43
21 46 42
21 46 42
21 47 43
21 47 43
21 47 43
21 46 42
22 48 44
21 47 43
21 47 42
22 48 44
21 46 42
22 47 43
21 46 42
21 47 43
21 46 42
21 46 42
21 47 43
22 47 43
22 47 43
21 47 43
22 48 44
21 47 43
21 47 43
21 46 42
21 47 43
21 47 43
21 46 42
21 46 42
21 46 42
21 46 42
21 46 42
22 48 43
21 46 42
21 46 42
21 47 43
22 49 44
19 43 40
20 45 41
19 43 40
20 44 41
19 43 40
20 46 42
20 45 42
20 44 41
20 44 41
20 44 40
20 44 41
20 45 41
20 45 42
20 45 41
21 46 42
20 45 41
21 46 42
20 44 40
20 45 41
20 45 41
19 43 40
20 45 41
20 44 41
21 46 42
20 45 41
20 45 41
21 46 42
20 45 41
20 45 41
21 46 42
21 46 42
20 45 41
20 45 41
20 45 42
20 45 41
20 45 41
20 45 41
20 46 42
20 44 41
20 45 41
21 47 43
21 46 42
21 47 43
20 45 41
20 45 41
21 46 42
21 46 42
21 46 43
20 46 42
20 45 41
21 46 43
21 46 42
20 45 41
20 45 42
21 46 42
21 46 42
20 45 41
20 45 41
21 47 43
21 46 42
21 46 42
21 46 42
21 47 42
20 45 41
21 46 42
20 45 42
20 45 41
21 46 42
21 46 42
21 47 43
21 47 43
21 46 42
21 46 42
21 47 43
21 46 42
21 46 42
21 46 42
21 46 42
21 46 42
21 46 42
21 47 43
21 47 43
21 46 42
20 45 41
21 47 43
21 46 42
21 47 43
21 46 42
21 47 43
21 46 42
21 46 42
21 46 42
21 46 42
21 46 42
21 46 43
21 46 42
21 46 42
21 46 42
21 46 42
22 48 43
20 45 41
21 46 42
22 47 43
21 46 42
21 47 43
21 46 42
21 46 42
21 46 42
21 46 42
21 47 43
21 46 42
21 46 42
21 46 42
21 46 42
21 47 42
21 46 42
21 47 42
22 48 44
22 47 43
21 47 43
20 45 41
20 45 41
20 44 41
20 45 41
20 44 40
20 44 41
20 44 41
20 45 41
19 43 40
20 45 41
20 44 41
20 44 40
20 44 41
20 45 42
19 42 39
20 44 41
20 45 41
20 45 41
20 45 41
20 45 41
20 44 41
20 45 41
20 44 40
21 46 42
21 46 43
20 45 41
20 45 41
20 45 41
20 45 41
20 44 40
20 45 41
21 46 42
20 44 40
20 44 41
20 45 41
21 46 42
20 44 41
20 45 41
20 45 41
21 46 42
20 45 41
20 45 41
21 45 42
21 46 42
21 46 42
20 45 41
20 45 42
21 47 43
21 46 42
21 46 42
21 46 42
21 46 42
20 45 41
21 46 42
20 45 41
21 46 42
20 45 42
21 46 42
20 45 42
21 46 42
21 46 42
21 46 42
21 46 42
21 47 43
20 44 40
21 47 43
21 46 42
21 46 42
21 46 42
21 47 43
21 47 43
20 45 41
20 45 42
21 47 43
20 45 41
21 45 42
21 45 42
21 45 41
21 45 41
21 46 42
21 47 43
21 46 42
21 46 42
21 45 41
21 47 43
21 47 43
21 46 42
21 46 42
21 46 42
21 46 42
21 47 43
21 46 42
21 46 42
21 46 42
21 46 42
21 45 41
21 47 43
21 46 42
21 47 43
21 45 41
21 46 42
22 47 43
22 48 43
21 46 42
21 46 42
22 47 43
21 46 42
22 48 43
22 47 43
22 47 43
21 47 43
21 47 43
22 47 43
22 47 43
22 47 43
22 47 43
21 45 41
22 48 43
22 47 43
22 47 43
20 45 42
20 45 41
20 44 40
20 45 41
20 45 42
20 44 41
20 44 41
20 44 40
20 45 41
20 45 42
20 45 42
20 44 41
21 46 42
19 43 40
20 45 42
20 44 41
20 45 42
20 45 41
20 45 41
20 44 40
20 44 40
20 45 42
20 44 41
20 45 41
20 45 41
20 44 41
20 44 41
20 45 41
21 46 42
20 44 41
20 44 40
21 46 42
21 46 42
20 45 41
20 45 41
20 44 41
20 45 42
20 45 42
21 46 42
20 45 41
20 45 41
20 45 41
20 45 41
20 44 40
20 45 41
21 46 42
20 45 41
21 46 42
21 46 42
21 46 42
21 46 42
21 46 42
21 46 42
20 45 41
20 45 42
20 45 42
20 45 41
20 45 41
20 45 41
20 45 41
20 45 42
21 46 42
21 46 42
20 45 41
20 45 41
20 45 41
21 46 42
20 45 41
21 46 42
21 46 42
21 45 42
20 45 41
21 46 42
20 45 41
21 47 43
21 46 42
21 46 42
21 46 42
21 46 42
20 45 41
21 46 42
21 45 42
21 46 42
21 45 41
22 48 44
21 45 41
21 46 42
22 48 44
21 46 42
21 46 42
21 46 42
21 46 42
22 47 43
21 46 42
21 46 42
21 46 42
21 46 42
21 46 42
21 46 42
21 46 42
22 48 44
21 46 42
21 45 41
22 46 42
22 47 43
22 46 42
22 47 43
22 47 43
22 48 44
21 46 42
21 46 42
22 47 43
22 47 43
21 46 42
21 46 42
21 46 42
22 47 43
22 47 42
21 45 41
21 47 43
20 45 41
20 44 41
20 45 41
20 44 41
20 44 40
20 44 40
20 44 41
20 44 40
20 45 41
20 45 41
21 46 42
20 45 41
20 44 41
21 46 42
20 43 40
20 44 41
20 44 41
20 44 40
20 45 41
20 45 41
20 45 41
20 45 41
20 44 41
21 46 42
20 44 40
20 44 41
20 45 41
21 46 42
21 46 42
20 44 40
21 46 42
20 45 42
20 45 41
20 44 41
20 46 42
21 47 43
21 46 42
21 46 42
21 46 42
20 45 41
20 44 40
21 46 42
20 45 41
20 45 41
21 46 42
20 45 41
21 46 42
20 45 42
20 45 41
20 45 41
20 44 40
20 45 41
20 44 41
20 45 41
20 45 41
20 45 41
20 45 41
20 45 41
21 46 42
21 46 42
20 45 42
21 45 42
20 45 41
20 45 41
21 46 43
21 46 42
21 46 42
21 45 42
20 45 41
21 45 42
21 46 42
21 46 42
21 47 43
21 46 42
21 46 42
20 44 40
21 46 43
21 47 43
21 45 42
22 47 43
21 46 42
21 46 42
21 46 42
21 45 41
21 46 42
21 47 43
21 46 42
21 46 42
21 45 42
21 46 42
21 45 41
21 46 42
21 46 42
22 46 42
21 46 42
22 47 43
21 45 42
22 46 42
22 46 42
22 48 43
22 46 42
22 46 42
22 46 42
22 48 43
22 47 43
22 46 42
22 47 42
22 46 42
22 47 43
22 45 41
22 46 42
22 46 42
22 46 42
22 47 43
22 48 44
21 46 42
22 47 43
22 46 42
22 47 43
22 46 42
20 45 41
20 45 42
20 44 40
20 44 40
19 43 40
19 43 40
20 45 41
20 44 40
20 45 42
20 45 41
20 45 41
20 44 40
20 44 40
20 45 41
20 45 41
20 45 41
20 44 40
20 45 42
20 45 41
20 44 40
20 44 40
20 44 40
20 44 40
20 44 40
20 44 40
20 45 41
20 45 42
20 44 40
20 44 41
20 45 41
20 44 41
20 44 40
20 44 41
20 45 41
20 45 41
21 46 42
21 46 42
20 44 41
20 45 41
21 46 42
20 45 41
20 45 42
21 46 42
21 46 42
20 45 41
20 45 41
21 45 42
20 45 41
20 45 42
21 47 43
20 45 41
20 45 41
20 45 41
21 46 42
21 46 42
21 46 42
21 46 42
20 45 41
20 45 41
21 45 42
20 45 41
21 46 42
21 46 42
21 46 42
21 46 42
21 46 42
21 46 43
20 45 41
20 45 41
21 45 42
20 45 41
20 45 41
21 45 41
20 45 41
21 46 42
21 45 42
21 45 42
21 46 42
21 47 43
21 46 42
21 45 41
21 45 41
21 46 42
21 44 41
21 45 41
22 46 42
21 45 41
21 45 41
21 45 41
22 47 43
22 47 43
22 46 42
23 47 43
22 46 42
22 46 42
22 46 42
22 45 41
22 46 42
23 47 43
23 47 43
22 46 42
23 47 43
23 47 43
23 47 43
23 48 43
23 47 42
23 46 42
23 47 43
23 47 43
22 46 42
23 47 43
22 46 42
23 47 43
23 47 43
23 47 43
23 48 43
22 46 42
22 47 43
22 46 42
22 46 42
20 45 42
20 44 40
20 44 40
20 44 41
20 45 42
20 44 40
19 42 39
20 45 41
20 45 42
20 44 40
20 45 42
20 45 41
20 44 41
19 43 40
20 45 41
20 44 41
20 45 42
20 45 41
20 45 42
20 45 41
20 44 41
20 45 42
20 44 41
20 45 41
20 45 42
20 45 41
20 45 41
20 45 41
20 45 42
20 44 40
20 45 41
20 44 41
20 44 40
20 45 41
21 46 42
20 45 41
20 45 42
20 45 42
20 44 40
20 45 41
20 45 41
20 45 41
20 45 41
20 45 42
20 44 40
20 45 42
20 44 41
20 45 41
20 44 41
20 45 41
19 43 39
20 45 41
21 46 42
20 45 42
21 46 42
21 46 42
21 46 42
20 45 42
21 47 43
20 45 41
20 44 41
21 46 42
20 45 41
21 45 42
21 45 42
20 45 41
20 44 41
20 45 41
21 46 42
20 45 41
20 45 41
21 46 42
20 44 41
21 46 42
21 46 42
21 45 42
21 47 43
21 46 42
21 46 42
21 45 41
22 47 43
21 46 42
21 45 42
21 45 41
22 46 42
21 45 42
22 46 42
22 47 43
23 47 43
23 48 44
22 46 42
23 46 42
23 47 43
23 47 43
23 46 42
23 46 42
23 46 42
23 47 43
24 48 43
23 46 42
23 47 42
24 48 43
24 48 44
24 47 43
23 46 42
24 47 43
24 48 44
24 47 43
24 46 42
24 47 43
24 47 43
23 47 42
24 48 43
23 46 42
24 48 44
24 48 44
23 46 42
23 48 43
23 46 42
23 47 43
20 44 40
20 44 41
19 43 40
20 44 41
20 46 42
19 43 40
20 44 40
20 44 40
20 44 40
20 45 41
20 44 41
20 44 40
20 44 40
20 44 40
20 44 41
19 43 40
20 45 42
20 45 42
20 45 41
20 45 41
20 44 41
20 45 41
20 45 41
20 44 40
20 45 41
20 44 41
20 44 40
20 44 40
20 44 41
20 45 41
21 46 42
20 44 41
20 45 41
20 45 41
20 45 41
20 44 40
20 44 41
20 45 41
20 44 40
20 45 41
20 45 41
20 45 41
20 46 42
20 45 41
20 45 41
20 45 42
20 44 41
20 44 40
20 45 42
20 45 41
20 45 41
20 45 41
20 44 41
21 46 42
20 45 41
20 45 41
20 45 41
20 45 41
20 44 41
21 46 42
21 47 43
20 44 41
21 46 42
21 46 42
21 46 42
21 47 43
20 45 41
21 45 42
20 44 40
21 46 42
21 46 42
21 45 41
21 46 42
21 45 42
21 46 42
22 47 43
21 46 42
21 46 42
21 44 41
21 45 41
22 46 42
22 46 42
22 46 42
22 45 42
22 45 41
23 46 42
22 45 41
23 46 42
23 46 42
23 46 42
23 47 43
23 46 42
23 46 42
24 47 43
24 47 43
24 47 43
24 47 43
25 48 44
25 47 43
24 46 42
25 48 43
26 49 45
25 48 43
25 48 43
25 48 44
25 48 43
25 46 42
25 47 43
25 47 43
25 47 43
25 48 43
26 49 44
25 47 43
25 47 43
25 48 44
25 48 43
25 48 43
24 46 42
25 48 44
24 47 43
20 44 40
19 43 40
20 44 40
21 46 42
20 44 41
20 44 40
20 44 40
19 43 40
20 44 40
20 44 41
20 44 41
20 45 41
20 44 41
19 43 40
20 45 42
20 44 41
20 45 41
20 45 41
20 44 40
20 44 41
20 44 40
20 44 41
20 44 40
20 45 42
20 44 40
20 45 41
20 44 41
20 44 41
20 45 42
20 45 41
20 45 41
20 45 41
20 44 40
20 44 41
20 45 41
20 45 41
20 44 40
20 44 41
20 45 41
20 44 41
20 44 41
20 45 41
20 45 41
21 46 42
21 47 43
20 45 41
20 45 42
20 44 41
20 44 41
20 44 41
20 44 41
20 45 41
20 45 41
21 46 43
20 45 41
20 45 41
20 45 42
20 45 42
20 44 41
20 44 41
20 45 41
20 45 41
21 46 42
21 45 42
20 45 41
21 46 42
21 46 42
20 45 41
20 45 41
21 46 42
21 45 42
21 45 41
21 44 41
21 45 42
21 45 41
21 45 42
22 46 42
22 46 42
22 45 41
22 45 42
22 46 42
22 46 42
23 46 42
23 47 43
23 47 43
24 48 43
24 46 42
24 48 44
24 47 43
24 47 43
25 48 43
25 48 44
25 47 42
25 47 43
26 48 43
26 47 43
26 48 43
26 47 43
27 49 44
27 49 44
26 48 43
27 49 44
26 47 43
27 49 44
27 47 43
27 48 44
27 47 43
27 49 44
27 48 44
27 49 44
27 48 43
27 48 44
27 49 44
27 49 45
26 48 43
26 48 43
26 48 43
26 48 43
26 48 44
25 47 43
19 43 40
19 44 40
20 45 42
20 44 41
20 45 41
20 45 41
20 44 41
20 44 41
19 43 40
20 45 41
20 44 41
20 45 41
20 44 41
20 44 40
20 44 40
20 45 41
20 44 40
20 44 41
20 45 41
20 44 41
20 45 41
19 43 40
20 44 41
20 44 41
20 45 42
20 44 41
20 44 40
19 43 40
20 44 41
20 44 40
20 45 42
21 46 42
20 44 41
20 44 41
20 44 41
21 46 42
19 43 40
20 44 40
20 45 41
20 43 40
20 45 41
20 45 41
20 45 41
20 45 41
20 45 41
20 45 41
21 46 42
20 44 41
20 45 41
20 46 42
20 45 41
20 45 41
20 45 42
20 44 41
21 45 42
20 43 40
20 44 41
20 45 41
20 44 40
20 45 41
21 45 42
21 45 42
20 44 41
21 46 42
20 44 41
20 44 40
21 46 42
20 44 41
20 44 41
21 45 41
22 47 43
21 45 41
21 45 42
22 46 42
22 46 42
22 46 42
22 45 41
22 46 42
23 47 43
23 47 43
23 45 41
23 45 41
23 46 42
24 47 42
25 49 44
24 47 43
24 46 42
25 46 42
26 48 44
26 48 43
26 48 43
26 48 43
27 49 44
27 48 44
27 48 43
27 48 43
28 49 44
28 49 45
28 49 44
29 49 44
29 49 45
29 50 46
29 49 44
29 49 45
29 50 45
29 50 45
29 49 45
29 48 43
29 50 45
29 50 45
29 50 45
29 49 45
29 49 45
29 50 45
29 50 46
29 50 45
28 49 45
28 49 44
27 48 44
27 49 44
19 43 39
20 44 41
20 44 40
20 44 41
20 44 41
20 44 41
20 45 41
20 44 41
20 44 41
20 45 42
20 44 40
20 45 42
19 43 40
20 44 41
20 45 41
19 43 40
19 43 40
20 44 40
20 45 42
20 44 41
20 45 42
20 44 41
20 44 41
20 44 40
20 44 40
20 44 41
20 45 41
20 45 42
20 45 42
20 45 41
20 45 41
20 44 41
20 44 41
20 44 41
20 45 41
21 46 42
20 45 41
20 44 41
20 45 41
20 44 41
20 45 42
20 44 41
20 44 40
20 44 40
21 46 42
20 45 42
21 46 42
20 45 41
20 45 42
20 45 41
20 45 42
20 44 40
21 46 42
20 45 41
20 44 40
20 45 41
20 45 41
20 44 40
20 44 41
21 45 41
21 46 42
20 45 41
21 45 41
21 45 41
20 44 41
21 45 41
21 45 41
21 45 41
21 46 42
21 45 42
22 47 43
22 46 42
22 46 42
22 45 41
22 46 42
22 45 42
23 47 43
24 48 44
23 46 42
23 46 42
24 46 42
24 46 42
25 47 43
25 47 43
25 47 43
26 48 43
27 49 45
26 47 43
27 49 44
27 48 44
28 49 44
28 48 44
29 50 45
29 49 45
30 49 45
30 49 44
30 49 45
30 49 45
31 50 45
31 50 45
31 51 46
32 51 46
32 51 46
32 50 45
32 50 45
32 51 46
32 51 46
32 51 46
32 51 46
32 51 46
32 51 46
32 51 46
32 51 46
31 50 45
31 50 45
31 51 46
31 50 45
30 50 45
30 50 45
29 49 45
20 44 41
20 44 41
20 45 42
20 44 40
19 43 40
20 45 42
20 44 41
19 43 39
20 44 41
20 45 41
19 43 40
20 44 41
20 44 40
20 44 41
20 44 40
19 43 40
20 45 41
19 43 40
20 45 41
20 45 41
20 44 41
21 46 43
20 44 41
19 43 40
21 46 42
19 43 40
20 44 41
20 45 41
20 44 40
20 45 41
20 44 41
20 45 41
20 45 42
20 44 41
20 45 41
20 45 41
20 45 41
20 45 41
20 44 41
20 44 41
20 44 40
20 45 42
20 45 41
20 44 41
20 45 41
20 45 41
20 45 41
21 46 42
20 44 40
20 45 42
20 45 41
20 44 40
20 44 41
21 46 42
21 46 42
20 44 40
20 45 41
20 44 41
20 44 41
21 45 41
20 45 41
20 45 41
21 45 41
20 44 40
21 45 42
21 44 41
21 45 42
21 45 41
21 45 42
22 46 42
22 46 42
22 46 42
23 46 42
22 45 41
23 46 42
23 46 42
24 46 42
24 46 42
24 46 42
25 47 43
25 46 42
25 47 43
26 47 43
26 47 43
27 47 43
27 48 43
28 49 44
29 49 44
29 49 45
29 49 44
30 50 45
30 49 44
31 49 44
31 50 45
32 51 46
33 51 46
33 52 47
33 51 46
33 51 46
34 52 47
34 52 47
34 52 47
35 52 47
35 52 46
35 51 46
35 52 47
35 51 46
35 52 47
35 51 46
35 53 48
35 53 47
35 52 47
35 53 48
34 52 47
34 52 47
34 51 46
34 52 47
33 51 46
32 51 46
32 49 44
20 44 40
20 44 41
20 44 40
20 44 40
20 44 40
20 45 41
19 43 40
20 45 41
20 44 40
20 45 41
20 45 41
20 44 40
20 45 41
20 44 40
20 44 40
20 44 41
19 43 39
19 43 39
20 45 42
20 45 41
20 44 41
19 43 40
20 44 41
20 44 40
20 44 40
20 45 42
20 44 40
20 44 40
19 43 40
20 45 42
20 44 40
20 44 41
20 45 41
20 45 41
20 44 40
20 45 41
20 45 41
20 43 40
20 45 41
20 44 40
20 44 41
20 44 41
20 45 41
20 45 41
20 44 41
21 46 42
20 43 40
20 44 41
20 45 41
20 45 41
20 45 41
20 44 40
20 44 41
20 45 42
20 44 41
20 44 41
20 45 41
20 45 41
20 45 41
20 44 41
20 44 41
20 44 41
21 45 42
21 45 42
21 45 42
21 45 41
21 45 41
21 44 40
22 46 42
22 45 42
23 46 43
22 45 41
23 46 42
23 46 42
24 48 44
24 47 43
25 48 43
25 47 43
26 47 43
26 47 43
27 48 44
27 48 44
28 49 44
28 48 43
29 49 44
30 49 45
30 50 45
30 49 44
32 51 46
33 52 47
33 51 46
34 53 48
34 51 46
34 51 46
35 52 47
35 51 46
35 52 46
37 54 49
37 53 47
37 54 48
37 53 48
38 54 48
38 54 49
38 54 48
38 54 48
39 55 49
39 55 49
39 55 49
39 55 50
38 53 48
39 55 49
38 55 49
38 55 49
37 53 48
37 54 48
37 53 48
36 52 47
36 53 48
36 52 47
35 53 48
20 44 41
20 44 40
19 43 40
20 44 41
20 44 41
20 44 41
20 44 40
20 44 41
20 45 41
20 44 40
20 45 41
20 45 41
19 43 40
19 43 40
20 44 40
20 44 40
20 45 41
20 44 40
20 45 41
19 43 39
19 43 40
20 44 40
19 43 40
19 43 40
20 43 40
20 45 41
20 45 42
20 44 41
19 43 40
20 44 40
20 44 41
19 43 40
20 44 40
20 44 41
20 44 41
20 45 41
20 45 42
20 44 41
20 45 41
20 44 41
20 45 41
20 44 41
20 43 40
20 45 41
20 44 40
20 44 41
20 45 42
20 44 40
20 45 42
20 45 41
20 45 42
20 45 41
20 44 41
19 43 40
20 45 41
20 44 41
20 45 41
20 44 41
20 44 41
21 45 41
21 45 41
20 44 40
21 45 41
21 45 41
22 45 42
22 45 41
22 45 41
22 44 41
22 45 41
23 46 42
23 45 42
23 46 42
24 46 42
25 47 43
25 47 43
25 46 42
26 48 43
26 47 42
27 48 43
28 48 44
29 49 44
29 49 44
30 49 44
30 49 44
31 51 46
32 49 45
33 51 46
33 51 46
34 51 45
35 52 47
35 51 46
36 53 47
37 53 48
38 54 48
38 54 48
39 55 50
39 54 49
40 55 49
40 55 49
41 55 49
41 56 50
41 56 50
42 55 49
42 58 51
42 57 50
42 56 50
42 57 50
43 57 51
42 57 50
42 56 50
42 57 51
42 57 51
42 56 50
41 56 50
41 55 49
40 54 48
40 55 49
40 55 49
39 55 49
38 54 48
19 44 40
20 45 41
20 45 41
19 43 40
20 44 41
20 44 41
20 44 41
20 45 42
20 44 40
20 44 40
20 44 40
20 44 40
20 44 41
19 43 40
19 43 40
19 43 40
19 43 40
20 44 41
20 44 40
19 43 40
20 44 41
20 44 41
20 44 41
20 44 41
20 45 41
20 44 40
20 44 41
20 45 41
20 44 40
19 43 40
20 44 41
20 44 40
20 44 41
19 43 40
20 44 41
20 44 41
20 45 41
20 45 41
20 45 42
20 45 41
20 44 40
20 44 41
19 43 40
19 43 40
20 45 41
19 43 39
19 43 40
20 44 41
20 44 41
20 44 41
21 45 42
20 44 41
20 43 40
21 45 42
20 44 40
21 45 41
21 46 42
21 45 42
21 45 41
20 44 40
21 44 41
21 45 41
21 45 41
21 44 41
22 45 42
22 45 41
23 47 43
23 47 43
23 46 42
24 46 42
25 47 43
25 47 43
25 48 43
26 47 42
26 48 44
27 47 43
28 48 44
28 48 43
29 50 45
30 49 44
30 49 45
31 50 46
32 51 46
33 51 46
34 51 46
34 51 46
35 52 46
36 53 47
37 54 48
38 53 48
39 54 48
40 55 49
40 55 50
41 56 50
42 56 50
42 56 50
43 58 51
44 57 51
44 57 50
45 58 52
45 58 52
45 58 52
46 59 52
46 58 51
46 59 52
46 59 52
46 59 52
47 60 54
46 59 53
46 59 52
46 59 52
46 59 52
46 60 53
46 59 52
45 57 51
44 58 52
44 57 50
44 59 52
43 56 50
42 56 50
20 44 40
20 44 40
19 43 39
19 43 40
20 44 41
19 43 40
20 44 41
20 45 41
19 43 39
19 43 39
19 43 40
20 44 41
20 45 41
20 46 42
19 43 40
19 43 40
20 44 41
20 44 40
20 44 41
20 44 40
19 43 40
20 44 40
20 44 41
19 43 40
19 43 40
20 44 41
20 44 41
20 44 41
20 45 41
20 44 41
20 44 41
20 44 40
19 43 40
20 45 41
20 44 41
20 45 42
20 44 40
19 43 39
20 45 41
20 45 41
20 45 41
20 44 40
21 46 43
20 44 40
20 45 42
20 45 42
20 44 41
20 44 41
20 44 40
20 45 41
20 44 41
20 44 41
20 45 41
20 44 40
21 45 41
21 45 41
20 44 40
21 45 41
21 44 41
21 46 42
21 45 41
21 44 41
22 45 41
22 45 42
23 46 42
23 47 43
23 46 42
24 46 42
24 46 42
25 48 43
25 47 43
26 47 42
26 47 43
27 47 43
28 48 43
29 49 44
29 49 44
30 49 44
31 50 45
32 49 44
33 52 47
34 51 46
35 53 47
35 51 46
37 53 48
37 53 47
38 54 48
39 55 49
40 54 49
41 55 49
42 56 50
43 56 50
44 58 51
45 58 51
45 58 51
46 59 53
47 60 53
48 60 53
48 60 53
49 61 54
49 61 54
50 61 54
50 62 55
50 61 54
51 62 54
51 62 54
51 62 54
51 62 54
51 63 55
51 62 55
51 63 55
50 61 54
50 62 54
50 62 55
49 62 54
49 61 54
48 60 53
47 59 52
47 59 52
46 59 52
20 44 41
20 44 40
20 44 41
20 45 41
19 43 40
20 44 40
19 42 39
20 44 40
20 45 41
20 44 40
20 44 41
19 43 40
20 45 41
20 44 41
20 45 41
19 42 39
20 44 41
19 43 40
20 44 40
19 44 40
20 45 41
20 45 41
20 44 41
20 46 42
20 44 40
20 44 40
20 44 40
20 44 41
20 45 41
20 44 41
20 45 41
20 44 41
20 44 40
19 43 40
20 44 40
20 44 41
20 45 41
20 44 40
20 44 41
20 44 40
20 45 41
20 45 41
20 44 41
20 44 41
20 44 40
19 43 39
20 44 41
20 44 40
19 43 39
19 43 40
20 45 41
20 44 40
20 44 40
21 45 41
20 44 40
21 45 41
21 45 41
21 45 41
21 45 41
22 45 41
22 45 41
22 45 41
23 46 42
22 45 41
23 45 41
24 46 42
24 46 42
25 47 43
25 47 43
26 47 43
27 47 43
28 48 44
28 48 44
29 49 44
29 48 43
30 48 44
32 50 46
32 51 46
33 50 46
34 51 46
35 52 47
36 52 47
37 53 47
38 54 48
39 55 49
41 55 49
42 57 51
43 56 50
44 58 51
45 58 51
46 58 52
46 58 52
48 59 53
49 61 54
50 61 54
50 62 55
51 63 55
52 63 56
52 63 56
53 64 56
53 63 56
54 64 56
54 64 56
55 66 58
55 64 57
55 66 58
56 66 58
56 65 57
55 65 57
55 65 57
55 66 58
55 65 57
55 65 57
54 64 56
54 65 57
53 64 56
53 64 56
52 63 55
51 62 55
51 63 55
19 43 39
19 43 40
20 45 41
19 43 40
19 43 40
19 43 40
19 43 40
20 45 41
20 44 41
20 44 40
20 44 41
20 44 41
19 44 40
20 44 41
20 44 40
20 45 41
19 43 40
20 44 41
20 45 42
19 43 40
20 44 41
19 43 40
20 45 42
20 45 41
20 44 40
20 44 41
20 44 40
19 43 40
20 44 40
20 45 41
19 43 40
20 44 41
20 44 41
20 44 41
19 43 40
20 44 41
20 44 41
20 44 41
20 44 41
20 45 41
20 45 42
20 44 41
20 44 41
20 44 41
20 43 40
20 44 41
20 44 41
20 45 41
20 43 40
20 44 41
20 45 41
20 44 41
21 45 42
21 45 41
21 45 41
21 45 41
21 44 41
22 46 42
22 45 41
22 46 42
22 44 41
23 45 42
23 46 42
23 44 40
24 47 43
24 45 41
25 47 43
26 47 43
27 48 43
27 48 44
28 48 43
29 48 44
29 48 43
30 48 43
32 50 45
33 51 46
33 51 46
34 51 46
36 53 47
37 53 48
38 54 48
39 55 49
40 55 49
41 55 49
42 56 49
44 57 51
45 58 51
46 59 53
47 60 53
49 61 54
50 61 54
51 62 55
52 63 56
53 64 56
54 64 56
55 65 57
55 65 57
56 65 57
57 67 58
57 66 58
58 67 59
59 68 59
59 67 59
60 69 60
60 68 59
60 69 60
60 69 60
61 70 61
60 68 60
60 69 60
60 69 60
60 68 60
59 67 59
59 68 59
58 68 59
58 67 59
57 66 58
56 66 58
56 65 57
55 66 58
19 43 40
20 44 40
19 43 40
19 43 40
19 43 40
19 43 39
20 44 40
19 43 39
20 44 41
19 43 40
20 44 41
20 44 41
19 43 40
19 43 40
19 44 40
19 43 40
19 44 40
20 44 41
20 44 41
20 44 40
20 44 40
20 45 41
19 44 40
20 44 41
20 44 41
19 43 40
20 44 41
19 43 39
20 44 41
20 44 41
20 44 41
19 43 40
20 44 41
20 45 41
20 44 41
19 43 40
20 45 41
20 45 41
20 44 41
20 45 41
20 45 41
19 42 39
19 43 40
20 44 41
20 44 41
21 45 42
19 43 39
20 44 40
20 45 41
21 45 41
21 46 42
21 45 41
20 44 40
21 44 41
21 45 42
22 46 42
21 44 41
22 45 41
22 45 42
23 46 42
23 46 42
23 46 42
24 46 42
24 46 42
25 46 42
26 47 43
26 47 43
27 47 43
28 48 43
29 48 44
29 47 43
31 50 45
32 50 45
32 50 45
33 50 45
35 51 46
36 52 46
37 53 47
38 54 48
39 54 48
40 54 48
42 56 49
43 57 51
44 57 51
46 58 52
47 60 53
48 59 52
50 61 54
51 62 54
53 64 56
53 63 56
54 64 56
56 65 57
57 67 58
58 67 58
59 68 59
60 70 61
61 69 61
62 71 62
62 71 62
63 70 61
64 72 62
64 71 62
64 72 62
65 73 63
65 73 64
65 73 63
65 73 63
65 72 63
65 72 63
65 72 63
65 72 63
64 72 63
64 72 63
63 72 62
63 71 62
62 69 61
61 70 61
60 69 60
59 68 59
19 43 40
20 44 41
19 43 40
19 44 40
19 43 39
19 44 40
19 42 39
20 46 42
19 43 40
20 44 41
19 43 40
19 43 40
20 44 40
20 45 41
19 42 39
19 43 40
20 44 41
20 45 41
20 44 41
19 43 40
20 44 41
20 44 41
20 46 42
20 44 40
20 45 41
19 43 40
19 42 39
20 44 41
20 44 41
20 45 41
20 44 40
19 43 40
20 45 41
20 44 41
19 43 40
20 44 40
20 44 40
20 45 42
20 44 41
20 44 40
19 43 40
20 43 40
19 43 40
20 43 40
20 44 41
20 43 40
20 45 41
21 45 41
20 45 41
21 44 41
20 44 40
21 45 41
21 45 41
21 45 41
21 45 41
21 44 40
22 45 41
22 45 41
22 45 41
24 47 43
24 46 42
25 47 43
25 46 42
25 46 42
26 47 43
27 47 43
28 48 44
29 49 44
29 49 45
30 49 45
32 51 46
32 50 45
34 51 46
35 52 47
36 51 46
37 52 47
38 54 48
40 56 50
41 56 50
42 57 51
44 57 51
45 58 52
47 59 52
48 60 53
50 61 54
51 62 54
52 62 55
54 64 56
55 66 58
56 66 58
58 67 59
59 68 59
60 68 60
61 70 61
62 70 61
64 71 62
65 72 62
65 72 63
66 74 64
67 74 64
68 74 64
68 75 65
69 76 66
70 76 66
70 76 66
70 76 66
70 77 67
70 77 67
70 76 66
70 76 66
70 76 66
70 76 66
69 76 66
69 75 65
69 76 66
68 75 65
67 73 64
66 73 63
65 73 63
64 72 62
19 44 40
20 44 40
19 43 40
19 43 40
20 44 40
19 43 40
20 44 40
20 45 41
20 44 41
19 43 39
19 44 40
20 44 41
20 45 41
20 44 40
19 42 39
20 44 41
20 44 40
20 45 42
19 43 40
19 43 40
20 44 41
20 44 41
20 44 40
20 45 42
20 44 41
20 44 41
20 44 41
20 44 41
19 42 39
19 43 40
20 44 41
20 44 41
20 43 40
20 45 41
20 44 41
19 43 40
20 44 40
20 45 41
20 43 40
20 44 41
20 45 41
20 45 41
20 44 41
21 45 42
20 44 40
21 45 41
20 43 40
21 45 42
20 44 40
20 43 40
21 44 40
22 46 42
21 45 41
22 45 42
21 43 40
23 46 42
22 45 41
23 46 42
23 45 41
24 46 42
25 47 43
25 46 42
25 46 42
26 45 41
27 47 43
28 47 43
28 47 43
30 48 44
31 49 44
32 50 45
33 50 45
35 52 47
35 51 46
37 52 47
38 53 48
39 54 48
41 55 49
42 56 50
44 57 51
45 58 52
47 59 52
49 61 54
50 61 54
51 62 55
53 63 56
55 65 57
56 66 58
58 67 58
59 68 59
61 69 60
62 71 62
63 71 62
65 72 63
66 73 63
67 74 64
68 74 64
69 76 66
70 76 66
71 78 68
72 78 68
73 79 68
73 79 69
74 79 68
75 80 69
75 80 69
75 80 69
75 80 70
75 80 70
76 82 71
76 81 70
75 79 68
75 80 69
75 80 69
74 80 69
74 79 69
73 78 68
72 78 68
71 78 67
70 77 66
69 75 65
19 43 40
19 43 40
20 44 40
20 44 41
20 44 40
20 45 42
20 45 42
19 44 40
20 44 41
19 43 40
20 44 40
19 43 40
19 43 40
19 44 40
19 43 40
19 43 40
19 44 40
20 44 40
19 43 39
19 42 39
19 43 40
19 43 40
20 46 42
19 43 40
20 44 40
20 45 41
19 43 39
19 43 40
19 43 40
19 43 40
20 44 40
19 43 40
20 44 40
19 43 40
20 44 40
20 43 40
20 44 40
19 43 40
19 43 40
20 43 40
20 44 40
20 43 40
20 44 41
20 43 40
20 45 41
20 44 41
20 44 41
20 44 41
21 45 41
21 45 41
21 45 41
21 44 41
21 44 40
22 45 42
23 46 42
23 47 43
23 44 41
23 46 42
24 46 43
25 47 43
26 48 44
26 46 42
26 46 42
27 47 43
29 49 45
29 47 42
30 49 44
31 49 45
33 50 45
34 51 46
35 52 46
36 52 46
38 53 48
39 55 49
40 54 49
42 56 50
44 58 51
45 58 52
47 59 52
49 60 53
50 61 53
52 62 55
54 64 56
55 65 57
57 66 58
58 67 59
60 68 60
62 70 61
63 71 62
65 72 63
66 74 64
68 74 64
69 76 66
71 77 67
72 78 67
73 79 68
74 79 69
75 80 70
76 80 69
77 81 70
78 83 71
79 83 72
79 84 72
80 84 72
80 85 73
80 84 73
81 85 73
81 85 73
81 85 73
81 85 73
81 85 73
80 84 73
80 83 72
79 83 71
78 83 71
78 83 72
77 82 71
76 81 70
75 80 69
74 79 69
19 43 40
19 43 40
20 44 40
19 43 40
20 44 41
19 43 40
19 43 40
19 43 39
20 44 41
20 44 40
19 43 40
19 42 39
20 44 40
20 44 40
20 44 40
20 44 41
20 44 41
19 43 39
19 43 40
19 43 40
19 43 40
20 44 40
19 43 39
19 42 39
19 43 40
19 43 40
20 44 40
19 43 40
19 43 40
20 45 41
19 43 40
19 43 40
20 44 41
20 44 41
20 45 41
19 43 39
19 43 40
19 43 40
20 44 40
20 44 40
20 44 41
20 44 41
20 43 40
20 44 41
20 44 41
20 44 41
21 45 41
21 45 42
21 45 41
21 45 41
21 44 41
22 45 42
21 44 40
22 44 41
23 45 41
23 45 42
24 46 42
25 47 43
24 45 41
26 46 42
26 46 42
27 48 44
28 48 43
29 47 43
30 48 44
31 49 45
32 51 46
33 50 45
35 52 47
36 52 47
37 53 48
39 55 49
40 55 50
42 55 49
43 57 51
45 57 51
47 59 52
48 59 52
50 61 54
52 61 54
53 63 56
55 65 57
57 67 59
59 68 60
61 69 61
62 70 61
64 72 63
66 73 63
67 74 64
69 76 66
71 77 67
72 77 67
74 79 69
75 81 70
77 81 70
78 83 72
79 83 72
80 84 72
81 85 73
82 87 75
83 87 75
84 87 75
84 88 75
85 88 76
85 88 76
86 89 76
86 89 77
86 89 77
86 89 77
86 89 77
86 90 77
86 89 77
85 88 76
84 87 75
84 88 75
83 86 74
82 86 74
81 85 73
80 84 73
79 83 71
19 43 40
19 43 39
20 44 40
19 43 40
19 43 40
20 44 40
19 43 40
19 43 40
19 44 40
19 43 40
19 43 40
19 43 40
19 43 40
20 44 41
20 44 41
20 44 40
20 45 41
19 43 40
19 43 40
20 44 41
20 44 40
20 44 41
20 44 40
19 42 39
20 44 41
20 44 40
20 44 41
20 44 40
20 44 41
20 44 41
19 43 40
20 44 40
20 44 41
19 43 40
20 44 41
20 44 41
20 44 40
20 44 40
19 42 39
20 44 40
20 44 41
20 44 41
20 44 40
20 44 41
20 43 40
20 43 40
20 43 40
21 45 41
21 45 41
21 43 40
22 45 41
22 44 41
22 45 41
23 45 41
23 45 41
23 44 41
24 45 41
25 45 41
26 47 43
27 47 43
28 48 44
28 48 44
29 48 44
31 49 45
31 49 44
33 50 45
34 51 46
35 51 46
36 52 47
38 53 47
40 55 49
41 55 49
43 56 50
44 57 50
46 59 52
48 60 53
50 61 54
51 62 54
53 62 55
55 65 57
57 67 59
59 67 59
61 69 60
62 70 61
64 71 62
66 74 64
68 75 65
70 75 65
72 78 67
74 79 68
75 80 69
77 81 70
78 83 71
80 84 73
81 85 74
83 86 75
84 86 74
85 88 76
86 89 77
87 90 77
88 91 78
89 92 79
90 92 79
90 92 79
91 93 80
91 93 80
91 93 80
91 93 80
91 93 80
91 94 81
91 93 80
91 93 80
90 92 79
90 92 79
89 91 78
88 91 79
87 90 77
87 90 78
85 88 76
84 88 76
19 43 40
19 43 40
20 44 41
19 42 39
19 43 40
19 42 39
19 43 40
19 43 40
19 43 40
19 44 40
19 43 40
20 44 41
20 44 41
20 44 41
20 44 41
19 43 40
20 44 41
20 44 41
19 43 40
19 43 40
19 43 40
19 43 40
20 44 41
19 42 39
20 44 41
20 44 41
20 44 41
20 44 40
19 43 40
20 44 40
20 44 41
20 44 40
20 44 41
20 44 40
19 43 40
19 43 39
20 44 41
19 43 40
20 45 41
20 44 41
20 44 40
20 43 40
20 44 41
20 44 40
21 45 41
21 44 40
21 45 41
21 44 41
21 44 41
22 44 41
22 44 40
22 45 41
23 45 42
24 46 43
24 46 42
24 46 42
25 47 43
26 46 42
27 47 43
28 48 44
29 48 44
30 49 45
31 50 45
32 50 46
33 50 45
34 50 45
36 51 46
37 53 47
39 54 48
40 55 49
42 56 50
44 57 51
45 57 51
47 59 52
49 60 53
51 62 55
53 63 55
55 65 57
56 66 58
58 67 59
60 68 60
63 70 62
64 71 62
66 73 63
68 75 65
70 75 65
72 77 67
74 80 69
76 81 71
78 82 71
80 84 73
81 86 74
83 87 75
85 88 76
86 89 77
88 91 78
89 91 79
90 92 79
91 93 80
92 94 81
93 95 81
94 96 82
95 96 82
95 96 82
96 97 83
96 98 84
97 98 84
97 98 84
97 98 84
97 98 84
96 97 83
96 97 83
96 97 83
95 97 83
94 96 82
94 95 82
93 94 81
92 93 80
90 93 80
89 92 79
20 44 41
20 44 40
19 43 40
20 44 41
20 44 41
20 44 40
19 43 40
19 44 40
20 44 41
19 42 39
19 42 39
19 43 40
19 43 40
20 44 41
19 43 40
19 43 39
19 43 40
19 43 40
20 44 41
19 44 40
19 43 40
20 44 40
19 42 39
20 45 42
19 44 40
20 44 40
20 45 42
20 44 41
20 45 41
19 43 40
19 43 40
20 44 41
19 43 40
20 44 40
20 44 41
20 45 41
20 43 40
20 44 40
20 44 41
20 44 41
21 45 42
20 44 40
20 44 40
21 45 41
21 44 41
21 44 41
22 45 42
22 45 41
22 45 42
21 43 39
22 44 41
23 45 41
23 45 41
24 45 41
24 45 41
26 47 43
26 46 42
27 48 44
28 47 43
29 48 44
30 49 44
31 49 44
32 48 43
34 51 46
35 52 46
36 52 47
38 54 48
39 53 47
41 56 50
42 55 49
44 57 51
46 59 52
48 60 54
50 61 54
52 62 55
54 64 56
56 65 58
58 66 58
60 69 60
62 70 61
64 71 62
66 73 64
68 75 65
70 75 65
72 77 67
74 79 69
77 81 70
79 83 71
80 84 73
82 86 74
84 88 76
86 89 77
88 90 78
89 92 79
91 94 80
92 94 80
94 95 82
95 97 83
96 97 83
97 98 84
98 99 85
99 100 86
100 100 86
101 101 86
101 102 87
102 102 87
102 102 87
102 102 88
102 102 88
102 102 87
102 102 87
101 102 87
101 101 86
100 101 87
99 100 85
99 99 85
98 99 85
97 98 84
96 97 83
94 96 83
19 43 40
19 43 40
20 44 41
19 43 40
19 43 40
20 44 40
19 43 39
19 43 39
18 41 38
19 43 39
19 43 40
19 43 39
19 43 39
19 43 40
19 43 40
19 43 40
19 43 40
19 43 40
20 44 41
19 44 40
20 45 41
20 44 41
19 43 40
19 43 40
19 43 40
19 43 40
19 42 39
19 43 40
19 43 39
19 43 40
20 43 40
20 44 41
20 44 41
19 43 40
20 44 41
20 45 41
20 43 40
20 43 40
20 44 40
20 44 41
21 45 41
21 45 41
21 44 41
21 45 41
21 44 41
21 43 40
21 44 40
22 45 41
22 45 41
22 43 40
23 45 41
23 45 41
24 46 42
24 45 41
26 47 43
26 47 43
27 46 42
28 47 43
29 49 44
30 49 44
31 49 45
33 50 46
33 50 45
35 51 46
37 52 47
38 54 49
40 54 48
41 55 49
43 56 50
45 57 51
46 58 52
49 60 53
50 61 54
53 64 56
55 65 57
57 66 58
59 67 59
61 69 60
63 70 61
65 72 63
67 74 64
69 75 65
72 78 67
74 78 68
76 81 70
78 83 71
80 84 73
83 86 74
85 87 75
87 89 77
89 91 78
90 93 80
92 94 81
94 96 82
96 97 83
97 99 85
99 100 86
100 101 86
101 101 87
103 103 88
103 103 88
104 104 89
105 105 90
106 106 90
106 106 91
107 106 91
107 107 91
107 107 91
107 107 91
107 107 91
107 107 91
107 106 91
106 106 91
105 105 90
105 104 89
104 104 89
103 103 89
102 102 88
101 101 86
100 100 86
20 44 40
19 43 39
19 41 38
19 43 40
19 43 40
19 43 40
19 42 39
19 43 40
19 43 40
20 44 40
19 43 39
20 44 41
20 44 41
19 43 40
19 42 38
20 44 41
19 43 40
19 43 40
19 43 40
20 44 40
20 44 41
19 44 40
19 43 40
19 43 40
19 43 40
20 44 40
20 44 41
20 44 41
20 44 41
19 43 40
19 43 39
20 44 41
19 42 39
19 43 39
20 44 40
20 44 41
20 43 40
19 42 39
20 44 40
20 43 40
20 44 40
21 45 42
21 44 40
21 44 41
21 45 41
21 44 41
22 45 41
22 45 41
22 44 41
23 45 42
23 45 41
24 46 42
25 45 41
25 46 42
26 46 42
27 47 43
28 48 43
29 49 44
30 47 43
31 49 45
33 50 45
34 50 45
35 51 46
37 52 47
38 53 47
40 54 48
42 56 50
43 56 50
45 57 51
47 59 52
49 61 54
51 61 54
53 63 56
55 65 57
57 65 57
59 67 59
62 70 61
64 72 63
66 72 63
69 75 65
71 77 67
73 78 68
76 80 69
78 82 71
80 84 72
82 85 74
85 88 76
87 90 77
89 90 78
91 93 79
93 95 82
95 96 82
97 97 84
99 99 85
100 101 86
102 102 87
103 103 88
105 104 89
106 105 90
107 107 91
108 108 92
109 108 92
110 109 93
111 110 94
112 111 95
112 110 94
112 111 95
112 112 95
112 112 95
112 112 95
112 111 95
112 111 95
111 110 94
111 109 93
110 109 93
109 108 92
108 108 92
107 107 91
106 105 90
104 105 89
