P3
120 80
255
18 41 38
18 40 38
18 41 38
18 40 38
18 41 39
18 42 39
18 41 38
18 41 39
18 40 37
18 41 38
18 40 38
18 41 39
18 41 38
18 42 39
18 41 38
18 41 38
18 41 38
18 41 38
18 41 38
18 41 38
18 41 38
18 41 38
18 41 38
18 41 38
18 42 39
18 41 39
18 41 38
18 40 38
18 41 38
19 42 39
18 42 39
18 41 38
19 42 39
19 42 39
18 41 38
18 41 39
18 41 38
19 42 39
19 42 39
18 40 38
18 41 38
18 41 38
18 41 39
18 41 38
18 41 39
18 42 39
18 41 38
18 41 39
18 41 39
19 42 39
19 42 39
19 42 39
19 42 39
19 42 39
18 41 38
18 41 38
18 41 38
18 41 39
19 42 39
18 41 38
18 41 38
18 41 38
19 42 39
19 42 40
19 42 39
18 41 38
19 43 40
18 41 38
19 43 40
18 42 39
19 42 39
19 42 39
19 42 39
18 41 38
19 43 40
18 41 39
19 43 40
18 42 39
19 42 39
19 42 39
18 41 38
19 42 39
18 41 39
19 42 39
19 42 39
19 42 39
19 42 39
19 42 39
19 42 39
19 43 40
19 42 39
19 42 39
18 41 38
18 41 38
19 42 39
19 43 40
18 41 38
18 41 38
19 42 39
19 42 39
18 41 38
19 42 39
19 43 40
18 41 38
19 43 39
19 42 39
19 42 39
18 42 39
19 42 39
18 41 38
18 42 39
19 42 39
18 42 39
19 42 39
19 43 40
18 42 39
19 42 39
19 42 39
18 42 39
18 41 38
18 41 38
18 41 39
18 41 39
18 42 39
19 42 39
18 41 38
18 41 39
18 40 38
18 41 38
18 41 38
18 42 39
18 41 38
18 41 38
18 41 38
18 41 38
19 42 39
18 41 39
18 41 38
18 42 39
19 42 39
18 41 38
18 42 39
18 41 38
18 42 39
18 41 38
18 41 39
18 40 38
18 41 38
18 41 39
19 42 39
18 41 38
19 42 39
19 42 39
19 42 39
18 42 39
19 42 39
19 42 39
18 41 39
19 42 39
18 42 39
19 42 39
18 42 39
19 42 39
18 41 38
18 41 38
18 41 38
18 41 38
18 41 38
19 42 39
19 42 39
18 41 38
19 42 39
18 42 39
18 41 38
18 41 38
19 42 39
19 42 39
19 42 39
18 42 39
18 41 38
19 42 39
18 42 39
19 42 39
19 42 39
18 41 38
19 42 39
18 41 38
19 42 39
19 42 39
18 41 38
19 42 39
19 42 39
19 42 39
19 43 40
19 42 39
18 41 39
19 43 40
19 43 40
19 43 40
19 43 40
19 42 39
19 42 39
19 42 39
19 42 39
19 42 39
19 42 39
19 42 39
19 43 40
19 42 39
19 42 39
19 42 39
19 42 39
19 43 40
19 42 39
19 43 40
19 43 40
18 41 38
19 43 40
19 42 39
19 43 40
19 42 39
19 42 39
19 43 40
19 42 39
19 42 39
19 42 39
19 42 39
19 42 39
19 42 39
19 42 39
19 42 39
19 42 39
19 42 39
19 43 40
19 43 40
19 43 40
19 42 39
19 42 39
19 42 39
19 43 40
18 41 39
18 40 37
18 41 38
18 42 39
18 41 38
18 41 38
18 42 39
18 42 39
19 42 39
18 40 38
18 41 38
18 41 38
18 41 38
19 42 39
18 41 39
18 41 38
19 42 39
19 42 39
19 42 39
18 41 38
19 42 39
18 41 39
19 42 39
19 42 39
18 41 39
18 42 39
19 42 39
19 42 39
18 41 38
19 43 40
18 41 38
19 42 39
19 42 39
19 42 39
18 41 38
19 42 39
19 42 39
19 42 39
19 43 40
19 42 39
19 43 40
19 42 39
18 41 38
19 42 39
18 41 38
19 43 40
18 41 38
19 43 40
19 42 39
19 43 40
19 43 40
19 42 39
19 43 40
19 43 40
19 42 39
19 42 39
18 42 39
19 42 39
19 43 39
20 44 40
18 41 38
19 43 40
19 42 39
19 43 40
19 43 40
19 42 39
19 42 39
19 43 40
19 43 39
19 43 40
19 44 40
19 42 39
19 43 40
19 42 39
19 42 39
18 41 38
19 42 39
19 42 39
19 42 39
19 43 40
19 42 39
19 43 40
19 42 39
19 43 40
19 43 40
19 42 39
19 43 40
19 43 39
19 43 40
19 42 39
19 42 39
19 42 39
19 43 40
19 43 40
19 42 39
19 42 39
19 43 40
19 42 39
19 43 39
19 43 39
19 43 40
19 43 40
19 43 40
20 44 41
18 41 38
19 43 39
19 43 40
18 41 38
19 43 40
19 42 39
19 42 39
19 42 39
19 43 40
19 42 39
19 43 40
19 43 39
19 43 40
19 43 40
19 43 40
19 44 40
19 42 39
18 41 39
18 41 38
19 42 39
19 42 39
18 41 38
19 43 40
18 41 38
18 40 38
18 41 39
19 42 39
18 42 39
18 42 39
18 42 39
19 42 39
18 42 39
19 42 39
18 41 38
18 41 38
19 42 39
19 42 39
19 42 39
18 41 38
18 41 38
19 43 40
19 43 40
18 41 38
19 43 40
19 42 39
19 42 39
19 42 39
18 42 39
19 43 40
19 43 40
19 43 39
18 41 38
19 42 39
19 42 39
19 42 39
19 42 39
19 43 40
19 42 39
18 41 38
19 43 40
19 43 40
19 42 39
19 42 39
19 42 39
19 42 39
19 43 40
19 43 39
19 42 39
19 43 40
19 43 40
19 43 40
19 43 40
19 43 40
19 43 40
19 42 39
19 44 40
19 42 39
19 44 40
19 44 40
19 42 39
20 44 41
19 43 40
19 43 40
19 43 40
19 42 39
18 41 38
19 43 40
19 42 39
19 43 39
19 43 40
19 43 40
19 42 39
19 43 40
19 44 40
19 43 40
19 42 39
20 44 41
19 43 40
20 44 41
19 43 40
19 42 39
19 42 39
19 43 40
19 43 40
19 43 39
19 43 40
19 43 40
19 43 40
19 43 39
19 43 40
20 44 41
19 43 40
19 43 39
19 43 40
19 43 39
19 43 40
19 43 40
19 43 39
19 43 40
19 43 40
19 42 39
19 43 40
19 43 40
19 42 39
19 43 40
20 44 40
19 44 40
19 43 40
19 43 40
20 44 40
19 43 40
19 43 40
19 44 40
19 42 39
20 44 41
19 42 39
18 41 39
19 42 39
19 42 39
18 41 38
18 41 38
18 41 38
19 43 40
19 42 39
19 42 39
19 42 39
19 43 40
19 42 39
19 42 39
19 42 39
18 41 39
19 43 40
19 43 40
18 41 38
19 42 39
19 43 40
18 41 38
19 42 39
19 43 40
18 41 38
19 42 39
19 43 40
19 43 40
19 43 39
19 43 40
18 41 38
19 42 39
19 42 39
19 43 40
19 43 40
19 43 40
19 42 39
19 43 40
19 43 39
19 42 39
20 44 41
19 43 40
19 42 39
19 43 40
19 42 39
19 44 40
19 43 39
19 43 40
19 42 39
19 44 40
19 42 39
20 44 41
20 44 40
20 44 41
19 42 39
19 42 39
19 43 40
19 41 38
19 43 40
19 43 40
19 43 39
19 43 40
19 43 40
19 43 39
19 42 39
19 43 39
19 43 40
19 43 40
20 44 40
19 43 39
19 44 40
19 42 39
19 43 40
19 43 40
19 43 40
19 43 40
20 44 41
19 43 40
19 43 40
20 44 40
20 44 41
20 44 41
19 43 40
19 43 40
19 43 40
20 44 40
20 45 41
19 43 40
19 42 39
20 44 40
19 43 40
20 45 42
19 43 39
20 44 40
19 44 40
19 43 40
20 44 40
20 44 41
20 44 40
19 43 40
20 44 40
20 44 41
20 44 40
19 43 40
19 43 40
19 43 40
20 44 41
19 44 40
19 43 40
19 43 40
19 43 40
19 43 40
19 44 40
20 44 40
19 44 40
20 44 40
20 44 41
19 43 40
19 43 40
20 44 41
19 43 39
19 42 39
19 43 40
19 42 39
18 41 38
19 42 39
18 41 38
18 41 39
19 42 39
19 43 40
19 43 40
19 42 39
19 43 40
19 42 39
19 42 39
19 43 40
19 43 40
19 42 39
18 41 38
19 42 39
19 42 39
19 42 39
19 43 40
18 42 39
19 42 39
19 42 39
19 43 40
19 42 39
19 42 39
19 42 39
19 42 39
19 43 39
19 43 40
19 43 40
19 43 40
19 42 39
20 44 40
19 43 39
19 43 40
19 43 40
19 43 40
19 44 40
19 43 39
19 43 40
19 43 40
19 43 39
19 43 40
19 43 39
19 43 40
19 43 40
20 44 40
19 43 40
19 43 40
20 44 40
19 43 39
19 43 40
20 44 41
19 43 40
20 44 41
19 43 40
19 43 40
19 43 39
20 44 40
19 43 40
19 44 40
20 44 41
19 43 40
19 43 40
20 44 41
19 44 40
19 42 39
19 43 40
20 44 40
19 43 40
20 45 41
19 43 40
20 44 41
20 44 41
19 43 40
19 43 40
20 44 40
19 43 40
19 43 40
20 44 41
20 45 41
20 44 41
20 45 41
20 45 42
19 44 40
20 44 40
20 44 40
20 44 41
20 45 41
20 44 41
20 44 41
20 44 40
20 45 41
20 44 41
19 43 40
20 44 41
20 44 41
20 44 40
20 45 42
20 44 41
20 45 41
20 44 40
19 43 40
20 45 42
20 44 41
20 45 41
20 44 40
19 43 40
19 43 40
21 46 42
20 44 41
20 45 41
20 44 41
20 44 41
20 44 41
20 44 41
20 45 41
19 42 39
18 42 39
19 43 40
19 43 39
19 42 39
19 42 39
19 42 39
19 43 40
19 43 40
19 43 39
19 43 40
19 42 39
19 43 39
19 44 40
19 43 40
19 42 39
19 43 40
19 42 39
19 42 39
19 43 40
19 43 40
19 42 39
19 42 39
19 42 39
19 44 40
20 44 41
19 43 40
19 42 39
20 45 41
19 42 38
20 44 40
19 43 40
19 43 39
19 43 39
19 43 40
19 43 40
19 43 40
19 42 39
19 43 40
20 44 41
19 42 39
20 44 41
19 44 40
19 42 39
19 43 39
20 44 40
19 43 40
20 44 41
19 43 40
20 44 41
19 43 40
20 44 41
19 43 40
19 43 40
19 43 40
20 44 41
19 43 40
19 43 40
19 43 40
20 45 41
20 44 41
20 44 41
20 44 41
20 44 41
20 44 41
20 44 40
20 44 40
19 43 40
20 44 41
20 44 41
19 43 40
20 44 41
20 44 41
20 44 41
20 44 41
19 43 40
20 44 41
20 45 41
20 44 41
19 43 40
20 44 41
20 44 41
20 44 41
20 44 40
20 45 42
20 44 40
20 44 40
20 44 41
20 45 42
20 44 41
20 45 41
20 44 41
20 44 40
20 44 41
20 44 41
20 45 41
20 44 40
20 45 41
20 45 41
20 45 41
20 45 42
20 45 41
20 44 40
20 44 40
20 44 41
20 45 41
20 44 41
20 45 41
20 45 41
20 44 41
20 44 40
20 44 40
21 46 42
20 45 41
20 44 41
20 44 41
20 45 41
19 43 40
20 45 41
20 45 41
18 41 38
19 42 39
19 43 40
19 43 40
19 42 39
19 42 39
19 43 40
19 42 39
19 42 39
19 42 39
18 41 38
19 43 40
19 43 40
19 43 39
19 43 40
20 45 41
19 43 39
19 42 39
19 42 39
19 43 40
19 43 40
19 43 40
19 42 39
19 43 40
19 43 39
19 43 40
20 44 41
19 43 39
19 43 40
19 43 40
19 43 40
20 44 41
19 43 40
19 43 40
20 44 40
19 43 40
20 44 40
20 44 41
20 44 41
20 44 40
20 44 40
19 42 39
20 44 41
19 43 40
20 44 40
19 42 39
20 45 41
19 43 40
20 44 41
20 44 41
20 44 40
19 43 40
19 43 40
20 44 41
20 44 40
20 44 40
20 44 40
20 44 41
20 45 41
20 44 41
20 44 41
19 43 40
20 44 41
20 44 41
20 44 40
20 44 41
20 44 40
20 43 40
20 45 41
21 46 42
20 45 41
20 45 41
20 44 41
20 44 41
20 44 41
20 44 41
20 45 41
20 45 41
20 44 40
20 44 40
20 45 41
20 45 42
20 45 41
20 45 41
20 44 41
20 45 41
20 45 41
20 45 42
20 45 41
20 45 41
20 45 41
20 45 42
20 45 41
21 46 42
20 45 41
20 45 41
20 44 41
20 45 41
20 44 41
20 45 41
20 45 41
21 46 42
19 43 40
20 44 40
20 45 41
21 46 42
20 46 42
20 44 41
20 45 41
20 45 42
20 45 42
20 45 42
21 46 42
20 45 41
20 45 41
21 46 42
20 45 41
20 45 42
21 46 42
20 45 41
19 43 40
19 43 40
19 42 39
19 43 40
19 44 40
19 42 39
19 43 40
20 44 40
19 43 40
19 43 40
19 42 39
19 42 39
19 42 39
19 43 39
19 43 40
19 43 40
19 43 39
19 44 40
19 43 40
20 44 41
19 43 40
19 43 39
19 44 40
19 43 40
20 44 40
20 44 41
20 44 41
20 45 41
19 43 40
19 43 40
19 43 40
19 43 40
20 45 41
20 44 41
20 44 40
20 44 40
20 44 40
20 44 40
19 43 40
19 43 40
20 45 41
20 44 41
19 43 40
19 43 40
19 43 40
20 44 40
20 45 41
20 44 41
20 44 41
20 44 41
19 43 39
20 44 40
20 44 41
20 44 41
19 43 40
20 45 41
20 45 41
20 44 41
20 45 41
20 45 41
20 45 41
20 45 42
20 45 41
20 45 41
20 45 42
20 44 41
20 44 41
20 45 41
20 45 41
20 44 41
20 44 41
20 45 41
20 45 41
20 45 42
20 44 40
21 46 42
20 45 42
20 44 41
21 46 42
20 44 41
20 45 41
20 45 41
20 45 41
20 45 41
20 45 42
20 45 41
21 46 42
20 45 42
21 46 42
21 46 42
21 46 42
21 46 42
20 45 41
20 45 42
21 47 43
20 45 41
20 45 41
20 45 41
20 45 41
20 45 42
20 45 41
21 46 42
20 44 41
20 45 41
20 45 41
21 46 42
21 46 42
21 46 42
20 45 41
20 45 41
21 46 42
21 45 42
20 45 41
20 45 41
21 46 43
20 45 42
21 46 42
21 46 42
21 46 42
20 45 42
19 44 40
19 42 39
19 43 40
19 42 39
19 43 40
19 44 40
19 43 39
19 43 40
19 43 40
19 43 40
19 43 40
19 43 40
19 44 40
19 43 40
20 45 41
19 43 40
19 43 40
19 43 40
19 42 39
19 43 40
20 44 40
19 43 40
20 44 40
20 44 40
20 44 40
20 45 41
20 44 40
20 44 40
19 43 40
20 45 41
20 44 40
19 44 40
20 44 40
20 45 41
20 44 41
19 43 40
20 44 40
20 44 40
20 44 40
20 45 42
20 44 41
20 44 40
20 44 41
20 44 41
20 45 41
20 45 42
20 44 41
20 44 40
20 44 41
20 44 41
20 45 41
20 45 41
20 44 41
20 44 40
20 45 41
19 43 40
20 45 42
20 44 40
20 45 42
20 45 42
20 45 41
20 45 41
20 45 42
20 45 41
21 46 42
21 46 42
20 45 41
20 45 42
21 46 42
20 44 41
20 44 41
20 45 41
20 45 41
20 45 41
20 45 41
21 46 42
20 45 41
20 45 41
20 45 41
21 47 43
20 45 41
20 45 41
21 46 42
20 45 41
21 47 43
21 46 42
21 46 42
20 45 41
21 46 42
21 45 42
20 45 41
21 46 42
21 46 42
20 45 41
21 46 42
21 46 42
21 46 42
20 45 42
21 46 42
20 45 41
21 46 42
21 46 42
21 46 42
21 46 42
21 46 42
21 46 42
21 47 43
21 46 42
21 47 43
21 46 42
21 46 42
21 45 41
21 46 42
21 47 43
20 45 42
20 45 41
20 45 41
21 46 42
20 45 41
21 46 42
19 42 39
19 43 40
19 42 39
20 44 41
19 43 40
20 44 41
19 43 39
19 43 40
20 44 41
19 43 40
20 44 41
19 44 40
20 44 41
19 43 40
20 45 41
19 43 39
20 44 40
19 43 40
20 45 41
19 43 40
19 43 40
20 44 41
19 43 40
19 44 40
20 44 40
20 44 40
20 44 41
20 44 41
20 45 41
20 44 40
20 44 41
20 44 41
20 45 41
20 45 42
19 43 40
20 45 41
20 45 41
20 45 41
20 44 41
20 44 40
20 45 42
20 44 41
20 44 41
21 47 43
20 44 41
20 44 41
20 44 41
20 44 40
20 45 42
20 44 41
20 45 42
20 44 41
20 45 41
20 44 40
20 44 40
20 45 42
20 45 41
20 45 41
21 47 43
20 45 41
21 46 42
20 45 41
20 45 42
20 45 41
20 45 41
20 45 41
21 46 42
20 45 41
21 46 42
20 45 42
20 45 41
20 44 40
21 46 42
21 46 42
20 45 41
20 45 41
21 47 43
21 46 42
21 46 42
20 45 41
21 47 43
21 47 43
21 46 42
20 45 41
21 45 42
21 47 43
21 46 42
20 45 41
20 45 41
21 47 42
20 45 41
20 45 41
21 46 42
21 46 42
21 46 42
21 46 42
21 46 42
21 47 43
21 47 43
21 46 42
21 46 42
21 47 43
22 48 44
21 46 42
21 47 42
22 48 43
21 46 42
21 46 42
21 47 43
21 47 43
21 47 43
21 47 43
21 47 43
21 46 42
21 47 43
21 46 42
21 46 42
21 46 42
21 46 42
21 46 42
19 43 40
19 43 39
20 44 40
19 43 40
19 43 40
19 43 40
19 43 40
20 44 40
19 43 40
19 43 40
20 44 40
19 43 40
19 42 39
20 44 41
20 44 41
20 44 41
19 43 40
20 44 40
20 44 41
20 44 41
19 43 40
19 43 40
20 44 40
20 45 41
19 43 40
20 45 42
20 45 41
20 44 40
20 44 41
19 44 40
20 45 41
20 44 40
20 44 41
20 44 41
20 44 41
20 44 40
20 44 41
20 45 41
20 45 41
20 45 42
20 45 41
20 45 41
20 45 41
20 45 41
20 44 41
20 44 41
20 45 41
21 46 42
21 46 42
20 44 40
20 45 41
20 45 42
20 45 41
20 44 41
20 45 41
20 45 41
20 45 41
20 45 41
20 45 42
20 45 41
20 45 41
21 46 42
20 45 41
20 45 41
21 46 42
21 46 42
21 47 43
20 45 41
21 46 42
20 45 41
20 45 41
20 45 41
21 45 42
21 47 43
21 46 42
21 46 42
21 47 43
20 45 41
20 45 41
20 45 41
21 46 42
21 47 43
21 46 42
21 47 43
21 46 42
21 46 42
21 46 42
21 47 43
21 47 43
21 46 42
21 46 42
20 45 41
21 47 43
21 47 43
21 47 43
21 47 42
21 46 42
21 47 42
21 46 42
21 47 43
21 47 43
22 48 43
21 46 42
21 47 43
21 47 42
22 48 44
21 45 41
21 46 42
21 47 43
21 47 43
21 47 42
21 47 43
21 47 43
20 45 41
21 46 42
22 48 43
22 48 43
21 45 41
21 46 42
21 47 42
19 43 40
20 44 41
20 44 40
19 43 40
19 43 39
19 43 40
20 44 40
20 44 41
20 44 41
20 44 41
20 44 41
20 45 41
19 43 40
20 45 41
20 44 41
20 44 41
20 44 40
19 43 40
19 43 40
20 44 41
20 44 41
20 45 41
20 45 41
20 45 41
20 44 41
20 45 41
20 44 41
20 44 41
20 44 41
20 44 41
20 45 41
20 45 41
20 45 41
20 45 41
20 45 41
20 44 40
20 44 41
21 46 42
20 44 40
20 44 41
20 45 41
20 45 41
21 46 42
20 45 41
21 46 42
20 45 41
20 45 41
20 45 41
20 44 41
21 46 42
20 45 41
21 46 42
21 45 42
21 46 42
21 46 42
20 45 41
21 46 42
20 45 42
20 45 41
21 45 42
20 45 41
20 45 41
21 46 42
20 45 41
20 45 41
21 46 42
21 46 42
21 46 42
21 46 42
21 46 42
21 46 42
21 46 42
21 46 42
21 46 42
21 47 42
20 45 41
21 46 42
21 47 43
21 47 43
21 47 42
21 47 42
21 47 43
21 47 43
21 47 43
21 46 41
21 47 43
21 47 43
22 48 43
21 46 42
21 47 43
22 48 44
22 48 44
21 46 42
21 46 42
21 47 43
21 47 42
21 47 43
21 46 42
21 47 43
22 48 43
21 46 42
22 48 44
22 48 43
21 47 43
21 47 43
21 47 43
21 47 42
21 46 42
22 48 43
21 47 43
21 46 42
21 47 43
22 48 44
21 47 42
22 47 43
22 48 43
22 47 43
22 49 44
21 47 43
22 48 43
19 42 39
20 44 41
20 44 40
20 44 41
20 44 41
19 43 40
19 43 40
20 44 41
20 44 41
20 45 41
20 45 41
20 44 40
19 43 40
19 43 40
20 44 41
19 43 40
20 44 40
20 45 41
20 45 41
20 44 41
20 44 40
20 44 41
19 43 40
20 44 41
20 45 41
19 43 40
20 44 41
20 43 40
21 46 42
20 45 41
20 45 41
20 44 41
20 45 41
20 45 41
21 46 42
20 45 41
21 46 42
20 45 42
21 46 42
20 44 41
20 45 41
21 46 42
20 45 41
20 45 41
21 46 42
21 46 42
20 44 41
21 46 42
20 44 41
21 46 42
20 45 41
21 46 42
21 45 42
20 45 41
21 46 42
21 47 43
21 47 43
21 47 43
21 45 42
21 46 42
21 45 41
21 46 42
21 47 43
21 47 43
21 46 42
21 47 43
21 47 43
21 46 42
21 46 42
21 46 42
21 46 42
21 46 42
22 48 43
21 46 42
21 46 42
21 46 42
21 46 42
21 47 43
21 47 42
21 47 43
21 46 42
21 47 43
21 47 43
22 48 44
21 47 43
21 47 43
21 47 43
22 48 44
22 47 43
21 47 42
22 48 43
22 48 44
22 48 44
21 47 43
21 46 42
22 47 43
21 47 43
22 48 43
22 47 43
21 47 43
22 48 43
22 48 44
22 48 44
21 47 43
21 47 43
22 49 44
22 48 44
21 47 43
22 48 43
21 47 43
22 48 44
22 48 44
21 47 43
22 47 43
22 48 43
22 47 43
22 48 43
22 48 44
21 47 43
22 48 44
20 44 41
19 43 40
20 44 40
20 45 41
19 43 39
20 44 40
20 44 40
20 44 41
19 43 40
20 44 40
19 43 40
20 44 40
20 45 41
20 44 41
20 44 41
20 45 41
20 43 40
20 45 41
20 44 40
20 45 41
20 45 41
20 46 42
20 45 41
20 44 41
20 44 41
20 45 41
20 44 40
20 45 41
19 43 39
20 45 41
20 45 42
20 45 42
20 45 41
21 45 42
20 44 41
20 45 41
20 45 42
21 46 42
20 45 42
21 45 42
20 45 41
20 45 41
21 46 42
20 45 42
21 46 42
21 45 42
20 45 41
20 45 42
20 45 41
20 45 41
21 46 43
21 46 42
21 46 42
21 46 42
21 46 42
21 46 42
21 47 43
21 46 42
21 47 43
21 46 42
21 47 43
21 46 42
20 45 41
21 47 42
21 46 42
21 47 43
21 46 42
21 46 42
21 47 43
21 47 43
21 47 43
21 47 43
21 46 42
21 47 43
21 47 43
21 47 43
22 48 44
21 47 42
21 47 43
22 48 43
21 47 43
22 48 43
21 47 43
22 48 43
21 47 43
21 47 42
22 47 43
22 48 43
22 47 43
22 48 44
22 47 43
22 49 44
22 48 44
22 48 44
21 47 43
22 48 44
21 47 42
22 49 44
21 47 42
22 48 44
23 50 45
22 49 44
22 48 44
22 48 44
22 48 43
21 46 42
22 48 44
22 48 43
22 49 44
22 47 43
22 48 44
21 47 43
22 49 44
22 47 43
22 47 43
22 47 43
22 48 43
22 48 43
22 48 43
22 49 44
19 43 40
20 45 41
20 44 41
20 44 40
20 44 41
19 43 40
20 44 41
20 44 41
20 45 41
20 44 41
20 44 41
20 44 41
20 44 41
20 45 41
20 44 40
20 45 41
20 44 40
20 45 41
20 44 41
20 44 40
21 46 42
20 44 41
20 45 41
20 45 41
20 45 42
20 45 41
20 45 42
20 45 41
20 44 41
20 45 41
20 45 41
21 46 42
20 45 42
20 45 41
20 44 40
20 45 41
20 45 42
21 46 42
21 46 43
20 45 41
21 47 43
21 46 42
20 45 41
21 45 42
21 47 43
21 46 42
21 46 42
21 47 43
20 45 41
21 46 43
21 47 43
21 46 42
21 46 42
21 46 42
21 47 43
21 46 42
20 45 41
21 46 42
21 46 42
21 46 42
22 48 43
21 47 43
21 46 42
21 46 42
21 47 42
21 47 42
21 47 43
21 46 42
21 47 42
22 48 44
22 48 43
21 47 43
21 47 43
21 46 42
21 47 43
21 47 43
21 47 42
21 47 43
21 47 43
22 48 43
22 48 44
21 47 42
22 48 43
21 47 43
22 48 43
22 47 43
21 47 43
21 47 43
21 47 43
21 47 43
22 48 43
22 48 43
21 47 43
22 48 43
21 47 43
22 49 44
22 49 44
22 48 44
22 48 43
22 47 43
22 49 44
22 49 44
22 48 44
22 48 44
22 48 43
22 49 44
22 49 44
22 48 43
22 48 43
22 48 43
22 48 44
22 48 43
22 49 44
22 49 45
22 49 44
23 49 45
22 49 44
22 49 45
22 48 44
22 49 45
20 44 40
20 44 40
20 46 42
20 44 40
20 44 40
19 43 40
20 44 40
19 43 40
19 43 40
20 44 40
20 44 41
20 44 41
20 44 41
20 44 41
20 45 41
20 44 40
20 44 41
20 45 41
20 44 41
20 45 41
20 45 41
21 46 42
20 45 41
20 45 41
20 44 41
20 45 41
20 45 41
20 46 42
20 44 41
20 45 41
20 45 41
20 45 42
20 44 40
20 45 41
20 44 40
21 46 42
20 44 41
20 45 41
21 46 42
21 46 42
21 46 42
21 47 43
20 45 41
20 45 41
21 46 42
20 45 41
21 46 42
21 46 42
20 45 41
21 46 42
21 46 42
21 46 42
21 46 42
21 46 42
21 46 42
21 47 43
21 46 42
21 46 42
22 48 43
21 47 43
21 47 43
21 46 42
21 46 42
21 47 43
21 47 43
21 45 41
21 47 43
22 48 43
21 47 43
21 47 43
22 48 44
22 48 44
21 47 43
21 47 42
21 47 43
22 48 44
22 48 43
22 48 44
21 47 43
21 46 42
22 48 44
21 47 43
22 47 43
22 48 44
22 48 44
22 48 44
22 48 44
22 48 43
22 47 43
22 49 44
22 48 44
22 48 44
22 48 43
22 48 43
22 48 43
22 49 44
21 47 42
22 48 44
22 48 43
22 48 44
22 48 44
22 48 44
22 48 43
22 49 44
22 49 45
22 48 44
22 48 44
22 48 44
23 50 45
22 49 44
22 49 44
22 48 44
22 49 44
22 48 44
22 48 44
22 49 44
22 49 44
22 48 43
22 48 43
22 49 45
20 44 41
20 44 41
20 45 41
20 44 40
20 44 41
20 44 40
20 44 41
20 45 41
20 45 42
20 45 41
20 45 42
20 45 41
20 44 40
19 43 40
20 44 41
20 44 41
20 45 41
20 44 41
20 45 42
20 44 40
20 44 41
19 43 40
21 46 42
20 44 41
20 45 41
20 44 41
20 45 41
20 45 41
20 45 41
21 45 42
20 45 41
21 46 42
21 46 42
21 46 42
21 46 42
21 46 42
21 46 42
21 45 42
21 47 43
21 46 42
20 45 41
21 46 42
21 46 42
21 46 42
21 47 43
21 46 42
21 46 42
21 47 43
21 46 42
21 46 42
21 47 43
22 48 43
21 46 42
21 47 43
21 47 43
21 46 42
21 47 43
21 47 43
21 47 43
21 47 42
21 47 43
21 46 42
22 48 44
21 47 42
21 47 43
21 47 43
21 47 43
21 46 42
21 47 42
22 48 44
22 48 43
21 47 43
22 47 43
21 47 43
21 47 43
22 47 43
22 48 43
22 48 44
22 48 44
22 48 44
22 48 43
22 48 43
22 47 43
22 48 44
22 48 43
22 47 43
22 48 43
21 47 43
22 49 44
22 48 43
22 47 43
21 47 43
22 48 44
22 49 44
22 48 44
22 48 44
22 48 44
21 47 42
22 48 44
22 48 43
22 48 44
22 49 44
22 49 44
22 48 44
22 48 43
22 49 44
22 49 44
22 49 44
22 49 44
22 49 44
22 48 44
22 48 44
22 49 44
22 48 43
22 48 44
22 49 44
22 48 44
22 49 44
22 49 44
22 48 43
20 45 41
19 43 40
20 44 41
20 44 40
20 44 41
20 44 41
20 44 40
20 45 41
20 44 41
21 46 42
21 46 42
20 45 41
20 45 42
20 44 41
20 45 41
20 44 40
21 45 42
20 44 41
20 44 41
20 45 41
20 45 41
20 45 42
20 45 41
20 44 40
20 44 41
20 45 41
21 46 42
21 46 42
21 46 42
21 47 43
21 46 42
20 45 41
21 47 43
20 45 41
21 46 42
20 45 41
20 45 41
21 47 43
21 47 43
20 45 41
21 46 42
21 46 42
21 46 42
20 45 41
20 45 41
20 45 41
20 44 40
21 46 42
21 46 42
21 46 42
22 48 43
20 45 41
21 47 43
21 46 42
21 46 42
21 47 42
21 47 43
21 47 42
21 46 42
22 48 43
21 47 43
22 48 44
21 46 42
21 47 43
22 48 44
22 48 44
22 48 43
21 47 43
22 48 43
22 48 43
21 47 42
69 74 68
138 114 104
136 84 73
52 49 43
22 48 43
22 48 44
21 47 43
21 47 43
22 48 44
21 47 43
22 48 44
22 48 43
22 48 43
22 48 44
22 48 44
23 50 45
22 48 44
22 48 44
22 49 44
22 48 44
22 49 44
22 49 44
22 49 44
22 48 43
22 49 44
22 48 43
23 49 45
22 49 45
23 49 45
22 49 44
22 48 43
22 49 45
22 48 44
22 48 43
22 49 44
22 49 44
22 49 45
22 49 45
22 49 44
23 50 45
23 50 46
23 50 45
23 50 45
22 49 44
23 49 45
22 48 44
22 49 44
23 49 45
22 49 44
20 45 41
20 44 41
20 44 41
20 45 41
20 45 41
21 46 42
20 44 41
20 45 41
20 45 41
20 45 41
20 45 41
20 45 41
20 45 41
21 46 42
20 45 41
20 44 41
20 44 41
21 46 42
20 45 41
21 46 42
20 46 42
21 46 42
21 46 42
20 45 42
21 46 42
21 46 42
20 45 41
20 45 41
21 46 42
20 45 41
21 47 43
21 46 42
20 44 41
21 46 42
21 47 43
21 46 42
21 46 42
21 47 43
21 46 42
21 46 42
21 47 43
21 46 42
21 47 43
21 47 42
21 46 42
21 47 43
21 46 42
20 45 41
21 46 42
21 47 43
21 47 43
21 47 43
21 46 42
21 47 43
21 46 42
21 47 43
21 47 42
21 46 42
21 47 43
21 47 43
22 48 44
22 48 44
21 47 43
21 47 43
22 47 43
21 47 43
22 48 43
22 48 43
21 47 43
22 48 43
130 105 97
204 112 98
219 79 60
235 80 58
235 83 61
124 57 47
22 48 44
22 48 43
22 47 43
22 48 43
23 49 45
22 49 44
22 47 43
22 48 44
22 48 43
23 50 45
22 49 44
22 48 44
22 48 43
22 48 44
22 49 44
23 50 45
22 49 44
23 50 46
22 48 44
23 49 45
23 49 45
22 48 44
22 49 44
23 49 45
22 48 43
22 48 44
22 48 44
22 49 44
23 49 45
22 48 44
23 50 45
22 48 43
22 48 44
23 50 45
23 49 45
22 49 44
22 49 44
23 50 45
23 49 45
22 49 44
22 49 44
22 49 44
22 48 44
23 50 45
20 44 41
20 44 41
20 45 41
20 44 41
20 44 40
20 45 42
20 44 41
20 45 41
20 45 41
20 46 42
21 46 42
20 45 42
20 45 42
20 45 42
21 46 42
20 45 41
20 44 41
21 46 42
20 45 42
20 44 41
20 45 41
21 46 42
21 46 42
20 45 41
21 46 42
21 46 42
20 45 41
21 46 42
21 46 42
20 45 42
20 45 41
20 45 41
21 47 43
21 46 42
20 45 41
21 46 42
21 45 41
21 46 42
21 46 42
21 47 43
21 46 42
21 46 42
21 46 42
21 46 42
21 46 42
21 47 43
21 46 42
20 45 41
21 46 42
22 48 43
21 47 43
21 47 43
21 47 43
22 48 44
21 47 43
21 47 43
21 46 42
21 47 42
22 48 44
22 48 43
22 48 43
21 47 43
21 46 42
22 48 43
22 47 43
21 47 43
22 48 44
22 48 43
21 47 42
87 68 63
169 66 52
192 65 47
208 70 50
226 84 62
255 129 102
231 76 54
79 51 44
22 48 44
22 48 44
21 47 42
22 48 43
22 48 44
22 49 44
22 48 44
22 47 43
22 48 44
22 48 44
22 48 43
22 48 44
22 49 44
22 48 43
22 49 44
22 48 44
22 48 43
22 49 44
22 48 43
22 48 43
22 48 44
23 50 45
23 50 45
23 50 45
22 49 44
23 50 45
23 50 45
22 48 44
22 49 44
23 50 45
22 49 44
23 49 45
22 49 44
23 50 45
23 49 45
23 51 46
23 51 46
23 50 45
23 49 45
23 51 46
23 49 44
23 50 45
23 50 45
20 44 41
19 43 40
20 45 41
20 45 41
20 44 41
20 45 41
20 45 41
20 46 42
21 46 42
20 45 41
20 44 41
20 45 41
20 45 41
20 44 40
20 45 41
20 45 42
20 45 41
20 44 41
21 46 42
21 45 41
21 46 42
21 46 42
20 45 41
21 46 42
21 47 43
21 46 42
21 46 42
21 47 43
21 46 42
20 45 41
21 46 42
21 45 41
21 46 42
21 46 42
21 46 42
21 46 42
21 46 42
21 46 42
21 47 43
21 46 42
21 46 42
21 46 42
21 46 42
21 47 43
21 47 43
21 45 41
21 46 42
21 47 42
21 46 42
21 47 43
21 46 42
21 47 43
22 48 44
21 47 43
21 47 43
21 46 42
22 48 43
21 47 43
21 47 43
22 48 44
22 48 44
21 47 43
21 47 43
21 47 43
22 48 44
22 48 44
22 48 44
22 48 44
22 48 44
105 85 79
147 72 62
164 56 41
179 62 46
195 102 88
210 132 115
216 131 113
133 67 56
22 48 44
22 48 44
22 49 44
22 48 44
22 48 43
34 53 48
99 98 90
146 135 123
134 125 113
33 53 48
23 49 45
22 48 44
22 48 43
22 47 43
22 47 43
22 48 44
22 48 43
23 49 45
23 50 45
22 49 44
22 48 43
22 49 45
22 49 44
22 48 44
22 48 43
23 50 45
22 49 44
23 50 45
23 50 45
22 49 44
23 50 45
23 50 45
23 50 45
23 50 45
22 49 44
22 49 44
23 49 45
23 51 46
22 48 44
23 50 45
23 50 45
23 50 45
23 49 45
20 45 42
20 44 41
20 44 41
20 45 41
20 45 41
20 45 42
21 46 42
20 46 42
20 44 41
20 45 41
21 46 42
20 45 41
21 46 42
20 45 41
20 45 41
21 46 42
21 47 43
20 45 42
21 46 42
21 46 42
21 46 42
21 47 43
20 45 41
20 45 41
20 45 41
21 46 42
21 46 42
21 46 42
21 47 43
21 46 42
21 46 42
21 46 42
21 46 42
21 46 42
20 45 42
22 48 44
21 47 43
21 46 42
20 45 41
21 47 42
21 47 43
21 46 42
21 46 42
21 46 42
21 46 42
21 47 43
21 47 43
21 46 42
21 46 42
21 46 42
21 47 42
21 47 43
22 48 44
21 47 42
22 47 43
22 48 44
21 47 42
21 47 43
22 48 44
22 47 43
21 46 42
21 47 43
21 47 43
22 47 43
22 48 44
22 47 43
22 48 44
21 47 43
21 47 43
85 80 74
125 90 82
131 60 50
144 118 109
154 138 127
171 151 136
173 151 134
126 107 94
22 48 44
22 49 44
22 48 43
23 49 45
64 72 66
171 157 146
208 189 176
219 198 183
238 214 195
228 203 184
113 107 96
23 50 45
22 48 43
22 48 44
22 49 44
22 49 44
22 49 44
23 49 45
23 50 45
23 49 45
22 48 44
22 49 44
23 50 45
22 49 44
22 49 45
23 50 45
23 49 44
22 48 43
22 49 44
72 59 48
113 70 52
105 67 50
29 49 44
23 49 45
23 50 46
23 50 45
22 49 44
23 51 46
23 51 46
22 49 44
23 49 45
23 50 45
23 50 45
20 44 41
20 45 41
20 45 41
20 45 41
21 46 43
20 45 42
20 45 41
20 45 42
20 44 40
20 45 41
21 46 42
20 45 42
21 46 42
21 47 43
20 45 42
21 46 42
21 46 42
21 46 42
20 45 41
21 46 42
20 45 42
21 47 43
21 47 43
20 45 41
21 46 42
21 47 43
21 46 42
21 46 43
21 46 42
21 47 43
21 47 43
21 47 43
21 46 42
22 48 44
21 46 42
21 46 42
21 46 42
20 45 41
21 46 42
21 46 42
21 46 42
21 46 42
21 48 43
21 46 42
21 47 42
21 46 42
21 46 42
21 46 42
22 48 43
21 47 43
22 48 44
21 47 43
21 47 43
22 48 44
21 47 43
22 49 44
22 48 43
21 47 43
21 47 42
21 47 43
22 47 43
21 47 43
22 49 44
22 48 43
21 47 42
21 47 43
21 47 43
21 46 42
22 48 43
65 63 57
98 59 52
96 83 75
100 93 85
101 92 83
105 94 84
130 114 100
76 77 67
22 49 44
21 47 43
22 49 44
23 48 44
126 117 114
171 157 150
182 165 157
187 168 160
206 184 172
213 188 177
166 141 140
31 49 48
21 47 43
23 50 46
23 51 46
23 49 45
22 48 44
23 49 45
22 48 44
22 49 44
22 49 44
22 48 43
22 49 44
23 49 44
22 48 44
23 50 45
22 49 44
43 58 53
163 132 117
232 118 76
244 118 71
255 140 94
248 125 79
122 87 72
22 49 44
23 50 45
23 50 45
23 50 45
23 50 45
23 50 46
23 50 45
23 49 45
23 50 46
20 45 42
20 45 41
20 45 41
20 44 41
21 46 42
20 44 41
20 45 41
20 44 41
20 44 40
20 45 41
20 45 41
20 45 41
20 45 41
21 46 42
21 45 42
21 46 42
20 45 41
20 45 41
21 46 42
21 46 42
21 45 41
20 45 41
20 45 41
20 45 42
20 45 41
21 45 42
20 45 41
21 46 42
21 46 42
21 45 42
21 47 43
21 47 43
20 45 41
21 47 43
21 47 43
21 47 43
21 46 42
21 46 42
21 46 42
21 46 42
21 47 43
21 46 42
21 47 43
21 47 43
21 47 43
21 47 43
21 46 42
21 47 43
21 45 41
21 46 42
21 47 43
21 47 43
22 48 44
21 47 43
21 47 43
22 48 43
22 48 43
21 47 43
21 47 43
21 47 43
21 47 42
21 47 43
22 47 43
21 46 42
22 47 43
21 46 42
21 47 43
21 47 43
21 46 41
27 44 40
40 30 25
44 46 40
39 43 36
40 43 34
56 52 41
57 57 47
22 47 42
22 47 43
22 48 43
22 48 43
36 45 50
64 44 75
67 46 78
71 49 82
78 53 87
83 55 91
86 57 92
88 57 91
54 52 64
22 49 44
22 49 44
22 49 45
22 49 44
22 49 44
22 48 44
22 49 44
22 49 44
22 48 44
22 49 44
22 49 44
22 48 44
23 49 45
23 50 45
22 48 44
140 130 122
200 122 97
215 105 64
222 108 65
245 133 90
248 168 137
221 193 175
91 91 81
23 50 45
23 49 45
22 49 44
23 50 45
23 50 45
22 49 44
23 50 45
22 49 44
20 44 40
20 44 40
20 45 41
20 44 41
20 44 41
20 44 40
21 46 42
21 45 42
20 45 42
20 44 41
21 47 43
20 45 41
21 46 42
20 45 42
20 45 41
20 45 42
20 45 42
20 45 41
20 45 41
21 46 42
21 46 43
21 46 42
21 45 42
20 45 41
21 46 42
21 47 43
20 45 41
21 46 42
21 47 43
21 47 43
21 46 42
21 46 42
21 46 42
21 46 42
21 47 43
21 46 42
21 45 41
21 46 42
21 47 43
21 47 43
21 47 43
21 47 43
21 47 43
21 46 42
21 46 42
21 46 42
21 46 42
21 47 43
22 49 44
21 46 42
21 47 43
22 48 44
21 47 42
21 47 43
21 47 43
21 47 43
22 47 43
22 48 44
22 48 43
22 47 43
21 47 43
22 48 43
21 47 42
22 47 43
21 46 42
20 44 40
19 42 39
16 36 34
15 34 32
14 32 30
11 25 23
9 19 16
12 20 15
32 32 23
30 36 29
20 42 37
20 44 39
21 46 41
22 47 43
22 48 44
36 44 50
55 38 63
57 39 65
62 42 70
62 42 70
63 42 70
72 48 77
74 49 77
57 49 64
22 49 44
22 48 44
23 49 45
22 49 44
22 48 44
22 49 44
23 50 45
23 51 46
23 50 45
23 50 46
22 49 44
22 48 44
23 51 46
22 49 44
59 69 64
151 127 117
174 90 59
186 102 73
199 97 59
209 109 73
202 174 158
203 182 166
147 134 121
23 50 45
22 49 44
23 51 46
23 51 46
23 49 45
23 50 45
23 49 45
23 51 46
20 45 42
20 45 42
21 46 42
20 44 41
20 45 42
20 45 41
20 45 41
21 47 43
20 45 41
21 46 42
20 45 42
21 46 42
20 45 41
20 45 42
21 46 42
21 46 42
21 46 42
20 45 41
21 46 42
21 46 42
21 46 42
21 47 43
21 46 42
21 46 42
21 46 42
21 45 42
21 46 42
21 47 43
21 46 42
20 45 41
21 46 42
21 47 43
22 48 43
21 46 42
21 46 42
21 47 43
21 46 42
21 47 43
21 46 42
21 47 43
21 46 42
21 46 42
21 47 43
21 46 42
21 47 43
20 45 41
21 46 42
21 47 43
21 47 43
21 46 42
21 47 43
22 48 43
22 48 44
21 47 43
21 47 43
22 47 43
22 48 43
22 48 44
21 47 42
22 47 43
21 46 42
22 48 43
22 48 43
21 46 42
21 46 42
21 45 41
20 44 40
19 41 38
18 39 36
16 36 33
17 37 34
15 34 31
15 33 30
17 37 33
20 42 37
20 44 39
21 46 41
22 48 43
22 47 43
22 48 43
28 43 44
45 31 50
44 31 50
48 33 54
46 32 52
50 34 56
49 34 55
55 37 58
36 46 48
22 48 43
22 49 44
22 49 44
22 48 44
22 49 44
22 48 44
22 48 43
23 50 45
22 48 44
22 49 44
23 49 45
22 48 43
23 50 45
22 49 44
67 72 66
132 103 92
128 111 103
135 121 112
151 92 73
163 115 98
161 145 134
171 153 140
153 138 124
23 50 45
22 49 44
23 50 45
22 48 44
23 50 45
23 49 45
23 50 45
23 49 45
20 44 40
21 46 42
20 45 41
21 46 42
21 46 42
20 45 41
20 44 41
21 46 42
21 46 42
20 45 41
20 45 42
21 46 42
20 45 41
20 45 41
20 45 41
21 46 42
20 44 41
20 45 41
20 45 41
21 46 42
21 46 42
20 45 41
20 45 41
21 46 42
20 45 41
21 46 42
21 46 42
21 47 43
20 45 41
20 45 41
21 47 43
21 47 43
21 46 42
21 47 43
20 45 41
21 47 43
21 46 42
21 46 42
21 47 43
20 45 41
21 46 42
21 46 42
22 47 43
21 47 43
20 45 41
21 46 42
21 46 42
22 47 43
21 46 42
21 46 42
21 47 43
22 48 43
21 47 43
21 47 43
21 46 42
22 48 44
22 47 43
22 48 43
21 47 42
21 46 42
21 46 42
21 47 43
22 48 44
21 47 43
22 48 44
22 47 43
22 48 43
22 47 43
22 48 44
22 48 43
22 47 43
21 47 42
22 47 43
21 46 42
21 47 42
22 47 43
22 48 43
21 46 42
22 47 43
21 46 41
24 48 44
37 35 41
34 27 37
32 28 34
41 35 42
35 32 35
45 41 42
54 47 45
23 48 43
22 49 44
22 48 43
22 49 44
22 48 43
22 49 44
22 48 44
22 49 44
23 49 45
23 50 45
22 49 44
22 49 44
23 49 44
23 49 44
23 49 45
60 67 61
103 73 62
100 93 85
90 84 77
112 89 79
119 98 88
118 109 101
127 117 107
106 100 90
23 50 45
23 50 45
23 50 45
22 49 44
23 49 45
32 52 48
116 111 102
177 161 148
20 45 41
20 45 41
20 45 41
20 45 42
21 46 42
20 45 41
21 46 42
20 44 40
21 46 42
20 45 41
20 45 41
21 46 42
20 45 41
21 46 42
20 45 42
21 46 42
20 45 42
21 46 42
21 46 42
21 46 42
20 45 41
21 46 42
20 45 42
21 47 43
21 46 42
21 46 42
21 46 42
21 46 42
21 46 42
20 45 41
21 47 43
21 47 43
21 46 42
21 47 43
21 47 43
21 47 43
21 46 42
21 47 43
21 47 43
21 47 42
21 46 42
21 46 42
21 47 43
22 48 44
21 46 42
21 46 42
21 47 43
21 46 42
22 48 44
22 48 43
21 45 41
21 47 43
21 47 43
22 47 43
21 46 42
21 47 43
21 46 42
22 48 43
22 48 43
21 47 43
21 47 42
22 47 43
22 47 43
21 47 43
21 47 43
22 48 43
22 47 43
22 48 44
22 48 43
22 49 44
22 48 43
22 49 44
21 47 42
22 48 44
22 48 44
22 48 44
21 46 42
21 46 41
20 43 39
18 41 37
18 41 37
25 40 37
18 26 22
13 24 19
22 30 23
28 34 25
41 44 34
29 48 42
22 47 42
21 46 42
22 48 44
22 47 42
22 48 43
22 49 44
23 49 45
22 48 43
23 50 45
22 48 44
22 48 44
22 49 44
23 49 45
22 48 44
23 49 45
35 53 48
69 43 32
71 60 52
80 73 66
75 52 42
88 75 65
86 81 73
89 84 75
54 63 56
23 49 44
23 49 44
22 48 44
23 50 45
25 46 43
149 137 128
206 187 175
209 190 178
20 45 41
20 44 40
21 46 43
20 45 41
21 46 42
21 46 42
20 45 41
20 45 41
20 45 41
20 45 41
21 46 42
21 46 42
21 46 42
21 46 42
20 45 41
20 45 41
21 46 42
21 46 42
20 45 41
20 45 41
21 46 42
20 45 41
21 46 42
21 46 42
21 46 42
21 46 42
21 46 42
21 46 42
20 45 41
20 45 41
21 46 42
21 46 42
21 46 42
21 46 42
21 47 43
21 46 42
21 46 42
21 46 42
21 46 42
21 46 42
21 47 43
21 46 42
21 46 42
21 46 42
22 48 44
21 47 43
21 47 43
21 47 43
21 47 42
21 46 42
21 47 42
22 48 44
21 47 43
21 46 42
21 46 42
21 47 43
21 47 43
22 48 44
21 47 43
21 47 43
21 47 43
21 47 43
22 47 43
21 47 42
21 47 43
21 46 42
22 47 43
22 48 43
21 47 43
21 47 42
22 48 44
22 48 43
22 47 43
22 48 43
21 47 43
22 48 44
20 45 41
19 42 39
15 35 33
14 33 32
12 29 27
12 28 26
10 22 21
8 17 16
8 16 15
11 20 18
16 35 31
19 42 37
20 44 39
21 45 41
22 47 43
22 47 43
21 46 42
22 48 43
22 48 44
22 48 44
22 48 43
22 47 43
22 48 43
22 48 43
22 48 43
21 46 42
22 47 42
21 45 40
27 40 35
25 18 11
36 22 12
30 20 10
24 32 25
35 39 30
47 54 46
22 47 42
22 49 44
22 49 44
23 50 45
23 47 43
80 76 73
180 166 157
186 171 162
189 174 165
20 44 41
20 45 41
20 45 41
20 44 41
20 45 41
21 46 42
20 45 42
21 46 42
21 46 43
21 46 42
21 46 42
20 45 41
21 46 42
21 47 43
21 46 42
20 45 41
20 44 41
20 45 41
20 45 41
20 45 41
21 46 42
21 47 43
21 46 42
20 45 41
20 45 41
21 46 42
21 46 42
21 46 42
21 46 42
21 46 42
20 45 41
21 46 42
20 45 42
21 46 42
21 45 41
21 46 42
21 47 43
21 47 43
20 45 41
21 46 42
21 46 42
21 47 43
22 48 44
20 45 41
21 47 43
21 47 43
21 47 43
21 47 42
21 47 42
22 48 44
22 47 43
21 47 43
21 47 43
22 48 44
21 47 43
21 47 43
21 47 43
22 48 44
21 47 43
22 48 44
22 47 43
22 48 43
22 47 43
21 47 42
22 47 43
21 47 42
22 47 43
21 47 43
21 46 42
21 47 43
22 47 43
22 48 43
21 46 42
22 48 43
21 46 42
21 47 43
21 46 42
21 47 43
21 45 41
20 44 40
20 44 40
19 43 39
20 44 40
19 42 38
19 43 38
21 45 41
21 46 41
22 47 42
22 47 43
21 46 42
22 47 43
22 47 43
22 49 44
22 48 43
22 48 43
22 49 44
22 49 44
22 48 43
22 48 43
22 48 44
21 46 41
19 42 38
15 35 33
13 30 28
11 26 24
9 20 19
8 12 10
9 9 5
10 17 13
15 29 25
19 41 36
21 45 40
22 48 42
22 47 42
22 48 43
23 42 39
105 98 92
154 144 136
160 149 141
168 155 147
20 45 41
20 45 41
20 45 41
20 45 42
21 46 42
20 45 41
20 45 42
21 46 42
21 46 42
20 45 41
21 46 42
20 45 41
21 46 42
20 45 42
21 46 42
21 46 42
20 45 41
21 46 42
21 46 42
20 44 41
21 46 42
21 47 43
21 46 42
21 45 41
21 46 42
21 46 42
20 45 41
21 45 42
21 46 42
21 46 42
21 46 42
21 47 43
21 46 42
21 46 42
21 46 42
22 48 44
21 46 42
21 47 43
21 45 41
21 47 43
21 47 43
21 45 42
21 46 42
21 47 43
21 46 42
21 47 42
22 48 44
20 45 41
21 46 42
22 48 43
21 47 43
22 48 44
21 47 43
21 47 42
21 47 43
21 47 43
21 47 43
21 47 43
22 47 43
22 47 43
21 47 43
22 48 43
21 47 42
21 47 43
21 47 43
21 47 42
22 49 44
21 47 43
22 48 43
21 47 43
21 47 43
22 47 43
21 46 42
21 47 42
22 48 44
21 47 43
21 47 42
22 48 43
22 48 44
22 47 43
21 47 42
22 48 43
22 47 43
21 47 43
22 48 44
22 48 43
22 47 43
22 47 43
21 47 42
22 48 43
22 47 43
22 48 43
22 48 44
22 47 43
22 49 44
22 48 44
22 47 43
22 48 44
22 48 44
22 48 43
22 48 43
21 46 42
20 43 40
18 39 36
16 36 33
16 36 33
15 33 30
14 31 29
17 36 33
17 38 34
20 44 39
21 46 41
22 48 43
22 47 42
22 47 42
21 34 33
79 75 71
139 128 120
148 136 128
151 140 131
20 44 41
20 45 41
20 44 40
20 45 41
20 45 41
20 45 41
21 46 42
21 46 42
21 46 42
21 46 42
21 46 42
21 46 42
20 45 41
21 47 43
21 46 42
21 46 42
20 45 41
21 46 43
21 46 42
21 46 42
21 46 42
21 47 43
20 45 41
21 47 43
20 45 41
21 46 42
21 46 42
21 46 42
21 46 42
21 46 42
22 48 43
21 45 41
21 47 43
21 46 42
21 46 42
21 46 42
21 46 42
21 46 42
21 46 42
21 46 42
21 47 43
21 46 42
21 47 43
21 47 43
21 47 43
21 47 43
21 46 42
21 47 42
21 47 42
21 47 43
21 46 42
21 47 43
22 48 43
21 47 42
21 46 42
21 47 43
21 46 42
21 47 43
21 46 42
21 46 42
21 46 42
22 47 43
21 47 42
22 48 43
22 48 44
22 47 43
21 47 43
22 48 43
21 46 42
21 47 43
22 48 44
22 48 44
21 47 43
22 48 43
22 48 43
22 48 43
22 47 43
22 47 43
22 48 44
22 47 43
22 48 44
22 47 43
22 49 44
21 47 43
22 47 43
21 47 42
21 47 43
22 49 44
22 48 44
22 48 44
22 49 44
23 50 45
22 49 44
22 48 44
22 48 44
22 49 45
22 49 44
22 47 43
22 48 43
22 49 44
22 48 43
22 48 43
21 47 42
21 47 42
22 48 44
22 47 43
22 48 43
21 46 42
22 49 44
22 47 43
22 47 43
21 47 42
22 49 44
22 49 44
22 49 44
20 37 35
38 37 36
112 104 96
121 112 103
124 115 107
21 46 42
20 45 41
21 46 42
21 47 43
20 45 41
20 45 41
20 45 41
20 45 41
21 46 42
21 46 42
20 45 41
20 45 41
21 46 42
20 45 41
20 45 41
21 46 42
20 45 41
21 46 42
20 45 41
21 46 42
20 45 41
20 45 42
21 46 42
21 46 42
21 46 42
20 45 41
20 45 41
21 47 43
21 46 42
21 46 43
21 46 42
20 45 42
21 46 42
21 45 41
21 46 42
21 46 42
20 45 41
21 45 41
21 47 43
21 46 42
20 45 41
21 46 42
21 47 43
22 48 44
21 46 42
21 46 42
21 46 42
21 47 42
22 48 43
21 46 42
21 46 42
21 47 43
22 48 43
21 46 42
21 47 43
21 46 42
21 47 43
22 48 44
22 48 43
21 47 43
21 47 42
21 47 43
21 47 43
21 46 42
22 48 44
22 48 44
22 48 43
21 47 43
22 48 43
22 48 43
22 48 44
21 46 42
22 48 43
21 47 43
22 48 43
22 48 43
21 47 43
22 48 44
22 48 44
22 49 44
22 48 43
22 49 44
21 47 43
22 48 44
22 48 43
22 49 44
22 48 43
21 47 42
22 49 44
22 49 44
22 48 44
22 48 44
22 48 44
22 48 44
22 49 44
22 49 44
23 50 45
22 49 44
22 49 44
22 47 43
23 49 45
22 48 43
23 50 45
22 49 44
22 48 43
22 48 43
22 48 44
22 48 43
22 48 43
22 48 43
22 49 44
22 48 43
22 48 43
22 48 44
22 47 43
21 44 40
14 16 17
46 44 41
96 90 82
82 78 70
20 45 42
20 45 42
21 46 42
20 45 41
20 45 41
20 44 40
20 45 41
21 47 43
20 45 41
21 46 42
20 44 40
20 45 41
20 45 41
21 46 42
20 45 41
21 45 42
20 45 41
20 45 41
20 45 41
21 46 42
21 46 42
20 45 41
21 46 42
21 46 42
21 46 42
21 46 42
20 45 41
21 46 42
21 46 42
20 45 41
21 46 42
21 46 42
21 46 42
21 46 42
21 46 42
21 47 43
21 46 42
21 45 41
21 47 43
21 47 43
21 46 42
21 45 41
21 47 43
21 46 42
21 46 42
21 45 41
21 46 42
21 47 43
21 46 42
21 46 42
21 46 42
21 47 43
21 47 43
21 47 42
22 48 44
22 48 43
21 47 43
22 47 43
21 46 42
21 46 41
22 48 43
21 47 43
21 47 43
22 47 43
21 47 43
21 46 42
21 46 42
22 48 44
21 46 42
22 48 43
22 48 44
22 48 44
22 48 44
22 49 44
22 48 44
22 47 43
21 47 43
21 47 43
22 48 44
22 47 43
22 48 44
21 47 43
22 48 43
22 48 44
21 46 42
21 47 43
22 48 44
22 48 44
22 48 43
22 48 44
21 46 42
22 48 43
22 48 43
21 47 43
22 49 44
22 48 44
23 50 45
22 48 43
22 49 44
22 48 44
22 48 44
22 49 44
22 49 45
22 48 44
22 47 43
22 47 43
22 49 44
22 49 44
22 49 44
22 47 42
22 48 43
23 49 45
22 48 43
22 48 43
22 47 43
22 47 42
14 29 26
6 8 8
15 16 14
43 41 37
20 45 42
20 45 41
21 46 42
20 45 41
21 46 42
20 44 40
20 45 41
21 45 42
21 46 42
21 46 42
21 46 42
21 46 42
20 44 40
20 45 41
20 45 42
20 44 40
20 45 41
21 47 43
20 44 41
21 46 42
20 45 41
21 46 42
21 46 42
21 46 43
20 45 41
20 45 41
20 45 41
21 45 41
21 47 43
21 47 43
21 46 42
20 45 42
20 45 41
21 46 42
21 47 43
21 46 42
21 46 42
21 47 43
21 47 43
22 48 43
21 47 43
21 46 42
21 47 43
21 47 43
21 47 43
21 47 43
21 47 43
21 47 43
21 47 43
22 48 44
21 46 42
21 47 43
21 46 42
21 46 42
21 46 42
21 47 43
22 48 43
21 47 43
21 47 43
22 47 43
22 48 43
22 48 44
22 47 43
21 47 43
22 48 44
22 49 45
21 46 42
21 47 43
21 47 43
21 46 42
21 47 42
22 48 43
22 48 43
22 47 43
22 48 43
22 48 44
22 48 43
22 48 43
22 48 43
22 48 44
21 47 43
21 47 43
22 48 44
22 48 44
21 46 42
22 48 44
22 48 43
22 48 43
21 47 43
22 48 44
22 49 45
22 49 45
22 48 43
22 48 44
22 48 44
22 48 43
22 49 44
22 49 44
22 48 44
21 47 43
22 49 44
22 48 43
23 50 45
22 49 44
22 49 44
22 49 44
22 49 44
22 48 43
22 47 43
22 47 43
22 47 43
22 48 44
21 46 42
20 44 39
18 40 36
15 33 30
13 30 27
8 18 16
1 4 3
1 3 3
20 45 41
20 45 41
20 45 41
20 45 41
21 46 42
20 45 42
20 44 41
21 46 42
20 45 41
20 45 41
20 45 41
21 46 42
20 45 41
21 46 42
21 46 42
21 46 42
21 45 42
21 46 42
20 44 40
20 45 41
20 45 41
21 46 42
20 45 41
20 45 41
21 46 42
20 45 41
20 44 41
21 46 42
21 47 43
21 46 42
21 46 42
21 47 43
21 46 42
21 46 42
20 45 41
21 46 42
21 47 43
21 46 42
21 46 42
21 47 43
21 47 43
21 46 42
21 47 43
21 46 42
22 48 44
21 47 43
21 45 41
21 47 43
21 46 42
21 47 43
21 46 42
21 46 42
21 46 42
22 47 43
21 47 43
20 45 41
22 48 44
21 47 43
22 47 43
21 47 43
21 47 43
21 47 43
21 46 42
22 47 43
22 48 44
22 48 43
21 47 43
21 47 43
21 47 42
22 48 44
22 48 43
21 47 42
22 48 43
22 48 44
22 48 43
22 48 44
22 48 43
21 47 43
21 47 42
21 47 43
23 49 45
22 48 43
22 47 43
22 48 44
22 48 44
21 47 43
22 47 43
22 48 43
21 47 43
23 49 45
21 47 43
23 49 45
21 47 43
22 47 43
22 47 43
22 49 44
22 47 43
22 49 44
23 50 45
22 49 44
22 49 44
22 49 44
22 48 43
22 49 44
22 48 44
22 49 45
22 48 44
21 47 43
23 49 45
22 47 43
22 48 43
22 48 43
21 46 42
18 40 37
15 34 32
13 31 30
12 28 27
11 25 24
8 19 18
9 20 20
21 45 42
20 44 40
20 44 41
20 45 42
20 45 41
20 45 41
20 45 41
20 45 41
21 46 42
20 45 41
20 45 41
20 45 41
21 46 42
21 45 42
21 46 42
21 47 43
20 45 41
20 45 41
20 45 41
20 45 41
21 46 42
20 45 41
21 47 43
20 45 42
21 46 42
21 46 42
21 46 42
21 46 42
21 46 42
21 47 43
20 45 41
21 46 42
21 46 42
21 46 42
21 47 43
21 47 43
21 48 43
21 46 42
21 46 42
21 45 41
20 45 41
21 47 43
21 47 43
21 46 42
21 46 42
21 47 42
21 47 43
21 47 43
21 46 42
21 46 42
21 47 43
21 46 42
22 48 44
22 48 43
21 47 43
21 46 42
22 48 44
21 47 43
21 46 42
21 47 43
21 47 43
21 47 43
21 46 42
22 48 44
21 46 41
21 47 43
22 48 43
22 48 43
21 47 43
22 48 44
21 46 42
21 47 43
22 49 44
21 47 43
22 48 43
21 47 43
21 47 43
21 46 42
21 46 42
22 48 43
22 48 44
22 49 45
22 48 44
21 47 43
22 48 44
21 47 43
22 49 45
22 49 44
21 47 43
22 47 43
22 49 44
22 47 43
23 50 45
22 47 43
21 47 43
22 48 43
22 47 43
22 48 44
22 48 43
22 48 43
22 48 44
22 48 44
22 49 44
21 47 43
22 47 43
22 48 43
22 48 43
22 48 43
22 48 43
22 48 44
22 49 44
22 48 44
22 48 43
21 47 43
20 45 40
20 44 40
18 40 37
18 39 36
17 39 36
18 40 36
20 45 42
20 45 41
21 46 42
20 45 41
20 45 41
20 45 41
20 44 40
20 45 41
21 46 42
20 45 41
20 45 41
21 46 42
21 47 43
21 47 43
21 46 42
20 45 41
20 45 41
21 46 42
20 45 41
21 46 42
20 45 41
21 46 42
20 45 41
21 46 42
20 45 41
21 46 42
20 45 41
21 47 43
20 45 41
21 46 42
20 45 41
21 46 42
21 46 42
20 45 41
21 46 42
21 46 42
21 47 43
21 46 42
20 45 41
21 47 43
21 47 43
21 46 42
20 45 41
21 47 43
21 46 42
21 47 43
20 45 41
21 46 42
21 47 42
21 46 42
21 47 42
21 47 43
21 47 43
21 46 42
21 47 43
21 47 43
21 47 43
21 47 43
21 46 42
21 46 42
21 47 43
21 47 43
21 47 43
21 47 43
21 47 43
21 47 43
21 47 43
21 47 43
21 47 43
21 46 42
22 48 44
21 46 42
22 47 43
22 48 43
21 47 43
21 47 43
22 47 43
22 48 43
21 47 43
22 48 43
21 47 43
21 47 42
22 48 43
22 49 44
22 47 43
22 48 43
22 47 43
21 47 43
22 48 43
22 48 43
22 48 44
21 47 43
22 48 44
22 48 43
22 48 43
22 49 44
21 47 42
22 48 44
22 49 44
22 49 44
21 47 43
22 49 45
22 47 43
21 47 43
22 47 43
22 49 45
22 48 44
22 49 44
22 48 43
22 47 43
22 49 44
23 49 45
22 48 44
22 48 43
22 48 43
21 47 43
22 48 44
22 48 44
23 49 44
21 47 42
20 45 42
21 46 42
21 45 42
20 45 41
20 45 41
20 44 40
20 45 41
21 46 43
20 45 41
21 46 42
20 45 41
20 45 42
21 47 43
20 45 41
21 47 43
20 45 41
20 45 41
21 46 42
20 45 41
21 45 41
20 46 42
21 46 42
21 46 43
21 46 42
20 44 40
20 45 41
21 46 42
20 45 41
21 45 42
20 45 41
21 46 42
20 45 41
21 46 42
20 45 41
21 46 42
21 46 42
21 46 42
20 45 41
21 47 43
21 46 42
21 47 43
21 46 42
21 46 42
21 46 42
21 46 42
21 47 43
20 45 41
21 46 42
21 45 41
21 46 42
21 46 42
21 46 42
21 46 42
22 47 43
21 45 41
22 48 44
21 46 42
21 46 42
21 46 42
21 46 42
22 48 44
21 46 42
21 46 42
21 46 42
22 48 43
21 47 43
21 46 42
21 47 43
21 45 41
21 47 43
21 47 43
21 46 42
21 47 43
21 47 43
21 46 42
22 48 44
22 48 43
21 47 43
21 47 43
21 47 43
21 47 43
21 47 43
21 46 42
22 48 44
22 48 43
22 48 44
21 47 43
21 46 42
21 47 43
22 48 43
22 48 43
22 47 43
22 47 43
21 47 42
22 48 43
22 47 43
22 48 44
22 47 43
22 48 44
22 48 43
22 48 44
22 48 43
22 48 44
22 47 43
22 49 45
22 48 43
22 48 44
21 47 43
22 48 44
22 48 44
22 49 45
22 49 45
22 48 44
22 48 44
22 47 43
22 48 44
21 47 43
22 48 44
22 48 43
23 49 45
20 45 41
21 46 42
20 45 41
20 44 40
20 45 42
21 46 42
20 45 42
20 45 41
20 45 42
20 45 41
20 45 41
20 45 41
20 45 41
20 45 41
21 46 42
20 45 41
21 45 42
21 46 42
20 45 41
20 45 41
21 46 42
20 45 41
20 45 41
21 46 42
20 44 41
21 46 42
20 45 41
21 47 42
21 46 42
21 45 42
20 45 41
20 45 41
21 47 42
21 46 42
21 46 42
21 46 42
21 46 42
21 46 42
21 46 42
21 46 42
21 47 43
21 46 42
21 46 42
21 45 41
21 46 42
21 47 42
21 45 42
21 47 43
22 48 44
21 47 43
21 47 43
21 46 42
21 47 42
21 46 42
21 46 42
21 46 42
21 47 43
21 46 42
21 46 42
21 47 43
21 46 42
21 46 42
21 47 43
21 47 43
21 47 43
21 47 43
22 48 43
22 47 43
22 48 44
22 48 43
21 47 42
21 47 43
21 47 43
21 47 43
22 48 44
22 48 44
21 47 43
22 47 43
21 47 42
21 47 42
22 48 43
21 47 43
22 48 43
21 47 43
21 46 42
22 48 44
22 48 43
21 47 43
21 47 43
21 47 43
21 47 43
22 48 43
22 49 44
22 48 44
21 47 43
22 48 44
21 46 42
22 47 43
22 48 44
22 48 44
22 48 44
22 47 43
22 48 44
21 47 43
22 49 44
22 48 43
21 47 43
23 49 45
22 48 44
22 48 44
22 48 44
22 49 44
21 47 43
21 47 42
22 49 44
21 47 42
22 48 43
22 48 43
22 48 43
22 49 44
20 45 42
21 46 42
20 44 41
20 44 40
20 44 40
20 44 41
21 46 42
20 45 41
20 45 42
20 45 41
20 44 41
20 45 41
20 45 41
21 46 42
21 46 42
21 46 42
20 45 41
21 46 42
20 45 41
21 47 43
21 46 42
20 45 41
21 46 42
20 44 40
21 46 42
21 46 42
21 46 42
21 46 42
20 45 41
21 46 42
21 45 42
21 45 42
21 46 42
21 46 42
21 46 42
21 46 42
21 47 43
21 46 42
20 45 42
21 46 42
21 46 42
21 47 43
21 46 42
22 48 44
21 46 42
21 46 42
21 46 42
20 45 41
21 47 43
21 47 43
21 46 42
21 46 42
21 47 43
21 45 41
22 48 43
21 46 42
22 48 44
21 47 43
21 47 43
21 47 43
21 46 42
22 48 44
21 47 43
22 48 43
21 46 42
22 48 43
21 46 42
21 47 43
21 47 42
21 47 43
21 47 43
22 48 44
22 48 43
22 48 44
21 47 43
22 48 43
21 45 41
21 47 43
21 46 42
22 48 43
22 48 44
22 47 43
21 47 43
22 48 44
21 46 42
22 47 43
22 48 44
21 46 42
22 48 44
21 47 43
22 49 45
21 47 43
21 47 43
21 47 43
22 48 44
21 47 43
22 48 43
22 48 44
21 47 43
22 47 43
22 48 43
22 48 44
22 48 43
22 49 44
21 46 42
22 49 44
22 49 44
22 47 43
22 47 43
22 48 43
21 47 43
22 48 43
22 48 44
22 47 43
22 48 43
22 48 44
22 47 43
22 49 45
22 48 43
23 50 45
20 45 41
20 45 41
20 45 41
21 46 42
20 45 41
20 45 41
21 46 42
21 46 42
21 46 42
20 45 41
20 45 41
20 45 41
20 45 41
20 45 42
21 47 43
20 45 41
20 45 41
21 46 42
21 46 42
20 45 41
20 45 41
21 45 42
21 46 42
21 47 43
21 46 42
21 46 42
20 44 41
21 46 42
20 45 41
21 46 42
21 47 43
21 46 42
21 46 42
21 46 42
21 46 42
21 46 42
21 46 42
21 46 42
20 45 41
20 45 41
21 46 42
21 46 42
21 46 42
21 46 43
21 46 42
21 46 42
21 46 42
21 45 41
21 47 43
21 46 42
22 48 44
21 47 43
21 47 43
21 46 42
21 46 42
21 47 42
21 46 42
21 46 42
21 46 42
21 46 42
21 45 41
21 46 42
21 47 43
21 47 43
22 48 44
21 47 43
21 47 43
21 46 42
21 47 43
21 47 43
22 48 44
22 48 44
21 47 43
22 49 44
22 48 43
20 45 41
21 47 42
22 48 43
21 46 42
21 47 43
21 47 42
21 47 43
21 47 43
21 47 43
21 47 43
21 47 43
22 47 43
21 46 42
22 48 44
21 47 43
22 48 44
22 48 44
22 49 44
21 47 43
22 47 43
21 47 43
22 48 43
22 47 43
22 47 43
21 47 43
21 47 42
22 47 43
22 48 43
22 47 43
22 49 44
22 48 44
22 49 44
21 47 43
22 48 44
22 48 43
21 47 42
22 49 44
22 48 44
22 49 44
22 48 44
22 49 44
22 47 43
22 48 43
22 48 43
22 48 44
21 47 43
20 45 42
20 45 42
20 45 41
20 45 41
20 45 41
20 45 41
20 45 41
20 45 42
20 45 42
20 45 42
20 45 41
20 45 41
20 45 42
21 45 42
20 44 41
20 45 41
20 45 41
21 46 43
20 45 41
20 45 41
20 45 41
20 45 41
20 44 40
20 45 41
20 45 42
20 45 41
21 46 42
20 44 41
20 45 41
20 45 41
20 45 42
21 45 42
20 45 42
20 45 41
20 45 41
20 45 41
21 47 43
21 46 42
20 45 41
20 45 41
21 46 42
21 46 42
21 46 42
21 46 42
21 46 42
21 46 42
21 46 42
21 47 43
20 45 41
21 47 43
21 46 42
21 46 42
21 47 43
22 48 43
21 46 42
21 47 43
22 48 44
22 48 43
21 45 41
21 47 43
21 47 43
22 48 44
21 47 42
21 47 43
21 46 42
21 47 43
21 47 43
21 47 43
22 47 43
22 48 44
21 46 42
21 46 42
21 47 43
22 47 43
21 47 43
21 46 42
21 47 42
21 47 43
21 47 43
21 47 42
21 47 43
22 48 44
21 46 42
21 47 43
21 46 42
21 46 42
22 48 44
21 47 43
21 46 42
21 46 42
21 47 43
22 48 44
22 48 44
22 49 44
21 47 43
22 48 43
22 48 43
22 48 44
21 47 42
22 49 44
21 47 43
22 49 44
22 49 44
21 47 42
22 49 44
21 47 43
22 48 44
22 48 44
22 48 43
22 48 43
21 47 42
22 48 43
22 49 44
22 49 45
22 48 44
21 47 43
22 48 44
22 48 44
22 49 44
20 44 41
19 43 40
20 45 41
20 44 41
21 46 42
20 44 41
20 45 41
20 45 41
21 46 42
20 45 42
20 44 40
21 46 42
20 45 41
21 46 42
20 44 41
20 45 41
21 46 42
21 46 42
21 46 42
21 46 42
21 46 42
21 46 42
20 45 41
20 45 41
20 45 41
21 47 43
21 47 43
21 46 42
21 46 43
21 46 42
20 45 42
20 45 41
21 46 42
21 46 43
21 47 43
20 45 41
21 46 42
21 47 43
21 46 42
21 46 43
21 47 43
21 46 42
21 46 42
20 45 41
20 45 41
21 46 42
21 46 42
21 47 43
20 45 42
21 46 42
21 47 43
21 47 43
21 47 43
21 46 42
21 47 43
21 47 43
21 47 43
21 46 42
21 46 42
21 46 42
21 46 42
21 46 42
21 46 42
21 47 43
21 47 43
21 47 43
21 46 42
21 47 43
21 47 43
21 46 42
22 48 44
22 47 43
22 48 43
21 46 42
21 47 43
22 47 43
21 47 43
21 47 42
22 48 44
22 48 43
22 48 44
22 48 44
21 46 42
21 47 43
22 48 44
21 47 42
21 47 43
21 46 42
21 47 43
21 46 42
22 48 43
22 48 43
21 47 43
22 48 44
21 47 43
22 47 43
22 48 43
22 48 44
22 47 43
22 48 43
22 47 43
21 47 43
22 48 44
22 48 44
22 47 43
22 48 44
21 47 43
22 47 43
22 48 43
22 48 44
22 48 44
22 48 43
22 48 44
21 47 42
22 48 44
22 48 44
22 48 44
22 48 44
22 48 44
21 47 42
21 46 43
20 44 40
20 45 41
20 45 41
20 44 41
20 45 41
20 44 40
20 44 41
20 45 42
21 46 42
20 44 41
20 45 42
21 46 43
20 45 41
20 45 41
20 45 41
21 46 42
21 46 42
21 46 42
20 45 41
20 45 41
20 45 41
21 46 42
21 46 42
21 46 42
20 45 41
20 45 41
21 46 42
20 45 41
20 44 41
20 45 42
20 45 41
21 46 42
21 46 42
21 46 42
21 46 42
21 45 42
21 46 42
21 46 42
21 45 42
20 45 42
21 46 42
21 47 43
21 46 42
21 46 42
21 46 42
20 45 41
20 45 41
20 44 40
20 45 41
21 45 42
21 47 43
21 46 42
21 46 42
21 46 41
21 47 43
20 45 41
20 45 41
21 47 43
21 47 43
21 46 42
21 47 43
20 45 41
21 47 42
21 47 43
21 46 42
21 46 42
21 46 42
21 47 43
21 47 43
21 47 43
21 46 42
21 46 42
21 46 42
21 47 43
21 47 43
21 46 42
21 46 42
21 46 42
21 47 43
21 47 43
21 46 41
21 47 43
21 47 42
21 47 43
22 47 43
21 47 43
22 48 43
21 47 43
21 46 42
21 47 43
22 47 43
22 48 43
21 47 43
22 49 44
21 47 43
22 48 44
22 48 43
22 47 43
21 47 42
21 47 43
22 47 43
22 48 44
22 48 44
22 48 44
22 48 44
21 47 43
22 49 44
21 47 43
21 47 43
22 48 44
22 48 44
22 49 44
21 47 43
22 48 44
21 47 43
22 49 44
21 47 43
22 48 44
22 48 43
20 45 41
20 43 40
20 45 41
20 44 41
20 44 41
20 44 41
21 46 42
20 44 40
20 45 41
20 45 41
21 46 42
21 46 43
20 45 41
21 46 42
21 46 42
20 45 41
20 45 41
20 45 41
20 45 42
20 45 41
20 45 41
21 46 42
20 45 41
21 46 42
20 45 41
20 44 41
20 44 41
20 45 41
21 45 42
21 45 42
21 46 42
21 46 42
20 45 41
21 46 42
21 46 42
20 45 41
21 47 43
21 45 42
21 46 42
21 46 42
21 46 43
20 45 41
21 46 42
21 47 43
21 46 42
20 45 41
21 47 43
21 47 43
21 46 42
21 46 42
21 46 42
22 48 44
21 46 42
20 45 41
21 47 43
20 45 41
21 47 43
21 47 43
21 46 42
21 47 43
21 46 42
21 47 43
21 46 42
21 47 43
21 47 43
21 47 43
21 47 43
21 46 42
20 45 41
21 47 43
21 46 42
21 46 42
21 47 43
22 48 44
21 46 42
22 48 44
22 48 44
22 48 43
21 47 43
21 46 42
21 47 43
21 47 43
21 46 42
22 48 43
21 47 43
21 46 42
21 47 42
21 47 43
21 47 42
21 47 42
21 47 43
21 47 42
21 47 43
22 48 44
22 47 43
21 47 43
22 48 44
22 48 44
21 46 42
21 47 42
22 48 43
22 48 44
21 46 42
21 47 43
21 47 43
21 46 42
22 48 43
21 47 43
21 47 43
22 49 44
22 48 43
22 48 43
21 46 42
22 48 43
22 48 44
21 47 43
21 47 43
21 46 42
21 47 43
22 47 43
20 44 40
20 45 41
21 46 42
20 45 41
20 44 41
21 46 42
20 45 41
21 46 42
20 45 41
20 45 41
20 44 40
20 45 41
20 44 41
20 44 40
21 46 42
21 46 42
20 45 41
20 44 40
20 45 42
20 45 41
20 45 41
20 45 41
21 46 42
20 44 41
20 45 41
20 45 41
21 46 42
20 44 40
20 45 41
21 46 42
21 47 43
21 46 42
21 46 42
21 46 42
21 46 42
20 45 41
21 46 42
21 46 42
21 46 42
21 46 42
21 46 42
21 45 42
21 46 42
21 45 42
21 45 42
21 46 42
21 47 43
21 47 43
20 45 41
21 47 43
20 45 41
21 47 43
20 45 41
21 47 43
21 46 42
21 47 43
20 45 41
21 46 42
21 46 42
21 46 42
21 46 42
20 45 41
21 47 43
21 46 42
21 46 42
21 47 43
21 46 42
21 47 43
21 47 43
21 47 43
22 48 44
21 46 42
21 47 43
21 46 42
22 48 44
22 48 43
21 46 42
21 47 43
21 47 43
21 46 42
21 46 42
21 47 43
22 48 43
22 48 43
22 47 43
21 47 43
21 46 42
21 47 43
21 46 42
21 46 42
21 46 42
21 47 43
22 47 43
21 46 42
22 48 44
21 47 43
21 47 43
21 46 42
21 47 43
21 47 43
21 46 42
21 47 43
22 48 44
21 47 43
22 47 43
21 46 42
21 47 43
21 47 43
21 47 43
22 49 44
22 48 43
22 48 43
21 47 43
21 47 42
22 47 43
22 48 44
21 47 43
21 47 43
22 49 45
22 49 44
20 44 40
20 44 41
20 45 42
20 45 41
20 45 41
21 46 43
20 45 41
20 44 40
20 45 41
20 45 41
21 46 42
21 46 42
20 44 41
21 47 43
21 47 43
20 44 41
21 47 43
20 45 41
20 45 42
21 46 42
20 45 41
20 45 41
20 44 41
21 46 42
20 45 41
20 44 40
20 44 41
21 46 42
21 47 43
21 46 42
21 46 42
21 46 42
20 45 41
21 46 42
20 45 41
20 45 41
21 46 42
20 45 41
21 46 42
22 48 44
21 46 42
21 47 43
21 46 42
20 45 41
20 45 41
21 47 43
20 45 41
20 45 41
21 47 43
21 47 43
21 46 42
21 47 43
21 46 42
21 46 42
21 46 42
20 45 41
21 46 42
21 47 43
21 47 43
21 46 42
21 46 42
21 46 42
21 47 42
21 47 42
21 47 43
21 46 42
21 47 43
21 46 42
21 47 43
21 47 43
21 46 42
21 47 42
21 47 43
21 47 43
21 47 43
21 47 43
21 47 43
21 47 43
20 45 41
21 46 42
21 46 42
21 47 43
21 46 42
21 46 42
21 47 43
21 47 43
22 49 44
21 47 43
21 47 42
21 47 43
22 48 43
22 48 43
21 47 43
22 48 44
21 47 42
21 47 43
21 47 43
21 47 43
21 47 43
21 46 42
21 47 43
22 48 44
21 47 43
22 47 43
21 47 43
21 47 42
21 47 42
22 47 43
22 48 43
22 48 44
21 47 43
22 47 43
22 48 44
22 48 43
22 49 44
21 47 43
21 47 43
22 49 45
22 48 44
21 47 42
20 44 41
20 45 41
21 46 42
20 44 41
20 45 41
21 46 42
20 45 41
20 44 41
20 44 40
20 45 41
20 45 41
20 45 41
20 44 40
21 46 42
20 45 41
20 44 41
20 45 41
21 46 42
21 46 42
20 45 41
21 46 42
21 46 42
21 46 42
20 44 40
21 46 42
20 45 41
21 46 42
20 44 40
20 44 41
21 46 42
20 45 41
21 46 42
21 46 42
21 46 42
21 46 42
21 46 43
21 46 42
20 45 41
21 47 43
20 44 41
21 46 42
21 47 43
21 46 42
20 45 41
21 47 43
21 46 42
20 45 41
21 46 42
21 46 42
21 46 42
20 45 41
21 47 43
21 46 42
21 46 42
20 45 41
21 46 42
21 47 43
22 48 44
21 46 42
21 46 42
21 46 42
21 47 43
21 47 43
21 46 42
21 46 42
22 48 44
21 46 42
21 46 42
21 46 42
21 47 43
21 46 42
21 47 43
21 46 42
21 46 42
21 46 42
21 46 42
21 47 43
21 46 42
21 47 43
21 47 43
21 47 43
22 47 43
21 46 42
22 48 44
21 47 43
21 46 42
21 46 42
21 47 43
21 46 42
22 49 45
22 48 44
21 47 43
21 46 42
21 46 42
21 47 43
21 47 43
22 48 43
21 47 43
21 46 42
21 47 43
22 48 44
22 48 43
21 47 43
22 48 44
21 47 43
21 46 42
22 48 44
21 46 42
21 46 42
21 46 42
21 47 42
22 48 43
21 47 43
21 46 42
21 46 42
22 48 43
21 47 43
22 49 44
22 48 43
21 47 43
21 46 42
20 45 41
20 44 40
20 44 41
20 45 42
20 44 40
20 45 41
20 45 41
19 43 40
21 46 42
20 45 41
20 45 41
21 46 42
20 45 41
20 45 41
20 45 41
20 45 42
20 45 41
20 45 41
21 46 43
20 45 42
20 45 41
20 44 40
20 45 41
21 46 42
21 46 42
21 47 43
20 45 41
20 45 41
20 45 41
20 45 42
20 45 41
21 46 42
20 45 42
20 45 42
20 45 41
20 45 42
21 46 42
21 46 42
21 46 42
21 46 42
20 45 41
21 47 43
21 47 43
21 46 43
21 46 42
21 46 42
21 47 43
21 46 42
20 45 41
21 46 42
20 45 41
21 47 43
21 47 43
20 45 41
21 46 42
21 46 42
21 47 43
21 46 42
21 46 42
21 46 42
20 45 41
21 45 41
21 46 42
21 46 42
20 45 41
21 46 42
20 45 41
20 45 41
21 46 42
21 47 43
21 46 42
21 46 42
21 47 43
21 46 42
21 47 43
21 47 43
21 46 42
21 47 42
21 47 43
21 47 43
21 46 42
21 46 42
22 48 44
21 46 42
21 47 43
21 46 42
22 48 44
22 48 43
21 46 42
22 47 43
21 46 42
21 47 43
21 46 42
21 47 43
21 47 43
21 46 42
21 46 42
21 45 41
21 46 42
21 47 42
22 47 43
22 48 44
22 48 44
21 47 43
21 47 43
21 46 42
21 46 42
21 47 43
21 46 42
21 46 42
21 47 43
21 46 42
22 47 43
21 47 43
21 47 43
21 47 43
22 48 44
22 48 43
22 48 43
20 44 40
20 45 41
20 44 41
21 46 42
20 45 42
20 45 42
20 45 41
20 44 40
20 44 40
20 45 41
20 45 41
20 44 40
21 46 43
20 44 40
20 44 41
21 46 42
20 45 41
20 45 41
21 46 42
20 44 40
20 45 41
20 45 41
20 45 41
21 46 42
20 45 41
20 45 42
21 46 42
21 45 42
21 45 42
20 44 40
20 45 41
20 44 41
20 44 40
20 45 41
21 46 42
21 46 42
21 46 42
21 46 42
21 46 42
20 45 41
20 45 41
21 46 42
21 45 42
21 46 42
20 45 41
21 47 43
21 46 42
21 47 43
21 47 43
21 46 42
21 46 42
20 45 41
21 46 42
20 44 41
21 47 43
20 45 41
21 46 42
21 46 42
21 47 43
21 47 43
21 46 42
21 46 42
20 45 41
20 45 41
21 46 42
21 46 42
20 45 41
21 46 42
21 46 42
21 46 42
20 44 41
21 46 42
21 47 43
21 47 43
21 46 42
21 47 43
21 46 42
21 47 43
21 46 42
21 47 43
20 45 41
21 46 42
21 46 42
21 46 42
21 46 42
21 46 42
22 48 44
21 46 42
21 47 43
21 46 42
20 45 41
21 47 43
21 47 43
22 48 43
21 47 43
21 46 42
21 47 43
21 47 43
21 47 42
21 47 42
21 46 42
21 47 43
21 45 41
21 47 43
21 46 42
22 47 43
21 47 43
21 46 42
21 47 43
21 47 43
21 47 43
21 46 42
21 47 43
21 46 42
21 47 43
22 47 43
22 48 44
21 47 42
21 47 43
21 47 43
21 46 42
20 44 40
20 45 42
20 45 41
21 46 42
20 45 41
20 45 41
20 44 41
20 44 41
20 45 41
20 45 41
21 46 42
20 45 41
21 46 42
20 44 41
20 44 40
20 45 41
21 46 42
20 43 40
20 45 41
21 46 42
21 46 42
21 46 42
20 45 42
20 45 41
20 45 41
20 45 41
21 45 41
21 46 42
21 46 42
20 45 41
21 46 42
20 44 41
21 46 42
20 45 41
20 45 41
21 46 42
21 46 42
20 45 41
21 46 42
21 46 42
20 45 41
20 44 41
21 46 42
21 47 43
21 46 42
21 46 42
21 47 43
20 45 41
20 45 41
21 46 42
20 45 41
21 46 42
21 46 42
21 46 42
21 47 43
21 46 42
21 46 42
21 47 43
20 45 41
21 46 42
21 46 42
20 45 41
21 47 43
21 46 42
21 46 42
21 46 42
20 45 41
21 46 42
20 45 41
21 46 42
21 47 43
21 46 42
21 46 42
21 46 42
21 46 42
21 46 42
21 46 42
21 46 42
21 47 42
21 46 42
21 47 43
21 47 43
21 46 42
21 46 42
21 47 43
21 46 42
21 47 43
22 48 43
21 47 43
21 46 42
21 47 43
21 47 43
22 47 43
20 45 41
22 48 44
21 46 42
21 47 42
22 48 44
21 47 43
21 47 43
21 47 43
22 47 43
21 47 43
22 48 43
21 47 43
21 47 42
21 47 43
22 48 44
21 47 43
21 47 43
21 47 43
21 47 43
22 48 44
21 46 42
21 47 43
21 47 43
21 46 42
21 47 43
22 47 43
20 45 42
20 44 41
20 45 41
20 45 41
20 45 41
21 46 43
20 45 42
20 45 41
20 44 41
20 45 42
20 44 41
20 44 41
21 45 42
20 45 41
21 46 42
20 45 41
21 46 42
21 46 42
20 45 41
20 44 41
20 44 41
20 45 41
20 44 40
20 45 41
21 47 43
21 47 43
20 45 41
20 45 42
21 46 42
20 45 41
20 45 41
21 46 42
20 45 41
20 45 41
20 45 41
21 46 42
20 44 41
21 46 42
21 46 42
20 45 41
21 46 42
21 46 42
22 48 44
20 45 41
21 46 42
20 45 41
21 46 42
21 46 42
20 45 41
20 45 42
20 45 41
21 46 42
21 47 43
21 46 42
21 46 42
21 46 42
21 46 42
21 46 42
21 46 42
21 47 43
21 46 42
21 45 41
21 46 42
21 47 43
21 46 42
21 46 42
21 47 43
22 48 43
21 47 43
21 46 42
21 45 42
21 47 43
21 46 42
21 46 42
20 45 41
21 46 42
21 46 43
21 46 42
21 46 42
21 46 42
21 46 42
21 47 43
21 46 42
21 46 42
21 46 42
21 46 42
21 46 42
21 47 43
21 46 42
21 47 43
21 47 43
20 45 41
21 46 42
21 46 42
22 48 43
21 46 42
21 47 43
21 47 43
22 47 43
21 47 43
22 47 43
21 45 41
21 47 42
21 46 42
21 46 42
21 47 43
22 48 44
21 46 42
21 46 42
21 46 42
21 46 42
21 47 43
21 47 43
21 47 43
22 49 44
22 47 43
21 46 42
22 48 44
22 47 43
22 48 44
20 45 42
20 45 41
21 46 42
20 45 42
20 45 41
20 45 42
20 44 40
20 44 41
21 47 44
20 44 41
21 46 42
20 45 41
20 45 41
20 44 40
20 45 42
20 44 40
20 45 41
20 45 42
21 46 43
20 45 41
20 44 40
20 45 41
21 47 43
21 46 42
20 45 42
20 45 41
20 45 41
21 46 42
20 45 41
20 45 41
20 45 41
20 44 41
20 45 41
21 46 42
21 46 42
20 45 41
20 45 42
21 46 42
21 46 42
21 46 42
20 45 41
21 46 43
20 45 41
20 44 41
20 45 41
21 46 42
21 46 42
21 45 42
21 46 42
20 45 41
21 47 43
20 45 42
21 47 43
21 46 42
20 45 42
21 47 43
21 47 43
21 47 43
20 45 41
21 46 42
22 48 43
21 47 43
22 48 44
21 46 42
21 46 42
20 45 41
21 46 42
21 46 42
21 46 42
21 47 43
21 46 42
21 47 43
20 45 41
21 46 42
21 46 42
22 48 44
21 45 42
21 46 42
21 46 42
21 45 41
21 46 42
21 47 43
21 46 42
21 47 43
21 46 42
21 46 42
21 46 42
21 46 42
21 46 42
21 47 43
21 47 42
21 46 42
21 47 43
22 48 43
21 47 43
21 46 42
20 45 41
21 47 43
21 47 43
21 47 43
21 46 42
22 47 43
21 47 43
21 47 42
21 46 42
21 45 41
21 47 42
22 48 44
21 47 43
22 49 45
21 46 42
21 47 42
21 47 43
21 46 42
21 46 42
21 46 42
22 47 43
22 48 44
22 48 44
21 46 42
20 44 41
20 44 41
21 46 42
20 45 42
20 45 42
20 45 41
20 45 41
20 44 40
19 43 40
20 46 42
21 46 42
21 46 43
20 45 41
21 46 42
20 44 40
20 44 40
20 44 41
20 45 41
20 44 40
21 46 42
20 45 41
20 45 41
20 44 41
20 45 41
21 46 42
20 45 41
20 45 41
21 46 42
21 46 42
21 47 43
20 44 40
20 45 41
21 46 42
21 46 42
21 46 42
20 45 42
21 46 42
21 46 43
21 46 42
20 45 42
21 46 42
21 46 42
21 46 42
21 46 42
21 46 42
21 47 43
21 46 42
21 46 42
22 48 44
20 45 42
21 46 42
20 45 41
20 45 42
20 44 41
21 46 42
20 45 42
21 45 42
20 45 41
21 46 42
20 45 41
21 47 43
21 46 42
21 47 43
22 48 44
20 45 42
21 46 42
21 46 42
21 46 42
21 46 42
21 46 42
21 46 42
21 47 43
21 46 42
21 47 43
21 46 42
21 46 42
21 46 42
20 45 41
21 46 42
20 44 40
21 46 42
20 45 41
21 46 42
21 47 43
22 48 44
22 48 44
21 46 42
21 46 42
22 47 43
21 46 42
21 47 43
21 46 42
22 49 44
21 47 43
21 46 42
21 46 42
21 47 43
21 47 43
21 46 42
21 46 42
21 47 43
21 46 42
21 45 41
21 45 41
21 47 42
22 48 44
21 47 43
22 48 44
21 46 42
21 46 42
22 48 44
22 47 43
22 47 43
22 47 43
22 47 43
21 46 42
21 47 42
22 47 43
22 47 43
22 48 43
20 44 40
20 45 41
20 45 42
20 45 41
20 44 41
20 45 41
20 44 40
20 44 41
20 45 41
20 44 41
20 44 41
20 45 42
20 45 41
21 46 42
20 45 42
20 45 42
21 46 42
20 44 41
20 45 41
20 45 41
20 44 41
21 46 42
20 45 41
20 45 41
20 45 41
20 45 41
20 44 41
20 45 41
20 44 41
20 44 41
20 45 42
21 46 42
20 45 41
20 44 41
20 45 41
20 45 41
20 45 41
20 45 41
20 44 41
21 47 43
21 46 42
20 45 41
20 45 41
21 45 42
21 46 42
21 46 42
21 46 42
21 46 42
21 45 42
20 45 41
20 45 41
20 45 41
21 46 42
21 46 42
21 46 42
20 45 41
21 47 43
21 45 41
20 45 42
21 46 42
20 45 41
20 45 41
20 45 41
21 46 42
21 46 42
21 46 42
21 47 43
21 46 42
21 46 42
22 48 44
21 46 42
21 47 43
20 45 41
21 46 42
21 46 42
21 46 42
21 46 42
21 47 43
21 46 42
21 46 42
21 47 43
21 45 41
21 47 42
21 47 43
20 45 42
21 46 42
21 47 43
21 47 43
21 47 43
21 46 42
21 46 42
21 45 41
21 47 43
21 47 42
21 45 41
21 47 43
21 46 42
21 46 42
21 46 42
22 47 43
21 47 43
21 46 42
21 46 42
21 46 42
21 46 42
21 46 42
21 46 42
21 46 42
22 49 44
22 47 43
21 47 42
21 46 42
21 46 42
21 46 42
22 48 44
22 47 43
22 47 43
22 47 43
21 46 42
21 46 42
21 46 42
20 45 42
21 46 42
20 44 40
20 44 41
20 45 42
20 45 41
21 46 42
20 45 41
20 45 41
20 45 41
20 44 40
20 45 41
20 45 41
20 45 41
21 46 42
20 45 41
20 44 40
20 45 41
20 45 41
20 45 41
20 44 41
20 45 42
20 44 41
20 44 40
20 45 41
20 44 41
20 45 41
20 45 42
21 46 42
21 46 42
20 45 41
20 45 42
20 45 41
20 45 42
21 46 43
21 46 42
22 48 44
21 47 43
20 45 41
20 44 41
21 46 42
20 45 41
21 47 43
21 46 42
20 45 41
21 47 43
21 46 42
20 45 41
20 45 41
21 46 42
20 45 41
21 46 42
20 45 42
20 45 41
21 47 43
21 46 42
21 46 42
20 45 41
21 46 42
21 46 42
21 46 42
22 48 44
20 45 41
21 46 42
21 46 42
21 46 42
20 44 41
21 46 42
20 45 41
21 46 42
21 46 42
21 46 42
21 46 42
20 45 41
21 47 43
21 47 43
21 46 42
20 45 41
21 46 42
22 48 43
21 47 43
20 45 41
21 46 42
21 46 42
20 45 41
21 46 42
20 45 41
22 47 43
21 47 43
21 47 43
21 46 42
21 47 43
21 47 43
21 46 42
21 47 43
21 45 41
21 45 42
21 47 43
21 46 42
21 46 42
22 47 43
21 47 43
22 47 43
21 47 43
21 46 42
22 48 44
22 47 43
22 47 43
22 48 44
22 47 43
21 46 42
22 47 43
22 47 43
21 46 42
22 47 43
22 47 43
22 48 43
22 47 43
22 46 42
20 44 40
20 44 41
20 44 40
20 45 42
20 44 40
21 46 42
20 45 42
20 44 40
21 46 42
20 45 41
20 44 40
20 45 42
20 45 41
20 44 41
20 44 40
20 45 42
20 45 41
21 46 42
21 46 43
21 46 42
20 45 42
20 45 42
20 43 40
20 45 42
20 45 41
20 45 41
20 46 42
20 45 41
20 45 41
20 45 41
20 45 41
21 46 42
20 45 41
21 46 42
21 46 42
21 46 42
20 45 41
20 44 40
20 45 41
21 46 42
21 46 42
20 45 41
20 44 40
20 44 41
21 46 42
21 46 43
20 45 41
21 46 42
21 46 42
20 45 41
21 46 42
21 46 42
20 45 41
21 46 42
21 48 44
20 45 41
20 45 41
21 46 42
20 44 41
20 45 41
21 46 42
21 46 42
21 46 42
21 46 42
20 45 41
20 45 42
20 45 41
20 45 42
21 46 42
21 46 42
21 46 42
20 45 41
21 46 42
21 47 43
21 45 41
21 46 42
21 46 42
20 45 41
20 45 41
20 45 41
21 47 43
22 48 43
21 46 42
21 46 42
22 47 43
21 45 41
20 45 41
20 45 41
20 45 41
21 46 42
22 48 44
21 47 43
21 46 42
21 46 42
21 47 43
22 47 43
21 46 42
21 47 43
21 46 42
21 47 43
21 46 42
21 47 42
21 47 42
21 47 43
22 48 43
21 46 42
22 47 43
22 47 43
23 49 44
22 47 43
22 47 42
22 47 43
22 47 43
22 48 43
22 48 43
22 47 43
22 45 41
23 49 45
22 46 42
23 47 43
20 45 41
20 44 40
20 44 41
20 44 41
20 44 41
20 45 41
21 46 42
20 45 41
20 45 41
20 45 42
21 46 42
20 44 41
20 45 42
20 45 41
20 45 41
21 46 42
21 46 42
20 45 42
20 45 41
20 45 41
20 45 41
20 45 42
20 45 42
20 45 41
21 46 42
20 44 41
20 45 41
20 45 41
20 45 41
21 46 42
20 45 41
21 45 42
20 45 41
20 45 41
21 47 43
21 47 43
20 45 41
19 43 39
20 44 41
21 46 42
20 44 41
20 45 41
20 45 41
20 44 40
20 45 41
21 46 42
21 46 42
21 46 42
20 45 41
20 45 41
20 44 41
21 47 43
20 45 42
20 45 41
20 44 41
21 46 42
21 46 42
21 46 42
21 46 42
21 46 42
21 46 42
20 45 42
20 45 41
20 45 41
21 46 42
21 46 42
21 46 42
21 47 43
21 46 43
21 45 42
21 47 43
21 47 43
21 46 42
21 47 43
21 47 43
21 47 43
21 47 43
21 46 42
21 46 42
20 45 41
21 46 42
21 47 43
21 47 43
21 47 43
21 46 42
21 47 43
21 45 42
21 46 42
21 46 42
21 46 42
21 46 42
21 46 42
21 47 43
22 47 43
21 46 42
21 47 43
21 47 42
21 46 42
21 47 42
22 47 43
21 46 42
21 46 42
21 46 42
22 47 43
22 47 43
21 46 42
22 48 44
22 47 43
22 48 43
22 46 42
22 47 43
22 47 43
22 46 42
23 48 44
22 47 43
23 47 43
23 47 43
23 47 43
22 46 42
23 47 43
20 44 41
19 43 40
20 44 41
20 45 42
20 45 42
20 45 42
20 44 40
21 46 42
20 45 41
20 45 42
20 44 40
20 45 41
20 45 41
20 44 41
20 45 41
20 44 41
20 45 41
20 45 41
21 46 42
20 46 42
19 43 40
20 45 41
20 45 42
21 46 42
20 44 41
20 45 41
20 45 41
20 44 41
19 43 39
20 45 42
20 45 41
20 45 42
21 46 42
20 44 40
20 45 41
20 45 41
21 46 42
20 45 41
20 44 40
20 44 40
20 45 41
20 45 42
21 46 42
21 46 42
21 46 42
21 47 43
20 45 42
20 45 41
20 45 42
21 45 42
20 45 41
21 46 42
20 45 41
20 44 41
21 46 42
21 46 42
21 46 42
21 47 43
20 45 41
21 46 42
20 45 41
21 46 42
21 47 43
21 47 43
21 46 42
21 45 42
20 45 41
20 44 41
21 45 42
21 47 43
21 47 43
20 45 41
21 46 42
20 45 42
21 46 42
20 45 41
20 45 41
21 46 42
20 45 41
21 46 42
20 45 41
21 47 43
21 46 42
21 46 42
22 47 43
21 45 41
21 47 43
21 45 42
21 46 42
21 46 42
21 47 43
21 46 42
21 45 41
21 46 42
21 47 43
21 46 42
21 46 42
21 46 42
21 45 41
22 47 43
21 46 42
21 46 42
21 46 42
22 46 42
22 46 42
22 47 43
22 47 42
22 47 43
23 47 43
22 47 43
22 47 43
23 47 43
23 47 43
23 47 43
23 47 43
23 48 44
23 47 43
23 47 43
23 46 42
24 48 44
20 45 41
20 45 42
20 45 41
20 45 42
20 45 41
20 44 41
20 44 41
20 44 41
20 45 41
21 46 42
20 45 41
20 45 41
20 44 41
20 45 41
20 44 40
21 46 42
20 45 42
20 44 40
20 44 41
20 44 41
20 44 41
20 45 42
20 44 40
20 45 41
21 46 42
20 44 41
20 44 40
21 46 42
21 46 43
20 45 41
20 45 41
20 45 41
20 43 40
21 46 42
20 45 42
20 45 41
21 46 42
20 45 41
20 45 42
20 45 41
21 46 42
21 47 43
20 45 41
20 45 41
20 45 41
20 45 42
20 45 41
20 45 41
20 44 40
20 44 41
21 46 42
20 45 42
20 45 42
20 45 41
21 46 42
21 46 42
20 45 41
21 46 42
21 46 42
20 45 41
21 46 42
21 47 43
21 46 42
21 46 42
21 46 42
22 48 44
21 46 42
21 46 43
20 45 42
20 45 41
21 46 42
21 47 43
21 46 42
20 45 41
21 47 43
21 45 42
21 46 42
21 46 42
20 45 41
21 46 42
21 46 42
21 46 42
21 46 42
21 46 42
20 45 41
21 45 41
21 46 42
21 47 43
21 47 43
21 47 43
22 48 44
21 46 42
21 46 42
21 46 42
22 48 44
21 45 41
20 44 40
22 47 43
22 47 43
22 48 44
22 47 43
21 46 42
22 47 43
22 47 43
22 46 42
22 46 42
22 46 42
22 47 42
23 47 43
22 46 42
23 47 43
23 47 43
23 47 43
24 49 44
24 48 43
24 47 43
24 48 44
24 47 43
24 48 44
24 48 43
20 45 41
20 45 41
20 44 40
20 44 40
20 44 41
20 45 41
20 45 41
20 44 40
20 45 41
20 44 41
20 45 41
20 44 41
21 46 42
20 45 41
20 45 41
19 43 40
20 45 42
20 44 41
20 45 41
20 44 41
20 44 41
21 46 42
21 46 42
20 45 42
21 46 42
20 45 41
20 44 41
20 44 40
20 45 41
20 45 42
20 45 41
20 45 41
20 45 41
20 44 40
21 46 42
20 45 42
21 46 42
21 46 42
20 45 41
20 45 41
20 45 42
21 46 42
21 46 42
20 45 41
21 47 43
21 46 42
21 46 42
20 45 42
20 45 41
21 46 42
21 46 42
20 45 41
21 46 42
20 45 41
20 45 41
20 45 41
20 45 41
20 45 41
21 46 42
21 46 42
21 46 42
20 45 42
21 46 42
20 45 41
21 47 43
20 45 41
20 45 41
20 44 40
20 45 41
20 45 41
20 45 41
21 46 42
21 45 42
20 44 41
20 45 41
21 46 42
21 46 42
21 46 43
20 45 41
21 46 42
20 45 41
21 46 42
21 47 43
21 45 41
21 46 42
21 46 42
21 45 41
21 45 41
21 47 43
21 46 42
21 46 42
21 45 42
22 47 43
22 47 43
22 47 42
22 47 43
21 45 41
22 46 42
22 47 43
22 47 43
22 47 43
22 47 43
22 47 43
23 47 43
23 47 43
22 45 41
22 46 42
23 46 42
23 46 42
23 47 43
24 47 43
24 48 43
23 46 42
24 47 43
24 46 42
25 48 44
25 49 44
25 49 44
25 48 44
25 47 43
19 43 39
20 44 40
20 46 42
20 44 41
20 44 41
20 44 40
20 44 41
20 44 40
21 46 42
20 44 40
20 44 41
20 45 41
20 45 41
20 43 40
21 46 42
20 45 41
20 45 42
20 45 41
20 44 41
21 46 42
20 45 41
21 46 43
20 45 41
21 46 42
21 46 42
21 46 42
20 44 40
20 45 42
21 46 42
21 46 42
20 45 42
21 46 42
21 46 42
20 44 40
21 47 43
20 44 40
20 45 41
20 45 41
20 44 40
20 45 42
21 46 42
20 45 41
20 45 41
20 44 41
20 45 42
21 46 42
20 45 41
20 45 41
20 44 41
21 46 42
20 45 41
20 45 42
20 44 40
20 44 40
20 45 41
21 46 42
20 45 42
20 45 41
21 46 42
20 44 41
21 46 42
20 45 41
21 46 42
20 45 41
21 46 42
21 46 42
20 45 41
21 47 43
20 45 42
20 44 41
20 45 41
20 45 41
20 44 41
20 45 41
20 45 42
20 45 41
20 44 40
20 45 41
21 46 42
21 46 42
20 45 41
21 46 42
20 45 41
21 45 41
21 46 42
21 46 42
21 46 42
21 46 42
21 46 42
21 47 43
21 46 42
21 45 41
21 46 42
21 46 42
22 47 43
22 48 43
22 46 42
22 46 42
22 45 41
22 46 42
23 47 43
23 47 43
22 46 42
23 48 43
23 46 42
23 47 43
24 48 44
23 46 42
24 48 43
25 48 44
25 49 44
25 48 44
25 49 44
25 49 44
25 48 44
26 49 44
25 47 43
26 48 44
26 49 44
26 47 42
20 45 41
21 46 42
20 45 42
19 43 40
20 45 41
20 44 41
21 46 42
20 44 40
20 44 41
20 45 41
21 46 42
20 44 40
20 44 41
20 45 41
20 44 41
19 43 40
20 45 41
19 43 40
20 45 42
20 45 42
20 45 42
20 45 41
20 44 41
20 44 40
20 45 41
20 44 41
19 43 40
20 45 42
20 45 41
20 45 41
20 45 41
20 45 41
21 46 42
20 45 42
20 46 42
20 45 41
21 46 42
20 44 41
20 45 41
20 45 41
20 45 41
21 47 43
20 44 40
20 45 41
21 46 42
20 45 41
21 46 42
20 45 42
20 44 41
21 46 42
20 44 40
20 45 42
20 45 41
20 44 40
20 45 41
20 45 41
21 46 42
20 44 40
21 46 42
21 46 42
20 46 42
21 46 42
21 46 42
20 45 41
21 46 42
20 45 41
20 45 41
20 45 41
20 44 41
21 46 42
20 45 42
21 45 42
21 46 42
21 46 42
21 45 42
21 46 42
21 46 42
21 46 42
21 45 42
20 44 41
21 46 42
21 45 42
21 46 42
20 45 41
21 46 42
21 45 41
22 47 43
21 45 41
22 47 43
21 45 41
21 45 41
22 47 43
21 45 41
22 46 42
22 47 43
23 49 44
22 46 42
22 46 42
23 47 43
23 48 43
23 46 42
23 47 43
23 47 43
23 46 42
24 47 43
24 46 42
24 48 43
24 48 43
24 47 43
25 47 43
25 47 43
25 48 43
26 49 44
26 49 45
27 49 45
27 50 45
27 49 44
27 48 43
28 50 45
28 49 44
20 44 40
21 46 42
20 44 40
20 45 42
20 44 40
20 45 41
20 45 42
20 45 41
20 44 40
20 44 41
20 44 41
20 45 42
20 45 41
20 45 41
19 43 40
20 45 42
20 45 41
20 45 41
20 45 41
20 44 40
21 46 42
21 46 42
20 44 41
20 44 41
20 45 41
20 44 41
20 45 41
20 45 42
20 45 41
20 45 41
20 45 41
21 45 42
20 44 40
20 45 41
21 46 42
20 45 42
20 44 41
20 44 41
20 44 40
20 44 41
21 46 42
20 44 40
20 45 41
21 46 42
20 45 41
20 45 41
21 46 42
21 46 42
20 45 41
20 45 41
20 45 41
20 45 41
20 45 42
20 45 42
20 45 42
20 45 41
21 46 42
20 45 41
20 45 41
21 45 42
20 45 41
21 46 42
21 45 42
21 46 43
21 46 42
21 45 42
21 46 42
20 44 40
21 47 43
21 46 42
21 46 42
21 47 43
20 45 41
21 46 42
21 46 42
20 45 41
21 45 41
20 45 41
20 44 41
21 45 41
20 45 41
21 45 41
21 46 42
21 45 41
21 45 41
21 47 43
20 44 40
22 47 43
21 46 42
21 46 42
22 48 44
22 46 42
22 46 42
22 47 43
22 46 42
23 48 44
22 45 41
23 47 43
23 48 43
24 48 44
23 47 43
24 48 44
24 48 44
24 48 43
25 48 43
25 48 43
25 48 44
26 48 44
26 48 44
26 48 44
26 47 43
26 47 43
27 49 44
27 49 45
28 49 45
27 48 43
28 49 45
28 49 44
29 50 45
29 49 44
20 43 40
20 44 40
19 43 39
20 45 41
20 44 41
20 44 40
20 45 41
20 45 41
20 44 41
20 44 40
20 44 41
20 44 41
21 46 42
20 44 40
20 45 41
20 45 42
20 45 42
20 44 41
20 44 40
20 45 41
20 45 42
20 44 40
20 45 41
20 45 41
20 45 41
20 45 42
20 44 41
20 44 41
20 44 41
20 45 41
20 45 41
20 45 41
20 45 42
21 46 42
20 45 41
21 46 42
20 45 41
21 46 42
21 46 43
21 46 43
20 44 40
20 45 41
20 45 41
20 45 42
20 45 41
20 44 41
20 45 42
21 46 42
20 45 41
20 45 41
20 45 42
21 46 42
20 45 41
21 46 42
21 46 42
20 44 41
21 46 42
20 44 40
20 45 42
21 46 42
21 47 43
20 44 41
21 46 42
21 46 42
20 45 41
21 46 42
20 45 41
21 46 42
21 46 42
20 45 41
21 46 42
21 45 42
20 45 41
20 45 41
20 44 41
21 45 42
21 45 42
20 45 41
21 45 42
20 45 41
21 45 42
21 47 43
22 47 43
21 46 42
21 46 42
21 47 43
22 47 43
21 46 42
21 45 41
21 46 42
21 45 41
22 46 42
22 46 42
23 47 43
22 45 41
23 46 42
23 46 41
23 47 43
23 46 42
24 47 43
24 47 43
25 48 43
25 48 44
25 48 44
25 47 43
26 48 44
26 48 43
27 48 44
27 50 45
27 49 44
28 50 45
28 49 44
29 50 45
29 49 45
29 50 45
30 51 46
30 50 45
31 51 46
31 51 46
31 50 45
20 44 40
20 45 41
20 44 41
20 45 41
20 45 41
21 46 42
21 46 42
20 44 40
20 45 41
20 45 42
20 44 40
20 45 42
20 45 41
20 44 41
20 45 41
20 46 42
20 45 41
20 45 41
20 45 41
21 46 42
20 44 40
20 44 40
21 46 42
20 45 42
20 44 40
21 46 42
20 45 41
21 46 42
20 45 42
20 45 41
20 45 41
20 44 41
21 46 42
20 45 41
20 45 41
20 45 41
21 46 42
20 45 41
20 45 41
20 45 41
20 44 40
20 44 41
20 45 41
20 45 41
20 44 40
21 46 42
21 46 42
21 46 42
20 45 41
20 45 41
20 44 41
20 45 41
20 44 41
20 44 41
21 47 43
20 44 40
20 44 40
21 46 42
20 45 41
20 45 41
20 44 40
20 45 41
20 45 41
21 46 42
21 46 42
21 46 42
20 45 41
20 45 41
20 45 41
21 46 42
20 45 41
20 44 41
21 45 42
20 45 41
21 47 43
21 46 42
20 45 41
21 46 42
20 45 41
22 48 43
21 45 42
21 46 42
22 47 43
21 45 41
21 46 42
23 49 45
22 46 42
21 45 41
22 47 43
22 47 43
22 46 42
22 46 42
22 46 42
23 48 43
23 47 43
24 48 43
24 47 43
24 48 44
24 47 43
25 48 44
24 47 42
25 48 43
25 47 43
26 48 44
26 48 44
26 47 43
27 49 44
28 50 45
28 48 44
29 50 45
29 50 45
30 50 45
30 50 45
31 51 46
31 51 46
31 51 45
32 51 46
32 50 45
33 52 47
33 51 46
20 45 41
20 44 41
20 45 41
19 43 40
20 44 41
20 45 41
20 44 40
20 45 41
20 45 42
19 43 40
20 44 40
20 44 41
20 45 42
20 45 42
20 44 40
20 45 41
20 45 42
20 45 41
20 45 42
21 46 42
20 44 40
20 44 41
21 46 42
20 45 42
20 45 42
20 44 41
21 46 42
20 45 41
20 45 41
20 45 41
20 45 41
20 45 41
21 46 42
20 44 40
21 45 42
20 44 41
20 44 41
21 46 42
21 46 42
20 45 41
20 44 41
20 44 41
21 47 43
20 45 41
20 45 41
20 44 41
20 44 41
20 44 40
20 45 42
21 46 42
19 43 40
20 45 42
20 44 40
20 45 42
20 45 42
21 46 42
21 46 42
20 45 41
21 46 42
20 45 41
20 45 42
20 44 40
21 45 42
20 44 41
20 45 41
21 47 43
20 45 41
20 43 40
21 46 42
21 47 43
21 45 42
21 46 42
21 46 42
21 46 42
21 47 43
20 45 41
21 45 42
21 46 42
21 45 42
21 45 42
21 46 42
21 45 42
21 45 41
21 45 41
22 47 43
21 45 41
22 46 42
22 46 42
22 46 42
22 46 42
22 46 42
23 47 43
23 46 42
23 46 42
24 48 44
25 49 45
24 47 43
24 46 42
25 48 44
26 48 44
26 47 43
26 48 43
27 48 44
27 48 44
28 49 44
28 49 44
29 50 45
29 49 44
30 50 46
31 51 46
31 50 45
31 51 46
32 52 47
32 51 46
33 52 47
33 52 46
34 52 46
34 52 47
35 53 47
35 53 48
20 45 41
19 43 40
20 44 40
20 45 41
20 44 41
20 45 41
20 44 41
20 44 40
20 44 41
20 44 40
20 44 40
20 43 40
20 44 41
20 45 41
20 44 41
20 46 42
20 45 41
20 44 41
20 45 41
20 44 40
20 44 41
20 45 42
20 44 40
20 46 42
20 45 41
20 45 42
20 45 42
20 45 42
20 44 41
20 44 41
20 45 41
21 46 42
20 44 40
20 44 40
20 45 41
20 45 41
21 46 42
21 46 42
20 45 42
21 46 42
20 45 41
21 47 43
20 45 42
21 46 42
21 46 42
21 46 42
20 44 41
21 46 42
20 45 41
20 45 42
20 45 41
20 44 41
21 47 43
21 46 42
20 45 41
20 45 41
21 46 42
20 45 41
20 45 41
21 46 42
20 45 41
20 45 41
20 45 41
20 45 42
21 45 42
20 45 41
21 45 41
21 45 42
20 45 41
20 45 41
21 46 42
21 46 42
21 46 42
21 46 43
20 44 40
20 44 40
20 45 41
21 45 42
21 45 41
21 45 41
21 44 41
22 46 42
22 47 43
22 46 42
22 47 43
22 46 42
22 47 43
22 46 42
22 46 42
23 46 42
23 46 42
23 47 43
24 48 44
24 47 43
24 47 43
24 47 42
26 49 45
25 48 44
26 48 44
27 50 45
27 49 45
28 50 45
28 49 45
29 50 45
30 51 46
29 49 45
30 49 44
31 51 46
32 51 46
32 50 45
33 52 46
33 52 47
34 53 47
34 53 47
35 52 47
35 52 47
36 54 48
37 54 48
37 54 49
37 53 48
19 43 40
20 44 40
20 45 41
20 44 40
20 44 40
20 45 42
20 44 41
20 45 41
20 45 41
20 44 41
20 44 40
20 45 41
20 44 41
20 45 41
20 45 41
20 44 41
19 43 40
21 46 42
20 44 41
20 45 42
20 44 41
20 44 40
20 45 41
20 46 42
20 44 41
20 45 41
19 43 40
20 45 41
20 44 41
20 45 41
19 43 40
20 45 41
20 45 41
20 43 40
20 45 42
19 43 40
21 46 42
20 44 40
20 45 41
21 46 42
21 47 43
20 46 42
21 46 42
20 44 40
21 46 42
20 45 42
21 46 42
20 45 41
20 44 41
20 45 41
20 44 41
20 44 41
21 46 42
20 44 41
20 45 42
21 46 42
21 47 43
20 45 41
20 44 41
20 45 42
20 45 41
21 46 42
20 44 41
20 44 40
21 46 42
20 45 41
21 45 42
21 47 43
21 46 42
20 44 40
21 46 42
21 47 43
20 45 41
20 45 41
21 47 43
21 45 41
21 45 41
21 46 42
21 46 42
21 45 41
21 44 40
22 46 42
21 45 41
22 46 42
22 46 43
22 45 41
23 47 43
22 46 42
22 45 41
23 47 43
23 47 43
23 46 42
24 46 42
25 48 43
25 47 43
25 47 42
26 47 43
26 47 43
27 48 44
28 49 44
28 48 44
28 48 43
29 49 45
29 48 43
30 50 45
31 51 46
32 51 46
32 51 46
33 52 46
34 52 47
34 52 47
35 52 47
36 54 48
36 53 47
37 54 48
38 55 49
39 55 49
39 55 49
40 55 49
40 56 50
20 46 42
20 45 41
20 45 42
20 44 41
20 44 41
20 44 40
20 44 40
20 44 40
20 44 40
19 43 40
20 45 41
20 44 41
20 45 41
20 45 42
19 43 40
20 44 40
20 44 41
20 44 41
20 44 41
19 43 40
20 44 41
20 44 40
20 44 41
21 46 42
20 45 42
20 44 41
20 45 42
20 44 40
20 45 41
20 44 41
20 45 42
20 44 40
19 43 40
20 44 41
20 45 41
20 45 41
20 44 41
20 44 40
21 46 42
21 46 42
20 44 41
20 44 40
20 45 42
20 45 41
20 45 41
20 45 42
21 46 42
20 45 41
20 44 40
20 45 41
20 45 41
20 44 40
20 45 41
21 46 42
21 46 42
21 47 43
21 46 42
20 45 42
20 44 40
20 45 42
21 47 43
20 45 41
21 46 42
20 44 40
20 45 42
20 44 40
21 46 42
20 45 41
20 45 41
20 44 41
21 47 43
21 45 41
20 45 41
20 43 40
21 46 42
21 46 42
21 46 43
22 47 43
22 47 43
22 46 42
21 46 42
21 45 42
22 47 43
22 45 41
23 47 43
23 47 43
23 47 43
23 46 42
23 47 43
24 46 42
24 47 43
24 46 42
25 48 43
25 47 43
26 48 43
26 48 43
27 49 44
28 49 44
29 51 46
28 48 43
29 49 44
30 50 45
30 49 44
31 50 45
32 51 46
33 51 46
34 52 47
34 52 47
35 53 48
36 53 47
37 53 48
38 54 49
38 55 49
39 55 49
40 55 49
40 56 50
41 55 49
42 58 52
42 56 50
43 58 51
20 45 42
20 44 41
20 45 42
20 45 41
20 45 41
20 44 41
19 43 40
20 44 41
20 45 41
20 44 40
20 44 41
20 45 41
20 45 41
20 44 40
21 46 42
20 45 42
20 44 41
20 45 42
21 46 42
20 45 41
20 45 41
20 44 40
21 46 42
20 45 41
19 43 40
20 45 42
19 43 40
20 44 40
20 45 42
20 45 42
20 44 41
20 45 41
20 45 41
21 46 43
21 46 42
20 46 42
20 44 40
20 43 40
19 43 40
20 45 42
20 44 40
20 45 41
20 44 40
20 44 41
20 45 41
20 44 40
20 44 40
21 46 43
19 43 40
20 45 41
20 45 42
20 44 40
20 45 41
20 45 42
20 45 41
20 45 41
20 45 41
20 44 41
20 45 42
21 47 43
20 45 41
20 45 41
20 45 41
21 45 42
21 46 42
20 44 40
21 45 42
20 45 41
21 46 42
21 45 41
20 45 41
21 46 42
21 46 42
21 46 42
21 45 41
21 45 41
21 46 42
21 45 41
22 46 42
22 47 43
22 46 42
22 46 42
22 45 41
22 45 41
22 46 42
23 47 43
24 48 44
23 45 41
24 47 43
25 48 44
24 46 42
25 48 44
26 48 43
26 47 43
28 50 46
27 48 44
28 48 44
29 50 46
30 50 45
30 49 44
31 50 45
31 50 45
32 51 46
33 51 46
34 51 46
35 53 47
35 52 47
37 54 48
37 53 48
38 55 49
39 54 48
40 56 49
41 56 50
42 57 51
42 56 49
43 58 51
44 58 51
45 59 52
45 58 51
46 59 52
20 44 40
20 46 42
20 45 41
20 44 41
19 43 40
20 45 42
20 45 41
20 44 40
20 45 41
19 43 40
20 44 41
20 45 41
21 46 42
20 45 41
20 44 40
20 45 41
20 44 41
20 44 41
20 44 40
20 44 41
20 44 40
20 45 41
19 43 40
20 45 42
20 44 40
20 44 40
20 44 40
20 45 42
20 45 41
20 44 41
20 44 41
20 44 40
20 45 41
21 46 42
20 45 41
20 45 41
20 45 41
21 46 42
20 45 41
20 45 42
21 46 42
20 44 40
21 46 42
20 45 41
20 45 41
20 44 40
20 45 41
20 45 42
20 45 41
20 45 41
20 44 41
20 44 41
20 44 41
20 45 41
20 45 41
20 45 41
20 44 41
20 45 42
20 45 41
20 45 41
20 45 41
21 46 42
21 46 42
21 45 42
20 45 41
21 46 42
21 46 43
20 45 41
21 45 41
20 44 40
21 45 41
21 46 42
21 46 42
22 47 43
21 45 41
21 45 41
22 46 42
22 46 42
22 46 42
22 45 42
22 46 42
22 46 42
22 45 41
23 47 43
23 47 43
23 46 42
23 46 42
24 47 43
25 48 44
25 46 42
26 48 44
26 48 43
27 49 44
27 49 44
28 49 44
29 50 46
29 48 44
30 49 45
31 50 45
32 51 46
32 51 46
33 51 46
35 53 48
35 52 47
36 53 47
37 53 48
38 54 48
39 56 50
40 55 49
41 57 50
42 57 51
42 57 50
44 59 52
44 58 52
45 59 52
46 59 52
47 59 53
47 60 53
48 60 53
49 62 55
20 44 41
20 44 41
19 43 40
20 44 41
20 45 42
20 45 41
20 45 41
20 44 41
20 45 42
20 45 41
20 45 42
20 44 40
20 45 41
20 44 40
20 45 41
20 44 40
20 45 41
20 45 41
20 45 42
20 44 41
20 44 40
19 43 40
20 44 41
21 46 42
20 44 41
20 45 41
20 44 41
20 44 40
20 45 42
20 44 40
20 44 41
20 45 42
19 43 40
20 45 41
20 45 41
20 44 40
19 43 40
20 44 40
20 44 41
20 45 41
20 43 40
21 46 42
20 45 42
21 46 42
20 45 42
20 45 41
20 44 40
21 47 43
20 44 40
20 45 41
20 45 41
20 45 41
21 47 43
20 44 41
20 44 41
20 45 41
20 45 42
20 45 41
20 44 41
20 45 41
21 45 42
20 45 41
21 45 42
20 44 41
20 43 40
20 45 41
21 46 42
21 46 42
21 46 42
21 46 42
21 46 42
21 46 42
20 44 41
21 45 41
21 45 41
22 46 42
21 45 42
22 46 42
22 46 42
22 46 42
22 46 42
23 46 42
23 46 42
24 48 43
24 48 43
24 47 43
24 46 42
25 47 43
25 47 43
26 48 43
26 47 42
27 49 45
28 49 44
28 49 44
30 51 46
29 49 44
30 50 45
31 51 46
32 51 46
33 52 46
34 51 45
35 52 47
36 52 47
37 54 48
38 54 48
39 54 48
40 55 49
41 55 49
42 57 51
43 56 50
44 58 51
45 59 52
46 58 52
47 59 52
48 61 54
49 61 54
50 63 55
51 63 55
52 63 56
53 64 56
21 46 42
20 44 41
20 44 40
19 43 40
21 47 43
20 45 41
20 44 41
20 45 41
20 45 41
20 44 40
20 44 41
20 45 41
20 45 41
20 45 42
20 45 41
20 44 41
19 42 39
19 43 39
21 46 42
20 45 41
19 43 40
20 44 41
20 45 41
20 45 41
20 45 42
20 45 41
20 45 41
20 44 40
20 44 41
20 45 41
20 45 41
20 45 41
20 45 42
20 44 41
20 44 41
20 45 41
20 44 40
20 44 41
20 45 41
20 44 41
20 45 41
21 46 42
19 43 40
20 45 41
21 46 42
20 45 41
20 44 41
20 44 41
20 45 41
20 44 40
20 44 40
20 44 40
20 44 40
20 45 42
21 46 42
20 45 41
20 45 42
20 45 41
20 45 41
20 45 41
20 44 40
20 45 42
20 45 41
20 45 41
20 44 41
20 44 41
20 45 41
21 46 42
21 46 42
20 44 40
21 46 42
21 46 42
21 45 41
21 46 42
21 46 42
21 45 41
22 46 42
22 46 42
22 47 43
22 46 42
23 46 42
23 46 42
24 47 43
24 46 42
24 47 43
24 47 42
25 48 44
26 48 43
26 47 43
27 49 44
28 50 45
28 49 44
29 50 45
30 50 45
31 51 46
31 51 46
32 51 46
33 51 46
34 51 46
35 52 47
36 54 48
37 53 47
38 55 49
39 54 49
40 56 50
41 56 49
42 57 50
44 58 51
44 58 51
46 59 52
47 60 53
48 60 53
49 62 54
50 62 55
51 63 55
52 63 55
53 65 57
54 65 57
55 66 58
56 66 58
20 44 40
20 45 42
20 44 41
19 43 40
20 45 41
20 44 41
20 44 41
19 43 39
20 44 41
20 45 41
20 44 41
20 45 41
20 45 41
20 45 41
19 43 39
21 46 42
20 45 41
20 45 41
20 43 40
20 44 41
20 45 41
20 45 41
20 44 40
20 45 41
20 44 40
20 45 41
20 44 41
20 45 41
20 45 42
20 45 41
20 45 41
20 45 42
20 45 41
20 45 41
20 44 41
20 44 41
20 45 41
20 44 41
20 44 41
20 44 41
20 45 42
20 45 41
20 45 41
20 44 41
20 45 42
21 46 42
21 46 42
20 44 40
20 45 42
20 44 40
20 44 40
20 45 41
20 45 42
20 44 41
21 46 42
20 44 41
20 43 40
21 46 43
20 43 40
20 44 41
21 46 42
20 45 41
20 45 42
21 46 42
20 45 41
21 46 42
21 46 42
21 45 42
21 45 41
21 45 41
21 46 42
21 46 42
21 45 41
21 44 41
21 45 42
22 47 43
22 45 41
22 45 41
23 46 42
23 46 42
23 47 43
23 46 42
24 47 43
24 47 43
24 46 42
26 49 45
26 48 44
26 48 43
27 48 43
28 49 44
29 50 45
29 48 44
30 50 45
31 50 45
32 51 46
33 51 46
33 51 46
35 53 48
36 53 47
37 54 49
38 54 48
39 54 48
40 56 50
41 55 49
42 57 50
44 58 51
45 58 51
46 60 53
47 60 53
48 60 53
49 61 53
51 62 55
52 63 56
53 64 56
54 65 57
55 66 58
56 67 58
57 67 59
58 68 59
59 69 60
20 45 41
20 45 42
20 44 40
20 44 41
21 47 43
19 43 40
19 43 40
20 45 41
20 45 41
21 46 42
20 44 41
20 45 42
20 44 41
20 44 41
20 45 42
20 44 41
20 44 40
20 45 41
20 44 40
20 44 40
20 45 41
20 45 41
19 43 40
20 45 41
20 44 40
20 45 42
20 45 41
20 44 41
20 44 40
20 44 41
20 45 41
20 45 42
20 44 40
19 43 39
20 45 41
20 45 42
20 45 42
20 45 42
20 44 41
20 45 42
21 46 43
20 45 41
20 44 41
20 44 41
20 45 41
20 44 41
20 45 41
20 44 41
19 43 40
20 44 41
20 45 41
20 45 42
21 46 42
20 44 40
20 44 41
20 45 41
20 45 41
20 45 41
20 44 40
19 43 39
20 45 41
20 45 41
20 45 41
21 46 42
21 45 42
21 45 42
20 45 41
21 46 42
20 44 40
21 45 41
21 46 42
22 46 43
21 45 41
22 46 42
22 47 43
22 47 43
22 44 41
22 46 42
23 46 42
23 46 42
23 45 41
23 46 42
24 46 42
25 47 43
25 47 43
26 47 43
27 48 44
27 48 44
28 48 44
29 49 44
29 49 44
30 50 45
31 49 44
32 52 46
33 51 46
34 51 46
35 51 46
36 53 48
38 54 48
39 55 49
40 56 50
42 58 52
42 57 50
44 57 51
45 59 52
46 59 52
47 60 53
48 61 53
50 61 54
51 63 56
52 63 56
54 64 56
55 66 58
56 66 58
57 67 58
59 68 59
59 68 59
61 69 61
62 71 62
63 72 63
20 44 41
20 44 41
20 44 40
20 44 41
20 44 40
19 43 40
20 44 41
20 44 41
21 46 42
20 44 41
19 43 40
21 47 43
20 44 41
20 44 41
20 44 41
20 44 40
20 44 40
20 43 40
20 44 41
20 44 40
20 43 40
20 45 41
20 44 41
20 45 41
20 44 40
20 45 42
20 44 41
20 45 42
20 44 41
20 45 41
20 44 41
20 43 40
20 44 41
20 45 41
20 44 40
20 44 41
20 44 41
20 45 42
20 45 41
20 45 41
20 45 41
20 44 41
20 44 41
20 44 41
20 45 41
20 44 41
20 45 41
20 44 41
20 44 41
20 45 41
20 45 41
20 43 40
20 45 41
20 44 41
20 45 41
21 46 42
20 45 41
20 45 41
20 45 41
20 45 41
21 45 42
21 46 42
21 46 42
20 44 41
21 46 42
21 46 42
21 45 42
21 45 41
20 43 39
21 46 42
21 46 42
22 47 43
22 46 42
21 44 40
22 47 43
23 47 43
23 46 42
22 45 41
23 46 42
23 45 42
24 47 43
24 47 42
25 47 43
25 47 43
26 49 44
27 48 44
27 48 44
27 46 42
29 49 45
30 50 45
31 51 46
32 51 46
33 51 46
33 51 46
35 53 47
36 54 49
37 53 48
38 54 48
40 55 49
41 56 50
42 55 49
43 58 51
45 59 52
46 59 52
47 61 54
49 60 53
50 60 53
51 63 55
53 64 57
54 65 57
55 65 57
57 67 59
58 67 59
59 68 60
61 69 61
62 71 62
64 72 63
64 73 64
65 73 63
67 74 64
20 45 41
20 44 41
20 43 40
21 46 42
19 43 39
20 44 41
20 44 40
20 44 41
20 44 40
20 44 40
21 46 42
20 45 41
20 44 41
20 44 41
20 45 41
19 43 40
19 43 40
20 45 42
20 45 41
20 45 41
20 45 42
21 46 42
20 45 41
20 45 41
20 44 40
20 45 41
20 45 41
20 44 41
20 44 41
20 45 42
20 44 40
20 45 42
21 46 43
20 44 40
20 44 40
20 45 41
20 44 41
20 44 40
20 44 41
19 43 40
20 44 40
20 44 41
20 44 41
20 44 41
20 44 41
20 45 42
20 45 42
20 44 41
20 45 41
20 45 41
20 45 42
20 45 41
20 45 41
20 45 41
20 45 41
21 46 43
21 45 42
20 45 42
21 45 42
20 45 41
20 45 41
20 44 40
20 45 41
21 46 42
20 45 41
20 45 41
21 45 41
22 47 43
21 46 42
21 45 41
22 46 42
22 46 42
22 46 42
22 46 42
22 46 42
22 45 41
23 47 43
23 45 41
23 46 42
24 46 42
24 46 42
25 47 42
26 48 44
26 48 44
27 48 44
27 47 43
28 48 44
29 48 44
30 50 45
31 50 46
32 50 45
33 51 46
34 53 47
35 52 47
36 52 46
37 54 48
39 54 49
40 55 49
41 55 49
43 57 51
44 58 51
46 59 53
47 59 52
48 61 54
50 62 55
51 63 55
53 64 56
54 64 56
56 66 58
57 66 58
59 68 59
60 68 60
62 71 62
63 71 62
64 72 63
66 74 65
67 75 66
68 75 65
70 77 67
70 77 67
