P3
120 80
255
18 41 38
18 40 38
18 41 38
18 41 38
18 41 38
18 41 39
18 40 38
18 41 38
18 42 39
18 41 39
18 40 37
18 42 39
19 42 40
18 42 39
19 42 39
18 41 39
18 41 38
18 41 38
18 40 38
18 41 38
18 40 38
18 41 38
19 42 39
19 42 39
18 41 38
18 42 39
18 41 38
18 41 39
18 40 38
18 41 38
18 42 39
18 40 38
18 40 38
18 41 38
18 41 38
18 42 39
18 41 38
18 41 38
19 42 39
18 41 38
19 43 40
18 41 39
18 42 39
18 41 38
18 41 38
19 42 39
18 42 39
18 42 39
19 43 40
19 42 39
18 41 38
18 42 39
19 42 39
18 42 39
19 43 40
19 43 40
19 43 40
19 42 39
19 43 40
19 42 39
18 42 39
19 42 39
19 42 39
19 42 39
19 42 39
18 42 39
18 41 38
18 41 38
19 43 40
18 41 38
19 42 39
18 41 38
18 40 37
19 42 39
19 42 39
18 42 39
18 41 38
18 41 38
18 41 39
18 42 39
18 42 39
19 42 39
18 40 37
18 41 38
19 42 40
18 42 39
19 42 39
18 41 39
18 40 38
19 42 39
18 41 38
18 42 39
18 41 38
19 42 39
18 41 39
18 41 38
18 41 38
19 42 39
18 41 38
18 41 39
18 41 38
18 41 38
18 41 39
18 41 38
18 42 39
19 42 39
18 42 39
18 41 39
18 41 38
18 41 39
18 41 38
18 42 39
19 42 39
19 42 39
18 41 39
18 41 38
18 41 39
18 41 38
18 41 38
18 41 38
18 41 39
18 41 38
18 42 39
18 41 39
19 42 39
19 42 39
18 42 39
18 41 39
18 40 37
18 42 39
18 42 39
19 42 39
18 41 38
19 42 39
19 42 39
18 41 39
18 40 38
18 41 38
18 42 39
19 42 39
18 42 39
18 41 38
19 42 39
18 41 38
18 41 38
18 41 38
18 42 39
19 42 39
18 41 39
18 41 39
19 42 39
18 41 38
19 42 39
19 42 39
19 43 40
19 42 39
19 42 39
19 42 39
19 42 39
18 41 38
18 41 38
19 42 39
19 42 39
18 41 38
18 42 39
19 42 39
19 42 39
19 42 39
19 43 40
19 42 39
19 42 39
19 42 39
19 42 39
19 42 39
18 41 38
19 42 39
18 41 38
18 41 38
19 43 40
19 42 39
19 42 39
19 43 40
19 43 40
19 43 40
19 42 39
18 41 38
19 42 40
19 42 39
19 42 39
19 42 39
19 42 39
18 41 38
19 42 39
18 41 38
19 43 40
19 42 39
18 42 39
18 41 38
19 42 39
19 43 40
19 42 39
19 43 40
19 42 39
18 41 38
18 41 38
18 42 39
19 42 39
18 41 38
19 42 39
19 43 40
18 42 39
19 42 39
18 42 39
18 41 38
19 42 39
19 42 39
19 42 39
19 42 39
19 42 39
19 42 39
19 42 39
19 42 39
19 42 39
19 43 40
19 42 39
18 42 39
19 43 40
18 41 38
19 43 40
19 43 40
18 41 38
19 42 39
19 42 39
18 41 38
18 41 38
19 42 39
18 41 38
18 41 38
18 41 38
18 41 38
19 42 39
19 42 39
19 42 39
19 42 39
19 42 39
18 41 38
19 43 40
18 41 39
19 43 40
18 41 38
19 43 40
19 42 39
19 42 39
19 42 39
19 42 39
19 42 39
19 42 39
19 42 39
18 41 38
19 42 39
19 42 39
19 43 40
18 41 38
18 41 38
19 43 40
19 42 39
19 42 39
19 42 39
19 43 40
19 44 40
19 42 39
19 43 40
19 42 39
19 42 39
19 42 39
19 43 39
19 42 39
19 43 40
19 42 39
19 43 40
19 42 39
19 42 39
19 42 39
19 43 40
19 42 39
20 44 41
19 42 39
19 42 39
19 43 40
19 43 40
19 42 39
19 42 39
19 42 39
19 43 39
19 43 40
19 42 39
19 42 39
19 42 39
19 43 40
19 42 39
19 43 40
19 43 39
19 42 39
19 43 40
18 41 38
19 43 40
19 43 40
19 43 40
19 42 39
19 42 39
19 43 40
19 43 40
19 42 39
19 43 40
19 42 39
20 44 41
19 43 40
19 43 40
19 42 39
19 42 39
19 43 40
19 42 39
19 43 39
20 44 41
19 42 39
19 42 39
19 43 40
19 43 40
19 42 39
19 43 40
19 43 40
19 43 39
19 43 40
19 42 39
19 42 39
19 43 40
19 43 40
19 42 39
19 43 40
19 43 40
19 42 39
19 43 40
19 43 40
19 42 39
19 42 39
19 43 40
19 42 39
19 42 39
19 42 39
19 43 39
19 42 39
19 42 39
19 43 40
19 42 39
19 42 39
19 42 39
19 43 40
19 42 39
18 41 38
19 43 40
19 42 39
19 42 39
19 43 40
19 42 39
19 42 39
19 42 39
19 42 39
19 43 40
19 42 39
19 42 39
19 42 39
19 43 40
19 43 40
19 42 39
19 43 40
20 44 41
18 41 38
18 41 38
19 43 40
19 42 39
19 42 39
19 42 39
19 43 40
19 43 39
19 42 39
19 43 40
19 43 39
19 42 39
20 44 40
19 42 39
19 43 40
19 42 39
19 43 40
19 42 39
19 43 40
19 43 40
19 43 39
19 44 40
19 43 40
19 43 40
19 44 40
20 44 41
19 43 40
19 42 39
19 43 40
19 43 39
19 44 40
19 43 40
19 43 40
19 43 40
19 43 40
19 43 40
20 44 41
19 43 40
19 43 40
20 44 41
19 43 40
19 43 40
19 43 40
19 43 39
19 43 40
19 44 40
19 43 40
19 42 39
19 43 40
19 43 39
19 43 40
19 44 40
20 45 42
19 43 40
19 43 39
19 43 40
19 43 40
19 42 39
19 43 39
19 42 39
19 43 40
20 44 41
20 44 41
20 44 40
19 43 40
19 43 39
19 43 40
19 43 40
19 43 40
19 43 39
20 44 41
19 43 40
19 43 40
19 43 40
19 43 39
19 43 40
19 43 40
19 44 40
19 42 39
19 43 40
19 43 40
19 43 40
19 43 40
20 44 40
19 43 40
19 43 40
19 42 39
20 44 41
19 42 39
20 44 41
19 42 39
19 43 40
19 42 39
19 43 40
19 43 40
19 43 40
19 43 40
19 43 40
19 42 39
19 43 39
19 42 39
20 44 41
19 43 40
20 44 41
19 42 39
19 43 39
19 44 40
19 43 39
19 42 39
19 42 39
19 42 39
19 43 40
19 42 39
19 43 40
19 42 39
19 42 39
19 43 40
20 44 40
19 43 39
20 44 41
19 43 40
19 43 39
19 43 40
19 43 40
19 43 40
19 42 39
19 43 40
20 44 40
19 43 40
19 43 40
19 43 40
20 45 41
20 44 41
20 44 40
19 42 39
19 43 40
19 42 39
19 43 40
19 43 40
20 44 41
19 43 40
19 43 40
19 43 39
19 43 40
19 44 40
19 43 40
20 45 42
19 43 40
19 42 38
19 43 40
20 44 41
20 44 41
20 44 40
20 44 41
20 44 40
19 43 40
20 44 40
19 43 40
20 44 41
19 43 40
20 44 40
20 44 40
20 44 41
20 44 40
19 44 40
20 44 40
20 44 40
20 44 41
20 44 41
20 45 41
19 43 40
19 42 39
20 44 41
20 44 41
20 44 41
20 44 41
20 44 40
20 44 41
19 43 40
20 44 41
20 44 41
20 44 41
20 44 41
20 45 42
20 44 41
20 44 41
20 45 41
20 44 41
19 43 40
20 44 40
20 45 41
20 44 41
19 43 40
19 43 39
20 44 41
20 44 40
20 44 41
19 43 40
20 44 40
19 42 39
19 43 40
19 43 40
20 44 41
19 43 40
19 44 40
20 45 41
19 43 40
20 44 40
20 44 41
19 42 39
19 43 39
19 43 39
20 44 41
19 44 40
19 43 40
19 43 40
19 43 40
20 44 41
20 44 41
19 44 40
19 42 39
20 44 41
19 43 40
19 43 40
19 43 40
19 43 40
19 43 39
20 44 40
19 43 40
19 42 39
20 44 41
20 44 40
19 43 40
19 42 39
19 43 40
20 44 41
20 44 41
19 43 40
20 44 40
20 44 41
19 43 40
19 43 40
20 44 40
19 43 40
19 43 40
20 44 41
19 43 40
20 44 40
19 44 40
20 44 41
19 43 40
19 43 40
20 44 40
20 44 40
20 44 41
19 43 40
20 45 41
20 44 41
20 45 42
19 44 40
20 45 42
20 44 41
19 43 40
19 43 40
20 44 40
20 44 40
20 44 41
20 44 41
20 44 41
19 43 40
20 45 41
20 44 40
20 44 40
19 43 39
19 43 40
19 43 40
20 44 41
20 45 41
20 44 41
20 44 41
20 44 41
20 44 41
20 44 41
20 44 40
20 45 41
20 45 41
20 44 41
20 45 42
19 43 40
20 45 42
20 44 40
20 45 41
20 45 41
20 44 41
19 43 40
20 45 41
20 45 41
20 44 40
20 45 41
20 44 40
20 44 40
20 44 41
20 44 40
20 44 41
20 45 42
20 44 41
20 44 41
20 44 41
20 44 40
19 43 40
20 44 41
20 44 40
20 45 42
20 44 41
20 45 42
19 43 40
20 45 42
20 44 40
20 45 42
20 44 40
20 45 41
20 44 41
20 44 41
20 44 41
20 45 41
20 44 41
20 44 40
19 43 40
20 44 40
20 44 41
20 44 40
19 43 40
20 44 40
19 42 39
20 45 42
20 44 41
20 44 41
19 43 40
20 44 41
20 44 41
20 44 40
20 44 41
19 43 40
19 43 40
19 43 40
19 43 40
19 43 40
19 43 40
19 43 39
20 45 41
20 44 40
19 44 40
20 44 41
20 44 40
19 43 40
19 43 40
20 44 40
20 45 41
20 44 41
20 45 41
20 45 41
20 45 41
20 45 41
20 44 41
19 42 39
20 44 41
20 44 41
19 43 39
20 44 40
20 44 41
20 44 40
20 45 41
20 45 41
20 44 41
20 44 40
20 45 42
20 45 41
20 44 41
20 44 40
21 46 42
20 44 41
20 45 42
20 45 41
20 44 41
20 45 41
20 44 40
20 44 40
20 45 42
20 44 41
20 45 41
20 45 41
20 45 41
20 44 41
20 45 41
20 45 41
20 44 40
20 45 41
20 45 41
21 46 42
20 45 41
20 45 41
21 46 42
20 45 42
20 44 41
21 46 42
20 45 41
20 45 42
20 45 42
20 45 41
20 45 41
20 45 41
20 44 40
20 45 41
20 45 41
20 45 41
20 45 41
20 44 40
20 44 40
21 46 42
20 45 41
21 46 42
20 45 42
20 44 41
21 46 42
20 45 41
20 44 40
21 47 43
20 45 41
20 45 41
20 45 41
20 45 41
20 45 41
20 45 41
20 45 42
21 46 42
20 45 41
21 46 42
20 45 41
20 45 41
21 46 42
20 44 41
20 45 41
20 44 40
20 45 41
20 44 40
20 44 41
21 46 42
20 45 42
20 45 42
20 45 41
20 44 41
20 44 40
19 43 40
20 43 40
20 44 41
20 44 41
20 44 41
20 44 41
20 45 42
20 44 41
20 44 41
20 45 41
20 44 41
20 44 40
20 45 41
20 44 41
20 44 40
19 43 40
20 45 41
20 44 40
20 44 41
19 43 40
20 45 41
20 45 41
19 43 40
20 45 42
20 45 41
20 45 41
20 44 41
20 44 40
20 44 40
20 46 42
20 45 41
20 45 42
19 43 40
20 45 41
20 45 41
20 44 41
21 47 43
20 44 41
20 44 41
19 43 40
20 45 42
20 44 40
20 44 40
21 46 42
21 46 42
20 45 41
21 46 42
20 45 41
20 44 40
21 46 42
21 46 42
21 46 42
21 46 42
20 45 41
20 45 41
20 45 41
21 46 42
21 46 42
20 45 41
20 45 41
21 47 43
20 45 42
21 46 42
21 46 42
21 46 42
20 45 41
21 46 42
21 46 42
20 45 41
21 46 42
20 44 40
21 46 42
21 46 42
20 45 41
20 45 41
21 45 42
20 45 41
20 45 41
21 46 42
21 46 42
21 46 42
21 46 42
21 46 42
20 45 42
21 46 42
21 46 42
21 46 42
21 46 42
20 45 41
21 46 42
20 45 41
20 45 41
20 45 41
21 46 42
20 45 41
21 46 42
20 45 41
20 44 41
21 46 42
20 45 41
21 46 42
21 46 42
21 46 42
21 45 42
21 46 42
21 46 42
20 45 41
20 45 41
21 46 43
21 46 42
20 44 41
20 45 41
21 46 42
20 45 41
21 46 43
20 45 41
20 45 41
21 46 42
20 45 42
21 46 42
20 45 41
21 46 42
21 46 42
21 46 42
20 45 41
20 45 41
20 45 41
20 45 41
21 46 42
20 45 41
20 44 41
20 45 41
20 44 41
20 44 40
21 46 42
20 44 41
20 44 40
20 44 40
20 44 41
20 45 41
20 44 40
20 44 40
20 44 40
20 45 41
21 46 42
20 45 41
20 44 41
21 46 42
20 45 42
20 45 41
20 45 41
20 45 41
20 45 41
20 44 40
20 45 41
21 45 42
20 44 40
21 46 42
21 46 42
20 45 41
20 44 41
21 46 42
20 45 41
21 46 42
20 45 41
20 45 41
21 46 42
20 45 42
21 46 42
21 46 42
21 46 42
21 46 42
21 46 42
21 46 42
20 45 42
20 45 41
21 46 42
21 46 42
20 45 41
21 47 43
21 46 42
21 46 42
21 47 43
21 46 42
21 47 43
21 46 42
21 46 42
21 46 42
21 46 42
20 45 41
22 48 43
21 45 41
21 46 42
21 46 42
21 47 43
21 46 42
21 46 42
21 46 42
21 46 42
21 46 42
21 47 42
21 46 42
21 47 43
21 46 42
21 47 42
21 47 43
21 46 42
21 47 43
21 46 42
21 46 42
21 46 42
21 45 41
21 46 42
21 46 42
21 46 42
21 46 42
21 46 42
21 46 42
21 46 42
21 46 42
20 45 41
22 47 43
21 47 43
21 46 42
21 46 42
21 46 42
21 46 42
21 46 42
21 46 42
21 47 43
21 47 43
21 46 42
21 46 42
21 46 42
21 46 42
21 46 42
21 46 42
21 46 42
21 46 42
20 45 41
21 46 42
21 46 42
21 46 42
21 47 43
20 45 41
21 46 42
21 46 42
21 46 42
21 46 42
21 46 42
20 45 41
21 46 42
20 45 41
20 46 42
20 44 40
20 45 42
20 44 41
20 45 41
20 45 41
20 45 41
21 46 43
20 44 41
20 44 41
20 45 41
20 44 40
20 45 42
21 46 42
20 45 41
20 45 42
21 46 42
20 45 41
21 46 42
21 46 42
21 46 42
20 45 41
21 47 43
20 45 41
21 45 42
21 46 42
21 46 42
21 46 42
21 45 42
21 46 42
21 46 42
21 47 43
20 45 41
21 46 42
20 45 42
21 47 43
21 47 43
21 46 42
21 46 42
21 46 42
21 47 43
21 47 43
21 46 42
21 47 43
21 46 42
21 46 42
21 47 43
21 47 43
21 46 42
21 46 42
21 47 43
21 47 43
21 46 42
21 47 43
21 47 43
22 48 43
21 47 43
21 47 43
22 48 43
21 47 43
22 47 43
22 48 43
21 47 43
21 47 43
21 47 42
21 46 42
21 46 42
21 46 42
21 47 43
21 47 43
22 48 44
22 48 43
22 48 43
21 47 43
21 46 42
21 46 42
21 47 43
22 47 43
21 47 43
21 47 43
21 47 43
21 46 42
21 47 43
21 47 43
22 48 44
21 47 43
21 46 42
21 47 43
21 46 42
21 46 42
21 46 42
21 47 43
21 46 42
22 48 43
21 47 42
21 46 42
21 47 43
21 47 43
21 46 42
21 47 43
21 46 42
20 45 41
21 46 42
21 47 43
21 46 42
21 46 42
21 47 43
21 47 43
21 47 43
22 48 44
22 47 43
21 46 42
21 47 43
21 46 42
21 47 43
21 47 43
21 47 43
21 46 42
21 47 43
20 44 41
20 45 41
20 45 41
20 45 41
21 46 42
21 46 42
21 46 42
20 45 41
20 45 41
20 45 41
20 45 41
21 46 42
20 45 41
21 47 43
21 46 42
21 47 43
21 47 43
21 46 42
21 46 42
20 45 41
21 45 42
21 46 42
21 47 43
21 47 43
21 45 42
21 47 43
20 45 41
21 47 43
21 47 43
21 46 42
21 47 43
21 46 42
21 47 42
21 46 42
21 45 42
21 47 43
22 48 43
21 47 43
21 46 42
22 48 44
22 48 44
21 46 42
21 47 43
21 46 42
22 48 44
22 48 43
21 47 43
21 47 43
21 46 42
21 47 43
21 47 42
21 47 43
22 48 44
21 47 43
22 48 44
22 48 44
22 48 43
21 46 42
21 46 42
22 48 44
21 46 42
22 47 43
22 48 43
21 47 43
21 47 43
21 47 43
21 47 43
22 48 44
21 47 43
22 48 44
21 47 43
21 47 43
21 46 42
22 48 43
21 47 43
21 47 43
22 47 43
22 48 44
22 48 43
22 48 43
22 48 44
22 48 44
22 48 43
21 47 43
21 47 43
22 48 44
21 46 42
22 47 43
21 46 41
21 47 43
21 47 43
22 48 44
22 48 43
22 49 44
21 47 43
21 47 43
22 48 44
21 47 43
22 47 43
21 46 42
22 48 44
22 49 45
21 47 43
21 47 43
21 47 42
22 48 43
21 47 43
21 46 42
21 46 42
21 47 43
21 46 42
22 48 43
22 48 44
21 46 42
21 47 43
21 46 42
21 46 42
21 47 43
21 47 43
21 47 43
21 47 43
21 46 42
21 47 43
21 46 42
20 45 41
20 45 41
21 45 42
21 46 43
21 47 43
20 45 41
20 45 41
20 45 41
21 45 41
21 47 43
21 46 42
20 45 41
21 47 43
21 46 42
21 46 42
21 46 42
21 46 42
21 47 43
21 47 43
21 47 43
21 47 43
21 46 42
22 48 44
21 47 43
22 48 43
22 48 44
22 48 43
21 47 43
21 47 43
22 48 44
21 47 43
21 47 43
21 47 43
22 48 44
21 47 43
22 48 43
22 48 43
22 49 44
22 48 43
22 47 43
21 47 43
22 48 44
22 48 44
22 48 44
21 47 43
22 48 44
22 48 43
22 49 44
22 48 44
22 49 44
21 47 43
22 48 44
22 48 43
22 49 44
22 48 44
22 48 44
22 48 44
22 47 43
22 48 44
22 49 44
22 48 44
22 48 44
22 48 44
22 49 44
22 49 45
22 47 43
22 47 43
22 48 43
22 48 44
22 48 44
22 48 43
22 49 44
21 47 43
22 47 43
22 47 43
22 49 44
21 47 42
21 47 43
21 47 43
22 48 44
22 48 44
22 48 43
22 48 44
22 48 43
22 48 44
22 48 44
22 49 44
21 47 43
21 47 43
22 48 44
22 48 43
22 49 44
22 48 44
22 49 44
22 48 44
22 49 44
22 48 43
22 48 43
22 49 45
22 48 43
22 48 44
21 47 43
21 47 43
21 47 43
21 47 43
21 47 43
22 48 43
21 47 43
22 49 44
21 47 43
22 48 43
22 48 43
22 48 44
21 47 43
22 48 43
22 48 43
21 46 42
21 47 43
21 46 42
21 46 42
20 45 41
21 46 42
20 44 41
21 46 42
21 46 42
21 46 42
21 46 42
21 47 43
21 47 43
21 47 43
21 46 42
21 46 42
22 48 44
21 46 42
21 47 43
21 46 42
22 48 43
21 46 42
21 47 43
21 46 42
22 48 44
22 48 43
21 47 43
21 47 43
21 47 43
21 47 43
22 49 44
21 47 43
22 48 44
22 48 43
21 46 42
22 48 44
21 47 43
21 46 42
22 49 44
21 46 42
22 48 43
22 48 44
21 47 42
22 48 44
21 47 43
23 49 45
22 49 45
22 48 44
22 49 44
22 47 43
22 47 43
22 48 44
22 49 44
22 49 44
22 48 44
22 48 44
21 47 42
22 47 43
23 50 45
22 49 44
23 50 45
22 49 44
22 48 44
22 49 44
22 49 45
22 48 44
22 49 45
22 49 44
22 49 45
23 49 45
23 50 45
22 48 44
22 49 44
22 49 44
22 48 44
22 49 45
22 49 44
22 49 44
22 49 44
23 50 45
22 48 43
22 49 44
22 48 43
22 49 44
22 49 45
22 49 44
23 50 45
22 49 45
22 49 44
22 48 44
22 49 44
22 48 44
22 48 44
22 48 44
22 48 44
22 47 43
22 48 44
22 48 44
22 48 44
22 49 44
22 48 44
22 49 44
22 48 43
23 49 45
22 48 44
22 48 44
22 49 45
22 48 44
21 47 42
22 48 44
22 48 43
22 48 43
22 48 43
22 48 44
22 48 44
22 47 43
22 49 45
22 48 44
22 48 44
22 47 43
21 47 43
21 46 42
21 46 42
20 45 41
21 47 43
21 47 43
21 46 42
21 46 42
21 47 43
21 46 42
21 47 43
21 47 43
21 47 43
21 47 43
21 47 43
21 47 42
21 47 43
21 46 42
21 47 43
21 46 42
21 46 42
21 47 42
22 48 43
21 46 42
21 47 43
21 47 42
22 48 44
21 47 43
21 47 43
21 47 42
21 47 43
22 48 43
22 48 43
21 47 43
21 47 43
22 48 43
22 48 43
22 48 44
22 49 44
22 48 43
22 48 43
21 47 43
22 48 43
22 48 43
22 48 44
22 49 45
22 48 43
22 48 44
23 50 45
22 49 44
22 49 44
23 49 45
22 49 44
22 49 44
22 49 44
22 48 44
22 48 44
22 48 44
22 49 44
22 48 44
22 48 43
22 48 43
23 49 45
22 49 44
22 48 44
23 50 45
22 48 44
22 49 44
23 50 45
22 49 44
23 49 45
23 49 45
22 48 43
22 49 45
23 49 45
22 48 44
22 49 44
22 49 44
23 49 45
23 50 45
22 49 44
22 49 44
23 50 45
22 49 45
22 48 43
22 49 44
22 49 45
23 49 45
23 50 45
22 49 45
23 50 45
22 49 44
23 50 46
22 49 44
22 49 45
22 48 44
22 47 43
23 49 45
22 49 45
23 50 45
22 49 44
22 48 44
22 49 44
22 49 44
23 49 45
22 49 45
23 49 45
22 49 45
23 51 46
22 48 43
22 49 44
22 49 44
22 49 45
22 48 44
22 49 44
22 49 45
22 48 43
22 49 44
22 48 44
22 49 44
21 47 43
21 46 42
21 45 41
21 47 43
21 47 43
21 47 42
22 47 43
21 46 42
21 47 43
21 47 43
21 47 43
21 47 43
21 46 42
21 47 43
21 46 42
21 47 43
21 47 43
21 47 43
22 48 44
22 48 44
22 48 44
22 47 43
22 48 44
21 47 43
22 48 44
21 47 43
22 48 44
22 48 43
21 47 43
22 48 43
22 49 44
22 49 44
22 48 44
22 48 43
22 48 44
22 49 44
22 49 44
22 48 44
22 49 44
22 48 43
22 48 43
23 50 45
22 48 44
22 49 45
22 48 44
22 48 44
22 49 45
23 50 45
22 49 44
22 48 44
23 50 45
22 49 44
22 49 45
22 49 44
22 49 44
22 49 45
22 48 43
23 51 46
22 49 44
22 49 44
22 49 44
22 49 44
23 49 45
22 49 44
23 49 45
23 49 45
23 50 46
22 48 44
22 49 45
22 49 45
23 50 45
22 49 44
23 50 45
22 49 44
23 50 45
22 47 43
23 49 45
23 50 45
22 49 44
22 49 44
23 50 45
22 49 44
23 50 45
23 50 45
22 49 44
23 50 45
23 51 46
22 48 43
23 50 46
23 50 45
23 50 45
23 50 45
23 50 46
23 50 45
23 50 45
23 49 45
22 49 44
23 50 45
22 49 45
23 50 45
23 49 45
22 49 44
22 49 44
22 49 44
22 48 44
22 49 44
23 50 45
22 48 44
22 48 44
22 49 44
23 50 45
22 48 44
22 49 44
22 48 44
22 49 44
22 49 45
22 49 44
22 49 44
22 48 44
22 49 44
22 48 43
21 47 42
21 46 42
21 47 43
22 48 43
21 46 42
22 48 44
21 46 42
21 47 43
21 47 43
22 48 44
21 47 42
22 47 43
21 46 42
22 47 43
22 48 44
21 47 42
22 47 43
22 48 44
22 48 44
22 48 43
22 48 44
22 48 43
22 48 44
22 49 44
22 48 43
22 48 44
22 48 43
22 48 44
22 48 43
22 49 44
22 48 44
22 48 44
22 48 44
22 47 43
22 48 44
22 49 45
23 49 45
22 48 43
22 48 44
22 49 44
22 48 44
22 49 45
22 48 44
22 49 44
22 49 44
22 49 45
23 49 45
22 49 44
22 49 44
22 49 44
23 50 45
22 49 45
22 48 44
23 49 45
23 49 45
22 49 44
23 50 45
23 49 45
23 50 45
23 49 45
22 49 44
23 50 46
23 50 45
22 49 44
23 50 45
23 50 45
22 49 44
23 49 45
22 49 44
23 50 45
23 51 46
22 49 44
23 50 45
23 50 45
23 50 45
22 49 44
23 50 45
23 50 45
22 49 44
22 49 44
23 50 45
23 50 45
23 50 46
23 50 45
22 49 44
23 51 46
23 51 46
23 50 45
23 51 46
22 49 44
23 50 45
23 50 45
22 49 44
23 49 45
23 50 45
22 49 44
23 50 45
23 49 45
22 48 43
23 50 45
22 49 44
23 50 45
23 50 45
22 49 44
22 49 44
22 48 44
22 49 44
23 50 45
23 50 45
23 51 46
22 49 44
22 49 44
23 50 45
22 49 44
22 49 44
22 48 44
22 49 45
22 48 44
22 49 44
21 46 42
21 47 42
21 46 42
21 46 42
21 47 43
21 47 43
21 47 43
21 47 43
22 48 44
22 48 43
22 49 44
22 49 44
21 47 43
22 48 44
21 47 43
22 48 44
21 47 43
22 48 44
22 48 43
21 46 42
21 46 42
21 47 43
21 47 43
22 49 45
22 47 43
22 47 43
22 48 43
22 48 44
22 48 44
21 47 43
22 49 44
22 49 44
21 47 43
22 49 45
22 47 43
23 50 45
22 49 44
22 49 44
22 49 44
22 49 44
23 49 45
22 48 43
22 49 44
23 50 45
22 49 45
22 49 44
23 50 45
23 50 45
22 49 44
22 48 44
23 50 45
23 50 45
23 50 45
23 50 45
22 49 44
22 49 44
23 49 45
23 50 45
23 51 46
23 49 45
22 49 44
23 50 45
23 50 45
22 49 44
23 50 45
23 50 45
23 50 45
23 51 46
23 50 45
22 49 44
23 50 45
23 49 45
23 50 45
24 51 46
23 50 45
23 49 44
23 50 45
23 50 45
22 48 43
23 50 45
23 50 45
23 50 45
22 49 44
23 49 45
23 50 46
23 50 45
24 52 47
23 51 46
23 50 45
23 50 45
23 50 45
23 50 45
23 49 45
22 49 44
23 50 45
23 50 45
23 50 45
22 49 44
23 49 45
23 50 45
22 49 44
22 49 44
22 48 44
23 51 46
23 50 45
23 49 45
23 51 46
23 50 45
23 50 45
23 50 46
22 49 44
23 50 45
23 50 45
23 50 45
22 49 44
22 49 45
22 49 45
23 50 45
22 48 43
23 50 45
22 48 43
21 47 43
21 47 43
22 48 43
21 47 43
21 47 43
22 48 44
22 48 43
22 48 43
22 47 43
22 47 43
22 48 43
21 47 43
21 47 43
22 47 43
21 47 43
22 48 44
22 48 43
22 48 43
22 47 43
21 47 43
22 49 44
22 49 44
21 47 43
22 49 44
22 47 43
22 48 44
22 49 45
22 49 44
22 49 44
22 48 44
22 49 44
22 49 44
22 47 43
22 48 44
22 48 43
23 50 45
23 50 45
22 49 44
22 49 44
22 48 44
22 49 44
22 49 44
23 50 45
22 49 44
23 49 45
23 50 45
22 49 44
23 51 46
22 48 44
23 49 45
22 49 44
23 50 45
23 50 45
23 50 45
23 50 45
23 50 45
22 49 44
23 50 46
23 50 45
23 50 45
23 51 46
23 51 46
22 49 44
23 51 46
23 50 45
24 51 46
23 50 45
23 50 45
23 49 44
23 50 45
23 50 45
23 51 46
23 51 46
23 50 45
23 50 45
23 50 45
23 50 45
23 50 45
23 50 45
23 50 45
23 50 45
23 50 45
23 50 45
23 50 45
23 50 45
24 51 46
23 50 45
24 51 46
23 51 46
23 51 46
23 51 46
23 51 46
23 51 46
23 51 46
23 49 45
23 50 45
23 50 46
23 51 46
22 49 44
23 50 45
22 49 44
23 49 45
23 50 45
23 50 45
23 49 45
23 50 45
22 49 44
22 49 44
23 50 45
23 50 45
23 50 46
22 49 44
23 50 46
23 49 45
23 49 45
22 48 44
22 49 45
23 49 45
23 50 45
21 47 43
21 47 43
21 46 42
21 47 43
22 48 43
21 47 42
21 47 43
22 47 43
22 48 44
22 47 43
21 47 43
22 48 43
22 47 43
22 48 44
22 48 43
23 50 45
21 47 43
22 48 44
22 49 44
22 48 43
22 48 44
22 49 44
22 48 44
22 49 44
22 48 44
22 48 43
22 49 44
22 49 45
22 49 44
23 50 45
22 49 44
22 48 44
22 48 43
22 48 44
22 49 44
23 49 45
22 48 44
22 49 44
22 49 44
23 50 45
23 50 45
22 49 44
22 49 44
23 50 46
22 49 44
23 50 45
23 50 45
23 50 45
23 50 45
23 50 45
23 51 46
23 49 45
23 49 45
23 50 45
23 50 45
23 50 45
23 50 45
23 49 45
22 49 44
23 51 46
22 49 44
23 50 46
22 49 44
23 49 44
23 51 46
23 51 46
23 51 46
23 50 45
23 50 45
23 50 45
23 50 45
23 51 46
24 51 46
23 51 46
23 51 46
23 49 44
23 50 45
23 50 45
23 50 45
23 50 45
23 51 46
23 50 45
23 50 45
23 51 46
23 50 45
23 49 44
23 50 46
23 49 44
24 51 46
23 50 45
24 52 47
23 51 46
22 49 44
23 50 46
23 50 45
23 51 46
23 50 45
23 51 46
23 50 45
23 50 45
23 50 45
23 50 45
23 50 45
22 49 44
23 50 45
23 51 46
23 51 46
23 51 46
23 50 45
23 51 46
23 49 45
22 49 44
23 50 46
23 50 45
23 50 45
23 50 45
22 49 44
23 50 45
22 49 44
23 50 45
21 47 42
22 48 44
22 49 45
22 48 43
22 48 44
22 48 43
22 48 43
21 46 42
21 47 43
21 47 43
21 47 43
22 48 44
22 47 43
22 48 43
22 48 44
21 47 43
22 48 44
22 48 44
22 48 44
22 47 43
22 49 44
22 49 44
22 49 44
23 50 45
22 48 44
22 48 44
22 48 44
22 48 44
23 49 45
23 49 45
22 48 44
22 49 44
22 48 44
22 49 44
22 49 44
22 49 44
22 49 44
22 48 44
22 49 44
22 49 44
23 50 45
22 49 45
22 49 44
23 50 45
23 49 45
22 49 44
23 50 45
23 50 45
22 49 44
23 50 45
23 50 45
23 50 45
22 49 44
23 50 45
23 49 45
23 50 45
23 50 45
23 50 45
23 50 45
23 50 45
23 49 44
23 50 45
23 51 46
23 50 45
23 50 45
23 50 45
23 49 45
23 51 46
24 52 47
23 51 46
23 51 46
24 51 46
23 50 45
23 50 45
23 50 45
23 50 45
23 51 46
23 50 45
23 50 45
23 50 45
23 50 45
23 51 46
23 51 46
23 51 46
23 51 46
23 50 45
23 51 46
23 50 45
22 49 44
23 50 45
23 51 46
23 50 45
23 50 45
23 51 45
23 51 46
23 50 45
23 50 45
23 50 45
23 50 45
23 50 45
23 50 45
23 49 45
23 51 46
23 51 46
23 50 45
23 50 45
23 51 46
23 50 45
23 50 45
23 49 45
23 50 45
23 51 46
23 50 45
23 50 45
23 50 45
22 49 44
23 51 46
23 49 45
22 49 44
23 50 45
22 48 43
21 47 42
22 48 44
22 48 43
22 48 43
22 48 44
22 47 43
22 48 44
21 47 43
22 49 45
22 47 43
22 48 44
22 47 43
22 48 44
21 47 43
22 48 43
22 48 43
22 49 44
22 48 44
22 48 44
21 47 42
23 50 45
93 93 86
142 132 121
148 136 124
90 90 81
23 50 45
22 49 45
22 49 44
22 48 43
22 49 44
23 49 45
22 49 44
22 49 44
23 49 45
22 48 44
22 49 44
22 49 44
22 49 44
23 49 45
22 49 45
22 49 44
38 55 51
31 50 49
24 51 46
22 49 44
22 49 44
23 49 45
22 48 44
22 48 44
22 49 44
23 51 46
24 52 47
23 51 46
23 50 45
23 49 45
23 49 45
23 50 45
23 50 45
23 50 45
23 50 45
23 50 45
24 52 47
24 51 46
23 50 45
23 50 45
23 50 45
23 51 46
24 52 46
23 50 45
23 50 45
23 49 44
23 49 44
22 49 44
23 50 45
23 49 45
24 51 46
23 51 46
23 51 46
22 49 44
23 50 45
23 51 46
23 50 45
23 51 46
23 50 45
23 51 46
23 50 45
23 51 46
23 49 44
23 50 45
23 50 45
23 51 46
24 52 46
23 50 45
23 51 46
23 50 45
23 50 45
23 50 45
23 50 45
23 50 45
23 50 45
23 50 45
23 51 46
23 50 45
23 50 45
23 50 45
23 50 45
23 50 45
23 51 46
23 50 45
23 50 45
22 48 44
23 50 45
22 49 44
23 49 44
23 51 46
23 49 45
22 49 44
23 49 45
22 49 44
22 48 44
22 48 44
21 46 42
22 48 43
21 47 43
22 49 44
21 47 43
21 47 43
21 47 42
21 46 42
22 48 43
22 48 43
22 49 44
21 47 43
22 49 44
22 48 43
22 48 43
22 49 44
23 49 45
22 48 44
28 51 47
141 132 123
198 181 170
208 189 177
224 203 187
244 219 198
170 146 131
22 49 44
23 50 45
23 49 45
22 48 43
23 50 45
23 50 45
23 50 45
22 48 44
23 50 45
23 49 45
22 48 43
23 50 45
23 50 45
30 50 49
68 56 80
90 64 99
102 74 108
123 98 119
69 59 78
25 49 46
23 49 44
23 50 45
22 49 44
22 49 44
22 49 44
23 49 45
23 51 46
23 49 45
22 48 44
22 49 44
23 49 45
23 51 46
22 49 44
23 50 46
135 77 53
188 136 116
194 176 160
161 148 135
65 72 65
23 51 46
23 50 45
23 49 44
23 50 45
23 49 44
23 51 46
23 51 46
23 50 45
23 50 45
23 50 45
22 48 44
23 50 45
23 50 45
23 50 45
23 50 45
23 51 46
27 49 45
30 48 46
27 50 46
24 51 46
23 50 45
23 51 46
24 52 47
23 50 45
23 50 45
23 51 46
22 49 44
23 51 46
23 51 46
23 49 45
23 51 46
23 51 46
23 50 45
23 50 46
23 50 45
23 50 45
22 49 44
23 51 46
23 49 44
23 50 45
22 49 44
23 49 45
23 50 45
23 50 45
23 50 45
23 49 45
23 50 45
23 50 45
23 50 45
23 50 45
23 50 45
23 50 45
23 50 45
23 51 46
21 47 42
21 47 43
22 48 43
21 47 42
21 46 42
22 48 44
21 47 43
22 48 43
21 47 43
22 49 44
21 47 43
22 47 43
22 49 44
22 48 44
22 48 44
22 49 45
22 48 43
21 47 42
22 48 43
21 47 43
108 105 99
170 158 151
179 166 157
189 174 163
200 183 170
226 204 186
225 194 175
123 65 54
23 49 45
22 48 43
22 48 44
22 49 44
23 49 45
22 49 45
23 51 46
23 50 45
22 49 45
23 49 45
22 48 44
25 50 46
67 51 78
79 54 91
81 55 93
87 61 97
121 97 117
104 75 108
69 56 77
23 50 45
22 49 44
23 50 45
23 49 45
23 50 45
23 50 45
22 49 44
23 50 45
23 50 45
23 50 45
23 50 46
23 49 45
28 51 46
172 89 57
218 108 66
206 179 165
221 202 186
227 206 189
207 186 170
86 87 79
23 50 45
23 51 46
23 50 45
23 50 45
23 50 45
23 50 45
23 50 45
23 50 45
23 50 45
22 49 44
23 50 46
23 50 45
23 50 45
29 51 47
34 42 44
62 61 58
127 119 105
181 165 152
179 163 150
62 71 64
23 51 46
23 50 45
23 51 46
23 51 46
23 50 45
23 50 45
23 50 45
23 49 44
23 51 46
23 49 45
23 50 45
24 51 46
23 50 45
23 50 45
23 51 46
23 50 45
24 52 47
22 49 44
23 49 44
23 50 45
23 50 45
23 49 44
23 49 45
23 51 46
23 51 46
23 50 45
22 49 44
23 50 45
23 50 45
22 49 45
23 50 45
22 49 44
23 51 46
21 46 42
22 47 43
22 48 43
22 48 44
21 47 43
22 47 43
22 48 43
22 48 44
22 48 44
22 48 43
22 48 43
22 49 44
22 48 44
22 48 44
22 48 43
22 48 43
22 49 44
22 49 44
22 47 43
35 48 43
139 122 114
153 142 135
161 149 141
164 151 143
172 157 146
184 166 154
188 156 141
158 106 93
22 48 44
22 49 44
22 49 44
22 48 43
23 49 45
22 49 45
22 49 44
22 48 44
22 49 45
22 49 44
22 48 44
45 46 57
66 45 76
83 66 89
125 111 117
147 134 133
144 128 130
118 97 111
86 58 91
45 57 55
22 48 43
23 50 45
23 50 45
22 49 44
23 50 45
22 49 44
24 51 46
23 50 45
23 49 45
23 50 45
23 50 45
109 66 48
185 91 55
192 95 58
182 157 147
184 170 160
191 174 162
198 179 165
165 149 135
29 53 47
23 50 45
22 49 44
24 51 46
22 49 44
23 51 46
23 50 45
23 51 46
22 49 44
23 50 45
23 50 45
23 50 45
60 69 63
65 63 61
32 35 39
32 35 39
139 128 121
193 177 166
197 180 168
167 153 141
32 55 50
23 49 45
23 49 44
23 50 45
23 50 45
23 51 46
23 50 45
23 49 45
23 51 46
23 49 45
23 50 45
23 49 45
23 50 45
23 50 45
23 50 45
24 51 46
23 50 45
22 49 44
23 50 45
23 50 45
23 50 45
23 50 45
23 51 46
24 51 46
22 48 44
23 50 45
23 51 46
23 50 45
23 49 44
23 49 45
22 48 44
22 48 44
22 49 44
22 48 43
21 47 43
21 47 43
22 47 43
22 48 43
22 48 43
22 48 44
22 48 43
21 47 43
22 47 43
22 49 44
22 48 44
22 47 43
22 48 43
22 49 45
22 48 44
22 48 43
22 49 44
22 49 44
35 48 43
131 92 83
139 128 120
142 132 123
142 131 123
136 126 118
137 121 112
150 82 71
135 106 93
27 49 44
22 47 43
22 49 44
22 48 43
22 49 44
22 49 44
22 49 44
22 49 44
22 49 44
23 50 45
22 49 45
44 41 55
81 67 80
143 132 125
152 141 133
150 139 131
155 143 135
155 141 131
121 102 104
73 72 69
23 50 45
22 48 44
22 49 44
23 50 45
23 51 46
23 49 45
23 50 45
22 49 44
22 49 44
23 50 45
22 48 44
127 70 49
160 79 48
167 83 51
165 117 101
159 148 140
159 147 140
154 142 133
158 141 129
59 68 62
23 50 45
22 49 44
23 50 46
23 49 44
23 50 45
23 49 45
23 50 45
24 52 47
23 50 45
23 50 45
23 50 45
99 96 89
41 41 43
60 58 57
31 33 37
142 132 126
164 152 144
167 154 146
164 150 141
87 88 81
23 49 45
23 50 45
23 50 45
22 48 44
23 51 46
23 50 45
23 51 46
23 50 45
23 50 45
22 49 44
23 50 45
23 50 45
23 50 45
22 49 44
23 50 45
23 49 45
23 51 46
23 49 45
23 50 45
23 50 46
23 50 45
23 50 45
23 50 45
23 50 45
22 49 45
23 50 45
23 49 45
23 50 45
23 50 45
23 49 45
22 49 44
23 50 45
22 48 43
21 47 43
22 48 43
22 48 44
21 47 43
21 47 43
22 48 44
22 48 43
22 48 43
21 47 43
22 48 43
21 46 42
21 47 43
22 49 44
22 48 44
22 48 44
21 47 42
21 47 43
22 48 43
29 48 44
96 41 32
109 65 58
110 88 80
118 97 89
109 78 70
105 44 35
111 38 27
90 66 56
21 47 42
23 50 45
22 49 44
22 48 44
22 49 44
22 48 43
22 49 44
22 48 44
22 48 43
22 48 43
22 48 44
38 40 48
108 99 93
122 113 104
120 112 103
129 119 111
119 110 102
116 105 96
115 104 96
53 59 57
22 49 44
23 50 45
22 49 44
22 49 44
23 49 45
22 49 44
22 49 44
22 49 44
23 49 45
22 49 44
23 49 44
121 74 57
144 71 43
144 71 43
149 77 51
136 118 108
130 121 113
129 120 111
123 113 105
60 69 63
22 49 44
22 48 43
23 51 46
23 51 46
22 49 44
22 49 44
23 49 44
23 50 45
23 51 46
23 50 45
22 49 44
76 76 70
108 100 94
132 122 115
67 63 60
139 129 121
141 130 122
148 137 129
132 122 114
95 94 87
23 50 45
22 49 44
22 49 44
23 50 45
22 49 44
23 50 45
23 49 45
23 50 45
23 49 45
23 49 45
23 50 45
23 50 45
22 48 44
22 48 44
23 49 45
23 50 45
23 50 45
23 49 45
23 49 45
23 49 45
22 49 45
22 49 44
22 49 44
23 50 45
23 50 45
23 50 45
23 50 45
22 48 44
23 50 45
23 50 45
22 48 44
23 49 45
22 48 44
21 46 42
22 49 45
21 47 43
22 48 43
22 48 43
22 48 43
21 47 42
21 47 43
21 47 43
21 47 43
22 48 44
22 48 44
21 47 42
22 48 44
22 47 43
22 48 44
22 48 44
22 47 43
21 46 42
56 39 33
67 24 16
70 25 17
65 23 16
69 25 17
80 28 19
66 23 15
44 44 39
22 48 43
22 48 44
22 48 44
22 48 43
22 48 43
22 49 44
22 47 43
22 49 44
22 49 44
22 49 44
22 48 44
28 43 43
81 75 69
82 78 70
84 79 72
91 85 77
89 83 75
88 83 75
82 75 67
27 48 45
22 48 43
22 48 43
22 48 43
22 49 44
22 48 43
22 49 44
23 50 45
22 49 44
23 50 45
22 48 44
22 49 44
77 66 57
112 56 33
117 58 34
113 56 33
116 71 55
102 89 79
108 100 92
96 89 80
33 53 48
22 49 44
22 48 44
23 49 44
23 49 44
23 49 45
22 49 44
23 49 45
22 49 44
23 50 45
23 50 45
23 50 45
71 71 65
84 77 70
90 84 77
86 80 74
108 100 92
117 109 101
115 107 98
122 113 104
64 69 63
23 50 45
23 51 46
22 49 44
22 48 43
23 50 45
23 50 45
22 49 44
22 49 44
23 49 45
23 49 45
23 50 45
23 50 45
23 50 45
23 50 45
23 50 45
23 50 45
23 50 45
22 49 44
23 49 45
22 49 44
22 49 44
23 50 45
23 50 45
22 49 45
23 50 45
23 50 45
22 48 43
23 50 45
22 48 44
22 48 44
23 49 45
22 49 44
22 48 43
21 47 43
22 48 43
21 47 42
22 47 43
22 48 44
22 48 44
22 48 43
21 47 43
21 47 43
22 48 44
22 47 43
21 46 42
22 48 44
22 48 44
21 46 42
22 48 43
21 47 42
21 47 42
21 45 41
21 45 40
35 28 24
18 10 7
13 9 5
16 9 5
28 13 8
34 31 26
21 46 41
21 46 42
21 46 42
21 46 41
22 48 43
22 48 43
22 48 43
22 47 43
22 47 42
22 48 43
22 48 43
22 47 42
21 46 42
43 50 44
37 40 34
37 41 35
35 40 34
42 46 39
41 44 35
49 55 48
22 48 43
22 48 43
23 49 44
23 49 44
22 48 44
22 48 43
22 48 44
22 48 44
23 49 44
22 49 44
23 50 45
22 48 43
46 57 51
69 44 32
64 33 19
81 41 24
71 37 21
73 43 30
64 50 42
47 48 40
22 48 43
22 47 42
22 48 44
23 50 45
22 48 43
23 49 44
22 48 44
23 50 45
22 48 43
22 49 44
23 50 45
23 49 44
44 56 50
54 52 47
69 65 59
45 43 39
72 68 62
93 87 79
79 75 67
89 84 76
41 58 52
23 49 45
22 49 44
23 49 45
23 49 45
22 48 44
23 49 45
22 49 44
23 51 46
22 49 44
23 49 45
23 50 45
22 49 44
22 49 44
23 50 45
23 50 45
22 48 43
23 49 45
23 50 45
22 49 44
22 48 44
22 48 44
23 50 45
23 50 45
22 49 44
22 49 44
22 48 43
22 48 44
22 48 44
22 49 44
22 49 45
22 49 44
23 50 45
22 48 44
22 47 43
21 47 43
21 47 43
22 48 43
21 47 42
22 48 44
21 46 42
21 47 43
22 48 44
22 48 43
21 47 43
21 46 42
22 48 43
21 47 43
21 47 42
20 45 41
18 40 37
16 36 34
15 33 31
13 28 26
10 23 21
10 21 19
8 16 15
8 15 14
12 24 22
17 37 33
20 43 38
21 44 39
21 45 41
22 47 42
21 46 42
22 47 43
22 47 42
21 46 42
22 48 43
21 47 42
21 47 42
19 43 39
17 37 34
14 32 29
10 22 19
9 18 14
9 17 13
11 19 15
19 32 28
19 41 36
21 45 40
21 46 41
21 46 42
22 48 43
22 48 44
22 49 44
23 49 44
23 50 45
22 47 43
21 47 42
22 47 43
22 47 43
21 46 41
22 39 34
13 16 12
13 13 6
13 13 6
14 14 7
18 28 23
22 47 42
22 48 43
22 48 43
22 48 43
23 49 45
22 49 44
23 50 45
22 49 44
22 49 44
22 48 43
22 49 44
21 47 42
22 47 42
22 48 43
24 35 32
5 7 7
3 6 6
23 23 20
35 38 32
35 40 34
41 53 47
22 48 43
22 48 44
22 47 42
22 48 43
22 48 43
22 48 43
23 50 45
22 48 43
22 49 44
22 49 44
22 49 44
23 50 45
22 49 44
23 49 45
23 51 46
23 50 45
22 49 44
22 48 44
22 49 45
22 49 44
22 49 44
23 50 45
24 51 47
22 49 44
22 49 44
22 48 44
22 49 44
22 48 44
22 49 44
22 49 44
23 50 45
22 49 44
22 49 44
21 47 43
21 47 43
21 47 43
22 49 45
21 47 42
21 47 43
21 47 43
22 48 44
21 47 43
22 48 44
22 47 43
21 47 42
21 46 42
21 46 42
21 47 42
21 46 42
20 44 40
18 41 38
17 37 35
17 39 36
17 38 35
17 38 35
18 39 36
18 39 36
19 41 37
21 45 41
21 46 42
21 46 42
21 47 42
22 48 43
22 48 43
22 48 43
21 46 42
21 46 42
21 47 43
22 48 43
21 46 42
18 40 37
15 34 32
14 32 31
13 29 28
13 29 27
11 25 24
12 28 26
14 32 30
17 38 34
21 45 40
21 46 41
21 46 42
22 47 43
22 48 43
22 47 42
22 47 42
21 47 42
21 46 42
22 48 44
21 47 42
20 44 40
17 37 34
13 30 29
11 25 23
9 20 19
9 18 17
8 17 16
9 19 18
12 26 24
18 39 35
21 44 39
21 46 41
22 49 44
22 47 42
22 47 43
22 49 44
22 49 44
22 48 43
22 47 42
22 48 43
21 46 41
20 44 39
18 40 36
15 33 30
8 19 17
4 9 8
2 5 5
5 11 10
11 25 22
17 36 33
21 45 40
21 45 41
22 48 43
22 47 42
23 50 45
22 48 44
23 49 45
22 49 44
23 49 45
23 49 45
23 50 45
22 48 44
22 49 45
22 47 43
22 49 44
23 50 45
23 50 45
23 49 45
23 49 45
22 48 44
23 50 45
22 48 44
22 49 44
23 49 45
22 49 44
22 49 45
22 49 44
23 49 45
22 49 44
23 51 46
22 48 43
23 50 45
22 48 44
21 47 43
21 47 43
21 46 42
21 47 43
21 47 43
21 47 42
21 47 43
22 48 44
22 48 44
21 46 41
21 47 42
21 47 42
22 48 43
21 46 42
21 47 43
21 47 43
22 47 43
21 46 41
22 48 44
21 47 42
21 47 43
21 47 43
21 47 42
21 47 42
21 46 42
22 47 43
22 49 44
22 48 44
22 48 43
21 47 43
22 47 43
22 47 43
21 47 42
22 47 43
22 47 43
22 48 44
22 47 43
21 46 42
21 46 42
21 46 42
21 46 41
21 46 42
21 46 42
21 46 41
21 47 42
22 49 44
22 48 43
22 48 43
22 47 43
21 46 42
22 48 43
22 47 43
22 49 44
22 48 43
22 47 43
22 48 44
21 47 42
21 46 42
20 44 40
19 42 38
18 39 36
17 37 34
17 37 34
17 39 36
18 40 36
20 44 40
21 46 42
21 46 42
22 48 44
22 47 43
21 47 42
22 48 43
22 49 44
22 48 43
22 48 43
22 48 44
22 48 43
22 47 43
21 46 41
18 40 37
14 32 30
13 31 30
11 26 25
12 27 26
12 28 27
13 30 28
15 35 32
19 42 39
21 47 42
22 47 42
23 49 45
21 47 42
22 47 42
22 48 43
23 49 45
22 48 44
22 49 44
22 49 44
22 48 44
22 48 43
23 50 45
22 49 44
22 49 44
22 49 44
23 50 45
22 49 44
23 50 45
23 50 45
22 49 44
22 49 44
22 48 44
22 49 44
22 49 44
22 48 44
22 49 44
23 50 46
22 49 44
22 48 44
22 49 45
23 50 45
21 47 43
21 47 43
21 47 43
21 47 43
21 47 43
22 48 44
21 47 43
21 46 42
21 46 42
21 46 42
21 47 43
22 49 44
21 47 42
21 47 43
21 47 43
22 48 44
22 48 43
21 47 42
22 48 43
22 48 44
21 47 43
22 48 44
22 48 44
22 48 43
22 48 43
21 46 42
21 46 42
21 46 42
21 47 43
22 47 43
21 47 43
22 48 44
21 47 42
22 47 43
22 49 44
21 47 43
21 47 43
22 47 43
22 47 43
22 48 44
21 46 42
22 48 44
22 47 43
21 47 43
22 48 44
22 47 43
22 47 43
22 48 44
22 48 44
22 47 43
22 49 44
22 48 43
22 47 43
22 48 43
21 47 42
21 47 42
22 48 44
22 48 44
22 47 43
22 47 43
22 47 43
22 48 43
21 47 42
22 49 44
22 48 43
22 48 43
22 49 44
22 47 43
22 49 44
22 48 43
22 47 43
22 48 44
22 49 44
22 48 44
22 49 44
22 48 43
22 48 43
22 48 43
22 48 43
21 47 43
22 47 43
22 48 44
21 45 41
20 45 41
21 47 42
21 46 42
22 48 44
22 49 44
22 48 44
22 49 44
22 49 44
22 48 43
21 47 42
22 48 43
22 47 43
22 49 44
22 48 43
22 49 44
22 48 44
22 49 44
23 50 46
23 49 45
22 48 43
22 48 43
23 49 45
22 49 44
22 49 44
22 48 44
22 48 43
22 48 43
22 49 45
22 49 45
22 48 44
22 48 44
22 49 44
22 48 43
22 48 43
22 49 44
22 48 44
22 49 45
21 47 43
22 48 44
21 47 43
21 46 42
20 45 41
21 47 42
21 47 43
21 47 43
22 48 43
21 46 42
21 47 43
21 46 42
21 46 42
21 47 43
21 46 42
21 47 43
22 48 44
22 48 43
22 48 44
22 48 43
22 47 43
21 47 43
21 47 42
22 48 43
21 47 43
21 47 43
21 47 43
22 48 43
22 48 44
21 47 43
22 49 44
21 47 42
22 47 43
21 46 42
21 47 42
22 48 43
22 47 43
21 47 43
22 49 44
22 48 43
22 48 44
22 48 43
21 47 43
22 47 43
22 47 43
22 49 44
23 50 46
22 49 45
22 49 45
23 50 45
22 48 44
21 47 42
22 48 44
22 48 43
22 47 43
22 48 44
22 49 44
22 48 44
22 47 43
22 48 43
21 47 43
22 48 43
22 48 44
22 48 44
23 49 45
22 48 44
22 48 44
22 48 44
22 48 44
22 48 43
21 47 42
22 49 45
22 48 44
22 48 43
22 48 44
22 48 44
22 48 43
22 49 44
22 48 44
22 48 43
22 47 43
22 48 43
22 48 44
22 49 44
22 48 44
22 49 44
21 47 42
22 48 43
22 48 43
22 48 44
22 48 44
22 47 43
22 49 44
22 49 44
22 48 44
22 49 45
22 48 44
22 48 44
22 49 44
22 49 44
22 49 44
22 48 43
22 49 44
22 48 44
22 48 44
21 47 43
23 50 45
22 49 45
22 47 43
22 48 43
22 48 44
22 48 43
22 49 44
22 49 44
22 49 45
22 49 44
22 49 44
22 49 44
23 50 45
22 48 44
22 48 44
21 46 42
22 48 43
21 46 42
21 47 43
21 46 42
21 47 43
22 48 43
21 46 42
21 47 43
21 47 43
21 46 42
21 46 42
22 48 43
21 46 42
22 48 44
22 48 44
22 47 43
21 47 42
21 47 43
21 47 43
21 47 43
21 46 42
21 46 42
22 47 43
21 47 43
21 47 43
21 47 43
21 46 42
22 47 43
21 46 42
22 48 43
22 48 44
22 48 44
21 47 42
21 47 43
22 47 43
21 47 42
22 48 44
22 48 44
22 48 43
22 48 44
22 47 43
22 49 44
22 48 44
22 48 44
22 48 43
21 47 42
22 49 45
22 48 43
22 48 43
22 49 44
22 48 44
21 47 43
22 49 45
22 48 43
21 47 43
21 46 42
21 47 43
22 48 44
22 48 44
22 49 44
22 49 44
22 48 44
22 49 44
22 49 44
22 49 44
22 48 44
22 48 44
22 48 44
23 50 45
22 48 44
22 49 45
22 47 43
22 47 43
23 50 45
22 48 43
22 48 43
23 50 45
22 48 43
22 48 43
22 47 43
22 48 44
22 48 44
23 49 45
22 48 44
22 48 44
22 48 44
22 48 44
22 48 44
22 47 43
22 48 43
22 47 43
22 48 44
22 48 44
22 47 43
22 49 44
22 48 43
22 49 44
21 47 43
22 49 44
22 48 44
22 49 44
22 49 45
22 48 43
22 48 44
22 48 44
22 49 44
21 46 42
21 47 43
22 48 44
22 48 44
22 48 43
22 49 44
22 48 44
22 47 43
22 49 44
22 49 44
22 48 43
22 49 44
21 47 42
21 47 43
21 47 43
21 47 43
21 46 42
21 47 43
21 46 42
22 48 44
22 47 43
21 47 43
21 47 42
22 49 44
21 45 42
21 47 43
21 47 42
21 46 42
21 47 43
22 48 43
21 47 43
21 46 42
21 47 43
21 46 42
22 48 43
22 48 44
22 48 44
22 47 43
21 47 43
21 46 42
22 48 44
22 48 43
21 47 42
22 48 43
22 48 44
21 47 42
22 47 43
22 48 43
21 47 43
22 48 43
21 47 43
22 47 43
22 48 43
21 47 43
21 47 43
22 48 43
21 47 43
22 48 44
22 47 43
22 48 44
22 48 43
22 47 43
22 47 43
22 48 43
21 47 42
22 48 43
22 48 43
22 48 43
22 48 43
22 49 44
22 48 44
22 48 43
21 47 43
21 47 43
22 48 44
22 47 43
22 49 44
22 48 44
22 48 44
22 49 44
22 48 44
22 47 43
21 47 42
22 49 44
22 49 44
22 48 44
22 49 44
22 48 44
21 47 43
22 48 44
21 47 43
22 48 44
21 47 43
22 49 44
22 49 44
22 48 44
21 47 42
22 48 44
22 48 43
22 48 44
22 48 43
22 47 43
22 49 44
22 48 43
22 48 43
22 48 43
22 49 44
22 48 44
22 49 45
22 48 44
22 49 44
22 48 43
22 48 44
22 48 44
22 48 44
22 49 44
22 49 45
22 49 45
22 48 44
22 47 43
22 47 43
22 49 45
22 48 44
21 47 43
22 49 45
22 49 45
22 48 44
22 48 43
22 48 44
22 48 43
22 49 44
22 48 43
21 46 42
21 46 42
20 45 41
22 48 44
21 47 43
21 47 43
22 48 44
21 46 42
21 46 42
21 46 42
21 47 43
21 47 43
21 46 42
21 46 42
22 48 44
21 47 43
21 47 43
21 47 43
22 48 44
21 47 42
21 47 43
22 48 43
22 48 43
22 48 44
21 46 42
22 48 43
22 48 43
21 47 43
22 48 44
22 48 44
22 48 43
21 46 42
21 47 43
21 47 42
22 48 44
22 48 43
21 46 42
21 47 43
21 47 43
21 47 42
22 48 44
22 48 44
21 46 42
21 47 43
22 48 44
22 48 43
22 49 44
21 46 42
21 47 43
22 48 43
22 49 44
22 47 43
22 48 44
22 49 44
21 47 42
21 47 43
22 47 43
22 47 43
21 46 42
21 47 43
21 47 42
22 48 44
22 49 44
22 49 44
22 49 44
22 48 43
22 48 43
21 47 43
22 48 44
22 48 44
22 48 44
22 48 44
21 47 43
22 48 44
22 49 44
22 48 43
22 48 44
22 48 44
22 48 44
22 48 43
22 47 43
21 47 43
22 49 44
23 50 46
21 47 43
21 47 43
21 47 43
22 47 43
22 49 44
21 47 43
21 47 42
21 47 43
22 48 43
22 48 44
22 48 43
21 46 42
22 48 44
22 48 44
22 48 44
22 48 43
22 48 44
22 48 43
22 49 44
22 48 43
22 48 44
22 48 44
21 46 42
22 48 44
22 48 44
22 48 43
22 48 43
21 47 42
22 48 44
22 48 44
22 49 44
21 46 42
22 49 44
22 49 45
21 47 43
22 48 44
20 45 41
21 47 43
21 47 43
21 45 41
21 46 42
21 46 42
20 44 41
21 47 43
21 47 43
21 47 43
22 47 43
22 47 43
21 46 42
21 47 43
21 47 43
21 46 42
21 47 43
21 47 43
22 48 43
22 48 44
21 47 43
21 47 43
22 48 43
21 47 43
22 47 43
21 47 43
21 46 42
22 47 43
21 47 43
21 47 43
21 46 42
22 48 44
21 47 43
21 47 42
22 48 43
22 48 44
22 48 43
21 46 42
21 46 42
21 46 41
21 47 43
21 47 42
22 47 43
22 48 44
21 46 42
22 48 44
22 48 44
22 48 44
22 48 44
22 48 43
21 47 43
21 47 43
22 48 43
22 48 43
22 47 43
22 47 43
22 47 43
22 48 44
22 49 45
21 47 43
22 47 43
22 48 44
21 47 43
21 47 43
22 48 44
22 48 43
22 48 44
21 47 42
22 48 43
22 47 43
22 48 44
22 48 44
22 48 43
22 48 43
22 48 43
22 49 44
22 48 44
22 48 44
22 48 44
22 48 43
22 49 44
22 48 44
22 48 43
22 48 44
21 47 43
21 47 42
22 48 43
21 47 43
22 48 43
22 48 43
22 49 44
21 47 43
21 47 43
22 48 44
22 47 43
21 47 43
22 48 44
22 47 43
22 48 43
21 47 43
22 47 43
22 48 44
22 48 44
22 48 43
22 48 43
21 47 43
21 47 43
22 48 43
22 48 44
22 47 43
22 48 43
22 48 43
21 47 42
22 48 43
22 48 43
22 48 44
21 47 43
21 47 43
22 49 44
22 48 44
21 46 42
21 47 43
21 46 42
21 46 42
21 46 42
21 47 43
21 46 42
21 46 42
21 47 43
21 46 42
21 47 43
21 47 43
21 46 42
21 47 43
21 47 43
21 47 42
21 47 43
21 47 43
21 46 42
21 47 43
21 47 42
21 47 43
21 47 43
21 46 42
21 47 43
21 46 42
21 46 42
22 47 43
21 47 43
21 46 42
21 46 42
21 47 43
21 47 43
21 47 43
21 47 43
22 47 43
22 48 44
21 47 42
21 47 43
22 48 43
21 47 42
21 47 43
22 48 44
21 47 43
21 47 43
21 46 42
22 47 43
22 48 44
21 46 42
21 47 43
21 47 42
21 46 42
22 48 44
21 47 43
22 48 44
22 49 45
21 47 43
21 46 42
21 46 42
22 48 43
22 48 44
21 47 43
22 47 43
22 48 44
22 48 44
22 47 43
21 47 43
22 48 44
22 48 44
22 47 43
22 48 43
22 48 43
22 49 45
21 47 43
21 47 43
22 48 43
21 47 42
22 48 43
22 49 44
22 48 43
21 47 43
21 46 41
22 48 43
22 48 44
22 48 44
21 47 42
22 47 43
22 48 44
21 47 42
21 47 43
22 47 43
22 48 43
21 47 43
22 48 43
22 48 43
22 48 44
22 48 43
21 47 43
21 47 42
22 48 44
22 49 44
21 47 43
22 48 43
21 47 42
21 47 43
21 47 43
21 47 43
22 48 43
22 48 43
22 48 44
22 48 44
21 47 42
22 47 43
22 48 44
22 48 43
21 47 43
22 49 44
21 47 43
21 47 43
22 48 44
20 45 41
21 45 42
21 47 43
21 46 42
21 47 43
21 46 42
21 47 43
21 46 42
21 47 43
22 48 44
21 46 42
21 47 43
21 47 43
21 47 43
21 47 43
21 46 42
21 47 43
22 48 44
21 46 42
22 48 44
21 47 43
21 47 43
22 48 44
21 47 43
21 47 43
21 47 42
21 47 43
21 46 42
22 48 43
21 47 43
21 47 43
22 48 43
21 47 43
21 47 43
21 47 43
21 47 43
22 48 44
21 47 43
21 47 43
22 49 45
21 47 43
21 47 42
21 47 43
21 47 43
21 47 43
21 47 43
21 47 43
21 47 43
21 46 42
21 47 43
22 48 44
22 47 43
21 47 42
21 47 43
22 48 44
21 47 42
22 47 43
21 47 43
22 48 44
21 47 42
22 48 44
22 48 44
22 48 44
21 47 43
22 48 44
21 47 43
22 48 44
21 46 42
22 48 43
22 48 44
21 47 42
21 47 43
22 48 44
22 47 43
22 48 44
22 48 43
22 48 44
22 49 44
21 47 42
22 48 43
22 48 43
22 48 43
21 46 41
22 48 44
22 49 44
21 47 43
21 47 42
21 47 43
22 48 44
21 47 43
22 48 44
22 49 44
22 47 43
22 48 43
22 48 44
22 48 44
21 47 42
22 48 43
21 47 43
21 47 43
21 47 42
22 48 43
22 48 44
22 47 43
21 46 42
22 48 44
22 48 43
21 47 43
22 48 43
21 47 43
22 48 44
22 47 43
22 48 43
21 47 43
22 48 44
21 47 43
21 47 43
21 47 43
22 48 44
22 48 43
21 47 43
20 45 41
21 46 42
21 47 43
21 47 43
21 47 43
21 47 43
21 46 42
21 46 42
21 47 43
21 46 42
21 47 43
21 46 42
21 47 43
21 47 43
21 46 42
22 48 44
21 46 42
21 47 43
21 46 41
21 47 42
21 46 42
21 46 42
22 48 44
21 46 42
21 46 42
21 47 43
21 46 42
21 46 42
22 48 44
21 46 42
21 47 43
21 46 42
21 46 42
21 47 43
21 46 42
22 48 43
21 47 43
22 48 44
21 47 42
22 49 44
22 47 43
21 47 42
21 47 43
22 48 43
21 46 42
21 46 42
21 47 43
21 47 43
21 47 43
22 48 44
21 46 42
21 46 42
21 47 43
21 46 42
22 47 43
21 47 43
21 47 43
22 48 44
21 47 43
22 49 44
22 48 44
21 46 42
21 47 43
22 48 43
22 48 43
22 48 43
21 47 43
21 47 43
22 49 44
22 48 43
21 47 43
21 47 43
21 46 42
21 47 42
21 47 42
21 47 43
22 48 44
21 47 43
22 48 44
21 47 43
21 47 42
22 48 44
22 48 44
21 47 43
22 48 43
21 47 43
22 48 43
21 47 43
21 47 43
21 47 42
21 47 42
21 47 43
21 47 43
22 48 43
22 48 44
22 48 44
22 48 44
21 46 42
21 47 43
22 48 43
21 47 43
21 46 42
22 47 43
22 48 43
22 48 44
22 48 43
22 48 44
21 47 43
22 48 43
22 48 44
21 47 43
21 47 43
21 47 43
21 46 42
22 48 43
21 46 41
22 48 43
21 46 42
22 48 43
20 45 41
21 47 43
21 46 42
20 45 41
21 45 41
21 46 42
21 46 42
21 46 42
22 48 44
21 46 42
21 47 43
21 46 42
21 47 43
21 46 42
21 46 42
21 47 43
21 47 43
21 47 43
21 47 43
21 46 42
20 45 41
21 47 43
21 46 42
21 46 42
21 46 42
21 47 43
22 48 43
21 47 43
21 47 42
21 46 42
21 46 42
21 47 43
21 47 42
21 46 42
21 46 42
22 49 45
22 48 43
22 48 43
21 46 42
21 46 41
22 48 44
22 48 44
21 47 43
22 48 43
21 46 42
22 48 43
22 48 44
21 47 43
21 47 43
22 48 43
21 47 43
21 47 43
21 47 43
22 49 44
22 48 44
21 47 43
22 48 44
21 46 42
21 47 43
21 47 43
22 48 44
21 46 42
21 47 43
22 48 44
22 48 44
22 47 43
22 48 44
21 47 42
22 48 44
22 48 44
21 47 43
22 47 43
22 48 44
21 47 43
21 47 43
21 47 43
21 47 43
21 47 42
21 47 43
21 47 43
21 46 42
22 48 43
21 47 43
21 46 42
22 48 44
21 46 42
21 47 43
21 47 43
21 47 43
21 46 42
22 47 43
22 49 44
21 47 43
21 46 42
21 46 42
21 47 43
21 46 42
22 48 44
21 47 43
21 47 43
22 48 44
21 47 43
21 46 42
21 47 43
22 48 44
21 47 43
22 48 44
22 48 44
21 47 43
21 47 43
22 48 43
21 47 43
21 47 43
21 47 43
21 46 42
21 46 42
21 47 43
21 47 43
21 47 43
21 46 42
21 46 42
20 45 41
21 46 42
21 47 43
21 46 42
21 46 42
20 45 41
21 47 43
21 46 42
21 47 43
21 46 42
20 45 41
21 46 42
22 48 43
20 45 41
21 47 43
21 46 42
21 47 43
21 47 43
21 47 43
20 45 41
21 47 43
21 46 42
21 46 42
21 47 43
21 47 43
21 46 42
21 47 43
21 46 42
21 47 43
21 46 42
21 47 43
21 46 42
21 46 42
21 46 42
21 47 43
21 47 43
21 46 42
21 47 43
21 46 42
21 46 42
21 46 42
21 47 43
22 49 44
21 47 43
21 47 43
21 47 43
21 46 42
21 46 42
21 47 43
21 46 42
22 48 44
21 47 43
21 47 43
21 47 43
21 47 43
22 48 44
22 47 43
22 48 43
21 46 42
22 49 44
21 46 42
21 46 42
22 48 44
22 48 44
21 47 43
21 46 42
22 48 44
21 46 42
21 46 42
21 47 43
21 47 43
21 47 43
22 48 44
22 48 44
21 46 42
21 46 42
21 47 43
21 47 43
22 48 43
21 47 43
21 47 43
21 47 42
22 49 44
22 48 44
21 47 43
22 48 43
21 47 43
21 47 43
22 48 43
21 47 42
22 48 43
21 47 43
21 47 43
21 47 42
22 48 44
22 48 43
21 47 43
22 48 43
22 48 43
22 48 44
22 48 43
21 47 43
22 47 43
21 47 43
22 48 44
22 48 44
22 48 44
21 47 42
21 46 42
21 46 42
21 47 43
21 47 43
21 47 43
22 47 43
21 46 42
21 47 42
21 47 43
21 47 43
22 48 43
20 45 41
21 45 42
21 47 43
20 44 40
21 47 43
21 46 42
21 46 42
21 45 42
21 46 42
21 46 42
21 46 42
21 46 42
21 47 43
21 47 43
21 46 42
22 48 44
21 46 42
21 45 41
21 47 43
21 46 42
22 48 43
21 47 43
21 46 42
21 47 43
21 47 43
21 47 42
21 46 42
21 46 42
22 48 43
21 46 42
21 47 43
21 46 42
21 46 42
21 46 42
21 46 42
21 47 42
21 46 42
21 46 42
21 47 43
22 48 43
21 46 42
21 47 43
21 47 42
21 46 42
22 47 43
22 47 43
21 46 42
21 47 43
21 45 41
21 46 42
21 47 42
21 47 43
21 46 42
22 48 44
21 47 43
21 46 42
22 47 43
22 47 43
21 47 43
22 47 43
21 47 42
21 47 43
21 47 43
21 46 42
21 47 43
21 45 41
21 47 43
22 48 43
22 47 43
21 46 42
21 46 42
21 47 43
21 47 43
21 47 43
21 47 42
21 46 42
21 46 42
21 46 42
22 48 44
21 47 42
22 48 43
21 46 42
21 47 43
21 46 42
21 46 42
21 46 42
21 47 42
22 48 44
21 47 43
21 46 42
21 46 42
21 47 43
22 48 44
21 46 42
21 47 43
22 48 44
22 48 44
22 48 44
21 47 43
22 49 45
21 47 42
22 48 44
21 46 42
21 47 43
21 46 42
21 46 42
21 46 42
21 47 43
21 47 43
21 47 43
22 48 44
22 48 44
21 47 43
21 46 42
22 48 43
21 47 43
21 47 43
21 47 43
21 47 43
21 47 42
22 48 44
21 46 42
21 46 42
21 47 43
21 47 43
21 46 42
21 46 42
21 45 42
21 46 42
21 46 42
21 46 42
21 46 42
21 47 43
21 47 43
21 47 43
22 47 43
20 45 41
21 46 42
21 45 42
21 46 42
21 45 41
21 46 42
21 46 42
21 46 42
21 46 42
21 47 42
21 46 42
21 47 43
21 46 42
20 45 41
21 46 42
20 45 41
21 46 42
21 46 42
21 45 41
21 47 43
21 46 42
22 48 43
21 46 42
21 46 42
21 46 42
21 47 43
22 47 43
21 47 43
21 46 42
22 47 43
21 47 43
21 47 43
21 46 42
22 48 44
21 46 42
21 46 42
21 46 42
22 48 43
21 47 43
21 47 43
21 46 42
21 46 42
21 46 42
21 47 43
21 47 43
22 48 43
21 46 42
21 47 42
21 47 43
21 46 42
22 48 44
22 47 43
22 48 44
21 46 42
21 46 42
22 48 44
21 47 43
22 47 43
21 47 43
21 46 42
21 46 42
22 47 43
22 48 43
22 48 44
21 47 43
21 47 42
22 47 43
22 47 43
21 47 42
22 47 43
22 47 43
21 47 43
22 48 43
21 46 42
21 47 43
22 48 43
21 46 42
21 47 43
22 48 43
21 47 43
21 47 43
22 49 44
22 47 43
22 48 43
21 47 43
22 47 43
21 47 42
21 47 43
21 47 43
21 47 42
22 48 44
21 46 42
21 47 43
21 47 43
21 46 42
21 47 43
21 47 43
21 47 43
21 46 42
21 46 42
21 47 43
21 47 43
21 47 43
21 46 42
21 46 42
21 47 43
21 45 41
21 47 43
21 46 42
21 46 42
21 46 42
21 46 42
21 46 42
20 45 41
21 46 42
21 45 41
21 46 42
21 47 43
21 46 42
21 47 43
21 47 43
21 45 42
21 46 42
21 47 43
20 45 41
21 47 43
21 45 42
21 46 42
21 45 42
21 47 43
20 45 41
21 46 42
21 46 42
21 46 42
21 46 42
21 46 42
21 47 43
21 47 43
21 46 42
21 46 42
21 47 43
21 46 42
21 46 42
22 48 44
21 47 43
21 46 42
21 47 43
21 47 43
21 46 42
21 47 43
21 46 42
21 46 42
22 48 43
21 46 42
21 46 42
21 46 42
21 46 42
22 48 44
21 46 42
21 45 41
21 46 42
21 46 42
22 47 43
21 46 42
22 48 44
21 46 42
21 46 42
21 47 43
22 47 43
21 47 43
21 45 42
21 46 42
21 46 42
22 48 44
22 47 43
21 47 42
21 47 43
21 47 42
22 47 43
22 47 43
21 47 42
22 48 43
22 47 43
22 47 43
22 47 43
21 47 42
21 47 42
21 46 42
21 46 42
21 46 42
22 47 43
21 47 43
22 47 43
21 46 42
22 47 43
22 47 43
21 46 42
22 47 43
21 47 43
21 46 42
21 47 43
21 47 43
21 47 43
22 47 43
22 47 43
21 47 43
22 48 43
21 46 42
22 47 43
21 46 42
22 48 44
21 47 42
21 47 43
22 48 43
22 47 43
21 47 43
22 48 43
21 47 43
21 46 42
21 47 43
21 47 43
21 46 42
21 47 42
21 47 43
21 46 42
21 47 43
21 46 42
21 46 42
21 46 42
20 45 42
21 46 42
21 46 42
21 47 42
21 45 42
21 47 43
20 45 41
21 46 42
20 45 41
21 46 42
20 45 41
22 48 43
21 46 42
21 46 42
20 45 41
21 46 42
21 46 42
21 46 42
21 47 42
21 46 42
21 46 42
21 46 42
21 46 42
21 46 42
21 46 42
21 47 43
21 47 43
21 46 42
21 47 43
21 47 43
21 46 42
21 46 42
20 45 41
21 47 43
21 47 43
21 46 42
21 46 42
22 48 44
21 46 42
22 48 44
21 46 42
21 47 43
21 46 42
21 46 42
20 45 41
21 47 43
21 47 43
21 47 43
22 47 43
21 46 42
22 48 43
21 46 42
21 46 42
21 46 42
21 46 42
22 48 44
21 47 43
21 46 42
22 47 43
21 46 42
22 47 43
22 47 43
22 47 43
22 48 43
22 48 43
22 47 43
22 47 43
22 47 43
22 47 43
22 47 43
22 47 43
22 47 42
22 47 43
22 47 43
22 47 43
21 46 42
21 46 42
22 48 44
22 47 43
21 46 42
22 46 42
22 46 42
22 47 43
22 48 44
22 47 43
22 48 44
22 47 43
22 47 43
22 47 43
22 48 44
21 46 42
22 48 43
22 47 43
22 47 43
22 48 43
22 48 44
22 48 43
22 47 43
22 48 44
22 48 44
21 47 43
21 47 43
21 46 42
21 47 43
21 46 42
21 47 43
21 46 42
21 45 41
21 47 43
21 47 43
21 46 42
21 47 42
21 45 42
22 47 43
21 46 42
20 45 42
21 47 43
21 47 43
21 47 43
21 46 42
21 46 42
21 46 42
21 47 43
20 45 41
20 45 42
21 45 42
20 45 41
21 46 42
21 46 42
21 46 43
20 45 41
20 45 41
21 46 42
21 46 42
21 46 42
21 47 43
21 46 42
20 45 41
21 47 43
21 46 42
20 45 41
21 46 42
21 47 43
21 46 42
21 46 42
21 47 43
21 46 42
21 47 43
21 46 42
21 47 43
21 47 43
20 45 41
21 47 43
21 46 42
21 46 42
20 45 41
21 46 42
21 46 42
21 46 42
21 45 42
21 46 42
22 47 43
21 46 42
20 45 41
21 47 43
21 45 41
22 48 44
21 46 42
21 46 42
22 47 43
21 46 42
21 47 43
22 47 43
22 48 44
22 47 43
22 47 43
22 47 43
21 45 41
22 48 43
22 47 43
22 47 42
21 45 41
22 47 43
22 47 43
22 47 43
22 47 43
22 47 42
22 47 43
22 47 42
23 48 43
23 48 43
22 47 43
23 48 43
22 47 43
22 47 42
22 46 42
22 47 42
22 46 42
22 46 42
22 47 43
22 46 42
23 48 44
22 46 42
22 47 43
22 47 43
22 47 43
21 46 42
22 47 43
22 46 42
22 47 43
21 46 42
22 46 42
22 47 43
21 45 41
21 46 42
22 47 43
21 46 42
21 46 42
21 46 42
21 46 42
22 47 43
21 46 42
21 46 42
21 46 42
22 47 43
21 47 43
21 45 41
21 46 42
21 46 42
21 47 43
21 47 43
21 46 42
21 46 42
21 47 43
21 45 41
21 46 42
20 45 41
21 46 42
21 47 43
21 47 43
21 47 43
21 46 42
21 46 42
21 46 42
21 46 42
20 45 41
21 47 43
21 47 43
21 46 42
21 46 42
20 45 41
21 46 42
21 46 42
21 46 42
21 46 42
21 46 42
20 45 41
21 47 43
21 46 42
21 47 43
20 45 41
22 48 44
21 46 42
21 47 43
21 47 43
21 46 42
21 46 42
21 47 43
21 46 42
21 46 42
21 47 43
21 46 42
21 47 43
21 46 42
21 46 43
21 46 42
21 46 42
20 45 41
21 47 42
21 46 42
20 45 41
21 46 42
21 46 42
21 46 42
21 46 42
21 46 42
22 48 44
21 46 42
21 46 42
22 47 43
22 47 43
21 46 42
23 49 44
22 47 43
21 45 41
22 46 42
22 47 43
22 47 43
22 47 43
22 47 42
22 46 42
22 45 41
22 47 42
22 47 43
23 47 43
22 47 42
23 47 43
23 47 43
23 47 43
22 46 42
23 47 43
22 46 42
23 48 43
23 47 43
23 47 42
22 46 42
23 47 43
23 47 43
23 47 43
23 47 43
22 46 42
23 47 43
23 47 43
23 47 43
22 47 42
22 46 41
22 47 43
23 48 44
22 47 42
22 46 42
22 46 42
22 47 43
22 46 42
22 46 42
22 47 42
22 47 43
22 47 43
22 47 43
22 47 43
22 47 43
21 46 42
22 47 43
22 48 43
22 47 43
21 46 42
22 47 43
21 45 41
21 47 43
21 47 43
21 46 42
21 45 41
21 47 43
21 45 41
21 47 42
21 47 43
20 45 41
20 44 41
21 47 43
21 46 42
21 46 42
20 45 41
21 46 42
21 47 43
21 46 42
21 46 42
21 46 42
20 45 41
20 45 41
21 47 43
21 46 42
20 45 41
21 46 42
21 46 42
20 45 41
21 46 42
21 46 42
21 46 42
21 46 42
20 45 41
21 46 43
21 46 42
21 46 42
21 47 43
21 45 42
21 47 43
21 46 42
21 47 43
21 46 42
21 46 42
21 47 43
21 46 42
21 46 42
21 46 42
21 46 42
21 45 41
21 47 43
21 46 43
21 46 42
21 46 42
21 45 41
21 46 42
21 46 42
22 47 43
21 45 41
21 46 42
21 46 42
21 45 41
22 46 42
21 45 41
22 46 42
22 47 43
22 46 42
22 47 43
22 47 42
23 48 44
22 47 43
22 47 43
23 47 43
23 47 43
22 46 42
23 48 43
23 48 44
23 46 42
23 47 43
23 47 43
23 47 43
23 47 43
24 49 44
23 47 43
24 48 43
23 47 43
23 46 42
23 46 42
23 47 43
24 48 43
24 48 44
23 47 43
23 46 42
23 47 43
23 47 43
24 48 43
23 46 42
23 47 43
23 47 43
24 49 44
23 47 43
23 47 43
23 47 42
23 48 44
23 47 43
22 46 42
23 48 43
22 46 42
22 47 43
22 47 43
23 48 43
22 47 43
22 46 42
21 45 41
22 46 42
22 46 42
22 47 43
22 47 43
21 46 42
21 45 41
22 47 43
21 46 42
22 47 43
22 48 44
21 47 43
21 46 42
21 46 42
21 45 41
21 45 41
21 47 42
21 47 43
21 46 42
21 46 42
21 46 42
21 46 42
21 47 43
20 45 41
20 45 41
21 46 42
21 46 42
20 45 41
20 44 41
21 46 42
21 46 42
21 45 41
21 47 43
21 46 42
21 46 42
21 46 42
20 45 41
21 46 42
20 44 40
21 46 42
21 45 42
20 45 41
20 45 42
21 46 42
21 46 42
21 47 43
21 46 42
21 46 42
21 47 43
21 45 42
21 45 42
21 46 42
20 44 41
21 46 42
21 47 43
21 47 43
21 47 43
21 46 42
21 46 42
21 46 42
21 46 42
22 47 43
22 47 43
21 47 43
21 45 41
22 47 43
22 47 43
22 46 42
22 46 42
22 47 43
22 46 42
22 47 43
22 47 43
22 46 42
22 47 42
22 47 43
23 47 43
23 47 43
23 48 44
23 47 43
23 48 44
23 47 43
24 47 43
24 47 43
24 48 43
24 48 44
24 49 44
24 47 43
24 48 43
24 48 44
24 47 43
24 48 43
24 47 42
24 47 43
24 47 43
24 47 43
24 47 43
24 47 43
24 47 43
24 48 43
24 47 43
24 48 44
24 48 43
24 47 43
24 47 43
24 47 43
24 48 43
24 48 43
24 47 43
24 48 44
23 47 43
23 47 43
23 46 42
23 47 43
23 47 43
23 48 44
23 47 42
23 47 43
23 47 43
22 47 43
22 46 42
23 48 44
22 47 43
22 46 42
22 47 43
22 47 43
22 47 43
21 46 42
21 46 42
22 47 43
22 47 43
21 46 42
21 46 43
21 45 41
21 46 42
21 45 41
22 47 43
20 44 40
21 46 42
21 46 42
21 45 42
21 46 42
21 47 43
21 45 42
21 46 42
21 46 42
21 47 43
21 46 42
21 46 42
21 46 42
20 45 42
21 46 42
21 47 43
21 46 42
20 45 41
21 46 42
20 45 41
20 45 41
21 46 42
21 46 42
21 46 42
20 45 41
21 46 42
21 47 43
21 46 42
21 46 42
20 45 41
21 46 42
20 45 41
21 47 43
21 46 42
21 46 42
21 46 42
20 44 41
21 47 43
21 46 42
21 46 42
21 45 41
21 46 42
21 46 42
21 45 41
21 45 41
21 45 41
21 46 42
22 47 43
22 47 43
22 46 42
22 46 42
22 46 42
22 46 42
22 46 42
23 47 43
23 47 43
23 46 42
23 46 42
23 48 44
23 46 42
23 47 42
24 47 43
24 48 44
24 48 43
24 47 43
25 49 45
25 49 45
24 47 43
25 49 44
25 49 44
25 48 44
25 48 43
26 49 44
25 48 44
25 48 43
25 47 43
26 48 44
26 48 44
26 49 44
26 48 43
26 49 44
26 49 44
25 47 43
25 47 43
25 48 43
26 48 44
25 47 43
26 50 45
25 48 44
25 47 42
25 48 43
25 47 43
24 47 43
25 49 44
25 48 44
24 48 43
25 49 45
23 46 42
24 48 44
24 48 44
24 48 44
23 46 42
23 46 42
23 47 43
22 46 42
22 46 42
22 47 43
22 46 42
22 47 43
22 46 42
22 48 43
22 46 42
22 46 42
21 46 42
21 46 42
22 47 43
21 46 42
21 46 42
21 47 43
21 46 42
21 46 42
21 47 43
20 44 41
21 45 42
21 46 42
20 44 41
20 45 41
21 46 42
20 45 41
20 44 40
20 45 41
21 46 42
21 47 43
21 46 42
21 46 42
21 45 42
20 45 41
21 46 42
21 45 42
21 46 42
21 46 42
20 45 41
21 46 42
20 45 41
21 46 42
20 44 40
21 46 42
21 46 42
20 45 42
21 46 42
21 46 42
21 45 42
20 45 41
20 45 41
21 47 43
21 46 42
21 45 42
21 46 42
21 46 42
21 46 42
22 47 43
22 47 43
22 47 43
21 46 42
22 46 42
22 47 43
22 47 43
22 46 42
22 46 42
23 48 44
22 46 42
22 46 42
22 46 42
23 47 43
23 46 42
23 47 43
24 48 44
23 46 42
24 47 43
24 47 43
24 47 43
24 47 43
25 48 43
25 47 43
25 47 42
26 48 44
26 50 45
26 48 44
26 48 44
26 49 44
26 48 44
27 49 44
26 48 44
27 50 45
27 48 43
27 47 43
27 48 44
27 48 44
27 48 44
27 49 44
27 49 45
28 50 46
27 49 44
27 49 45
27 48 44
27 48 43
27 48 43
27 48 44
27 49 45
26 47 43
26 48 44
27 50 45
26 48 44
26 48 44
25 48 44
26 48 44
25 49 44
25 48 44
24 47 42
24 46 42
24 48 44
24 48 44
24 47 43
24 49 44
24 47 43
23 48 43
24 49 44
23 47 43
22 47 42
22 46 42
22 46 42
22 47 43
22 46 42
22 46 42
22 47 43
21 46 42
22 47 43
22 47 43
22 47 43
21 45 41
20 45 41
20 45 41
20 45 41
21 46 42
20 45 41
21 46 42
20 44 41
20 45 42
20 44 40
20 45 41
20 45 41
21 46 42
21 46 42
21 46 42
21 46 42
21 46 42
21 47 43
21 46 42
21 46 42
21 46 42
21 46 42
20 45 41
20 45 41
21 46 42
20 45 41
20 45 42
21 45 41
21 46 42
21 45 42
20 45 41
21 46 42
21 45 41
21 46 42
21 45 41
21 45 41
21 46 42
21 46 42
21 46 42
21 45 41
21 46 42
21 45 41
21 46 42
21 45 41
22 47 42
22 47 43
22 46 42
22 46 42
22 46 42
23 47 43
22 46 42
23 46 42
23 46 42
23 47 43
23 46 42
23 46 42
24 48 44
25 48 44
24 47 43
25 47 43
25 47 43
25 47 43
26 48 44
26 47 43
26 48 44
27 48 44
27 49 45
27 48 44
27 48 44
28 49 44
28 50 46
28 49 45
29 50 45
28 49 44
29 50 45
29 51 46
29 50 46
29 49 44
29 50 45
29 49 44
29 50 45
29 50 45
29 50 46
29 50 45
29 50 45
29 50 45
29 49 45
28 48 44
29 50 45
28 49 44
28 48 44
28 49 44
28 49 45
27 48 44
27 49 45
27 49 44
26 48 43
26 49 44
26 48 43
26 48 43
25 47 42
26 49 44
25 48 44
25 47 43
24 47 43
24 48 43
24 47 43
24 48 44
23 47 43
23 48 43
23 46 42
22 46 42
23 47 43
22 47 42
22 47 43
23 48 43
22 46 42
22 47 43
22 47 43
22 47 43
22 47 43
20 45 41
21 46 42
21 46 42
20 45 41
21 46 42
21 46 42
20 44 41
20 45 41
21 47 43
20 45 41
20 45 41
21 46 42
20 45 41
20 45 41
21 46 43
21 46 42
20 45 42
20 44 41
20 45 41
20 45 42
21 46 42
21 46 42
21 46 42
21 45 42
21 45 42
20 45 41
21 46 42
21 46 42
20 45 41
21 46 42
20 45 41
21 46 42
21 46 42
21 45 41
21 46 42
21 45 42
21 46 42
22 47 43
21 46 42
22 47 43
21 45 42
21 46 42
21 45 41
22 46 42
23 48 44
22 47 43
22 46 42
23 46 42
23 47 43
23 47 43
23 47 43
24 47 43
24 46 42
24 47 43
24 46 42
25 48 44
25 48 44
25 47 43
26 47 42
26 48 43
27 48 43
27 47 43
28 49 45
28 49 44
28 49 45
29 50 45
29 49 44
29 50 45
29 50 45
30 50 46
30 50 45
30 51 46
31 51 46
31 51 46
31 51 46
31 50 45
31 49 44
31 50 45
31 51 46
31 51 46
31 50 45
31 51 46
32 53 47
31 51 46
31 51 46
31 50 45
31 50 45
30 50 46
30 50 45
30 50 45
30 51 46
29 49 45
29 50 45
29 50 45
29 49 44
29 50 45
28 48 44
28 50 45
27 49 45
27 48 44
27 49 45
26 48 44
26 48 44
26 48 44
25 48 44
25 48 44
24 47 43
24 47 43
24 47 43
23 47 43
23 47 43
23 46 42
23 47 43
22 46 42
23 47 43
22 47 43
22 46 42
22 46 42
22 47 43
22 46 42
20 45 41
21 46 42
20 44 41
20 45 41
21 45 42
20 45 42
20 45 41
20 44 41
21 46 42
20 45 41
20 45 41
21 46 43
20 44 41
20 45 42
21 46 42
20 45 41
20 45 41
21 46 42
21 46 42
20 45 41
21 47 43
21 46 42
21 45 42
21 46 42
21 46 42
20 45 41
20 45 41
20 45 41
21 45 41
21 45 42
21 46 42
20 44 40
21 47 43
21 45 41
21 45 41
21 46 42
21 45 42
22 48 44
21 46 42
21 46 42
21 45 41
21 45 41
22 46 42
22 45 41
23 46 42
22 45 42
23 47 43
24 48 44
24 47 43
24 48 44
24 48 43
25 47 43
25 48 43
25 47 43
25 47 43
26 49 44
27 48 44
27 48 44
27 48 44
28 49 44
29 51 46
29 50 45
29 49 45
30 50 45
30 49 44
30 49 44
31 50 45
31 51 46
31 51 46
32 51 46
32 51 46
33 52 47
33 51 46
33 51 46
33 52 46
33 52 47
33 52 47
33 51 46
34 52 47
34 52 47
34 52 47
34 52 46
33 52 46
34 52 47
33 52 47
33 52 47
33 52 47
33 52 47
32 51 46
32 51 46
32 50 45
32 51 45
31 51 46
31 51 46
31 51 46
30 50 45
30 50 45
29 49 44
29 50 45
28 49 44
28 49 44
28 49 44
28 50 45
27 48 44
26 48 43
26 48 44
26 49 44
25 47 43
25 48 43
24 46 42
25 49 44
24 47 42
24 47 43
23 46 42
23 47 43
23 47 43
22 46 42
23 47 43
22 47 42
22 45 41
21 46 42
20 44 41
21 46 42
21 46 42
20 45 41
20 45 41
20 45 41
21 46 42
21 47 43
21 46 42
20 45 41
20 44 41
21 45 42
20 45 41
21 46 42
20 45 41
21 46 42
20 44 40
21 46 42
21 46 42
21 46 42
21 46 42
20 45 41
20 44 41
21 46 42
21 45 41
20 44 41
20 45 41
21 45 41
20 45 41
21 46 42
21 45 41
21 46 42
21 45 41
21 45 42
22 47 43
22 46 42
22 46 42
21 45 41
22 46 42
22 45 41
22 46 42
23 46 42
23 46 42
23 46 42
23 46 42
24 46 42
24 47 43
25 47 43
24 46 42
26 48 44
26 48 44
26 47 43
27 49 44
27 48 44
28 49 44
28 50 45
29 50 45
29 49 44
30 50 45
30 49 45
31 50 45
31 50 45
31 50 45
32 51 46
33 51 46
33 51 46
33 52 47
34 52 47
34 52 47
35 52 47
35 52 47
35 53 48
36 53 48
36 53 47
36 53 48
36 53 48
36 53 48
36 53 47
37 54 48
36 53 48
37 54 48
36 53 48
36 53 48
36 53 47
36 53 48
36 53 48
36 53 48
35 53 48
35 52 47
34 52 47
34 52 47
34 52 47
33 51 46
33 52 47
33 52 47
32 52 47
31 50 45
31 50 45
30 50 45
30 49 44
30 50 45
29 49 44
29 51 47
28 49 44
28 49 45
27 48 44
26 48 44
26 48 44
26 48 44
26 49 45
24 46 42
24 47 43
25 48 44
23 46 42
24 48 44
24 49 44
22 45 41
23 47 43
22 46 42
20 44 40
20 45 42
21 46 42
20 45 41
21 46 42
21 46 42
20 45 42
20 45 41
20 45 41
21 46 42
20 45 41
20 45 41
21 46 42
20 45 42
20 44 40
20 45 41
20 44 41
21 45 42
21 46 42
21 45 42
20 45 42
21 46 42
21 46 42
20 45 41
20 45 41
21 46 42
21 45 42
21 46 42
21 45 42
21 46 42
21 45 41
21 45 41
21 44 41
21 46 42
22 46 42
22 46 42
22 46 42
22 46 42
22 45 42
23 47 43
23 46 42
23 46 42
23 46 42
24 47 43
24 46 42
25 49 44
25 48 44
25 47 43
25 47 43
26 48 43
27 49 44
27 48 44
27 48 44
27 47 42
29 49 45
29 50 45
30 50 45
30 50 45
31 50 45
32 51 46
32 51 46
32 51 46
34 52 47
34 51 46
34 52 46
35 52 46
35 53 47
36 53 48
37 54 48
37 53 48
37 54 48
38 53 48
38 54 48
38 55 49
39 55 49
39 54 48
39 54 48
40 56 50
39 55 49
39 54 48
39 55 49
39 54 48
39 55 49
39 54 49
39 55 49
39 55 49
38 54 49
38 53 48
38 54 49
37 53 48
37 53 48
37 53 47
36 54 48
36 53 47
35 53 48
35 52 47
34 52 47
34 52 47
33 51 46
32 50 45
32 51 46
31 50 45
31 50 45
30 50 46
30 50 46
29 49 45
29 51 46
28 49 45
27 48 44
27 48 44
27 49 44
26 47 43
26 48 44
25 48 43
25 48 44
24 46 42
24 47 43
24 47 43
23 47 43
23 47 43
21 46 42
21 46 42
20 44 41
20 44 41
20 44 40
20 45 41
21 46 42
20 45 42
20 45 41
20 44 41
20 45 41
21 46 42
21 46 42
20 45 42
20 45 41
20 44 41
20 44 40
20 45 41
20 44 40
21 46 42
21 45 41
20 44 40
21 46 42
20 45 41
21 45 42
20 45 41
21 45 41
21 47 43
21 46 42
21 46 42
21 46 42
21 45 41
22 46 42
22 46 42
21 45 41
22 46 42
22 45 42
22 45 41
23 47 43
23 47 43
23 46 42
24 47 43
24 46 42
24 47 43
24 46 42
26 48 44
26 48 43
26 48 44
27 49 44
27 48 44
27 48 43
29 50 45
29 49 44
30 51 46
30 50 45
31 50 45
31 49 45
32 50 45
33 50 45
33 51 46
35 53 47
35 52 47
36 53 47
36 53 48
37 54 49
38 54 48
38 54 48
39 54 48
39 55 49
40 55 49
41 56 50
41 56 50
41 56 50
41 57 50
42 56 50
42 57 51
42 57 51
42 57 51
42 56 50
43 57 50
43 57 50
43 57 51
43 58 51
42 57 50
42 57 51
42 57 51
42 57 51
41 55 49
41 56 50
40 55 49
40 56 50
40 55 49
39 54 48
39 55 49
38 53 48
37 54 48
37 53 48
36 53 48
35 52 47
35 53 47
34 52 47
34 52 46
33 51 46
32 51 46
32 51 46
31 50 45
30 50 46
30 50 45
29 50 46
28 49 44
28 49 45
27 49 44
27 48 43
26 48 44
26 48 44
25 46 42
25 47 43
24 46 42
24 48 44
24 47 42
21 46 42
20 45 41
21 46 42
20 45 42
20 45 42
20 45 42
20 45 41
20 45 41
20 44 41
20 44 41
20 44 40
20 45 41
20 45 41
20 45 41
21 46 42
20 45 42
20 44 40
20 45 41
20 45 41
20 44 40
20 45 41
20 45 41
21 46 42
21 46 42
20 45 41
21 45 41
21 46 42
21 46 42
21 45 41
21 46 42
21 44 41
21 45 42
21 45 41
22 45 41
22 46 42
22 46 42
23 47 43
23 47 42
23 46 42
23 46 42
24 47 43
24 46 42
25 47 43
25 47 43
26 47 43
27 49 45
26 47 42
27 49 44
28 48 43
29 50 45
29 49 44
30 50 45
31 51 46
31 50 45
32 49 45
33 51 46
34 53 47
35 52 47
36 53 48
36 53 47
37 54 48
38 55 49
38 53 48
39 55 49
40 56 50
41 56 50
41 56 50
42 57 51
42 56 50
43 56 50
43 57 51
44 57 51
44 58 51
45 59 52
45 59 52
45 59 52
46 59 53
46 60 53
46 60 53
46 60 53
46 59 53
46 59 52
46 60 53
46 59 52
46 59 52
45 59 52
45 58 51
45 59 52
44 58 52
44 59 52
44 58 51
43 57 51
42 56 50
42 57 50
41 56 50
40 55 49
40 56 50
39 55 49
38 55 49
37 53 48
37 53 47
36 54 48
35 52 46
34 51 46
34 52 47
33 52 47
32 50 45
32 51 46
31 50 46
30 50 45
29 50 45
29 49 44
28 49 45
28 50 45
27 49 44
26 47 43
26 47 43
25 46 42
25 48 44
25 48 44
21 46 42
20 45 41
21 46 43
20 44 41
20 44 41
21 46 42
20 45 41
20 45 41
20 45 41
21 46 42
20 45 41
21 46 42
21 46 42
20 44 41
21 46 42
20 45 41
21 46 42
20 45 41
20 45 41
21 47 43
21 45 42
21 46 42
21 46 42
21 45 41
21 46 42
20 44 40
21 45 41
22 46 42
21 45 41
22 46 42
22 46 42
22 45 42
23 47 43
23 47 43
23 46 42
23 46 42
23 46 42
24 47 43
24 47 43
24 47 42
24 46 42
25 46 42
26 48 44
26 46 42
27 48 43
28 50 45
28 48 44
28 48 43
30 50 45
30 50 45
31 51 46
32 51 46
33 51 46
33 51 46
35 53 47
35 52 47
36 52 47
37 54 48
38 54 48
39 54 48
40 55 49
40 56 50
41 57 51
42 57 51
43 56 50
44 58 52
45 58 52
45 58 51
46 58 52
47 60 53
47 60 53
48 60 53
48 61 54
49 62 54
49 61 54
49 60 53
50 62 55
49 61 54
50 62 54
50 62 54
50 62 55
50 61 54
50 63 56
49 62 54
49 61 53
49 61 54
49 61 54
48 60 53
48 61 54
47 60 53
47 60 53
46 59 52
46 59 52
45 58 51
44 58 51
44 58 51
43 57 51
42 56 50
41 57 51
40 56 50
39 54 48
39 55 49
38 54 49
37 54 48
36 53 48
35 53 47
34 52 47
33 51 46
32 50 45
32 50 45
31 50 45
30 50 45
29 49 44
29 49 45
28 49 45
27 48 44
27 47 43
27 49 45
26 48 44
26 48 44
20 45 41
20 44 41
21 46 42
20 44 41
20 45 41
20 45 42
20 45 42
20 45 41
20 45 41
20 45 41
20 44 41
21 46 42
20 45 41
20 44 40
20 45 41
20 45 41
20 45 41
21 46 42
21 46 42
21 45 42
21 46 42
21 46 42
21 45 42
20 44 40
21 46 42
21 46 42
21 46 42
21 45 42
22 46 42
22 46 42
21 45 41
22 46 42
23 47 43
23 46 42
23 46 42
23 46 42
24 47 43
24 47 43
25 47 43
25 47 43
25 46 42
26 48 44
27 48 44
27 48 44
28 48 44
29 49 44
30 50 45
30 49 44
31 51 46
32 50 45
33 51 46
34 52 47
35 52 46
36 52 47
37 53 48
37 53 48
39 56 50
40 55 49
40 55 49
42 57 51
42 56 50
44 58 52
44 59 52
45 59 53
46 60 53
47 60 54
48 61 54
49 61 54
49 61 54
50 62 55
51 63 55
51 63 56
52 63 56
52 64 56
53 64 56
53 63 55
53 64 56
53 64 56
54 65 57
54 66 58
54 65 57
54 64 56
54 65 57
53 64 56
53 65 57
53 64 56
53 64 56
52 64 56
52 63 55
51 63 56
50 62 54
50 63 55
49 62 55
49 61 54
48 61 54
47 60 53
46 59 52
45 59 52
44 58 51
44 58 52
42 57 50
41 56 50
40 55 49
40 56 50
39 55 49
38 55 49
37 54 48
36 54 48
35 52 47
34 51 46
33 51 45
32 51 46
31 51 46
30 50 45
30 51 46
29 49 44
28 49 44
28 49 44
27 47 43
26 48 43
20 45 41
20 45 41
21 46 43
20 45 42
20 45 41
21 46 42
20 45 41
20 44 40
20 45 41
20 45 41
21 46 42
20 45 42
21 46 42
20 44 40
20 45 41
21 45 42
20 44 40
21 46 42
21 46 42
21 46 42
21 45 42
21 45 42
21 45 41
21 45 41
22 47 43
21 46 42
21 45 42
21 45 41
22 47 43
22 46 43
22 45 41
23 48 44
23 46 42
23 45 42
23 46 42
24 46 42
25 47 43
25 48 44
25 47 43
27 49 44
27 47 43
28 50 45
28 49 44
29 49 44
29 49 44
31 50 46
31 50 45
32 50 45
33 52 46
34 53 47
35 51 46
36 53 48
37 53 47
38 54 48
40 56 50
40 56 50
42 57 51
43 57 51
43 57 51
45 59 52
45 58 51
47 59 53
47 60 53
49 61 54
50 62 55
51 63 55
51 63 56
52 64 56
53 64 56
54 64 56
54 65 57
55 65 57
56 66 58
56 66 58
56 66 58
57 66 58
57 68 59
58 67 59
58 66 58
58 68 59
58 68 59
58 68 59
58 67 59
57 67 59
57 67 59
57 66 58
57 67 59
56 67 58
56 65 57
55 65 57
55 66 58
54 65 57
53 64 56
52 64 56
52 64 56
51 62 55
50 61 54
49 61 54
48 60 53
46 59 52
45 58 52
45 59 52
44 58 52
43 57 51
41 56 50
41 57 51
39 55 49
38 54 49
37 54 48
36 52 47
35 53 47
34 51 46
33 52 46
32 51 46
32 51 46
30 49 45
30 49 45
29 50 45
28 48 43
28 49 44
20 44 41
20 45 41
21 46 42
20 45 41
20 45 42
20 45 41
20 44 40
21 46 42
19 43 40
20 44 41
20 44 41
20 44 40
20 44 40
20 45 41
20 44 41
20 44 40
21 45 41
20 45 41
20 45 41
20 44 41
21 46 42
21 45 41
21 45 41
21 44 40
21 46 42
21 45 41
22 45 42
22 47 43
22 45 41
22 46 42
22 45 41
22 45 41
24 47 43
24 46 42
24 47 43
24 46 42
25 46 42
26 47 43
26 47 43
27 49 44
28 49 45
28 48 43
29 49 45
30 50 45
32 52 47
32 51 46
33 51 46
34 52 47
35 51 45
36 53 48
37 54 48
38 53 47
39 54 48
41 56 50
42 56 50
43 57 51
44 57 51
45 58 51
46 59 52
48 60 53
49 62 55
50 62 55
51 63 55
52 64 56
53 64 56
54 64 56
55 66 58
56 66 58
57 67 59
58 67 59
59 68 60
59 68 59
60 69 60
60 69 60
61 70 61
61 69 61
61 69 60
62 70 62
62 70 61
62 70 61
62 70 61
62 71 62
62 70 61
62 70 61
62 71 62
61 69 60
61 69 60
60 70 61
60 69 60
59 69 60
58 68 59
58 67 58
57 66 58
56 67 59
55 66 58
54 66 58
53 64 56
52 62 55
51 63 55
50 62 55
49 62 55
48 60 53
47 59 53
45 59 52
44 58 51
43 57 51
42 57 50
41 56 50
40 56 50
39 55 49
38 55 49
36 53 48
35 53 47
34 52 47
33 52 46
33 51 46
31 50 45
30 50 45
30 50 45
29 49 44
20 45 41
20 44 40
20 45 41
21 46 42
20 44 41
20 44 40
20 45 41
20 44 40
20 44 40
20 45 41
20 45 42
20 45 42
21 46 42
20 45 41
20 45 41
20 45 41
21 46 42
21 46 42
21 45 41
21 45 41
21 46 42
21 46 42
21 45 41
21 46 42
21 45 41
22 46 42
21 44 41
22 45 41
23 46 42
23 47 43
23 47 43
24 47 43
24 47 43
25 48 44
25 47 43
25 46 42
26 46 42
27 48 44
28 48 44
28 49 45
29 49 45
30 49 44
31 50 45
32 51 46
33 51 46
34 52 46
35 52 46
36 52 47
37 53 48
38 55 49
40 55 50
41 57 51
42 56 50
43 58 51
45 58 52
46 59 52
47 60 53
49 61 54
50 62 55
51 62 55
52 63 55
53 64 57
54 65 57
56 66 58
57 65 57
58 67 59
59 68 60
60 69 60
61 70 61
62 70 61
63 71 62
63 71 62
64 72 62
65 72 63
65 72 62
66 74 64
66 74 64
66 74 64
66 74 64
66 74 64
67 74 65
66 74 64
66 74 64
66 74 64
66 73 64
65 72 63
65 72 63
64 72 63
64 72 63
63 71 62
62 71 62
62 70 61
61 70 61
60 69 60
59 69 60
58 69 60
57 67 59
56 66 58
55 65 57
53 64 57
52 64 56
51 63 55
50 62 55
48 60 53
47 60 54
46 59 53
45 59 52
44 58 51
42 56 50
41 56 50
40 55 49
38 54 48
37 54 48
36 53 48
35 52 47
34 52 47
34 52 47
32 52 47
31 51 46
30 50 45
20 45 41
19 43 40
20 45 41
20 44 40
20 45 41
20 45 41
20 45 41
20 45 41
20 45 42
21 46 42
20 44 41
20 45 41
20 45 41
21 45 42
21 46 43
21 45 42
21 45 41
21 45 42
20 44 40
20 44 40
21 46 42
21 44 41
21 45 41
21 44 40
22 46 42
22 46 42
23 46 43
22 46 42
23 46 42
24 47 43
23 45 41
24 47 43
25 47 43
25 47 43
25 47 42
26 47 43
28 49 45
28 48 43
29 49 44
29 49 44
31 50 45
32 50 46
33 51 46
34 51 46
34 51 46
36 52 47
37 53 47
38 54 49
40 55 49
41 56 50
42 55 49
43 57 50
45 58 52
46 59 52
47 59 52
49 61 54
50 62 54
52 63 56
53 64 56
54 65 57
56 66 58
57 66 58
58 68 59
59 68 60
61 70 61
62 70 61
63 70 61
64 72 63
65 73 64
66 73 64
67 74 64
68 75 65
68 75 65
69 75 65
69 76 66
70 76 66
70 76 66
71 77 67
71 77 67
71 77 67
71 78 67
71 78 67
71 78 67
71 78 67
70 77 66
70 77 67
69 76 66
69 75 65
68 75 65
67 75 65
67 74 65
66 73 63
65 72 63
64 73 64
63 71 62
62 71 62
61 70 61
59 68 59
59 69 61
57 67 59
56 66 58
54 65 57
54 65 57
52 63 55
50 62 54
49 62 54
48 60 53
47 60 53
45 60 53
44 58 51
42 57 50
41 56 50
40 55 49
39 54 48
37 53 48
36 53 48
35 52 47
34 53 47
33 52 47
32 51 46
20 45 41
20 44 41
20 45 41
21 46 42
20 44 41
20 45 42
21 46 42
20 45 41
20 44 41
21 45 42
20 45 41
20 44 40
21 45 42
21 45 42
21 45 42
21 45 41
20 45 41
21 46 42
21 45 42
21 45 41
21 45 41
21 45 41
22 46 42
21 44 41
22 46 42
22 46 42
23 47 43
23 46 42
24 47 43
24 46 42
24 46 42
25 48 44
25 47 42
26 47 42
26 47 42
28 49 44
28 48 44
29 50 45
30 50 45
31 50 45
32 50 45
33 51 46
34 51 46
35 52 47
37 53 48
38 54 48
39 55 49
41 56 50
42 56 50
43 58 52
45 58 51
46 59 53
47 60 53
49 61 54
50 62 54
52 63 56
53 64 56
55 65 57
56 66 57
58 68 60
59 69 60
61 69 61
62 71 62
63 71 62
65 73 63
66 73 64
67 75 65
68 74 64
69 76 66
70 76 66
71 77 67
72 78 68
73 79 68
73 79 68
74 78 68
74 80 69
75 81 70
75 80 69
75 80 69
75 81 70
76 81 70
75 81 70
75 81 70
75 81 70
75 80 69
75 80 70
74 79 68
73 79 69
72 78 67
72 78 67
71 77 67
70 77 66
69 76 66
68 75 65
67 74 64
66 74 64
65 73 63
64 72 63
62 70 61
61 70 61
60 68 59
58 68 59
57 67 59
55 66 58
54 64 56
52 63 55
51 62 55
50 62 55
48 61 54
47 59 53
45 58 52
44 58 52
42 56 49
41 55 49
39 54 48
38 54 49
37 53 48
36 52 46
34 51 46
34 52 47
20 44 41
20 45 41
20 44 40
20 45 42
20 45 41
20 45 41
20 44 40
20 45 41
21 45 42
21 45 42
20 45 41
20 44 41
20 44 40
21 45 42
20 45 41
20 44 41
20 44 40
21 45 42
21 45 41
21 46 42
21 45 41
21 45 41
22 45 41
22 45 41
22 46 42
22 45 41
23 45 41
24 47 43
24 48 44
24 46 42
25 47 43
26 48 44
26 48 43
27 47 43
27 47 43
29 49 44
29 49 44
31 50 45
31 50 45
33 51 46
33 50 45
34 50 45
36 53 48
37 53 47
39 55 49
40 56 50
41 55 49
43 57 51
44 58 51
46 58 52
47 60 53
49 60 53
51 62 55
52 63 55
54 64 56
55 66 58
57 67 58
58 68 59
60 68 60
62 70 61
63 70 61
64 73 63
66 73 63
67 75 65
68 75 65
70 76 66
71 78 68
72 78 68
73 78 68
74 80 69
75 80 69
76 82 71
77 82 71
78 83 72
78 83 71
79 84 73
79 84 73
80 84 73
80 84 72
80 85 74
80 85 73
80 84 73
80 85 74
80 84 72
79 84 72
79 84 72
79 84 73
78 83 72
77 82 71
77 81 70
76 81 70
75 80 69
74 79 69
72 79 68
71 78 68
70 77 67
69 75 65
67 74 65
66 74 64
65 72 63
63 71 62
62 70 61
61 70 61
59 68 60
57 66 58
56 66 58
54 64 57
52 63 55
51 62 54
50 62 55
48 60 53
47 60 53
45 59 52
43 57 51
42 56 50
41 56 50
39 54 48
38 54 48
37 53 48
36 53 47
21 46 42
21 46 42
20 44 41
21 46 42
20 44 40
20 44 41
20 44 41
21 46 42
20 44 40
20 45 41
21 45 42
20 44 41
21 46 42
20 44 41
21 46 42
21 45 41
21 45 41
21 44 40
21 46 42
21 45 41
21 45 41
22 45 41
22 44 41
22 46 42
23 47 43
23 45 42
23 46 42
24 46 42
24 46 42
25 47 43
26 47 43
26 47 43
27 47 43
28 48 44
29 48 43
30 49 44
31 49 45
32 50 45
33 51 46
34 52 47
35 53 47
37 53 48
38 54 48
39 55 49
41 55 49
42 57 50
44 58 52
45 59 52
47 59 53
49 61 54
50 62 55
52 63 56
54 65 57
55 66 58
57 66 58
58 67 59
60 69 60
62 70 61
64 71 62
65 73 63
67 74 64
68 75 65
70 77 66
71 77 66
73 78 68
74 80 69
75 81 70
77 82 71
78 83 71
79 84 73
80 84 73
81 85 73
82 86 74
82 86 74
83 87 75
84 88 75
84 88 76
84 87 75
85 88 76
85 89 76
85 89 76
85 88 76
85 88 75
85 88 75
84 88 76
84 87 75
83 87 75
83 87 75
82 86 74
81 86 74
80 85 73
79 84 72
78 83 71
77 82 71
76 80 69
74 80 69
73 79 68
72 78 67
70 76 66
68 75 65
67 74 65
66 73 63
64 72 63
63 71 62
61 69 60
59 68 60
57 67 59
56 66 58
54 65 57
52 63 56
51 63 56
49 61 54
48 60 53
46 60 53
44 58 51
43 57 51
41 55 49
41 56 50
39 54 48
38 54 48
20 44 40
20 45 41
20 44 41
20 45 41
20 44 41
21 45 42
20 44 41
20 45 41
21 45 42
21 45 41
21 45 41
20 44 40
21 45 42
20 44 41
21 45 42
21 45 41
21 45 41
21 44 40
21 45 41
21 45 41
22 46 42
22 45 41
23 46 43
23 45 41
23 46 42
24 46 42
24 47 42
25 47 43
26 48 44
26 47 43
26 47 43
27 47 43
28 48 44
29 49 44
30 50 45
31 50 45
32 51 46
33 51 46
35 52 47
36 53 48
37 54 49
38 54 48
40 55 49
41 56 50
43 57 51
45 59 52
46 58 51
48 60 53
49 61 54
51 62 55
53 63 56
55 64 56
57 67 59
58 67 58
60 68 60
62 71 62
63 71 62
65 73 63
67 75 65
69 76 66
71 77 66
72 77 67
74 80 69
75 80 69
77 82 70
78 83 72
80 84 72
81 84 73
82 86 74
83 87 75
84 88 76
86 89 77
86 90 77
87 90 78
88 91 78
88 91 78
89 91 78
89 92 79
90 93 80
90 92 79
90 92 79
90 92 79
89 92 79
89 92 79
89 92 79
88 91 78
88 90 77
87 90 77
87 90 78
86 88 76
84 87 75
84 87 75
83 86 74
81 85 74
80 84 73
78 83 72
77 82 71
76 81 70
74 80 69
73 78 67
71 77 67
69 76 66
68 75 65
66 73 64
65 73 64
62 70 61
61 70 61
60 70 61
57 67 58
56 66 58
54 65 57
52 64 57
50 62 55
49 61 54
47 60 53
45 58 52
44 57 51
42 56 50
41 55 49
39 54 48
20 44 41
20 44 40
20 45 41
20 45 41
20 45 41
20 44 40
20 45 41
20 44 41
20 45 41
20 44 40
20 44 41
21 45 42
21 46 42
21 45 42
21 45 41
21 45 41
21 45 41
21 45 41
22 45 42
22 46 42
23 47 43
22 46 42
23 46 42
24 47 43
24 47 43
24 46 42
25 46 42
25 46 42
26 47 43
27 49 44
28 48 44
28 48 43
29 47 43
30 50 45
31 50 45
32 50 45
33 49 44
35 52 47
36 54 48
38 54 48
39 55 49
41 56 50
42 55 49
43 56 50
45 58 51
47 58 52
49 60 53
50 61 54
52 63 55
54 65 57
56 66 58
58 68 60
60 68 59
62 70 61
63 71 62
65 73 64
67 73 64
69 76 66
71 77 67
73 78 67
74 79 69
76 81 70
78 83 72
79 84 72
81 85 73
83 87 75
84 88 76
85 89 77
87 90 77
88 90 78
89 92 79
90 92 79
91 93 80
92 94 80
92 94 81
93 95 81
94 96 82
94 96 82
94 96 82
94 96 82
95 96 82
95 96 83
94 96 82
94 96 83
94 96 82
93 94 81
93 94 81
92 94 81
91 94 81
90 93 80
89 91 78
88 91 78
87 90 77
86 89 76
84 88 76
83 88 75
82 86 74
80 84 72
78 83 72
77 81 70
75 80 70
73 79 68
72 78 67
70 76 66
68 75 65
66 73 64
64 72 63
62 70 61
61 70 62
59 68 59
57 66 58
55 66 58
53 64 56
51 63 55
50 62 54
48 60 53
46 59 52
45 58 51
43 57 51
42 56 50
20 43 40
20 44 41
20 45 41
21 46 42
20 45 41
20 45 41
19 43 39
20 44 40
21 45 41
20 43 40
20 45 41
21 45 42
20 44 40
21 45 41
21 45 41
22 47 43
21 44 41
22 46 42
22 45 41
22 45 42
22 46 42
23 46 42
23 46 42
23 45 42
24 45 41
25 47 43
26 47 43
26 48 44
27 47 43
27 47 43
29 49 44
30 50 45
30 48 44
32 50 45
33 50 45
34 52 46
35 51 46
37 53 48
38 54 48
39 54 48
41 55 49
43 57 51
44 58 52
46 60 53
48 60 53
49 61 53
51 62 55
53 64 56
55 65 57
57 66 58
59 68 59
61 69 60
63 71 62
65 72 63
67 73 63
69 75 65
71 78 68
73 79 69
74 79 69
76 81 70
78 83 72
80 85 73
82 87 75
84 88 76
85 89 77
87 90 77
88 91 78
90 92 79
91 93 80
92 94 81
94 96 83
95 96 83
96 97 83
97 98 84
97 99 85
98 99 85
98 100 85
99 99 85
99 100 85
100 100 86
100 101 86
99 100 86
99 100 86
99 100 85
99 100 85
98 99 84
97 98 84
97 97 83
96 97 83
95 97 83
94 95 81
93 95 81
91 94 81
90 93 80
89 92 79
87 90 77
86 89 76
84 88 76
83 87 75
81 85 73
79 83 72
77 82 71
76 81 70
74 79 69
72 78 67
70 76 66
68 74 64
66 73 64
64 72 63
62 70 61
60 69 61
58 68 59
57 67 58
54 65 57
52 63 56
51 62 55
49 61 54
47 60 53
45 58 51
44 58 52
20 44 41
20 45 41
20 45 41
20 45 42
20 43 40
20 44 40
20 45 41
20 44 41
21 45 41
21 46 42
21 45 41
20 44 40
21 46 42
21 45 41
21 46 42
21 45 41
22 45 42
22 45 42
22 45 42
22 45 42
22 44 40
23 45 41
24 47 43
24 46 42
25 47 43
25 46 42
26 48 43
27 49 45
28 49 44
29 49 44
30 50 45
30 49 44
32 51 46
32 49 45
34 51 46
36 53 48
37 52 47
38 54 48
40 55 49
41 56 50
43 56 50
45 58 51
47 60 54
48 60 53
50 62 54
52 62 55
54 65 57
56 66 58
58 68 59
60 68 60
62 71 62
64 73 63
66 73 64
68 75 65
70 77 67
72 78 68
74 80 69
76 82 71
78 83 72
80 85 73
82 86 74
84 88 75
86 90 77
88 90 78
90 92 79
91 94 80
93 95 81
94 96 82
96 98 84
97 99 84
98 99 85
99 100 86
100 101 86
101 101 86
102 103 88
103 103 88
103 103 88
104 104 89
104 104 89
104 104 89
104 104 89
105 105 90
104 104 89
104 104 89
103 104 89
103 103 88
102 102 87
101 102 87
101 101 87
100 101 86
99 100 85
98 99 85
96 98 84
95 96 83
93 96 82
92 94 81
90 93 80
88 91 78
87 90 78
85 89 76
83 88 76
81 84 73
79 83 71
77 82 71
76 81 70
73 79 68
71 78 67
69 76 66
67 75 65
65 73 64
63 72 63
61 70 61
59 68 59
57 67 59
55 66 58
53 63 56
52 63 56
50 62 54
48 60 53
46 59 52
20 44 41
20 44 41
20 45 41
20 45 41
20 44 41
20 44 41
21 45 42
20 44 41
21 45 41
21 45 42
21 45 41
21 45 42
21 45 41
21 44 41
21 45 41
22 46 42
22 45 41
22 45 41
23 46 42
23 46 42
23 45 42
24 46 42
24 46 42
25 46 42
25 46 42
26 47 43
27 47 42
28 47 43
28 47 43
30 49 44
31 50 45
32 51 46
33 51 46
34 51 46
36 53 48
37 53 48
38 54 48
40 55 50
42 56 50
43 57 51
45 58 51
47 59 52
48 60 53
50 62 54
53 63 56
55 66 58
57 66 58
59 68 59
61 69 61
63 70 61
65 72 63
67 74 64
69 75 65
71 78 67
74 80 69
76 81 71
78 82 71
80 84 72
82 86 74
84 87 75
86 90 77
88 90 78
90 92 79
92 94 80
94 96 82
95 97 83
97 98 84
98 99 85
100 101 86
101 102 87
103 103 88
104 104 89
105 104 89
106 106 91
107 106 91
107 107 91
108 108 92
108 108 92
109 108 92
109 108 92
109 108 92
109 109 93
109 109 93
108 108 92
108 108 92
107 107 91
107 108 92
106 106 91
105 105 90
104 105 90
103 104 89
102 102 88
101 102 88
99 100 86
98 98 84
96 97 83
94 96 82
93 95 81
91 93 80
89 92 79
87 91 78
85 88 76
83 87 75
81 85 73
79 83 72
77 82 71
75 81 70
73 79 69
71 76 66
69 75 66
66 73 64
64 72 63
62 71 62
60 69 60
58 68 59
56 66 58
54 64 56
52 64 56
51 63 56
48 60 53
20 45 42
20 44 40
20 44 41
20 45 41
20 44 41
20 44 41
20 43 40
21 45 42
21 45 42
21 45 42
21 44 41
20 43 39
21 45 41
21 44 40
22 46 42
22 45 41
22 44 41
22 45 41
23 47 43
23 46 42
23 45 41
24 46 42
25 46 42
25 46 42
26 47 43
27 47 43
28 48 44
29 48 43
30 50 45
31 49 45
32 51 46
33 50 45
34 51 46
36 52 46
37 52 47
39 55 49
40 55 49
42 57 51
43 56 49
45 58 51
47 60 53
49 60 53
51 63 55
53 63 55
55 66 58
57 66 58
59 68 60
61 69 60
64 71 62
66 74 65
68 74 64
70 76 66
73 79 68
75 79 69
77 81 70
79 84 73
82 86 74
84 88 75
86 89 76
88 92 79
90 93 80
92 94 81
94 96 83
96 97 83
98 99 84
100 100 86
101 102 87
103 103 88
105 105 90
106 106 90
107 107 91
108 108 93
109 109 93
110 110 94
111 110 94
112 111 95
113 111 95
113 112 95
113 112 96
114 113 96
114 112 96
114 113 96
114 112 96
113 112 95
113 111 95
112 111 94
112 110 94
111 110 94
110 109 93
109 108 93
108 108 92
107 106 91
105 105 90
104 104 89
102 102 88
101 102 87
99 99 85
97 98 84
95 97 83
93 96 82
91 93 80
89 92 79
87 90 77
85 88 76
83 86 74
81 85 73
79 83 72
76 81 70
74 79 68
72 79 68
70 76 66
67 74 64
65 73 64
63 71 62
61 70 61
59 68 59
57 66 58
55 64 56
53 63 55
51 62 55
20 43 40
21 45 42
20 43 40
20 44 41
20 44 41
21 46 42
20 44 41
20 44 41
20 43 39
20 43 40
21 45 41
21 44 41
21 45 41
22 46 42
22 45 41
23 46 43
22 45 41
23 45 42
23 46 42
24 46 42
24 45 42
25 47 43
26 48 44
27 48 44
27 48 44
28 48 43
29 49 45
30 49 44
31 49 45
32 50 45
33 52 47
34 51 46
36 53 48
37 53 48
39 54 48
40 55 49
42 56 50
44 57 51
46 59 52
47 59 52
49 61 54
51 61 54
53 64 56
55 65 57
57 66 58
60 69 60
62 70 61
64 72 63
66 73 63
69 76 66
71 77 67
73 78 68
76 82 71
78 83 72
80 84 73
83 87 75
85 89 77
87 90 78
90 92 79
92 94 81
94 95 82
96 98 84
98 99 85
100 101 87
102 103 88
104 104 88
106 106 90
108 107 92
109 108 92
110 109 93
112 111 95
113 112 95
114 112 96
115 113 97
116 114 97
117 115 98
117 115 98
118 116 99
118 117 99
119 117 99
118 116 99
118 117 99
118 116 99
118 116 99
117 115 98
117 115 98
116 114 97
115 114 97
114 114 97
114 112 96
112 111 95
111 110 94
110 109 93
108 107 91
106 106 91
105 106 90
103 103 88
101 102 87
99 100 86
98 99 85
95 97 83
93 95 81
91 94 80
89 91 78
87 91 78
84 87 75
82 86 74
80 85 73
78 82 71
75 80 69
73 79 69
71 77 66
68 75 65
66 73 63
64 71 62
62 71 62
59 68 59
57 67 59
55 66 58
53 64 56
20 44 41
19 42 39
21 46 42
20 45 41
20 44 41
20 44 41
21 45 41
21 45 41
20 44 40
21 44 41
21 45 41
21 45 41
21 45 41
22 45 41
22 45 41
22 46 42
22 45 41
23 46 42
24 46 42
24 47 43
25 46 42
26 48 44
26 47 43
27 48 44
27 47 43
28 48 43
29 49 44
30 49 44
32 49 45
33 51 46
34 50 45
36 52 47
37 53 47
39 54 48
40 54 48
42 56 50
43 57 50
46 59 53
47 59 52
49 61 54
51 62 55
53 64 56
56 66 58
58 67 59
60 69 60
62 71 62
65 72 63
67 74 65
69 75 65
72 78 67
74 79 68
77 82 70
79 83 72
81 86 74
84 88 76
86 89 77
89 91 78
91 93 79
94 96 82
96 98 84
98 99 85
100 101 86
102 103 89
104 105 89
106 106 91
108 107 91
110 110 94
111 110 94
113 112 96
115 113 96
116 115 98
118 116 99
119 117 100
119 118 100
121 119 101
121 119 102
122 120 102
122 120 102
123 121 103
123 120 102
123 121 103
123 121 103
123 121 103
123 120 102
122 120 102
122 119 101
121 119 101
120 118 101
119 117 100
118 117 99
117 114 97
115 114 97
114 113 96
113 112 95
111 110 94
109 109 93
107 106 91
106 106 90
104 104 89
102 103 88
99 100 86
97 99 85
95 97 83
93 95 81
90 93 80
88 91 78
86 88 76
83 87 75
81 85 73
78 83 72
76 81 70
74 79 68
71 77 67
69 75 65
67 74 65
64 72 63
62 70 61
60 70 61
58 67 59
56 66 58
20 44 41
20 44 40
20 44 41
20 44 41
20 44 40
21 45 41
20 44 41
21 45 41
22 47 43
21 45 42
21 44 40
22 45 42
22 47 43
22 44 41
23 46 42
23 46 42
23 46 42
24 46 42
24 47 43
24 44 40
25 47 43
26 46 42
27 47 43
27 47 42
28 48 44
30 50 45
30 48 44
31 49 44
33 51 46
35 52 47
35 51 46
37 52 46
38 53 48
40 55 49
42 56 50
43 56 50
45 58 51
48 61 54
50 62 55
51 62 55
53 63 56
56 66 58
58 67 59
60 69 61
62 70 61
65 72 63
67 74 64
70 76 66
72 77 67
75 80 70
77 82 71
80 85 73
82 85 73
85 88 76
87 90 78
90 92 79
92 94 81
95 97 83
97 99 85
100 100 86
102 102 87
104 104 89
106 106 91
108 108 92
111 110 94
112 111 95
114 113 97
116 114 97
118 116 99
119 117 99
121 119 101
122 120 102
123 120 102
124 122 104
125 122 104
126 123 105
127 123 105
127 124 105
127 124 106
128 124 106
128 124 106
128 125 106
128 124 106
127 124 106
127 124 106
126 124 105
125 123 104
125 122 104
124 121 103
122 120 102
121 119 102
120 118 100
118 116 99
117 115 98
115 114 97
113 112 95
111 110 94
110 109 93
108 108 92
106 106 91
103 104 89
101 102 87
99 99 85
96 98 84
94 96 83
92 94 81
89 92 79
87 90 77
84 88 76
82 86 74
79 84 72
77 81 70
75 80 69
72 77 67
70 77 67
67 75 65
65 72 63
63 71 61
60 68 59
58 67 58
20 44 40
20 44 41
20 44 40
20 45 41
20 44 40
20 44 40
21 45 41
20 43 39
21 45 41
21 45 41
21 43 40
21 45 41
22 45 42
22 44 41
23 46 43
23 45 41
23 46 42
24 47 43
24 46 42
25 46 42
26 48 44
27 47 43
28 49 44
28 47 42
30 50 45
30 49 45
32 51 46
33 50 45
34 52 46
36 52 47
37 52 47
38 54 48
40 53 48
42 55 49
44 58 51
45 57 51
47 60 54
50 62 55
52 63 55
53 64 56
56 66 58
58 67 58
61 69 60
63 70 61
65 73 64
68 75 65
70 76 66
73 78 68
75 80 69
78 82 71
80 85 74
83 87 75
86 89 76
88 91 78
91 93 80
93 94 81
96 98 84
98 100 85
101 101 86
103 104 89
106 106 90
108 107 91
110 109 93
112 111 95
114 113 97
117 115 98
118 117 99
120 118 101
122 119 102
123 121 103
125 123 104
126 123 104
127 124 105
128 125 106
129 126 107
130 127 108
131 127 108
132 128 109
132 128 109
132 128 109
132 128 109
132 129 109
132 129 109
132 128 109
131 128 109
131 127 108
130 126 107
129 126 107
128 125 106
127 124 106
126 123 104
124 121 103
123 120 102
121 119 101
119 117 100
117 115 98
116 114 97
114 113 96
112 111 94
110 109 93
107 107 91
105 105 90
103 103 88
100 101 86
98 100 85
95 96 82
93 95 81
90 93 80
88 91 78
85 88 76
82 86 74
80 84 73
77 82 70
75 80 69
73 79 68
70 76 66
68 74 65
65 73 64
63 71 62
61 69 60
20 45 41
20 44 40
20 44 41
21 45 42
21 46 42
20 44 41
21 45 41
21 46 42
21 45 42
21 45 42
22 45 41
21 44 41
22 45 42
23 46 42
23 46 42
24 46 42
24 46 42
25 47 43
25 46 42
26 47 43
26 47 43
27 48 43
28 48 43
29 48 43
30 49 44
31 49 45
32 50 45
34 52 47
35 51 45
37 53 48
38 53 48
40 55 49
42 56 50
44 58 51
45 58 51
47 59 52
49 60 53
51 62 55
53 63 56
56 65 57
58 66 58
61 70 61
62 70 61
65 72 62
68 74 65
70 76 66
73 78 68
75 80 69
78 83 71
81 84 73
84 88 76
86 88 76
89 91 78
92 94 81
94 96 83
96 97 83
99 100 86
102 103 88
104 105 89
107 106 91
109 109 93
112 111 94
114 112 96
116 115 98
118 116 99
120 118 100
122 120 102
124 121 103
126 123 104
128 124 106
129 126 107
131 127 108
132 128 109
133 129 110
134 130 111
135 131 111
135 132 112
136 131 112
136 132 112
137 132 112
137 132 112
137 132 113
136 132 112
136 132 112
136 132 112
135 131 111
134 130 111
133 130 110
132 128 109
131 128 108
130 126 107
129 125 106
127 124 105
125 123 104
124 121 103
122 119 102
120 118 100
118 116 99
116 115 98
113 112 96
111 111 95
109 108 92
106 106 90
104 104 89
101 102 87
99 99 85
96 97 83
94 96 82
91 93 80
88 91 78
86 89 77
83 87 75
80 85 73
78 83 72
75 80 69
73 79 68
71 77 67
68 75 65
65 72 63
63 71 62
21 47 43
20 44 41
20 45 41
21 45 41
21 45 42
21 45 41
20 43 40
21 45 41
21 44 41
22 46 42
22 45 41
22 45 42
23 46 42
23 45 41
23 46 42
23 45 41
24 47 42
25 47 43
25 47 42
26 47 43
27 48 44
28 49 44
29 48 43
30 49 44
31 49 44
32 50 45
34 51 46
35 52 47
36 53 47
38 53 47
40 56 50
41 56 50
43 56 50
44 56 50
47 59 52
49 61 54
51 62 54
53 64 56
55 65 57
58 66 58
60 68 60
63 70 61
65 72 63
68 74 64
70 76 66
73 78 68
75 80 69
78 83 72
81 85 73
84 88 76
87 90 77
89 92 79
92 94 80
95 96 82
97 99 85
100 101 86
103 103 88
105 105 90
108 108 92
110 109 93
113 112 96
115 113 97
118 116 99
120 118 101
122 119 102
124 122 104
126 124 105
128 126 107
130 127 108
132 128 109
133 129 110
135 130 111
136 131 112
137 133 113
138 133 113
139 134 114
140 135 114
140 135 115
140 135 115
141 136 116
141 136 116
141 136 115
141 136 115
140 136 115
140 136 115
139 135 114
139 134 114
138 134 113
137 132 112
135 131 111
134 130 110
133 129 110
131 127 108
129 126 107
127 124 106
126 123 105
124 121 103
122 120 102
119 117 100
117 115 98
115 114 97
113 111 95
110 109 93
108 108 92
105 105 90
102 103 88
100 101 86
97 98 84
94 96 82
92 94 81
89 91 79
87 90 78
83 86 74
81 85 73
78 83 72
75 81 70
73 79 68
70 76 66
68 75 65
66 73 63
