P3
120 80
255
18 40 38
18 41 38
18 41 38
18 41 38
18 40 38
17 39 37
18 40 38
18 41 38
18 40 38
18 41 38
18 41 38
18 41 38
18 41 38
18 41 39
18 42 39
19 42 39
18 41 38
18 40 38
18 41 38
18 41 38
18 40 38
18 42 39
18 42 39
18 41 38
18 41 38
18 41 38
18 41 38
18 41 38
18 41 38
19 42 39
18 40 38
18 41 38
18 41 38
18 40 37
18 41 38
19 42 39
18 41 38
18 41 38
18 41 39
18 41 38
18 41 38
18 41 38
19 42 39
18 41 39
19 42 39
19 42 39
18 41 38
18 40 38
18 41 38
18 41 38
18 42 39
18 41 38
18 41 38
18 41 38
19 42 39
18 41 38
18 41 38
18 41 38
18 41 38
18 41 39
18 42 39
18 41 39
19 42 39
18 41 38
18 41 39
18 42 39
18 41 38
18 40 38
19 42 39
19 42 39
18 41 39
18 42 39
18 41 39
18 41 39
19 42 39
18 42 39
19 43 40
19 42 39
18 42 39
19 42 39
19 42 39
19 42 39
18 41 39
19 42 39
18 41 38
19 42 39
18 41 39
18 41 38
18 41 38
19 42 39
19 42 39
19 42 39
19 42 39
18 40 38
18 41 39
18 42 39
18 42 39
19 42 39
19 42 39
19 42 39
18 41 39
19 42 39
18 41 38
19 42 39
19 43 40
19 43 39
19 42 39
19 43 40
18 41 38
19 42 39
18 42 39
19 43 40
19 42 39
19 42 39
18 41 38
18 41 38
18 42 39
18 42 39
19 42 39
18 42 39
18 41 38
18 41 38
18 42 39
18 41 38
18 41 38
18 41 38
18 41 38
18 41 38
19 42 39
18 41 38
19 42 40
18 40 38
18 41 39
18 41 38
18 41 38
19 42 39
18 41 38
18 41 38
18 41 39
18 40 37
18 41 38
18 41 38
18 41 38
18 41 38
18 41 39
18 41 38
18 41 38
18 40 38
18 41 39
18 41 38
18 40 38
19 42 39
18 41 38
18 40 37
18 41 38
19 42 39
18 41 38
18 41 38
18 41 38
19 42 39
18 41 38
19 42 39
18 41 38
18 41 38
19 42 39
18 41 38
18 42 39
18 41 38
19 42 39
18 41 38
18 41 38
19 42 39
19 42 39
19 42 39
18 41 38
19 42 39
19 42 39
18 42 39
19 42 39
18 42 39
19 43 40
18 41 38
19 42 39
19 42 39
18 42 39
19 42 39
19 42 39
19 42 39
18 41 38
18 42 39
19 43 40
18 41 38
19 42 39
18 41 38
19 43 40
19 42 39
19 42 39
19 44 40
19 43 40
19 43 40
18 41 38
18 41 39
18 41 38
19 42 39
19 42 39
18 42 39
18 42 39
19 42 39
19 42 39
19 42 39
18 41 38
18 41 38
19 42 39
19 42 39
19 42 39
19 42 39
19 42 39
19 42 39
19 42 39
19 43 40
18 41 38
19 42 39
19 42 39
18 41 38
18 41 39
19 43 40
19 42 39
19 43 40
19 42 39
19 43 40
19 43 40
18 42 39
18 42 39
19 43 40
19 43 40
19 42 39
19 43 40
19 42 39
19 42 39
19 43 40
18 42 39
18 41 39
18 40 38
18 40 37
18 41 38
18 40 38
18 41 39
18 41 38
18 41 38
18 41 38
18 42 39
18 41 38
19 42 40
18 41 38
18 41 38
18 41 39
18 42 39
18 41 38
18 41 39
18 42 39
18 41 38
18 41 38
19 42 39
18 41 38
18 41 38
18 41 39
18 42 39
18 41 38
19 42 39
19 43 40
18 42 39
18 42 39
18 41 38
19 42 40
18 41 38
18 42 39
18 41 38
19 42 39
18 42 39
19 43 40
18 42 39
19 42 39
19 42 39
19 42 39
19 42 39
19 43 40
19 42 39
19 42 39
19 42 39
18 41 38
19 42 39
18 41 38
19 42 39
19 42 39
19 42 39
19 42 39
19 43 39
18 42 39
18 41 38
18 41 38
19 42 39
19 42 39
19 42 39
19 42 39
19 42 39
18 42 38
18 42 39
19 42 39
19 42 39
19 43 40
18 41 38
19 42 39
19 43 40
19 43 40
19 43 40
18 41 38
18 40 37
18 41 38
19 43 40
18 41 38
19 42 39
19 42 39
19 43 40
19 42 39
19 43 40
19 43 40
19 42 39
19 43 40
19 42 39
19 42 38
19 43 40
19 43 39
18 42 39
19 43 40
19 42 39
19 43 39
19 42 39
19 42 39
19 43 40
19 43 40
20 44 41
19 42 39
19 43 40
19 42 39
19 42 39
19 42 39
19 43 40
19 43 40
19 43 40
19 42 39
19 43 40
19 43 40
19 43 40
19 42 39
19 43 40
19 43 40
19 42 39
19 43 40
19 42 39
19 43 39
18 41 38
19 42 39
19 42 39
18 41 38
19 42 40
18 41 38
19 42 39
18 41 38
18 41 38
18 41 38
18 41 38
19 42 39
18 41 38
19 42 39
18 41 38
18 40 37
19 42 39
19 42 39
19 43 40
19 42 39
18 41 38
18 41 38
18 41 38
18 41 39
18 41 38
18 41 38
19 42 39
19 42 39
18 42 39
18 42 39
18 41 38
19 42 39
19 42 39
18 41 38
19 42 39
19 42 39
19 42 39
19 43 40
18 42 39
19 42 39
19 43 40
19 42 39
19 43 40
19 42 39
19 42 39
19 42 39
18 41 38
18 42 39
19 42 39
18 41 38
18 41 38
19 43 40
19 42 39
19 42 39
19 42 39
19 42 39
19 42 39
19 43 40
19 42 39
19 42 39
18 42 39
19 42 39
19 43 40
18 41 38
19 43 40
19 43 40
19 43 40
19 43 39
18 42 39
19 42 39
19 42 39
19 42 39
19 44 40
19 43 40
19 43 40
20 44 41
19 42 39
18 41 38
19 42 39
19 43 39
19 42 39
19 42 39
19 43 40
19 44 40
19 43 39
19 42 39
19 42 39
19 43 39
19 43 40
19 43 40
20 44 41
19 43 40
19 43 40
19 43 39
19 43 40
19 43 40
19 42 39
19 43 39
19 43 40
19 43 40
19 42 39
19 43 40
19 43 40
19 42 39
19 43 40
19 42 39
19 43 40
19 43 40
19 42 39
18 41 38
20 45 41
19 43 40
19 43 40
19 44 40
19 43 40
19 42 39
19 43 40
19 43 39
19 43 40
19 42 39
19 42 39
18 41 38
18 41 38
18 41 39
19 43 40
18 41 38
18 41 39
18 40 37
18 41 39
18 41 38
18 42 39
19 42 39
19 42 39
19 42 39
19 42 39
18 41 38
19 42 39
18 41 39
18 41 38
18 41 38
19 43 40
19 42 39
19 42 39
19 42 39
18 41 38
19 42 39
19 42 39
18 41 38
19 43 40
19 42 39
19 42 39
19 42 39
19 42 39
19 42 39
19 42 39
19 43 40
18 41 38
19 42 39
18 42 39
19 42 39
19 42 39
18 41 39
19 42 39
19 42 39
19 43 40
19 42 39
19 43 40
19 43 40
19 43 40
19 43 40
19 43 39
19 42 39
19 43 39
19 43 40
18 41 38
19 43 40
19 42 39
19 42 39
19 42 39
19 43 40
19 42 39
19 43 40
19 42 39
19 43 40
19 42 39
19 43 40
19 42 39
19 43 40
19 43 40
19 44 40
19 43 40
19 42 39
19 44 41
19 43 40
19 43 40
19 43 40
19 43 39
19 42 39
19 43 40
20 44 40
19 42 39
19 43 40
19 42 39
19 43 40
19 43 40
20 44 41
19 42 39
19 43 40
20 44 40
20 44 41
19 43 40
19 43 39
19 44 40
19 42 39
19 43 39
19 43 40
19 42 39
20 45 41
20 44 40
19 43 40
19 43 39
20 44 41
19 42 39
19 43 40
20 44 40
19 43 40
19 43 39
19 43 40
19 43 40
19 43 40
19 43 39
19 43 40
19 42 39
19 42 39
19 43 39
20 44 41
19 43 40
20 44 41
19 43 40
19 43 40
18 41 38
19 42 39
18 41 38
19 42 39
18 42 39
19 42 39
19 42 39
18 41 38
18 42 39
19 42 39
18 41 38
18 41 38
19 42 39
19 42 39
19 42 39
18 41 38
19 42 39
18 41 39
18 41 38
18 41 39
19 42 39
19 42 39
19 43 40
19 43 40
19 42 39
19 42 39
19 42 39
19 43 40
19 43 40
19 42 39
19 44 40
18 41 38
19 43 40
19 43 40
19 42 39
19 42 39
19 43 40
19 42 39
19 42 39
18 42 39
19 43 40
19 43 40
19 42 39
19 43 40
19 42 39
19 44 40
18 40 37
19 42 39
19 42 39
19 43 40
19 42 39
20 44 41
19 42 39
19 43 40
20 44 40
19 43 39
19 42 39
19 43 40
19 43 39
19 43 40
19 42 39
19 43 40
19 43 40
19 43 40
19 42 39
19 42 38
19 43 40
19 42 39
19 42 39
19 42 38
19 43 40
19 42 39
19 42 39
20 44 41
19 42 39
19 42 39
20 44 40
19 43 39
19 43 40
20 44 40
19 43 40
19 42 39
20 44 41
19 43 40
20 44 41
19 43 40
19 43 40
19 43 40
19 43 39
20 44 40
19 43 40
20 44 41
20 45 41
19 43 40
19 43 40
19 43 40
19 43 39
19 43 40
20 44 41
19 44 40
19 43 40
19 43 40
20 44 41
19 42 39
20 44 41
20 44 40
19 43 40
19 44 40
20 45 41
19 43 40
20 44 41
20 44 41
20 45 41
20 44 40
20 44 40
19 43 40
19 43 40
20 44 41
19 43 40
19 43 40
19 42 39
18 41 39
19 42 39
19 42 39
19 42 39
18 41 38
19 42 39
19 42 39
19 43 40
19 42 39
19 43 40
18 42 39
19 42 39
18 41 38
19 42 39
19 42 39
19 42 39
19 42 39
19 42 39
19 42 39
18 42 39
19 42 39
18 41 38
19 42 39
19 43 40
19 42 39
19 42 39
19 42 39
19 42 39
19 43 40
19 43 40
19 43 40
19 43 40
19 43 40
19 43 40
19 43 40
19 43 40
19 43 40
19 43 39
19 44 40
19 42 39
19 42 39
19 43 39
19 43 40
19 42 39
19 42 39
19 42 39
20 44 41
19 43 40
19 43 40
19 43 40
19 42 39
19 42 39
19 43 40
19 43 40
19 43 40
19 42 39
20 44 40
20 45 41
19 42 39
19 43 40
19 42 39
19 43 40
20 44 40
19 42 39
20 44 40
19 42 39
20 44 41
20 44 40
19 43 40
19 42 39
19 43 40
20 44 41
19 43 40
19 43 40
19 43 40
19 43 40
19 43 40
20 44 40
19 43 40
19 43 40
19 43 40
20 44 40
20 44 41
19 43 39
19 42 39
19 43 40
19 43 40
20 44 40
20 45 41
20 44 40
19 43 39
20 45 41
20 44 40
20 44 40
19 43 39
20 45 41
19 43 40
20 44 41
19 44 40
19 43 40
20 44 41
20 44 40
19 43 40
20 44 41
20 44 40
19 43 40
19 43 40
20 45 41
20 44 41
19 43 39
19 43 40
20 43 40
19 43 40
20 44 41
20 44 40
20 44 40
19 43 40
20 44 41
20 45 41
18 41 39
18 41 39
18 42 39
19 42 39
19 43 40
19 42 39
19 42 39
19 42 39
19 42 39
18 41 38
20 44 41
19 42 39
19 42 39
19 42 39
19 42 39
19 43 40
19 42 39
19 42 39
19 42 39
19 43 40
19 42 39
19 42 39
19 42 39
19 42 38
19 42 39
19 43 40
19 43 40
19 42 39
19 43 40
19 42 38
19 42 39
20 44 41
19 43 40
19 42 39
19 43 39
19 42 39
19 43 40
19 44 40
19 43 40
19 42 39
19 43 40
19 43 40
19 43 40
19 42 39
19 43 39
19 43 40
19 43 40
19 43 39
19 43 40
19 43 40
19 43 40
20 44 41
19 43 39
20 44 40
20 44 41
19 43 40
20 44 41
20 44 41
19 43 40
19 43 40
19 44 40
19 43 39
20 45 41
19 43 40
19 43 40
20 44 41
19 43 40
19 43 40
20 44 40
19 43 40
20 45 41
20 44 40
20 45 41
19 43 40
20 44 41
20 44 41
19 43 39
19 43 40
19 43 40
19 42 39
20 44 40
20 44 41
20 45 41
19 43 40
20 44 40
20 44 40
20 44 41
20 44 40
19 42 39
19 43 40
20 44 40
20 44 40
20 44 40
21 46 42
20 44 40
20 44 41
20 44 40
19 43 40
20 44 40
20 43 40
19 43 39
20 44 41
20 44 40
20 44 40
20 45 41
20 44 40
19 43 40
20 45 41
20 45 41
20 44 41
20 44 40
20 44 41
20 44 40
20 44 40
20 44 40
20 44 40
20 45 41
20 45 41
19 43 40
19 42 39
19 43 40
19 42 39
19 43 40
19 44 40
19 43 40
19 42 39
19 42 39
19 43 40
19 42 39
19 43 40
19 42 39
19 43 40
19 42 39
19 42 39
19 43 40
19 43 40
19 42 39
19 42 39
18 42 39
19 42 39
19 42 39
19 43 40
19 42 39
20 44 41
19 42 39
19 43 39
19 42 39
19 43 40
19 43 40
19 42 39
19 43 40
19 42 39
19 43 40
19 43 40
19 44 40
20 44 41
19 43 40
19 43 40
19 43 40
20 44 40
19 42 39
20 44 40
19 42 39
20 44 41
19 43 40
19 43 39
19 43 40
19 44 40
20 44 41
19 42 39
19 43 40
19 43 40
19 44 40
20 44 40
20 45 41
19 43 40
20 44 41
19 43 40
19 43 39
20 44 41
20 44 41
19 43 40
19 43 40
20 44 40
20 44 41
20 44 40
20 45 41
20 44 40
20 44 41
19 43 39
20 45 41
20 44 40
20 45 41
20 45 41
20 45 42
20 44 40
20 44 40
19 43 40
20 44 41
20 44 41
20 44 40
20 43 40
20 44 40
20 44 40
20 44 40
20 44 41
19 43 39
20 44 40
20 44 40
20 45 41
20 44 41
20 44 41
20 45 41
20 44 41
20 44 40
20 44 41
19 43 40
20 44 41
20 45 41
20 44 41
20 44 40
19 43 40
20 44 41
20 45 41
20 45 41
20 45 41
20 44 41
20 44 40
20 45 41
20 45 41
20 44 40
20 45 42
20 45 42
19 43 40
20 45 42
21 46 42
20 45 42
20 44 41
20 45 42
20 45 42
19 42 39
19 42 39
18 41 38
19 42 39
19 43 40
19 43 40
19 43 39
19 42 39
19 43 39
19 43 40
19 43 40
18 41 38
19 43 40
19 44 41
19 42 39
19 44 41
19 42 39
19 42 39
19 43 40
19 43 40
19 43 40
19 43 40
19 43 40
19 44 40
18 42 39
19 43 40
19 42 39
19 44 40
19 44 40
19 43 39
19 43 40
19 42 39
20 44 40
19 43 40
19 43 40
19 43 39
19 43 40
19 44 40
19 43 40
19 43 39
19 43 40
19 43 40
19 44 40
19 43 40
20 44 41
20 44 41
19 43 40
20 44 41
20 44 40
19 43 39
19 43 40
20 44 40
19 43 39
20 44 41
19 43 40
20 44 40
19 43 40
20 44 40
20 46 42
20 44 40
20 44 41
19 43 40
20 45 41
20 44 41
20 44 41
19 43 39
20 44 41
20 44 41
19 43 40
20 44 41
20 45 41
20 44 40
20 44 41
20 44 41
20 44 40
20 44 40
20 44 41
20 45 41
20 44 41
20 44 40
20 45 41
20 44 40
20 44 41
20 45 41
20 45 41
20 44 41
20 44 40
20 45 41
20 44 41
20 45 41
20 44 41
20 45 42
20 45 41
20 44 41
20 45 41
20 44 41
20 44 41
20 46 42
20 45 41
20 44 41
20 44 40
20 45 41
20 44 41
20 45 41
20 45 41
20 45 41
20 44 41
20 45 41
20 44 40
20 44 41
20 45 42
20 44 40
20 44 40
21 46 42
20 45 41
20 45 41
20 44 40
20 44 40
20 45 41
20 45 41
19 43 39
18 42 38
19 43 40
19 43 39
19 42 39
19 43 40
19 43 39
19 42 39
19 42 39
19 42 39
19 43 40
20 44 41
19 43 40
19 43 40
19 43 40
19 42 39
19 43 39
19 43 40
19 43 39
19 42 39
19 42 39
19 42 38
19 43 39
19 44 40
19 44 40
19 43 40
19 43 40
19 44 40
19 43 39
19 43 40
19 43 40
19 42 39
19 44 40
20 44 41
19 43 40
19 43 39
19 42 39
20 44 41
19 43 40
19 43 39
19 43 40
20 44 40
19 43 40
20 45 42
19 43 40
20 44 40
20 44 40
20 44 41
20 44 41
20 44 40
19 43 40
19 43 39
20 44 40
20 44 40
20 44 40
19 43 40
20 44 41
19 43 40
20 44 40
20 45 42
20 44 41
20 45 41
20 44 41
20 45 42
20 45 41
20 44 40
20 45 42
20 45 41
20 44 40
20 45 42
20 45 41
20 44 40
19 43 40
20 45 41
20 45 41
20 44 40
20 44 41
20 45 41
20 45 41
20 44 41
20 45 41
20 45 41
20 44 40
20 45 41
20 45 41
20 44 41
20 44 41
20 44 41
21 46 42
20 44 41
20 44 41
20 44 41
20 45 42
20 45 41
20 45 42
20 44 41
20 45 42
20 45 41
21 46 42
20 45 41
20 45 41
20 44 40
21 46 42
20 44 41
20 44 40
20 45 41
20 45 42
21 46 42
20 45 41
20 44 40
20 45 41
20 44 41
20 45 41
20 45 41
21 46 42
20 45 41
20 45 41
20 45 41
20 45 41
21 46 42
19 42 39
19 44 41
19 44 40
19 42 39
19 42 39
19 44 40
19 43 40
18 41 38
19 43 40
19 43 40
19 42 39
19 43 40
19 43 39
19 43 39
20 44 41
19 42 39
19 43 40
19 43 40
19 43 40
19 43 40
19 42 38
20 44 40
19 43 40
19 43 40
19 43 40
19 43 40
20 44 41
20 44 40
19 43 40
19 43 40
19 43 40
19 43 40
19 43 40
20 44 40
19 43 40
19 43 40
19 43 39
19 43 40
20 44 40
19 43 40
20 45 41
19 43 40
19 43 40
19 43 40
19 43 40
19 43 39
19 43 40
19 43 40
20 44 41
19 43 39
19 42 39
20 44 41
20 44 41
20 44 41
20 44 41
20 44 41
20 44 40
20 44 41
20 44 41
20 44 40
19 43 40
20 44 41
20 43 40
19 43 40
21 46 42
20 44 41
20 44 41
20 44 41
20 45 41
19 43 40
20 44 40
20 45 41
20 45 41
20 44 40
20 45 41
20 45 41
20 45 41
20 45 41
20 44 40
20 45 41
20 44 41
20 44 40
20 45 41
20 45 41
20 45 41
20 45 41
20 45 41
20 44 41
20 45 41
20 44 41
20 45 41
20 44 40
20 45 42
20 45 41
20 45 41
20 45 41
20 45 41
21 46 42
21 46 42
21 45 42
20 45 41
20 45 41
21 47 43
20 45 41
21 47 43
20 44 41
20 45 41
21 46 42
20 45 41
20 45 41
20 45 41
20 45 41
21 47 43
21 46 42
21 46 42
21 46 42
20 45 41
21 46 42
20 45 42
21 45 42
19 42 39
19 43 39
19 43 40
19 43 39
19 42 39
19 42 39
19 42 39
19 43 40
19 43 40
19 42 39
19 42 39
19 44 40
20 44 41
19 44 40
19 44 40
19 43 40
19 43 40
19 43 40
20 45 41
19 43 39
19 43 40
20 44 41
19 43 40
19 43 40
20 45 41
20 44 41
19 43 40
19 43 40
19 44 40
20 44 40
19 43 40
19 43 40
19 44 40
19 43 40
19 43 40
19 43 40
19 43 40
19 43 39
19 43 40
20 45 41
20 45 41
19 43 40
20 45 41
19 43 40
20 44 40
20 44 41
20 44 40
20 44 41
20 44 41
20 46 42
20 44 41
20 44 40
20 44 41
20 44 40
20 44 41
20 45 41
20 45 42
20 45 41
20 44 41
20 45 41
20 44 40
21 46 42
20 45 41
20 45 41
20 43 40
20 44 40
20 45 41
20 45 41
20 45 41
20 45 42
20 45 42
20 44 41
20 45 42
20 45 41
20 45 41
20 45 41
20 44 40
20 44 41
20 45 41
20 45 41
20 45 42
20 44 41
21 46 42
21 46 42
21 46 42
20 45 41
20 44 41
20 45 41
20 45 41
20 45 41
20 44 41
20 45 41
20 44 40
20 44 40
21 46 42
20 45 42
20 45 42
20 45 41
21 46 43
20 45 42
20 45 41
21 45 41
20 45 41
20 45 41
21 46 42
21 45 42
20 45 41
21 46 42
20 45 41
20 44 40
20 45 41
21 46 42
21 46 42
21 45 42
21 46 42
21 46 42
21 46 42
21 47 43
21 46 42
21 46 42
19 43 40
19 42 39
19 43 40
19 43 40
19 42 39
19 43 40
19 42 39
20 44 41
19 44 40
19 42 39
19 43 39
19 43 40
20 44 41
19 43 40
20 44 41
19 43 40
20 44 41
19 44 40
19 43 40
19 43 40
20 44 41
20 44 40
20 44 41
19 43 39
19 43 40
19 43 39
20 44 40
19 43 40
20 44 40
19 43 40
20 44 41
19 43 40
20 44 40
19 43 40
20 45 41
19 43 40
20 44 41
19 43 40
20 44 40
20 44 40
20 44 40
20 44 41
20 44 41
20 44 41
20 44 41
20 44 41
19 43 39
19 43 39
20 44 40
20 45 41
20 44 40
20 44 40
21 46 43
20 44 41
20 44 40
21 46 42
20 44 41
20 45 42
20 44 41
20 45 41
20 45 41
21 46 42
20 44 41
20 45 41
20 45 42
20 45 41
20 45 41
20 45 42
20 45 41
20 45 41
21 46 42
20 44 41
21 46 42
20 44 40
20 45 41
20 44 40
20 45 41
20 45 41
20 45 41
20 45 41
20 45 41
20 45 42
20 45 42
20 45 41
21 46 42
21 45 42
21 46 42
21 46 42
21 46 42
21 46 43
20 45 41
20 44 40
20 44 41
21 46 42
20 45 42
21 46 42
21 46 42
21 46 42
21 46 42
20 45 41
21 46 42
21 46 42
21 46 42
21 46 42
21 46 42
21 45 42
20 45 41
21 46 42
21 46 42
21 47 43
21 46 42
21 46 42
21 46 42
21 46 42
21 46 42
21 46 42
22 48 44
21 47 43
21 46 42
21 46 42
19 43 40
19 43 40
19 43 40
19 42 38
19 43 40
19 43 40
20 44 40
19 42 39
19 43 40
19 42 39
19 43 40
19 42 39
19 43 40
19 42 39
19 43 40
19 42 39
19 43 40
19 43 40
19 43 40
19 43 40
19 43 40
20 44 41
19 43 40
20 44 40
19 43 40
20 44 41
20 44 41
19 43 40
20 44 41
20 44 41
20 44 40
20 45 42
20 44 40
20 44 41
20 44 40
20 45 41
20 44 40
20 44 40
20 44 41
20 44 41
20 45 41
20 43 40
20 44 41
20 44 41
20 44 41
21 46 42
20 44 41
20 44 40
20 45 41
21 46 42
20 44 41
20 44 40
20 44 41
20 45 41
20 45 41
20 45 41
20 44 40
20 44 40
20 44 41
20 45 41
20 44 41
20 45 42
21 45 42
20 45 42
20 45 41
21 46 42
21 46 42
21 46 42
20 45 41
20 44 41
20 45 41
20 45 42
21 46 42
20 44 40
21 46 42
20 45 41
21 46 42
20 45 41
20 45 41
20 45 42
21 46 42
20 45 41
20 45 41
21 46 42
21 47 43
20 45 41
21 46 42
21 47 43
21 47 43
20 45 41
20 45 41
21 46 42
21 46 42
20 45 42
21 47 43
21 47 43
21 46 42
20 44 41
21 46 42
20 45 41
20 45 41
21 45 42
21 47 43
21 46 42
21 46 42
21 47 43
20 45 41
21 46 42
21 46 42
21 47 43
21 45 42
21 47 43
21 47 43
21 45 42
21 46 42
21 46 42
21 46 42
21 47 43
22 48 43
21 47 43
19 43 40
19 42 38
19 43 39
19 43 40
19 43 39
19 43 40
19 43 40
20 44 40
19 43 40
19 44 40
20 44 41
20 44 41
20 44 40
20 44 40
20 44 40
20 44 41
20 44 40
20 45 41
19 43 40
19 43 40
19 43 40
20 44 41
19 44 40
20 44 41
19 43 40
20 44 41
19 43 40
20 45 41
20 45 41
20 45 41
19 43 40
20 45 41
20 44 41
20 45 41
20 44 40
20 44 40
20 44 40
20 44 41
20 45 41
20 45 41
20 44 41
20 45 41
21 46 42
20 45 41
20 44 40
20 44 40
20 45 41
20 44 41
20 44 41
20 44 40
20 45 42
20 45 41
20 45 41
20 45 42
20 44 40
20 45 42
20 45 42
20 45 41
20 44 41
20 45 41
20 45 41
20 44 40
21 46 42
20 45 41
20 45 41
20 45 42
21 46 42
21 46 42
20 45 41
21 46 42
21 46 42
21 46 42
21 46 42
21 46 42
20 45 42
21 46 42
20 45 41
21 46 42
21 46 42
21 46 42
21 45 42
21 46 42
21 46 43
21 47 43
21 46 43
21 47 43
21 46 42
21 47 43
21 46 42
21 46 42
21 46 42
20 45 41
21 46 42
21 47 43
21 46 42
20 45 41
21 46 42
21 46 42
21 47 43
21 47 42
21 46 42
21 46 42
21 46 42
21 46 42
21 47 43
21 46 42
22 48 43
21 46 42
21 47 43
21 47 42
21 46 42
21 47 43
22 47 43
21 46 42
22 48 44
21 47 43
21 47 43
21 47 43
21 46 42
21 46 42
19 43 40
19 43 40
19 43 40
19 43 40
19 43 40
20 44 40
19 43 39
19 43 40
19 43 39
19 43 40
19 42 39
20 45 42
20 44 40
20 44 41
20 44 41
19 43 40
19 43 40
20 44 40
19 43 40
19 43 40
20 44 40
19 43 39
19 43 39
19 43 40
20 44 41
20 44 40
20 45 42
20 44 41
20 44 41
20 44 40
19 43 39
20 45 41
20 44 40
20 44 41
20 44 41
20 44 40
20 45 42
19 43 40
20 45 41
20 44 40
19 43 40
20 44 41
20 45 41
20 45 41
20 44 41
20 45 41
20 44 41
21 46 42
20 45 41
20 45 41
20 45 41
20 45 41
20 45 41
20 45 41
21 46 42
20 45 41
20 44 40
19 43 40
20 45 41
20 44 41
20 44 40
20 44 41
21 46 42
20 44 41
20 44 40
19 43 40
20 45 41
20 45 41
21 47 43
20 45 41
21 46 42
21 46 42
21 46 42
21 46 42
21 46 42
21 47 43
21 46 42
20 45 41
21 46 42
21 46 42
21 46 42
21 46 42
21 46 42
21 46 42
21 46 42
21 46 42
21 47 43
21 46 42
21 45 42
20 45 41
21 47 43
21 47 43
21 47 43
21 46 42
21 46 42
20 45 41
21 46 42
21 46 42
21 46 42
21 46 42
22 48 44
21 46 42
21 46 42
20 45 41
21 47 42
22 47 43
21 46 42
21 47 43
21 46 42
21 47 43
21 47 43
21 47 43
22 48 43
22 48 43
22 48 43
21 46 42
21 46 42
21 46 42
22 47 43
21 47 43
20 44 41
19 43 40
20 44 40
19 43 40
19 43 40
20 44 40
19 43 40
20 44 41
20 44 41
19 43 40
19 43 40
19 43 39
19 44 40
19 43 39
20 44 41
19 43 40
19 43 40
20 44 40
19 44 40
20 44 40
20 44 40
19 43 39
20 44 40
20 44 41
20 44 41
19 43 40
20 44 41
20 44 41
20 44 40
20 44 40
20 44 41
19 43 40
20 45 41
20 45 41
20 44 41
20 44 40
21 46 42
20 44 40
20 45 41
20 45 41
20 44 40
21 46 42
20 44 41
20 44 41
20 44 40
20 44 41
20 44 40
20 44 41
20 45 42
20 45 41
20 45 41
20 45 41
20 44 41
20 45 41
20 45 41
20 45 42
20 45 41
21 46 42
21 46 42
20 45 41
20 45 41
21 46 43
21 46 42
21 45 42
21 46 42
20 45 42
20 45 41
20 45 41
21 46 42
21 46 42
21 46 42
20 45 41
21 46 42
21 46 42
20 45 41
21 47 43
21 47 43
21 46 42
21 47 43
21 46 42
21 46 42
21 46 42
20 44 41
22 48 43
20 45 41
21 46 42
20 45 41
21 46 42
21 46 42
22 47 43
21 46 42
21 46 42
21 46 42
21 46 42
21 47 43
21 47 43
21 47 43
21 46 42
21 46 42
21 47 43
21 47 43
21 46 42
21 47 43
22 48 43
21 46 41
21 47 43
22 48 44
21 47 42
21 47 43
21 47 42
22 48 44
21 47 43
22 48 44
21 46 42
21 47 43
21 46 42
21 47 43
22 48 44
21 46 42
21 47 42
19 43 39
20 44 40
19 43 40
19 43 40
20 44 41
20 44 41
19 43 40
19 43 39
19 43 40
20 45 41
19 43 40
20 44 41
20 44 40
20 44 40
20 44 40
20 45 41
20 45 41
20 44 41
20 44 40
20 44 40
20 45 41
20 44 41
20 44 41
20 45 41
19 43 40
20 43 40
20 44 40
20 45 41
20 45 41
20 45 41
20 44 41
20 45 41
20 45 41
20 44 40
20 44 41
20 44 40
20 44 41
20 44 41
20 44 41
20 44 40
20 45 41
20 45 41
20 44 40
20 44 41
20 45 41
20 44 41
21 47 43
20 45 42
21 46 42
21 46 42
21 47 43
20 45 41
20 45 42
21 46 42
20 45 41
20 45 41
20 45 41
20 45 42
21 47 43
20 45 41
21 46 42
21 45 42
20 44 41
21 46 42
20 45 41
21 46 42
20 45 41
21 46 42
21 46 42
20 45 41
21 46 42
21 46 42
21 46 42
21 46 42
20 45 41
21 47 43
20 45 41
21 46 42
21 46 42
21 46 42
21 46 42
21 46 42
21 47 43
21 46 42
21 47 43
21 47 43
22 48 44
21 46 42
21 46 42
21 47 43
21 46 42
21 46 42
21 46 42
21 47 43
21 47 43
21 47 43
21 47 43
21 47 43
22 48 43
21 46 42
21 47 43
21 47 43
21 47 43
21 47 42
21 46 42
21 46 42
21 47 43
22 48 43
21 47 42
22 48 44
22 48 44
22 48 43
22 48 43
21 47 43
21 47 43
22 48 43
22 48 44
21 47 42
22 48 43
22 48 43
19 43 40
19 43 40
19 43 40
19 43 40
19 43 40
19 43 40
19 44 40
19 43 40
20 44 40
20 44 40
19 43 40
20 45 41
20 44 41
20 45 42
20 45 41
20 44 40
19 43 40
20 44 40
19 43 40
20 45 41
20 44 41
20 44 40
20 44 40
20 44 40
20 45 41
20 44 41
20 44 41
20 44 41
19 43 40
19 43 40
20 44 40
20 44 41
20 45 41
20 45 41
21 46 42
20 44 40
20 44 41
20 44 40
20 44 40
21 46 42
20 45 42
20 45 41
20 45 41
20 45 41
21 46 42
21 46 42
20 44 41
20 45 41
20 45 41
20 45 41
20 45 41
20 44 40
21 46 42
20 45 41
21 46 42
20 45 41
21 46 42
20 45 41
21 45 42
20 45 41
21 46 42
21 46 42
20 45 41
20 45 41
21 46 42
21 47 43
21 45 42
21 46 42
20 45 41
21 46 42
21 46 42
21 46 42
21 46 42
20 45 41
20 45 41
21 46 42
21 47 43
21 46 42
21 46 42
21 47 43
21 47 43
21 46 42
21 47 43
21 47 43
21 46 42
21 46 42
21 46 42
21 46 42
21 46 42
22 48 43
21 46 42
21 46 42
21 46 42
21 47 43
21 46 42
21 47 43
21 47 43
21 47 42
21 47 43
22 48 44
21 47 43
26 48 44
43 58 52
27 49 45
21 46 42
21 47 43
21 46 42
21 47 43
22 47 43
21 46 42
22 48 44
21 47 43
21 47 43
22 48 44
21 47 43
21 47 43
21 47 43
22 47 43
22 49 44
22 49 45
19 43 39
20 44 40
19 43 39
19 43 40
20 44 41
20 44 41
19 43 40
20 44 41
20 44 40
20 44 41
20 45 41
20 45 41
20 44 41
20 44 40
19 43 40
20 45 41
20 45 42
20 44 41
20 44 41
20 45 42
20 44 40
20 44 40
20 45 41
20 45 41
20 44 41
20 45 41
20 45 42
20 45 41
20 45 42
20 45 42
20 44 41
20 45 41
20 45 41
20 45 41
20 45 41
20 45 41
20 45 42
20 45 41
20 45 41
20 45 42
20 44 41
21 46 42
21 46 42
21 46 42
21 46 42
21 46 42
20 45 41
21 46 42
21 46 42
20 44 40
21 46 42
20 44 40
20 44 40
21 46 42
20 45 42
20 45 41
20 44 40
21 46 42
21 47 43
21 47 43
21 46 43
21 46 42
20 45 41
21 46 42
21 47 43
21 47 43
21 46 42
21 46 42
21 46 42
21 47 43
21 46 42
21 46 42
22 47 43
21 47 43
21 46 42
21 46 42
21 46 42
21 46 42
21 46 42
21 47 43
21 45 42
21 47 43
21 46 42
21 46 42
21 47 43
21 46 42
22 48 44
22 48 44
21 47 43
21 47 42
21 47 43
21 47 43
21 47 43
21 46 42
21 47 43
21 47 43
21 47 42
22 48 43
21 47 43
42 54 49
157 91 80
207 109 94
232 108 90
221 100 82
157 63 50
28 48 43
22 48 43
22 48 43
22 47 43
21 47 43
22 48 43
21 47 43
22 48 44
22 48 44
22 48 44
22 48 43
22 48 43
22 48 43
21 47 43
22 48 44
20 44 40
19 43 40
20 44 40
20 44 40
20 44 41
19 42 39
20 45 41
20 45 41
20 44 40
20 44 40
20 44 41
20 44 40
20 45 41
19 43 40
20 44 41
20 44 40
20 44 41
20 44 41
20 44 40
20 44 41
19 43 40
20 44 40
20 45 41
20 44 40
20 44 40
19 43 40
20 44 40
20 44 41
20 45 41
20 45 41
20 45 41
19 43 40
20 45 41
20 45 41
21 46 42
20 44 41
20 45 42
21 46 42
21 46 42
20 45 41
21 46 42
20 45 41
20 45 41
20 45 41
21 46 42
20 45 41
21 46 42
21 46 42
21 46 42
21 46 42
20 45 41
21 46 42
21 47 43
21 46 42
20 45 42
20 45 41
20 45 41
21 47 43
20 44 40
21 45 42
21 46 42
21 46 43
21 46 42
21 46 42
21 46 42
21 46 42
21 46 42
21 46 42
22 48 44
21 46 43
21 46 42
21 47 43
21 47 42
21 47 43
21 46 42
21 47 43
22 48 44
22 48 44
21 46 42
21 47 42
21 46 42
22 47 43
21 47 43
22 48 43
21 47 43
21 47 43
21 47 43
21 47 43
21 47 42
21 47 42
21 47 43
22 47 43
21 47 43
22 48 44
21 46 42
22 48 44
21 47 43
22 48 44
27 46 42
155 63 50
202 68 49
216 72 52
229 77 55
253 109 84
250 86 62
163 64 49
22 48 44
21 47 43
21 46 42
22 49 44
22 48 44
22 48 44
22 48 44
22 48 43
22 48 43
22 49 44
22 48 44
21 47 43
21 47 43
22 48 43
20 44 40
20 45 41
19 43 40
20 44 41
19 43 39
20 44 41
19 43 40
20 44 41
20 44 41
20 45 41
20 44 40
20 45 41
20 44 41
20 44 41
20 44 41
20 44 40
20 45 41
20 45 41
20 45 42
20 44 41
20 45 41
20 44 41
20 44 40
20 45 41
20 45 42
20 45 41
20 45 41
20 44 41
20 45 41
20 44 40
20 46 42
20 44 41
20 45 41
20 45 41
20 44 40
20 45 41
20 44 41
20 44 41
20 44 41
20 45 41
20 45 41
20 45 41
21 46 42
21 46 42
21 46 42
20 45 41
21 46 42
20 45 42
21 46 42
21 46 42
20 45 42
20 45 42
21 46 42
20 45 41
21 46 43
20 45 41
21 46 42
20 45 42
21 46 42
21 46 43
21 46 42
21 46 42
21 46 42
21 46 42
21 46 42
21 46 42
21 47 43
20 45 41
21 47 43
21 47 43
21 46 42
21 46 42
21 46 42
21 47 43
21 46 42
22 48 43
21 46 42
21 46 42
21 46 42
21 47 42
21 47 43
21 47 43
21 47 43
21 47 43
21 46 42
22 48 43
22 48 43
21 47 43
21 47 43
22 48 44
21 47 43
21 47 43
22 48 44
21 47 42
21 47 43
22 48 44
22 48 44
22 48 44
75 63 57
158 56 43
183 61 44
205 68 49
221 73 52
244 108 84
243 89 65
225 75 53
42 48 43
22 48 44
22 49 44
22 48 44
22 47 43
21 47 43
22 48 43
22 49 44
22 49 44
22 49 44
22 48 43
22 47 43
22 47 43
22 49 44
19 43 40
20 43 40
20 45 41
20 44 40
19 43 40
20 44 40
20 44 40
20 44 41
20 45 41
20 44 40
19 44 40
20 44 40
20 44 40
20 44 40
20 45 41
20 45 41
19 43 40
20 45 41
20 45 41
20 43 40
20 45 41
20 44 41
20 45 41
20 44 40
20 45 41
20 45 41
20 45 41
20 44 40
20 44 41
20 44 40
21 46 42
20 44 40
20 45 41
20 45 41
20 45 41
20 45 41
20 44 41
20 45 41
20 44 41
21 46 42
20 45 41
20 45 41
21 46 42
20 45 41
21 47 43
20 45 41
20 45 41
21 46 42
21 45 42
21 46 42
21 46 42
21 45 42
20 45 41
20 45 41
20 44 41
21 46 42
21 47 43
22 48 44
21 45 41
21 46 42
21 47 43
20 45 41
20 45 41
21 46 42
20 45 41
21 46 42
21 46 42
21 47 43
21 46 42
21 46 42
21 47 43
21 45 41
21 46 42
21 47 43
21 47 42
21 46 42
22 48 44
22 48 43
21 46 42
21 47 42
21 46 42
21 46 42
22 48 44
21 46 42
21 46 42
21 47 43
21 46 42
22 47 43
21 47 43
21 46 42
21 47 43
21 47 43
22 47 43
21 47 43
21 47 42
22 48 43
22 47 43
21 46 42
85 83 77
140 55 43
154 80 70
175 121 109
191 145 130
201 165 148
208 147 129
215 88 68
80 51 44
22 48 44
22 47 43
22 48 44
22 48 43
22 49 44
22 48 44
21 47 42
22 49 44
22 48 43
22 48 44
23 50 45
22 47 43
22 48 43
19 43 40
20 44 41
20 45 41
20 45 41
19 43 39
20 44 40
20 44 41
20 44 41
20 44 40
20 43 40
19 44 40
20 44 40
20 45 41
20 44 41
20 45 41
20 45 41
20 44 40
20 44 41
20 45 42
20 45 41
20 45 41
20 45 41
20 45 41
20 45 41
20 44 41
20 45 41
20 44 41
20 44 41
20 45 41
20 45 41
21 45 42
20 45 41
20 44 40
20 46 42
20 45 42
21 46 42
20 45 41
21 46 42
21 46 42
21 46 42
21 46 43
20 45 41
21 46 42
21 46 42
20 45 42
20 45 42
20 45 41
21 46 42
21 46 42
21 46 42
21 47 43
20 45 41
21 46 42
21 46 42
20 45 41
21 46 42
21 46 42
20 45 41
21 45 42
21 46 42
21 47 43
20 44 41
21 46 42
21 47 43
21 47 43
22 48 43
21 46 42
21 47 43
22 48 44
21 47 43
22 48 44
21 46 42
21 47 43
21 47 43
21 46 42
21 47 43
21 47 43
21 45 41
20 45 41
21 46 42
21 46 42
21 46 42
21 47 43
21 47 43
22 48 44
21 47 43
22 47 43
21 47 43
21 46 42
21 47 43
22 48 43
21 47 43
21 47 42
21 46 42
21 46 42
21 47 43
22 48 44
22 48 43
73 70 64
117 69 61
112 104 96
130 118 109
152 134 121
165 145 129
168 147 129
174 138 120
85 74 68
158 146 134
198 179 164
215 193 176
182 164 149
82 84 75
22 49 44
22 49 44
22 48 44
22 49 44
23 50 45
22 48 44
22 48 44
22 48 43
19 43 40
20 44 41
19 43 40
19 43 39
20 45 41
20 44 41
20 45 42
20 44 40
20 44 41
20 44 41
20 44 41
20 44 41
20 45 42
20 45 41
20 44 40
20 44 41
20 44 40
20 45 41
20 44 40
20 45 41
20 44 40
20 45 41
20 45 41
20 44 40
21 46 42
20 45 42
20 45 41
20 45 41
20 45 41
20 45 41
21 46 42
20 44 41
20 44 40
20 45 41
20 45 41
21 46 42
21 46 42
20 45 42
20 44 41
21 46 42
21 46 42
21 46 42
21 46 42
21 46 42
21 46 42
21 46 42
21 46 43
21 46 42
20 45 41
21 46 42
21 46 42
20 45 41
21 46 42
20 45 42
21 46 42
21 47 43
20 45 41
21 46 42
21 46 42
21 47 43
21 46 42
21 46 42
21 46 42
21 46 42
21 47 42
21 46 42
21 47 43
21 47 43
20 45 41
21 46 42
21 47 43
21 47 42
21 46 42
21 47 43
21 47 43
22 48 44
21 47 43
21 46 42
21 47 43
21 46 42
21 47 43
22 48 44
21 47 43
21 47 42
21 47 43
22 48 43
21 47 43
21 47 43
22 48 43
21 46 42
21 46 42
21 47 43
22 47 43
21 46 42
22 48 43
21 46 42
21 47 43
22 47 43
30 46 41
81 70 63
87 82 74
73 70 63
76 71 62
109 97 84
127 111 96
133 117 103
185 168 157
207 188 175
217 196 182
230 206 189
246 220 200
237 209 189
93 91 81
23 49 45
22 49 44
22 49 44
22 48 43
22 49 44
22 48 44
22 48 43
20 45 41
20 44 41
20 44 41
20 44 41
20 44 41
20 44 40
19 43 40
20 44 41
20 45 41
20 45 41
20 44 41
20 45 41
20 44 41
20 45 41
20 44 40
20 44 41
20 44 40
20 45 41
20 45 41
20 44 40
20 44 40
20 45 42
20 45 42
20 45 41
20 45 41
20 45 41
20 45 41
20 45 42
20 45 41
20 45 41
20 45 41
21 47 43
21 46 42
20 44 41
20 44 41
20 45 42
21 46 42
21 46 42
20 44 41
21 46 42
20 45 42
20 45 42
21 45 42
20 45 41
21 46 42
21 46 42
21 47 43
21 46 42
21 46 42
21 46 42
21 46 42
20 45 41
21 46 42
21 47 43
21 47 43
21 47 43
21 47 43
20 45 41
21 46 42
21 47 43
21 46 42
21 47 43
21 46 42
21 45 41
21 46 42
21 47 43
21 46 42
21 47 43
21 46 42
21 46 42
21 46 42
21 47 43
21 47 43
22 48 43
21 46 42
21 46 42
21 47 43
21 47 43
21 47 42
21 46 42
21 47 43
22 48 44
21 47 43
21 46 42
22 47 43
21 47 43
22 48 43
22 47 43
21 47 43
21 46 42
21 46 42
22 47 43
22 48 43
21 45 41
20 44 40
18 41 38
17 38 36
16 37 34
15 34 32
30 37 33
25 33 26
37 42 34
32 37 27
41 43 32
67 63 53
100 88 93
134 118 122
163 144 143
170 150 148
186 164 159
225 199 185
192 165 160
153 131 130
23 49 45
22 48 44
23 49 45
22 48 44
22 48 44
22 48 43
22 48 44
20 44 40
20 44 41
20 44 41
20 44 41
20 45 41
20 45 41
20 44 40
20 44 40
20 45 41
20 45 41
20 45 41
20 44 41
20 45 41
20 45 41
20 45 41
20 44 41
20 45 41
20 45 41
20 45 41
20 45 41
20 44 41
21 46 42
20 44 41
21 46 42
20 45 42
20 44 41
21 47 43
20 45 41
20 44 40
21 46 42
20 45 42
20 45 41
20 45 41
21 46 43
20 45 41
20 44 41
20 45 41
20 45 41
20 45 41
21 46 42
21 46 42
21 47 43
21 46 42
20 45 41
20 45 41
20 45 41
21 46 42
20 45 41
20 45 41
21 46 42
21 47 43
21 46 42
21 46 42
21 46 42
21 47 43
21 46 42
21 46 42
21 46 42
21 46 42
21 47 43
20 45 41
21 46 42
21 47 43
21 47 43
22 48 44
21 46 42
21 46 42
21 46 42
20 45 41
21 47 43
21 46 42
21 47 42
21 46 42
21 47 43
21 46 42
21 46 42
21 47 43
21 47 43
22 47 43
21 47 43
21 47 42
21 46 42
22 48 43
21 47 43
21 46 42
21 47 43
21 47 43
21 46 42
21 46 42
22 48 43
21 47 43
21 47 43
21 46 41
21 46 42
20 43 39
19 41 38
16 35 33
14 32 31
12 28 26
11 25 24
9 19 17
15 21 17
23 26 20
28 32 25
32 38 42
59 41 68
66 45 76
73 50 83
79 53 87
85 57 93
89 58 93
90 59 94
93 61 96
36 49 51
22 49 44
22 48 43
22 49 44
22 49 44
22 49 44
22 48 44
20 44 41
20 45 41
19 43 40
20 44 40
20 45 41
20 44 41
20 45 41
20 45 42
20 44 41
20 45 41
20 45 41
20 45 41
20 45 42
20 44 40
21 46 42
20 44 40
20 44 40
20 45 41
20 45 41
21 46 42
20 45 42
20 45 41
21 46 42
21 46 42
20 45 41
20 45 42
20 45 41
20 44 41
20 44 41
21 46 42
20 45 41
21 47 43
20 45 42
20 44 41
21 46 43
20 45 41
20 45 41
21 46 42
21 46 42
21 46 42
20 45 41
21 47 43
21 47 43
21 46 42
20 45 41
20 45 41
21 46 42
21 46 42
21 47 43
21 45 42
21 46 42
21 46 42
21 47 43
21 46 42
21 47 43
21 47 43
21 47 43
21 46 42
21 46 42
21 45 41
21 46 42
21 47 43
21 47 43
21 46 42
21 47 43
21 46 42
21 46 43
21 47 43
21 46 42
21 47 43
21 46 42
22 48 43
21 46 42
21 46 42
22 47 43
21 46 42
21 47 43
21 46 42
21 46 42
22 48 44
21 47 42
21 47 43
22 48 43
22 48 44
21 47 43
21 47 43
21 46 42
21 47 42
21 47 43
22 47 43
21 46 42
21 47 43
22 48 43
21 46 42
21 46 41
21 47 42
21 46 42
22 48 43
20 44 40
20 45 40
20 43 38
19 41 36
19 40 36
20 43 38
30 41 43
50 35 57
54 37 62
58 40 67
63 43 70
71 47 77
76 50 80
78 51 81
81 52 82
39 48 51
22 49 44
22 48 44
22 48 43
22 48 43
22 49 44
22 48 44
20 44 41
20 44 41
20 44 41
20 45 41
20 45 41
20 45 41
20 45 41
20 44 40
20 45 41
20 45 41
20 44 41
21 46 42
20 45 42
21 46 42
20 45 41
20 45 41
20 44 41
20 45 41
20 45 41
20 45 41
20 45 41
20 45 41
20 44 40
20 45 41
20 44 41
21 47 43
21 47 43
21 46 42
20 45 41
20 45 41
21 46 42
21 46 42
21 47 43
21 46 42
20 45 41
21 45 42
21 46 42
20 45 41
21 46 42
21 45 42
20 45 41
21 46 42
21 46 43
21 46 42
20 45 41
21 46 42
21 46 42
21 46 42
20 45 41
21 46 42
21 46 42
21 46 42
21 47 43
21 46 42
21 46 42
21 47 43
21 45 41
21 47 43
21 47 43
21 46 42
20 45 41
21 47 43
21 47 43
21 46 42
21 47 43
21 46 42
20 44 40
21 46 42
21 46 42
21 47 43
20 45 41
22 48 43
22 47 43
21 47 42
21 46 42
22 48 43
21 47 42
21 46 42
21 47 43
21 47 43
21 47 43
22 48 43
21 47 43
22 48 44
22 48 44
22 48 44
22 48 43
22 48 43
21 47 43
21 47 43
22 49 44
22 49 44
22 47 43
21 46 42
21 47 42
21 47 42
22 48 43
22 48 43
22 48 44
21 47 42
21 47 42
21 46 42
22 48 43
21 46 41
29 44 45
43 30 49
47 32 53
46 32 52
46 32 52
53 36 59
54 36 58
62 41 64
65 43 66
27 48 45
22 48 43
22 49 44
22 48 44
23 49 44
22 49 44
22 47 43
20 45 42
20 44 40
20 45 41
20 44 40
20 45 41
20 44 40
20 45 41
20 45 42
20 45 42
20 45 41
21 46 42
20 45 41
20 45 41
20 45 42
20 45 42
21 46 42
21 46 42
20 45 41
20 45 41
20 45 42
20 45 42
20 45 41
21 46 42
21 46 42
20 44 41
20 44 41
20 44 41
20 45 41
20 44 40
20 45 41
20 45 42
21 46 42
21 46 42
20 45 41
21 46 42
20 45 41
21 46 42
20 45 41
21 46 42
21 46 42
21 46 43
21 46 42
21 46 42
21 46 42
21 47 43
21 47 43
21 47 43
20 45 41
21 47 43
20 45 41
21 46 42
20 45 41
21 46 42
21 47 43
20 45 41
21 46 42
22 48 44
21 46 42
21 47 43
21 46 42
21 45 41
21 47 43
21 46 42
21 47 43
20 44 41
21 47 43
22 48 44
21 47 43
21 47 43
21 46 42
22 47 43
21 47 43
21 46 42
21 47 43
21 47 43
21 47 43
22 47 43
22 48 43
21 47 43
22 47 43
21 47 43
22 48 43
22 48 43
22 48 43
21 47 43
21 47 43
22 49 45
22 48 43
22 47 43
22 48 43
22 47 43
22 48 43
22 47 43
22 47 43
21 47 43
22 48 43
21 47 43
22 48 43
22 48 43
22 47 43
22 47 43
21 47 42
21 46 42
22 47 43
21 47 42
34 37 39
41 36 40
32 28 36
32 27 35
41 35 40
50 42 46
49 39 44
41 44 46
21 46 42
22 49 44
22 48 44
22 49 44
22 48 43
22 47 43
22 49 44
20 45 41
20 44 41
20 44 40
20 44 40
20 44 40
20 44 41
20 45 41
21 46 42
20 44 40
20 44 41
20 44 40
20 44 40
20 45 41
20 44 40
20 45 42
20 45 42
20 45 41
20 45 41
20 45 41
21 46 42
20 45 42
20 45 41
20 45 41
20 44 41
20 45 41
20 44 41
21 46 42
20 45 41
20 45 42
20 45 41
20 45 42
21 46 42
21 46 42
20 45 41
20 45 41
20 45 41
21 46 43
20 45 41
20 45 41
21 47 43
21 47 43
20 45 41
20 45 41
21 46 42
21 47 43
20 45 41
21 47 43
21 46 42
21 46 42
21 46 42
21 46 42
21 46 42
21 47 43
21 46 42
21 46 42
21 47 43
21 46 42
21 46 42
21 46 42
21 47 43
21 46 42
22 48 44
21 46 42
21 46 42
21 46 42
21 47 42
21 47 43
22 48 43
21 46 42
21 47 43
21 46 42
21 47 43
21 47 43
21 47 43
21 46 42
21 46 42
21 46 42
21 46 42
21 47 43
22 48 44
22 48 44
21 46 42
21 47 43
21 46 42
21 47 43
22 48 44
21 46 42
21 47 43
22 47 43
21 47 43
21 47 42
22 48 44
21 47 43
22 48 43
22 47 43
22 48 44
22 47 43
21 47 43
21 47 43
21 46 42
21 45 41
18 41 38
16 37 34
16 37 34
15 34 32
15 34 31
18 27 22
15 26 20
22 32 24
44 44 32
47 46 33
45 48 39
22 46 42
22 47 43
22 48 44
22 48 43
22 47 42
22 48 43
22 48 43
22 48 43
20 44 40
20 44 40
20 45 41
20 45 42
20 44 40
20 44 40
19 43 39
20 44 41
20 43 40
20 45 41
20 45 41
20 45 42
20 44 40
20 45 42
20 45 41
20 45 41
20 45 41
20 44 40
20 44 41
20 45 41
20 45 42
21 47 43
20 45 41
20 45 42
21 46 42
21 46 42
21 46 42
21 46 42
20 45 41
21 46 42
21 46 42
20 45 41
21 47 43
21 46 42
20 45 41
20 45 42
21 46 42
21 46 42
21 46 42
21 46 42
20 45 41
21 46 43
21 46 42
21 47 43
21 47 43
21 46 42
21 47 43
21 46 42
20 45 41
21 46 42
21 47 43
21 46 42
21 47 43
21 47 43
21 47 43
21 47 43
21 47 43
21 46 42
21 47 43
21 47 43
22 48 44
21 47 43
21 47 43
21 46 42
21 47 43
21 46 42
22 48 44
21 47 42
21 47 43
21 46 42
21 47 43
21 47 43
21 47 43
21 47 43
22 48 43
22 48 44
22 48 44
21 45 41
21 47 43
21 47 43
22 48 43
21 47 42
21 46 42
21 47 43
21 46 42
22 47 43
21 47 43
22 49 44
22 47 43
21 47 43
22 47 43
22 48 43
22 48 43
21 46 42
21 46 42
22 48 43
22 47 43
21 47 42
22 48 43
21 46 41
21 46 42
18 41 38
16 36 34
14 32 31
12 28 27
12 28 27
10 23 21
8 17 15
11 17 15
12 18 14
15 27 23
18 38 33
20 43 38
20 44 39
21 45 40
21 47 42
22 47 42
22 47 42
22 48 43
22 49 44
20 44 40
20 45 41
20 45 42
20 44 41
20 44 41
21 46 42
20 45 41
20 44 41
20 44 41
20 45 41
20 45 41
20 44 41
20 44 41
20 46 42
21 46 42
20 45 42
20 45 41
20 44 41
20 45 41
20 45 41
21 46 42
20 45 42
20 45 42
21 46 42
20 44 41
21 46 42
20 44 40
21 46 42
20 45 42
21 46 42
20 44 41
20 45 41
20 45 41
21 46 42
20 45 41
21 46 42
21 46 42
21 46 42
21 47 43
21 46 42
21 46 42
21 47 43
20 45 41
21 45 42
21 46 42
21 46 42
21 46 42
21 45 41
21 46 42
21 46 42
21 46 42
21 47 42
21 47 43
21 47 42
21 47 43
21 46 42
21 47 43
21 47 43
21 47 43
21 46 42
21 46 42
21 46 42
22 48 43
21 46 42
21 47 43
21 46 42
21 45 41
21 46 42
21 46 42
21 46 42
22 48 44
22 48 44
21 47 43
21 46 42
21 47 43
21 47 43
21 47 43
21 47 43
21 47 43
22 48 44
21 47 43
21 47 43
21 47 43
21 47 43
22 49 44
21 47 43
22 48 44
21 47 43
22 48 43
22 47 43
22 48 44
21 47 43
22 49 44
22 48 43
21 47 43
22 48 44
22 47 43
21 46 42
22 49 44
22 48 44
22 48 43
21 47 42
22 48 43
21 46 42
20 44 40
19 42 38
18 40 36
18 40 36
18 40 36
19 41 37
20 44 39
21 45 40
21 46 41
21 45 40
20 44 40
21 47 42
22 47 42
22 49 44
22 48 43
22 48 43
20 44 40
20 44 40
21 46 42
20 45 41
20 45 41
20 44 40
21 46 42
19 43 40
20 45 41
20 44 40
20 45 42
20 45 41
20 45 42
21 46 42
19 43 40
20 44 41
20 45 41
20 45 41
21 46 42
20 45 41
20 45 41
20 45 41
20 45 41
21 47 43
21 46 42
20 44 41
21 46 42
20 45 41
21 47 43
21 46 42
21 46 42
20 45 41
20 45 41
21 47 43
21 45 42
21 47 43
21 46 42
20 45 41
20 45 41
21 46 42
21 46 42
21 45 42
21 46 42
20 45 41
20 45 41
21 45 42
21 47 43
21 46 42
21 46 42
21 47 43
21 46 42
21 46 42
21 47 43
21 46 42
21 46 42
21 47 43
21 47 42
21 47 43
21 46 42
21 46 42
21 46 42
21 47 43
22 48 44
22 48 44
21 46 42
21 46 42
21 46 42
21 46 42
21 47 43
21 47 43
21 47 43
21 46 42
21 47 43
21 46 42
21 47 43
21 46 42
22 48 44
21 47 43
22 47 43
21 47 43
22 48 43
21 47 43
22 48 44
22 48 43
21 47 43
22 48 44
22 48 44
22 47 43
21 47 43
22 48 43
22 47 43
21 47 43
22 48 44
22 48 43
22 47 43
21 47 43
21 47 42
22 48 44
22 48 43
21 47 43
22 47 43
22 48 44
22 48 44
22 47 43
21 47 42
21 46 42
21 46 42
21 46 42
21 46 42
21 47 42
22 47 43
21 45 41
22 47 42
21 47 42
22 48 43
22 48 43
21 46 42
22 47 43
22 49 44
22 48 44
20 44 40
20 45 41
20 45 42
20 45 41
20 44 41
20 44 41
20 45 41
20 45 41
20 45 42
20 45 42
20 45 41
20 44 40
20 46 42
20 45 41
20 45 41
21 46 42
20 45 41
20 45 41
20 44 41
20 45 42
20 45 41
20 45 41
20 45 41
20 45 41
20 45 41
20 45 41
20 45 41
20 45 41
21 46 42
20 45 42
21 46 43
20 45 42
21 46 42
20 44 41
21 47 43
20 45 42
21 46 42
20 45 41
20 44 41
21 46 42
20 45 41
20 45 41
21 46 43
20 44 41
20 44 40
21 47 43
20 45 41
21 47 43
21 46 42
20 45 41
21 47 43
21 47 43
21 46 42
21 46 42
20 45 41
21 46 42
21 47 43
21 46 42
21 46 42
21 46 42
21 46 42
21 46 42
21 47 43
21 46 42
21 47 43
21 47 43
21 45 41
21 47 43
21 47 43
21 47 43
21 47 43
21 47 43
21 47 43
22 48 44
21 47 43
21 47 43
21 47 43
21 47 43
21 47 43
22 48 44
22 47 43
21 47 43
21 46 42
22 48 43
22 48 44
22 48 43
22 48 43
22 49 45
22 48 43
21 47 43
22 48 43
21 47 42
21 46 42
22 48 44
22 47 43
22 48 43
22 48 43
22 49 44
22 47 43
22 48 44
22 48 44
22 49 44
22 48 44
21 47 42
22 48 44
22 48 44
21 47 42
21 47 43
22 48 43
22 48 44
22 48 44
22 47 43
22 48 44
21 47 43
22 48 44
22 48 43
22 47 43
22 49 44
22 48 43
22 48 43
20 45 41
20 45 41
20 45 41
21 46 42
20 44 40
20 44 41
20 45 41
20 44 41
20 45 41
20 45 41
21 46 42
20 44 41
20 45 42
20 44 40
21 46 42
20 45 41
20 45 41
21 46 42
20 45 41
20 45 41
20 45 41
20 45 41
20 45 41
20 45 41
20 45 42
20 44 40
20 45 42
21 46 42
21 46 42
21 46 42
20 45 41
20 45 42
20 45 41
20 45 42
21 46 42
21 46 42
20 45 41
21 46 42
20 45 41
20 44 41
20 45 41
20 45 41
21 47 43
21 46 42
21 45 41
20 45 41
21 46 42
21 47 43
21 46 42
21 46 42
21 47 43
21 47 43
21 46 42
21 47 43
21 47 43
21 47 42
21 47 43
21 46 42
21 47 43
21 47 43
21 46 42
21 47 43
21 45 42
21 47 43
21 47 43
22 47 43
22 47 43
21 46 42
21 47 43
21 47 43
21 46 42
22 48 43
21 46 42
21 47 43
21 47 43
21 47 43
22 47 43
21 47 43
21 47 43
21 47 43
21 47 43
22 48 44
22 48 43
22 48 44
22 48 43
21 47 43
21 47 42
21 47 43
21 47 43
22 48 44
22 48 44
22 48 44
21 47 43
22 48 43
22 48 44
22 48 44
22 48 44
22 48 44
22 48 44
22 48 44
22 49 45
22 48 44
22 48 43
22 48 44
21 46 42
22 49 45
21 47 43
22 48 44
22 48 44
22 48 44
22 49 44
22 49 44
22 48 44
22 48 43
22 48 43
22 48 43
22 49 44
22 48 43
22 48 43
22 48 43
20 45 41
20 44 41
20 45 41
20 45 41
21 46 42
20 45 41
20 44 41
20 45 42
20 46 42
20 45 41
20 44 40
20 45 42
20 45 41
20 44 41
20 44 40
21 45 42
21 46 42
20 45 41
20 45 41
21 46 42
20 45 42
20 45 42
20 45 42
21 46 42
21 46 42
20 45 41
20 45 41
21 46 42
21 46 42
20 45 41
21 46 42
21 46 42
20 45 41
21 47 43
21 45 42
20 45 42
20 45 41
21 46 42
21 45 42
21 46 42
21 46 42
21 47 43
21 47 43
21 46 42
21 47 43
21 46 42
21 47 42
21 46 42
21 46 42
21 46 42
21 47 43
21 46 42
21 46 42
21 46 42
20 45 41
21 46 42
21 47 43
21 47 43
21 46 42
21 46 42
21 46 42
21 46 42
21 46 42
22 48 44
21 46 42
21 46 42
22 48 44
21 47 43
21 46 42
22 48 44
22 47 43
21 47 43
21 46 42
21 47 43
21 47 43
21 46 42
21 47 43
22 47 43
21 46 42
21 47 43
21 47 43
22 49 44
22 47 43
21 47 43
22 48 44
21 47 43
22 47 43
21 47 43
22 47 43
21 47 43
22 48 43
22 48 43
22 48 43
21 47 43
21 47 43
22 48 44
22 48 44
22 47 43
21 47 43
22 47 43
22 48 43
22 48 43
22 48 44
22 48 44
21 47 43
22 49 44
22 47 43
22 48 44
23 49 45
22 48 43
22 48 44
22 48 43
22 49 44
22 49 45
22 48 43
22 48 44
22 47 43
22 48 43
22 49 44
22 48 44
20 45 41
20 45 41
20 44 41
20 45 41
20 44 40
20 45 41
20 45 41
20 45 41
20 45 41
20 44 40
20 44 41
20 44 40
21 46 42
20 44 41
20 45 41
21 46 42
20 45 41
20 45 42
21 46 42
20 45 41
20 45 42
21 46 42
20 45 42
20 44 41
20 45 41
20 45 41
21 46 42
20 45 41
21 46 42
20 44 41
20 44 41
21 46 42
21 46 42
20 45 42
21 46 42
21 46 42
20 45 41
21 46 42
21 47 43
21 46 42
21 47 43
21 47 43
21 46 42
20 45 41
21 46 42
21 46 42
20 44 41
22 48 44
20 45 41
21 46 42
21 47 43
21 46 42
21 46 42
21 47 43
21 47 43
21 47 43
21 46 42
21 46 42
21 46 42
22 48 44
21 47 42
21 47 43
21 47 43
22 48 44
21 46 42
21 47 43
22 48 44
21 47 43
21 46 42
21 46 42
22 48 44
21 46 42
21 47 43
21 46 42
21 47 43
21 47 43
21 46 42
21 47 43
22 48 43
21 47 43
22 48 44
22 48 43
21 46 42
21 47 43
22 48 44
22 48 43
22 49 44
21 47 43
22 48 43
21 47 43
22 48 44
22 48 44
22 48 43
21 47 43
22 48 43
22 48 43
22 48 43
22 49 44
23 50 45
22 48 44
22 48 43
22 49 44
22 48 44
22 49 44
22 49 44
22 49 44
22 47 43
22 48 44
22 49 44
22 48 43
22 48 44
22 48 44
23 49 45
22 47 43
22 49 44
22 48 44
22 48 44
22 48 43
21 47 43
22 49 44
20 45 41
20 44 40
20 44 41
20 45 41
20 45 41
20 45 41
20 45 41
20 44 41
21 46 42
21 46 42
20 44 40
20 45 41
20 44 40
20 45 41
20 45 41
21 45 42
20 45 42
20 44 40
20 45 42
20 45 41
21 46 42
20 45 41
20 45 41
20 45 41
20 45 41
20 45 42
20 45 41
20 45 41
21 46 42
20 45 41
21 46 42
21 46 42
21 47 43
21 46 42
21 46 42
20 45 41
21 46 42
20 45 41
21 47 43
20 45 41
21 47 43
21 45 41
21 46 42
20 45 41
21 47 43
21 47 43
21 47 43
20 45 41
22 48 44
21 47 43
21 47 43
21 46 42
21 46 42
21 46 42
22 48 44
21 47 43
21 47 43
21 46 42
22 48 43
21 46 42
22 48 43
21 46 42
22 47 43
21 47 43
21 46 42
21 47 43
21 46 42
21 47 43
21 47 43
22 48 44
21 46 42
21 46 42
21 47 42
21 46 42
21 46 42
21 47 43
22 48 44
21 47 43
21 46 42
21 47 43
22 48 43
21 47 42
21 47 43
21 47 43
21 46 42
22 48 44
22 47 43
22 48 44
22 47 43
21 47 43
22 48 44
21 47 43
22 48 44
23 50 45
21 47 42
22 48 43
22 48 44
22 48 43
22 48 43
22 48 43
23 49 45
22 48 43
22 48 43
21 47 43
22 48 44
22 47 43
22 48 44
22 48 44
22 49 44
22 48 44
22 48 43
21 47 42
22 48 43
22 49 45
22 49 45
22 49 44
22 48 44
22 48 43
22 49 44
22 48 44
20 45 41
20 45 41
20 45 41
20 45 41
20 45 42
20 44 40
20 44 40
20 45 42
20 44 40
20 45 41
20 45 41
20 44 40
21 46 42
21 46 42
20 45 42
21 46 42
20 44 41
20 45 41
20 45 41
21 46 42
21 46 42
21 46 42
20 45 41
21 45 42
21 46 42
20 45 41
20 45 41
20 45 42
21 46 42
21 45 42
21 46 42
21 46 42
21 47 43
20 45 42
21 46 42
21 46 42
20 45 41
20 45 41
20 45 41
20 45 41
20 45 41
21 46 42
21 46 42
21 46 42
21 46 42
21 46 42
20 45 41
21 46 42
21 45 42
21 46 42
21 47 43
21 46 42
22 47 43
21 46 42
21 47 43
21 47 43
21 47 43
21 46 42
21 46 42
21 46 42
21 47 43
21 47 43
21 46 42
21 47 43
21 46 42
21 47 43
21 46 42
21 46 42
21 47 43
21 47 43
21 47 43
21 47 42
22 48 43
21 46 42
22 47 43
21 47 42
21 47 43
21 47 43
21 47 42
21 47 43
22 48 44
21 47 43
21 47 43
21 47 43
22 48 43
22 47 43
22 47 43
21 46 42
22 48 44
21 47 43
22 48 44
22 48 44
21 46 42
21 46 42
22 48 44
22 48 43
22 48 44
21 47 43
22 48 44
22 48 44
22 48 43
22 48 43
22 49 45
22 49 44
22 48 44
22 48 44
22 49 44
22 48 44
21 47 43
21 47 43
22 48 43
21 46 42
22 48 44
22 49 44
22 48 44
22 47 43
23 50 45
22 49 44
22 48 43
22 48 43
20 45 41
20 45 41
20 45 42
20 45 41
20 46 42
20 44 41
21 46 43
21 46 42
20 45 42
20 44 41
21 46 42
20 45 42
21 47 43
20 45 41
20 45 41
21 46 42
21 46 42
21 46 42
20 45 41
20 44 41
20 45 41
20 45 41
21 47 43
20 45 41
21 46 42
20 45 41
21 46 42
21 46 42
20 45 41
20 45 41
21 45 42
21 46 42
20 45 41
21 46 42
21 46 42
21 47 43
21 46 42
21 45 42
20 45 41
21 46 42
21 46 42
21 46 42
21 47 43
21 46 42
21 46 42
21 46 42
20 45 41
21 46 42
21 46 42
21 46 42
22 48 44
21 47 43
21 46 42
22 48 44
21 46 42
21 46 42
21 47 43
21 46 42
21 46 42
21 47 43
21 46 42
20 45 41
21 47 43
22 48 43
21 47 43
21 47 43
21 47 42
21 47 43
21 47 43
21 47 42
21 46 42
22 48 43
21 46 42
21 47 43
22 47 43
21 47 43
21 47 43
22 48 43
21 47 43
21 46 42
21 47 43
21 47 43
22 47 43
21 46 42
21 47 43
21 47 43
21 47 43
22 49 44
22 48 43
22 48 43
21 47 43
22 47 43
22 47 43
22 48 44
22 49 45
22 48 43
22 48 44
22 49 44
21 46 42
22 48 44
22 48 44
22 49 44
22 48 44
22 48 43
22 49 44
22 48 43
22 48 43
22 49 45
22 48 43
21 47 42
22 48 44
22 48 44
22 49 44
22 48 44
21 47 43
21 47 43
21 47 43
22 49 44
22 47 43
22 49 44
20 45 41
20 44 41
20 45 41
20 45 41
20 44 41
20 45 41
20 44 40
21 46 42
20 44 41
20 45 42
21 46 42
20 45 41
20 45 41
21 46 42
20 45 41
20 45 42
20 45 41
20 45 41
20 44 40
20 44 41
20 45 41
21 46 42
20 44 40
20 45 42
21 46 42
20 45 41
21 46 42
20 45 41
21 46 42
20 44 41
20 45 41
20 45 42
21 46 42
20 45 41
21 47 43
21 46 42
21 46 42
21 46 42
21 46 42
21 46 42
21 47 43
20 45 42
21 47 43
21 46 42
21 46 42
20 45 41
21 46 42
20 45 41
21 47 43
21 46 42
21 46 42
20 45 41
22 48 43
21 46 42
21 46 42
21 47 43
21 46 42
21 46 42
21 47 43
21 47 43
21 46 42
21 46 42
21 47 42
21 45 41
21 47 42
21 47 43
21 47 43
22 48 44
22 48 43
21 46 42
20 45 41
21 47 42
21 47 42
21 47 43
22 48 43
21 47 43
21 47 43
22 48 43
21 47 43
21 47 42
21 47 43
21 47 42
22 48 43
21 47 43
21 46 42
21 47 43
21 47 43
21 47 43
21 47 43
22 48 44
22 48 43
22 48 43
22 48 44
22 48 43
21 47 43
22 48 44
22 48 44
22 48 43
22 48 44
22 48 44
21 47 43
21 47 43
22 47 43
22 47 43
22 48 44
22 48 43
21 47 43
22 48 44
22 48 44
22 49 44
22 47 43
22 49 44
22 49 44
22 48 44
21 47 43
22 49 45
22 49 44
22 48 43
22 48 43
22 48 44
20 44 41
20 44 41
20 45 41
20 45 41
20 45 41
20 45 42
20 45 41
20 44 41
20 44 40
20 45 42
20 45 41
20 45 41
20 45 41
20 44 40
21 46 42
20 45 42
20 44 41
20 45 42
20 45 41
20 45 41
20 44 41
20 45 42
20 45 42
20 45 42
20 45 41
21 46 42
21 46 42
20 45 42
20 45 41
20 45 41
20 45 42
20 45 42
20 45 41
21 46 42
21 46 42
21 46 42
20 45 42
21 46 42
21 46 42
21 46 42
21 46 42
20 45 41
21 46 42
21 47 43
21 47 43
21 45 41
20 45 41
21 46 42
21 47 43
21 45 42
21 46 42
21 45 42
21 46 42
21 47 43
21 46 42
21 46 42
21 47 43
21 47 42
21 46 42
21 47 43
21 45 42
21 46 42
22 48 44
21 47 43
21 47 43
21 47 43
21 47 43
22 48 44
21 46 42
21 47 42
21 46 42
21 46 42
21 47 43
21 47 42
22 48 43
21 47 43
21 47 43
22 48 44
21 47 42
21 47 43
21 47 42
22 49 44
21 47 43
21 47 43
21 46 42
21 47 43
22 47 43
21 47 43
22 48 44
21 47 42
22 47 43
21 47 42
22 47 43
22 48 43
21 47 43
22 49 44
22 49 44
22 48 44
21 47 43
22 48 44
22 47 43
22 47 43
22 47 43
22 48 44
22 47 43
22 48 44
22 48 44
22 48 44
22 49 44
22 48 44
23 49 45
22 48 43
22 48 43
21 47 43
22 48 44
22 48 43
22 49 44
22 47 43
22 48 43
22 48 43
20 44 40
20 45 41
21 46 42
20 44 41
20 44 40
21 46 42
20 45 41
20 45 42
20 45 41
20 44 40
20 44 41
20 44 41
20 45 41
20 45 42
20 45 41
20 45 41
20 44 41
20 45 42
20 44 41
20 45 41
21 46 42
21 46 42
21 46 42
20 45 41
20 45 41
20 45 42
20 45 41
21 46 42
21 47 43
20 45 41
21 46 42
21 46 42
21 46 42
20 45 41
20 45 42
21 46 42
21 46 42
21 46 42
21 46 42
21 47 43
20 45 41
22 48 44
20 45 41
21 46 42
21 46 42
21 46 42
20 45 41
21 48 44
21 46 42
21 46 42
21 46 42
21 46 42
21 45 42
21 47 43
22 48 44
20 45 41
21 46 42
21 47 43
21 46 42
21 46 42
21 47 43
21 47 43
21 46 42
21 47 43
21 46 42
22 48 44
21 46 42
21 46 42
21 46 42
22 48 44
21 46 42
22 47 43
21 47 43
21 47 43
22 47 43
21 47 43
21 47 42
21 47 43
21 46 42
21 47 43
22 48 43
21 47 42
21 47 43
22 49 44
21 47 43
22 49 44
22 47 43
21 47 43
22 48 43
21 47 42
22 48 43
21 46 42
22 48 44
21 46 42
21 47 43
21 47 43
22 48 43
21 47 42
22 47 43
22 48 44
21 47 43
21 47 42
22 47 43
23 50 45
22 48 44
21 47 42
21 47 43
22 48 44
22 48 43
22 48 43
21 47 42
22 48 44
22 48 43
21 47 43
21 47 43
22 48 43
22 48 44
22 49 44
22 47 43
22 49 44
20 45 41
20 45 41
21 46 42
20 44 41
20 44 41
21 46 42
20 45 41
20 45 41
21 46 42
20 44 40
20 45 41
20 45 42
20 45 41
21 45 42
21 46 42
20 44 41
20 44 41
20 45 42
20 45 41
20 44 41
20 44 40
20 45 41
21 46 42
20 45 41
21 46 42
20 44 40
20 45 41
20 45 41
21 47 43
21 47 43
20 45 41
20 45 41
20 45 41
21 46 42
20 44 40
21 46 42
20 45 42
21 46 42
20 45 41
21 46 43
21 46 42
20 45 41
21 46 42
21 47 43
21 46 42
21 46 42
21 47 43
21 47 43
21 47 42
21 47 43
21 46 42
22 48 44
21 45 42
21 46 42
21 47 43
21 47 43
21 46 42
21 47 43
21 46 42
21 45 41
21 46 42
21 46 42
21 46 42
21 46 42
21 47 43
21 46 42
21 46 42
21 46 42
21 47 43
21 47 43
21 46 42
21 47 43
22 48 43
21 47 43
21 47 43
22 47 43
22 48 44
21 46 42
21 47 43
22 48 44
22 48 44
21 47 42
22 48 44
21 46 42
22 47 43
21 47 43
22 47 43
21 47 42
22 48 44
21 47 43
22 48 43
21 47 42
22 48 43
22 48 43
21 47 43
22 48 43
21 47 43
21 47 43
22 47 43
22 49 44
21 46 42
22 48 44
21 46 42
22 49 44
22 48 43
22 48 43
22 48 44
22 49 44
21 47 43
22 48 43
22 48 44
22 48 43
22 48 43
21 47 43
22 47 43
21 47 42
22 48 43
22 48 44
22 48 43
22 48 43
21 46 42
20 44 41
21 46 42
20 45 41
20 45 41
20 45 41
20 44 41
20 45 41
20 45 42
21 46 42
21 46 42
20 45 42
20 45 41
20 45 42
20 45 41
20 45 41
20 44 40
20 45 41
20 45 41
21 46 42
20 45 41
20 45 42
20 45 41
20 45 41
20 45 42
21 46 42
20 45 41
21 46 42
20 45 42
20 45 41
20 45 41
21 47 43
20 45 42
21 46 42
21 47 43
21 46 42
20 45 42
21 45 42
21 46 42
21 46 42
21 46 42
21 45 42
21 46 42
21 48 44
21 47 43
21 47 43
21 47 43
21 47 43
21 46 42
20 45 41
21 46 42
21 46 42
21 46 42
21 46 42
21 46 42
21 47 43
21 46 42
21 46 42
21 46 42
21 47 43
21 46 42
22 48 44
21 46 42
21 46 42
21 47 43
21 47 43
21 46 42
21 45 41
21 47 43
22 48 43
22 48 43
21 46 42
21 47 43
22 48 44
22 47 43
21 47 43
21 47 43
21 46 42
21 47 43
22 48 43
22 48 44
21 47 43
22 48 44
21 47 43
21 46 42
21 47 43
21 47 43
22 48 44
21 47 43
22 47 43
21 47 42
21 47 43
22 48 44
22 48 44
22 49 45
22 48 43
22 48 44
22 48 43
22 48 43
21 46 42
21 47 42
22 48 43
22 47 43
22 48 44
22 48 43
22 49 44
22 49 44
22 48 44
21 47 43
22 48 43
22 48 43
22 48 43
23 50 45
21 47 43
22 48 44
22 48 43
22 47 43
22 48 43
21 46 42
22 48 43
20 44 41
20 44 41
20 44 40
20 44 41
20 45 41
21 45 42
20 44 41
20 44 40
21 46 42
20 45 42
20 45 42
20 45 41
20 45 41
20 45 42
20 44 41
20 44 41
21 46 42
20 45 41
20 44 40
20 44 40
20 45 41
20 45 41
20 45 42
20 45 42
20 45 42
21 46 42
21 46 42
20 45 41
20 45 41
21 46 42
20 45 41
21 46 42
20 44 41
20 45 41
20 45 41
20 44 40
21 46 42
21 47 43
20 45 41
21 46 42
21 46 42
21 47 43
21 46 42
21 47 43
21 46 42
20 45 42
20 45 41
21 45 41
21 46 42
20 45 41
21 46 42
21 46 42
21 46 42
21 46 42
21 46 42
21 47 43
21 46 42
20 45 41
20 45 41
20 45 41
21 46 42
21 46 42
21 46 42
21 47 43
21 47 43
21 46 42
21 46 42
21 47 43
21 46 42
21 46 42
21 46 42
21 47 43
21 46 41
21 47 43
21 47 43
21 46 42
21 47 43
21 47 43
21 47 43
22 48 43
21 47 43
21 47 43
21 46 42
21 47 43
21 47 43
21 47 42
21 47 43
22 49 44
22 48 44
21 47 43
22 47 43
21 47 43
21 46 42
21 47 43
22 47 43
21 47 43
21 47 42
21 47 42
22 48 43
22 48 44
21 47 43
22 47 43
21 47 43
22 48 44
22 49 44
21 47 43
22 49 44
22 48 43
22 48 43
22 48 43
23 49 45
22 47 43
21 47 43
21 46 42
22 48 43
23 49 45
22 48 44
22 48 43
22 48 44
21 47 42
20 44 41
20 45 41
20 45 41
21 46 42
20 45 41
21 46 42
20 44 41
20 45 41
20 45 41
20 45 42
20 45 42
20 45 41
20 45 41
21 46 42
21 47 43
21 46 42
19 43 40
20 45 42
20 46 42
20 45 41
20 45 41
21 46 42
21 46 42
21 46 42
21 46 42
21 46 42
20 45 41
21 47 43
21 46 42
21 46 42
20 44 41
21 46 42
20 45 41
20 45 41
20 45 41
21 46 42
20 45 41
20 45 41
21 46 42
21 46 42
21 47 43
20 45 41
20 45 41
20 45 41
21 46 42
20 45 41
21 47 43
21 46 42
21 46 42
21 47 43
21 47 43
21 45 42
20 45 41
21 46 42
21 46 42
21 47 43
21 46 42
21 46 42
21 47 43
21 46 42
21 46 42
21 47 43
21 47 43
21 47 43
21 46 42
21 47 43
21 46 42
21 47 43
21 47 43
21 47 43
21 47 43
22 48 43
21 46 42
22 47 43
21 47 43
21 46 42
21 47 43
21 47 42
21 47 42
22 48 43
21 47 43
22 48 44
21 46 42
21 47 43
21 47 43
21 46 42
21 47 43
21 47 43
21 47 43
21 47 43
21 47 43
22 48 43
22 48 43
22 49 44
22 48 44
21 47 43
21 46 42
22 48 44
21 46 42
21 47 42
21 46 42
22 47 43
21 47 43
21 46 42
22 48 44
22 48 44
21 47 43
22 48 43
22 48 44
22 48 43
22 48 44
21 47 43
22 48 44
21 47 43
22 48 44
22 49 44
22 48 43
22 49 44
22 49 44
22 48 43
20 44 41
21 47 43
21 46 42
20 46 42
20 45 42
20 45 41
20 44 41
21 46 42
20 45 42
20 45 41
20 45 42
21 46 42
20 45 41
21 46 42
21 46 42
20 45 41
20 45 41
20 45 41
21 46 42
20 45 42
21 46 42
20 45 41
20 45 41
20 45 41
20 45 41
21 46 42
21 46 42
21 46 42
21 45 42
20 44 41
20 45 41
20 45 41
21 46 42
21 46 42
21 45 42
20 45 41
20 45 41
20 45 41
21 46 42
20 45 41
21 46 43
21 46 42
21 46 42
20 45 41
21 46 42
20 45 41
21 46 42
20 45 41
21 46 42
20 45 41
21 46 42
21 46 42
21 46 42
20 45 41
20 45 41
21 46 42
21 46 42
21 47 43
21 47 43
21 46 42
21 46 42
21 46 42
21 47 43
21 46 42
21 47 43
21 46 42
21 47 43
21 46 42
21 46 42
21 46 42
22 48 43
21 47 43
21 46 42
22 48 44
21 47 43
21 47 43
21 47 43
21 47 43
22 47 43
21 46 42
21 47 42
22 49 44
21 47 43
22 48 44
21 47 43
21 47 43
21 46 42
21 47 43
21 47 42
22 48 43
21 47 43
21 47 43
21 46 42
22 47 43
22 48 43
21 46 42
21 47 43
21 47 43
22 48 44
21 46 42
22 48 43
22 47 43
22 48 44
22 48 44
22 48 44
22 49 44
21 47 43
21 47 43
22 48 44
22 48 43
22 49 44
22 48 44
22 49 44
22 49 44
22 48 43
22 48 43
22 48 44
22 48 43
22 48 44
22 48 44
20 45 41
20 44 40
20 45 41
20 45 41
20 44 40
20 44 41
20 45 41
20 45 42
21 46 42
21 46 42
20 45 42
20 45 41
20 45 41
20 45 41
20 45 42
20 45 41
21 46 43
20 44 40
21 46 42
20 45 41
20 44 40
20 45 41
21 46 42
21 46 42
21 47 43
20 45 41
20 45 41
20 45 41
21 46 42
20 45 41
20 44 41
21 46 42
21 47 43
21 46 42
21 47 43
20 45 41
21 46 42
21 46 42
20 45 42
21 47 43
20 45 41
20 45 42
21 47 43
21 47 43
21 47 43
21 46 42
21 46 42
21 46 42
20 45 41
21 46 42
21 46 42
21 47 43
21 46 42
21 46 42
21 46 42
20 45 41
20 45 41
21 46 42
21 46 42
21 46 42
21 47 43
21 46 42
21 46 42
21 46 42
21 47 43
21 46 42
21 47 43
22 48 43
21 46 42
21 47 43
21 47 43
21 45 41
21 46 42
22 48 44
21 46 42
21 46 42
21 47 43
22 48 44
22 48 44
21 47 43
21 47 43
22 48 43
21 47 43
21 47 43
21 47 43
22 49 44
21 47 43
22 48 44
22 48 43
22 47 43
21 46 42
21 47 43
21 47 43
21 47 42
22 48 43
22 48 44
21 47 43
21 47 43
21 47 43
22 48 43
22 48 44
22 48 44
21 47 43
22 48 44
21 47 43
21 46 42
23 50 45
22 48 44
22 48 43
22 49 44
21 47 43
22 48 44
22 48 44
22 49 44
21 47 42
22 48 44
22 47 43
22 48 43
22 48 44
22 49 44
20 45 42
20 45 41
20 45 42
20 45 41
20 45 41
20 45 41
20 44 41
21 46 42
20 45 42
20 44 41
20 45 41
20 44 41
20 45 42
20 45 41
20 45 42
20 45 41
20 45 41
20 44 41
20 44 41
21 46 42
20 45 41
21 46 42
21 46 42
20 45 41
21 46 42
20 45 41
20 45 42
20 45 41
20 45 41
21 46 42
21 47 43
20 45 42
20 45 42
21 46 42
20 45 41
20 45 42
20 45 41
20 45 42
21 46 42
21 46 42
20 45 41
21 47 43
21 47 43
20 45 41
20 45 41
20 45 41
21 46 42
21 46 42
21 46 42
20 45 41
21 46 42
21 47 43
21 46 42
21 47 43
21 47 43
20 45 41
20 45 41
21 46 42
21 47 43
21 46 42
20 44 41
21 47 43
21 47 43
21 46 42
21 47 43
21 46 42
21 46 42
21 46 42
21 46 42
21 47 43
21 46 42
21 46 42
21 46 42
21 47 43
21 46 42
21 47 43
21 47 43
21 46 42
21 47 43
21 47 43
22 48 44
21 47 42
21 47 43
21 46 42
21 46 42
21 47 43
22 49 44
22 48 43
21 47 43
22 48 44
21 47 43
21 47 43
21 47 43
22 48 43
21 47 43
21 47 43
21 46 42
21 47 43
22 48 43
22 47 43
22 48 44
22 49 44
21 47 43
22 48 43
21 47 42
22 48 44
22 48 43
22 48 44
21 46 42
21 46 41
22 48 44
21 47 43
22 48 44
21 47 43
22 48 44
22 48 43
22 48 43
22 49 44
22 48 43
21 46 42
20 46 42
20 44 41
20 45 41
20 44 41
20 45 41
21 46 42
20 45 41
21 46 42
20 44 41
21 46 42
20 44 40
21 46 42
20 44 41
20 45 41
20 45 42
20 44 41
20 45 41
21 47 43
21 46 43
20 44 41
21 46 42
20 45 41
20 44 40
21 46 42
20 45 41
21 45 42
20 45 41
20 45 41
20 45 41
21 47 43
21 45 42
21 46 42
21 46 42
21 46 42
20 45 41
21 46 42
20 45 41
20 45 41
21 46 42
21 46 42
21 46 42
21 47 43
20 45 41
21 47 43
21 46 42
20 44 41
21 46 42
21 47 43
21 45 42
21 46 42
21 47 43
21 46 42
21 46 42
21 47 43
20 45 41
21 46 42
21 46 42
21 46 42
21 46 42
21 47 43
21 46 42
22 47 43
21 47 43
21 46 42
21 47 43
21 46 42
21 47 43
21 47 43
21 46 42
21 47 43
22 48 44
21 46 42
22 48 44
21 47 43
21 47 42
22 48 43
22 48 44
21 47 43
21 46 42
22 48 44
21 47 43
21 47 43
21 47 43
21 47 43
21 47 43
21 47 43
22 48 44
21 47 43
21 46 42
21 47 43
21 47 43
21 47 43
22 48 43
22 48 44
22 48 44
22 48 44
22 47 43
21 46 42
21 47 43
21 47 42
22 47 43
22 49 44
22 48 44
21 47 43
22 49 44
22 48 44
22 48 43
22 48 43
23 50 45
22 48 43
21 47 43
21 47 43
22 48 44
22 49 44
22 48 43
22 49 44
22 49 44
22 48 44
22 48 44
22 48 44
20 45 42
20 44 40
21 46 42
20 45 41
20 44 40
20 45 42
21 46 42
20 44 41
20 44 41
20 45 42
20 44 41
20 45 41
20 44 41
20 45 41
20 44 40
21 46 42
20 45 41
20 45 41
21 47 43
20 45 41
20 45 42
20 45 41
21 46 42
20 45 42
21 46 42
20 45 41
21 46 42
21 46 42
20 44 41
20 45 41
21 46 42
21 46 42
21 46 42
21 46 42
21 47 43
21 46 42
21 47 43
21 46 43
21 46 42
20 45 41
21 46 42
20 45 41
20 45 41
21 46 42
21 47 43
21 47 43
20 45 41
21 46 42
20 45 41
21 46 42
20 45 41
20 44 41
22 49 44
21 46 42
21 46 42
21 46 42
21 46 42
21 46 42
21 46 42
20 45 41
20 45 41
21 46 42
21 47 43
20 45 41
21 46 42
21 46 42
21 46 42
21 46 42
21 46 42
22 48 44
21 45 41
21 47 43
21 47 43
20 45 41
22 48 44
21 47 43
22 47 43
22 48 43
21 47 43
22 48 44
22 48 44
22 48 44
21 46 42
21 47 43
21 46 42
22 48 44
22 47 43
22 48 44
21 46 42
22 49 44
21 46 42
22 47 43
21 47 43
21 47 43
21 47 43
22 47 43
22 48 44
22 48 44
22 48 44
22 49 44
21 47 43
22 48 44
21 47 43
22 47 43
22 47 43
21 47 43
22 48 43
22 48 44
22 48 44
22 47 43
22 47 43
21 47 43
21 47 42
22 48 43
22 49 44
22 48 44
22 48 43
22 47 43
21 47 43
21 47 43
20 45 42
20 44 40
20 45 41
20 45 41
20 45 41
20 45 41
20 45 41
20 44 40
20 44 40
20 45 41
21 46 42
20 45 41
20 44 40
20 44 41
20 45 41
21 46 42
20 44 41
20 45 42
20 45 41
21 47 43
20 45 41
20 44 40
20 45 42
20 45 41
20 44 41
21 46 42
20 44 41
20 45 42
20 45 42
20 45 41
20 45 41
21 47 43
21 45 41
20 44 41
21 47 43
21 46 42
21 46 42
21 46 42
20 45 41
20 45 41
20 45 41
20 45 41
21 46 42
21 46 42
21 47 43
21 46 42
20 45 42
21 47 43
21 46 42
21 46 42
20 45 41
21 46 43
21 45 42
21 46 42
21 47 43
20 45 42
21 46 42
21 45 41
21 47 43
22 48 43
21 47 43
21 46 42
20 45 41
21 46 42
21 47 43
21 47 43
21 46 42
21 46 42
21 47 43
22 48 44
21 47 43
20 45 41
21 46 42
21 47 43
21 46 42
21 45 41
21 46 42
22 48 44
21 47 43
21 46 42
21 47 43
21 47 43
22 49 45
21 47 43
21 46 42
21 47 43
21 46 42
21 46 42
21 47 43
22 48 44
21 47 43
21 46 42
21 46 42
21 47 43
22 47 43
22 48 43
22 48 44
21 46 42
22 48 44
21 47 43
21 47 43
22 47 43
22 48 44
22 48 44
22 48 44
22 48 43
22 48 43
21 46 42
22 48 44
22 48 43
22 48 43
21 47 43
21 47 43
21 47 43
22 48 44
22 48 44
22 48 44
22 48 44
21 47 43
21 47 43
20 45 41
20 44 41
21 46 42
20 44 40
20 44 41
20 44 40
21 46 42
20 44 41
21 46 42
21 46 42
20 45 42
20 44 40
20 45 42
20 45 42
21 46 42
20 44 41
20 44 40
20 44 41
21 45 42
20 45 41
20 44 41
20 45 41
20 44 40
21 46 42
20 45 42
21 46 42
20 44 41
20 45 41
20 45 42
20 45 41
20 44 40
21 46 42
21 46 42
20 45 41
21 46 42
20 45 42
20 45 42
21 46 42
20 45 41
21 46 42
21 46 42
20 45 41
20 45 41
20 45 41
20 45 41
21 47 43
21 46 42
21 46 42
21 46 42
21 46 42
21 46 42
21 46 42
20 45 41
21 46 42
20 45 41
21 46 42
21 46 42
21 46 42
21 47 43
21 47 43
21 46 42
21 46 42
21 46 42
21 46 42
21 46 42
21 46 42
21 46 42
21 47 43
21 46 42
21 46 42
22 49 44
21 47 43
20 45 41
21 47 43
21 47 42
21 46 42
21 46 42
21 47 43
20 45 41
21 46 42
22 47 43
21 47 43
22 48 43
21 47 43
21 47 43
21 47 43
21 47 43
21 47 43
21 47 43
21 47 42
21 47 43
21 46 42
22 48 43
21 46 42
22 48 44
22 48 43
21 47 43
22 48 44
21 47 42
22 48 44
22 47 43
21 47 43
22 48 44
22 49 44
21 47 43
21 47 43
22 47 43
22 48 43
22 49 44
21 46 42
22 48 44
21 47 43
21 47 43
22 49 44
22 49 45
22 48 44
22 48 43
22 48 44
22 48 43
22 48 43
20 44 41
20 44 40
20 45 41
21 46 42
21 46 42
20 45 42
20 45 42
20 45 41
20 45 41
20 44 41
19 43 40
21 46 42
20 45 41
20 45 41
20 45 41
20 45 41
21 46 42
21 46 42
20 45 41
21 46 42
20 45 41
19 43 40
20 44 41
21 46 42
20 45 41
21 46 42
20 45 41
20 45 41
21 46 42
20 45 42
21 46 42
20 45 41
20 45 41
20 45 41
20 45 41
21 46 42
20 45 42
20 45 41
21 47 43
21 46 42
20 45 41
21 47 43
21 46 42
21 46 43
21 46 42
21 47 43
21 47 43
21 46 42
21 46 42
21 47 43
20 45 41
21 46 42
21 46 42
20 45 42
21 47 43
21 46 42
21 46 42
21 47 43
21 46 42
21 46 42
21 46 42
20 45 41
20 45 41
21 46 42
21 46 42
20 45 41
21 47 43
22 48 43
21 47 43
21 46 42
21 46 42
21 47 43
21 46 42
21 46 42
22 48 44
21 47 43
21 46 42
21 46 42
21 47 43
21 47 43
21 47 43
21 47 43
22 48 44
21 46 42
21 47 43
21 47 43
21 47 43
21 47 43
22 47 43
21 47 43
21 47 43
21 46 42
22 48 44
22 47 43
21 47 43
21 47 43
21 47 43
22 48 43
22 48 44
21 47 42
21 46 42
21 47 43
21 47 43
22 48 44
22 48 44
21 47 43
21 47 43
22 49 44
21 47 43
22 47 43
22 48 43
22 49 45
22 48 43
22 48 44
21 47 43
22 48 44
23 50 45
22 49 44
22 49 45
22 48 43
20 45 42
20 44 41
20 45 42
20 45 42
20 44 40
20 45 41
20 44 40
20 44 41
20 45 41
20 45 41
21 46 42
20 45 41
20 45 42
20 45 41
20 44 41
21 46 42
20 44 41
21 46 42
21 45 42
20 45 41
20 45 41
21 46 42
21 46 42
20 45 41
21 46 42
21 46 42
21 46 43
21 46 42
21 46 42
21 46 42
21 46 42
20 45 42
20 45 41
21 46 42
20 44 40
21 46 42
21 46 42
21 46 43
20 45 41
21 46 42
21 46 42
21 46 42
21 46 42
20 45 42
21 46 42
21 47 43
20 45 42
21 47 43
21 47 43
21 46 42
21 46 42
21 46 42
21 46 42
21 46 42
21 47 43
21 46 42
22 47 43
21 46 42
21 46 42
20 45 41
21 47 43
21 47 43
21 46 42
21 45 41
20 45 41
20 45 41
21 46 42
21 45 42
21 47 43
21 46 42
21 46 42
21 46 42
21 46 42
21 47 43
21 47 43
22 48 43
21 47 43
21 46 42
21 46 42
21 47 43
21 47 43
21 47 43
21 46 42
21 46 42
21 47 43
21 47 43
21 47 43
21 47 43
21 47 43
21 46 42
21 46 42
21 47 43
21 46 42
21 46 42
21 47 43
21 47 43
21 47 43
21 46 42
21 47 43
21 46 42
21 47 43
21 47 43
21 47 43
22 48 44
21 47 42
21 47 43
21 46 42
22 47 43
21 47 43
21 47 43
22 48 44
21 45 41
21 47 43
22 48 44
22 48 44
22 48 44
21 47 43
22 48 43
21 47 43
21 47 43
20 45 42
20 45 41
20 44 40
20 45 41
20 44 40
20 44 40
20 45 41
20 44 40
21 46 42
20 45 42
21 46 42
21 46 43
20 44 41
20 44 41
21 46 42
20 44 40
20 45 41
20 45 41
20 45 41
20 45 41
20 45 41
21 47 43
20 44 40
20 45 41
21 47 43
20 45 41
21 46 42
21 45 42
20 45 41
21 45 42
21 46 42
21 47 43
20 44 40
21 46 42
21 46 42
20 44 41
20 45 41
21 45 42
20 45 41
21 46 42
21 47 43
21 47 43
20 45 41
21 46 42
20 45 42
20 45 41
21 46 42
20 45 42
21 46 42
21 46 42
21 46 42
20 45 41
21 47 43
21 46 42
21 46 42
21 46 42
21 46 42
20 45 41
21 46 42
21 46 42
21 46 42
21 46 42
21 46 42
21 46 42
21 46 42
21 46 42
21 47 43
22 47 43
21 46 42
21 46 42
21 47 42
21 46 42
21 47 43
21 47 42
21 45 41
21 47 43
21 45 41
21 46 42
21 46 42
21 47 43
21 46 42
21 46 42
21 47 43
22 47 43
21 47 43
21 46 42
21 47 43
21 47 43
22 48 44
21 46 42
21 46 42
22 47 43
21 46 42
22 48 43
22 48 43
21 47 43
21 47 43
22 48 44
21 47 43
21 46 42
21 46 42
21 47 43
21 46 42
21 46 42
22 48 44
22 49 44
21 45 41
22 48 44
22 48 44
21 47 43
21 47 43
21 46 42
21 47 43
21 47 43
21 47 42
22 49 44
21 47 43
22 48 43
22 48 43
22 48 43
20 45 41
20 44 41
20 45 41
20 44 41
20 45 41
20 45 42
20 45 42
20 45 41
20 45 41
20 45 42
20 45 42
21 46 42
20 44 41
19 43 40
20 45 41
21 46 42
20 45 41
21 46 42
21 46 42
20 44 41
21 46 42
20 45 41
20 45 41
20 45 42
20 46 42
20 45 41
20 45 42
20 44 41
20 45 41
20 44 40
20 45 41
20 45 41
20 45 41
20 45 41
21 46 42
21 45 42
21 46 42
21 46 43
21 45 42
20 45 41
20 45 41
21 46 42
20 45 41
21 46 42
20 45 41
20 45 41
21 47 43
21 46 42
21 46 42
21 46 42
20 45 41
21 47 42
20 45 42
21 46 42
21 46 42
21 45 41
21 46 42
21 46 42
21 46 42
21 46 42
21 46 42
21 46 42
21 46 42
21 47 42
21 46 42
21 46 42
21 46 42
21 47 43
22 48 43
21 47 43
22 47 43
21 46 42
21 47 43
21 46 42
21 47 43
21 47 43
21 46 42
21 46 42
21 46 42
21 46 42
21 46 42
21 47 43
21 46 42
21 47 42
22 49 44
21 47 43
21 47 43
21 46 42
21 47 43
21 46 42
22 48 44
21 47 43
21 47 43
21 46 42
21 47 43
22 48 44
21 47 43
21 47 43
22 48 44
21 47 42
21 46 42
21 46 42
21 46 42
22 48 43
22 47 43
22 47 43
22 48 44
21 47 43
22 48 44
22 48 43
21 47 42
21 47 43
21 47 43
21 47 43
22 49 44
21 47 43
21 47 43
22 48 44
22 48 43
22 48 43
20 44 41
20 45 41
20 45 42
20 44 40
20 45 41
20 44 40
21 46 42
20 44 41
20 45 41
20 45 41
20 45 42
20 45 41
20 45 41
20 45 41
20 45 42
20 44 41
20 45 41
21 46 42
20 45 41
20 45 41
21 46 42
20 44 40
21 46 42
21 46 42
21 46 42
20 45 42
21 46 42
20 45 41
20 45 41
20 45 41
20 45 41
20 45 41
21 46 42
20 45 41
21 46 42
21 47 43
21 45 42
21 46 42
21 46 42
21 46 42
21 46 42
21 46 42
21 46 42
20 44 41
21 46 42
20 45 42
20 45 41
21 46 42
21 47 43
21 46 42
21 46 42
21 47 43
21 45 41
20 45 41
21 47 43
20 45 41
20 45 41
20 45 41
21 46 42
20 45 41
21 46 42
22 48 44
20 45 41
21 46 42
21 46 42
20 45 41
21 46 42
21 46 42
21 47 43
21 46 42
21 47 43
21 47 43
20 45 41
21 46 42
21 47 43
21 47 43
21 46 42
21 46 42
21 46 42
21 46 42
21 46 42
20 45 41
21 46 42
21 47 43
21 46 42
21 46 42
21 47 43
21 46 42
21 47 43
22 48 43
21 47 43
21 47 43
21 47 42
21 47 43
21 47 42
21 47 43
21 47 43
21 46 42
22 48 43
21 47 43
21 47 43
21 46 42
21 47 43
22 48 44
21 46 42
21 47 43
21 46 41
22 48 43
21 46 42
21 46 42
22 49 44
21 46 42
22 48 43
21 47 43
22 48 44
21 47 43
21 47 43
21 47 43
22 47 43
22 49 44
21 46 42
20 44 40
20 45 42
20 44 41
20 44 41
20 44 41
20 45 42
20 45 41
20 45 42
20 44 40
21 46 42
20 44 41
20 45 41
21 46 42
20 44 41
20 45 42
20 45 41
20 45 41
21 47 43
21 46 42
20 44 40
21 47 43
20 45 41
20 44 41
20 45 42
21 46 42
20 44 41
20 45 41
20 44 41
20 44 41
21 46 42
21 46 42
21 46 42
21 46 42
19 43 40
21 45 42
20 45 41
20 45 42
21 46 42
21 46 42
21 47 43
21 47 43
21 46 42
20 44 41
21 46 42
20 45 41
21 46 42
20 45 41
21 46 42
20 45 41
21 46 42
20 45 41
21 47 43
21 46 42
21 46 43
21 46 42
21 46 42
21 46 42
21 46 42
21 47 43
21 46 42
21 46 42
21 47 43
21 46 42
20 45 41
21 47 43
20 45 41
21 47 43
21 46 42
21 46 42
21 45 42
21 46 42
21 46 42
21 46 42
21 47 43
21 46 42
21 47 42
21 46 42
21 46 42
21 46 42
21 46 42
21 46 42
22 48 43
21 47 43
21 47 43
21 46 42
21 46 42
21 47 43
20 45 41
21 46 42
21 47 43
21 46 42
20 45 41
22 48 44
22 48 43
21 47 43
21 46 42
21 46 42
21 46 42
21 47 43
21 47 43
21 47 43
21 47 43
22 48 44
21 47 42
21 47 43
21 47 43
22 48 44
21 47 43
21 46 42
21 47 43
22 47 43
21 47 43
21 47 43
21 46 42
21 46 42
22 48 44
21 47 43
22 48 44
22 48 44
21 46 42
21 45 42
20 45 41
20 45 41
21 46 42
20 44 41
20 45 42
20 45 41
20 45 41
20 45 41
21 46 42
21 46 42
20 45 41
20 45 41
20 45 41
21 45 41
20 45 42
20 45 42
20 45 41
20 45 41
20 45 41
20 44 41
21 46 42
21 46 42
20 44 40
20 44 40
20 44 41
20 45 41
21 46 42
20 45 42
21 47 43
21 46 43
21 46 42
21 45 42
21 47 43
20 45 41
20 45 41
20 45 41
20 45 41
21 46 42
21 46 42
20 45 41
20 45 41
21 46 42
21 46 42
21 46 42
21 46 42
21 46 42
21 46 42
21 46 42
20 45 41
21 46 42
21 45 42
20 45 41
21 46 42
21 47 43
20 44 41
21 46 42
21 46 42
21 46 42
22 48 43
21 46 42
21 45 42
21 47 43
21 46 42
21 46 42
21 46 42
20 45 41
21 47 43
21 46 42
21 47 43
21 46 42
20 45 41
22 48 44
21 46 42
21 47 43
21 47 42
21 47 43
21 46 42
21 46 42
21 47 43
21 47 42
21 46 42
21 47 43
21 46 42
21 46 42
21 46 42
21 46 42
21 46 42
21 47 43
21 47 43
21 47 43
21 47 43
21 47 43
21 47 43
21 47 43
21 47 43
21 47 42
21 46 42
21 47 43
21 47 43
22 48 44
22 49 44
20 45 41
22 48 44
21 47 43
22 48 44
21 47 43
21 46 42
21 47 43
21 47 43
21 47 43
21 47 42
21 46 42
21 47 42
22 47 43
22 49 44
21 47 43
21 47 43
22 48 44
20 44 41
20 45 42
20 45 42
20 44 41
20 45 42
20 45 41
20 44 40
20 45 41
20 44 41
21 46 42
20 45 41
20 45 41
21 46 42
20 45 41
20 45 41
20 45 41
20 45 41
20 45 41
21 46 42
20 45 41
20 45 41
20 45 41
20 44 41
21 45 42
21 46 42
20 44 41
20 45 42
20 45 41
20 44 41
20 45 41
21 46 42
20 45 41
21 46 42
20 45 41
21 47 43
20 45 41
21 47 43
21 46 42
20 45 41
21 47 43
21 46 42
20 45 41
21 46 42
20 44 41
20 45 41
21 46 42
21 47 43
21 46 42
21 45 42
20 45 41
21 46 42
21 46 42
21 46 42
21 47 43
21 45 42
21 46 42
21 46 42
21 46 42
21 46 42
21 47 43
21 46 42
20 45 41
21 46 42
21 46 42
20 45 41
20 45 41
21 45 41
20 45 41
20 45 41
20 45 41
21 47 43
20 45 41
21 46 42
21 47 43
21 46 42
21 47 43
21 47 43
21 47 43
21 46 42
22 47 43
20 45 41
22 48 43
21 45 41
22 48 43
20 44 40
21 46 42
21 46 42
21 47 43
21 46 42
21 47 43
22 48 44
21 46 42
22 48 43
22 47 43
22 48 44
21 47 43
21 47 43
21 47 42
22 48 44
21 46 42
21 47 43
22 48 44
21 47 42
21 46 42
21 46 42
21 46 42
21 46 42
21 47 43
21 46 42
21 46 42
21 46 42
22 48 44
21 47 43
21 47 43
21 47 43
21 46 42
21 47 43
21 46 42
21 46 42
22 47 43
20 44 40
20 44 40
20 44 41
20 44 41
20 44 41
20 44 40
20 44 41
20 44 41
21 47 43
20 45 41
20 45 41
20 45 41
20 44 41
20 44 41
20 44 40
20 45 41
21 46 42
20 44 40
20 44 41
20 45 41
20 44 41
20 45 42
21 46 42
21 47 43
21 46 42
20 45 41
20 45 41
21 46 42
20 44 40
21 46 42
21 46 42
20 45 41
20 44 40
21 46 42
21 47 43
20 45 41
20 45 41
20 45 41
21 47 43
20 45 42
20 45 41
21 46 42
20 45 41
21 45 42
20 45 41
20 45 41
20 45 41
21 46 42
21 46 42
21 46 42
20 45 42
21 46 42
21 47 43
22 48 44
21 46 42
20 45 41
20 45 41
20 45 41
20 45 41
21 46 42
21 45 42
21 45 41
21 46 42
21 47 43
21 46 42
21 46 42
21 47 43
20 45 41
21 46 42
21 46 42
21 47 43
21 47 43
21 46 42
20 45 41
21 47 43
21 47 43
21 46 42
21 46 42
21 46 42
21 45 42
21 46 42
21 46 42
20 45 41
22 48 44
21 46 42
21 47 43
21 47 43
22 48 43
21 47 43
21 47 43
21 47 43
21 47 43
21 47 43
21 47 43
21 46 42
22 48 43
20 45 41
21 47 43
21 47 43
21 47 43
22 48 44
21 46 42
21 46 42
22 48 44
21 47 43
21 47 43
22 48 43
21 46 42
21 47 43
21 47 43
21 46 41
22 48 44
21 47 43
21 46 42
21 47 42
22 48 43
22 47 43
21 47 42
21 47 42
21 46 42
20 45 41
20 45 41
20 44 40
21 46 42
20 45 42
20 45 41
20 44 40
20 45 41
20 45 41
21 46 42
20 44 41
20 44 41
20 44 40
21 46 42
20 45 42
20 44 41
21 46 42
20 45 41
21 46 42
20 45 41
20 44 40
20 44 41
21 46 42
21 47 43
20 45 41
20 44 41
20 44 41
21 46 42
20 45 41
21 46 42
20 45 41
21 46 42
21 46 42
21 46 42
21 46 42
20 44 41
20 45 41
21 46 42
21 46 42
21 47 43
21 46 43
20 45 42
21 46 42
21 46 42
20 45 42
21 46 42
21 46 42
21 46 42
21 46 42
21 46 42
20 45 42
20 45 41
20 45 41
21 46 42
21 46 42
21 47 43
21 46 42
21 47 42
21 46 42
20 45 42
21 47 43
21 46 42
21 46 42
21 46 42
21 47 43
22 48 44
21 46 42
20 45 41
21 46 42
20 45 41
21 46 42
21 46 42
21 46 42
21 46 42
20 44 40
21 46 42
20 45 41
21 47 43
21 46 42
20 45 41
21 46 42
21 46 42
21 47 43
21 47 42
21 47 43
21 47 43
21 47 43
22 48 43
21 47 43
21 46 42
21 46 42
21 47 43
21 46 42
22 48 43
21 46 42
21 46 42
21 47 43
21 47 43
21 47 43
21 47 43
21 46 42
21 46 42
21 47 43
22 48 44
21 47 43
22 48 44
21 47 42
22 48 43
21 46 42
21 46 42
21 47 43
21 47 43
21 46 42
21 47 43
22 49 44
22 48 44
22 49 44
21 47 43
21 47 43
22 48 43
20 45 41
21 46 42
20 44 41
20 45 41
20 45 41
20 44 40
20 45 41
20 44 41
19 43 39
20 45 42
20 44 41
20 45 41
20 45 41
21 46 42
20 45 41
20 45 41
21 46 42
20 45 41
20 45 41
20 44 41
21 46 42
21 46 42
21 46 42
21 46 43
20 45 41
20 45 42
20 45 41
21 46 42
20 43 40
21 47 43
20 45 42
21 46 42
21 46 42
21 47 43
20 45 41
20 45 41
20 45 41
20 45 41
20 45 42
20 45 41
20 45 41
20 45 42
20 45 42
21 47 44
21 46 42
21 46 42
21 45 42
20 44 41
21 46 42
20 44 41
20 44 41
21 46 42
20 45 41
21 46 42
21 47 43
20 45 41
20 45 41
21 47 43
21 46 42
21 47 43
21 47 43
21 45 42
20 45 41
21 46 42
21 47 43
22 48 44
21 47 43
21 47 43
21 46 42
21 46 42
21 46 42
21 47 43
20 45 41
21 46 42
21 47 43
21 46 42
21 46 42
21 46 42
21 46 42
21 46 42
21 46 42
20 45 41
21 47 43
21 47 43
20 45 41
21 46 42
21 46 42
21 47 43
21 47 43
21 47 43
21 46 42
21 47 43
21 46 42
21 46 42
21 46 42
21 46 42
21 45 41
21 47 43
22 48 44
22 47 43
21 47 43
21 47 43
21 46 42
21 47 42
21 47 43
21 47 43
21 47 43
21 47 43
21 46 42
22 48 43
21 46 42
21 46 42
21 46 42
21 47 43
22 48 44
21 47 43
21 47 43
21 47 42
22 48 44
21 47 42
20 44 40
20 44 40
20 45 41
21 46 42
20 45 41
20 45 42
20 45 42
20 45 42
20 44 41
20 45 41
20 45 42
21 46 42
20 45 41
20 44 40
20 45 41
20 45 41
20 45 41
20 45 41
21 47 43
20 44 41
20 45 42
20 45 41
20 45 42
20 45 42
21 46 42
20 45 41
20 44 41
20 44 41
20 43 40
20 45 41
20 45 41
20 45 42
20 45 42
20 44 40
20 43 40
21 46 42
21 46 42
21 46 42
20 45 41
20 45 42
20 45 41
20 44 41
20 45 41
20 45 41
21 46 42
20 45 41
20 45 41
20 45 41
20 45 41
21 46 43
21 46 42
20 45 41
20 44 41
20 45 41
20 44 40
21 46 43
20 45 41
21 46 42
21 47 43
21 46 42
21 46 42
20 45 41
21 46 42
21 46 42
21 46 42
21 46 42
21 46 42
20 45 41
21 46 42
21 47 43
21 47 43
22 48 44
21 47 43
21 46 42
21 46 42
21 45 42
22 48 44
21 47 43
21 47 42
20 45 41
21 47 43
21 47 43
21 47 43
22 48 44
21 46 42
21 46 42
21 47 43
21 47 43
20 45 41
20 45 41
21 47 43
21 46 42
21 46 42
21 47 42
21 46 42
21 47 43
22 48 44
21 46 42
21 47 43
22 48 44
21 47 43
22 47 43
21 46 42
21 47 43
21 47 43
21 46 42
21 47 43
21 46 42
21 47 43
21 45 41
21 47 43
21 46 42
22 48 44
22 48 44
21 46 42
21 46 42
22 48 44
21 46 42
21 47 43
21 46 42
21 47 43
20 44 40
20 45 42
20 44 40
20 44 41
20 44 40
20 45 41
20 45 41
20 45 41
20 44 40
20 45 41
20 45 42
20 45 42
20 44 41
20 44 40
20 45 41
21 46 42
20 44 40
20 45 41
21 46 42
20 45 41
20 45 41
21 46 42
21 46 42
20 44 41
21 46 42
20 45 41
20 44 40
21 47 43
20 45 41
20 44 41
20 43 40
21 46 42
20 45 41
20 45 41
20 45 41
21 46 43
20 45 41
21 46 42
21 46 42
20 45 41
21 47 43
21 46 42
20 45 41
20 45 41
21 46 42
21 46 42
20 44 41
21 46 42
20 45 41
21 46 42
21 46 42
20 45 41
20 45 42
21 46 42
20 45 41
20 45 42
21 47 43
21 46 42
21 46 42
21 46 42
20 45 41
20 44 40
20 45 41
21 47 43
20 45 41
20 45 41
21 46 42
21 46 42
20 45 41
20 45 41
21 46 42
21 46 42
21 46 42
21 45 42
21 46 42
21 46 42
21 46 42
20 45 41
22 48 43
21 47 43
21 47 43
21 46 42
21 47 43
21 46 42
21 46 42
21 47 42
20 45 41
21 47 42
21 46 42
21 47 43
21 46 42
21 47 43
21 46 42
21 47 43
21 46 42
21 47 43
22 48 44
21 46 42
21 46 42
21 46 42
20 44 41
21 47 42
21 46 42
21 46 42
21 47 43
21 47 42
22 47 43
21 47 43
21 46 42
21 46 42
21 46 42
21 47 43
21 47 43
22 47 43
22 49 44
21 47 42
21 47 43
21 47 42
22 48 44
20 45 41
20 44 41
20 44 40
20 44 40
19 43 40
20 45 41
20 45 41
20 44 41
20 45 41
21 47 43
21 46 42
20 44 41
20 45 41
21 46 42
21 46 42
20 44 40
20 45 42
20 45 41
20 45 41
20 45 41
20 45 41
21 46 42
20 44 40
20 45 41
21 46 42
20 44 40
20 45 41
20 45 42
20 45 41
20 44 41
20 45 42
21 45 42
21 46 42
20 45 41
20 45 41
21 46 42
21 46 42
21 46 42
20 45 42
21 46 42
20 44 40
21 46 42
21 46 42
20 45 41
21 46 42
20 45 42
20 45 41
20 45 42
21 47 43
21 46 42
21 46 42
20 45 41
21 45 42
21 46 42
21 47 43
21 46 42
20 45 41
21 46 42
21 46 42
20 45 41
21 46 42
20 45 41
21 46 42
21 46 42
20 45 41
21 46 42
21 47 43
21 46 42
21 46 43
21 47 43
21 46 42
20 45 41
21 46 42
21 46 42
20 45 41
20 44 41
21 46 42
20 45 41
20 45 41
21 46 42
21 47 43
21 46 42
21 46 42
21 47 43
21 47 43
21 47 43
21 45 42
21 47 43
20 45 41
21 46 42
21 46 42
21 46 42
21 47 43
21 46 42
21 46 42
21 47 43
21 47 43
21 46 42
21 47 43
21 46 42
21 47 43
21 47 43
22 47 43
22 49 44
21 47 43
21 46 42
22 47 43
21 46 42
21 47 43
22 48 43
21 46 42
21 47 42
22 47 43
21 47 43
21 47 43
22 48 44
22 48 43
21 47 43
22 48 43
21 46 42
20 45 41
20 44 40
21 46 42
20 45 41
20 45 41
20 45 41
21 46 42
20 44 40
19 43 40
20 44 40
20 45 41
20 46 42
20 45 41
20 46 42
20 46 42
20 45 41
20 44 41
20 45 42
20 45 41
20 45 41
20 44 40
20 45 42
21 46 42
21 47 43
20 44 40
21 46 43
21 46 42
20 45 42
20 45 41
20 44 41
20 45 41
21 47 43
20 44 40
21 45 42
20 44 41
20 45 42
21 46 42
20 45 41
20 44 40
20 45 41
20 45 41
21 46 42
21 46 42
20 43 40
21 46 42
20 45 41
21 46 42
21 47 43
20 45 41
20 45 41
21 46 42
20 45 41
20 45 41
21 46 42
20 45 42
21 46 42
20 45 41
21 46 42
20 44 41
21 47 43
20 45 41
20 45 41
20 45 41
21 46 42
21 45 42
21 46 42
21 47 43
21 46 42
21 47 43
21 46 42
21 47 43
20 45 41
21 45 41
21 46 42
22 48 43
21 47 43
21 46 42
20 45 41
21 46 42
21 47 43
21 47 43
21 46 42
21 46 42
21 46 42
21 46 42
21 46 42
20 45 41
21 46 42
21 46 42
21 47 43
21 47 43
21 47 43
22 48 44
21 46 42
21 46 42
21 46 42
21 47 43
21 45 41
21 46 42
21 47 43
21 47 43
21 47 43
21 46 42
21 47 43
21 47 43
21 47 43
21 47 43
21 46 42
21 46 42
21 47 43
21 46 42
21 47 43
21 47 43
21 47 43
21 47 43
21 47 43
21 47 43
21 47 43
21 46 42
21 46 42
21 46 42
20 45 41
21 46 42
20 43 40
20 45 42
20 45 41
20 45 42
21 46 42
21 46 42
20 44 40
20 45 41
20 44 40
20 45 41
21 46 42
20 45 41
20 45 41
20 45 42
21 46 42
20 45 41
20 45 41
21 46 42
20 45 41
21 46 42
20 45 41
20 45 42
21 46 42
21 46 42
20 45 41
21 46 42
20 44 41
20 45 41
20 44 40
21 46 42
20 44 41
20 45 41
21 46 42
20 44 40
21 46 42
20 45 41
21 46 42
21 46 42
20 45 41
20 44 40
20 44 40
21 46 42
20 45 41
20 45 41
21 46 42
21 45 42
21 46 42
21 47 43
21 46 42
21 46 42
20 44 40
21 47 43
21 46 42
21 46 42
21 46 43
21 46 42
21 46 42
20 45 41
21 47 43
20 44 40
21 46 42
21 46 42
21 45 42
20 45 41
21 46 42
21 47 43
20 45 41
20 45 41
21 46 42
21 46 42
21 46 42
21 46 42
21 46 42
21 46 42
21 45 42
20 45 41
21 46 42
21 46 42
21 47 43
21 47 43
21 46 42
21 47 43
21 46 42
21 46 42
21 46 42
21 47 43
21 46 42
21 46 42
22 48 43
21 46 42
21 47 43
21 47 43
21 46 42
21 47 43
21 47 43
21 46 42
21 46 42
21 46 42
22 48 44
21 47 43
21 47 43
21 47 42
21 46 42
20 45 41
22 47 43
21 47 43
21 46 42
21 47 42
21 46 42
21 47 43
22 47 43
21 46 42
22 48 44
21 47 43
22 48 43
21 46 42
21 46 42
20 44 40
20 43 40
20 44 41
20 44 40
20 45 42
20 44 40
20 45 41
20 44 40
20 45 41
20 43 40
20 45 41
20 44 40
21 46 43
20 45 42
20 44 40
20 45 41
20 45 41
20 44 41
20 44 41
20 45 41
20 45 41
20 45 42
20 45 42
20 44 41
21 46 42
20 45 41
20 45 42
21 46 43
19 43 39
20 45 41
21 47 43
20 45 41
21 46 42
21 47 43
20 45 42
20 45 41
21 46 42
20 45 41
21 46 42
21 46 42
21 46 42
21 45 42
21 46 42
21 46 42
21 46 42
21 46 42
21 45 42
20 45 41
21 47 43
20 45 41
20 45 42
21 46 42
20 44 41
21 46 42
21 46 42
21 47 43
21 46 42
21 46 42
20 45 41
21 46 42
22 48 44
21 46 42
21 46 42
21 45 42
21 45 41
20 45 41
21 46 42
21 47 43
21 47 43
20 44 41
20 45 41
21 47 43
21 45 42
21 46 42
21 46 42
21 46 42
21 46 42
20 44 41
20 45 41
21 47 43
21 46 42
21 46 43
20 45 42
21 46 42
21 46 42
21 46 42
21 46 42
21 47 43
21 46 42
21 46 42
21 46 42
21 47 42
21 46 42
21 47 43
21 46 42
21 47 43
21 47 43
21 46 42
21 45 42
22 48 44
21 46 42
21 45 41
21 47 43
21 46 42
21 47 43
21 47 43
22 48 44
22 48 44
21 47 43
22 48 44
21 46 42
21 47 43
21 46 42
22 48 43
21 46 42
21 47 42
22 48 43
21 46 42
21 47 43
21 46 42
20 43 40
20 44 40
21 46 43
20 44 41
20 44 40
20 45 41
20 45 41
19 43 40
20 45 41
20 44 40
20 45 42
21 46 42
20 45 41
20 43 40
20 45 41
20 45 41
20 45 41
21 46 42
20 44 40
20 44 41
20 44 40
19 43 40
20 45 42
20 45 42
20 46 42
21 46 42
20 45 41
21 46 42
20 45 42
21 46 43
20 44 41
21 46 42
20 45 42
21 46 42
21 46 42
21 46 42
21 46 42
21 46 42
21 47 43
20 45 41
21 46 42
20 45 41
20 45 42
21 46 42
21 45 42
20 45 42
20 45 41
20 45 41
21 46 42
21 46 42
21 46 42
21 47 43
20 45 41
20 45 41
21 46 42
21 46 42
21 46 42
21 47 43
20 45 41
21 46 42
21 46 42
21 46 42
21 46 42
21 47 43
20 45 41
21 47 43
20 45 41
20 45 42
21 46 42
21 45 42
21 46 42
21 46 42
21 47 43
21 46 42
21 47 43
21 46 42
21 46 42
21 47 43
21 46 42
21 46 42
20 45 41
21 46 42
20 45 41
21 46 42
21 47 43
21 46 42
21 47 43
20 45 41
21 46 42
21 46 42
21 46 42
21 46 42
21 46 42
21 46 42
21 46 42
21 46 42
21 46 42
21 46 42
21 46 42
22 48 44
21 47 43
21 47 43
21 46 42
22 48 44
21 47 43
21 46 42
21 47 43
21 46 42
21 46 42
21 47 43
21 47 43
22 48 43
21 46 42
21 46 42
22 49 44
21 46 42
21 45 42
22 49 45
21 47 43
21 47 43
20 45 41
20 44 40
20 45 41
20 45 41
19 43 40
20 44 40
20 45 41
20 45 41
20 44 41
19 43 40
20 45 41
21 47 43
20 44 40
20 45 41
21 46 42
20 45 41
21 46 42
20 45 41
21 46 42
20 45 41
20 45 41
20 45 41
21 46 42
20 44 40
20 45 41
20 44 40
20 45 41
19 43 40
20 44 40
20 45 41
20 44 40
21 47 43
20 45 42
21 46 42
20 45 42
21 47 43
21 46 42
21 46 42
20 44 40
20 45 41
20 45 42
20 45 42
21 46 42
21 47 43
20 45 41
20 45 41
21 46 42
21 46 42
20 45 41
21 46 42
20 45 41
21 47 43
21 47 43
20 45 41
20 44 40
20 45 41
20 45 41
20 44 41
21 47 43
20 45 41
22 48 44
21 46 42
21 46 42
20 45 41
21 47 43
21 46 42
21 47 43
20 45 42
21 47 43
21 46 42
20 45 41
20 45 41
21 46 42
20 45 41
21 47 43
21 46 42
21 46 42
20 45 42
21 46 42
21 46 42
21 47 43
21 46 42
21 47 43
21 46 42
21 46 42
21 47 43
21 48 44
20 45 41
20 45 41
22 48 43
21 47 43
21 47 43
21 46 42
21 46 42
20 45 41
21 46 42
21 46 42
22 48 43
22 47 43
21 46 42
21 46 42
21 45 41
21 46 42
21 47 43
21 47 43
21 47 43
21 46 42
22 48 43
22 48 43
21 46 42
21 47 43
21 47 43
22 48 44
21 46 42
21 47 43
21 47 43
21 46 42
22 47 43
22 48 44
21 47 43
20 45 41
20 44 40
20 45 42
21 46 42
20 44 41
21 46 42
21 46 42
20 45 41
20 44 41
20 45 41
20 45 41
21 46 42
20 45 41
21 46 42
20 44 40
20 45 41
20 45 41
20 44 41
20 45 42
21 46 42
20 45 41
21 47 43
20 45 41
20 45 41
20 45 41
20 45 41
20 45 41
20 44 40
20 45 41
20 45 41
20 45 41
21 46 42
20 44 40
20 45 41
20 44 41
21 46 42
20 45 41
20 45 42
20 45 41
21 47 43
21 45 42
21 46 42
20 45 41
20 44 40
20 45 41
20 45 41
20 44 41
22 48 44
21 46 42
21 47 43
21 46 42
20 45 41
21 45 42
20 45 41
20 45 41
21 46 42
21 46 42
21 47 43
21 46 42
20 45 41
20 45 41
21 46 42
21 46 42
21 46 42
21 47 43
21 45 42
21 47 43
21 45 42
20 45 41
20 45 41
21 46 42
21 47 43
21 45 42
21 47 43
21 46 42
21 47 43
21 46 42
21 46 42
21 46 42
21 47 43
21 47 43
21 47 42
21 45 42
21 47 43
21 46 42
21 47 43
21 46 42
21 46 42
20 45 41
21 46 42
22 48 44
21 47 43
21 46 42
21 46 42
21 47 42
21 47 43
21 47 43
20 45 41
21 47 43
22 48 44
22 48 43
21 47 43
21 47 43
21 46 42
21 46 42
21 47 43
20 44 40
21 46 42
22 47 43
21 46 42
21 45 41
21 46 42
21 47 43
21 47 43
21 46 42
21 46 42
21 47 43
21 47 43
21 47 43
21 46 42
20 43 40
20 45 41
20 45 41
20 44 41
20 44 41
20 45 41
20 44 40
20 45 41
20 45 41
20 45 41
20 45 41
20 44 41
21 46 42
21 46 42
20 44 40
20 45 41
20 44 41
20 44 40
20 44 41
20 44 41
20 45 41
20 44 40
21 46 42
21 46 42
20 45 42
20 45 41
21 47 43
20 44 40
20 45 42
20 45 41
20 45 41
20 45 42
20 45 41
20 45 41
20 45 42
20 44 41
20 45 41
20 45 41
21 47 43
21 46 42
21 46 42
20 45 41
21 46 42
20 43 40
20 45 41
20 44 40
21 46 42
20 44 40
21 46 42
20 44 40
21 45 42
21 46 42
21 46 42
20 45 41
20 45 41
21 46 42
21 47 43
20 44 40
20 45 41
20 45 42
20 45 41
20 45 42
21 46 42
20 45 41
20 45 42
20 45 41
21 46 42
21 46 42
21 46 42
20 45 41
21 46 42
21 46 42
21 47 43
21 46 42
21 46 42
20 44 41
21 47 43
21 46 42
21 46 42
21 46 42
20 43 40
20 45 41
21 46 42
21 47 43
21 46 42
21 45 42
21 46 42
21 46 42
21 46 42
21 46 42
21 46 42
20 45 41
21 46 42
20 45 41
21 46 42
21 46 42
21 46 42
21 46 42
21 47 43
21 46 42
21 47 43
21 46 42
21 47 43
21 46 42
20 45 41
20 45 41
21 46 42
21 47 42
21 46 42
21 47 43
21 47 43
21 46 42
22 48 44
21 47 42
22 47 43
21 46 42
21 46 42
22 47 43
21 45 41
21 47 43
20 45 41
20 45 42
20 44 41
21 46 42
21 46 42
20 45 41
20 44 40
20 45 41
21 46 43
20 45 41
21 46 42
20 45 41
21 46 42
20 45 41
20 45 41
20 45 42
20 45 41
20 45 41
20 45 42
20 45 41
20 45 41
20 45 41
20 45 41
21 46 42
20 45 42
20 45 41
21 46 42
20 45 41
20 45 41
20 45 42
20 45 41
20 44 40
20 45 41
20 45 41
20 44 40
21 46 42
21 47 43
20 45 41
20 45 41
20 45 41
20 45 41
21 46 42
20 45 41
21 47 43
20 44 41
20 45 41
21 46 43
20 45 41
21 46 42
20 45 41
20 45 41
20 45 41
20 45 41
20 45 41
20 44 40
21 46 42
20 45 41
20 44 41
21 47 43
20 45 41
20 44 40
20 45 41
21 46 42
20 45 42
21 47 43
21 46 42
20 45 41
20 45 41
21 46 42
20 43 40
20 45 41
21 46 42
20 45 41
22 48 43
21 46 42
21 46 42
20 45 41
21 47 43
21 46 42
21 46 42
21 46 42
20 45 41
20 45 41
21 46 42
21 47 43
21 46 42
21 47 43
20 45 41
21 46 42
21 47 43
21 46 42
21 45 42
21 46 42
21 46 42
20 45 41
21 46 42
21 46 42
21 46 42
21 46 42
20 45 41
21 46 41
21 47 43
21 46 42
21 46 42
21 46 42
22 48 44
21 47 43
21 46 42
21 47 43
21 46 42
21 45 41
21 46 42
21 46 42
21 47 43
21 47 43
21 46 42
21 46 42
22 47 43
22 48 43
21 46 42
20 45 41
20 45 41
20 44 40
20 44 41
20 45 41
20 45 41
20 45 41
20 45 41
20 44 41
20 43 40
20 45 41
20 45 41
21 46 42
20 44 40
20 45 41
20 45 41
21 46 42
20 44 41
21 46 42
21 46 42
20 45 41
21 46 43
20 44 41
20 45 42
20 45 41
21 46 42
20 45 41
20 44 41
19 43 40
20 45 41
20 45 41
21 46 42
20 45 41
21 46 42
20 44 41
20 45 42
20 45 42
20 45 41
20 45 42
21 47 43
20 44 40
20 45 42
20 44 41
21 47 43
20 45 42
20 45 41
21 46 42
21 46 42
21 47 43
21 46 42
20 44 41
20 45 41
21 46 42
20 45 42
20 45 42
20 44 41
20 45 41
21 46 43
20 45 41
20 44 40
21 46 42
20 45 41
20 45 41
21 46 42
21 46 42
21 46 42
21 47 43
21 46 42
21 46 42
22 48 44
20 44 41
21 46 42
21 46 42
21 46 42
21 47 43
21 46 42
21 46 42
20 45 41
21 46 42
21 46 42
21 45 42
21 46 42
21 46 42
20 45 41
21 46 42
21 46 42
20 45 41
20 45 41
21 46 42
21 47 43
21 46 42
21 47 43
20 45 41
21 46 42
21 46 42
21 47 43
22 48 43
21 46 42
21 46 42
21 47 43
22 47 43
21 47 43
21 47 43
20 45 41
21 46 42
21 46 42
21 46 42
20 45 41
21 47 43
22 48 43
21 47 42
21 46 42
21 47 43
21 47 43
22 47 43
21 46 42
22 47 43
21 47 43
21 46 42
21 46 42
20 44 41
19 43 39
20 45 41
20 44 41
20 45 41
20 44 40
20 45 41
21 46 42
19 43 40
21 46 42
20 45 41
21 46 42
20 45 42
21 46 42
21 46 43
20 44 41
21 46 42
20 44 41
20 45 41
20 45 42
21 46 42
20 45 41
20 44 41
20 45 41
20 43 40
21 46 42
21 46 42
20 45 41
20 44 40
20 45 41
21 46 42
21 46 42
21 46 42
20 45 41
20 44 41
20 45 41
20 44 41
20 45 41
20 45 41
20 45 41
20 44 41
20 45 41
21 47 43
21 47 43
21 46 42
20 45 41
21 46 42
20 45 42
20 45 42
21 46 43
20 45 42
21 46 42
21 47 43
21 47 43
20 44 40
20 45 41
21 46 42
21 46 42
21 46 42
21 46 43
21 46 42
21 45 42
21 46 42
20 45 41
20 45 41
21 46 42
20 45 41
21 46 42
21 46 42
21 45 42
20 45 41
21 46 42
21 45 42
21 46 42
21 46 42
21 46 42
20 45 41
20 44 41
21 46 42
21 46 42
20 45 41
21 45 41
21 46 42
21 46 42
21 47 43
21 46 42
21 46 42
20 45 41
20 45 41
21 46 42
21 47 43
21 46 42
21 47 43
20 45 41
21 47 43
21 46 42
21 47 43
21 45 42
21 47 43
21 46 42
21 47 43
22 48 44
21 46 42
21 46 43
22 48 44
21 46 42
21 47 43
21 46 42
22 48 44
21 47 43
22 47 43
21 46 42
20 45 41
21 47 43
21 47 43
21 45 41
22 47 43
22 48 43
21 46 42
21 46 42
