P3
120 80
255
18 40 38
18 41 39
18 41 39
18 41 39
18 40 38
18 41 39
18 40 37
18 41 38
18 41 38
18 42 39
18 41 38
18 41 38
18 42 39
18 41 38
18 42 39
18 41 38
18 40 38
18 40 38
18 40 38
18 40 38
18 41 39
18 42 39
18 41 39
18 42 39
18 41 38
18 42 39
18 42 39
18 41 39
18 41 38
18 41 38
18 41 38
18 42 39
18 41 38
18 41 38
17 39 37
19 42 39
18 41 38
18 41 39
18 40 38
18 41 38
18 41 38
18 41 38
19 42 39
18 41 38
18 41 38
18 42 39
19 42 39
19 42 39
18 42 39
18 40 37
18 41 38
18 41 38
18 41 38
18 41 38
18 40 37
19 42 40
19 42 39
18 41 38
18 41 39
18 41 38
18 41 39
18 42 39
18 41 38
18 41 39
18 41 39
18 41 38
18 41 38
18 41 38
19 42 39
18 41 38
18 42 39
19 42 39
18 40 37
19 42 39
18 41 38
18 41 38
18 41 38
18 42 39
18 41 38
19 42 39
19 43 40
18 41 38
18 42 39
18 41 38
18 41 38
19 42 39
19 42 39
18 41 38
19 42 39
19 42 39
18 42 39
18 41 38
18 42 39
19 42 39
18 41 38
18 41 38
18 41 39
18 41 39
19 42 39
18 40 37
18 41 38
18 41 38
19 42 39
18 42 39
18 42 39
18 41 38
18 41 39
18 41 38
19 42 39
19 42 39
18 42 39
18 42 39
19 42 39
19 42 40
18 42 39
19 42 39
18 40 37
18 41 39
19 42 39
19 42 39
19 42 39
18 41 38
18 41 38
18 41 38
19 42 39
18 40 38
19 42 39
18 41 38
18 41 39
18 41 38
18 41 38
19 42 39
18 41 38
18 41 38
18 41 39
18 41 38
18 41 39
18 41 38
19 42 39
18 40 38
18 41 38
18 41 39
19 42 39
18 41 38
19 42 39
18 41 38
18 42 39
19 42 39
18 41 38
18 41 39
18 42 39
19 42 39
18 41 39
19 42 39
19 42 39
18 41 39
18 41 38
19 42 39
18 42 39
19 42 39
19 42 39
19 42 39
19 42 39
19 42 39
19 42 39
19 43 40
19 42 39
18 42 39
18 41 38
18 41 38
18 41 38
18 41 39
19 42 39
19 42 39
19 43 40
19 42 39
19 43 40
18 41 38
19 42 39
18 41 39
19 42 39
19 42 39
18 41 38
19 42 39
19 42 39
18 41 38
18 41 38
19 42 39
19 42 39
19 43 40
19 42 39
19 42 39
19 43 40
19 42 39
19 42 39
19 42 39
18 41 38
18 42 39
19 42 39
18 42 39
19 42 39
19 42 39
18 41 38
18 41 38
18 41 38
18 42 39
19 42 39
19 42 39
18 41 38
19 43 40
19 43 40
19 42 39
19 42 39
19 43 40
18 41 38
18 42 39
18 42 39
19 43 40
19 42 39
19 43 40
19 43 40
19 42 39
19 42 39
18 41 39
18 41 39
19 42 39
19 43 40
18 41 38
19 42 39
19 42 39
18 41 38
18 41 38
18 41 38
19 42 39
19 42 39
19 42 39
19 42 39
19 42 39
18 41 39
18 41 38
18 42 39
18 42 39
19 42 39
19 42 39
18 40 38
18 41 38
18 42 39
18 42 39
19 42 39
18 42 39
19 42 39
19 42 40
18 41 39
19 42 39
19 42 39
19 42 39
18 41 38
19 42 39
19 42 39
19 42 40
19 42 39
19 42 39
19 42 39
19 43 40
18 41 38
18 41 38
18 41 39
19 43 40
19 42 39
18 42 39
19 42 39
18 41 39
19 43 40
18 42 39
19 42 39
19 42 39
19 42 39
18 41 38
19 42 39
18 41 38
19 42 39
19 43 40
18 41 38
19 42 39
19 43 39
19 42 39
19 42 39
18 41 38
19 42 39
19 43 40
19 43 40
20 44 41
18 41 38
19 42 38
19 42 39
19 43 40
19 42 39
19 42 39
19 43 40
19 42 39
19 42 39
18 42 39
19 43 40
19 43 39
19 43 40
19 42 39
18 41 38
19 42 39
19 42 39
19 43 40
19 44 40
19 44 40
19 42 39
19 42 39
19 44 41
19 43 40
19 42 39
19 42 39
19 42 39
19 42 39
19 42 39
19 43 39
19 43 40
20 44 40
19 44 40
19 43 40
19 43 40
19 44 40
19 43 40
19 42 39
19 42 39
19 43 40
19 43 39
19 43 40
19 42 39
19 43 40
19 42 39
19 42 39
19 43 40
19 42 39
19 43 40
18 41 38
19 42 39
19 42 39
19 43 39
19 43 40
19 42 39
19 42 39
19 43 40
19 43 40
19 42 39
19 42 39
19 42 39
19 42 39
19 42 39
18 41 39
19 43 40
19 42 39
19 43 40
19 42 39
19 43 40
18 41 39
19 43 40
19 42 39
19 43 39
19 42 39
19 42 39
18 41 38
19 43 40
18 41 38
19 43 40
18 41 38
19 43 40
19 42 39
19 43 40
19 42 39
19 43 40
19 42 39
19 43 40
19 43 40
19 42 39
18 41 38
19 43 40
19 42 39
19 42 39
19 42 39
19 43 40
19 43 40
19 43 39
19 43 40
19 42 39
19 43 39
19 42 39
19 43 40
19 43 40
19 43 40
19 43 40
19 43 40
19 43 40
19 42 39
19 43 40
19 43 40
19 43 40
19 43 40
19 43 40
19 44 40
19 42 39
19 44 40
19 43 40
19 43 40
19 42 39
19 44 40
19 43 39
20 44 40
19 42 39
19 43 40
19 43 40
19 42 39
19 43 40
19 42 39
19 43 40
19 42 39
19 43 40
19 43 39
19 42 39
19 42 39
19 42 39
19 43 40
19 43 40
19 43 40
19 44 40
19 43 40
20 44 40
19 42 39
20 44 41
19 43 40
19 42 39
19 43 40
20 44 41
19 43 40
19 43 40
19 43 39
19 43 40
20 44 40
19 43 40
19 43 39
19 43 39
19 42 39
20 44 40
19 42 39
19 42 39
19 43 40
20 44 40
19 44 40
19 43 39
19 43 40
19 43 40
19 43 40
19 43 40
19 43 40
19 42 39
19 43 40
19 43 40
19 43 40
20 44 41
19 42 39
19 43 39
19 43 40
19 42 39
19 43 40
19 42 39
19 43 40
19 43 40
19 43 40
19 42 39
20 44 41
19 42 39
19 43 40
19 43 40
19 43 40
19 43 40
19 42 39
19 42 39
19 42 39
19 43 40
19 43 40
19 42 39
19 43 40
19 43 40
19 42 39
19 42 39
18 41 39
19 42 39
19 43 40
19 43 40
19 42 39
19 43 40
19 43 39
19 43 40
19 42 39
19 43 39
19 42 39
19 42 39
19 42 39
19 42 39
19 43 39
19 43 40
19 43 40
19 42 39
19 42 39
19 43 40
19 43 40
19 43 40
19 43 40
19 42 39
19 43 40
19 43 40
19 43 40
19 43 40
19 43 40
19 43 39
19 42 39
19 43 40
19 43 40
19 43 40
20 44 40
19 43 40
20 45 41
19 43 40
20 44 41
20 44 40
19 43 40
19 43 40
19 43 40
19 43 39
19 43 40
20 44 40
20 44 41
19 43 40
19 43 40
20 45 41
19 43 40
20 44 41
20 44 40
20 44 40
20 44 41
19 43 40
20 44 41
20 44 41
20 44 40
20 44 41
19 43 40
19 43 40
19 43 40
19 43 40
20 45 41
19 44 40
20 45 41
20 44 41
20 44 41
20 44 40
20 44 40
19 43 40
20 45 41
19 44 40
19 43 40
20 44 40
19 43 40
19 43 40
19 43 40
20 44 41
19 43 40
19 43 40
19 43 40
19 43 40
20 44 41
20 44 41
19 44 40
19 43 40
20 45 41
20 44 41
19 43 40
19 43 40
20 44 41
20 44 40
19 43 40
20 44 41
19 43 40
19 42 39
19 43 40
19 42 39
20 44 41
20 44 40
19 44 40
20 45 41
20 44 41
19 43 40
19 42 39
19 43 40
19 43 40
19 43 40
19 43 40
19 43 40
19 42 39
19 43 40
19 43 40
19 42 39
19 42 39
19 44 40
19 42 39
19 42 39
19 44 40
19 43 40
19 43 40
19 44 40
19 43 39
19 44 40
19 43 40
19 43 40
19 43 40
19 42 39
20 44 40
20 44 40
19 43 40
20 44 40
20 44 40
20 44 40
19 43 40
19 43 40
20 44 41
19 42 39
20 44 40
19 43 40
19 43 40
20 44 40
19 43 40
19 43 40
19 44 40
20 44 41
19 43 40
20 44 41
20 44 40
19 43 39
19 43 40
19 43 40
19 43 39
20 45 41
20 44 40
20 44 40
19 43 40
20 44 41
20 44 41
20 45 41
20 45 41
20 44 40
19 43 40
20 44 41
20 44 41
20 45 41
20 45 41
20 44 41
20 45 41
19 43 40
20 44 40
20 44 41
20 44 40
20 44 40
20 45 41
20 44 41
19 43 40
19 43 40
20 44 41
20 44 41
20 45 41
20 45 41
20 45 41
19 43 40
20 45 42
20 44 41
20 44 41
20 44 41
20 45 41
20 45 41
20 45 41
19 43 40
19 43 40
20 45 41
20 44 40
19 43 40
19 42 39
19 43 40
20 45 41
20 45 41
19 43 39
19 43 40
20 44 41
20 44 40
20 44 41
19 43 40
20 44 41
20 44 41
20 45 41
20 44 40
20 44 40
20 44 41
20 44 41
20 45 41
20 44 41
20 45 41
20 45 42
20 44 41
20 44 40
19 43 40
20 44 40
20 44 40
20 45 41
19 43 40
20 44 41
20 44 40
20 44 41
20 44 41
19 43 40
19 42 39
19 43 40
19 43 40
19 43 40
19 43 40
19 43 39
19 42 39
19 43 40
19 43 40
19 43 40
19 42 39
19 42 39
19 43 40
19 43 40
20 44 41
20 44 40
19 43 40
20 44 40
20 44 41
19 43 40
20 44 40
20 44 41
19 43 39
20 44 41
19 43 40
20 44 41
19 43 40
20 44 40
20 44 40
20 44 41
20 44 41
20 44 40
20 44 41
20 44 40
19 43 39
20 44 41
20 43 40
19 43 40
20 45 42
20 45 41
20 44 41
19 43 40
20 44 40
20 45 41
20 44 40
20 45 41
20 44 40
20 44 41
20 44 41
20 45 41
20 45 41
20 45 41
20 45 41
20 45 41
20 44 40
20 45 41
19 43 40
20 45 41
20 45 41
20 44 41
20 44 41
20 45 42
20 44 40
20 45 42
20 44 40
20 44 41
20 45 41
20 45 41
20 45 41
20 45 41
20 44 41
20 44 41
20 45 41
20 44 41
20 45 41
20 45 41
20 44 41
20 45 41
21 46 42
20 45 41
20 45 42
21 46 42
20 44 40
20 44 41
20 45 41
21 46 42
20 45 41
20 44 41
20 45 41
20 44 41
20 45 41
20 45 41
20 44 41
20 44 40
20 44 41
20 45 41
20 45 42
20 45 41
20 45 41
20 45 42
20 45 41
20 45 41
20 45 41
20 45 41
20 45 41
20 44 41
20 44 41
19 43 40
20 44 41
20 44 41
20 45 41
20 44 40
20 44 41
20 44 41
20 44 41
20 44 40
19 43 40
20 44 41
19 43 39
19 42 39
19 43 39
20 44 41
20 44 41
19 44 40
19 43 40
19 43 40
19 43 40
20 44 40
19 43 40
20 44 41
20 44 41
19 43 40
19 42 39
19 43 40
20 44 41
20 44 40
20 45 41
20 44 40
20 44 41
20 44 41
20 44 41
19 43 40
20 44 41
20 45 41
20 44 41
20 44 41
20 44 41
20 45 41
20 44 40
20 45 41
20 44 41
20 45 41
20 45 41
20 44 41
20 45 41
20 45 42
20 45 42
20 44 41
20 44 41
20 44 40
20 45 42
20 45 42
20 45 41
21 46 42
21 47 43
20 44 40
20 45 41
20 44 40
20 45 41
20 45 41
20 44 40
20 45 42
21 46 42
20 45 41
21 46 42
20 44 40
21 46 42
21 46 42
20 45 41
20 44 41
20 45 42
20 45 42
20 45 41
21 46 42
20 45 41
21 46 42
20 45 41
21 46 42
21 46 42
21 46 42
21 46 42
20 45 42
21 46 42
20 45 41
20 45 41
20 45 42
20 45 41
20 44 41
20 45 41
21 46 42
20 45 41
20 45 41
20 45 41
20 45 42
21 46 42
20 45 41
21 46 42
20 45 41
21 46 42
21 46 42
20 45 41
21 46 42
20 45 41
20 45 42
21 46 42
21 46 42
21 47 43
20 45 41
20 45 42
21 46 42
20 45 41
20 45 42
20 45 41
21 46 42
21 46 42
20 45 41
20 45 41
20 44 40
21 47 43
20 45 41
21 46 43
21 46 42
21 46 42
21 46 42
20 45 41
20 45 41
20 45 41
20 44 40
20 44 40
19 44 40
19 43 40
20 46 42
20 44 41
20 45 41
20 45 41
19 43 40
20 44 40
20 44 40
20 44 40
20 45 41
20 45 41
19 43 40
20 44 41
19 43 40
19 43 40
20 44 41
20 43 40
20 44 40
20 45 41
20 44 40
20 44 41
20 44 41
20 45 41
20 44 41
20 45 41
20 45 42
20 45 41
21 46 42
20 45 41
21 46 42
20 45 41
20 45 42
20 45 41
20 44 41
20 45 41
21 46 42
20 45 41
20 45 41
21 46 42
20 45 41
20 45 41
20 45 41
20 45 41
20 45 41
21 46 42
21 46 42
20 45 41
21 47 43
20 45 41
21 46 42
21 46 42
21 46 42
21 46 42
21 46 42
20 45 41
21 46 42
21 46 42
21 46 42
21 46 42
21 46 42
20 45 41
20 45 41
21 46 42
21 46 42
21 46 42
21 46 42
20 45 41
22 48 44
21 46 42
22 48 43
21 46 42
20 45 41
21 45 42
21 46 42
21 47 43
21 46 42
21 46 42
21 46 42
21 46 42
21 47 43
21 45 42
21 46 42
21 45 41
21 46 42
21 46 42
21 46 42
20 45 41
21 46 42
21 46 42
21 46 42
21 46 42
20 45 41
21 47 43
21 46 42
21 46 42
21 46 42
20 45 41
21 46 42
21 47 43
20 45 42
21 46 42
21 46 42
21 46 42
21 46 42
20 45 41
21 47 43
21 45 42
20 45 41
20 45 41
20 45 41
20 45 41
21 46 43
20 44 41
20 45 41
20 45 41
20 45 41
20 45 41
21 46 42
20 44 41
20 44 41
20 45 41
19 43 40
20 44 40
20 45 41
20 44 40
20 43 40
20 45 42
21 46 42
20 44 41
20 44 40
20 44 40
20 44 41
20 45 41
20 44 40
19 43 39
20 45 41
20 45 41
20 44 40
20 45 42
20 44 41
20 45 42
20 45 41
21 46 42
20 45 41
21 46 42
20 45 41
20 45 41
21 46 42
20 44 41
21 46 42
21 46 42
20 45 41
20 45 41
21 46 42
21 46 42
20 44 41
20 45 41
21 46 42
21 47 43
21 46 42
20 45 42
20 45 41
21 46 42
21 46 42
21 46 42
21 46 42
21 46 42
21 46 42
21 45 42
21 46 42
21 47 43
21 46 42
21 47 42
21 46 42
21 47 43
21 46 42
21 47 43
21 47 43
21 46 42
21 46 42
21 46 42
22 48 44
21 46 42
21 47 43
21 47 42
21 46 42
21 47 43
21 45 41
21 47 43
21 46 42
21 46 42
21 47 43
21 46 42
21 46 42
21 46 42
22 48 43
21 46 42
21 47 42
22 48 44
21 47 43
20 45 41
21 45 41
21 47 43
21 47 43
21 47 42
21 47 43
21 45 41
21 47 43
21 46 42
21 47 43
21 46 42
21 46 42
21 46 42
21 46 42
21 47 43
21 46 42
21 46 42
21 46 42
21 46 42
21 47 43
21 47 42
21 47 43
21 46 42
21 45 41
21 47 43
21 46 42
21 47 43
21 46 42
21 46 42
21 47 43
21 47 43
21 46 42
21 47 43
21 46 42
20 45 41
20 45 41
21 46 42
21 47 43
20 45 41
20 45 41
20 44 40
20 45 41
20 45 41
20 44 40
19 43 39
20 44 41
20 44 40
20 45 42
21 46 42
20 44 40
20 45 41
21 46 42
21 46 42
20 45 41
20 45 41
21 46 42
21 46 42
20 45 41
20 45 41
20 44 41
21 46 42
21 47 43
21 46 42
20 45 41
21 45 42
21 45 41
20 45 41
20 45 41
20 44 41
20 45 41
21 46 42
20 45 41
21 46 42
21 46 42
21 46 42
21 46 42
21 47 43
21 46 42
21 46 42
21 46 42
21 46 42
20 45 41
21 46 42
21 47 43
21 47 43
21 46 42
21 46 42
21 47 42
21 46 42
21 46 42
21 47 42
21 47 43
22 48 44
21 47 42
21 47 43
21 46 41
22 48 43
21 46 42
21 47 43
21 47 43
21 47 42
22 48 44
21 47 43
21 47 43
21 47 42
21 46 42
21 46 42
22 47 43
21 46 42
21 46 42
21 47 43
22 48 44
21 47 43
21 47 42
21 47 43
21 47 43
22 48 44
22 48 43
22 48 44
22 48 44
21 47 43
22 48 43
22 48 43
21 46 42
21 47 43
22 48 43
21 47 43
22 48 44
21 47 42
21 46 42
21 47 43
21 47 42
21 46 42
22 48 43
21 47 43
21 47 43
21 47 42
21 47 43
21 47 43
21 46 42
22 48 44
22 48 43
21 46 42
21 47 43
21 47 43
21 47 43
21 46 42
21 46 42
21 46 42
22 48 44
21 46 42
21 47 43
21 47 43
21 46 42
21 46 42
21 46 42
21 47 43
21 46 42
20 45 41
20 45 41
20 44 41
20 45 41
20 45 41
21 46 42
20 45 41
20 44 41
21 46 42
20 44 41
20 44 40
20 45 42
21 46 42
21 46 42
20 45 41
21 45 42
20 45 41
20 45 41
21 46 42
20 45 41
21 46 42
21 46 42
21 45 42
20 45 42
21 46 42
21 46 42
21 46 42
21 46 42
20 45 41
21 46 42
21 47 43
21 47 43
21 46 42
21 47 43
21 46 42
20 45 41
21 45 42
21 46 42
21 46 42
21 47 43
21 46 42
21 46 42
22 48 43
21 47 43
21 47 43
21 46 42
21 47 43
21 47 42
21 47 43
21 47 43
21 47 43
21 47 42
22 47 43
21 47 42
21 47 43
22 48 44
22 47 43
22 48 44
21 46 42
22 48 43
21 47 43
22 48 43
21 47 43
21 47 43
21 47 42
22 48 44
22 48 44
22 47 43
22 49 44
21 47 43
22 48 44
21 47 43
21 46 42
22 48 44
22 48 44
22 48 43
22 48 43
21 47 43
21 47 43
22 48 43
22 48 44
22 48 44
22 48 44
22 48 44
21 47 43
22 48 44
22 47 43
22 49 45
21 47 42
22 47 43
22 48 44
21 47 42
22 48 43
22 49 44
21 47 43
21 47 43
22 49 45
21 47 43
22 49 45
22 48 44
22 48 44
22 48 44
21 47 43
22 48 44
22 48 44
21 47 43
21 47 43
21 47 43
22 49 44
22 49 45
21 47 43
21 47 42
21 47 43
22 48 44
22 48 43
22 48 44
22 48 44
21 47 43
22 48 44
22 48 43
21 46 42
20 45 41
20 45 41
21 46 43
21 46 42
21 46 42
20 44 40
21 46 42
20 44 40
20 45 41
20 45 41
21 46 43
21 47 43
21 46 42
20 44 41
21 46 42
20 45 41
21 47 43
21 46 42
21 45 42
21 47 43
21 45 42
21 46 42
21 46 42
20 45 41
21 46 42
21 46 42
21 46 42
21 46 42
21 47 43
21 46 42
21 46 42
21 47 43
21 47 43
22 48 43
21 47 43
21 47 43
21 46 42
21 46 42
21 47 43
22 48 43
21 46 42
21 47 42
22 47 43
22 48 43
22 48 44
21 47 42
22 48 43
21 47 43
21 47 42
21 47 43
22 47 43
22 47 43
21 47 43
21 47 43
22 48 43
21 47 43
22 48 44
22 48 43
22 48 44
22 48 43
21 47 43
22 48 44
22 48 43
21 47 43
22 49 44
22 48 44
21 47 43
22 48 44
22 48 43
21 47 43
22 48 43
22 48 44
23 49 45
22 47 43
21 47 42
22 49 44
22 48 43
22 48 43
22 48 44
22 48 43
22 49 44
22 48 44
22 49 44
22 48 43
22 49 44
22 49 44
21 47 43
22 48 44
22 48 44
22 49 44
22 49 44
22 48 44
22 48 44
22 49 45
22 49 45
22 48 43
22 49 44
22 49 44
22 48 44
21 47 43
22 49 44
22 48 44
21 47 43
22 49 44
22 48 43
22 48 44
22 49 44
22 48 44
22 48 44
22 48 44
22 47 43
21 47 43
22 48 44
22 48 43
22 49 44
22 49 45
21 47 42
22 48 43
21 47 43
20 45 41
21 45 42
21 46 42
21 46 42
21 45 42
21 46 42
20 45 41
20 45 42
20 45 41
21 47 43
21 46 42
21 46 42
21 46 42
21 47 43
21 47 43
20 45 42
21 46 42
21 47 43
21 47 43
21 47 43
21 47 43
21 46 42
21 46 42
21 46 42
21 47 43
20 45 41
21 46 42
21 47 43
21 47 43
21 46 42
21 47 43
22 48 43
21 46 42
20 45 41
21 47 42
22 47 43
22 48 44
21 47 43
21 46 42
21 47 43
21 47 43
21 47 43
21 47 43
22 48 44
21 47 43
21 47 42
22 48 43
22 49 44
22 48 44
21 47 43
22 48 44
21 47 43
22 48 43
22 48 44
22 49 44
21 47 43
22 48 44
22 48 44
22 48 44
22 49 44
22 49 44
22 49 44
22 48 44
22 47 43
22 48 43
22 49 44
22 49 44
23 50 45
22 48 43
22 49 45
22 48 43
22 49 44
22 49 44
22 48 44
22 49 44
22 49 45
22 49 45
22 49 45
22 49 45
22 49 44
22 49 44
23 50 45
22 48 44
23 49 45
22 49 44
22 48 44
22 48 44
22 49 44
22 49 44
22 49 44
22 49 44
22 49 44
22 48 43
22 49 44
23 50 45
22 49 44
22 49 44
22 48 44
22 47 43
22 49 45
22 48 43
22 48 44
22 49 44
22 49 44
22 48 44
22 49 44
22 48 44
23 50 45
22 48 44
22 49 44
22 49 44
22 49 44
22 48 44
22 48 43
22 48 44
22 48 43
22 48 43
22 48 44
22 48 44
22 48 43
20 45 42
20 45 41
20 45 41
21 47 43
21 47 43
20 45 41
21 46 42
21 46 42
21 46 42
21 46 42
21 46 42
21 46 42
20 45 41
21 46 42
21 46 42
21 46 42
21 46 42
21 46 42
21 46 42
21 47 43
21 47 43
22 47 43
22 47 43
21 47 42
21 47 43
21 47 43
21 47 43
21 47 43
21 46 42
21 46 42
22 48 43
21 46 42
22 48 43
22 47 43
22 47 43
21 47 42
22 48 43
22 48 44
21 47 42
22 48 44
21 47 43
22 48 43
22 49 45
21 46 42
22 48 44
22 49 44
22 48 44
22 48 44
22 48 44
21 47 43
22 48 44
23 50 45
22 48 44
22 49 45
22 49 44
23 50 45
22 48 43
22 47 43
22 47 43
22 49 44
22 48 44
22 48 43
22 49 44
22 49 45
22 48 44
23 50 45
22 49 45
22 49 44
22 49 44
22 48 44
22 49 44
22 49 44
22 47 43
22 49 44
23 50 45
22 49 44
22 49 44
22 49 45
23 49 45
22 48 43
22 49 44
22 49 45
22 49 44
23 49 44
22 48 44
22 49 45
23 49 45
22 49 44
22 49 44
23 49 45
23 51 46
22 49 44
23 49 45
23 49 45
22 49 44
22 48 43
22 49 45
23 50 45
22 48 44
22 49 44
23 50 45
22 49 44
22 49 44
22 48 44
22 49 44
22 48 44
23 50 45
22 49 44
23 49 45
22 48 43
22 49 44
22 49 44
22 48 44
22 49 44
22 48 43
22 49 44
22 49 45
22 48 44
22 49 44
22 49 44
21 46 42
21 46 42
21 46 42
21 46 42
21 46 42
21 46 42
21 46 42
21 46 42
21 46 42
21 47 43
21 46 42
22 48 44
21 47 43
21 47 43
21 47 43
21 46 42
21 46 42
22 48 44
21 47 43
21 47 43
21 47 43
21 47 43
21 47 43
22 48 44
21 47 43
22 48 43
21 47 43
22 48 43
21 47 43
21 47 43
21 46 42
22 47 43
21 47 43
22 48 43
21 47 43
21 47 43
22 49 44
22 48 43
22 48 44
21 47 43
22 47 43
22 48 43
22 48 44
22 47 43
22 48 44
22 49 44
22 49 44
22 48 44
22 48 44
21 47 43
22 48 44
22 48 43
22 48 44
22 49 44
22 48 43
23 50 45
22 48 44
23 50 45
22 48 44
22 48 44
22 48 44
22 48 43
23 50 45
22 49 44
22 49 44
22 48 44
23 50 45
22 48 44
23 50 45
22 49 44
23 50 45
23 49 45
22 48 43
23 50 45
22 49 45
23 49 44
22 48 44
23 50 45
23 50 45
23 50 45
23 51 46
23 50 45
22 48 44
23 50 45
23 49 45
23 50 45
22 49 44
23 50 45
22 49 44
22 49 44
23 51 46
22 49 44
23 49 45
22 48 43
22 48 44
22 49 44
23 50 45
22 48 43
22 49 44
22 49 44
23 50 45
23 51 46
22 48 44
23 50 45
23 50 45
22 48 43
23 51 46
22 49 44
23 49 45
23 50 45
22 49 44
23 49 45
23 50 45
22 49 44
23 50 45
22 49 44
22 49 44
22 49 44
22 49 44
22 49 44
21 46 42
21 45 42
20 45 42
21 46 42
20 45 41
21 46 42
21 46 42
21 46 42
21 47 43
21 47 43
21 46 42
21 47 43
21 46 42
21 47 43
21 46 42
21 47 43
21 47 43
21 47 43
21 46 42
21 47 43
21 47 43
21 47 43
21 47 42
21 47 43
21 46 42
22 48 44
22 48 44
21 47 43
22 48 43
21 46 42
22 48 43
21 47 43
22 48 44
21 47 42
22 47 43
21 47 43
22 48 44
22 48 43
22 48 44
22 48 44
21 47 43
22 48 44
22 48 44
22 47 43
22 48 43
22 48 44
22 48 44
22 49 44
22 49 45
22 48 43
22 49 45
23 50 45
22 48 43
22 49 44
23 50 45
23 49 45
22 48 44
23 50 45
22 48 44
22 49 44
23 49 45
22 48 44
22 48 43
22 48 44
23 50 45
22 48 44
24 52 47
23 49 45
23 50 45
23 49 44
23 50 45
22 49 44
23 50 46
23 50 45
23 50 45
23 50 45
23 50 45
22 49 44
23 51 46
22 49 44
23 50 46
23 49 45
23 51 46
23 49 45
23 50 45
23 49 44
23 50 45
23 50 45
22 49 44
23 50 45
23 50 45
23 50 45
23 49 45
23 50 45
23 50 45
23 50 46
23 51 46
23 50 45
23 51 46
22 49 44
23 49 45
22 49 44
23 50 45
23 50 45
23 50 45
23 50 45
23 49 45
23 50 45
23 49 45
23 50 45
22 48 44
22 49 45
22 49 44
23 50 45
23 51 46
22 49 44
22 49 44
23 50 45
23 50 45
22 49 44
21 47 43
21 46 42
21 46 42
22 48 44
21 46 42
21 46 42
21 47 43
21 45 42
21 47 43
20 45 41
21 46 42
21 47 43
21 47 43
21 47 43
22 48 44
21 47 43
21 47 43
21 47 42
21 47 42
21 47 43
22 48 44
22 48 44
21 46 42
21 46 42
22 48 44
22 48 43
22 48 44
22 48 44
21 46 42
21 47 43
22 49 44
22 49 44
21 47 43
22 49 44
22 48 43
21 47 43
21 47 43
22 48 43
22 48 44
22 49 44
22 48 44
22 48 44
23 50 46
22 48 44
22 48 43
23 50 45
22 49 45
22 48 44
22 48 43
22 48 44
22 49 44
23 49 45
22 49 44
22 48 44
22 49 44
22 49 44
22 49 44
22 49 44
23 50 45
22 48 44
22 49 44
23 50 45
23 50 45
23 50 45
22 48 44
23 50 45
22 49 44
23 50 45
23 50 45
22 48 44
22 49 44
23 49 45
23 51 46
22 49 44
23 51 46
23 50 46
23 51 46
23 51 46
23 50 45
22 49 44
23 50 45
23 50 45
23 49 45
23 50 45
22 49 44
23 50 45
23 49 45
23 50 45
23 50 46
23 51 46
23 49 45
23 49 45
23 50 45
23 51 46
23 50 45
23 50 45
23 49 44
22 49 44
23 51 46
23 51 46
23 50 45
22 49 44
23 50 45
23 50 45
23 50 45
23 50 45
23 50 45
23 51 46
23 50 45
23 50 45
23 50 45
22 49 44
23 51 46
22 49 44
22 49 44
23 50 45
22 49 44
24 52 47
23 49 45
23 50 45
21 46 42
21 46 42
21 45 41
21 47 43
21 47 43
21 47 43
21 46 42
21 46 42
21 46 42
21 46 42
21 45 41
21 46 42
21 46 42
21 46 42
21 47 43
22 48 44
21 47 43
21 47 43
22 48 43
21 46 42
22 47 43
21 47 42
22 48 44
21 46 42
22 48 43
22 48 44
21 47 43
22 48 44
22 47 43
22 48 44
22 49 44
22 48 43
22 48 44
22 49 44
22 48 44
22 48 43
22 48 44
22 49 44
22 48 44
22 48 44
22 48 44
22 49 44
22 48 43
22 48 44
22 49 44
22 48 43
22 48 44
23 50 45
22 49 44
22 49 44
22 49 44
23 49 45
23 50 45
22 49 44
23 50 45
22 49 45
22 49 44
23 50 45
22 49 44
22 49 45
22 49 44
23 50 45
23 49 45
22 49 44
22 48 44
23 50 45
22 49 44
23 51 46
23 50 45
22 49 44
23 50 45
23 50 45
22 49 44
23 51 46
23 50 45
23 50 45
22 49 44
23 50 45
23 51 46
23 50 45
23 50 45
23 50 45
23 50 45
23 51 46
23 50 45
24 51 46
22 49 44
23 50 45
23 50 45
23 51 46
23 50 45
23 50 45
23 51 46
23 50 45
23 51 46
23 50 45
23 50 45
23 51 46
23 50 45
23 50 46
23 50 45
23 49 44
23 51 46
23 50 45
22 49 44
23 50 45
23 50 45
23 50 45
23 51 46
23 51 46
22 49 44
23 51 46
23 50 45
23 50 45
23 49 45
23 50 45
23 50 46
23 49 45
23 50 45
23 49 45
21 47 43
21 47 43
21 47 43
21 47 43
21 46 42
21 46 42
21 47 43
21 47 43
21 47 43
21 47 43
21 46 42
21 46 42
21 47 43
22 47 43
21 47 43
21 47 43
22 48 44
21 47 43
22 48 44
21 47 43
22 48 44
22 48 44
22 47 43
22 49 44
21 47 43
22 48 43
22 49 44
22 48 43
22 47 43
22 47 43
22 49 44
22 48 44
22 49 45
22 48 43
22 48 44
22 48 44
22 48 44
22 48 43
22 48 44
22 48 43
22 48 43
22 49 45
22 49 44
22 48 44
22 48 44
22 48 44
23 50 45
23 49 45
23 50 45
22 49 44
22 48 44
23 50 45
23 50 45
23 49 45
23 50 46
22 49 44
23 50 45
23 50 45
23 49 45
22 49 44
22 49 44
22 49 44
23 49 45
22 48 44
23 49 45
23 50 45
23 51 46
22 49 44
23 50 45
23 50 45
23 51 46
23 49 45
23 50 45
23 50 45
22 49 44
23 50 45
23 50 45
23 50 45
23 50 45
23 50 45
23 50 45
23 50 45
23 50 45
24 51 46
22 49 44
22 49 44
23 50 45
23 50 45
23 50 45
23 51 46
23 50 45
23 51 46
23 51 46
23 50 46
23 51 46
23 49 45
23 51 46
23 50 45
23 51 46
22 49 44
23 51 46
23 50 45
24 51 46
23 49 45
24 52 46
23 50 45
23 49 45
23 51 46
23 51 46
23 50 45
23 51 46
22 49 44
22 49 44
23 50 45
23 50 45
23 49 44
24 51 46
23 50 45
23 49 45
23 51 46
20 45 41
21 47 43
21 47 43
21 47 43
21 47 42
21 47 43
21 47 42
21 47 43
21 47 43
21 47 43
21 46 42
22 48 43
22 48 43
21 47 43
21 46 42
22 47 43
22 48 44
22 47 43
22 48 44
22 49 45
21 46 42
22 47 43
22 48 43
21 47 43
22 48 44
22 48 44
22 48 44
21 47 43
22 48 44
22 48 44
22 49 44
21 47 43
82 85 78
170 156 144
204 184 170
203 183 167
170 154 139
38 51 46
22 49 44
22 49 45
23 49 45
22 48 44
22 48 44
23 49 45
22 49 45
22 48 43
22 49 44
22 49 44
22 48 44
23 50 45
22 49 44
28 50 46
39 53 52
33 53 50
23 49 45
23 50 45
22 48 43
23 51 46
22 48 44
23 49 45
22 49 44
23 49 45
23 50 45
23 50 45
22 49 44
23 50 45
23 51 46
23 50 45
23 49 45
23 50 45
23 49 45
23 50 45
23 50 45
23 50 45
23 50 46
22 48 43
23 50 45
23 49 45
23 51 46
23 51 46
23 50 45
23 50 45
23 50 45
24 51 46
23 50 45
23 50 45
23 50 45
23 50 45
23 50 45
23 51 46
24 52 47
23 51 46
23 49 44
24 52 47
23 49 45
23 51 46
24 52 47
23 50 45
23 50 45
23 50 46
24 51 46
23 50 45
24 52 47
23 50 45
23 49 44
23 51 46
23 50 45
23 50 45
23 51 46
22 49 44
22 49 44
23 51 46
23 50 45
23 51 46
23 50 45
23 50 45
22 49 44
23 49 45
23 50 45
23 51 46
21 47 43
21 47 43
21 46 42
21 46 42
21 46 42
21 47 43
21 46 42
21 47 43
21 47 43
21 47 43
21 47 43
22 48 44
22 47 43
21 47 43
22 48 43
21 47 43
21 47 43
22 48 44
21 47 43
21 46 42
22 48 44
21 47 43
22 48 43
22 48 43
23 49 45
21 47 43
22 47 43
21 47 43
22 48 44
21 47 43
22 48 44
77 82 77
174 161 152
190 175 165
201 184 172
224 203 186
255 231 208
197 151 135
22 48 43
22 48 44
22 49 44
23 50 45
22 49 44
22 49 44
23 49 45
22 49 44
22 48 43
22 48 43
22 49 44
22 49 44
43 52 58
78 57 88
91 62 101
110 82 112
99 79 100
45 54 60
22 48 43
22 49 44
22 49 44
22 49 44
23 49 45
23 50 45
22 49 44
23 51 46
23 50 45
23 49 44
23 50 45
23 49 45
22 49 44
23 49 45
42 52 46
88 73 62
91 92 83
41 58 52
23 50 45
23 51 46
23 50 46
23 50 46
23 51 46
22 49 44
23 50 45
23 49 44
23 49 45
23 50 45
23 51 46
22 49 44
23 51 46
23 50 45
23 51 46
23 50 45
23 50 45
23 51 46
23 49 45
23 49 45
23 51 46
23 49 45
23 50 45
22 49 44
23 51 46
23 51 46
23 50 45
23 50 45
23 50 45
23 50 45
23 50 45
23 50 45
23 50 45
23 50 45
24 51 46
23 50 45
23 49 45
23 50 45
24 51 46
23 50 45
23 50 45
23 51 46
22 49 44
23 51 46
23 50 46
23 49 45
21 46 42
21 46 42
21 47 43
21 46 42
22 48 43
21 47 43
21 47 43
21 46 42
22 47 43
22 48 43
22 48 44
22 47 43
21 47 43
21 47 42
21 46 42
21 47 43
21 47 43
22 48 43
21 46 42
22 47 43
22 48 43
21 47 43
22 48 44
22 48 44
21 46 42
22 49 44
22 48 43
22 48 44
22 48 44
22 48 44
22 48 43
131 122 115
159 148 141
171 158 149
182 167 157
196 178 165
207 185 170
212 151 134
110 75 65
22 49 44
22 47 43
22 49 44
22 48 44
22 49 44
22 48 44
23 50 45
22 49 44
22 48 44
22 49 44
34 50 52
75 52 85
80 55 92
82 56 94
97 71 103
134 109 126
93 64 98
36 51 52
23 50 45
22 49 44
22 49 44
23 50 45
23 49 44
23 50 45
23 49 45
23 50 45
22 49 44
22 49 44
23 50 45
23 50 45
134 76 53
213 123 92
220 194 179
246 223 203
218 197 179
132 124 112
23 51 46
23 49 45
23 50 45
23 50 45
23 51 46
23 50 45
23 50 45
23 50 45
23 51 46
23 50 45
23 50 45
23 50 45
23 51 46
23 50 45
23 50 45
25 50 46
28 47 45
27 48 45
24 50 45
23 51 46
23 51 46
23 51 46
23 50 45
23 51 46
23 51 46
23 50 45
23 51 46
23 51 46
23 51 46
23 50 45
24 52 47
23 49 44
23 50 45
23 49 45
23 51 46
23 50 45
23 51 46
23 50 46
23 51 46
23 50 45
22 49 44
23 50 45
23 50 45
23 51 46
22 49 44
21 47 43
21 47 43
21 47 43
21 47 43
21 47 43
21 47 43
21 46 42
21 46 42
22 48 44
21 47 43
21 47 43
21 47 43
22 48 43
22 48 43
21 47 43
22 47 43
22 47 43
21 47 43
22 48 43
21 47 43
22 48 43
22 49 44
21 47 43
22 48 43
22 48 44
22 48 43
22 48 43
22 49 45
22 48 43
22 48 44
31 48 43
137 119 111
148 137 129
147 136 128
150 139 131
159 145 135
168 147 134
172 105 91
131 118 105
22 49 44
22 48 43
21 47 43
22 49 44
22 48 44
22 49 44
23 50 45
22 49 44
23 51 46
23 49 45
49 44 60
76 59 84
121 107 114
149 135 134
151 135 135
135 116 123
87 59 92
88 72 85
22 48 44
22 47 43
22 49 44
23 50 46
23 50 45
23 50 45
23 50 45
22 49 44
23 50 45
23 50 45
22 49 44
98 62 47
201 99 60
199 134 113
194 177 166
201 183 171
212 192 178
212 189 173
100 98 88
22 49 44
23 51 46
23 50 45
23 51 46
23 50 46
22 49 44
23 50 45
22 49 44
23 50 45
23 50 45
22 49 44
23 50 45
23 50 45
30 44 44
39 42 45
105 99 88
180 165 150
192 173 160
123 116 105
23 50 45
23 51 46
23 51 46
23 51 46
23 50 45
23 50 46
23 50 45
23 50 45
23 51 46
23 50 45
23 50 45
23 51 46
23 49 45
23 50 45
23 51 46
23 50 45
23 51 46
23 50 45
23 50 45
23 50 45
23 50 45
23 49 45
23 50 45
23 50 45
23 50 45
21 46 42
21 46 42
21 46 42
21 47 43
22 48 44
21 46 42
21 46 42
21 46 42
21 47 43
22 47 43
22 48 44
21 47 43
21 46 42
21 46 42
21 47 43
21 47 43
21 46 42
21 47 43
21 47 43
22 48 44
22 47 43
21 47 43
22 48 43
21 47 43
21 47 43
22 48 44
21 47 42
22 48 43
22 48 43
21 46 42
22 47 43
115 61 52
117 96 88
112 103 96
120 107 99
129 104 95
120 55 46
120 66 56
105 97 86
22 47 43
22 49 44
22 48 44
22 47 43
22 48 43
22 48 44
22 49 44
23 50 45
22 49 44
22 49 44
59 49 62
134 122 117
144 134 126
147 136 127
150 139 131
155 141 132
128 112 108
90 76 80
22 49 44
23 50 45
22 48 43
22 49 44
23 49 45
22 48 43
23 50 45
23 51 46
22 48 43
23 50 45
22 49 44
145 74 47
171 85 52
173 112 92
168 156 148
174 161 152
176 161 151
186 168 155
161 145 132
23 50 45
23 50 45
23 49 44
22 48 44
23 51 46
22 49 44
23 50 45
22 49 44
22 48 44
22 49 44
23 50 45
23 50 45
60 63 59
32 35 39
31 35 39
126 117 111
193 177 167
197 180 169
198 178 164
96 97 88
23 49 45
23 50 46
23 51 46
23 51 46
23 50 45
23 50 45
22 49 44
23 50 45
23 49 44
22 49 44
23 49 45
23 50 45
23 50 45
23 51 46
23 51 46
23 50 45
23 50 45
24 51 46
23 50 45
23 51 46
23 50 45
23 49 45
23 51 46
23 51 46
21 46 42
21 46 42
21 47 43
22 48 44
21 46 42
21 47 43
22 47 43
21 47 43
21 47 43
22 48 43
22 48 43
21 47 43
22 48 43
21 47 43
21 47 42
21 46 42
22 48 44
21 47 43
22 48 44
22 48 43
22 48 43
21 47 42
22 47 43
22 48 44
22 48 43
21 47 43
21 47 43
22 47 43
22 48 44
22 48 43
22 48 43
74 38 32
89 31 22
101 39 30
84 33 25
82 29 20
73 26 18
61 31 25
46 53 47
22 48 44
21 46 42
22 47 43
22 48 44
22 49 44
22 48 44
22 49 45
23 49 45
22 48 43
23 49 44
77 69 69
124 115 106
115 107 100
127 117 109
111 104 96
116 108 100
112 102 93
92 82 78
23 50 45
22 49 44
22 49 44
22 49 44
22 49 44
23 50 45
23 49 45
23 50 45
22 49 44
22 49 44
38 54 48
142 71 44
149 74 45
157 81 53
152 135 125
153 141 133
148 137 128
145 134 125
140 127 116
22 48 44
23 50 45
23 50 45
23 50 45
22 49 44
23 50 45
23 50 45
23 50 45
23 50 45
23 50 45
23 50 45
60 69 64
57 54 53
64 61 60
33 35 38
149 138 132
167 155 147
170 158 149
169 155 145
137 128 117
23 50 45
23 50 45
23 50 45
24 52 47
23 50 45
23 51 46
23 51 46
24 51 46
23 50 45
23 51 46
23 51 46
24 52 47
23 50 45
23 49 44
22 48 43
23 50 45
23 51 46
23 50 46
23 50 45
22 49 44
23 50 45
23 51 46
23 50 45
23 50 45
21 47 43
21 46 42
21 47 43
21 46 42
22 48 43
21 46 42
21 47 43
22 48 43
21 47 42
21 47 43
21 46 42
21 47 42
22 49 45
21 47 43
21 47 43
22 48 44
21 47 43
21 47 43
22 49 44
21 47 43
21 47 42
22 48 43
22 48 43
22 48 43
21 47 43
21 47 43
22 47 43
21 47 42
22 48 44
21 46 41
21 47 43
28 45 41
30 22 18
44 16 11
27 12 8
26 13 8
37 16 10
46 39 33
22 48 43
22 48 44
22 47 42
22 47 42
22 48 43
23 49 44
22 48 44
22 47 43
22 48 43
22 48 43
22 48 44
59 62 57
74 70 64
84 79 71
87 82 74
84 80 72
79 75 67
76 71 62
44 51 48
22 48 43
22 48 44
22 49 44
22 49 45
22 49 44
22 49 44
22 49 44
22 49 44
23 49 45
23 49 45
22 47 43
116 65 46
127 63 37
127 63 38
136 86 69
122 110 101
110 102 95
111 103 94
89 86 79
23 50 45
23 50 45
23 49 45
23 50 45
23 49 44
23 50 45
22 49 44
22 49 44
23 49 45
23 49 45
23 50 45
59 67 62
105 97 91
126 117 109
73 69 66
142 131 123
147 136 128
143 133 125
144 133 125
131 122 113
23 50 45
23 50 45
23 49 45
23 50 45
23 49 45
23 50 45
23 49 45
23 51 46
23 50 45
23 49 45
23 51 46
23 50 45
23 50 45
23 50 45
23 51 46
22 48 44
23 50 45
23 49 45
23 50 45
23 51 46
23 49 45
23 50 45
23 49 45
22 49 44
21 46 42
21 46 42
21 46 42
21 46 42
21 47 43
22 48 44
21 47 43
20 45 41
21 47 43
21 47 43
21 47 43
21 47 43
21 47 43
21 46 42
21 47 43
21 46 42
22 48 44
21 47 43
21 47 43
21 46 42
22 47 43
22 48 43
22 48 44
22 48 43
22 47 43
21 47 42
21 46 41
21 45 41
19 42 39
16 37 34
16 36 33
14 31 29
11 24 23
9 15 13
8 9 7
10 10 9
17 23 20
20 43 38
21 44 39
21 45 40
21 46 41
22 47 43
22 47 43
22 48 43
21 46 42
22 48 43
21 47 42
22 47 43
21 47 42
25 47 42
35 42 37
29 33 28
23 31 25
28 35 29
35 40 32
37 44 37
22 47 43
22 49 44
22 48 44
22 47 43
22 49 44
22 49 44
22 49 44
22 48 44
22 49 44
22 49 44
22 48 43
22 48 43
67 57 49
87 44 26
87 44 25
78 40 23
76 55 44
78 72 64
79 75 67
59 58 50
23 50 45
23 50 46
23 49 45
23 50 45
23 50 45
22 49 44
23 49 45
23 50 45
23 50 45
23 50 45
22 49 44
61 68 62
89 81 73
88 82 76
72 67 63
119 110 102
124 114 105
121 112 103
112 105 96
102 97 90
23 49 44
23 50 45
23 49 45
23 51 46
22 49 44
22 48 44
22 49 44
23 50 45
23 51 46
22 49 44
23 50 46
23 49 45
23 50 45
23 50 45
23 51 46
23 49 45
22 49 44
23 49 44
22 48 44
22 49 45
23 50 45
22 49 44
22 48 43
23 50 45
21 46 42
22 48 44
21 47 43
21 47 43
21 46 42
21 47 42
21 47 43
21 46 42
21 47 43
21 47 43
21 47 43
21 47 43
21 47 43
21 46 42
21 47 43
22 47 43
21 47 43
21 47 43
22 49 44
22 48 44
21 47 42
21 47 42
21 47 42
21 46 42
21 47 43
21 47 43
21 47 43
20 44 40
18 41 38
17 37 35
17 37 35
16 36 33
17 37 34
17 36 33
17 37 34
19 40 36
20 43 38
21 45 40
21 46 42
21 46 42
22 48 43
21 47 42
22 47 43
22 47 43
22 47 43
22 48 43
20 45 41
19 42 39
17 37 34
14 32 30
11 26 24
9 19 17
9 18 15
8 16 13
10 21 18
18 39 34
20 42 37
21 44 40
21 46 42
21 47 42
22 47 42
22 49 44
22 48 43
22 49 44
22 47 43
22 48 43
21 47 42
22 48 43
21 46 41
35 30 23
40 23 12
38 23 12
32 20 11
44 25 14
39 32 25
31 47 41
22 48 43
23 49 44
22 48 44
23 49 44
22 48 44
23 49 44
22 49 44
22 49 44
22 48 43
22 48 44
22 49 44
31 52 47
47 47 43
78 72 66
23 24 23
78 73 66
84 79 71
88 83 75
84 80 72
63 68 62
23 50 46
23 49 45
23 50 45
23 50 45
23 49 44
22 48 43
22 49 44
23 50 45
23 50 45
23 50 45
23 50 45
22 48 44
23 51 46
23 49 44
23 50 45
22 48 44
22 49 45
23 50 45
22 49 44
22 49 45
23 50 45
23 50 46
23 51 46
23 51 46
21 47 43
21 47 43
21 46 42
22 48 43
21 46 42
21 47 43
21 46 42
21 46 42
21 46 42
21 47 43
21 47 42
22 48 43
22 48 43
21 47 43
21 47 43
21 47 43
21 46 42
22 47 43
22 48 43
22 48 44
22 47 43
21 47 42
22 49 44
22 48 43
21 47 43
22 48 43
21 46 42
21 47 43
22 47 43
21 46 42
21 47 42
21 47 42
21 47 43
21 46 42
22 47 43
21 47 43
21 46 42
21 47 42
22 48 43
21 47 42
22 48 43
22 48 44
22 47 43
21 46 41
22 47 43
21 46 42
20 45 41
18 40 37
16 36 34
16 36 34
14 33 31
15 34 31
15 34 31
17 37 34
18 40 36
21 45 40
21 46 41
21 46 41
22 47 42
22 47 43
21 47 42
22 47 43
22 47 43
22 48 44
22 47 42
21 46 41
21 45 41
18 39 36
14 32 30
11 25 23
8 13 10
8 9 7
9 11 9
10 17 15
17 36 32
21 44 39
21 46 41
22 47 42
22 47 42
22 48 43
22 47 42
22 47 42
23 50 45
22 49 44
23 50 45
23 49 44
22 48 43
22 48 43
26 43 38
8 13 13
3 6 6
23 23 21
19 29 23
33 38 31
34 44 38
22 47 42
22 48 44
22 48 43
22 48 43
22 49 44
23 49 45
23 50 45
22 49 44
22 49 44
23 50 45
23 50 45
22 48 43
22 49 44
22 49 44
23 49 45
23 51 46
23 50 45
23 51 46
23 49 45
22 49 45
22 48 44
22 49 44
22 48 44
22 47 43
22 49 44
21 46 42
21 47 42
21 46 42
21 47 43
21 46 42
22 47 43
21 47 43
22 48 43
21 47 43
22 48 44
22 48 44
21 46 42
22 48 44
21 47 43
22 48 44
22 48 43
22 48 44
21 47 43
21 46 42
21 47 43
21 47 42
21 47 43
21 47 43
21 47 42
22 48 43
22 48 44
22 48 44
22 48 44
21 46 42
22 48 44
21 47 43
22 48 43
22 48 44
21 47 42
22 48 43
21 47 43
21 47 43
21 47 42
21 46 42
21 47 43
22 48 43
22 47 43
22 48 43
22 48 44
22 48 43
21 47 42
21 47 43
22 48 43
22 47 43
22 48 43
21 46 42
22 48 43
22 48 43
22 48 43
22 48 43
22 47 43
22 48 44
22 48 43
22 48 43
22 48 44
22 48 43
22 48 44
22 48 43
22 48 43
22 48 43
21 47 43
20 43 39
17 39 36
15 35 32
14 32 30
13 30 29
15 33 31
13 30 28
16 35 33
18 40 36
20 44 39
22 47 42
21 46 41
22 48 43
22 48 43
22 48 43
22 48 44
21 46 42
22 48 43
21 46 41
22 48 43
20 44 39
19 41 37
15 34 30
10 22 20
4 9 9
2 5 4
4 9 8
10 21 19
21 39 35
20 43 38
21 46 41
22 47 43
22 48 43
22 47 43
22 48 44
23 49 45
22 48 43
23 50 45
22 49 44
22 49 44
23 50 45
22 49 44
23 49 45
22 49 44
23 50 45
22 49 44
23 50 45
22 49 44
23 50 45
22 48 44
22 49 44
23 49 45
22 49 44
23 51 46
21 46 42
20 45 41
21 46 42
21 47 43
22 48 44
21 47 43
21 47 43
21 46 42
21 46 42
21 47 43
22 48 43
21 47 42
21 46 42
21 45 41
21 47 43
21 47 43
22 48 44
21 46 42
22 48 44
21 47 43
21 47 43
21 47 42
22 48 44
22 48 44
21 46 42
21 47 43
21 46 42
21 47 43
22 48 43
21 47 42
22 47 43
22 48 44
21 47 42
21 47 43
21 47 43
22 48 43
22 48 43
21 47 43
22 47 43
22 48 44
22 48 44
22 48 44
22 47 43
22 49 44
22 48 44
22 47 43
22 49 44
21 47 43
22 49 44
21 47 43
22 48 44
22 48 43
21 47 43
21 47 43
22 48 44
22 48 43
22 48 44
22 49 44
22 49 44
22 49 44
22 49 44
22 48 43
22 47 43
21 46 42
21 46 42
22 48 43
22 48 44
22 47 43
22 47 43
21 46 42
21 45 41
21 46 42
22 47 43
22 48 44
21 47 42
23 49 44
22 48 43
22 48 43
21 47 42
22 48 43
22 48 43
21 47 42
22 47 43
22 49 44
21 46 42
21 46 42
21 47 42
18 40 37
15 35 33
14 31 30
11 27 25
12 28 27
12 28 26
13 29 28
14 33 31
19 42 38
22 47 42
22 47 43
22 47 43
23 50 45
22 49 44
22 49 45
22 48 43
23 50 45
22 48 43
22 49 44
22 49 44
22 48 43
22 48 44
23 50 45
22 48 44
23 49 45
22 49 45
23 50 45
23 50 45
23 50 45
22 49 44
22 49 44
22 49 44
22 48 44
21 47 43
21 47 43
21 46 42
21 47 43
21 46 42
20 45 41
21 46 42
21 47 43
21 47 43
21 46 42
21 47 42
22 48 44
22 48 43
21 46 42
21 46 42
21 46 42
21 47 43
21 46 42
21 46 42
21 47 43
22 48 43
21 46 42
22 48 43
22 48 43
21 46 42
21 47 43
21 47 43
21 47 43
21 47 43
22 48 44
21 47 43
22 48 44
21 47 43
22 47 43
22 48 44
21 47 43
21 47 43
21 47 42
22 48 43
22 48 44
22 48 44
22 48 43
22 48 43
22 47 43
22 49 45
22 48 44
21 47 43
22 48 44
21 47 43
22 48 43
21 47 43
21 47 43
23 50 45
22 48 43
21 47 42
22 48 44
22 48 44
22 48 44
22 48 43
22 48 43
22 49 44
22 49 44
22 48 44
22 48 44
22 49 44
22 48 43
22 48 43
22 48 43
22 49 44
22 48 43
22 48 43
22 47 43
22 49 44
22 49 44
22 47 43
22 48 43
23 49 45
22 48 43
23 50 45
22 48 44
23 50 45
22 49 44
22 47 43
21 47 43
22 49 44
22 48 43
22 48 43
22 49 44
22 47 43
21 47 42
22 47 43
21 45 41
21 45 41
21 46 42
22 49 44
22 47 43
21 46 41
22 48 44
22 47 43
22 49 44
22 48 43
22 48 43
22 48 43
22 49 44
22 48 44
22 48 43
22 49 44
22 48 44
22 48 44
21 47 43
22 49 44
22 49 45
22 49 44
23 49 45
22 49 44
22 48 43
22 49 44
22 48 43
22 49 44
22 49 44
21 46 42
21 46 42
22 48 44
21 46 42
21 47 43
21 47 43
21 46 42
21 46 42
21 46 42
22 48 44
21 47 43
21 46 42
21 46 42
21 46 42
21 47 43
21 46 42
21 47 43
22 48 43
22 48 43
21 47 43
21 47 43
22 47 43
21 47 43
21 46 42
21 45 41
21 47 43
22 47 43
21 47 43
22 47 43
22 48 43
21 47 43
22 47 43
22 48 44
22 48 43
22 48 44
21 47 43
21 47 42
21 46 42
22 48 43
22 48 44
21 47 43
22 48 44
21 46 42
21 46 42
21 46 42
22 48 43
21 47 42
22 49 44
22 48 44
22 48 44
21 47 43
22 48 44
22 49 44
21 47 43
22 48 43
22 49 44
22 47 43
22 49 44
22 48 43
21 47 43
22 48 43
22 48 43
22 47 43
22 47 43
22 48 44
22 48 43
22 49 44
22 48 44
21 47 43
22 49 44
23 50 45
22 48 43
22 49 44
22 48 44
22 47 43
22 48 44
22 47 43
22 49 44
22 47 43
23 50 45
22 48 43
22 49 44
22 47 43
22 48 43
23 49 45
22 48 43
22 49 44
22 48 43
22 48 43
22 48 44
22 49 44
21 47 43
22 47 43
21 47 43
22 48 44
22 49 44
22 49 44
23 50 45
22 48 43
22 49 44
22 49 44
22 49 44
22 48 44
23 49 45
22 48 44
22 47 43
22 48 44
22 48 44
22 49 44
22 48 44
21 47 42
22 49 44
22 48 44
22 48 44
23 50 45
22 49 44
22 48 43
22 48 43
22 49 44
22 48 43
21 46 42
21 46 42
20 45 41
21 46 42
21 46 42
21 47 43
21 46 42
21 46 42
21 46 42
21 46 42
21 46 42
22 48 44
21 47 43
21 47 42
21 46 42
21 46 42
21 47 43
21 47 43
21 46 42
21 46 42
22 48 43
20 45 41
22 48 44
21 46 42
21 47 43
22 47 43
21 47 43
21 46 42
21 46 42
21 47 42
22 48 43
22 48 44
21 47 43
21 46 42
21 46 42
21 47 43
22 48 43
21 47 43
22 48 44
21 47 43
22 48 44
21 46 42
22 48 44
21 47 42
21 47 43
21 47 43
21 47 43
21 47 43
22 48 43
22 48 44
21 47 42
22 48 43
22 48 44
22 48 44
22 48 43
22 49 44
22 48 44
22 48 44
22 48 43
21 46 42
22 48 44
22 48 43
22 48 43
22 48 44
21 47 43
22 47 43
21 47 43
22 48 44
21 47 43
22 47 43
22 48 44
21 47 43
22 48 43
21 47 42
22 48 43
22 48 43
22 47 43
22 49 44
21 47 43
22 48 43
22 49 45
22 49 44
21 46 42
22 49 44
21 47 42
22 48 43
22 49 44
22 49 44
22 49 44
22 48 44
22 49 44
22 48 44
22 47 43
22 47 43
22 48 44
22 48 44
22 48 44
22 48 44
22 48 43
22 48 44
22 48 43
22 48 44
22 49 45
22 47 43
23 50 45
22 49 45
22 48 43
22 48 44
22 47 43
22 48 44
22 48 44
22 48 43
22 48 43
22 49 45
22 48 44
23 50 45
22 48 44
22 48 44
22 48 43
22 48 44
21 46 42
21 46 42
21 47 43
20 45 41
21 46 42
21 46 42
21 46 42
21 47 43
21 47 43
21 47 43
21 47 43
21 46 41
21 47 43
21 46 42
21 47 43
21 47 43
21 47 43
21 47 43
21 47 43
21 47 43
21 46 42
21 46 42
21 46 42
21 47 43
21 46 42
21 46 42
21 47 43
21 47 43
21 47 43
21 46 42
21 47 43
21 47 43
21 47 43
22 47 43
21 46 42
21 47 43
22 48 44
22 48 44
21 47 42
21 47 43
21 47 43
22 49 44
22 47 43
21 47 43
21 47 43
22 48 44
21 47 43
21 47 42
21 47 43
22 48 44
22 48 44
22 48 44
22 48 43
22 48 43
21 47 43
22 47 43
22 48 43
22 48 43
22 47 43
22 49 45
22 48 44
22 48 44
22 49 44
21 47 42
21 47 43
21 47 43
22 48 44
22 47 43
21 47 42
21 47 42
22 48 44
22 48 43
21 47 42
22 48 43
21 47 43
21 47 43
22 48 44
22 48 44
22 48 44
22 49 45
22 48 44
22 47 43
22 47 43
22 47 43
22 48 44
21 47 42
22 48 44
22 49 44
22 49 44
22 48 44
22 48 43
22 48 44
21 47 43
21 47 43
21 47 43
22 48 44
22 49 44
22 48 44
22 48 44
21 47 42
22 48 44
22 49 44
22 47 43
22 49 44
23 49 45
22 48 43
22 49 44
21 47 43
22 48 43
22 48 44
22 48 44
22 49 44
22 48 44
22 48 44
21 47 42
22 48 43
22 47 43
22 48 44
22 48 44
23 50 45
21 46 42
21 46 42
21 46 42
21 47 43
21 46 42
21 46 42
21 47 43
21 46 42
21 45 41
21 47 43
21 47 43
21 47 43
21 46 42
21 46 42
21 46 42
21 47 43
21 46 42
21 46 42
21 46 42
22 48 43
21 46 42
21 46 43
21 46 42
21 47 43
21 47 43
21 47 43
21 46 42
21 46 42
21 47 43
22 48 44
21 46 42
22 47 43
21 47 43
22 48 43
21 47 43
22 49 44
21 46 42
22 48 43
21 47 42
21 47 43
21 47 43
21 47 43
22 49 44
22 48 44
22 48 43
21 46 42
21 47 43
21 47 42
21 47 43
22 47 43
21 47 43
21 47 42
22 48 43
21 47 43
22 48 43
21 47 43
22 48 43
21 46 42
22 47 43
22 48 43
22 47 43
22 49 44
22 47 43
22 47 43
21 47 43
22 48 43
22 48 44
21 46 42
22 47 43
22 48 44
22 47 43
21 47 43
22 48 44
21 47 42
22 48 44
22 49 45
22 49 44
22 47 43
22 49 44
22 48 44
22 48 44
22 49 44
21 47 43
22 48 44
22 49 44
21 47 43
22 48 43
22 49 44
22 49 44
22 48 44
21 47 42
21 47 43
22 48 44
21 47 43
22 48 43
22 48 44
22 49 45
22 48 43
22 49 44
22 47 43
22 48 43
22 48 43
22 48 44
22 48 44
22 48 44
22 48 43
22 49 44
22 48 44
22 49 45
22 48 43
22 47 43
22 49 45
22 48 44
22 48 44
22 48 43
22 48 44
22 47 43
22 48 43
22 49 44
23 50 45
21 46 42
20 45 41
21 46 42
21 47 43
21 47 43
20 45 41
21 47 43
21 47 43
21 46 42
21 46 42
21 46 42
21 46 42
21 46 42
21 46 42
21 47 43
21 46 42
21 47 43
21 46 42
21 46 42
21 46 42
21 46 42
21 47 43
21 47 43
20 45 41
21 47 43
22 48 44
21 47 43
21 46 42
21 47 43
21 46 42
21 46 42
21 47 43
21 47 43
22 47 43
21 47 43
21 47 43
21 47 43
21 47 43
21 46 42
21 47 43
21 47 43
21 47 42
22 48 44
21 46 42
22 48 44
21 47 43
21 47 43
21 47 43
22 47 43
21 45 41
21 46 42
21 46 42
21 47 43
22 48 43
22 47 43
22 48 44
22 48 44
22 49 44
21 47 42
21 47 43
22 48 44
22 48 44
22 47 43
22 48 44
21 47 42
21 46 42
22 48 43
22 48 44
22 49 44
22 49 44
22 48 43
22 47 43
22 48 43
22 47 43
22 48 43
21 47 43
21 47 43
22 49 45
22 48 44
21 47 43
21 47 43
22 49 44
21 47 43
22 48 43
21 47 43
22 49 44
22 48 44
21 47 43
22 48 44
22 48 43
22 47 43
22 47 43
22 49 44
22 49 44
21 47 43
22 47 43
22 48 43
22 47 43
21 47 43
22 49 45
22 48 44
21 47 42
22 48 43
22 49 44
22 48 43
22 48 43
22 47 43
22 49 44
22 48 44
21 47 42
21 47 43
22 48 43
22 48 44
22 48 43
22 48 44
22 48 44
22 48 44
22 47 43
21 47 43
22 48 44
21 47 43
21 47 43
21 46 42
21 47 43
21 46 42
21 45 42
21 46 42
21 46 42
20 45 41
21 46 42
21 47 43
21 46 42
21 46 42
22 48 44
21 47 43
21 47 43
21 47 43
21 46 42
21 47 43
21 46 42
21 46 42
21 47 43
21 47 43
21 46 42
20 45 41
20 45 41
21 47 42
21 47 43
21 46 42
21 47 42
21 47 43
21 47 42
21 47 43
21 47 43
21 47 43
22 48 43
21 46 42
21 47 43
21 47 43
21 47 43
21 46 42
21 47 43
21 47 43
22 48 43
22 47 43
21 46 42
21 47 42
21 46 42
21 47 43
22 48 43
21 46 42
21 46 42
22 48 43
22 48 44
22 48 44
22 48 44
22 48 44
22 47 43
22 48 44
21 47 43
22 48 43
22 48 43
21 47 42
21 46 42
22 47 43
22 47 43
22 48 43
21 47 43
22 47 43
22 48 43
22 48 43
22 48 43
21 47 43
21 47 43
21 47 43
22 48 44
22 48 44
21 46 42
22 48 44
21 47 43
21 47 43
22 48 43
21 47 42
22 48 44
21 46 42
21 47 43
22 48 44
22 48 44
22 48 44
22 48 43
22 48 44
22 47 43
21 46 42
21 47 42
22 48 44
21 47 43
22 47 43
21 47 43
22 48 44
21 47 43
22 48 44
21 46 42
21 47 43
22 49 44
22 48 44
22 48 44
22 47 43
22 48 43
21 47 43
22 47 43
22 49 44
22 49 44
22 48 44
22 48 44
22 48 43
22 47 43
22 49 44
22 48 43
22 48 44
21 47 43
21 46 42
21 47 43
21 46 42
21 46 42
21 46 42
21 46 42
21 46 42
20 45 41
21 47 43
21 46 42
21 46 42
21 47 43
20 45 41
21 47 43
21 46 42
21 46 42
21 47 43
21 46 42
21 47 43
21 47 43
21 47 43
21 47 42
21 46 42
21 47 43
21 46 42
21 46 42
21 47 43
21 46 42
22 49 45
21 47 43
21 47 43
22 48 44
22 48 44
21 45 42
21 47 43
21 46 42
21 45 41
21 47 43
20 45 41
21 47 43
21 47 43
22 48 44
21 47 43
21 47 43
21 47 43
21 47 43
21 46 42
21 47 43
22 48 44
22 48 44
22 47 43
21 47 43
22 48 44
21 47 43
21 46 42
21 46 42
21 47 43
21 46 41
21 46 42
21 46 42
21 46 42
22 48 44
21 47 43
22 48 43
22 48 44
21 46 42
21 47 43
21 46 42
22 48 43
21 46 42
21 46 42
21 47 43
22 48 44
21 47 43
22 48 43
22 48 43
21 47 42
22 48 44
22 48 44
22 49 44
22 47 43
22 48 43
22 48 43
21 45 41
22 47 43
22 48 44
22 48 43
22 48 44
22 49 44
22 48 44
21 47 42
22 47 43
22 49 45
22 48 44
22 47 43
21 47 43
21 47 43
22 49 44
22 48 44
22 48 43
22 48 43
21 47 43
22 49 45
22 48 43
22 48 44
22 48 43
22 49 44
21 47 43
22 48 43
22 47 43
21 47 42
21 47 43
22 48 44
22 49 44
22 47 43
22 47 43
21 47 43
21 47 43
22 48 44
22 48 44
21 46 42
21 46 42
21 47 43
21 46 42
20 45 41
21 47 43
21 46 42
21 47 42
21 46 42
20 45 41
21 46 42
20 45 41
21 46 42
21 46 42
21 47 43
21 47 43
20 45 41
21 46 42
21 47 43
21 47 43
21 46 42
21 47 43
21 46 42
21 47 42
21 47 43
21 47 43
21 47 42
21 46 42
21 47 43
21 46 42
21 46 42
21 46 42
21 46 42
21 47 43
21 47 43
21 47 43
21 46 42
21 46 42
21 47 43
21 46 42
22 48 43
21 47 43
21 46 42
21 47 43
21 46 42
21 47 43
21 47 43
21 47 43
21 47 43
21 47 43
21 46 42
21 46 42
22 48 43
22 48 44
22 48 44
22 47 43
22 48 43
21 47 43
21 47 43
21 46 42
21 47 42
21 47 43
21 47 43
21 47 43
22 48 43
22 48 43
21 47 43
21 47 43
21 47 43
21 47 42
21 47 43
21 47 43
21 47 43
22 48 43
22 48 43
22 48 44
21 47 43
22 48 44
22 48 44
22 47 43
21 47 43
21 47 43
21 46 42
22 48 43
21 47 42
21 46 42
22 48 44
21 47 43
21 47 43
21 46 42
21 47 43
21 47 43
21 47 43
22 48 44
21 45 41
22 48 43
22 48 43
21 46 42
21 47 43
21 47 43
22 48 43
22 48 43
22 48 44
21 47 42
22 48 44
22 48 44
22 48 44
22 49 44
22 48 44
21 47 43
22 47 43
21 47 43
22 48 43
22 48 43
22 49 45
21 47 42
22 48 43
22 48 43
22 49 44
21 47 43
21 46 42
20 45 41
21 47 43
21 46 42
21 46 42
21 46 42
21 46 42
20 44 41
21 46 42
20 45 41
21 46 43
20 45 41
20 45 41
21 47 43
21 46 42
21 46 42
21 46 42
21 46 42
21 47 43
21 46 42
20 45 41
21 46 42
21 47 43
21 46 42
21 47 43
21 46 42
21 46 42
21 47 43
21 47 43
21 46 42
22 48 43
22 47 43
21 46 42
21 47 43
21 45 41
22 48 44
21 46 42
21 47 43
20 45 41
21 47 43
21 46 42
21 47 42
21 47 43
21 47 43
20 45 41
21 46 42
21 47 43
22 48 44
22 48 44
21 47 43
21 46 42
21 46 42
22 48 43
21 46 42
21 47 43
22 48 43
21 47 43
21 46 42
21 47 43
21 46 42
21 47 43
21 47 43
21 46 42
21 46 42
22 48 43
21 47 43
21 47 43
22 48 43
22 48 44
21 47 43
22 48 44
21 46 42
22 47 43
22 48 44
21 46 42
21 47 43
21 47 43
22 47 43
21 46 42
21 47 43
21 47 43
21 47 43
21 47 42
22 47 43
21 47 43
21 47 43
21 46 42
21 46 42
21 46 42
22 48 44
22 49 44
21 47 43
22 47 43
22 47 43
22 48 44
22 47 43
22 48 43
22 47 43
21 47 42
22 48 44
21 47 43
21 47 43
21 46 42
21 46 42
21 47 43
21 46 42
22 47 43
21 46 42
21 47 43
22 47 43
22 48 44
22 48 44
22 49 44
21 47 43
22 48 44
21 47 42
21 46 42
22 48 43
21 47 42
22 48 44
20 44 41
21 47 43
20 45 41
20 45 41
21 46 42
21 47 43
21 46 42
21 46 42
21 46 42
21 45 42
20 45 41
21 46 42
20 45 41
20 45 42
21 46 42
21 46 42
21 47 43
21 46 42
21 46 42
21 46 42
21 45 42
20 45 41
21 46 42
21 46 42
21 45 42
21 46 42
21 46 42
21 46 42
21 46 42
22 48 44
21 46 42
21 47 43
20 45 41
21 46 42
21 46 42
21 47 42
22 48 44
21 47 43
21 46 42
21 46 42
22 48 44
21 47 43
21 46 42
21 46 42
21 46 42
21 46 42
21 46 42
21 46 42
21 46 42
21 46 42
21 47 43
21 46 42
22 48 44
21 46 42
21 46 42
21 47 43
21 47 43
21 47 43
21 47 42
21 47 43
21 46 42
21 46 42
21 47 43
21 47 43
21 46 42
22 48 44
22 47 43
21 47 43
21 46 42
20 45 41
22 48 44
21 47 43
21 47 43
22 48 43
22 48 43
21 46 42
22 48 44
21 47 43
21 47 43
22 48 44
22 47 43
21 47 43
21 46 42
22 48 44
21 46 42
21 47 43
22 47 43
22 48 44
21 46 42
21 47 43
22 48 43
21 47 42
21 46 42
21 47 43
21 47 43
22 47 43
22 48 44
21 47 42
22 47 43
21 47 43
22 47 43
21 47 43
22 48 44
21 47 43
21 47 43
21 47 43
21 46 42
21 46 42
21 47 43
21 46 42
22 47 43
22 47 43
22 48 44
22 48 44
21 47 43
21 47 43
21 46 42
22 48 44
21 47 43
21 47 43
21 46 42
21 46 42
21 46 42
20 44 41
21 45 42
21 46 42
21 47 43
21 46 42
21 47 43
21 46 42
21 46 42
21 46 42
20 45 41
20 45 41
20 45 41
21 46 42
21 45 42
20 45 41
21 46 42
21 46 43
21 47 43
21 46 42
21 46 42
21 46 42
21 46 42
20 45 41
21 46 42
21 47 43
21 47 43
21 46 42
21 46 42
21 47 43
21 46 42
21 46 42
21 46 42
21 46 42
21 46 42
21 46 42
21 46 42
21 47 43
21 47 43
21 47 43
21 47 43
21 46 42
21 46 42
21 45 41
21 46 42
21 47 43
21 47 43
21 46 42
21 46 42
22 48 44
20 45 41
21 46 42
21 47 43
21 46 42
21 46 42
21 47 42
21 46 42
21 46 42
21 45 41
21 46 42
21 46 42
20 45 41
21 46 42
21 46 42
21 47 43
21 47 43
21 47 42
21 46 42
21 46 42
21 47 43
21 47 42
22 47 43
21 46 42
21 46 42
22 48 44
21 47 43
22 48 43
22 47 43
21 47 43
22 47 43
22 47 43
22 48 44
22 47 43
22 47 43
21 47 43
22 47 43
21 47 43
21 47 43
22 48 43
21 46 42
22 48 44
22 48 44
22 48 43
22 48 44
21 47 43
21 47 43
21 47 43
22 47 43
21 46 42
21 46 42
22 48 44
22 48 43
21 47 43
21 47 42
21 46 42
21 47 43
21 47 42
21 47 43
22 48 44
21 46 42
21 47 43
21 46 42
21 46 42
21 46 42
21 47 42
22 48 43
21 47 43
21 47 43
21 46 42
21 46 42
21 46 42
21 47 43
20 45 42
21 46 42
20 46 42
21 46 42
21 46 42
20 45 41
21 46 42
21 47 43
21 46 42
21 47 43
21 46 42
21 47 43
21 46 42
21 46 42
21 46 42
20 45 41
21 46 42
21 46 42
21 46 42
21 46 42
21 46 42
21 46 42
21 47 43
21 47 43
21 46 42
21 46 42
21 46 42
21 46 42
21 47 43
21 46 42
21 47 43
20 45 41
21 47 43
21 47 43
21 46 42
20 45 41
21 45 41
21 47 43
21 46 42
21 46 42
21 45 41
21 46 42
21 46 42
20 45 41
21 46 42
21 47 43
21 46 42
21 46 42
21 47 43
21 47 43
21 47 43
21 46 42
21 47 42
21 47 43
21 46 42
21 46 42
21 47 43
21 47 43
21 46 42
21 46 42
21 47 43
21 47 43
21 46 42
21 45 41
21 46 42
21 46 42
22 47 43
21 47 43
22 47 43
21 47 43
21 46 42
21 47 43
22 47 43
21 46 42
21 47 43
21 45 41
22 47 43
22 47 43
22 47 43
22 47 43
22 48 44
21 46 42
21 46 42
22 48 43
21 46 42
22 47 43
21 46 42
21 46 42
21 47 43
22 47 43
21 46 42
22 47 43
21 47 42
21 47 43
21 46 42
21 47 43
21 47 43
21 46 42
22 47 43
21 45 42
21 47 42
21 46 42
21 45 41
21 46 42
22 47 43
21 46 42
22 48 44
22 47 43
21 47 43
21 47 43
22 47 43
21 47 43
21 47 43
21 47 43
22 47 43
21 46 42
21 46 42
20 45 41
21 46 42
20 45 41
21 46 42
20 45 41
21 47 43
20 45 41
21 46 42
21 47 43
21 47 43
20 45 41
20 45 41
21 47 43
21 46 42
20 45 41
21 46 42
21 46 42
21 46 42
21 46 42
21 46 42
20 45 41
21 45 42
21 47 43
21 46 42
21 46 42
21 46 42
21 47 42
21 46 42
20 45 41
21 46 42
21 46 42
21 46 42
21 46 42
21 46 42
21 46 42
21 46 42
21 46 42
21 47 43
21 46 42
21 46 42
21 45 41
21 46 42
21 46 42
21 47 43
21 46 42
21 47 43
22 48 44
21 46 42
21 46 42
21 47 42
21 46 42
21 46 42
21 46 42
21 46 42
21 47 42
21 46 42
21 46 42
21 47 43
21 47 43
22 48 44
21 45 41
21 46 42
20 45 41
22 48 44
21 47 43
21 46 42
21 46 42
22 47 43
22 47 43
21 47 42
21 46 42
22 48 44
22 48 43
21 47 43
22 47 43
21 47 43
21 46 42
21 47 42
21 46 42
21 47 42
21 47 43
22 47 43
21 46 42
21 46 42
21 46 42
22 47 43
22 47 43
21 47 42
21 46 42
22 47 43
22 47 43
22 47 43
22 49 44
22 47 43
21 46 42
21 46 42
22 47 43
22 47 43
21 46 42
22 48 43
22 47 43
21 46 42
22 47 43
22 48 44
22 47 43
22 48 44
21 46 42
21 46 42
22 47 43
22 48 44
22 47 43
22 47 43
21 46 42
22 48 44
21 47 43
21 47 43
21 46 42
21 46 42
21 46 42
21 46 42
21 46 42
20 45 42
21 45 42
21 46 42
21 46 42
21 47 43
20 45 41
21 46 42
21 47 43
21 47 43
21 46 42
20 44 41
20 45 41
21 47 43
21 47 43
21 47 43
21 46 42
20 45 41
21 46 42
21 46 42
21 46 42
20 45 41
21 46 42
21 46 42
21 46 42
21 46 42
20 45 41
20 45 41
21 46 42
21 46 42
21 46 42
21 46 42
21 46 42
21 46 42
21 47 43
20 45 41
21 47 43
22 48 44
21 45 42
21 46 42
21 46 42
21 46 43
21 46 42
22 48 44
21 46 42
22 48 44
21 47 43
21 46 42
21 45 41
21 47 43
21 47 43
20 45 41
21 46 42
21 46 42
21 46 42
21 46 42
21 46 42
21 45 41
21 46 42
21 47 43
21 46 42
21 45 41
21 47 43
21 47 42
21 47 43
21 47 43
21 47 42
22 47 43
22 47 43
21 47 43
21 46 42
22 48 44
21 45 41
21 46 42
22 48 44
22 47 43
22 47 43
22 47 42
22 47 42
21 46 42
22 47 43
22 48 44
22 48 44
22 46 42
22 47 43
22 46 42
22 47 43
22 47 43
22 47 43
22 47 43
22 47 43
22 48 43
22 47 43
22 46 42
22 47 43
21 46 42
21 46 42
22 46 42
22 47 43
22 47 43
22 47 43
22 47 43
22 47 43
22 48 43
22 47 42
22 47 42
21 46 42
22 47 43
21 47 43
22 47 43
21 47 43
21 47 43
22 47 43
22 47 43
21 47 43
21 47 42
22 47 43
21 46 42
21 46 42
21 46 42
21 46 42
20 45 41
20 45 42
21 46 42
20 44 41
20 45 41
21 46 42
21 46 42
20 45 41
21 46 42
20 45 41
20 45 41
21 46 42
20 45 42
21 46 42
21 47 43
21 46 42
21 47 43
20 45 41
21 47 43
20 44 41
20 45 41
21 46 42
21 46 42
20 45 41
21 46 42
21 46 42
21 46 42
21 47 43
21 46 42
21 47 43
20 44 41
21 47 43
21 46 42
21 47 43
21 46 42
21 47 43
21 47 43
21 47 43
20 45 41
21 46 42
21 46 42
21 47 43
21 46 42
21 46 42
21 46 42
21 47 43
21 46 42
21 46 42
21 46 42
20 45 41
21 47 43
21 47 43
21 46 42
21 46 42
21 45 42
21 47 43
21 45 41
21 46 42
21 47 42
21 46 42
21 46 42
21 46 42
21 47 43
21 46 42
21 47 43
22 47 43
21 46 42
21 46 42
21 46 42
22 47 43
22 47 43
22 47 43
22 48 44
22 47 43
22 47 43
21 45 41
22 46 42
22 47 43
22 46 42
23 49 44
22 48 44
22 47 43
22 46 42
22 47 43
22 46 42
22 47 43
22 47 42
22 47 43
22 47 43
22 47 43
22 46 42
22 46 42
22 46 42
22 48 43
22 46 42
22 47 43
22 48 43
22 47 43
22 47 43
22 46 42
22 47 42
22 46 42
22 47 43
22 47 43
22 46 42
22 48 44
22 47 43
22 47 43
22 47 43
22 47 43
22 47 43
21 46 42
22 48 43
22 47 43
22 48 43
21 46 42
22 48 43
21 46 42
21 46 42
21 46 42
20 45 41
21 47 43
21 46 42
22 48 43
20 45 41
21 47 43
21 46 42
20 45 42
21 46 42
20 45 41
20 45 41
20 45 41
21 46 42
21 46 42
21 47 43
21 46 42
21 46 42
20 45 41
20 44 41
20 45 42
20 45 41
21 46 42
21 46 42
20 45 41
21 46 42
21 46 42
21 46 42
21 47 43
20 45 41
21 46 42
20 45 41
20 45 41
21 47 43
21 47 43
21 47 43
21 47 43
21 47 43
20 45 41
20 45 41
21 46 42
21 46 42
21 46 42
21 47 43
21 46 42
21 46 42
21 46 43
21 45 41
21 46 42
21 47 42
21 46 42
21 46 42
21 47 43
21 46 42
21 45 41
20 45 41
21 47 43
21 47 43
21 46 42
21 46 42
22 47 43
21 45 41
22 47 43
22 48 43
21 46 42
22 47 43
22 47 43
21 45 41
22 47 42
22 47 43
22 46 42
22 46 42
22 47 43
22 47 43
21 45 41
22 47 42
22 46 42
22 47 43
22 47 43
23 48 43
22 47 43
23 48 43
22 46 42
22 47 43
23 48 44
23 48 44
23 47 43
23 47 42
23 47 43
23 48 43
23 47 42
22 46 42
23 48 44
23 47 43
23 47 43
23 47 43
22 46 42
22 46 42
23 47 43
22 47 43
23 48 44
22 47 43
22 46 42
22 47 43
22 47 43
22 47 42
22 48 43
21 46 42
22 47 43
21 45 41
22 47 43
22 47 42
22 48 44
22 47 43
21 46 42
22 47 42
21 45 41
21 46 42
21 47 42
20 45 42
21 46 42
20 45 42
20 45 41
20 45 41
21 46 42
20 45 41
21 46 42
21 46 42
20 44 40
20 45 41
20 45 41
20 45 41
21 47 43
20 45 41
21 46 42
20 44 40
21 46 42
21 46 42
21 46 42
21 46 42
20 45 42
21 46 42
21 46 42
20 45 41
21 46 42
20 45 41
20 45 41
21 46 42
21 46 42
21 45 41
20 45 41
21 47 43
21 46 42
21 46 42
20 45 42
21 46 42
21 46 42
21 47 43
21 46 42
20 45 41
20 45 41
21 47 43
20 45 41
21 46 42
21 46 42
21 47 43
21 46 43
21 46 42
21 47 43
21 47 43
21 45 41
21 46 42
21 47 43
21 47 43
21 46 42
21 46 42
21 46 42
21 47 43
21 46 42
21 47 43
22 47 43
21 46 42
22 47 43
21 46 42
22 47 43
22 47 43
22 46 42
22 46 42
22 47 43
22 47 43
22 46 42
22 47 42
23 47 43
22 47 43
22 47 43
23 48 43
23 48 44
23 47 42
23 47 43
23 47 42
23 47 43
23 47 43
23 48 44
23 48 43
24 48 44
23 46 42
24 48 44
23 47 43
23 46 42
23 47 43
24 48 44
24 48 43
24 48 44
23 46 42
23 47 43
24 48 44
23 47 43
23 47 43
23 46 42
23 47 43
23 47 43
23 47 43
23 47 43
23 47 43
23 48 44
23 47 43
23 48 43
22 47 43
22 47 43
22 46 42
22 47 43
22 47 43
22 46 42
21 46 42
21 46 42
22 47 43
21 46 42
21 46 42
22 47 43
21 46 42
20 45 42
21 46 42
21 46 42
20 45 41
20 45 42
20 45 41
20 45 41
21 46 42
20 45 42
20 45 41
20 45 42
21 46 42
21 46 42
20 45 41
21 46 43
20 45 41
21 46 42
20 45 41
21 47 43
20 45 42
20 45 41
21 46 42
21 46 42
21 46 42
20 45 41
20 44 40
20 45 41
20 45 41
20 44 41
20 45 42
21 45 42
21 46 42
21 46 42
20 45 41
20 45 42
21 46 42
21 47 43
21 47 43
21 46 42
20 45 41
21 47 43
21 46 42
20 45 41
20 44 41
21 46 42
21 47 43
21 45 41
21 45 41
21 46 42
20 45 41
21 46 42
21 46 42
21 47 43
21 46 42
21 46 42
22 47 43
21 46 42
21 47 43
21 46 42
21 46 42
21 46 42
22 47 43
22 47 43
22 46 42
22 46 42
22 47 43
22 48 43
22 47 43
23 48 43
23 47 43
22 46 42
23 47 43
23 47 43
23 47 43
23 48 44
23 47 43
24 48 43
23 47 43
23 47 43
24 47 43
24 48 43
24 47 43
24 48 44
24 48 43
24 48 43
25 48 44
24 47 43
25 48 44
24 48 44
24 47 43
24 48 43
24 48 43
24 47 43
24 47 43
24 46 42
25 49 45
24 48 43
24 48 44
24 48 44
24 47 43
24 47 43
23 46 42
24 48 43
23 47 43
24 48 43
23 48 44
23 48 43
23 47 42
23 48 44
23 47 43
23 47 43
23 47 43
22 46 42
22 47 43
22 46 42
22 46 42
22 46 42
23 49 44
22 46 42
20 44 40
20 45 41
20 45 41
20 44 41
20 45 42
20 44 41
20 44 40
20 45 41
21 45 42
20 45 41
20 45 41
20 45 41
21 46 42
20 44 41
20 45 41
20 45 42
21 47 43
20 45 41
21 46 42
21 46 42
21 47 43
20 45 41
20 45 41
21 46 42
20 45 41
20 45 42
21 46 42
21 46 42
21 46 42
20 45 41
21 46 42
20 45 41
21 46 42
21 46 42
21 47 43
21 47 43
21 46 42
21 46 42
21 46 42
20 45 42
21 46 42
21 47 43
21 46 42
21 46 42
21 47 43
20 45 41
21 46 42
21 46 42
21 45 41
21 46 42
21 47 43
21 46 42
21 46 42
21 47 43
21 46 42
21 46 42
21 46 42
21 45 41
22 47 43
22 47 43
22 47 43
22 46 42
22 46 42
22 47 43
22 46 42
22 45 41
23 47 43
22 46 42
23 48 43
23 48 44
23 46 42
23 46 42
23 45 41
23 47 43
24 47 43
24 47 42
24 48 44
25 48 44
24 47 43
24 47 43
24 47 43
25 49 44
25 48 43
25 48 44
25 48 43
25 47 42
25 48 44
25 48 44
25 47 43
26 48 44
26 48 44
25 48 43
25 48 44
26 48 44
25 47 43
25 48 43
25 47 43
25 47 43
25 47 43
25 49 44
25 48 43
25 49 45
25 48 44
25 48 44
25 48 44
24 48 44
24 47 43
24 47 43
24 48 44
24 47 43
24 48 44
23 47 42
24 48 44
24 49 45
23 46 42
22 46 42
22 46 42
22 46 42
22 47 43
23 48 43
20 44 40
21 46 42
21 46 42
20 44 41
21 46 42
21 46 42
20 45 41
20 45 41
20 45 41
20 45 42
21 46 42
21 46 42
20 44 40
21 46 42
20 45 41
21 46 42
20 45 42
20 45 41
20 45 42
21 46 42
20 45 41
20 45 42
20 43 40
21 46 42
20 44 41
21 46 42
20 45 41
20 45 42
21 46 42
20 45 41
20 45 41
21 46 42
21 46 42
21 46 42
20 45 41
20 45 41
21 47 43
21 47 43
21 47 43
20 44 41
20 44 41
21 45 42
21 46 42
21 46 42
21 45 41
21 47 43
21 47 43
21 46 42
21 46 42
21 46 42
21 46 42
22 47 43
21 47 43
21 46 42
21 45 41
21 45 41
21 46 42
22 47 43
21 45 41
22 46 42
22 46 42
23 48 43
22 46 42
22 46 42
22 45 41
23 46 42
23 47 43
24 48 44
24 47 43
24 49 44
24 47 43
24 46 42
24 47 43
24 47 43
25 47 43
24 46 42
25 48 44
25 47 43
25 48 43
25 47 43
26 48 44
26 48 44
26 48 44
26 48 43
26 47 43
27 49 45
27 48 44
27 49 44
26 48 43
27 48 44
27 49 44
28 50 45
27 48 44
26 47 43
27 48 44
27 49 45
27 49 44
27 49 45
26 48 43
27 49 44
26 48 43
26 48 44
26 49 45
26 48 44
25 47 43
26 48 44
25 47 43
25 48 44
25 49 45
24 47 43
24 47 43
24 48 44
24 47 43
24 47 43
24 48 44
24 48 44
23 47 43
23 47 43
23 48 44
22 46 42
20 44 40
20 45 41
20 44 41
20 45 41
20 44 40
20 45 41
20 45 41
21 46 42
21 46 42
20 44 40
20 45 41
20 45 41
20 45 41
20 45 41
21 46 42
20 45 41
21 46 42
20 45 41
20 45 41
20 45 41
20 45 41
21 46 42
21 46 42
20 45 41
20 45 41
21 46 42
20 45 41
21 46 42
20 45 42
21 47 43
20 45 41
20 45 41
21 45 42
20 45 41
21 45 42
20 45 41
20 45 41
20 45 42
22 48 44
20 45 41
20 44 41
21 45 41
20 45 41
21 46 42
21 45 42
20 45 41
21 45 41
21 46 42
21 46 42
21 46 42
21 45 41
21 46 42
21 45 42
22 48 43
21 46 42
22 47 43
22 47 43
21 45 41
22 46 42
22 45 41
22 46 42
23 47 43
23 47 43
23 47 43
24 48 44
24 48 43
24 47 43
25 49 45
24 48 43
24 47 43
24 47 43
25 48 43
26 49 44
26 48 44
26 47 43
26 48 43
26 48 43
27 48 44
27 48 44
27 48 44
27 49 44
27 48 44
28 49 44
28 48 44
28 50 45
28 48 44
28 49 44
29 50 45
29 50 45
28 48 44
29 50 45
29 50 45
29 50 45
28 49 44
29 50 46
28 49 44
29 50 46
29 49 45
28 50 45
29 51 46
29 51 46
28 49 44
28 49 44
27 49 44
27 49 44
27 48 44
26 47 43
26 49 44
26 48 43
26 48 43
26 48 44
26 48 44
25 47 43
25 48 43
25 48 44
24 47 43
24 47 43
24 47 43
24 49 44
24 48 43
20 45 42
20 44 40
20 45 41
21 46 42
21 46 42
20 45 41
20 45 41
21 46 43
20 45 42
20 45 42
20 45 41
21 46 42
20 44 40
21 46 43
21 45 42
20 44 41
20 44 40
20 45 42
20 45 41
21 47 43
21 45 42
21 46 42
20 45 41
20 45 41
20 45 41
21 46 42
20 45 41
20 44 41
21 46 42
21 46 42
21 46 42
21 46 42
21 46 42
20 45 41
21 46 42
21 46 42
21 46 42
20 45 41
21 46 42
21 46 42
20 45 41
21 46 42
20 45 41
21 46 42
20 45 41
21 45 41
21 46 42
21 45 41
22 47 43
21 45 41
21 45 41
22 47 43
22 47 43
21 45 41
22 46 42
22 46 42
22 47 43
22 47 43
23 47 43
23 47 43
23 46 42
23 46 42
23 47 43
23 47 42
23 46 42
24 47 43
25 47 43
25 47 43
25 48 43
26 49 45
26 48 44
26 47 43
27 48 44
27 48 44
27 48 44
27 48 44
28 48 44
28 49 45
29 49 45
29 49 45
29 50 45
29 49 44
30 50 45
30 50 45
30 50 45
31 51 46
31 51 46
31 50 45
30 49 44
31 51 46
31 52 47
31 50 45
31 51 46
31 51 46
31 50 45
31 52 46
30 50 45
31 50 46
30 49 45
30 50 45
30 50 45
30 50 45
30 50 45
29 49 44
28 48 44
28 49 44
28 48 43
28 49 44
28 49 44
27 49 45
27 49 44
27 48 44
26 48 44
26 49 44
26 48 43
26 49 45
25 47 43
25 48 44
24 47 42
24 47 43
21 46 42
20 45 41
21 46 42
21 46 42
20 44 41
20 45 41
21 46 42
20 44 41
21 47 43
21 46 42
20 45 42
20 45 42
20 45 42
19 43 40
21 46 42
21 47 43
20 45 41
21 46 42
20 45 42
20 44 41
20 45 41
20 45 41
20 45 41
21 46 43
21 46 42
21 47 43
21 46 42
20 45 41
20 44 41
21 46 42
20 45 42
20 44 41
21 46 42
21 46 42
21 45 42
21 46 42
21 46 42
21 46 42
21 45 42
20 45 41
21 45 41
20 45 41
21 46 42
21 46 42
21 45 42
21 46 42
21 45 41
21 46 42
21 46 42
21 46 42
21 45 41
21 45 42
22 47 43
22 46 42
22 45 41
22 46 42
23 48 44
22 46 42
23 47 43
23 47 43
23 46 42
24 48 44
24 47 43
24 47 43
25 48 43
25 47 42
26 49 44
26 48 43
26 47 43
27 48 44
27 49 44
27 48 43
28 49 44
28 49 44
29 49 44
29 50 45
30 51 46
30 51 46
31 51 46
31 50 45
31 51 46
32 52 47
32 51 46
32 51 46
32 51 46
32 51 46
32 50 45
33 52 47
33 51 46
33 51 46
33 51 46
33 52 46
33 52 47
33 52 47
33 52 46
33 52 47
33 52 47
33 51 46
33 52 46
32 51 46
32 51 46
32 51 46
32 51 46
31 51 46
30 49 45
31 50 45
30 49 44
30 50 45
29 49 45
29 49 45
28 49 44
28 49 44
28 49 44
28 49 45
27 49 45
27 49 44
26 47 42
26 48 44
26 48 44
25 48 44
20 45 41
20 45 42
20 45 41
20 45 41
20 44 41
20 44 40
20 45 41
19 43 40
21 46 42
20 45 41
21 46 42
21 46 42
20 45 41
20 45 41
20 46 42
21 46 42
21 46 42
20 45 41
21 46 42
20 44 41
21 46 42
21 46 42
20 45 41
20 45 41
20 46 42
21 46 42
20 44 40
20 45 41
20 45 42
20 43 40
20 45 41
21 46 42
21 46 42
21 46 42
21 46 42
20 45 41
20 45 41
21 45 41
20 45 41
21 46 43
21 46 42
20 45 41
21 45 41
21 45 41
21 45 41
21 46 42
21 45 41
22 47 43
21 46 42
22 47 43
21 45 42
22 46 42
22 45 41
22 46 42
23 47 43
22 46 42
23 47 43
23 46 42
24 47 43
24 46 42
24 47 43
25 48 44
26 48 44
26 48 43
26 48 44
27 49 45
27 48 44
28 49 44
28 49 44
28 48 44
29 49 44
29 49 45
30 49 44
30 50 45
31 50 45
31 50 46
32 51 46
33 52 47
33 52 46
33 52 47
34 52 47
34 53 48
34 52 47
35 52 47
35 54 48
35 53 47
36 53 48
36 53 47
36 54 49
36 53 47
36 53 48
36 53 48
36 54 48
36 53 48
36 52 47
36 54 48
35 52 47
36 54 48
35 53 48
35 53 48
35 53 47
35 53 48
34 52 47
33 51 46
33 51 46
33 51 46
32 51 46
32 52 47
31 50 45
31 50 45
31 51 46
30 50 45
30 50 46
30 51 46
28 48 44
28 47 43
27 48 44
28 50 45
27 49 44
26 47 43
20 45 41
20 45 41
20 44 41
21 46 42
20 44 40
20 44 41
20 44 41
20 44 41
20 45 41
20 45 41
20 44 40
21 46 42
21 46 42
20 45 41
21 46 42
20 45 41
20 45 41
20 45 41
20 44 40
21 46 42
20 45 41
21 46 42
20 45 41
20 45 41
21 46 42
20 45 42
21 46 42
21 46 42
20 44 41
20 44 41
21 46 42
20 44 40
20 45 41
20 45 41
20 45 41
20 44 40
21 46 42
21 46 42
20 44 41
21 46 43
21 45 41
21 47 43
21 45 41
21 46 42
21 45 41
21 46 42
21 46 42
21 45 42
21 45 41
22 46 42
22 45 41
23 47 43
22 45 41
23 47 43
24 47 43
23 46 42
24 47 43
24 47 43
25 48 44
25 47 43
25 46 42
26 48 43
26 47 42
27 48 44
27 48 43
28 49 44
29 49 45
29 49 44
29 49 44
30 49 45
31 50 46
31 50 45
32 51 46
32 51 46
33 53 48
34 52 47
34 52 46
35 52 47
35 52 47
36 53 47
36 52 47
37 54 48
37 55 49
37 54 48
38 54 48
38 55 49
38 55 49
39 55 49
39 55 49
39 56 50
39 55 49
39 55 49
39 55 49
39 55 49
39 54 48
39 55 49
38 54 48
38 55 49
39 56 50
38 54 49
37 54 48
37 54 49
37 54 49
36 54 48
36 54 48
36 53 48
35 51 46
34 53 47
34 52 47
34 53 47
33 51 46
32 51 46
31 50 45
31 51 46
31 51 46
30 49 45
30 50 45
29 50 45
29 51 46
28 49 45
20 45 41
21 46 42
20 45 41
20 45 41
20 45 41
20 44 40
20 44 41
20 45 41
21 46 43
20 44 41
21 46 42
20 44 40
20 45 41
21 46 42
20 45 41
20 45 41
21 46 42
20 45 41
20 44 40
21 47 43
20 45 42
20 45 41
20 44 40
21 46 42
20 45 41
20 45 41
21 46 42
20 44 40
20 44 41
21 46 43
20 45 42
20 45 41
21 46 42
21 46 42
20 45 41
21 46 42
20 45 41
21 46 42
20 45 41
21 46 42
21 45 42
21 45 41
21 45 42
21 46 42
22 46 42
22 46 42
21 44 41
22 46 42
22 46 42
22 46 42
23 47 43
23 47 43
23 46 42
23 46 42
23 46 42
23 45 41
25 48 43
25 48 44
26 48 44
26 48 44
27 48 44
27 48 44
28 49 45
28 48 44
29 49 44
29 48 43
30 50 45
31 51 46
31 50 46
32 51 46
33 52 47
34 52 47
34 53 48
35 53 47
36 54 48
36 54 49
37 54 49
37 54 48
38 54 48
38 54 48
39 55 49
39 55 49
40 56 50
40 55 49
41 56 49
41 56 50
41 56 50
41 56 50
42 56 50
42 56 50
42 57 51
42 56 50
42 56 50
42 57 50
42 58 51
42 57 51
42 58 52
41 56 50
41 57 51
41 57 51
40 55 49
40 56 50
40 55 49
39 55 49
39 55 50
38 55 49
38 54 49
37 54 48
37 54 48
36 53 47
35 53 48
35 53 48
34 53 47
33 52 47
33 51 46
31 49 45
31 51 46
31 52 47
30 50 45
29 49 44
20 45 41
20 45 42
20 45 42
21 46 42
20 44 40
20 45 41
20 44 41
20 44 40
20 44 40
20 45 41
20 44 41
20 45 42
21 46 42
20 45 41
20 45 42
21 46 42
21 46 42
20 45 41
21 46 42
20 44 41
21 46 42
20 45 42
21 46 42
20 45 41
20 44 41
21 46 42
20 45 42
20 45 41
20 44 40
21 46 43
20 45 41
20 45 41
21 47 43
20 45 41
21 46 42
20 45 41
20 44 41
21 45 41
21 45 41
21 47 43
21 45 41
21 46 42
21 45 42
21 45 41
22 46 42
22 45 41
22 47 43
22 46 42
23 47 43
23 47 43
24 47 43
23 46 42
24 47 42
24 46 42
25 47 43
25 47 43
26 49 44
26 47 43
27 50 45
27 48 44
28 49 44
29 50 46
29 49 45
30 50 45
31 51 46
32 51 46
32 50 45
33 51 45
34 54 48
35 54 48
35 53 48
36 54 48
37 54 48
37 54 48
38 55 49
39 54 48
40 56 50
40 55 49
41 55 49
41 56 50
43 58 52
43 57 51
43 58 51
44 57 51
44 58 51
45 59 52
45 58 52
45 58 52
46 60 53
46 60 53
46 59 53
45 58 52
45 58 52
45 58 51
45 58 51
45 59 52
45 59 52
45 59 52
45 59 52
44 58 51
44 59 52
43 57 51
43 58 51
42 57 50
42 56 50
41 55 49
41 56 50
40 56 50
39 54 48
38 54 48
38 54 48
37 54 49
37 54 48
36 54 48
35 53 48
34 51 45
34 52 47
33 51 46
32 52 47
31 50 45
20 45 41
20 44 40
20 44 40
20 44 40
20 44 40
20 45 41
20 45 41
20 44 40
20 45 41
20 44 41
20 44 41
20 45 41
20 46 42
20 45 42
20 45 41
20 45 41
20 45 41
20 45 41
20 45 41
20 44 41
20 45 41
20 44 40
20 45 42
20 45 41
21 46 42
20 45 41
20 44 41
20 45 41
20 44 40
20 45 41
20 44 40
20 45 42
22 48 44
21 45 41
21 45 42
20 45 41
21 45 42
21 46 42
21 45 41
21 45 41
21 45 41
21 45 41
21 45 41
22 46 42
22 45 41
22 45 41
23 46 42
22 45 41
23 46 42
23 46 42
24 47 43
24 48 44
24 45 41
25 48 44
26 48 43
26 48 44
27 49 45
28 49 44
28 49 44
29 49 45
29 49 45
30 50 45
31 50 45
32 51 46
33 51 46
33 51 46
34 52 46
35 51 46
36 53 47
37 53 48
37 54 48
38 54 48
39 55 50
40 55 49
41 57 51
42 57 50
42 57 50
43 57 51
44 58 51
44 57 51
45 59 53
46 60 53
47 60 53
47 59 52
48 61 54
48 60 53
48 61 54
49 61 54
49 61 53
49 61 54
49 61 54
49 62 54
49 62 55
49 62 55
49 61 54
49 61 54
49 61 54
48 60 53
48 60 53
48 61 54
47 60 53
47 59 52
47 60 53
46 59 53
45 60 53
44 58 51
44 57 50
43 58 52
42 57 51
42 57 51
41 56 50
40 55 49
39 55 49
38 54 49
37 53 48
36 53 47
36 53 48
34 51 46
34 52 46
33 51 46
20 44 41
20 44 41
20 45 41
20 44 41
20 45 41
20 45 41
20 45 42
20 45 41
20 44 41
20 45 41
20 44 41
20 44 40
20 44 41
20 44 40
20 44 40
20 45 41
20 44 40
20 44 41
20 44 41
20 45 42
20 45 41
20 44 41
20 44 40
20 45 41
21 46 42
20 44 41
20 45 41
21 46 42
20 45 41
20 45 41
21 46 42
21 47 43
21 46 42
21 46 42
21 45 42
21 46 42
21 45 41
21 45 42
21 45 41
21 44 40
21 45 41
21 45 41
22 46 42
22 45 41
23 46 42
23 46 42
23 46 42
24 47 43
23 46 42
25 48 44
24 47 43
26 48 44
25 47 43
26 47 43
27 49 44
27 48 43
28 49 45
29 49 44
29 49 44
30 49 45
31 50 45
32 50 45
33 52 47
34 52 47
35 52 47
35 52 47
37 53 48
38 54 48
38 53 48
39 54 49
40 56 50
41 57 50
42 56 50
43 57 50
44 59 53
45 58 51
46 60 53
46 59 52
47 59 52
48 61 54
49 62 54
50 62 55
50 61 54
51 62 55
51 63 55
52 63 56
52 63 55
52 63 56
53 63 56
53 64 57
53 64 56
53 63 56
53 63 56
53 64 56
53 64 57
53 64 56
53 65 57
52 64 56
52 62 55
51 62 55
51 64 56
50 61 54
50 62 54
49 62 54
49 62 54
48 60 53
47 61 54
47 60 53
45 58 52
45 59 52
44 58 51
43 57 51
42 57 50
41 56 50
40 55 49
39 55 49
38 54 48
37 53 48
37 54 49
35 53 47
20 45 42
19 43 40
20 44 41
20 45 41
20 44 40
20 45 41
20 45 41
20 45 41
20 45 42
20 45 41
20 44 41
20 45 41
20 45 41
20 45 41
20 45 41
20 44 41
20 45 41
21 46 42
20 44 41
20 44 40
20 45 42
20 45 42
20 45 41
20 44 40
20 44 41
21 45 42
20 45 41
20 45 41
21 46 42
20 45 41
20 45 41
21 46 42
21 46 42
21 45 42
21 46 43
21 45 41
21 45 41
21 45 41
21 46 42
21 44 41
22 46 42
22 45 41
22 45 42
22 46 42
23 46 42
23 47 43
24 47 43
24 47 43
25 47 43
25 46 42
25 47 43
26 48 43
26 47 43
27 49 44
28 48 43
28 48 43
29 49 45
30 50 45
31 49 44
32 50 45
33 51 46
34 51 46
35 52 47
36 52 47
37 53 48
38 53 48
39 55 49
40 56 50
41 56 50
42 56 50
43 56 50
44 59 52
45 59 52
46 60 53
47 60 53
49 62 55
49 61 54
50 61 54
51 62 55
52 63 55
53 64 56
53 64 56
54 65 57
55 66 58
55 67 58
56 67 59
56 65 57
56 66 58
57 66 58
57 67 58
57 67 59
57 67 59
58 68 60
57 68 59
57 68 59
57 67 59
56 66 58
56 67 59
56 66 58
55 65 57
55 65 57
54 64 56
54 65 57
53 65 57
52 64 56
52 63 56
51 63 55
50 62 54
49 61 54
48 60 53
47 60 53
46 60 53
45 59 52
44 58 52
43 57 51
42 56 50
41 55 49
40 56 50
39 55 49
38 55 49
20 45 42
20 43 40
20 44 41
21 46 42
20 44 40
20 45 41
20 44 41
21 46 42
20 46 42
20 44 40
20 44 40
20 45 41
20 45 42
20 44 40
21 46 42
20 44 41
20 45 41
20 45 41
20 45 41
20 45 41
21 46 42
20 44 40
20 45 41
20 45 41
20 44 41
20 44 41
20 45 41
20 45 41
20 45 41
20 45 41
21 46 42
20 45 41
21 45 41
21 45 41
21 45 41
21 45 41
21 45 41
21 45 41
22 46 42
22 46 42
22 46 42
22 46 42
23 46 42
23 46 42
23 46 42
24 46 42
24 46 42
24 46 42
25 46 42
26 48 44
26 48 43
27 48 44
28 48 44
29 49 45
29 49 44
30 50 46
31 50 45
32 50 45
33 52 47
33 50 45
35 53 47
36 52 47
37 53 47
38 54 49
39 55 49
40 56 50
42 56 50
43 57 51
44 58 51
45 59 52
46 59 52
48 61 54
48 61 54
50 62 55
51 63 55
52 63 56
53 64 56
54 65 57
55 65 57
55 66 57
57 67 59
57 67 59
58 67 59
59 69 60
59 68 59
60 69 61
60 69 60
61 69 61
61 70 61
61 70 61
61 70 61
62 70 61
61 69 60
61 71 62
61 70 61
61 70 62
61 69 61
60 69 60
60 69 61
60 70 61
59 69 60
58 68 59
58 68 59
57 67 59
56 67 58
55 65 57
55 65 57
54 64 57
53 63 56
52 63 56
51 62 54
49 62 54
48 60 53
47 60 53
46 60 53
45 59 52
44 58 52
43 57 51
42 57 51
40 55 49
20 45 42
20 45 41
21 46 43
20 45 42
20 45 41
20 45 42
20 45 41
20 45 41
19 43 40
20 44 40
20 44 41
20 45 41
20 45 42
20 44 40
19 43 40
21 46 42
20 45 41
20 45 41
20 45 41
21 45 42
20 44 41
20 45 41
20 45 42
20 45 41
21 45 42
20 44 41
20 45 41
21 45 42
20 44 40
20 45 41
21 45 41
20 44 41
21 45 41
21 44 41
21 44 41
21 44 41
21 45 41
22 46 42
22 46 42
22 46 42
22 46 42
23 46 42
23 46 42
23 45 41
24 47 43
24 46 42
25 48 44
25 47 43
26 47 43
27 48 44
28 49 44
28 48 44
29 48 44
31 51 47
31 50 45
32 50 45
33 51 46
34 52 47
35 52 47
36 52 47
37 54 48
38 54 48
39 54 48
40 55 49
41 55 49
43 58 51
44 59 52
46 59 52
47 61 54
48 61 54
50 62 55
51 64 56
52 63 56
53 63 56
54 65 57
55 65 57
56 65 57
57 67 58
58 68 59
60 69 60
61 69 61
61 70 61
62 71 62
63 72 62
64 72 63
64 71 62
65 72 63
65 74 64
65 73 64
65 72 63
66 74 64
66 74 64
66 75 65
66 74 64
66 73 64
66 73 64
65 73 64
65 72 63
64 72 63
64 72 63
63 71 62
63 71 62
62 71 62
61 70 61
60 69 61
59 69 60
58 67 58
57 67 59
57 67 58
55 65 57
54 64 57
53 65 57
52 63 56
51 62 54
49 61 54
48 60 53
47 60 53
46 60 53
44 58 52
43 58 52
20 44 40
21 46 42
19 43 40
19 43 39
20 44 41
20 44 40
20 45 41
20 44 40
20 44 40
20 45 41
20 45 41
20 45 41
20 45 41
20 45 42
20 44 41
20 45 41
21 46 42
20 45 41
20 45 42
20 44 41
20 45 41
19 43 40
20 45 42
20 45 42
21 46 42
20 44 41
20 45 41
20 45 41
20 45 41
21 46 42
21 46 42
21 46 42
21 45 41
21 45 41
21 45 41
21 45 41
22 46 42
22 46 42
22 45 41
23 46 42
22 45 41
23 46 42
23 46 42
24 46 42
25 48 43
25 47 43
26 48 43
26 47 42
27 49 44
28 49 44
28 48 43
29 49 44
30 50 45
32 51 46
32 51 46
34 52 47
34 52 46
36 52 47
37 53 48
38 53 48
40 56 50
40 55 49
42 56 50
43 57 51
45 58 52
46 59 52
47 59 52
48 61 53
50 61 54
51 63 56
53 64 56
54 65 57
55 65 57
57 66 58
58 67 59
59 68 59
60 69 60
61 70 61
63 71 62
64 72 63
64 72 62
65 73 63
66 74 64
67 74 64
68 76 66
68 76 66
68 74 64
69 76 66
70 77 67
70 77 66
70 76 66
70 77 67
71 77 67
70 77 67
70 76 66
70 77 67
70 76 66
69 76 66
69 76 66
69 76 66
68 74 65
67 73 64
66 74 64
65 73 64
65 72 63
64 72 62
62 71 62
61 69 61
60 70 61
59 69 60
58 68 59
56 66 58
55 65 57
55 66 58
53 63 55
52 63 55
50 62 55
49 61 54
48 61 54
46 59 53
20 45 42
20 45 41
20 44 40
20 44 40
20 44 41
20 45 41
20 44 40
20 44 41
20 44 41
20 44 41
20 45 41
20 44 41
20 45 41
20 45 41
20 45 41
20 45 42
20 44 40
20 44 41
20 45 41
21 46 42
20 45 42
20 45 41
20 45 41
20 44 40
20 44 40
20 43 40
20 44 41
20 45 41
20 45 41
21 46 42
21 44 41
21 45 41
21 46 42
21 46 42
22 46 42
21 44 41
22 45 41
22 45 41
23 46 42
23 46 42
23 44 40
24 47 43
24 47 43
25 46 42
25 46 42
26 47 43
27 48 44
27 47 43
28 48 43
29 48 43
30 50 45
31 50 45
32 50 45
33 51 46
34 51 46
35 51 45
36 53 47
38 55 49
39 55 50
40 56 50
42 56 50
43 57 50
44 57 51
46 59 53
47 58 52
49 60 53
50 62 55
52 63 56
53 63 56
54 64 57
56 67 59
57 67 58
59 68 60
60 68 60
61 69 60
63 71 62
64 72 62
65 73 63
66 73 64
68 75 65
68 75 65
70 76 66
71 77 67
72 78 67
72 78 67
73 79 68
73 79 69
74 79 68
74 79 68
75 80 69
75 81 70
75 81 70
75 81 70
75 81 70
75 80 69
75 81 70
74 80 69
74 79 68
73 79 69
73 78 68
72 78 67
71 77 67
70 76 66
70 76 66
69 76 66
68 75 65
67 74 64
65 73 63
64 71 62
63 71 62
62 72 63
60 68 60
59 69 60
58 67 59
56 66 58
55 65 57
54 65 57
52 65 57
51 62 55
49 61 54
20 45 41
20 45 41
19 43 40
19 43 40
20 44 40
20 45 41
20 45 42
20 45 41
20 46 42
20 44 41
20 45 41
20 45 41
20 44 41
20 45 41
20 44 41
20 45 41
20 45 41
20 45 41
20 45 41
20 45 41
20 45 41
20 44 40
20 45 42
20 44 41
21 45 42
20 45 41
21 45 42
21 46 42
21 46 42
21 46 42
20 44 40
21 44 40
21 46 42
21 45 41
22 46 42
22 45 41
22 46 42
22 45 41
23 45 42
23 46 43
24 47 43
24 47 42
25 46 42
26 47 43
26 47 43
26 46 42
27 48 43
28 48 43
30 50 45
30 49 44
31 50 45
32 51 46
33 51 46
34 51 46
36 53 47
37 53 48
38 54 49
40 55 49
41 55 49
42 56 50
44 58 51
46 59 52
47 59 52
48 60 53
50 62 55
52 63 56
54 65 57
55 65 57
57 67 59
58 69 60
60 69 60
61 69 60
62 70 61
64 72 62
66 73 64
67 74 64
68 75 65
70 77 66
71 77 67
72 78 68
73 78 67
74 79 69
75 80 69
76 81 70
77 82 70
77 82 70
78 83 72
78 83 72
79 83 72
79 84 72
80 84 73
80 84 73
80 84 73
80 85 73
79 84 72
79 84 72
79 83 72
79 84 72
78 82 71
77 83 72
77 82 71
76 81 70
75 80 69
74 79 69
73 79 68
72 78 68
71 78 67
70 77 67
69 76 66
67 74 64
66 73 63
65 73 64
63 72 62
61 70 61
60 68 60
58 67 58
57 66 58
56 66 58
54 64 56
52 63 55
20 44 41
20 45 41
20 44 40
20 45 41
20 45 41
21 46 42
20 44 40
20 44 41
20 44 41
20 44 40
19 43 40
20 45 41
20 44 41
20 44 41
20 45 41
20 45 41
20 45 41
20 44 41
20 44 41
20 44 40
20 44 41
20 45 41
20 43 39
20 45 41
21 45 41
20 44 41
20 44 40
21 45 41
21 45 41
21 44 41
21 45 42
21 45 42
21 45 41
22 45 42
22 46 42
23 47 43
23 46 42
23 45 42
23 46 42
24 46 42
24 46 42
25 47 43
25 45 41
27 49 45
27 48 44
28 47 43
28 48 43
30 49 44
31 50 45
32 50 45
33 50 45
34 51 46
35 52 47
36 53 47
37 53 47
39 54 48
41 56 50
42 56 49
44 58 52
45 58 52
47 59 52
48 61 54
50 60 53
51 63 55
53 63 56
55 65 57
56 66 58
58 67 59
60 69 60
62 70 61
63 72 63
65 72 63
66 73 64
68 75 65
69 76 66
71 77 67
72 78 68
73 79 68
75 80 69
76 82 71
77 82 71
78 83 72
80 84 73
80 85 73
81 85 73
82 86 74
82 86 74
83 87 74
83 87 74
84 87 75
84 89 76
85 88 75
84 88 76
84 88 76
84 88 76
84 88 76
84 88 76
84 88 76
83 87 75
82 86 74
81 86 74
81 85 73
80 84 73
78 83 71
78 82 71
76 81 70
75 81 70
74 80 69
73 79 68
71 78 67
70 77 67
68 76 66
67 74 65
66 73 64
64 72 63
62 71 62
60 69 60
59 68 59
57 67 58
56 66 58
20 44 41
20 44 40
20 44 41
20 45 41
20 45 42
20 44 41
20 45 41
20 44 41
20 45 41
20 44 40
20 45 42
20 44 40
20 45 42
20 45 41
20 45 41
20 43 40
20 44 41
19 43 40
21 46 42
20 45 41
20 45 41
20 45 41
21 45 42
21 45 41
20 45 41
21 45 41
20 44 41
21 45 42
21 45 41
21 44 40
22 46 43
21 45 41
22 46 42
22 45 41
22 45 41
23 46 42
23 46 42
23 46 42
24 47 43
25 47 43
25 46 42
26 48 43
27 48 44
27 47 43
28 49 45
29 49 44
30 49 45
31 50 45
32 50 45
33 52 47
35 53 47
36 53 48
37 53 47
38 54 48
40 54 49
41 56 50
42 56 50
45 59 52
46 59 53
48 60 53
49 61 54
51 62 55
53 64 56
54 65 57
56 67 58
58 66 58
60 69 60
62 71 62
63 71 62
65 73 63
67 75 65
69 76 66
70 77 66
72 78 68
74 79 69
75 80 69
76 82 70
78 82 71
79 83 72
80 84 73
82 86 74
83 87 75
84 87 75
85 88 76
86 89 76
87 90 77
87 90 77
88 91 78
88 91 79
89 92 79
89 92 79
89 92 79
89 92 79
89 92 79
89 92 79
89 92 79
88 92 79
88 91 79
88 91 78
87 90 78
86 90 78
85 89 76
84 88 76
83 87 75
82 86 74
81 85 74
80 84 73
78 84 72
77 81 70
75 81 70
74 80 69
73 79 68
71 77 67
69 76 66
67 74 64
66 72 63
64 72 63
62 71 62
61 70 61
59 67 59
20 45 41
20 43 40
20 45 41
20 44 41
21 47 43
20 44 40
19 43 40
21 46 42
20 45 41
20 46 42
20 45 41
20 45 41
20 45 41
20 44 40
20 45 41
20 45 41
20 44 41
20 44 41
21 46 43
20 44 41
19 43 40
20 44 41
20 45 41
20 44 40
21 46 42
21 45 41
20 44 41
21 45 41
21 45 41
21 45 41
21 44 40
22 45 42
22 46 42
22 45 41
23 46 42
23 46 42
24 47 43
24 47 43
25 47 43
25 46 42
26 46 42
27 49 45
27 48 44
28 48 44
29 48 44
30 48 44
31 49 45
32 50 45
33 51 46
35 52 47
36 53 48
37 54 48
39 54 48
41 56 50
42 56 50
44 58 51
45 57 51
47 59 52
49 61 54
50 61 54
52 63 56
54 65 57
56 66 58
57 66 58
59 68 59
61 70 61
63 71 61
65 73 64
67 74 65
69 75 65
71 76 66
72 78 68
74 79 69
76 81 70
77 82 71
79 84 73
80 84 72
82 86 74
84 88 76
85 88 76
86 90 78
88 91 78
88 91 78
90 93 80
90 93 80
91 93 80
92 94 81
93 95 81
93 95 81
93 95 81
94 96 82
94 95 81
94 96 82
94 96 83
94 96 82
94 96 82
93 95 82
93 95 82
92 94 81
92 94 80
91 93 80
90 92 79
89 91 78
88 90 78
87 90 77
85 89 76
84 87 75
83 86 74
81 86 74
80 84 72
78 83 72
77 82 71
75 80 69
73 79 68
71 77 67
70 76 66
68 75 65
66 73 63
64 72 63
62 71 62
20 44 41
20 44 40
20 44 41
20 44 41
20 44 41
20 44 41
20 45 42
20 44 40
21 46 42
20 45 42
20 44 40
21 46 42
20 44 40
20 44 40
20 45 41
20 44 40
20 45 41
19 42 39
20 45 41
20 45 41
21 45 42
20 44 41
20 44 40
21 45 42
21 45 41
21 44 41
21 44 40
21 44 41
21 45 41
21 44 41
22 45 41
23 47 43
23 46 42
22 45 41
22 43 40
24 46 43
24 46 42
25 47 43
25 46 42
26 47 43
26 46 42
27 48 43
28 47 43
29 49 45
30 50 45
31 49 45
33 52 47
33 50 45
35 51 46
36 53 48
37 53 47
39 55 49
41 55 49
42 57 50
44 57 50
46 59 52
47 60 53
49 61 54
51 62 55
53 64 56
54 64 56
57 66 58
59 67 59
61 70 61
63 71 62
64 72 63
66 74 64
68 75 66
70 76 66
72 78 68
74 79 69
76 81 70
78 83 71
80 84 72
82 85 73
83 87 75
85 88 76
86 90 77
88 91 78
89 92 79
91 93 80
92 94 81
93 95 82
94 96 83
95 96 83
96 98 84
97 98 84
97 99 85
98 98 84
98 99 85
99 99 85
99 99 85
99 100 85
99 100 86
99 99 85
98 99 85
98 99 85
97 99 85
97 98 84
96 98 84
95 97 83
95 97 83
93 95 82
92 94 81
91 93 80
90 93 80
89 91 78
87 90 78
86 89 77
84 88 76
82 86 74
80 84 73
79 83 72
77 82 71
75 80 69
74 79 69
72 78 68
70 77 67
68 75 66
66 73 64
20 45 41
20 46 42
20 44 41
20 44 40
20 45 41
20 45 41
20 45 41
19 43 39
20 44 41
20 45 41
20 43 40
20 44 40
20 45 42
20 45 41
20 45 41
20 45 41
20 44 41
20 44 40
20 45 41
20 45 41
20 45 41
20 43 40
21 45 42
21 46 43
20 44 40
21 44 41
21 46 42
21 45 42
21 44 40
22 45 41
22 44 41
22 45 41
23 46 42
23 45 41
23 46 42
24 47 43
25 48 44
25 46 42
26 46 42
27 48 44
28 48 44
28 49 44
29 49 44
30 48 44
32 51 46
33 50 45
34 52 46
35 53 47
36 52 47
38 53 48
39 53 48
41 55 49
43 57 51
45 58 52
46 58 52
48 60 53
50 61 54
52 63 55
54 65 57
56 66 58
58 67 59
59 68 59
62 70 61
64 71 62
66 73 63
68 74 64
70 76 66
72 77 67
74 79 68
76 82 71
78 83 72
80 84 73
82 85 73
83 87 75
85 88 76
87 90 78
89 92 79
90 93 80
92 94 81
94 96 82
95 97 83
96 98 84
98 99 84
99 100 86
100 100 86
101 101 87
101 101 86
102 102 88
103 104 89
103 104 89
103 104 89
103 103 88
104 104 89
104 104 89
104 104 89
103 104 89
103 103 88
103 103 88
102 102 87
101 101 87
100 101 87
99 100 86
98 100 86
97 98 84
96 97 83
94 96 82
93 95 82
92 94 80
90 92 79
88 91 78
87 90 77
85 88 76
83 87 75
81 85 73
79 83 72
77 82 71
75 80 70
74 80 69
71 77 67
69 76 66
20 44 40
19 43 39
20 45 41
20 44 41
19 43 40
20 45 41
20 45 41
21 46 42
21 46 43
20 44 41
19 43 40
20 45 42
20 44 41
20 45 41
20 45 41
20 45 41
20 45 41
20 45 41
20 44 41
20 45 41
20 44 40
20 44 41
20 44 40
21 45 41
21 44 40
21 44 40
21 44 41
21 45 42
22 46 42
23 47 43
22 45 41
23 45 42
23 45 41
24 47 43
24 46 42
24 44 41
25 47 43
26 47 43
27 48 44
27 48 43
28 47 43
29 48 43
30 49 45
32 51 46
33 50 45
34 51 46
35 52 47
37 54 49
38 55 49
39 54 48
41 55 49
43 56 50
45 58 52
46 59 52
48 59 52
50 62 54
52 63 55
54 65 57
56 66 57
58 68 59
60 69 60
62 70 61
65 72 63
67 75 65
69 75 66
71 78 67
73 79 68
75 81 70
77 82 71
79 83 72
82 86 75
84 87 75
86 89 76
88 90 78
90 93 80
91 94 80
93 95 81
95 96 83
97 98 84
98 99 84
100 100 86
101 101 86
102 102 87
103 103 88
104 104 89
105 106 90
106 106 91
107 107 91
108 107 92
108 108 92
108 108 92
109 109 93
109 108 93
109 108 92
108 108 92
108 108 92
108 108 92
107 108 92
107 107 91
106 105 90
105 105 89
104 104 89
103 103 88
102 102 87
100 101 87
99 99 85
98 99 85
96 98 84
94 96 82
93 94 81
91 94 80
89 92 79
87 90 78
85 89 76
83 87 75
81 85 73
79 84 73
77 82 71
75 80 69
73 79 68
20 44 41
20 44 41
20 44 41
20 44 41
20 44 40
20 44 40
20 44 41
20 44 40
20 45 41
20 44 40
20 44 40
20 44 40
20 44 41
20 44 40
20 45 42
21 46 43
20 45 41
20 44 40
20 44 41
21 45 41
20 44 40
21 45 41
21 46 42
21 45 41
21 44 41
21 45 41
22 46 43
21 44 40
22 46 42
22 45 42
22 44 40
23 46 42
24 47 43
24 47 43
24 46 42
25 47 43
25 46 42
27 47 43
27 47 43
29 49 45
29 47 42
31 50 45
31 49 44
33 51 46
34 51 46
35 52 47
37 54 48
38 54 48
40 54 49
41 56 50
43 57 51
45 57 51
47 59 52
48 60 53
51 62 55
53 64 56
55 65 57
57 66 58
59 68 60
61 69 60
63 71 62
65 72 63
68 75 65
70 76 66
72 78 67
75 80 70
77 81 70
79 83 71
81 85 74
83 87 75
85 88 76
88 90 78
90 93 80
92 94 81
94 96 82
96 97 83
97 98 84
99 100 86
101 102 87
102 103 88
104 104 89
105 105 90
107 106 91
108 107 91
109 108 92
110 109 93
111 110 94
112 111 95
112 111 95
113 112 95
113 112 95
113 112 95
113 112 96
113 112 96
113 112 95
113 112 96
113 112 95
112 111 95
111 110 94
110 110 94
110 109 93
109 109 93
107 107 91
106 106 91
105 105 90
103 103 88
102 103 88
100 102 87
98 99 85
97 98 84
95 97 83
93 96 82
91 93 80
89 92 79
87 90 78
85 88 76
83 87 75
81 85 74
79 83 72
76 81 70
20 44 40
20 45 42
20 44 41
20 45 41
20 44 41
20 44 41
20 44 41
20 45 41
20 44 40
20 45 42
20 44 40
20 44 40
20 44 41
20 43 40
19 43 40
20 44 40
20 45 41
21 46 42
20 45 41
20 44 41
21 45 41
20 44 40
21 44 41
20 43 40
21 44 41
22 47 43
22 46 42
22 45 41
22 45 41
23 46 42
23 45 41
24 47 43
25 47 43
24 45 41
25 47 43
26 47 43
27 48 44
28 48 44
28 49 44
29 49 44
30 48 44
31 49 45
33 51 46
34 52 47
35 52 47
37 54 48
38 54 48
40 55 49
41 55 49
43 56 50
45 58 52
47 60 53
49 61 54
51 63 55
53 64 56
55 65 57
57 66 58
59 68 59
62 71 62
64 71 62
66 73 63
68 75 65
71 77 67
73 78 68
76 81 70
78 83 72
80 84 72
83 87 75
85 88 75
87 90 78
89 92 79
91 94 80
94 96 82
95 97 83
98 99 85
100 100 86
102 102 87
103 103 88
105 105 90
107 107 91
108 108 92
110 109 93
111 111 95
113 112 96
113 111 95
114 113 97
115 114 97
116 115 98
117 115 98
117 115 98
118 116 99
118 117 99
118 116 99
118 116 99
118 116 99
118 116 99
117 115 98
117 115 98
116 115 98
115 114 97
114 112 96
113 111 95
112 111 94
111 110 94
109 109 93
108 107 91
106 106 90
105 104 89
103 104 89
101 102 88
99 101 86
97 98 84
95 97 83
93 94 81
91 93 80
89 92 79
87 89 77
84 87 75
82 87 75
80 84 72
20 44 40
20 44 40
20 44 40
20 44 40
20 44 40
21 46 42
20 44 41
20 44 41
20 44 41
20 43 40
20 44 40
19 43 39
20 44 41
19 42 39
22 47 44
20 44 41
20 45 41
20 45 41
20 44 41
21 46 42
21 45 41
21 45 42
20 43 40
21 44 40
21 45 41
22 45 41
22 44 41
22 44 40
23 46 42
23 45 41
23 45 41
24 47 43
25 46 42
25 47 42
26 49 44
26 47 42
27 48 44
29 50 45
29 47 43
31 50 45
32 50 45
33 51 46
34 52 46
35 53 47
37 53 47
38 53 48
40 54 49
42 56 50
43 56 50
45 58 51
47 60 53
49 61 54
51 62 55
53 63 55
55 65 57
57 67 59
59 68 59
62 70 61
64 71 62
66 74 64
69 76 66
71 78 68
74 79 69
76 80 69
79 83 72
81 85 74
83 87 75
86 88 76
88 91 79
90 92 79
93 95 82
95 97 83
98 98 84
99 100 86
102 102 87
104 104 89
106 106 90
108 107 92
109 109 93
111 110 94
113 112 96
114 113 96
116 114 97
117 115 98
118 117 99
119 117 100
120 118 100
121 118 101
121 119 101
122 120 102
122 120 102
123 120 102
123 120 102
123 121 103
123 120 102
122 120 102
122 120 102
121 119 101
121 119 101
120 118 100
119 116 99
118 116 99
117 115 98
115 114 97
114 113 96
113 111 95
111 110 94
109 108 93
107 107 91
106 106 91
103 104 89
101 102 87
99 100 86
97 99 85
95 96 83
93 95 81
91 93 80
88 91 78
86 89 77
84 87 75
20 45 41
20 45 41
19 43 40
20 45 41
20 44 41
20 45 41
20 44 40
20 44 41
20 45 41
19 43 40
21 45 42
21 45 42
20 44 41
20 45 41
20 45 41
21 45 42
20 44 41
20 43 40
21 46 42
21 44 41
21 45 41
21 45 41
21 44 41
21 45 41
22 45 41
21 44 41
22 45 42
23 46 42
22 44 41
24 46 42
24 45 42
24 46 42
26 49 45
26 47 43
26 47 43
27 48 44
28 47 43
29 49 44
30 49 44
31 49 44
32 50 45
34 52 47
35 52 47
37 53 47
38 54 48
40 55 49
41 55 49
43 57 50
45 58 51
47 59 52
49 60 53
51 61 54
53 64 56
55 65 57
57 67 58
60 69 60
62 71 62
64 72 62
67 75 65
69 75 65
71 76 66
74 80 69
77 81 70
79 84 72
82 86 74
84 88 75
87 90 77
89 92 79
92 94 81
94 96 82
97 98 84
99 100 85
101 102 87
104 104 89
106 105 90
108 108 92
110 109 93
112 111 94
114 112 96
116 114 97
117 116 99
119 117 100
120 118 100
121 119 102
122 120 102
123 120 102
125 123 104
125 123 105
126 124 105
127 124 105
127 125 106
127 125 106
127 124 105
127 124 106
127 124 106
127 123 105
127 124 105
126 123 104
125 123 105
124 122 103
123 121 103
123 120 103
121 119 101
120 118 100
119 117 99
117 115 98
115 114 97
113 112 96
112 111 95
110 110 94
108 107 91
105 105 90
104 104 89
101 102 87
99 100 85
97 98 84
94 96 82
92 94 81
90 92 79
87 90 78
20 44 40
20 45 41
20 44 40
20 45 41
20 44 40
20 45 42
20 44 41
20 43 40
19 43 40
20 44 41
20 44 40
20 44 40
20 43 40
21 45 42
20 44 41
20 44 41
20 45 41
20 44 41
21 46 42
21 45 42
21 45 41
21 44 40
21 44 41
21 44 40
22 45 42
22 45 41
23 46 42
23 46 42
24 47 43
23 45 41
24 45 41
25 46 42
26 48 44
26 47 42
27 47 43
28 48 44
29 48 44
30 50 45
31 50 45
32 50 45
34 51 46
35 51 46
36 52 47
38 53 47
40 55 50
41 55 49
43 56 50
45 59 53
47 60 53
49 61 54
51 61 54
53 63 56
55 65 57
57 66 58
60 68 59
62 70 61
65 73 63
67 74 65
69 75 65
72 78 67
74 79 68
77 82 71
80 84 72
82 86 74
85 88 76
88 91 79
90 93 79
93 95 81
95 97 83
98 99 85
100 101 86
103 103 88
105 105 90
107 107 91
110 110 94
112 111 94
114 113 96
116 114 97
118 115 98
120 117 100
121 119 101
123 120 102
124 122 104
126 123 105
127 124 105
128 125 106
129 126 107
130 126 107
131 127 108
131 128 109
131 128 108
132 128 109
132 128 109
132 128 109
132 128 108
131 127 108
131 127 108
130 127 108
130 126 107
129 126 107
128 124 106
127 124 105
126 123 105
124 122 103
123 120 102
121 119 101
120 118 100
118 116 99
116 114 97
114 113 97
112 110 94
110 109 93
107 107 92
105 104 89
103 103 88
100 101 87
98 99 85
96 98 84
93 95 81
91 93 80
20 45 41
20 43 40
20 44 41
20 45 42
19 43 40
19 43 39
20 44 40
20 45 41
20 44 41
20 44 40
20 45 41
20 44 41
20 44 41
20 43 40
21 47 43
20 44 41
21 45 42
21 45 41
21 45 42
20 44 40
21 45 42
21 45 41
21 44 41
22 45 41
22 45 41
22 44 40
23 46 42
23 46 42
24 46 42
24 46 42
25 46 42
26 48 44
26 47 43
27 47 43
28 48 43
29 49 44
30 49 44
31 50 45
32 50 45
34 53 48
35 52 47
36 53 48
38 54 48
39 54 48
41 56 50
43 58 51
45 57 51
47 59 52
49 60 53
51 62 54
53 63 56
55 65 57
57 66 57
59 68 59
62 70 61
65 73 63
67 74 64
70 76 66
72 78 67
75 79 69
77 82 71
80 84 73
83 86 74
86 89 77
88 90 78
91 93 80
93 95 81
96 97 83
99 100 86
101 102 87
104 104 89
107 107 91
109 108 92
111 110 94
114 112 96
116 114 97
118 117 99
120 119 101
122 120 102
124 122 103
125 122 104
127 124 105
129 126 107
130 126 107
131 128 109
132 129 109
133 130 110
134 130 111
135 131 111
136 131 111
136 132 112
136 132 112
136 132 112
136 133 113
136 132 113
136 131 111
135 131 111
135 130 111
134 131 111
133 130 110
132 129 109
131 128 109
130 127 108
128 125 106
127 124 106
125 122 104
124 121 103
122 119 102
120 117 100
118 116 99
116 114 97
114 112 95
111 110 94
109 108 93
107 107 91
104 104 89
102 102 87
99 100 86
97 98 84
94 96 82
