P3
120 80
255
18 41 39
18 40 37
18 40 37
18 40 38
18 41 39
18 40 38
18 40 38
18 40 38
18 40 37
18 40 37
18 42 39
18 40 37
18 41 38
18 41 38
18 41 39
18 41 38
18 41 38
18 41 39
18 41 38
18 40 37
18 41 38
18 41 38
18 41 38
18 41 38
18 40 38
18 41 38
18 41 38
18 40 37
18 42 39
18 41 39
18 41 38
19 42 39
18 41 38
18 42 39
18 42 39
18 41 39
18 41 38
18 42 39
18 42 39
19 42 39
19 42 39
18 41 38
18 41 38
18 41 38
19 42 39
19 43 40
19 42 39
18 41 38
18 41 38
18 41 39
18 41 39
18 42 39
18 41 38
19 42 39
18 42 39
19 42 39
18 41 38
18 42 39
18 41 38
18 41 38
18 41 38
18 41 39
18 40 37
18 41 39
18 41 38
18 41 38
18 41 39
18 41 38
18 41 38
18 41 38
19 42 39
19 42 39
19 42 39
18 41 38
18 41 38
19 42 39
19 42 39
19 42 39
18 41 38
18 40 37
18 41 38
19 42 39
19 42 39
19 42 39
19 42 39
19 42 39
18 42 39
18 42 39
18 42 39
18 41 38
18 41 39
18 41 38
18 41 39
19 42 40
19 42 39
18 41 38
18 41 38
19 42 40
19 43 40
19 42 39
19 43 40
19 42 39
19 42 39
18 41 38
19 42 39
18 42 39
18 41 38
19 42 39
19 42 39
19 42 39
18 41 38
18 41 38
18 41 39
19 42 39
19 42 39
18 41 38
18 41 38
18 42 39
18 42 39
18 42 39
18 40 38
18 41 38
18 41 38
18 41 39
18 40 38
18 40 38
18 40 37
18 41 38
18 41 38
18 42 39
18 40 37
18 42 39
18 41 39
18 40 38
18 41 39
18 40 38
18 40 38
18 41 39
18 40 38
18 41 39
18 41 38
18 41 38
18 40 37
18 41 38
18 40 38
18 42 39
18 41 38
18 41 38
18 40 38
18 41 38
18 41 38
18 41 38
18 41 38
18 41 38
18 40 38
19 42 39
18 41 38
18 41 39
18 41 38
18 42 39
18 41 38
18 42 39
19 42 39
19 42 39
18 42 39
19 42 39
18 41 38
18 41 38
18 41 39
18 41 38
18 42 39
19 42 39
18 41 38
18 42 39
18 41 38
19 42 39
18 41 38
18 41 38
19 42 39
18 42 39
19 42 39
18 42 39
18 41 39
18 41 39
18 41 38
19 42 39
18 41 38
19 42 39
19 42 39
19 42 39
19 42 39
18 41 39
18 41 38
19 42 39
18 42 39
19 42 39
18 41 38
18 41 38
19 42 39
18 42 39
19 42 39
19 42 39
19 42 39
19 42 39
19 43 40
19 42 39
19 43 40
19 42 39
19 42 39
18 41 38
18 41 39
19 42 39
19 42 39
19 43 40
19 43 40
19 42 39
19 42 39
19 43 40
18 41 39
19 42 39
18 41 38
18 42 39
19 42 39
19 42 39
19 43 40
19 42 39
19 43 40
19 42 39
19 43 40
19 42 39
19 43 39
19 42 39
19 42 39
19 43 40
19 43 40
19 42 39
19 43 40
19 42 39
19 42 39
19 42 39
18 41 38
18 41 38
18 41 38
18 41 38
18 42 39
19 42 39
18 41 38
18 41 38
18 40 37
18 41 38
19 42 39
18 40 38
19 42 39
18 41 39
18 41 38
18 41 39
18 41 38
18 41 38
18 40 38
18 42 39
18 42 39
18 41 39
18 41 38
19 42 39
18 41 38
19 43 40
18 41 39
18 41 38
18 41 38
18 41 39
18 41 38
18 41 38
19 43 40
18 41 39
19 42 39
18 41 38
18 41 39
18 42 39
18 41 38
18 41 38
18 41 38
19 42 39
18 41 39
18 41 39
18 42 39
19 43 40
19 42 39
18 42 39
19 43 40
19 42 39
19 42 39
18 42 39
19 42 39
18 41 38
18 41 38
19 42 39
19 42 39
19 43 40
19 43 40
19 43 40
19 42 39
19 42 39
18 41 38
19 42 39
19 42 39
18 41 38
19 43 40
19 42 39
19 43 40
19 43 40
19 43 40
18 42 39
19 42 39
19 44 40
19 42 39
19 42 39
19 42 39
19 43 40
19 42 39
19 42 39
19 43 40
19 42 39
19 42 39
18 41 38
19 44 41
19 42 39
19 43 40
19 42 39
19 43 39
19 43 40
19 43 40
19 43 39
19 43 40
19 42 39
19 43 40
19 44 41
19 43 40
19 44 40
18 41 39
19 44 40
19 42 39
19 42 39
19 42 39
19 43 40
19 43 40
19 42 39
19 43 39
19 43 40
19 43 40
19 42 39
19 42 39
19 42 39
19 43 40
19 42 39
19 42 39
19 43 40
19 42 39
19 42 39
19 43 40
19 43 40
18 41 39
19 42 39
18 41 38
18 41 39
18 40 37
18 42 39
18 41 39
18 41 39
19 42 39
18 40 38
18 42 39
18 41 39
18 40 37
19 42 39
18 41 38
18 41 38
19 42 39
18 41 38
19 42 39
19 42 39
18 41 38
18 41 39
18 42 39
18 42 39
19 42 39
19 42 39
18 41 38
18 42 39
19 42 39
18 41 38
18 41 38
18 42 39
19 42 39
19 42 39
18 40 37
19 42 39
19 42 39
19 42 39
19 42 39
18 42 39
19 43 40
19 42 39
18 41 38
19 42 39
19 42 39
19 43 40
19 42 39
19 42 39
19 43 40
19 42 39
19 42 39
19 42 39
19 43 40
18 41 38
19 42 39
19 43 40
18 41 38
18 41 38
19 42 39
19 43 40
19 43 40
19 43 40
19 43 39
19 43 40
19 44 41
19 43 40
19 43 40
19 42 39
19 42 39
19 43 40
19 44 40
19 42 39
19 42 39
19 42 39
19 42 39
19 43 39
19 43 40
19 42 39
19 43 40
19 43 40
19 43 40
19 43 40
19 42 39
19 42 39
19 43 40
18 41 38
19 42 39
19 42 39
19 43 40
19 42 39
19 43 40
19 42 39
19 42 39
19 43 40
19 42 39
19 42 39
19 42 39
19 43 39
19 42 39
19 42 39
19 43 39
19 42 39
19 43 40
19 43 40
19 43 40
19 42 39
19 42 39
19 44 40
19 43 40
19 42 38
19 43 40
19 42 39
20 44 41
19 42 39
19 43 40
19 43 40
19 42 39
19 43 40
19 43 40
19 42 39
18 41 38
18 41 38
19 42 39
19 42 39
18 41 39
19 42 39
19 42 39
18 41 39
19 42 39
19 42 39
18 41 38
18 41 38
19 43 40
18 41 39
18 41 38
19 42 39
18 42 39
19 42 39
18 42 39
18 42 39
18 41 38
18 41 38
18 41 38
18 41 38
19 43 40
18 42 39
18 42 39
18 41 38
18 41 38
19 43 40
19 42 39
18 42 39
19 42 39
19 43 40
19 42 39
18 42 39
18 41 38
18 42 39
19 42 39
19 42 39
19 43 40
19 43 40
19 43 40
19 42 39
19 42 39
19 42 39
19 43 39
19 42 39
19 44 40
19 42 39
19 43 40
19 43 40
18 42 39
19 42 39
19 42 39
19 43 39
19 43 39
18 41 38
19 42 39
19 42 39
19 43 40
19 43 40
19 43 39
19 42 39
19 42 39
19 42 39
19 42 39
19 42 39
19 43 40
19 43 40
19 42 39
19 42 39
19 43 40
19 42 39
19 42 39
19 43 40
19 43 40
19 43 40
19 43 40
19 43 40
19 42 39
19 43 39
19 44 40
19 44 40
19 43 40
19 42 39
19 43 40
20 44 41
19 43 40
19 43 40
20 44 41
19 43 40
19 43 40
19 44 40
19 43 40
19 42 39
20 44 41
19 43 39
19 43 40
19 43 40
19 43 40
19 43 39
19 43 40
19 43 40
19 43 39
19 44 40
19 42 39
19 42 39
19 42 39
20 44 41
19 43 40
19 42 39
20 44 40
19 43 40
20 44 41
19 43 40
19 43 40
20 44 41
19 43 40
19 43 40
18 41 38
19 42 40
18 41 38
19 42 39
19 42 39
19 42 39
19 42 39
18 41 38
18 40 37
18 40 38
18 41 38
19 43 40
18 42 39
18 41 38
18 41 38
18 41 38
19 42 39
19 43 40
18 42 38
18 42 39
18 42 39
19 42 39
19 42 39
19 42 39
19 42 39
19 42 39
19 42 39
19 43 40
19 42 39
19 42 39
19 42 39
18 42 39
19 42 39
19 42 39
19 42 39
18 41 38
19 42 39
19 42 39
19 43 40
18 41 38
19 43 40
18 42 39
19 42 39
19 42 39
19 43 40
19 42 39
19 43 39
19 43 39
19 43 40
19 43 40
19 43 40
19 42 39
20 44 41
19 43 40
19 43 40
19 42 39
19 43 40
19 42 39
19 43 40
19 43 39
19 42 39
20 44 41
19 43 40
19 43 40
19 43 40
19 42 39
19 43 40
19 42 39
20 44 41
19 43 40
19 43 40
19 42 39
19 43 40
19 43 40
20 44 40
20 44 41
19 43 40
19 43 40
19 43 40
20 44 41
19 43 40
19 44 40
19 43 40
19 43 40
19 43 40
19 43 40
19 43 40
20 44 41
19 43 39
19 43 39
19 43 40
19 42 39
19 43 40
19 43 40
19 43 40
19 42 39
19 43 39
19 43 40
19 43 40
19 43 40
19 44 40
19 43 40
20 44 41
20 44 41
19 43 40
19 42 39
19 43 40
20 44 41
19 43 40
19 43 40
19 43 40
20 44 40
20 44 40
20 44 41
19 43 40
19 43 40
20 44 41
19 43 40
19 44 40
19 43 40
18 41 38
18 42 39
19 42 39
18 41 38
18 41 39
19 42 39
18 42 39
19 42 39
19 42 40
19 43 39
19 42 39
19 42 39
18 41 39
19 42 39
19 42 39
19 42 39
19 42 39
19 42 39
19 42 39
18 41 38
19 43 40
19 42 39
19 43 40
19 42 39
19 42 39
19 42 39
19 43 40
18 42 39
19 42 39
19 42 39
19 42 39
19 42 39
19 42 39
18 42 39
19 42 39
19 42 39
19 43 39
19 43 40
18 41 38
19 43 39
19 43 40
19 42 39
19 43 40
19 42 39
19 42 39
19 43 40
19 43 40
19 42 39
19 42 39
19 42 39
19 42 39
19 42 39
19 43 40
19 43 40
18 41 38
19 43 40
19 42 39
20 44 41
19 43 40
19 43 40
19 43 40
19 42 39
19 44 40
19 43 40
19 43 40
19 43 39
19 43 40
20 44 41
19 42 39
19 43 40
20 44 41
19 43 40
19 43 40
20 45 41
19 43 40
20 44 40
19 43 40
19 43 40
19 43 40
19 43 40
19 44 40
19 43 39
19 43 40
19 43 40
19 43 40
19 43 40
20 44 40
19 43 39
19 43 40
19 43 40
20 44 41
19 43 40
19 43 40
19 43 40
19 43 40
20 44 40
20 44 41
20 44 41
19 43 40
19 43 39
20 44 40
20 44 41
20 44 41
19 43 40
20 44 41
20 45 41
19 43 40
19 43 40
20 45 41
19 43 39
19 43 40
20 44 40
20 44 40
19 43 40
19 43 40
19 43 40
20 44 41
19 43 39
20 44 40
20 45 41
18 41 38
18 40 38
18 41 38
18 41 38
19 42 39
19 42 39
19 42 39
19 42 39
19 42 39
18 41 38
19 43 40
18 42 39
19 42 39
19 42 39
19 42 39
19 42 39
18 41 38
19 43 40
19 43 39
19 42 39
19 42 39
19 43 39
19 42 39
19 42 39
19 42 39
19 42 39
19 42 39
19 42 39
19 43 40
19 42 39
19 43 40
19 42 39
19 43 40
19 43 40
19 42 39
19 42 39
19 43 40
19 43 40
19 43 40
19 42 39
19 42 39
19 43 40
19 42 39
19 42 39
19 43 40
19 42 39
20 44 40
19 42 39
19 43 39
19 42 39
19 43 40
19 43 40
19 43 40
20 44 41
19 43 39
19 43 39
19 43 40
19 42 39
19 43 39
20 44 40
19 43 40
20 44 40
19 42 39
20 44 41
19 43 40
20 44 41
19 42 39
19 43 40
19 43 40
19 43 40
20 44 40
20 44 41
19 43 40
19 43 40
19 43 40
20 44 41
20 44 41
20 44 41
20 44 41
20 44 40
20 44 40
20 44 41
20 44 40
19 42 39
19 43 40
19 43 40
20 44 40
20 44 40
20 45 41
19 43 40
20 44 40
19 43 40
20 44 41
19 43 39
20 44 40
20 45 41
20 44 41
20 44 41
20 44 41
19 43 39
19 44 40
20 44 40
19 43 40
20 44 41
20 44 40
20 44 40
19 43 40
20 45 41
20 44 40
20 44 41
19 43 39
20 45 41
20 44 40
20 44 41
19 43 40
19 43 40
20 44 41
20 44 40
20 44 40
20 44 40
19 42 39
18 42 39
19 43 39
19 43 40
19 43 40
18 41 38
19 42 39
19 42 39
19 43 40
19 43 40
19 42 39
19 42 39
19 42 39
18 41 38
19 43 40
18 41 38
19 42 39
19 42 39
19 42 39
19 43 40
19 42 39
19 42 39
19 43 40
19 43 40
18 42 39
19 42 39
19 43 39
19 42 39
19 43 40
19 42 39
19 42 39
19 44 40
19 43 40
19 42 39
20 44 41
19 42 39
19 44 41
19 42 39
19 43 40
19 43 40
19 43 40
19 43 40
19 43 40
19 43 40
19 43 40
19 43 39
19 42 39
19 43 40
20 44 41
19 44 40
19 43 40
19 42 39
20 44 40
20 44 40
19 42 39
19 43 40
19 43 40
20 44 40
20 44 40
19 43 40
19 43 40
19 43 39
19 43 40
19 43 40
20 45 41
20 44 41
20 45 42
19 44 40
20 44 40
19 43 40
20 44 40
20 45 41
19 43 40
20 45 41
20 44 40
20 44 40
20 45 41
20 44 41
20 44 41
19 43 39
20 45 41
20 44 41
20 44 41
20 44 41
20 44 41
19 43 40
20 44 40
20 44 40
20 43 40
20 45 42
19 44 40
20 44 40
20 44 40
20 45 42
20 44 41
20 44 41
20 44 41
19 43 40
20 45 41
20 44 41
20 44 41
20 44 40
20 45 41
20 45 42
20 44 40
20 45 42
20 44 40
20 45 41
20 45 41
20 44 41
20 44 40
20 44 41
20 45 41
20 45 41
20 44 40
20 44 40
20 45 41
20 45 42
20 44 40
20 45 41
19 42 39
19 42 39
19 42 39
19 42 39
18 41 38
19 43 40
19 42 39
19 43 40
19 42 39
18 41 38
19 42 39
19 42 39
19 43 40
19 42 39
19 43 40
19 44 40
20 44 41
19 43 40
19 43 40
19 43 40
19 43 40
19 42 39
19 43 39
19 42 39
19 42 39
19 43 40
19 43 39
20 44 40
19 43 40
19 43 40
19 43 40
19 43 40
19 43 40
19 42 39
19 43 40
19 43 40
19 43 40
19 43 39
19 43 40
20 44 41
19 43 40
19 43 40
19 42 39
20 44 40
20 44 41
19 43 40
20 45 41
20 44 41
19 43 40
19 43 40
20 44 41
19 43 40
19 43 39
19 43 40
20 44 40
20 44 41
20 44 40
20 44 40
20 44 41
19 43 40
20 44 41
19 43 40
19 43 40
20 44 40
19 43 40
20 44 40
19 43 40
19 43 40
20 45 41
20 44 40
20 45 42
20 44 41
20 44 40
19 43 40
19 43 40
20 44 41
19 43 39
20 45 41
20 44 40
20 44 41
20 44 41
20 45 41
20 44 41
20 44 41
20 44 41
21 46 42
20 44 41
19 43 40
20 45 42
20 45 42
20 44 41
20 45 42
20 44 40
20 45 42
20 44 40
20 44 40
19 43 40
20 45 41
20 44 41
20 44 41
20 45 41
20 45 41
20 45 41
20 45 41
20 45 41
20 44 40
21 46 42
20 45 41
21 46 42
20 45 41
20 45 41
20 45 42
20 45 42
20 44 41
20 44 41
20 45 41
20 45 41
20 45 42
20 44 40
20 44 41
18 41 38
19 42 39
19 42 39
19 42 39
19 43 40
19 42 39
19 43 40
19 42 39
19 43 40
19 42 39
18 41 38
19 43 40
19 43 40
19 42 39
19 42 39
19 42 39
19 43 40
19 42 39
19 42 39
19 43 40
19 43 40
19 43 39
19 43 40
19 43 39
20 44 40
19 43 39
18 41 38
19 42 39
19 42 39
20 44 40
19 43 40
20 44 41
19 43 40
19 42 39
19 43 40
19 43 40
19 43 40
19 42 39
20 44 41
19 42 39
19 43 39
19 43 40
19 42 39
19 43 40
20 44 40
20 44 41
19 42 39
20 44 41
19 43 40
19 43 40
20 45 41
19 43 40
19 43 40
20 44 40
20 45 41
19 43 40
20 44 40
20 44 40
20 44 41
20 45 41
20 44 41
19 43 40
20 44 41
20 44 40
20 44 41
20 44 41
20 44 41
20 44 41
20 45 41
20 44 41
20 44 41
20 44 41
19 43 40
20 44 41
19 43 40
20 44 40
20 44 40
19 43 40
20 44 41
19 43 40
20 45 41
20 44 41
20 44 40
19 43 40
19 43 40
21 46 42
20 44 41
20 45 41
20 44 40
20 44 41
21 46 42
20 45 41
20 45 41
20 44 40
21 46 42
20 45 41
20 44 40
20 44 41
21 46 42
20 45 41
20 44 40
20 44 41
20 45 41
20 44 40
20 45 42
21 46 42
20 45 41
20 45 41
20 45 41
21 46 42
20 45 42
20 45 41
20 45 41
20 45 41
21 46 42
20 45 41
20 45 42
20 45 41
21 45 42
20 45 41
19 42 39
19 43 40
19 42 39
19 42 39
19 42 39
19 43 40
19 44 40
19 42 39
19 43 40
19 42 39
19 43 40
19 43 39
19 42 39
19 43 40
19 43 40
19 43 39
19 42 39
20 44 41
19 43 40
19 43 40
19 43 40
19 43 40
19 43 40
19 42 39
19 43 40
19 43 40
19 43 40
20 44 40
20 44 41
19 42 39
19 43 40
19 43 39
19 42 39
19 43 39
19 42 39
20 44 41
19 43 39
20 44 40
19 43 40
20 44 41
19 43 40
19 43 40
20 44 41
20 44 40
20 44 40
19 43 39
20 44 41
20 44 41
19 43 40
19 43 40
19 43 40
20 44 41
20 44 41
19 43 40
20 46 42
20 43 40
20 44 40
20 44 40
20 44 41
20 44 41
20 44 41
19 43 40
20 45 41
20 45 42
20 44 41
20 44 41
20 44 40
20 44 41
20 44 40
20 45 41
19 43 40
20 45 41
20 45 42
20 44 41
20 44 41
20 45 42
20 45 41
20 43 40
20 44 40
20 44 41
20 44 41
20 45 42
20 45 41
20 44 40
20 44 41
20 45 41
20 44 41
20 45 42
20 45 41
20 45 41
20 44 41
20 45 42
20 45 41
20 45 41
21 46 42
20 45 41
20 44 41
20 44 41
20 44 41
20 45 41
20 45 41
20 45 42
20 45 41
21 46 42
21 46 42
21 46 42
20 45 41
21 46 42
20 45 41
20 45 42
20 45 42
21 46 42
20 45 41
20 45 41
21 46 42
20 45 41
20 45 41
20 45 42
20 45 41
20 45 41
19 43 40
19 43 39
19 42 39
19 42 39
19 43 39
19 43 39
20 44 41
19 43 40
19 42 39
19 43 39
19 43 39
19 43 40
19 43 40
19 43 39
19 42 39
20 44 41
19 43 40
19 42 39
19 43 40
19 43 39
19 43 40
20 44 41
19 43 39
19 43 40
20 44 41
20 44 40
19 43 39
19 43 40
19 43 40
19 42 39
19 43 40
20 45 41
20 44 41
19 43 40
19 43 40
19 43 40
20 44 41
20 44 41
19 43 40
19 43 40
20 44 40
20 44 40
20 44 40
19 43 40
19 43 39
20 44 41
19 43 40
19 43 40
20 44 40
20 44 41
20 45 41
19 43 40
20 44 41
20 44 40
20 44 40
20 45 41
20 44 41
20 44 40
19 43 40
20 45 42
20 44 41
20 44 40
20 43 40
20 45 41
20 44 40
20 45 42
20 45 41
20 45 41
20 44 40
20 45 41
20 44 41
20 44 41
21 46 42
20 45 41
20 45 41
20 45 42
20 45 41
20 45 41
20 44 40
20 45 41
20 45 41
20 44 40
20 44 41
20 44 41
20 45 41
20 45 41
20 44 41
20 44 41
20 45 41
20 45 41
20 45 41
20 45 41
20 45 41
20 44 41
20 45 41
21 46 42
20 45 41
20 44 41
20 45 41
20 44 41
21 46 42
21 46 42
20 44 41
21 46 43
20 45 41
20 45 41
21 46 42
21 47 43
20 45 41
21 46 42
21 46 42
20 45 42
20 45 41
21 47 43
20 45 41
21 46 42
20 44 41
21 45 42
20 45 41
20 45 41
19 43 39
19 43 40
19 42 39
19 43 40
19 43 40
19 43 40
19 43 40
19 43 39
19 43 40
19 42 39
19 42 39
19 42 39
19 43 40
19 43 40
19 43 40
19 42 39
19 43 40
20 44 40
19 43 40
20 44 41
20 44 41
19 43 40
20 44 40
20 44 41
20 44 40
19 43 40
19 43 40
19 43 40
19 42 39
19 44 40
20 44 40
19 43 40
19 43 40
19 43 40
20 44 41
19 43 40
19 43 40
20 44 40
20 44 41
20 44 40
20 44 41
20 44 41
20 45 41
20 44 40
20 44 41
19 43 40
20 44 41
20 44 41
20 44 40
20 44 40
20 44 40
20 45 41
20 44 41
20 44 41
20 44 41
20 45 41
20 44 41
20 44 41
20 45 41
20 45 41
20 44 41
20 45 42
20 44 41
20 45 41
20 44 41
19 43 40
20 45 42
20 45 41
20 44 41
20 44 41
19 43 40
21 46 42
20 45 41
20 45 42
21 46 42
20 45 41
20 45 42
20 45 42
20 45 42
20 45 42
21 46 42
21 46 42
20 44 40
21 46 42
20 45 42
20 45 41
20 44 41
21 46 42
20 45 41
20 45 41
20 45 42
20 45 41
21 46 42
20 45 41
20 44 41
20 45 41
21 46 42
21 46 42
21 46 42
21 45 42
21 46 42
21 46 42
21 46 42
21 47 43
20 45 41
21 47 43
21 46 42
21 46 42
21 46 42
21 46 43
21 46 42
21 46 42
21 46 42
20 45 41
21 46 42
21 47 43
20 45 42
21 46 42
21 46 42
20 45 41
19 42 39
19 43 40
19 43 40
19 43 40
20 45 41
19 43 40
19 43 40
19 43 39
19 42 39
19 43 40
19 43 40
20 44 40
20 44 40
20 44 40
20 44 40
19 42 39
19 44 40
19 44 40
20 44 41
19 43 40
19 43 39
20 44 41
19 43 40
20 44 41
20 45 41
19 43 40
19 43 40
19 43 40
19 42 39
20 44 40
19 43 40
20 45 41
20 44 41
19 43 40
20 44 40
20 44 40
20 44 40
20 44 41
20 44 40
20 45 41
20 45 41
20 44 41
20 44 40
20 44 41
20 44 41
20 44 40
20 44 40
20 44 40
19 43 39
20 44 40
20 45 41
20 45 41
20 45 42
20 45 41
20 45 41
20 44 41
20 45 41
20 45 41
20 44 41
20 45 41
20 44 40
20 45 41
20 44 40
20 44 41
21 46 42
21 46 42
20 45 41
20 45 41
20 45 41
20 45 41
20 45 42
21 46 42
20 45 41
20 45 41
20 45 41
21 46 42
20 45 41
20 44 41
20 45 41
21 46 42
20 45 41
21 46 42
20 45 42
20 45 41
21 46 42
20 45 41
20 45 41
20 45 41
21 46 42
20 45 41
21 45 42
21 46 42
21 47 42
21 46 42
21 46 42
21 46 42
21 47 43
20 45 41
21 46 42
20 45 41
21 46 43
21 46 42
20 45 41
21 46 42
21 47 43
21 46 42
20 45 41
21 46 42
21 47 42
21 46 42
21 46 42
21 45 42
21 46 42
20 44 40
21 47 43
21 47 43
21 46 42
21 46 42
21 46 42
21 46 42
19 43 40
19 43 40
19 42 39
19 43 40
19 43 40
20 44 41
19 42 39
19 43 40
20 44 40
20 45 41
19 43 40
19 43 40
20 44 41
20 44 40
19 42 39
19 43 39
19 43 39
19 42 39
20 44 41
20 44 40
20 44 41
20 45 41
19 43 40
19 43 40
19 44 40
20 44 41
19 43 40
19 43 40
20 44 41
20 44 41
19 43 40
20 44 41
19 43 39
20 44 41
20 45 41
19 43 39
20 45 41
20 44 40
20 44 40
20 44 40
20 44 41
19 43 40
20 44 40
20 45 41
20 44 41
20 45 41
20 44 41
20 44 40
20 44 40
20 44 41
20 46 42
20 45 41
20 45 41
20 44 41
20 44 41
20 45 41
20 45 41
20 44 40
20 44 40
20 45 41
20 44 40
20 44 41
20 45 42
20 45 41
20 45 41
20 45 41
20 44 40
20 45 41
20 45 42
20 45 41
20 44 41
20 45 41
20 45 41
20 45 41
21 46 42
20 45 42
20 45 41
20 45 41
20 45 41
21 45 42
20 45 41
21 46 42
21 45 42
21 46 42
21 46 42
20 45 41
21 46 42
21 47 43
20 45 41
21 45 42
21 46 42
21 46 42
21 46 42
21 45 42
21 46 42
21 46 42
21 47 43
20 45 41
20 45 42
20 45 41
21 46 42
21 46 42
21 46 42
21 46 42
21 45 42
20 45 41
21 46 42
21 46 42
21 46 42
21 47 43
21 47 43
21 46 42
21 46 42
21 46 42
21 46 42
21 47 43
21 46 42
21 47 43
20 45 41
21 46 42
20 44 40
19 43 40
19 43 40
19 43 39
20 44 41
19 43 40
19 43 39
19 43 40
19 44 40
19 43 40
20 44 40
19 43 40
19 42 39
20 45 41
20 44 41
19 43 40
20 44 40
19 43 40
19 43 40
19 44 40
19 44 40
20 44 41
19 43 40
20 44 41
19 43 40
19 43 39
19 43 40
20 44 41
20 45 42
19 43 40
20 44 40
20 45 41
20 44 40
20 44 41
20 45 41
20 44 41
20 44 41
20 44 40
20 45 41
20 44 41
20 44 41
19 43 40
20 44 40
20 44 40
20 44 40
20 45 41
20 45 41
20 44 40
20 44 41
20 45 41
20 44 41
20 44 40
21 46 42
21 46 42
20 44 40
20 45 41
20 44 40
20 45 41
21 46 42
20 45 42
20 45 42
20 45 41
20 45 41
20 44 41
20 45 41
20 45 41
21 46 42
21 46 42
21 46 42
20 44 40
20 45 41
20 45 42
20 45 41
21 46 42
20 45 42
20 45 41
20 45 42
21 46 42
20 45 42
21 47 43
21 46 42
20 45 41
21 46 42
21 47 43
21 47 43
20 45 41
21 46 42
20 45 41
21 46 42
21 47 43
21 46 42
20 45 41
21 46 42
21 47 43
21 47 43
21 46 42
21 46 42
21 46 42
22 48 43
21 46 42
21 47 43
21 46 42
21 46 42
21 47 43
21 45 41
21 46 42
21 47 43
21 47 43
21 47 43
21 47 43
20 45 41
21 47 43
21 46 42
21 47 43
21 47 43
21 47 43
21 46 42
22 48 44
21 46 42
21 47 43
20 44 41
19 43 39
20 44 40
19 43 40
19 43 40
19 43 40
19 43 40
19 44 40
19 43 40
19 43 40
20 44 40
19 44 40
20 44 40
20 44 41
19 43 40
20 44 40
19 43 40
19 43 40
19 43 39
19 43 40
19 43 40
20 44 41
19 43 40
19 43 40
20 44 40
20 44 40
20 44 41
19 43 40
20 44 40
19 43 40
20 44 40
20 44 41
20 44 40
20 45 41
19 43 40
20 44 40
20 45 41
20 44 40
20 44 41
20 44 41
20 45 41
20 44 41
20 45 41
20 44 41
20 44 41
20 44 40
20 44 40
20 45 42
20 44 41
21 46 42
20 45 42
20 45 41
20 45 41
20 44 40
20 45 41
21 46 42
20 45 41
20 45 41
21 46 42
20 45 41
20 44 41
20 44 40
21 47 43
21 46 42
20 45 41
20 45 41
20 45 41
20 45 41
20 44 41
21 46 42
21 46 42
20 45 41
21 47 43
21 46 43
21 46 42
21 46 42
21 46 42
20 45 41
21 46 42
21 46 42
21 45 42
21 46 42
21 46 42
21 46 42
21 46 42
21 47 43
21 47 43
20 45 41
21 47 43
21 46 42
21 46 42
22 48 44
21 46 42
21 46 42
21 47 43
21 46 42
21 47 43
21 46 42
21 47 43
21 46 42
21 46 42
21 47 43
21 46 42
20 45 41
21 47 43
21 47 42
21 47 43
21 47 43
21 46 42
21 46 42
21 46 42
21 46 42
22 48 44
21 47 43
21 47 43
21 46 42
21 45 41
21 47 43
21 47 42
21 47 43
19 43 40
19 43 40
20 45 41
19 43 40
19 43 40
20 44 41
20 45 41
19 43 40
20 45 41
19 43 40
19 43 39
20 44 41
20 43 40
19 43 40
20 44 40
20 44 40
19 43 40
19 43 40
20 44 40
20 44 41
20 44 41
20 44 40
20 44 40
19 43 40
20 45 41
20 44 41
20 44 40
20 44 41
20 44 41
20 45 41
20 45 42
20 44 40
20 45 42
20 45 41
20 44 40
20 44 40
20 44 40
20 45 41
20 44 41
20 45 41
20 45 41
20 44 41
20 45 41
20 45 42
20 45 41
21 46 42
20 44 40
20 44 41
20 44 41
20 45 42
21 46 42
20 44 41
20 44 41
21 46 42
20 45 41
21 46 42
20 44 41
20 45 42
20 44 41
21 46 42
20 45 41
20 45 41
20 45 41
21 46 42
20 45 41
21 46 42
20 45 41
20 45 41
21 46 43
20 45 42
20 45 42
20 45 41
21 45 42
21 46 42
20 45 41
21 46 42
21 46 42
21 46 42
21 47 43
21 46 42
21 46 42
21 46 42
21 46 42
21 47 43
21 46 42
21 47 43
21 46 42
21 45 41
20 44 41
21 46 42
21 47 43
21 47 43
21 46 42
21 47 43
21 46 42
21 46 42
21 47 43
21 47 43
21 47 43
21 46 42
22 48 43
21 46 42
21 46 42
21 46 42
21 47 43
22 48 44
22 48 44
21 46 42
21 47 43
21 47 43
21 46 42
22 47 43
21 47 42
21 46 42
21 46 42
22 48 44
21 46 42
22 47 43
21 47 43
22 47 43
19 43 40
19 43 40
19 43 40
19 43 40
19 43 40
19 43 40
20 44 41
20 44 40
20 44 40
20 44 41
19 43 40
19 43 40
20 44 40
20 43 40
19 44 40
19 43 39
20 44 40
20 44 41
21 46 42
19 43 40
20 44 41
20 44 41
20 44 41
20 44 41
20 44 41
20 44 40
20 44 41
20 45 41
20 44 41
20 45 41
20 44 41
20 45 41
20 44 40
20 45 41
20 44 40
20 45 41
20 44 41
20 45 41
20 45 41
20 45 42
20 45 42
20 44 41
20 46 42
20 44 41
20 44 41
21 46 42
20 45 41
20 45 41
20 44 40
20 45 42
20 45 42
20 45 41
20 45 41
20 45 41
20 45 41
20 45 42
21 46 42
20 45 42
21 46 42
20 45 42
21 46 42
21 46 42
21 47 43
20 45 41
20 45 41
21 46 42
20 45 42
21 46 42
20 45 42
21 46 42
21 46 42
21 47 43
20 45 41
21 46 42
21 46 42
20 45 41
21 46 42
21 46 42
21 46 42
21 45 42
21 46 42
21 46 42
21 45 41
21 46 42
21 46 42
21 46 42
21 47 43
22 48 43
21 47 43
21 47 43
21 46 42
21 47 43
21 47 43
21 45 41
21 47 43
21 46 42
21 47 43
22 48 44
21 47 43
21 46 42
21 47 43
21 46 42
22 48 44
21 46 42
22 48 44
22 48 44
22 48 43
21 46 42
22 48 43
21 46 42
21 47 43
22 48 44
22 48 44
21 46 42
21 47 43
21 47 42
22 48 44
21 47 42
22 48 44
22 48 43
19 43 40
20 44 40
20 44 40
19 43 40
20 44 41
19 43 40
19 43 39
20 44 41
20 45 41
20 44 41
20 44 41
19 43 39
20 44 41
19 43 40
20 44 40
20 44 40
20 44 41
20 45 41
19 43 40
20 44 40
19 43 40
20 45 41
20 44 41
20 44 41
20 44 40
20 44 40
20 44 40
20 44 40
20 44 41
20 45 42
20 45 41
20 44 41
20 44 40
20 45 41
20 43 40
20 44 41
20 45 41
20 44 40
20 45 42
21 46 42
20 44 40
20 44 41
20 45 41
20 44 40
20 44 40
20 44 41
20 45 42
20 45 41
20 45 42
21 46 42
20 44 40
21 46 42
21 46 42
21 46 42
21 45 42
20 45 41
21 45 42
20 45 42
20 45 41
21 46 42
21 46 42
20 45 41
21 45 42
20 45 41
21 46 42
21 46 42
21 46 42
21 47 43
20 45 41
21 46 42
21 46 42
20 45 41
20 45 41
20 45 41
20 45 41
21 46 42
20 45 41
21 46 42
21 46 42
21 46 42
21 47 43
20 45 41
21 47 43
21 47 43
20 45 41
21 46 42
21 47 43
21 47 43
21 46 42
21 47 43
21 47 43
21 46 42
21 46 42
21 46 42
21 46 42
21 47 43
21 46 42
21 47 43
21 46 42
21 47 43
21 46 42
21 47 43
21 47 43
21 46 42
21 46 42
45 59 54
123 100 91
153 119 108
122 97 87
44 56 51
22 48 44
21 47 43
22 47 43
22 47 43
22 48 44
22 48 43
21 47 42
22 48 43
21 47 43
21 47 42
19 43 40
20 44 40
19 43 40
19 43 40
19 43 40
20 44 41
19 43 40
20 44 41
20 45 41
20 45 41
20 44 41
19 43 40
20 44 41
19 43 40
20 44 41
20 45 42
20 44 41
20 45 41
20 44 41
20 44 40
20 44 40
20 44 40
20 44 41
20 45 41
20 44 41
20 45 41
20 44 41
20 45 42
20 44 41
20 45 41
20 45 42
20 45 41
20 45 41
20 45 41
20 44 41
20 44 41
20 45 41
20 44 41
20 44 41
20 45 41
20 45 41
20 45 41
20 45 41
21 46 42
20 45 41
21 46 42
20 45 41
20 45 41
20 45 41
20 45 41
20 44 40
21 47 43
20 45 42
20 45 41
20 45 41
21 46 42
20 45 41
21 47 43
20 45 41
20 45 41
20 45 41
20 45 42
21 46 42
21 47 43
20 44 41
21 46 42
21 47 43
21 46 42
21 45 42
21 47 43
21 46 42
20 45 41
21 46 42
21 46 42
21 47 43
21 46 42
21 46 42
21 46 42
21 46 42
21 46 42
21 47 43
20 45 41
21 47 43
21 47 43
21 46 42
21 46 42
21 47 42
22 48 44
21 47 43
22 48 44
21 46 42
21 47 43
21 47 42
21 47 43
21 47 42
22 47 43
21 46 42
22 47 43
22 48 43
21 46 42
21 47 42
22 48 44
21 47 43
21 47 43
79 55 48
190 96 83
219 79 59
232 77 55
243 82 59
235 89 68
85 52 45
21 47 43
22 47 43
22 48 44
21 47 43
22 48 44
22 48 44
22 48 44
22 47 43
22 48 43
19 43 40
19 43 40
20 44 41
20 44 41
20 45 42
20 44 40
19 43 40
20 44 40
20 44 41
19 43 40
20 44 41
20 44 41
20 44 41
20 44 40
20 44 41
20 44 41
20 44 41
20 44 40
20 44 41
20 44 41
20 44 41
20 44 41
20 44 41
20 45 41
20 45 41
19 43 39
20 45 42
20 45 41
20 45 41
20 45 41
20 45 41
21 46 42
20 44 40
20 44 41
20 44 41
20 44 41
20 45 41
20 45 41
20 45 41
20 45 41
21 46 42
20 45 41
21 46 42
20 45 41
20 45 42
20 44 41
21 46 42
21 46 42
21 46 42
21 46 42
20 45 41
20 45 42
20 45 42
21 46 42
21 46 42
21 46 42
21 46 42
21 46 42
21 46 42
21 47 43
20 45 41
21 46 42
21 46 42
20 45 41
21 46 42
21 46 42
21 46 42
21 47 43
20 45 41
20 45 42
21 46 42
21 46 42
21 47 43
21 46 42
20 45 41
21 46 42
21 46 42
21 46 42
21 47 43
21 45 41
20 44 40
22 48 43
21 47 42
21 46 42
21 46 42
21 47 43
22 48 44
21 46 42
22 48 44
21 46 42
21 46 42
21 45 41
21 47 43
21 47 43
21 47 43
21 46 42
21 46 42
22 48 44
21 47 43
22 48 44
22 48 44
21 47 43
22 48 44
53 51 46
163 57 42
197 66 48
215 72 52
228 76 54
255 124 98
253 94 70
223 75 53
49 49 43
22 49 44
22 49 44
22 48 43
22 48 44
22 48 43
21 47 43
22 48 43
21 47 43
19 44 40
20 45 41
19 43 40
19 43 40
20 44 40
19 43 40
20 45 41
19 43 39
20 45 41
20 44 40
20 44 40
20 44 41
20 44 41
20 45 41
20 44 40
20 44 41
20 44 41
20 45 41
20 44 41
20 44 41
20 44 40
20 44 40
20 45 41
20 45 42
21 46 42
20 45 41
20 45 41
20 45 41
20 44 41
20 44 41
20 44 41
20 44 40
21 46 42
20 45 41
20 45 42
20 45 41
20 45 42
21 46 42
20 44 41
20 45 41
20 45 41
21 46 42
21 46 42
21 46 42
20 45 41
20 45 42
21 46 42
20 45 41
20 45 41
20 45 41
21 46 42
20 45 41
21 46 42
20 45 41
20 45 41
20 45 41
20 44 40
21 46 43
20 45 41
21 46 42
21 46 43
22 48 44
20 45 42
21 46 42
21 46 42
21 46 42
21 47 43
20 45 41
21 46 42
21 46 42
21 46 42
22 48 44
21 47 43
21 47 43
21 46 42
21 47 42
21 47 43
21 46 42
21 46 42
21 47 43
21 46 42
21 47 43
21 47 43
21 47 43
21 47 43
21 46 42
21 47 43
21 46 42
21 47 42
21 47 43
21 47 42
22 48 44
21 46 42
22 48 44
22 48 44
21 47 43
21 47 43
22 48 44
22 47 43
21 47 42
22 48 43
21 47 43
21 47 43
85 78 72
154 56 43
175 59 43
197 77 60
214 95 77
228 108 89
234 86 64
232 75 53
107 53 43
22 48 43
22 47 43
22 48 43
22 49 44
22 48 44
22 48 44
22 48 43
22 48 44
19 43 40
19 43 40
20 45 41
20 45 41
20 45 41
20 45 41
20 45 41
20 43 40
20 45 41
20 44 41
20 44 40
20 44 40
20 45 41
20 44 41
20 45 42
20 44 41
20 45 41
20 45 41
20 44 40
20 44 40
20 44 41
20 44 41
20 44 41
20 45 41
20 44 41
20 45 41
20 45 41
20 45 41
20 44 40
20 44 41
20 44 40
20 45 41
20 45 41
20 44 40
20 44 40
20 45 42
20 45 41
20 45 41
20 45 41
21 46 42
20 44 40
21 46 42
21 46 43
21 46 42
20 45 41
20 45 41
20 45 41
20 45 41
21 46 42
21 46 42
20 45 41
21 47 43
20 45 41
20 45 41
21 46 42
21 46 42
21 46 42
21 46 42
21 46 42
21 46 42
20 45 41
21 46 42
21 46 42
21 46 42
21 46 42
21 47 43
21 46 42
21 46 42
21 46 42
21 47 43
21 47 43
21 46 42
21 46 42
21 47 43
21 46 42
22 47 43
21 47 43
21 46 42
21 47 43
21 45 41
21 47 43
21 47 42
21 47 43
21 47 43
21 47 43
21 47 43
21 47 43
21 47 43
21 47 43
21 47 43
21 47 43
21 46 42
21 46 42
22 48 43
22 48 44
21 47 42
22 48 43
22 47 43
21 47 43
21 47 43
21 47 43
22 49 44
22 48 44
77 76 71
126 51 40
140 105 96
163 142 130
181 160 145
192 168 150
202 169 150
205 114 96
122 54 43
40 56 51
43 57 51
22 48 44
22 48 44
22 49 45
22 48 44
22 48 43
22 48 44
20 44 41
19 43 40
19 43 40
20 45 41
20 44 40
19 43 39
20 45 41
20 44 41
20 45 41
20 44 40
20 44 41
20 45 41
19 43 39
20 44 40
20 44 41
20 44 41
20 44 41
20 44 40
20 44 40
20 44 40
20 44 41
20 44 41
20 45 41
20 44 40
20 45 41
20 45 41
21 46 42
20 45 41
20 45 42
20 45 41
20 44 40
21 46 42
20 45 41
21 47 43
20 45 41
21 46 42
20 44 40
20 45 41
20 44 40
21 47 43
20 45 42
20 45 42
20 45 41
21 46 42
20 45 41
21 46 43
20 45 42
20 45 41
20 45 41
21 46 42
20 45 41
21 46 42
21 46 42
21 46 42
21 45 42
21 46 42
20 45 42
21 46 42
20 45 41
21 46 42
21 46 42
21 45 41
21 46 42
21 46 42
21 46 42
21 47 43
21 46 42
21 46 42
21 46 42
21 47 43
21 46 42
21 47 43
21 47 43
21 47 43
21 46 42
21 47 43
21 47 43
21 46 42
21 47 42
21 46 42
21 47 43
21 47 42
21 47 43
21 47 43
21 47 43
21 47 43
21 47 43
21 47 43
21 47 43
21 47 43
21 47 43
22 48 44
21 47 42
21 47 43
22 47 43
22 47 43
21 47 43
22 47 43
22 47 43
22 47 43
21 46 42
21 47 42
22 48 43
57 55 50
99 81 73
101 94 86
118 107 98
130 115 103
153 135 119
160 140 123
175 150 133
193 167 154
216 194 178
229 205 188
208 186 169
125 117 105
21 47 42
22 48 44
22 48 44
22 48 44
20 44 40
20 45 41
20 44 41
20 44 40
20 44 41
20 44 40
20 43 40
20 45 41
20 45 41
20 44 40
20 45 41
21 46 42
20 44 41
20 44 41
20 44 41
20 44 40
20 44 41
20 45 41
20 45 42
20 44 40
20 45 41
20 44 41
20 45 41
20 45 42
20 44 41
20 45 41
20 44 40
20 45 41
20 44 41
21 46 42
20 44 40
20 45 41
21 46 43
20 45 42
21 46 42
20 45 42
20 45 41
20 45 41
21 46 42
20 45 41
21 46 42
20 45 41
20 45 41
21 47 43
20 45 41
21 46 42
20 45 41
20 45 41
21 46 42
20 45 41
22 48 44
20 45 41
21 46 42
21 46 42
21 46 42
20 44 40
21 45 42
20 45 41
20 45 41
21 46 42
21 46 42
21 46 42
21 47 43
21 47 43
21 47 43
21 47 43
21 46 42
21 46 42
21 46 42
21 46 42
21 45 41
21 47 43
21 47 43
21 47 43
21 47 43
21 46 42
21 46 42
21 46 42
21 47 42
21 46 42
21 47 43
21 47 43
22 47 43
21 46 42
21 47 43
21 46 42
21 47 42
21 47 43
22 48 44
21 47 42
21 47 43
21 47 42
22 47 43
22 48 43
22 47 43
21 47 42
22 47 43
21 47 43
21 47 42
21 47 43
21 47 43
20 45 41
20 45 41
30 46 41
57 55 48
64 63 56
66 65 57
58 57 49
84 76 64
134 121 108
189 172 160
207 188 175
217 196 182
229 205 189
251 224 203
244 216 195
131 121 109
22 49 44
22 48 44
22 48 44
19 43 40
19 43 40
19 43 40
19 43 40
20 44 40
20 45 42
20 44 41
20 44 40
20 45 42
20 44 40
20 44 41
20 44 41
20 44 41
20 45 41
20 45 42
20 44 41
20 45 41
20 45 41
20 44 41
20 45 41
20 44 40
20 44 41
21 46 42
20 45 42
20 45 41
20 45 41
20 45 41
20 45 42
20 45 41
21 46 42
20 45 41
20 44 41
20 44 40
20 45 42
20 45 42
21 46 42
21 46 42
20 45 41
20 45 41
21 46 42
21 46 42
20 45 41
21 46 42
20 45 41
21 46 42
21 47 43
21 47 43
21 46 42
21 46 42
21 46 42
21 46 42
20 45 41
21 45 42
21 46 42
20 45 41
20 45 42
20 45 41
21 46 43
21 46 42
21 46 42
21 46 42
21 46 42
20 45 41
21 47 42
20 45 41
21 47 43
21 47 43
21 47 43
21 47 43
21 47 43
21 46 42
21 47 43
21 47 43
21 47 43
21 46 42
21 46 42
22 47 43
22 48 43
21 47 43
21 46 42
21 47 42
21 47 43
22 48 43
21 47 43
21 46 42
21 47 43
21 46 42
21 47 42
21 47 43
22 48 44
22 48 44
21 47 43
22 48 43
21 47 42
22 47 43
22 48 44
22 48 44
22 48 43
21 47 43
19 41 38
17 38 36
15 34 33
14 32 31
14 32 31
18 30 28
13 24 19
27 33 25
39 40 29
40 40 34
78 63 81
111 94 106
141 122 127
161 140 141
169 146 147
206 181 172
193 166 161
152 127 130
29 48 47
22 47 43
22 49 44
20 44 41
20 44 41
20 44 41
20 44 40
20 45 41
19 43 39
20 43 40
20 44 41
20 44 41
20 45 41
20 45 42
20 45 41
19 43 39
20 45 42
20 44 41
20 45 41
21 46 42
20 45 41
20 45 41
20 45 41
20 45 42
20 45 41
21 46 42
20 45 42
20 44 41
20 45 41
20 44 41
20 45 42
20 45 41
20 45 41
20 44 41
20 45 41
21 46 42
20 45 41
20 45 41
21 45 42
20 45 41
21 46 42
20 45 41
20 45 41
20 45 41
21 46 42
21 46 42
20 44 41
20 45 42
21 46 42
21 46 42
20 45 41
21 46 42
20 45 41
21 46 42
21 46 42
21 47 43
21 46 42
21 46 42
21 45 41
21 47 43
20 44 41
21 46 42
22 48 44
21 47 43
21 46 42
21 46 42
21 47 43
21 47 43
21 46 42
21 47 43
21 47 43
22 49 44
21 46 42
22 48 44
21 46 42
21 46 42
21 46 42
21 46 42
21 47 42
21 46 42
22 48 43
21 47 43
22 48 44
21 46 42
21 47 42
21 47 43
22 48 44
21 47 43
21 46 42
22 47 43
21 46 42
22 48 44
22 48 44
21 47 42
21 47 43
22 49 44
21 47 43
22 48 44
21 47 43
22 47 43
22 48 43
21 46 42
21 46 42
20 44 40
18 41 37
17 37 34
15 34 31
13 30 27
11 26 23
10 22 20
13 24 21
36 32 42
58 40 67
65 45 75
72 49 81
79 52 86
84 56 91
89 59 95
91 59 93
92 60 95
51 50 61
23 49 44
22 48 44
19 43 40
20 44 41
20 45 41
20 44 41
19 43 40
20 44 41
20 45 41
20 44 40
20 44 40
20 44 40
20 44 41
20 44 41
20 45 41
20 44 40
20 44 40
20 44 40
20 45 42
20 44 41
20 45 42
21 46 42
20 44 40
20 44 40
20 45 41
20 45 41
20 45 41
21 46 42
20 45 41
20 45 42
20 44 40
20 45 41
20 45 41
20 45 42
21 46 42
21 46 42
21 47 43
20 45 42
21 46 42
20 45 41
20 43 40
20 45 41
21 46 42
21 46 42
21 46 42
21 46 42
20 45 42
21 47 43
20 45 41
20 45 41
20 45 41
21 46 42
21 47 43
21 46 42
20 45 41
20 45 42
21 47 43
21 47 42
21 46 42
20 45 41
21 46 42
21 46 42
21 47 43
21 46 42
21 46 42
21 46 42
21 46 42
21 47 43
20 45 41
21 47 43
22 47 43
21 47 43
20 45 41
21 47 43
21 46 42
21 46 42
21 47 43
21 47 42
21 46 42
21 47 43
21 47 42
22 47 43
22 48 44
21 46 42
21 47 43
22 47 43
21 47 43
22 49 44
22 48 44
21 47 43
22 47 43
21 47 43
21 47 43
21 47 42
21 47 43
21 47 43
21 47 42
22 48 44
22 47 43
21 47 42
22 47 43
22 48 43
21 46 42
21 46 42
21 46 42
21 46 42
21 46 41
21 45 41
20 44 40
20 43 39
33 41 46
48 33 55
56 39 64
58 40 66
64 44 71
71 47 76
75 50 80
78 51 80
81 53 83
48 49 57
22 48 43
22 48 44
20 44 41
20 44 41
20 44 40
20 45 41
20 44 41
20 44 41
20 45 41
20 45 42
20 45 42
20 45 41
20 45 41
20 44 40
20 45 41
20 45 42
20 44 40
20 44 41
20 46 42
20 45 41
20 45 41
21 46 42
20 45 41
20 45 41
20 44 40
21 46 42
20 45 41
21 46 42
20 45 41
20 45 41
20 45 41
20 45 41
21 46 42
20 45 41
21 46 42
21 46 43
21 46 42
20 45 41
21 47 43
20 45 41
21 46 42
21 46 42
21 46 42
20 45 41
21 45 42
20 45 41
20 45 41
21 46 42
21 46 42
21 46 42
21 46 42
20 45 41
21 46 42
21 47 43
21 46 42
21 46 42
20 45 41
21 46 42
21 47 43
21 47 43
21 47 43
21 46 42
21 46 42
21 47 43
21 46 42
21 47 43
21 46 42
21 46 42
21 47 43
21 46 42
21 46 42
22 48 44
21 47 43
21 47 43
21 46 42
21 46 42
21 47 43
21 46 42
21 46 42
21 46 42
21 47 42
22 48 44
22 48 44
21 46 42
21 47 43
21 47 42
22 48 43
21 46 42
22 47 43
21 46 42
21 47 43
21 47 43
21 46 42
21 46 42
21 47 42
22 48 43
22 48 44
22 48 44
21 47 43
21 47 42
22 48 43
22 48 43
21 47 42
22 47 43
21 46 42
21 47 42
22 48 43
22 47 43
22 47 43
22 47 43
26 44 43
40 27 45
39 27 44
45 31 51
46 31 51
52 35 57
58 38 59
63 41 65
63 41 63
33 47 47
22 48 43
21 47 43
20 44 40
21 46 42
20 45 42
20 44 41
20 45 42
20 45 41
20 44 41
20 46 42
20 45 41
20 45 41
20 44 41
20 45 41
20 44 41
20 45 41
20 45 42
20 44 41
20 45 41
20 44 40
20 45 41
21 46 42
20 45 41
20 45 42
20 44 41
20 45 41
20 43 40
20 46 42
20 45 41
21 46 42
20 45 41
20 44 41
20 45 41
21 46 42
21 46 42
20 45 42
20 44 40
20 45 42
21 46 42
21 46 42
21 47 43
21 46 42
20 45 41
21 46 42
21 47 43
20 45 41
21 46 42
21 46 42
21 47 43
21 46 42
20 45 41
21 46 42
21 47 43
21 46 42
21 46 42
20 45 41
21 47 43
21 46 42
21 46 42
21 47 43
21 46 42
21 46 42
21 46 42
21 47 43
21 45 41
21 47 43
21 46 42
21 47 43
21 46 42
20 45 41
21 46 42
21 46 42
22 48 43
21 46 42
21 47 43
22 48 43
21 46 42
21 46 42
21 47 42
22 48 43
21 47 43
21 47 43
21 47 43
22 48 43
21 46 42
21 46 42
21 47 43
21 47 43
21 47 43
21 47 43
21 46 42
22 47 43
22 48 43
21 47 43
22 48 43
21 47 43
21 47 43
22 48 43
22 47 43
22 47 43
22 48 43
22 47 43
21 46 42
22 48 43
21 47 42
21 46 42
22 48 43
21 46 42
21 45 41
21 45 41
22 47 43
33 37 36
39 36 39
36 33 37
38 35 39
45 40 44
41 35 37
46 37 44
43 42 45
22 48 43
21 47 42
22 48 44
20 45 41
20 45 41
20 44 40
20 45 41
20 45 42
20 44 41
21 46 42
21 46 42
20 45 42
20 44 41
21 46 42
20 45 42
20 44 40
20 45 41
21 46 42
20 45 41
20 44 41
21 46 42
20 45 42
20 45 42
20 45 41
20 45 41
20 44 40
20 45 42
20 45 41
20 45 41
21 47 43
20 45 41
20 45 42
21 46 42
20 44 41
21 46 42
20 45 41
20 45 41
20 45 41
21 46 42
20 45 41
21 46 42
21 46 43
21 46 42
20 45 41
21 46 42
20 44 40
20 45 41
21 46 42
21 46 42
20 45 41
21 46 42
21 46 42
21 46 42
21 46 42
21 46 42
21 46 42
20 45 41
21 46 42
21 46 42
21 46 42
21 46 42
21 47 43
21 46 42
21 46 42
21 46 42
21 46 42
21 47 43
21 46 42
21 47 43
21 47 43
21 47 42
21 47 43
21 46 42
22 48 43
22 48 44
21 46 41
21 47 43
22 48 43
21 46 42
22 48 44
21 47 43
22 48 43
22 48 43
22 48 44
21 47 43
21 47 43
21 47 43
21 47 43
21 47 42
21 46 42
21 47 43
21 47 43
22 48 43
22 48 43
22 48 44
21 46 42
21 46 42
21 47 42
22 49 44
22 48 44
22 48 44
22 48 43
21 47 42
22 47 43
21 47 42
21 46 42
21 46 42
19 43 40
17 38 36
15 35 33
14 32 30
13 31 30
12 26 25
12 23 19
14 26 19
31 36 27
37 40 29
48 48 38
38 46 39
26 47 42
22 47 42
22 47 42
22 49 44
20 45 41
19 43 40
21 46 42
20 45 41
20 44 41
20 45 42
20 46 42
20 45 42
20 45 41
20 44 41
20 45 41
20 45 41
20 45 42
20 44 41
20 45 41
20 45 42
20 44 40
20 44 40
20 45 42
20 45 41
20 44 41
20 45 41
20 45 41
20 45 41
20 45 41
20 45 41
21 46 42
20 45 41
20 44 40
20 45 41
21 46 42
21 46 42
20 45 42
21 47 43
20 45 41
21 46 42
21 46 42
20 45 41
20 45 41
21 46 42
20 45 41
21 45 42
20 45 41
21 46 42
21 46 42
21 46 42
21 46 42
21 45 41
21 47 43
21 47 43
20 45 41
21 46 42
21 46 42
21 46 42
20 45 41
21 45 42
21 47 43
21 45 41
21 46 42
21 47 43
22 48 43
22 47 43
21 47 43
20 45 41
21 46 42
21 46 42
21 47 43
21 47 43
21 47 43
21 46 42
21 47 43
21 47 43
21 46 42
21 46 41
21 47 42
21 47 43
22 47 43
21 46 42
22 48 44
22 48 43
21 46 42
21 46 42
21 47 43
21 47 43
21 47 42
22 47 43
21 47 43
22 48 43
22 48 44
22 47 43
21 47 43
22 48 43
22 47 43
21 47 43
22 47 43
22 48 44
22 48 44
22 48 44
22 47 43
22 48 43
22 47 43
21 47 42
21 46 42
21 47 42
20 44 40
19 43 39
16 36 33
14 33 32
13 29 28
12 27 25
10 23 22
8 18 16
11 18 15
15 20 16
20 28 23
19 40 35
21 44 39
21 45 40
21 46 41
21 47 42
20 45 41
20 44 40
20 45 41
20 45 41
20 45 41
20 45 41
19 43 40
20 44 41
20 44 41
20 44 41
21 46 42
20 43 40
20 45 41
20 45 41
20 45 41
20 46 42
20 44 40
21 46 42
20 45 41
20 45 41
20 44 40
20 45 41
21 46 42
20 45 41
20 45 41
21 46 42
20 45 41
20 45 41
20 45 42
20 45 41
21 46 42
20 44 41
20 45 41
21 46 42
20 45 42
20 44 40
20 45 42
21 46 42
21 46 42
21 46 42
21 46 42
21 46 42
20 45 41
21 46 42
22 48 43
21 46 42
21 47 43
21 46 42
21 46 42
22 48 43
21 45 41
21 47 43
21 46 42
21 46 42
21 46 42
21 46 42
22 48 44
21 47 43
21 47 43
21 47 43
21 46 42
21 46 42
21 47 43
21 46 42
21 46 42
21 47 43
21 46 42
21 46 42
21 46 42
21 47 43
21 47 42
21 47 43
22 47 43
21 47 43
21 47 43
21 47 43
21 47 43
21 47 43
21 47 42
21 47 43
21 47 42
22 48 44
22 48 44
21 47 43
22 48 44
22 48 44
21 47 43
22 48 44
22 48 44
22 48 43
22 47 43
22 47 43
22 48 44
22 49 44
21 47 42
22 49 44
21 47 43
22 49 45
22 48 44
21 47 43
22 47 43
22 49 44
22 48 43
22 48 44
21 47 43
21 47 42
22 48 43
20 43 39
20 45 40
20 44 40
19 41 37
19 41 37
19 42 38
20 43 38
20 44 39
21 44 40
21 45 40
21 45 40
21 46 41
22 48 43
20 44 41
20 44 41
20 44 40
21 46 43
20 45 41
20 45 41
20 44 41
20 45 41
20 45 41
20 44 40
21 46 42
20 44 40
20 44 41
20 46 42
20 44 41
21 46 42
20 44 41
21 46 42
20 43 40
20 44 40
21 46 42
20 45 41
21 46 42
20 45 41
20 45 41
20 45 41
20 45 41
20 45 41
20 45 41
20 45 41
21 46 42
20 45 42
21 46 42
21 46 42
20 45 41
21 46 42
20 44 41
20 45 41
21 47 43
21 46 42
21 47 43
20 45 41
21 46 42
20 45 41
21 46 42
21 46 42
20 45 41
21 46 42
21 47 43
20 45 41
21 46 42
20 45 41
21 46 42
21 46 42
21 47 43
20 45 41
20 45 41
21 46 42
21 46 42
21 46 42
21 47 42
21 46 42
22 48 44
21 47 43
21 46 42
21 46 42
21 47 43
21 47 43
21 47 43
21 46 42
21 47 43
21 47 43
21 47 43
21 47 42
21 47 43
21 47 43
22 48 43
21 47 43
21 47 43
22 48 43
22 48 44
21 47 43
21 47 42
22 49 45
22 48 43
22 48 44
21 47 43
22 49 44
22 48 44
22 48 43
21 47 43
22 49 44
22 48 44
21 47 43
22 48 44
21 47 43
22 48 43
21 47 42
22 47 43
21 47 43
22 48 43
22 48 44
22 47 43
22 48 43
22 49 44
22 48 43
22 48 43
22 49 44
22 47 43
22 49 44
22 47 43
21 47 42
21 47 42
21 47 42
22 48 43
22 47 43
22 48 43
22 47 43
22 48 44
21 46 42
20 44 40
20 45 41
20 44 41
20 44 41
20 44 40
20 45 42
20 44 40
20 45 41
21 46 42
20 45 41
20 45 42
21 46 42
20 44 40
20 45 42
20 45 41
20 45 41
21 46 42
21 46 42
20 45 41
20 45 41
20 45 41
20 45 41
20 45 42
20 45 41
20 45 41
21 45 42
21 46 42
20 44 40
20 45 41
20 45 41
20 45 41
21 46 42
20 45 41
20 45 41
21 46 42
21 46 42
20 45 41
20 45 41
21 47 43
21 47 43
21 46 42
20 45 41
21 46 42
20 45 41
21 45 42
21 46 42
21 47 43
20 45 41
22 48 43
21 46 42
21 46 42
21 46 42
20 45 41
21 46 42
21 46 42
21 46 42
21 46 42
21 46 42
21 47 43
21 46 42
21 46 42
21 46 42
21 47 43
22 48 43
21 47 42
21 47 43
21 47 43
21 46 42
21 46 42
21 47 43
21 47 43
22 48 44
22 48 44
21 46 42
21 47 43
21 46 42
21 46 42
21 47 43
21 47 43
22 47 43
21 47 43
21 47 43
21 47 43
21 47 43
22 48 43
21 47 43
22 47 43
22 48 44
22 47 43
21 47 43
22 48 44
22 48 43
22 47 43
22 48 44
22 48 44
22 48 44
22 47 43
22 49 44
22 48 44
22 49 44
22 49 44
21 46 42
22 49 45
22 49 44
21 46 42
22 48 43
22 48 43
22 49 45
21 47 43
22 47 43
22 48 44
22 49 44
21 47 43
21 46 42
22 48 44
22 49 44
22 48 44
22 49 45
22 48 43
22 48 43
20 45 41
20 45 41
20 44 41
20 45 42
19 43 40
20 45 41
20 44 40
20 44 41
20 44 40
20 44 40
20 45 41
20 44 41
20 44 41
20 44 40
20 45 42
20 45 41
20 45 42
20 45 41
20 45 42
20 45 41
20 45 41
20 44 41
20 45 42
20 45 42
21 46 42
20 45 41
20 45 41
20 45 41
20 45 41
20 44 40
21 46 42
20 45 41
20 45 42
21 46 42
21 46 42
21 46 42
21 46 42
21 47 43
20 45 41
21 46 42
21 46 42
21 45 42
21 46 42
21 46 43
21 47 43
20 45 41
21 46 42
21 47 43
20 45 41
21 45 41
21 47 43
21 46 42
21 46 42
20 45 41
21 46 42
21 47 43
20 45 41
21 47 43
21 46 42
21 46 42
21 47 43
22 48 44
21 46 42
21 47 43
21 46 42
22 48 43
21 47 43
21 45 41
21 47 43
21 46 42
21 46 42
21 47 42
21 47 42
21 46 42
21 47 43
22 48 43
22 48 43
21 47 43
21 47 42
21 47 43
21 47 42
21 47 43
22 48 44
21 47 43
21 47 43
21 46 42
21 47 43
21 46 42
22 47 43
21 47 42
21 47 43
21 47 43
22 48 44
21 47 42
22 48 43
22 48 44
22 48 43
22 49 44
21 47 43
21 46 42
22 48 43
21 47 43
21 47 42
22 48 43
22 49 44
22 48 44
22 48 43
22 48 44
22 49 44
22 48 43
22 49 45
22 48 44
22 48 44
22 48 43
22 48 44
21 46 42
22 48 44
22 48 44
22 48 44
22 48 43
20 45 41
20 45 42
20 44 40
20 44 40
20 44 41
20 45 42
20 44 41
20 44 41
20 46 42
20 44 40
20 45 42
20 46 42
21 46 42
21 46 42
21 46 42
20 44 41
20 45 41
20 45 42
20 44 40
21 46 42
20 45 42
20 45 41
21 46 42
21 46 42
20 45 41
21 46 42
21 46 42
20 45 41
20 45 41
21 47 43
21 46 42
21 45 42
21 46 42
21 46 42
21 46 42
21 46 42
21 46 42
20 45 42
21 47 43
21 46 42
21 47 43
20 45 41
21 46 42
21 46 42
20 44 41
21 45 41
21 47 42
21 47 43
21 45 42
21 46 42
21 45 42
21 47 43
21 46 42
21 46 42
21 47 43
21 47 43
21 47 43
21 46 42
21 47 43
21 46 42
21 46 42
21 47 43
21 47 43
21 46 42
22 48 43
22 48 43
21 46 42
22 48 44
21 47 43
21 46 42
21 46 42
21 47 43
21 46 42
21 46 42
21 47 43
21 47 43
21 46 42
22 48 43
22 48 43
22 48 43
21 47 42
21 47 43
21 47 43
21 46 42
21 47 43
22 48 43
21 47 43
22 48 44
21 47 42
21 47 43
22 47 43
22 48 43
22 48 44
22 48 43
21 47 43
22 47 43
22 48 43
22 47 43
22 48 44
22 48 44
22 48 43
21 47 43
22 48 43
22 48 44
22 48 44
22 48 43
22 47 43
22 48 43
22 49 45
22 49 44
22 48 44
22 49 45
22 48 44
22 48 44
23 50 45
22 48 44
22 48 43
22 48 43
22 48 43
22 48 44
20 45 41
21 46 43
20 44 41
20 44 41
20 45 42
20 45 41
20 45 42
20 45 41
20 45 41
20 44 41
20 45 41
20 45 41
20 45 42
21 46 42
20 45 41
20 45 42
20 44 41
20 45 41
21 46 42
20 45 41
21 46 42
20 45 41
20 45 41
21 46 42
21 46 42
21 46 42
21 46 42
20 45 41
20 45 41
20 45 41
20 45 41
21 46 42
20 45 41
21 46 42
20 45 41
21 47 43
21 46 42
20 45 41
21 46 42
20 44 41
21 47 43
20 45 41
21 46 42
21 46 42
21 46 42
21 46 42
21 46 42
21 46 42
21 46 42
21 46 42
21 46 42
21 47 43
21 46 42
20 45 41
21 46 43
21 47 43
21 46 42
21 47 43
21 46 42
21 46 42
21 47 43
21 45 42
21 46 42
21 47 43
21 46 42
21 46 42
21 47 43
21 46 42
21 47 42
21 46 42
21 47 43
22 48 43
21 47 43
22 47 43
21 46 42
21 47 43
21 47 43
21 46 42
21 47 43
22 48 43
21 47 43
21 47 43
22 48 43
22 48 43
21 46 42
22 49 44
23 50 45
21 47 43
22 47 43
21 47 43
21 47 43
22 49 44
22 48 44
21 47 43
22 49 44
22 48 43
22 47 43
21 47 43
22 48 44
22 48 44
21 47 43
22 48 44
22 48 44
22 48 44
22 49 44
22 47 43
21 47 42
22 49 44
21 47 43
22 49 44
22 48 43
22 47 43
22 48 44
22 48 43
23 50 45
22 48 43
22 47 43
22 48 44
23 50 45
23 50 45
21 46 42
20 45 41
20 45 41
20 45 41
20 44 41
20 45 41
20 45 41
20 45 41
20 45 41
20 44 41
20 45 41
20 45 41
20 45 41
21 46 42
20 44 41
20 45 42
20 45 41
20 45 41
20 45 42
20 45 42
20 45 41
20 44 40
20 45 41
20 45 41
21 46 42
20 45 41
20 45 42
21 46 42
20 45 41
21 46 42
20 45 41
21 45 42
20 44 41
21 47 43
20 45 41
21 46 42
20 45 41
21 46 42
21 46 42
21 46 42
21 46 42
21 46 42
21 46 42
21 46 42
21 46 42
21 46 42
20 45 41
21 47 43
21 46 42
21 47 43
20 45 41
21 47 43
21 46 42
21 46 42
21 46 42
21 47 43
21 46 42
21 47 43
21 46 42
21 45 42
21 46 42
21 47 43
21 45 41
21 47 43
21 46 42
21 47 43
21 47 43
20 45 41
21 47 43
21 47 43
21 47 42
21 46 42
21 47 43
21 47 43
21 47 43
21 47 43
21 46 42
22 48 43
21 47 43
21 47 42
21 46 42
21 46 42
22 48 43
22 48 44
22 48 44
22 48 43
21 47 42
22 48 43
21 47 42
21 46 42
22 48 43
22 48 44
21 46 42
22 47 43
22 48 44
22 48 43
22 49 44
22 49 45
21 47 42
21 47 43
22 47 43
22 48 43
22 48 43
22 47 43
22 48 43
23 50 45
22 48 43
22 48 43
22 48 44
21 47 42
22 48 43
22 48 43
22 49 45
22 48 44
22 49 44
22 48 44
22 48 44
22 49 44
22 47 43
22 48 44
20 44 41
20 45 41
20 44 41
21 46 42
21 46 42
20 45 42
20 45 41
20 44 41
20 44 40
20 45 41
20 45 41
20 44 41
21 46 42
20 45 42
21 46 42
20 44 40
20 44 40
21 46 42
20 44 40
20 44 41
21 46 42
21 46 42
20 46 42
21 46 42
20 45 41
20 45 41
20 45 41
20 45 41
20 45 41
21 46 42
21 46 42
21 46 42
20 45 41
20 45 41
20 45 41
21 46 43
20 45 42
20 44 40
21 46 42
21 46 42
21 45 42
21 46 42
20 45 41
21 46 43
21 47 43
21 47 43
21 47 43
20 45 41
20 45 41
21 46 42
21 45 41
22 48 43
21 47 42
21 45 41
21 46 42
21 46 42
21 46 42
21 47 43
21 47 43
21 47 42
21 46 42
21 46 42
21 47 43
21 47 43
21 47 43
21 46 42
21 47 43
21 47 43
21 47 43
22 48 43
21 47 43
21 47 43
21 47 43
22 48 44
21 46 42
22 48 44
22 48 44
21 47 43
21 47 43
21 47 43
21 47 43
22 48 43
22 49 44
22 48 43
21 46 42
21 47 43
22 47 43
21 47 42
21 47 43
22 48 43
23 49 45
22 48 44
22 48 44
22 48 43
22 48 43
22 48 44
22 47 43
22 48 44
21 45 41
22 48 44
22 48 44
22 47 43
22 48 44
22 49 44
22 49 44
22 48 44
22 49 45
21 47 43
22 48 43
22 48 44
22 48 44
21 47 42
22 49 44
22 47 43
22 48 44
22 47 43
22 49 44
21 47 43
22 49 44
22 49 44
20 45 41
20 44 41
20 45 41
21 46 42
21 46 42
20 45 42
20 44 41
20 45 41
20 45 41
20 45 41
20 46 42
20 45 41
20 45 42
20 45 41
20 45 42
20 45 42
21 46 42
20 45 41
20 44 40
21 46 42
20 45 42
21 46 42
20 45 42
20 45 41
21 46 42
20 44 40
21 46 42
20 45 41
20 45 41
20 45 41
20 45 41
20 45 41
21 46 42
21 46 42
21 46 42
21 46 42
21 46 42
21 45 42
21 46 42
21 47 43
21 46 42
21 46 42
21 46 42
21 46 42
21 46 42
21 46 42
21 46 42
21 46 42
21 46 42
21 46 42
21 46 42
21 46 42
21 46 42
21 47 43
21 46 42
21 46 42
21 46 42
21 46 42
22 48 43
21 47 43
21 46 42
20 45 41
21 46 42
21 46 42
20 45 41
21 46 41
21 47 43
21 47 43
21 47 43
22 48 43
21 47 43
22 48 44
21 46 42
22 47 43
22 47 43
21 47 43
21 47 43
21 47 43
22 48 43
21 47 43
21 46 42
22 48 43
21 47 43
22 48 44
21 47 43
21 46 42
22 48 43
22 47 43
21 47 43
21 47 42
21 47 43
22 49 44
21 47 43
22 48 44
22 48 44
22 48 43
22 48 43
22 48 43
22 47 43
21 47 43
22 48 43
21 47 43
21 47 43
23 49 45
22 48 43
22 48 44
22 47 43
22 48 43
21 47 43
22 48 44
22 47 43
21 47 43
22 48 44
22 48 44
22 48 43
22 48 43
21 47 43
22 47 43
22 49 44
23 50 45
20 45 41
20 45 41
20 45 41
20 45 41
20 45 41
20 45 41
20 45 41
20 44 40
20 45 41
20 44 41
20 45 41
20 45 41
20 45 42
20 45 42
20 45 41
21 46 42
20 44 41
21 46 42
21 46 42
21 46 42
21 46 42
20 45 42
20 45 41
20 45 41
21 47 43
21 46 42
20 45 41
21 47 43
20 45 41
21 46 42
21 47 43
20 45 41
20 45 41
21 46 42
21 46 42
21 46 42
21 47 43
21 46 42
21 46 42
21 45 42
21 46 42
20 44 41
21 46 42
21 46 42
21 46 42
21 46 42
21 47 43
21 46 42
20 45 41
21 46 42
21 46 42
21 46 42
22 48 44
21 46 42
21 46 42
21 46 42
21 46 42
21 47 43
21 47 43
20 44 40
21 47 43
22 48 43
21 47 43
21 46 42
21 46 42
21 47 43
22 48 44
22 48 44
21 46 42
21 47 43
21 46 42
22 47 43
21 46 42
21 46 42
22 48 44
22 48 43
21 46 42
21 47 43
22 49 45
21 46 42
21 46 42
21 47 43
21 46 42
20 45 41
21 47 43
21 47 43
21 47 43
22 47 43
22 48 44
21 46 42
22 48 44
22 49 45
21 47 42
21 46 42
22 48 44
22 48 43
22 48 43
22 48 44
22 48 43
21 46 42
22 49 44
21 47 43
22 48 43
21 47 43
22 48 43
22 49 44
22 47 43
22 48 44
21 47 42
22 48 43
22 48 44
22 48 44
21 47 43
22 48 44
22 48 43
22 48 44
22 49 44
23 50 45
22 48 44
22 48 43
20 45 41
20 44 40
20 45 41
20 45 41
20 45 41
20 45 41
20 46 42
20 45 41
20 44 40
20 45 41
20 45 41
20 45 41
21 46 42
20 45 41
20 44 41
21 46 42
20 45 42
20 43 40
20 45 41
20 45 41
20 45 41
20 45 41
21 46 42
20 45 42
20 45 41
20 45 41
21 46 42
20 45 41
21 46 42
20 45 41
21 46 42
20 44 41
20 45 42
20 44 41
20 45 42
20 44 41
21 47 43
21 47 43
21 46 42
21 47 43
21 46 42
21 47 43
20 45 41
20 45 41
21 46 42
21 47 43
22 48 44
21 46 42
21 46 42
20 45 41
21 46 42
21 46 42
20 45 42
21 46 42
21 46 42
21 46 42
21 46 42
20 45 41
21 46 42
21 46 42
21 46 42
21 47 43
21 47 42
22 48 44
21 47 43
21 46 42
22 48 44
21 47 43
21 46 42
21 47 43
21 47 43
21 47 43
21 47 43
22 48 43
22 48 44
21 47 43
21 46 42
21 47 43
22 48 43
21 47 42
22 48 44
21 47 43
21 47 42
21 46 42
21 47 43
22 48 44
22 48 43
21 47 43
22 48 44
21 46 42
22 48 44
21 46 42
22 48 44
22 48 44
22 48 43
22 48 43
22 48 44
22 47 43
22 48 44
22 48 44
21 47 43
21 47 43
22 48 44
21 47 43
22 48 44
22 48 43
22 48 43
21 47 42
22 48 44
22 48 43
22 49 45
22 48 43
22 48 43
21 47 42
22 47 43
22 48 43
22 47 43
22 48 44
22 48 44
21 47 42
21 46 42
20 44 41
20 44 40
20 44 41
20 45 41
20 43 40
20 45 41
20 45 42
20 45 42
20 44 40
20 45 41
20 45 41
20 44 41
21 46 42
20 45 42
20 44 41
19 43 39
20 44 40
20 44 40
21 46 42
20 45 41
20 44 40
20 45 41
20 45 42
20 45 42
21 46 42
20 45 41
21 46 42
20 45 41
21 46 43
20 45 41
21 46 42
21 46 42
21 46 42
21 46 42
21 47 43
21 46 42
21 46 42
21 46 42
21 47 43
20 45 41
21 46 42
20 45 41
20 45 41
21 46 43
21 47 43
21 47 43
21 47 43
21 46 42
21 47 43
21 47 43
21 47 43
21 46 42
21 47 43
21 46 42
21 46 42
21 45 42
21 47 43
21 46 42
21 46 42
21 47 43
21 46 42
21 47 43
21 47 43
21 46 42
21 46 42
21 47 43
21 47 43
22 47 43
21 46 42
21 47 42
21 47 43
21 47 42
21 46 42
21 47 43
21 47 43
22 49 44
21 46 42
21 47 43
21 47 43
22 48 43
21 47 42
22 48 44
21 47 43
22 47 43
21 47 43
22 47 43
21 46 42
22 48 44
22 48 43
22 49 44
22 47 43
22 48 44
22 48 44
22 47 43
22 48 44
21 47 43
22 47 43
22 48 44
22 47 43
22 49 44
22 48 44
22 48 44
21 47 43
22 47 43
22 48 44
21 47 43
22 48 43
22 48 44
22 49 44
21 47 42
22 47 43
22 48 44
22 48 44
22 48 44
22 48 44
22 48 44
23 49 45
22 48 44
22 48 43
20 44 41
20 43 40
20 45 41
21 46 42
19 43 40
20 45 41
20 45 41
20 45 41
21 46 42
20 45 42
21 46 42
21 46 42
20 45 42
21 46 42
20 44 40
20 44 40
20 45 41
21 46 42
20 44 41
20 44 41
20 45 42
20 44 41
20 45 41
20 44 41
20 45 42
20 45 41
21 46 42
21 46 42
20 45 41
20 45 41
21 46 42
21 46 42
20 45 41
21 46 42
21 46 42
20 45 41
21 46 42
21 46 42
21 46 42
21 47 43
21 46 42
21 46 42
21 46 42
21 46 42
21 46 42
21 47 43
21 47 43
21 46 42
20 45 41
21 46 42
21 46 42
21 46 42
21 46 42
21 47 43
21 45 42
20 45 41
21 46 42
21 46 42
21 46 42
21 47 43
21 47 43
21 46 42
21 46 42
21 46 42
21 46 42
21 47 43
21 47 42
21 47 43
22 49 44
21 47 43
22 48 44
21 47 43
22 48 44
21 46 42
21 47 43
21 47 43
22 47 43
21 46 42
22 47 43
21 47 43
22 47 43
21 47 43
22 48 43
21 47 42
21 46 42
21 47 43
22 48 44
21 46 41
22 48 44
21 47 43
21 47 43
22 48 44
21 47 43
22 48 43
21 47 43
22 48 44
21 47 43
21 47 43
22 47 43
22 48 44
22 47 43
21 47 43
22 48 44
21 47 43
22 48 43
22 48 44
22 48 44
22 48 44
22 48 43
22 49 44
22 48 44
22 48 43
22 48 44
23 50 45
22 47 43
22 48 44
22 47 43
22 49 44
22 48 44
22 48 44
20 45 42
20 44 40
20 44 40
20 44 41
20 45 41
20 44 41
21 46 42
21 47 43
21 46 42
20 44 41
21 47 43
20 45 41
20 45 41
21 46 42
20 45 41
20 44 41
20 44 40
20 45 42
20 45 41
20 45 41
21 46 42
20 44 41
21 46 42
20 45 41
20 45 41
21 46 42
20 44 41
20 45 42
20 45 41
21 46 42
20 45 41
20 45 42
20 45 41
21 47 43
20 45 42
21 46 42
21 46 42
21 46 42
21 47 43
21 47 43
20 45 41
21 46 42
20 45 41
21 46 42
21 46 42
21 46 42
21 47 43
20 45 41
21 47 43
21 47 42
20 45 41
21 46 42
21 47 43
21 47 43
21 46 42
21 47 43
21 47 43
21 47 42
21 47 43
21 46 42
21 46 42
20 45 41
21 46 42
22 48 44
21 46 42
21 46 42
21 47 43
21 46 42
21 47 43
21 46 42
21 46 42
21 47 43
21 46 42
21 47 43
21 47 43
22 48 44
21 46 42
21 46 42
22 48 44
22 47 43
21 45 41
22 47 43
21 47 43
22 48 44
21 47 43
21 47 43
21 47 42
22 48 44
22 49 44
22 48 44
22 48 43
21 47 43
22 49 44
22 48 44
21 47 43
22 48 44
22 48 43
22 49 44
22 48 44
22 49 44
22 48 43
22 48 43
22 48 44
21 47 42
21 46 42
22 49 44
22 48 44
21 47 43
22 48 43
21 47 43
23 50 45
22 48 44
23 50 45
23 50 45
22 49 44
22 48 44
21 47 43
22 49 44
22 49 44
21 47 42
20 45 42
20 45 42
20 45 41
20 45 41
20 45 42
20 45 41
20 44 41
21 46 42
20 45 41
21 46 42
20 45 41
20 45 41
20 45 41
20 44 41
21 46 42
20 45 41
20 44 41
20 45 41
20 44 41
21 46 42
21 46 42
20 45 41
20 45 41
20 44 41
20 45 41
20 45 41
20 45 42
21 46 42
21 46 42
20 45 41
21 47 43
20 45 41
21 46 42
21 47 43
21 46 42
20 45 41
20 45 41
21 46 42
21 47 43
20 45 41
21 47 43
21 46 42
20 45 41
21 46 42
21 46 42
21 46 42
21 46 42
21 46 42
21 46 42
22 49 45
21 47 43
21 46 42
21 46 42
21 46 42
21 46 42
21 45 41
20 45 41
21 46 42
21 46 42
21 47 43
21 46 42
21 47 43
22 48 44
21 45 42
21 46 42
22 47 43
21 47 43
21 47 43
21 46 42
21 47 43
21 46 42
21 46 42
21 47 43
21 46 42
21 46 42
21 46 42
21 47 43
21 47 43
21 47 42
21 47 43
21 47 43
22 48 43
21 46 42
22 48 44
22 49 45
21 46 42
21 46 42
22 47 43
22 47 43
22 48 43
21 46 42
21 46 42
21 47 43
22 48 44
22 48 44
21 47 43
21 47 43
22 47 43
21 47 43
21 47 43
21 47 43
22 48 44
22 48 44
21 47 43
21 46 42
22 48 44
22 48 43
21 47 43
22 49 44
22 48 44
22 48 44
22 48 43
22 48 44
22 48 43
22 47 43
22 48 43
22 48 44
22 49 45
22 48 44
22 48 44
20 44 40
20 45 41
20 45 42
20 45 41
20 45 41
20 45 41
20 45 42
20 45 41
20 44 41
21 46 42
20 45 41
21 46 42
20 45 41
21 47 43
21 46 42
20 45 41
20 45 41
20 45 41
21 46 42
20 45 41
20 45 41
20 45 41
21 46 42
21 46 42
20 45 41
21 46 42
20 45 41
21 46 42
21 46 42
21 46 42
21 46 42
21 46 42
21 45 42
21 46 42
21 46 42
21 46 42
20 45 41
21 46 42
21 46 42
21 46 42
21 46 42
20 45 41
21 48 44
21 46 42
21 46 42
20 45 41
20 45 41
21 46 42
21 47 43
21 46 42
21 46 42
20 45 41
21 47 43
21 46 42
21 46 42
21 46 42
21 45 41
21 46 42
21 46 42
21 46 42
20 45 41
21 46 42
21 47 43
21 47 43
21 46 42
21 47 43
21 47 43
21 46 42
20 45 41
22 48 44
21 47 43
21 47 43
21 47 43
22 48 43
21 47 43
21 46 42
21 47 43
21 46 42
21 45 41
21 46 42
21 47 43
21 47 43
21 47 43
22 48 44
22 47 43
21 45 41
21 47 42
22 48 43
21 47 43
22 47 43
21 47 43
21 46 42
22 48 44
22 49 44
22 48 44
22 48 44
22 48 44
22 48 43
22 48 44
21 47 42
22 48 44
22 49 44
22 48 43
22 49 44
22 48 44
22 49 44
22 48 43
21 47 43
21 47 43
22 48 43
22 48 43
22 48 43
22 47 43
21 47 42
21 47 43
22 49 44
22 49 44
22 48 44
22 48 44
22 49 44
21 46 42
21 47 43
20 44 40
20 45 42
20 44 41
21 46 42
21 46 42
20 44 41
20 45 42
20 44 41
20 45 41
20 45 41
20 45 42
20 45 41
21 46 42
20 44 40
21 46 42
20 45 41
20 45 41
20 45 41
21 46 42
20 45 42
21 46 42
20 45 41
20 44 41
21 46 42
21 46 42
21 46 42
21 46 42
21 46 42
21 46 42
21 46 42
21 46 42
20 45 41
21 46 42
20 45 41
20 45 41
20 45 41
20 45 42
21 46 42
21 46 42
21 47 43
20 45 41
20 45 41
21 46 42
20 45 41
20 45 41
21 48 43
21 47 43
21 47 43
21 46 42
21 46 42
21 46 42
21 46 43
21 46 42
20 45 42
22 48 44
21 46 42
21 46 42
21 46 42
20 45 41
21 47 43
21 46 42
21 45 41
21 47 43
21 47 43
21 47 43
21 47 42
21 47 43
21 47 43
21 47 43
21 46 42
21 46 42
21 47 43
21 46 42
21 46 42
21 47 43
21 47 43
21 46 42
21 47 43
21 47 43
22 48 44
22 49 45
22 47 43
21 47 42
21 47 43
21 46 42
21 47 43
21 46 42
21 47 43
22 48 43
22 48 43
22 48 43
21 47 43
22 48 44
21 47 42
21 47 42
22 48 43
21 46 42
22 48 43
21 47 43
22 48 44
21 47 43
21 47 43
22 48 44
21 47 43
22 49 44
22 49 44
22 48 44
22 48 43
21 47 43
22 49 45
22 48 43
22 49 45
22 48 44
22 47 43
22 48 44
22 48 44
22 49 44
22 48 43
20 44 40
20 44 41
20 44 41
20 45 41
20 45 41
21 47 43
20 45 41
20 46 42
21 46 42
21 46 42
20 44 41
20 44 41
20 45 41
20 45 41
20 45 41
21 46 42
21 46 42
21 46 42
20 45 42
21 46 42
21 46 42
21 46 42
20 45 41
21 47 43
21 46 42
20 45 41
21 46 42
20 45 41
21 46 42
20 44 41
21 46 42
21 46 42
21 46 42
21 47 43
20 44 41
21 46 42
21 46 42
21 46 42
21 46 42
21 46 42
21 47 43
21 46 42
20 44 41
21 46 42
21 46 42
21 46 42
21 47 43
21 46 42
21 46 42
21 46 42
21 47 43
20 45 41
21 46 42
21 46 42
20 45 41
21 47 43
21 46 42
21 45 41
20 44 40
21 47 43
21 46 42
21 46 42
21 47 43
21 46 42
21 46 42
21 46 42
21 47 43
21 46 42
21 47 42
21 47 42
21 47 43
21 46 42
21 47 43
21 46 42
21 46 42
21 47 43
22 48 44
21 47 43
22 48 43
21 47 43
22 47 43
21 47 43
21 46 42
21 46 42
22 48 44
22 47 43
21 47 43
21 46 42
20 45 41
22 48 44
21 47 43
22 48 44
21 47 43
22 48 44
21 47 43
21 47 43
21 47 43
21 47 42
22 47 43
22 49 44
22 48 43
21 47 43
22 49 44
21 47 42
22 48 44
21 47 42
22 48 43
22 48 44
22 48 44
21 47 43
22 48 44
22 49 44
22 47 43
22 48 43
21 47 42
22 48 43
22 48 43
23 49 45
22 49 44
22 48 44
20 44 40
20 44 41
20 45 42
20 45 42
20 45 41
21 46 42
20 45 41
20 45 41
21 46 42
20 45 41
21 46 42
20 45 42
20 45 42
20 44 40
20 44 41
21 46 42
20 45 42
20 45 42
21 46 42
20 44 40
20 45 41
20 45 41
20 45 41
20 45 41
21 46 43
20 45 41
20 44 40
20 44 40
20 45 41
21 46 42
20 45 41
21 45 42
20 45 42
20 45 41
21 46 42
20 45 41
21 46 42
21 46 42
20 45 41
21 45 42
21 45 42
21 46 42
21 47 43
21 47 43
20 45 41
20 44 41
21 46 42
21 46 42
21 47 43
20 45 42
21 46 42
21 46 42
21 46 42
21 46 42
21 46 42
21 46 42
21 46 42
21 46 42
21 46 42
21 46 42
21 47 43
21 46 42
22 48 44
21 47 43
21 46 42
21 47 43
21 46 42
21 46 42
21 47 43
21 47 43
21 46 42
21 46 42
21 47 43
21 47 43
21 47 43
21 46 42
22 48 43
21 47 43
21 47 43
21 47 43
22 48 43
21 45 41
21 47 43
21 47 43
21 46 42
22 48 44
21 46 42
21 47 43
21 47 43
21 47 43
22 47 43
21 47 43
21 47 43
22 48 43
22 47 43
21 47 43
22 47 43
22 48 43
22 48 43
21 47 42
22 47 43
21 47 43
21 46 42
22 47 43
21 47 43
22 48 43
21 47 42
22 48 43
22 48 44
21 47 43
22 48 43
21 47 43
22 49 44
22 48 43
22 48 43
22 48 43
21 47 43
22 47 43
22 49 44
22 47 43
20 44 40
20 44 40
20 44 41
20 45 41
20 44 41
21 45 42
20 45 41
20 44 40
20 44 41
21 46 42
20 45 41
20 46 42
20 44 41
20 45 41
21 46 42
21 46 42
21 46 42
21 46 42
20 45 41
21 46 42
20 45 41
21 46 42
21 46 42
20 44 41
21 47 43
21 46 42
21 46 43
20 45 41
21 46 42
20 45 41
20 45 41
21 46 42
20 45 41
20 45 42
20 44 41
21 46 42
21 46 42
20 45 42
20 45 41
20 45 41
20 45 41
20 45 41
21 46 42
21 47 43
20 45 41
21 47 43
20 45 41
21 46 42
21 46 42
21 46 42
21 47 43
20 45 41
21 45 42
20 45 41
21 47 43
20 45 41
20 45 41
21 46 42
20 45 41
21 47 43
21 46 42
21 47 43
21 46 42
21 47 43
21 46 42
22 48 43
21 46 42
21 47 43
21 46 42
21 47 43
21 47 43
21 47 43
21 46 42
21 46 42
21 46 42
22 47 43
22 47 43
21 47 42
21 46 42
21 46 42
22 49 44
21 47 43
21 47 43
21 47 42
22 47 43
22 48 44
21 47 43
21 47 42
21 46 42
21 46 42
21 46 42
21 47 43
21 46 42
21 47 43
21 46 42
21 46 42
21 47 43
21 47 42
21 47 43
22 48 44
22 48 44
22 48 44
21 47 43
22 48 44
22 48 44
21 47 43
22 47 43
22 48 44
21 47 42
21 46 42
22 48 44
22 49 44
22 48 43
22 48 44
22 48 44
21 47 43
22 48 44
21 47 43
22 48 44
22 48 44
20 44 40
20 45 41
20 44 41
21 46 42
20 44 40
20 44 41
20 45 41
21 46 42
20 44 41
20 45 42
20 45 41
20 45 42
21 46 42
20 45 41
21 46 42
20 44 41
20 45 41
20 45 41
20 44 41
20 45 41
20 45 41
20 45 41
20 45 41
20 45 42
20 44 40
20 44 41
21 46 42
20 45 42
20 45 41
21 46 42
21 46 42
21 46 42
21 46 42
21 46 42
21 46 42
20 44 41
20 45 42
21 46 42
21 46 42
21 46 42
21 46 42
21 46 42
20 45 41
20 45 41
20 44 41
21 46 42
21 47 43
21 45 42
21 46 42
21 46 42
21 46 42
21 46 42
21 46 42
21 46 42
21 46 42
21 46 42
21 46 42
21 47 43
21 46 42
21 45 42
21 46 42
21 47 43
20 45 41
21 46 42
21 47 43
21 46 42
21 46 42
21 47 43
21 46 42
21 46 42
21 47 43
21 46 42
21 47 43
21 45 41
21 47 43
21 47 43
21 46 42
21 47 43
21 46 42
22 48 44
21 47 43
21 46 42
21 46 42
22 48 44
21 47 42
21 47 43
21 47 42
22 47 43
21 46 42
21 47 43
21 47 43
22 47 43
21 46 42
22 48 43
22 48 43
21 47 42
22 48 44
21 47 43
21 46 42
21 46 42
21 46 42
21 47 43
21 47 43
21 47 42
22 48 44
22 49 45
22 47 43
22 49 44
22 47 43
22 48 44
22 49 44
22 48 43
21 47 43
21 46 42
21 47 43
21 47 42
22 48 44
22 48 44
22 49 44
22 49 45
20 45 41
20 45 41
19 43 40
20 45 41
20 44 41
20 45 42
20 45 41
21 46 42
20 45 41
20 44 41
21 46 42
20 44 41
21 46 42
21 46 42
21 47 43
20 45 41
20 45 41
20 45 41
20 45 42
20 44 40
20 45 41
20 46 42
21 46 42
21 46 42
20 45 41
21 46 42
20 45 42
20 44 41
20 45 41
21 46 42
21 46 42
21 46 42
20 44 40
20 45 41
21 47 43
21 46 42
21 46 42
20 45 41
21 46 42
21 46 42
21 45 42
20 45 41
21 46 42
21 46 42
21 46 42
20 45 42
21 46 42
21 47 43
21 46 42
20 45 41
21 46 42
21 47 43
21 47 43
20 45 41
20 45 41
21 46 42
21 47 43
21 46 42
21 46 42
21 47 43
21 46 42
21 47 43
21 46 42
21 46 42
21 47 43
21 46 42
21 46 42
21 46 42
21 47 43
21 46 42
21 46 42
21 46 42
21 47 42
22 48 44
21 46 42
21 46 42
20 45 41
21 47 42
21 46 42
22 48 44
21 46 42
21 47 43
21 47 43
22 48 44
21 46 42
21 47 43
21 46 42
22 48 44
21 46 42
21 47 43
22 48 44
22 48 44
21 47 43
21 47 43
21 47 43
21 47 43
22 48 44
22 48 44
22 48 44
21 47 43
22 48 44
21 47 43
21 47 43
21 47 42
22 47 43
22 47 43
21 47 43
21 47 42
22 47 43
21 47 43
22 47 43
21 47 42
22 48 44
22 48 44
22 48 44
22 48 43
22 49 44
22 48 44
22 48 43
22 48 43
21 46 42
20 44 41
20 44 41
20 45 42
20 45 41
20 45 41
21 46 42
20 45 41
20 44 40
20 45 41
20 44 41
20 44 40
21 46 42
21 46 42
20 44 41
21 47 43
21 46 42
20 44 41
20 45 41
21 46 42
20 45 41
20 45 41
20 44 41
21 46 42
20 44 41
20 45 41
20 45 41
20 45 41
20 45 41
21 46 42
20 45 41
21 46 42
20 45 41
21 45 42
20 45 41
20 44 41
21 47 43
20 45 41
21 47 43
21 46 42
21 46 42
21 47 43
21 47 43
21 46 42
21 46 42
21 46 42
21 47 43
21 46 42
21 46 42
21 46 42
21 46 42
21 46 42
21 46 42
21 46 42
21 46 42
21 46 42
21 46 42
21 45 42
21 46 42
21 46 42
21 46 42
21 46 42
21 46 42
21 47 42
21 47 43
21 46 42
21 46 42
21 46 42
21 47 43
21 46 42
21 46 42
20 45 41
21 47 43
22 48 44
21 46 42
21 46 42
21 45 41
21 46 42
22 48 44
21 47 43
22 48 44
21 47 43
22 48 44
21 46 42
21 47 43
21 47 43
21 47 43
21 47 43
22 48 44
21 47 43
21 47 43
22 48 44
21 47 43
22 48 44
21 47 43
21 47 42
21 47 43
21 46 42
22 48 44
21 46 42
22 48 43
22 48 43
21 47 43
21 47 43
21 47 43
22 48 43
22 47 43
21 47 43
22 48 44
21 47 43
22 49 44
21 47 43
21 47 43
22 48 43
22 49 44
22 48 43
22 48 44
22 48 44
22 49 45
21 47 43
20 44 40
19 43 39
20 44 40
20 45 41
20 45 41
20 45 41
20 45 41
20 45 41
20 45 41
20 45 41
21 46 42
21 46 42
20 45 41
20 44 40
20 44 41
21 46 42
21 46 42
21 46 42
20 44 40
20 45 41
21 45 42
21 46 43
21 46 42
20 45 41
20 45 41
21 46 42
21 46 42
20 45 42
20 44 41
20 44 41
21 46 42
21 46 42
21 45 42
21 46 42
21 46 42
20 45 42
20 44 40
21 46 43
20 44 41
21 45 42
21 47 43
20 45 41
21 46 42
20 45 41
21 46 42
20 45 41
20 45 42
21 45 42
21 45 41
21 47 43
21 45 42
21 46 42
21 46 42
21 46 42
20 45 41
20 45 41
21 46 42
21 47 43
21 47 43
21 47 43
21 46 42
21 47 43
21 46 42
21 47 43
20 45 41
21 46 42
21 46 42
21 47 43
20 45 41
21 47 42
21 47 43
21 46 42
22 48 43
21 46 42
21 47 43
21 46 42
21 46 42
22 48 44
21 46 42
22 49 44
22 48 44
21 47 43
21 46 42
22 48 44
22 48 44
21 47 43
21 47 43
21 46 42
21 46 42
21 46 42
22 49 44
22 48 43
22 49 44
21 47 43
22 48 44
21 47 43
21 46 42
21 47 42
21 47 43
22 48 44
21 46 42
21 47 43
22 48 43
21 46 42
22 48 44
21 47 43
22 48 44
22 47 43
22 48 44
22 48 43
22 49 45
22 48 44
21 47 43
22 48 44
21 47 43
22 48 44
21 47 43
21 47 43
21 47 43
22 47 43
20 44 41
20 45 41
20 44 40
20 45 41
20 44 40
20 44 41
20 45 42
20 45 41
20 45 41
21 46 42
21 46 42
20 46 42
20 45 42
20 44 40
21 46 42
20 46 42
21 46 42
20 45 41
21 47 43
21 46 42
21 47 43
21 46 42
20 45 41
21 46 42
20 45 41
21 47 43
20 45 42
20 45 41
21 46 42
21 46 42
20 45 42
20 45 41
20 45 41
20 45 41
20 45 41
21 46 42
21 46 42
20 44 40
21 47 43
21 46 42
20 45 41
21 46 42
21 46 42
21 46 42
20 45 41
21 47 43
21 47 43
20 45 41
21 46 42
20 45 41
21 46 42
21 46 42
21 46 42
21 46 42
20 45 41
21 46 42
21 46 42
20 45 41
21 46 42
21 46 42
21 46 42
21 47 43
21 46 42
21 46 42
21 47 43
21 47 43
21 47 43
22 48 43
21 46 42
21 46 42
21 46 42
21 46 42
21 47 43
21 46 42
21 46 42
21 47 43
21 46 42
21 47 42
21 47 43
21 46 42
21 46 42
21 46 42
21 45 41
21 47 43
21 47 43
21 47 43
21 46 42
21 46 42
21 47 42
21 47 43
22 49 44
22 48 43
21 47 43
21 47 43
21 46 42
21 47 43
21 47 43
21 47 43
21 46 42
22 48 44
21 47 43
21 47 43
22 49 44
21 47 43
22 48 43
22 48 43
21 47 43
22 48 44
22 48 44
22 47 43
21 46 42
21 47 43
21 47 43
22 49 45
22 49 45
21 47 42
22 48 43
22 48 44
22 48 43
21 47 43
20 45 42
19 43 40
20 45 41
20 45 41
20 45 41
21 46 42
20 44 41
21 46 42
20 45 41
20 45 41
21 46 42
21 46 42
20 45 41
20 45 41
20 44 41
20 44 41
20 45 41
20 45 41
20 44 41
21 46 42
19 43 39
20 45 41
20 45 41
20 45 42
20 45 42
20 45 41
20 45 41
20 45 41
20 45 41
20 45 41
21 46 42
21 46 42
21 46 42
20 45 41
21 46 42
21 46 42
20 45 41
21 46 42
20 45 42
20 44 41
20 45 42
20 44 40
21 46 42
21 47 43
21 46 42
21 46 42
21 46 42
20 45 41
21 46 42
21 46 42
21 46 42
20 45 41
21 47 43
21 46 42
20 45 41
21 46 42
22 47 43
21 47 43
21 47 43
21 47 43
21 47 43
20 45 41
21 46 42
21 47 43
21 45 42
21 46 42
21 46 42
21 46 42
21 46 42
21 47 43
22 49 44
21 46 42
20 45 41
21 46 42
21 47 43
21 46 42
20 45 41
21 47 42
21 47 42
21 46 42
21 47 43
22 48 44
22 48 44
21 46 42
21 47 43
21 47 43
21 47 43
21 47 43
21 47 43
22 48 44
21 45 42
21 47 43
21 46 42
21 46 42
21 46 42
21 47 42
21 46 42
21 47 43
21 46 42
21 47 43
22 47 43
22 48 44
21 46 42
21 47 43
22 48 44
21 47 42
21 47 42
22 48 43
22 48 44
21 47 43
21 47 43
21 47 43
21 47 43
21 47 43
21 47 42
22 47 43
21 46 42
22 48 44
21 46 42
22 48 43
20 45 41
20 45 42
20 43 40
20 45 42
20 45 42
20 44 41
20 45 41
21 46 42
21 46 42
21 46 42
20 45 42
20 45 41
20 45 41
21 46 42
21 46 43
21 46 42
21 46 42
21 46 43
20 45 41
20 44 40
20 45 41
21 46 42
20 45 42
21 46 42
20 44 41
21 46 42
20 45 41
21 47 43
21 46 42
21 47 43
19 43 39
21 47 43
20 45 41
21 46 42
20 45 41
20 45 41
21 47 43
21 46 42
21 47 43
21 45 42
21 46 42
20 45 42
21 46 42
21 46 42
20 45 41
20 45 41
20 45 41
21 47 43
21 47 43
21 46 42
21 47 43
21 46 42
21 47 43
20 45 41
21 46 42
21 47 43
21 46 42
21 46 42
21 45 41
21 47 43
21 47 43
20 45 41
21 47 43
21 47 43
21 46 42
21 46 42
21 46 42
21 46 42
21 46 42
21 46 42
21 46 42
21 47 43
21 46 42
21 46 42
21 47 43
21 46 42
21 47 43
21 47 43
21 46 42
22 48 44
21 46 42
21 47 43
21 47 43
22 48 44
21 47 43
21 47 43
21 47 42
21 46 42
21 46 42
21 47 43
21 47 43
21 47 43
21 47 43
22 48 44
22 47 43
21 47 43
21 46 42
21 47 43
21 46 42
21 47 42
21 47 43
22 48 43
22 47 43
21 47 43
21 47 43
22 48 44
23 50 45
22 49 45
21 47 43
21 47 43
22 49 44
22 47 43
22 48 44
22 48 43
21 47 43
21 46 42
22 48 43
21 47 43
22 48 43
21 47 42
20 45 41
20 44 41
21 46 42
20 45 41
20 45 42
20 45 41
20 45 42
20 45 42
21 46 42
20 45 41
20 45 41
21 46 42
20 45 42
20 45 41
20 44 41
21 47 43
20 45 41
20 45 41
21 46 42
20 45 42
20 45 41
21 46 43
20 45 41
21 46 42
21 46 42
20 45 41
21 45 42
21 46 42
21 46 42
20 44 40
20 45 42
21 45 42
21 46 42
21 46 42
20 45 41
20 45 42
20 45 41
20 45 42
20 45 41
21 46 42
21 46 42
20 45 41
20 45 41
21 46 42
21 46 42
21 47 43
20 45 41
21 47 43
20 45 41
20 45 41
21 46 42
21 45 42
21 46 42
21 47 43
21 46 42
21 46 42
21 46 42
21 47 43
21 46 42
21 46 42
22 48 44
21 46 42
21 47 43
21 47 43
20 45 41
21 46 42
21 47 42
21 46 42
21 46 42
20 45 41
21 46 42
21 46 42
22 48 43
21 47 43
21 47 43
21 46 42
21 47 43
22 48 44
20 45 41
21 46 42
21 46 42
21 47 42
21 46 42
21 46 42
21 47 43
21 46 42
22 48 44
21 46 42
21 46 42
22 48 43
22 48 43
21 45 41
21 47 43
20 45 41
22 48 44
22 48 44
20 45 41
21 46 42
22 48 44
21 47 43
21 47 42
22 48 43
22 48 44
21 47 43
21 47 43
22 48 44
22 48 44
22 48 43
21 46 42
22 48 44
22 48 43
22 47 43
21 47 43
21 46 42
21 47 43
21 46 42
22 49 45
22 49 44
22 49 45
22 48 43
20 45 41
20 44 40
19 43 40
20 44 40
20 45 41
20 45 42
21 46 42
21 46 42
20 45 42
20 45 41
20 45 41
20 45 42
20 45 41
20 44 41
20 45 41
21 46 42
21 46 42
20 44 41
20 44 41
20 45 41
20 45 41
20 45 41
20 45 41
20 43 40
20 45 41
21 47 43
20 45 41
20 45 41
21 46 42
20 45 41
20 45 42
21 45 42
21 47 43
20 45 41
20 45 41
20 45 41
21 46 42
20 45 41
21 47 43
21 46 42
20 45 41
20 45 41
20 45 41
20 44 41
20 45 41
21 46 42
21 46 42
21 46 42
21 46 42
21 46 42
21 45 42
21 46 42
21 47 43
21 46 42
20 45 41
21 47 43
21 47 43
21 45 41
21 46 42
21 47 43
21 46 42
21 46 42
20 45 41
21 46 42
21 46 42
21 47 43
21 47 43
21 46 42
20 45 41
21 47 43
21 46 42
21 46 42
21 46 42
21 46 42
20 44 40
21 46 42
21 47 43
20 44 40
21 47 43
21 46 42
20 45 41
21 47 43
21 46 42
21 46 42
21 47 43
21 46 42
22 48 44
21 47 43
21 45 42
22 50 45
21 46 42
21 47 43
21 47 43
21 46 42
21 47 43
21 47 43
21 46 42
22 48 43
22 48 43
21 47 43
21 47 43
20 45 41
22 48 43
22 48 44
21 46 42
21 46 42
21 46 42
21 46 42
22 48 44
22 48 43
22 48 44
21 47 42
21 47 42
21 47 43
22 49 44
21 46 42
22 48 44
21 47 43
22 48 43
21 47 43
20 45 41
20 44 41
20 44 40
20 44 41
20 44 41
20 45 42
21 46 42
21 47 43
21 46 42
20 45 41
20 45 41
20 44 40
20 44 41
20 45 41
20 45 42
20 44 40
20 45 41
20 45 41
20 45 41
20 45 41
21 46 42
21 46 42
20 45 42
20 46 42
20 45 41
20 45 41
21 46 42
20 45 41
21 45 42
21 46 42
21 47 43
20 45 41
21 46 42
21 46 42
21 46 42
20 45 42
21 46 42
20 45 42
21 46 42
20 44 41
20 45 41
21 46 42
21 46 42
21 45 42
20 45 41
20 45 41
21 47 43
20 45 41
21 46 42
20 45 41
21 47 43
21 47 43
21 46 42
21 46 42
21 47 43
21 46 42
21 46 42
21 47 43
20 45 41
21 47 43
20 45 41
20 45 41
21 46 42
21 46 42
21 46 42
21 46 42
21 45 41
20 44 40
21 46 42
21 46 42
21 46 42
20 45 41
21 47 43
20 45 41
21 46 42
21 47 43
21 46 42
21 47 43
21 46 42
21 45 42
21 47 43
21 47 43
21 46 42
21 47 43
21 46 42
21 47 43
21 47 43
21 46 42
21 47 43
22 48 43
21 46 42
21 46 42
22 48 44
21 47 43
22 48 43
21 47 43
22 49 45
22 48 43
22 47 43
21 46 42
21 47 43
21 47 43
22 48 43
22 47 43
22 48 44
22 48 44
21 47 43
22 47 43
21 47 43
21 47 43
21 47 42
21 47 43
21 47 43
21 47 43
22 48 44
22 48 44
21 47 43
21 47 42
22 47 43
21 47 43
21 46 42
21 46 42
20 45 41
20 45 41
20 44 41
20 45 41
20 44 40
20 45 41
20 44 41
20 45 41
21 46 42
20 45 42
20 45 41
20 44 41
20 44 40
20 44 41
20 45 42
21 46 42
21 46 42
20 45 42
20 45 41
20 45 41
20 45 41
20 45 42
20 44 41
19 43 39
21 46 42
21 46 42
21 46 42
21 46 42
20 45 41
20 44 40
21 46 42
21 46 42
20 45 42
20 45 41
21 46 42
20 45 41
21 46 42
21 47 43
20 45 42
20 45 41
21 46 42
20 45 41
21 45 41
21 46 42
21 47 43
20 45 41
22 48 44
22 48 44
21 45 42
21 46 42
21 46 42
20 45 41
20 45 41
21 47 43
21 47 43
21 46 42
21 47 43
21 46 42
21 46 42
20 45 42
21 46 42
20 45 41
21 45 42
21 46 42
21 46 42
21 47 43
21 46 42
21 47 43
21 46 42
21 46 42
21 47 43
21 47 43
22 48 44
21 46 42
21 47 43
21 47 42
21 47 43
21 46 42
21 47 43
21 47 43
21 47 43
21 47 43
21 47 43
21 47 43
21 46 42
21 46 42
21 47 43
22 48 43
21 47 42
22 47 43
21 47 43
22 47 43
20 45 41
21 47 43
21 47 43
22 48 43
21 47 43
21 47 43
22 48 44
22 47 43
22 47 43
22 48 44
21 46 42
22 48 43
22 48 43
22 47 43
21 47 43
22 48 44
21 47 43
22 48 43
22 48 43
22 48 44
22 48 43
22 48 43
21 47 43
22 47 43
22 48 44
21 47 43
20 45 41
21 46 42
20 44 41
21 46 42
20 45 41
20 44 41
20 45 41
20 45 41
20 45 41
20 45 41
20 45 41
20 45 41
20 45 41
19 43 40
20 44 41
21 46 42
21 46 42
21 46 42
20 45 41
21 46 42
20 44 40
21 47 43
20 45 41
20 44 40
20 45 41
21 46 42
21 46 43
21 46 42
21 47 43
20 45 41
20 45 41
21 46 42
20 45 41
20 45 42
20 45 41
20 45 41
21 47 43
21 47 43
20 45 42
20 45 41
21 46 42
21 46 42
20 45 42
21 46 42
20 45 41
21 46 42
21 46 42
20 44 41
21 46 42
21 46 42
21 47 43
21 46 42
21 46 42
21 47 43
20 45 41
20 45 41
21 46 42
21 46 42
21 47 43
21 47 43
21 46 42
20 45 41
21 47 43
21 46 42
21 47 43
21 46 42
21 46 42
21 46 42
21 46 42
21 46 42
21 47 43
20 45 42
21 47 43
21 47 43
21 46 42
21 46 42
21 46 42
21 46 42
21 47 43
21 46 42
22 48 43
21 47 43
21 46 42
21 47 43
21 46 42
21 46 42
21 47 43
21 47 43
22 48 44
21 46 42
21 47 43
21 47 42
21 47 43
22 48 44
21 46 42
22 48 43
21 47 42
21 46 42
21 46 42
21 47 43
22 48 44
22 48 44
21 47 43
21 46 42
21 47 42
22 48 43
21 46 42
21 47 43
21 47 43
22 48 43
21 46 42
21 46 42
21 47 43
21 47 43
21 47 43
22 48 44
21 46 42
21 46 42
21 47 43
22 49 45
20 44 40
20 45 41
20 45 41
21 46 42
20 44 41
20 45 41
20 44 40
20 45 42
21 46 42
20 45 42
20 45 41
20 44 40
21 46 42
20 45 41
21 46 42
19 43 40
21 46 42
20 45 41
20 45 41
20 45 42
20 45 41
20 45 41
20 44 40
20 44 41
20 45 41
21 46 42
20 45 41
21 47 43
20 45 41
21 46 43
20 45 41
21 46 42
20 45 41
21 46 42
20 45 41
21 46 42
20 45 41
20 44 41
21 46 42
20 44 41
20 45 41
21 46 42
20 45 41
21 46 42
20 44 41
21 45 42
21 46 42
21 46 42
21 46 42
21 46 42
20 44 41
20 45 42
21 46 42
21 47 43
21 46 42
20 44 41
21 46 42
20 45 41
20 45 41
21 47 43
21 47 43
21 46 42
21 47 43
21 46 42
21 46 42
21 46 42
21 46 42
21 46 42
21 47 43
21 45 42
21 45 41
20 45 41
21 46 42
21 46 42
21 47 43
21 46 42
21 45 41
21 47 43
21 46 42
21 47 43
21 47 43
21 47 43
20 45 41
21 46 42
21 46 42
21 46 42
21 47 43
22 48 44
22 48 43
21 46 42
21 47 43
22 48 43
22 48 44
21 46 42
21 46 42
21 46 42
21 46 42
21 46 42
22 48 44
23 50 45
22 48 44
21 47 43
21 47 43
21 46 42
22 47 43
22 48 44
21 47 43
21 46 42
21 47 42
21 45 41
21 47 43
22 48 43
21 47 43
21 47 43
21 47 43
21 47 43
22 49 44
21 47 43
21 47 43
21 47 42
20 45 42
21 46 43
21 46 42
21 46 42
20 45 42
20 45 41
21 46 42
20 45 42
20 45 41
20 45 41
20 45 42
20 45 41
20 45 41
20 45 41
21 46 42
20 45 41
20 44 41
20 45 41
20 44 40
20 45 41
21 46 42
20 45 41
20 44 40
21 45 42
21 47 43
20 44 41
20 45 41
21 46 42
20 44 41
21 46 42
20 45 41
20 45 41
20 45 41
20 45 41
20 45 41
20 45 41
21 46 42
21 46 42
21 46 43
20 45 41
20 45 41
20 45 41
20 45 41
20 44 41
21 45 42
21 46 42
21 46 42
20 45 42
21 46 42
20 45 41
21 46 42
21 46 42
21 46 42
21 46 43
20 45 41
21 46 42
20 45 41
21 46 42
21 46 42
21 46 42
21 46 42
21 47 43
21 46 42
21 46 42
21 46 42
21 47 43
21 47 43
21 46 42
21 46 42
21 47 43
21 47 43
21 47 43
22 48 44
21 47 43
21 46 42
21 46 42
21 47 43
21 47 43
21 46 42
21 46 42
20 45 41
21 46 42
21 47 43
21 46 42
21 46 42
21 46 42
21 46 42
21 47 43
21 47 43
21 46 42
21 47 43
21 46 42
21 47 43
21 47 43
22 48 44
21 46 42
21 47 43
21 46 42
21 47 43
21 47 43
21 47 43
21 47 43
22 49 44
21 47 43
22 48 43
21 47 42
21 46 42
21 46 42
22 48 44
22 48 43
21 46 42
21 47 43
22 48 44
22 48 43
21 47 43
21 47 43
22 48 43
22 48 44
21 47 43
21 47 43
20 45 41
20 45 41
20 44 41
20 44 41
21 46 42
20 45 41
20 45 41
20 44 40
20 44 41
21 46 42
20 45 42
20 45 41
20 45 41
20 44 40
20 45 41
20 45 42
21 46 43
20 45 42
20 45 41
21 46 42
20 45 41
20 44 40
20 44 41
20 45 42
20 43 40
20 44 40
20 45 41
20 45 42
20 45 41
21 46 42
21 46 42
21 46 43
21 46 42
20 45 41
20 45 41
20 45 42
21 46 42
20 45 41
21 46 42
21 46 42
21 46 42
20 45 42
20 45 42
20 45 41
21 46 43
20 45 41
20 45 41
21 46 42
20 45 41
20 45 41
21 46 42
21 46 42
21 47 43
20 44 41
21 47 43
21 45 41
20 44 40
20 45 41
21 46 42
21 46 43
20 45 42
21 46 42
21 46 42
20 45 41
20 45 41
22 49 44
21 46 42
20 45 41
22 48 44
21 45 42
21 45 42
21 47 43
21 47 43
21 47 42
21 47 43
21 47 43
21 46 42
21 47 43
21 47 43
20 45 41
21 46 42
21 46 43
20 45 41
21 47 43
21 46 42
21 46 42
21 46 42
21 47 43
21 46 42
21 45 42
22 49 44
21 47 43
21 47 43
22 48 44
22 48 44
21 47 42
21 47 43
21 47 43
21 46 42
21 47 42
21 47 43
22 47 43
21 46 42
21 47 42
21 45 41
22 48 44
21 46 42
21 47 43
22 48 43
21 45 41
21 47 43
21 46 42
22 47 43
22 48 44
21 46 42
22 47 43
22 48 44
22 48 43
21 47 43
22 47 43
19 43 40
20 45 42
20 45 41
20 44 40
20 44 41
20 45 42
20 45 41
20 44 41
21 46 42
20 44 41
20 45 41
21 46 42
21 46 42
20 45 41
20 45 41
20 44 41
20 45 41
20 44 41
20 45 42
20 45 42
20 45 41
20 44 41
20 45 41
20 44 41
20 45 41
20 45 41
20 45 41
20 45 41
20 45 42
21 46 42
20 44 41
20 45 41
20 45 41
21 45 41
21 46 42
20 45 41
20 45 42
20 45 41
20 45 41
21 46 42
20 44 40
21 46 42
22 48 44
21 46 42
21 46 42
21 45 42
20 44 41
21 45 42
20 44 41
21 47 43
20 45 41
21 46 42
21 46 42
20 45 41
20 45 41
21 45 41
21 47 43
21 46 42
21 46 43
21 46 42
21 46 43
21 47 43
21 47 43
21 45 41
21 45 42
21 46 42
21 46 42
20 45 41
21 46 42
20 45 41
21 46 42
21 46 42
20 45 41
21 47 43
20 45 41
21 47 43
20 45 41
21 46 42
20 45 41
21 46 42
21 46 42
21 47 43
21 46 42
21 46 42
21 47 42
21 47 43
21 45 41
21 46 42
21 46 42
20 45 41
21 47 43
21 47 43
21 47 43
21 47 43
21 46 42
21 46 42
21 46 42
21 46 42
21 46 42
21 46 42
21 45 41
21 46 42
21 46 42
21 46 42
21 46 42
21 47 43
21 47 43
21 47 43
22 48 44
21 46 42
21 47 43
21 47 43
21 47 43
21 47 43
22 48 44
21 47 42
22 48 44
22 49 45
22 48 43
21 47 43
20 45 42
20 45 41
20 44 40
20 45 42
20 44 41
20 45 42
20 44 40
20 45 41
21 46 42
21 46 42
20 45 41
21 46 42
20 45 41
20 45 41
20 45 42
21 46 43
20 45 41
20 45 41
20 45 41
20 45 41
20 45 41
20 45 41
21 46 42
21 46 42
20 45 41
20 44 40
20 45 41
20 44 40
20 45 41
20 45 41
20 45 42
21 46 42
20 45 42
20 45 41
21 46 42
20 45 41
20 44 40
20 44 40
20 45 41
20 45 41
21 48 44
21 47 43
20 45 42
20 45 41
20 45 41
20 45 41
20 44 41
21 46 42
21 46 42
20 45 42
20 45 41
21 46 42
20 45 41
21 46 42
21 46 42
20 45 41
20 45 41
21 46 42
20 45 42
21 47 43
21 46 42
21 47 43
20 45 41
21 46 42
20 45 41
20 45 41
21 46 42
21 46 42
21 46 42
21 46 42
21 46 42
20 45 41
21 46 42
21 46 42
21 46 42
21 46 42
21 46 42
21 46 42
21 46 42
21 46 42
21 46 42
21 47 43
21 47 43
21 47 43
21 46 42
21 45 41
21 47 43
21 45 41
21 46 42
21 46 42
21 47 43
22 48 44
21 47 43
22 47 43
21 47 43
21 47 43
21 47 43
22 48 44
21 47 43
21 47 42
21 47 43
21 47 42
21 46 42
21 47 43
22 48 43
21 47 43
21 47 42
21 46 42
21 47 43
21 46 42
22 48 44
21 46 42
21 47 42
21 46 42
22 48 44
21 47 43
22 49 44
21 47 43
22 48 44
21 47 43
20 45 42
20 45 42
20 45 42
20 45 41
20 45 41
20 45 42
20 44 41
20 44 40
20 45 41
20 44 40
20 44 41
21 46 42
20 44 41
20 45 41
20 44 41
20 44 41
20 44 40
20 44 40
21 46 42
21 45 42
20 45 41
21 46 42
20 45 41
20 45 42
21 46 42
21 47 43
20 45 41
21 46 42
21 46 42
20 45 41
20 45 41
20 45 41
20 45 41
20 44 41
20 44 40
20 44 40
21 45 42
20 45 41
21 46 42
20 44 40
21 46 42
21 46 42
21 46 42
20 45 41
21 46 42
21 46 43
21 46 42
21 46 42
20 45 41
20 45 41
20 45 41
21 47 43
21 46 42
20 45 41
21 46 42
20 45 41
21 46 42
20 45 41
21 47 43
21 46 43
21 46 42
21 46 42
21 47 43
21 46 42
21 47 43
21 46 42
20 45 41
21 46 42
21 47 43
21 46 42
20 44 40
21 46 42
21 46 42
22 47 43
21 47 43
21 46 42
21 46 42
21 47 43
21 46 42
21 45 42
21 46 42
21 46 42
21 46 42
20 45 41
21 47 43
21 46 42
21 46 42
21 46 42
21 46 42
21 47 43
22 48 44
21 46 41
21 46 42
21 47 43
21 45 41
21 46 42
21 47 43
21 47 43
21 47 43
21 47 43
22 48 44
20 44 41
21 47 43
21 47 43
21 47 43
21 47 42
22 48 44
21 46 42
21 47 43
21 47 43
21 47 43
22 48 44
21 47 43
21 47 43
21 46 41
21 46 42
22 48 43
22 48 43
22 48 44
22 48 43
20 45 41
20 44 41
20 45 41
20 44 41
20 44 40
20 45 41
20 43 40
20 45 41
21 46 42
20 44 41
21 47 43
20 44 40
20 44 41
20 44 40
20 44 41
20 45 41
20 44 41
20 45 41
20 45 41
20 45 41
21 47 43
20 45 42
20 45 42
21 46 42
20 45 41
20 44 40
20 44 41
20 45 42
20 45 41
21 46 42
20 45 41
21 46 42
21 46 42
20 45 42
21 46 42
20 45 42
20 45 41
21 46 42
21 46 42
21 46 42
20 45 41
21 46 42
20 45 41
20 45 41
21 46 42
20 45 41
20 45 41
21 45 42
20 45 41
20 45 41
20 45 41
20 45 41
21 46 42
21 46 42
21 46 42
20 45 41
21 46 42
21 46 42
20 45 41
21 46 43
21 46 42
22 48 44
20 45 41
20 45 41
21 47 43
21 45 42
20 45 41
20 45 41
21 46 42
21 46 42
21 46 42
21 45 42
21 46 42
21 46 42
21 47 43
20 45 41
21 46 42
21 46 42
21 46 42
21 47 43
21 47 42
21 47 43
21 47 43
21 46 42
22 48 44
21 46 42
21 47 43
21 47 43
20 45 41
21 47 43
21 47 42
21 47 43
20 45 41
21 47 42
21 46 42
21 47 43
21 46 42
21 47 43
21 46 42
21 46 42
21 46 42
21 46 42
21 46 42
21 47 43
22 48 43
21 47 43
21 47 43
21 46 42
21 47 43
21 47 43
22 48 43
21 47 42
21 46 42
21 45 41
21 47 43
22 47 43
22 48 43
21 47 43
21 47 43
21 46 42
21 47 43
20 44 41
21 46 43
20 45 41
20 45 41
20 45 42
20 44 40
19 43 40
20 45 41
20 45 42
21 46 42
21 46 42
20 45 41
20 45 41
20 44 41
20 45 41
20 45 41
21 46 42
20 45 42
20 45 42
20 45 42
20 45 41
20 44 41
20 44 40
21 46 42
20 44 41
21 46 42
21 47 43
20 45 41
21 46 42
20 44 40
20 44 40
21 46 43
21 47 43
20 44 41
20 45 41
21 46 42
20 45 41
21 46 42
21 46 42
20 45 41
21 46 42
20 44 40
20 44 41
21 47 43
20 44 40
20 45 41
20 45 41
20 44 41
21 46 42
21 46 42
21 46 42
21 46 42
21 47 43
20 45 41
21 46 42
21 47 43
21 45 42
21 46 42
21 47 43
21 47 43
21 47 43
21 46 42
20 44 40
21 46 42
21 45 42
21 47 43
21 46 42
20 45 41
21 46 42
21 46 42
20 45 41
21 47 43
21 45 41
21 46 42
21 46 42
21 47 43
21 47 43
22 48 44
21 46 42
21 46 42
20 45 41
21 46 42
21 47 42
21 46 42
21 46 42
21 46 42
21 47 42
21 47 43
20 45 41
21 46 42
21 46 42
21 46 42
21 47 43
21 47 42
21 45 41
21 47 43
21 46 42
21 47 43
20 45 41
21 46 42
21 47 42
21 46 42
22 48 44
21 47 43
21 46 42
21 47 42
21 47 43
21 46 42
22 48 44
21 47 43
21 46 42
21 46 42
21 47 43
21 46 42
21 47 43
21 46 42
21 47 43
21 47 43
21 46 42
20 44 41
20 45 42
20 45 41
20 44 41
20 45 42
21 46 42
21 46 42
20 44 41
20 45 41
20 45 41
20 44 41
20 44 41
21 46 42
21 46 42
20 45 41
20 45 41
20 44 40
21 46 43
20 45 41
20 45 41
20 44 41
21 45 42
20 45 41
20 45 41
20 45 41
20 44 40
20 45 42
20 45 41
21 46 42
20 44 41
20 44 41
20 44 40
21 46 42
20 44 40
21 46 43
20 45 41
21 46 42
21 45 41
20 45 41
20 45 41
21 46 43
21 46 43
20 45 41
20 44 41
21 46 43
20 45 41
20 44 40
21 46 42
20 45 41
21 46 42
21 47 43
21 46 42
21 47 43
21 46 42
21 46 42
20 45 41
21 46 43
21 46 42
21 46 42
21 47 43
20 45 41
21 47 43
20 44 40
21 46 42
21 46 42
21 47 43
21 46 42
21 47 43
21 47 43
20 45 41
21 46 42
20 45 42
20 45 41
21 47 43
21 46 42
20 45 41
20 45 41
21 46 42
21 46 42
22 48 44
21 47 43
22 48 44
20 45 41
20 45 41
21 47 43
21 47 43
21 47 43
22 48 44
20 45 41
21 46 42
21 46 42
22 48 44
21 47 43
21 47 43
22 49 45
21 46 42
21 47 43
21 46 42
21 45 41
22 48 44
21 46 42
21 46 42
22 48 44
21 46 42
21 46 42
21 46 42
21 46 42
21 46 41
21 47 43
21 47 42
21 47 43
22 48 43
21 47 43
21 47 43
21 47 42
21 46 42
21 46 42
22 48 44
21 47 43
21 47 43
19 43 40
20 45 41
20 45 41
20 45 41
20 45 41
20 46 42
20 45 41
20 44 41
20 44 41
21 46 43
20 45 41
20 45 41
20 44 41
20 45 41
20 44 41
20 44 41
21 47 44
21 46 42
20 46 42
20 44 41
21 46 42
21 46 42
20 45 41
20 44 41
20 45 41
21 46 42
20 45 41
21 47 43
20 44 40
20 44 40
21 46 42
20 45 41
20 45 41
20 44 41
21 46 42
21 46 42
21 47 43
21 46 42
20 45 41
21 46 42
21 46 42
20 45 41
21 46 42
21 46 42
20 45 42
20 45 41
21 46 42
21 46 42
21 46 42
21 46 42
20 45 41
20 45 41
20 45 41
21 46 42
21 46 42
21 45 42
21 47 43
20 45 41
21 46 42
21 45 42
20 45 41
20 45 41
20 45 42
20 45 42
20 45 41
21 47 43
21 47 43
21 46 43
20 44 41
20 45 41
21 46 42
21 46 42
20 45 41
20 45 41
21 47 43
21 47 43
21 46 42
21 45 42
21 46 42
21 47 43
20 44 41
21 46 42
21 47 43
21 47 43
21 46 42
21 46 42
22 47 43
21 46 42
21 46 42
21 46 42
21 45 41
20 45 41
21 46 42
21 46 42
21 46 42
21 46 42
21 47 42
21 46 42
21 46 42
21 46 42
22 47 43
21 47 42
21 46 42
21 46 42
22 48 44
21 46 42
20 45 41
21 47 43
22 47 43
21 46 42
22 48 44
21 47 42
22 47 43
21 46 42
21 46 42
21 46 42
21 47 43
21 47 43
22 48 44
21 47 42
20 45 42
20 44 40
20 45 41
21 46 42
20 45 41
21 47 43
20 45 41
20 44 41
20 45 41
21 46 42
20 45 41
20 45 42
20 45 41
20 44 41
21 46 42
20 45 41
20 45 41
20 45 41
20 45 41
21 46 43
20 45 41
20 44 40
20 45 41
20 44 40
21 46 42
20 44 41
20 45 41
20 45 42
20 45 41
20 45 42
20 45 41
21 46 42
21 46 42
20 45 41
20 44 41
20 45 42
20 45 41
20 45 42
21 46 43
20 45 41
20 44 41
21 46 42
21 46 42
20 45 41
21 46 42
20 45 41
21 46 42
20 45 42
21 46 42
20 44 40
20 45 41
21 47 43
21 46 42
20 45 41
20 45 41
21 46 42
20 45 42
20 45 41
21 46 42
21 46 42
20 45 41
20 45 41
21 46 42
20 45 41
21 47 43
21 47 43
21 46 42
21 45 42
21 47 43
21 47 43
21 47 43
21 46 42
20 45 41
21 46 42
22 48 44
21 47 43
21 46 42
21 47 43
22 48 44
21 46 42
21 45 41
21 47 43
21 46 42
21 46 42
21 46 42
21 47 43
21 46 42
21 46 42
20 45 41
21 46 42
21 46 42
21 47 43
21 47 43
21 47 43
21 46 42
20 45 41
20 44 41
21 46 42
21 47 43
21 46 42
21 47 43
21 47 43
21 47 43
21 46 42
21 46 42
21 46 42
21 46 42
21 46 42
21 47 43
21 45 41
22 48 44
22 48 44
21 46 42
21 45 41
21 46 42
21 46 42
22 48 43
21 47 43
22 47 43
21 46 42
20 44 40
20 45 41
20 44 40
20 45 41
20 45 42
20 45 42
20 44 41
21 46 42
21 46 43
20 45 42
21 46 42
20 45 41
20 45 42
20 44 41
20 44 41
20 45 42
20 44 41
21 46 42
21 46 42
20 45 41
20 44 40
20 45 41
20 45 41
21 46 42
20 45 41
20 45 41
20 44 41
20 45 41
20 45 41
21 46 42
20 44 41
21 45 42
21 46 42
21 46 42
20 45 42
20 45 42
21 46 42
20 44 41
20 44 40
20 45 41
21 46 42
20 43 40
20 45 41
20 44 40
21 46 42
20 44 40
20 44 40
21 46 42
21 46 42
21 46 42
20 44 41
21 46 42
20 44 41
21 47 43
20 44 40
20 45 41
21 47 43
20 45 41
20 45 41
21 46 42
21 46 42
21 46 42
21 45 42
20 45 42
21 46 42
21 46 42
21 47 43
21 46 42
21 46 42
20 45 41
20 45 41
21 46 42
20 45 41
21 46 42
21 47 43
20 45 41
20 45 41
20 45 41
21 46 42
21 47 43
21 46 42
21 46 42
21 46 42
21 45 41
21 47 43
22 48 43
21 46 42
21 47 43
21 47 43
22 48 43
20 45 41
21 47 43
21 47 43
21 47 43
21 46 42
21 45 42
21 46 42
21 47 43
21 46 42
21 46 42
21 46 42
20 45 41
21 47 43
21 47 43
21 47 43
21 47 43
21 46 42
21 47 43
21 47 43
21 47 43
21 47 43
22 48 44
22 48 44
21 46 42
21 46 42
21 47 43
21 46 42
22 48 43
20 45 41
21 47 43
19 43 39
20 44 41
20 45 41
21 46 42
20 45 41
20 45 42
21 46 42
21 46 42
21 46 42
20 45 41
20 44 40
20 45 41
20 45 41
20 45 41
20 45 41
20 45 41
20 44 40
20 44 40
21 46 42
20 45 41
20 45 41
20 45 41
21 46 42
20 45 42
20 45 41
20 44 41
20 45 41
21 46 42
20 44 40
21 46 43
20 44 41
20 45 41
20 45 41
20 45 41
20 45 42
20 45 42
21 46 42
21 46 42
21 46 42
21 46 42
21 46 42
21 46 42
21 47 43
20 45 41
20 45 41
22 48 44
21 46 42
20 45 42
21 46 42
20 45 41
20 44 40
20 44 40
20 45 41
21 46 42
20 45 41
20 45 42
21 46 42
21 46 42
20 45 41
21 46 42
20 45 41
20 45 41
21 46 42
21 47 43
21 46 42
21 47 43
21 46 42
21 46 42
21 47 43
20 45 41
20 45 41
21 46 42
21 46 42
20 45 41
21 46 42
22 48 44
21 46 42
20 45 41
20 45 41
20 43 40
20 45 41
20 45 41
21 46 42
21 47 43
21 47 43
21 46 42
21 47 43
20 45 41
21 46 42
21 47 43
21 47 43
21 46 42
21 46 42
20 45 41
20 45 41
21 46 42
21 46 42
21 47 43
20 45 41
21 47 43
21 46 42
21 47 43
21 46 42
21 47 42
21 47 43
22 48 43
21 47 43
21 46 42
21 46 42
21 46 42
21 46 42
21 46 42
20 45 41
21 47 43
21 47 43
22 48 44
21 47 43
22 48 44
21 46 42
21 47 43
21 46 42
19 43 40
20 45 41
20 45 41
21 47 43
21 46 42
20 44 41
21 46 42
20 44 40
21 46 42
20 45 42
20 45 41
20 45 42
20 44 40
20 45 41
20 45 42
20 44 41
20 45 41
20 44 41
20 45 41
21 46 42
20 44 41
20 45 41
20 45 41
21 46 42
21 47 43
20 45 41
21 45 42
20 44 40
20 45 41
21 46 43
20 44 41
21 46 42
20 45 42
20 45 41
21 46 42
21 46 42
21 46 42
20 45 42
21 46 42
20 44 41
21 46 42
20 44 41
21 46 42
21 46 42
21 46 42
20 45 41
20 44 40
20 45 42
21 46 42
21 46 42
21 47 43
21 46 42
21 46 42
21 46 42
21 46 42
20 45 41
21 46 42
21 46 42
20 44 41
21 46 42
20 45 41
21 46 42
21 46 42
20 45 41
20 44 40
21 45 42
21 46 42
21 46 42
21 47 43
20 45 41
21 45 42
20 45 41
21 46 42
21 46 42
20 45 41
21 47 43
21 46 42
21 46 42
20 45 41
21 47 43
21 47 43
20 45 41
21 45 41
21 46 42
21 47 43
21 45 41
21 47 43
22 48 44
20 44 41
21 47 43
21 46 42
21 46 42
21 46 42
20 45 41
21 46 42
21 46 42
21 46 42
21 47 43
21 47 43
21 46 42
21 47 43
20 44 41
21 47 43
21 46 42
21 46 42
21 46 42
21 46 42
21 46 42
21 46 42
21 47 43
21 47 43
20 45 41
21 46 42
21 47 43
21 47 43
22 48 43
21 47 43
21 45 41
21 46 42
