P3
120 80
255
17 39 37
17 40 37
17 39 37
17 39 36
17 40 37
17 39 37
17 39 37
17 40 37
17 39 37
17 38 36
17 38 36
17 39 37
17 39 36
17 39 37
17 39 37
18 40 38
17 39 36
17 39 37
17 40 38
18 40 38
17 39 36
17 40 37
17 39 37
17 39 37
17 39 37
17 39 37
17 39 36
17 39 37
17 39 37
17 38 36
17 39 37
17 39 36
17 40 37
17 39 37
17 40 38
17 39 37
17 39 37
18 40 38
17 39 37
17 39 37
17 40 37
17 39 36
17 39 37
17 39 36
17 38 36
17 38 36
17 39 37
17 39 36
17 39 37
18 40 38
17 39 37
16 38 35
17 39 37
17 40 37
18 41 38
17 39 37
17 39 37
17 38 36
17 39 37
17 39 37
17 40 37
17 40 37
17 39 36
17 40 37
17 39 37
18 40 38
17 39 37
17 40 37
17 38 36
17 39 37
17 40 38
17 38 36
17 40 38
17 39 37
17 39 37
17 38 36
17 38 36
17 39 37
17 39 37
17 39 37
17 38 36
17 39 36
17 39 37
17 39 37
17 40 37
17 40 37
17 39 37
17 39 36
17 39 37
17 39 36
17 39 36
17 39 37
17 38 36
17 38 36
17 39 37
17 39 37
17 39 37
17 39 37
17 39 37
17 39 37
17 39 37
17 39 37
17 39 37
17 39 37
17 40 38
17 39 37
17 39 37
17 39 37
17 39 37
17 39 37
18 40 38
17 40 37
17 39 37
17 39 37
17 39 36
17 39 36
17 39 37
16 38 36
17 40 37
16 38 36
17 39 37
17 39 37
17 39 37
18 40 38
17 39 36
17 39 37
17 39 37
17 39 37
17 39 37
17 40 38
17 39 36
17 40 38
17 40 38
17 39 36
17 39 37
17 39 37
17 39 37
17 40 37
17 39 37
18 40 38
18 40 38
17 39 37
17 39 36
17 38 36
17 39 37
17 39 37
17 39 36
17 38 36
18 40 38
17 38 36
17 39 37
17 39 36
17 39 37
17 39 37
17 39 36
18 40 38
17 39 37
17 39 37
17 39 37
18 40 38
17 39 37
17 39 37
17 38 36
17 40 37
17 39 37
17 39 36
17 39 37
17 39 36
17 39 37
17 39 37
18 40 38
17 39 37
17 40 38
17 38 36
17 39 37
17 40 37
17 39 37
17 39 37
17 39 37
17 38 36
18 40 38
17 40 37
17 40 37
17 39 37
17 39 37
17 40 37
17 39 37
17 39 37
17 39 37
17 38 36
18 40 38
17 39 37
17 40 37
18 40 38
17 40 37
17 40 37
17 39 37
17 39 37
18 40 38
17 39 37
17 40 37
17 39 36
18 40 38
17 38 36
17 39 36
17 39 37
17 39 37
17 39 37
17 40 37
17 39 37
17 40 37
17 39 37
17 40 37
17 39 37
17 39 37
17 39 37
17 39 37
17 39 37
17 39 37
17 39 37
18 40 38
17 40 37
17 39 37
17 39 37
17 39 37
17 39 36
17 40 37
17 39 36
17 40 37
17 39 37
17 39 37
17 40 37
17 38 36
17 40 37
17 39 37
17 40 37
17 39 37
17 39 37
17 40 37
17 39 37
17 39 37
18 40 38
17 39 37
17 40 37
17 39 37
17 39 37
18 40 38
17 39 37
18 40 37
17 39 36
17 39 36
18 40 38
17 39 37
17 40 38
17 40 38
17 40 37
17 39 37
17 39 36
17 39 37
17 39 37
17 39 37
17 39 37
17 39 37
17 39 37
17 39 37
18 40 38
17 40 37
17 40 37
17 39 37
18 40 38
17 40 37
17 38 36
17 39 37
17 39 36
18 40 38
17 40 38
18 40 38
17 39 37
17 38 36
17 39 37
17 40 37
17 40 37
17 39 36
17 39 37
17 39 37
17 39 37
17 40 37
17 39 37
18 40 38
17 40 37
17 39 37
17 39 37
18 40 37
17 39 37
17 40 37
18 40 38
18 40 38
17 39 36
17 39 37
18 40 38
17 40 37
18 40 38
17 40 38
17 40 37
17 40 37
18 40 38
17 40 37
17 39 37
18 40 38
17 39 37
17 40 37
17 39 37
18 41 38
18 40 38
18 40 38
18 40 37
17 39 37
17 39 37
17 40 37
17 39 37
17 40 37
17 39 37
18 40 38
17 40 37
17 39 37
17 40 37
17 40 37
17 39 37
17 39 37
17 39 37
17 39 37
17 39 37
18 40 38
18 40 38
17 39 37
18 40 38
17 40 37
17 40 37
17 39 37
17 39 37
17 40 37
18 40 38
18 41 38
17 40 37
17 40 38
17 40 37
17 40 37
17 39 37
17 39 37
18 40 38
18 40 38
17 39 37
17 39 37
17 39 37
17 39 37
17 39 37
18 40 38
17 39 37
17 39 37
18 41 38
17 40 37
17 39 36
17 39 36
17 40 37
17 39 37
17 39 37
17 40 38
17 40 37
17 40 37
17 39 37
17 39 37
17 39 37
18 40 38
17 39 37
17 40 37
17 39 37
18 40 38
17 39 37
18 40 38
18 40 38
18 41 38
17 39 37
18 40 38
18 40 38
17 40 37
17 39 37
17 39 37
17 40 37
17 39 37
18 40 38
17 39 37
18 40 38
17 39 37
17 40 37
17 39 37
17 40 37
17 40 37
18 40 38
17 40 37
17 39 37
17 40 37
18 40 38
17 40 37
18 40 38
18 40 38
17 39 37
18 40 38
17 39 36
17 38 36
17 39 37
17 40 38
17 40 37
17 39 37
18 40 38
17 39 37
17 39 37
17 40 37
18 40 37
18 40 38
17 40 37
18 40 38
17 39 37
17 40 37
18 40 38
18 40 38
17 40 37
17 39 37
18 40 37
18 40 37
17 40 37
18 40 38
17 40 38
17 40 37
17 40 37
17 40 37
17 40 37
17 39 37
18 40 38
17 39 36
17 39 37
18 40 38
18 40 37
17 40 37
17 39 37
17 39 37
17 40 37
17 40 37
17 39 36
17 39 37
17 39 36
18 40 38
18 40 37
17 40 37
17 38 36
17 39 37
17 39 37
17 39 37
18 41 38
17 39 37
17 39 37
17 39 37
17 39 36
18 40 38
17 39 37
18 40 38
17 39 37
17 39 37
18 40 38
18 40 37
18 40 38
17 39 36
18 40 38
17 39 37
17 40 37
18 41 38
17 39 37
17 39 37
17 39 36
18 40 38
17 39 37
17 39 37
17 40 37
18 41 38
17 39 37
17 39 37
18 41 38
17 40 37
18 40 38
18 40 38
17 39 37
17 40 37
18 40 37
17 40 37
17 38 36
17 39 37
18 40 38
17 40 37
18 41 38
17 39 37
17 40 37
18 40 38
18 41 38
18 40 38
18 41 39
17 40 37
17 40 37
18 40 38
18 41 39
17 39 37
17 40 37
18 40 37
18 40 38
18 40 38
17 40 37
18 40 38
17 39 37
18 40 38
18 40 38
17 40 37
17 39 37
17 39 36
17 39 37
18 41 38
17 39 37
17 39 36
17 39 37
17 40 37
17 39 37
17 40 37
17 40 37
17 39 36
18 41 38
17 40 37
18 40 38
17 39 37
17 39 37
18 40 38
17 39 37
18 40 38
17 39 36
17 40 37
18 40 38
18 40 38
18 40 38
18 40 38
17 39 37
18 41 38
17 39 37
18 40 38
18 40 38
17 40 37
17 39 37
18 40 37
17 39 37
17 40 37
18 40 38
18 41 38
18 40 38
18 41 38
17 40 37
17 40 37
17 40 37
17 40 37
17 40 37
17 39 37
18 40 38
18 40 38
17 40 37
18 40 38
18 40 38
18 40 37
18 40 38
18 40 38
17 40 37
17 39 37
18 40 38
18 40 38
17 40 37
18 40 37
17 40 38
17 39 37
17 40 37
18 40 38
18 40 38
17 40 37
18 40 38
18 40 38
17 40 37
18 40 38
18 40 38
17 40 38
18 40 38
17 40 37
17 38 36
17 39 36
17 39 36
17 39 37
17 39 37
17 39 37
17 40 37
18 40 38
17 40 37
17 40 37
18 40 38
18 40 37
18 41 38
17 39 37
17 40 37
17 39 37
17 40 37
18 40 37
18 40 38
17 39 37
18 40 38
18 40 38
18 40 38
18 41 38
17 40 37
17 39 36
17 39 36
17 39 37
17 39 37
18 40 38
17 39 37
18 40 38
17 39 37
17 39 37
18 40 38
17 40 37
17 40 37
17 40 37
18 40 37
18 40 37
18 41 38
18 40 38
18 40 38
17 40 37
18 40 38
18 40 38
18 40 37
17 39 37
17 40 37
17 39 37
18 40 38
18 41 38
17 40 37
18 41 38
18 41 38
18 40 38
18 40 37
18 41 38
18 40 38
18 40 38
18 40 38
18 40 38
17 39 36
18 40 38
17 39 37
18 41 38
18 40 38
17 40 37
18 41 38
17 40 37
18 40 38
18 40 38
18 40 37
18 40 38
18 41 38
17 39 37
18 40 38
17 39 37
17 39 36
18 40 38
18 41 38
18 40 38
17 39 37
17 39 37
17 39 37
18 40 38
18 40 38
17 39 37
18 41 38
18 40 37
18 40 37
17 40 37
17 39 37
18 40 38
18 41 38
18 41 38
18 41 38
18 40 37
18 40 38
17 40 37
18 40 38
17 39 37
17 39 36
18 41 38
17 39 37
17 40 37
18 40 38
17 40 37
18 40 38
18 41 38
18 40 38
18 41 38
17 40 37
17 40 37
17 39 37
18 40 37
17 39 37
18 40 38
18 40 38
18 40 37
18 40 38
18 40 38
17 40 37
17 39 37
18 40 38
17 40 37
18 40 38
17 40 37
18 40 38
18 41 39
18 40 38
18 40 38
18 40 37
18 40 37
18 40 38
18 40 38
17 39 36
17 39 36
18 41 38
18 40 37
18 40 38
18 41 39
18 40 38
17 40 37
18 40 38
18 40 38
18 40 38
18 40 38
18 40 38
17 39 37
18 42 39
18 41 38
18 41 38
17 40 37
17 39 37
18 40 38
18 41 38
18 40 38
18 40 37
18 40 37
18 41 38
18 40 37
18 40 37
18 40 37
18 40 38
18 41 38
18 40 38
18 40 38
18 40 38
18 40 38
18 40 38
18 40 38
18 40 38
18 40 37
17 40 37
18 40 38
18 40 38
18 40 37
18 40 37
18 40 37
18 40 38
18 40 37
17 40 37
17 39 36
18 40 38
17 39 37
18 41 38
18 40 37
18 40 38
18 41 38
18 40 38
18 40 38
18 40 38
18 41 38
18 40 38
18 40 37
17 40 37
18 40 37
18 41 38
18 41 38
17 39 37
18 40 37
18 40 37
18 40 38
18 41 38
18 41 38
18 41 38
17 40 37
18 41 39
18 40 38
18 40 38
18 40 38
17 40 37
18 40 37
18 41 38
18 41 38
17 40 37
18 40 38
18 40 37
17 39 37
18 40 38
18 40 38
18 41 38
18 40 38
18 40 38
17 40 37
17 40 37
17 39 37
17 39 37
17 39 37
18 40 38
17 39 36
18 41 38
17 40 37
18 40 38
18 40 38
17 40 37
17 40 37
17 40 37
18 40 38
18 40 37
18 40 38
18 40 38
18 41 38
17 40 37
17 39 37
18 40 38
18 41 38
17 39 37
18 41 39
17 40 37
18 40 38
18 40 38
18 41 38
18 40 38
18 40 38
17 39 37
18 40 37
18 40 38
18 40 38
18 40 38
18 40 37
18 41 38
18 40 38
18 40 37
17 39 37
18 41 38
18 40 38
17 39 37
17 39 37
18 40 38
18 41 38
18 41 38
18 41 38
18 41 38
17 40 37
18 40 38
18 41 38
18 41 38
18 41 38
18 40 37
17 39 37
18 40 38
18 40 38
18 40 37
18 40 37
18 41 38
18 41 38
18 41 38
18 40 37
17 40 37
18 41 38
18 40 37
18 40 38
18 40 37
18 41 38
17 39 37
18 41 39
18 40 38
18 40 37
18 41 38
18 40 38
18 40 38
18 41 38
18 41 38
18 40 38
18 40 37
18 41 38
18 40 37
18 41 38
18 40 38
18 40 38
18 41 38
18 40 37
17 40 37
18 40 37
18 41 39
19 42 39
18 41 38
18 40 37
18 40 38
17 39 37
18 40 37
18 40 38
18 41 38
17 40 37
18 40 38
18 41 38
18 40 38
18 40 37
18 41 38
18 40 38
18 40 38
18 40 38
17 40 37
18 41 39
17 39 37
18 41 38
18 40 38
18 41 38
18 41 39
18 40 38
18 40 38
18 40 38
18 41 38
18 40 38
18 40 37
18 40 38
18 41 38
18 41 38
18 40 37
18 41 38
18 41 39
18 40 37
17 39 37
18 41 38
18 40 38
18 41 38
18 40 38
18 41 39
18 41 38
17 40 37
18 41 38
18 41 38
18 40 38
18 40 38
17 39 37
18 40 38
18 41 38
18 40 38
18 41 38
17 40 37
18 40 37
18 41 38
18 41 38
17 39 37
18 41 38
17 39 37
17 40 37
18 40 37
18 40 38
18 40 38
18 41 38
18 40 38
18 41 38
18 41 38
18 41 38
18 40 37
18 40 38
18 41 39
18 41 38
17 39 37
18 40 38
18 40 38
18 40 37
18 40 38
18 40 37
18 40 38
18 41 38
18 40 38
18 41 38
18 40 38
18 41 38
18 40 38
18 40 38
18 41 38
18 41 38
18 40 38
18 41 39
18 41 38
18 41 38
18 40 37
18 41 38
18 41 38
18 40 37
18 42 39
18 40 37
18 41 38
18 41 38
18 40 38
18 41 38
18 40 38
18 40 38
18 41 38
18 40 37
18 41 38
18 40 38
18 41 38
17 39 37
18 41 38
18 42 39
18 41 38
18 40 38
18 40 37
18 41 38
18 40 38
18 41 38
18 41 39
18 41 38
18 40 38
18 40 37
18 41 38
17 40 37
18 42 39
18 42 39
18 40 38
18 40 38
18 40 38
17 40 37
18 40 38
17 40 37
18 40 38
18 40 37
18 41 38
18 40 38
17 40 37
18 41 39
18 41 38
18 40 38
18 40 38
18 40 37
18 40 38
17 40 37
18 40 38
18 40 37
17 40 37
18 40 38
18 40 38
18 41 38
18 40 37
18 40 37
17 40 37
18 40 37
18 41 38
18 40 38
18 40 38
18 41 38
18 40 37
18 40 38
18 41 38
18 40 38
18 41 38
18 40 38
18 40 38
18 41 38
18 40 37
18 41 38
18 40 38
18 40 37
18 41 38
18 41 38
18 41 38
18 41 38
18 40 37
18 41 38
19 42 39
18 41 38
17 39 37
18 41 39
17 40 37
18 41 38
18 40 38
17 39 37
18 41 39
18 40 38
18 40 37
18 40 38
18 41 38
18 41 39
18 41 38
17 39 37
18 40 38
18 41 38
18 40 38
18 41 38
18 41 38
18 40 38
18 41 38
18 41 38
18 41 38
18 40 38
18 40 38
18 40 37
18 40 37
18 42 39
18 40 37
18 41 38
18 40 38
18 40 37
18 40 38
17 39 37
18 40 38
18 41 38
19 42 39
18 41 38
18 42 39
17 39 37
18 40 38
18 40 38
18 40 38
18 40 38
18 41 38
18 40 38
17 40 37
17 39 37
18 41 38
18 40 38
18 40 38
18 40 38
18 41 38
18 41 38
18 41 39
18 40 38
18 41 38
18 41 38
18 41 38
18 41 38
18 41 39
18 40 38
18 40 38
18 41 38
18 41 39
18 41 39
18 41 38
18 40 37
18 41 38
18 41 38
18 41 38
18 40 37
18 41 38
18 40 37
18 40 38
18 40 38
18 40 37
18 40 38
18 41 39
18 40 38
18 41 38
17 39 37
18 40 38
18 41 38
18 40 38
18 41 39
18 41 38
18 40 38
18 40 38
18 40 38
18 41 38
18 41 39
18 40 38
18 41 38
18 40 37
18 40 38
18 40 38
18 40 37
18 40 37
18 41 38
18 40 37
18 41 38
18 41 38
18 41 38
18 40 38
18 40 38
18 40 38
17 39 37
18 41 38
18 40 37
18 40 38
18 41 38
18 41 39
18 41 38
18 41 39
18 41 38
18 40 38
18 42 39
18 41 38
18 40 38
18 42 39
18 40 38
18 40 38
18 41 39
18 41 39
18 41 38
18 41 38
18 41 38
18 41 38
18 41 39
18 40 37
18 41 38
18 41 39
18 40 38
19 42 39
18 40 38
18 40 37
18 41 38
18 40 37
18 40 38
18 40 38
19 42 39
18 41 38
18 41 38
18 40 38
18 41 39
18 41 38
18 40 38
18 42 39
18 41 38
19 42 39
18 41 38
18 41 38
18 41 38
18 41 38
18 41 38
18 41 38
18 41 38
18 41 38
18 41 38
18 42 39
18 41 38
18 41 39
18 41 38
18 42 39
18 42 39
18 41 38
18 41 38
18 41 38
18 41 38
18 41 39
18 40 38
18 40 38
18 41 38
18 42 39
18 41 38
18 41 39
17 40 37
18 41 38
18 40 38
18 41 38
18 41 38
18 41 38
18 40 37
18 41 38
18 41 38
18 41 38
18 42 39
18 40 38
18 40 37
18 40 38
18 40 37
18 41 38
18 40 37
18 40 37
18 41 39
18 41 38
18 40 38
18 41 38
18 41 38
18 41 38
18 40 37
18 40 38
18 42 39
18 41 38
18 40 37
18 41 39
18 41 38
18 41 38
18 41 39
18 40 37
18 41 39
18 41 39
18 40 38
18 41 39
18 41 38
18 41 38
18 40 38
18 41 38
18 41 38
18 41 39
18 41 38
18 41 38
18 40 38
18 40 38
18 42 39
18 40 37
18 41 38
18 41 38
18 41 38
18 40 38
18 42 39
18 41 39
18 40 38
18 41 38
18 41 38
18 41 38
18 41 38
18 40 37
18 42 39
18 40 38
18 41 38
18 40 37
17 40 37
18 40 37
18 41 38
19 42 39
18 41 38
18 41 39
18 41 39
18 41 38
18 41 38
18 40 37
18 40 38
18 41 38
17 40 37
18 41 38
18 41 38
18 42 39
18 41 38
18 41 38
18 40 38
18 42 39
18 41 38
18 41 38
18 41 38
18 41 39
18 41 38
18 41 38
18 41 38
18 41 38
18 41 38
18 40 38
18 41 39
18 41 38
18 40 38
18 41 39
18 42 39
18 41 38
18 40 37
18 42 39
18 41 38
18 41 38
18 41 38
18 41 38
18 41 39
18 41 38
18 41 38
18 41 39
18 42 39
18 41 38
18 41 38
19 42 39
18 41 38
18 41 38
18 41 38
18 41 39
18 42 39
18 41 38
18 41 38
18 41 38
18 41 38
18 41 38
18 41 38
18 40 38
18 41 38
18 40 38
18 41 38
18 41 39
18 41 38
18 41 38
18 40 37
18 41 38
18 41 38
18 41 38
18 41 38
18 41 38
18 41 38
18 40 37
18 40 38
18 40 38
19 42 40
18 40 37
18 42 39
18 41 38
18 40 37
18 41 38
18 41 38
18 40 38
18 40 38
18 41 38
18 41 38
18 41 38
18 41 38
18 42 39
18 41 39
18 41 38
18 41 38
18 40 38
18 41 38
18 41 38
18 41 38
18 41 38
18 40 38
18 40 37
18 41 39
18 42 39
18 41 38
18 41 38
18 42 39
18 42 39
18 40 38
18 41 38
18 41 39
18 40 37
18 41 39
18 41 38
18 41 39
18 41 38
18 41 39
18 41 39
18 41 38
18 40 38
18 41 38
19 42 39
18 40 38
18 41 38
18 41 38
18 41 38
18 41 38
18 41 38
18 41 39
18 41 39
19 42 39
18 41 38
18 41 38
18 40 37
18 41 38
18 41 39
18 41 38
18 41 39
18 41 38
18 42 39
18 42 39
18 41 38
18 42 39
18 42 39
18 41 39
18 41 39
18 42 39
18 42 39
18 41 38
18 41 39
18 41 38
18 40 37
18 41 38
19 42 39
18 41 38
19 42 39
19 42 39
19 42 39
18 41 38
18 41 38
18 41 38
19 42 39
18 41 38
18 41 38
18 41 39
18 42 39
18 40 37
18 41 38
18 41 38
18 40 38
18 41 38
18 41 39
18 41 39
18 41 38
18 40 38
18 41 38
18 42 39
18 41 38
18 40 38
18 41 38
18 41 38
18 41 38
18 41 38
18 41 39
19 42 39
18 40 37
18 41 39
18 41 38
19 42 39
18 40 38
18 41 38
18 40 38
18 41 38
18 41 39
18 41 39
18 40 37
18 40 37
19 42 39
19 42 39
18 41 38
18 42 39
18 42 39
17 39 36
18 41 38
18 41 38
19 42 39
18 40 38
18 41 38
18 41 38
18 42 39
18 40 38
18 41 38
18 41 38
18 41 39
18 42 39
18 41 38
18 41 38
19 42 39
18 41 38
18 42 39
18 41 38
18 40 38
18 40 38
18 41 38
18 42 39
18 41 38
18 41 38
18 41 39
18 41 38
18 41 39
18 41 39
18 42 39
19 42 39
18 41 38
18 42 39
18 42 39
18 41 38
18 41 39
19 42 39
18 41 38
19 42 39
18 41 38
18 41 38
18 41 38
19 42 39
18 42 39
18 41 38
18 40 37
19 42 39
18 42 39
18 41 38
19 42 39
18 40 37
18 40 38
18 41 38
18 41 39
18 41 38
18 41 38
18 42 39
19 42 39
19 42 39
18 41 39
18 40 38
18 41 39
18 41 38
19 42 39
19 42 39
18 41 38
19 42 39
19 42 39
19 42 39
18 41 38
18 41 39
18 41 38
18 41 38
18 41 38
18 41 38
18 41 38
18 40 38
18 40 38
18 41 38
19 43 40
18 42 39
18 40 38
18 41 39
18 42 39
18 41 38
19 42 39
18 40 38
18 41 39
18 41 38
18 41 38
19 42 40
18 41 38
18 42 39
18 41 38
18 41 38
19 42 39
18 42 39
18 41 38
19 42 40
18 41 38
18 41 39
19 42 39
19 42 39
18 41 38
18 41 39
19 42 39
19 42 39
18 41 38
18 41 38
18 41 38
18 41 39
18 41 38
18 41 38
18 41 39
19 42 39
18 41 38
18 41 38
18 42 39
18 41 38
18 41 39
18 41 38
18 41 38
19 42 39
18 41 38
18 41 38
18 41 38
18 41 38
18 41 38
18 41 38
18 41 38
18 41 38
18 41 38
19 42 39
18 41 38
18 41 38
18 41 38
18 41 38
18 41 38
18 41 38
18 40 38
18 41 38
18 41 39
18 40 38
18 41 38
18 40 37
18 41 38
19 42 39
19 42 39
18 41 38
18 41 38
18 42 39
18 41 38
18 42 39
18 41 38
18 40 38
18 41 38
18 41 39
18 42 39
18 42 39
18 41 38
18 42 39
18 42 39
19 42 39
18 41 39
18 41 39
18 41 38
19 42 39
18 42 39
18 41 38
18 42 39
18 41 38
19 42 39
18 41 38
19 42 40
19 42 39
18 41 38
18 42 39
18 42 39
18 41 38
18 41 38
18 42 39
18 42 39
18 41 38
18 41 39
19 43 40
18 41 38
18 41 38
18 41 38
18 42 39
19 42 39
19 42 39
18 41 38
18 42 39
19 43 40
19 42 39
18 41 39
19 42 40
18 42 39
18 42 39
18 41 39
18 41 38
19 42 39
18 40 38
19 42 39
18 42 39
19 42 39
18 42 39
19 42 39
18 42 39
19 42 39
19 42 39
18 40 37
19 42 39
18 41 38
18 41 38
18 42 39
19 42 39
19 42 39
18 42 39
18 40 37
19 42 39
19 44 40
18 42 39
18 42 39
18 42 39
18 42 39
18 42 39
18 41 38
18 41 38
19 42 39
18 41 38
18 42 39
18 41 39
18 41 38
18 41 38
18 41 38
18 41 39
18 40 38
18 41 38
18 40 38
18 41 38
18 41 38
18 40 38
18 40 38
18 41 38
18 41 38
18 41 38
18 42 39
18 41 38
18 41 39
18 42 39
19 42 39
18 42 39
18 41 38
18 41 38
18 40 38
19 43 40
18 41 38
18 41 39
18 41 38
18 41 38
18 41 38
18 41 38
18 41 38
19 42 40
18 41 38
18 42 39
18 42 39
19 42 40
18 42 39
18 41 38
18 41 38
18 41 38
19 42 39
18 41 39
19 42 39
18 41 38
19 42 39
18 41 38
18 42 39
19 42 39
18 41 38
19 42 39
18 41 39
18 41 39
19 42 39
19 42 40
18 42 39
19 42 39
19 42 39
18 42 39
19 42 39
18 40 38
19 42 39
18 42 39
18 42 39
19 42 39
18 41 38
18 41 38
19 42 39
18 41 38
18 41 38
18 42 39
19 42 39
19 42 39
18 41 38
18 42 39
19 42 39
18 42 39
18 41 38
19 42 39
18 41 38
19 42 39
19 42 39
18 41 39
18 41 38
19 42 39
19 42 39
19 42 39
18 41 38
18 41 39
19 42 39
18 41 39
18 41 38
18 41 38
19 42 39
19 42 39
18 41 38
19 42 39
19 42 39
18 41 38
18 41 38
19 42 39
18 41 38
19 42 39
19 42 39
19 42 39
18 41 38
18 42 39
19 43 40
18 41 38
19 42 39
19 42 39
18 41 38
18 41 38
18 41 38
19 42 39
18 41 38
18 41 38
18 40 38
18 41 38
18 41 39
19 42 39
19 42 39
18 41 38
19 42 40
18 41 38
18 41 38
18 42 39
18 41 38
19 42 39
18 41 39
18 41 38
19 42 39
19 42 39
18 41 38
19 42 39
18 41 38
18 41 39
18 41 38
19 42 39
18 41 38
18 41 38
19 42 39
18 42 39
18 42 39
18 41 38
18 41 38
18 41 38
18 41 39
18 42 39
18 40 37
18 42 39
19 42 39
19 42 39
18 41 38
18 41 38
19 43 40
19 42 39
18 41 38
19 42 39
19 42 39
19 42 39
19 42 39
19 42 39
19 42 39
18 41 38
19 42 39
18 41 38
18 41 38
19 42 40
18 41 39
19 43 40
19 43 40
18 41 38
19 42 39
19 42 39
19 42 39
19 42 39
19 42 39
18 41 38
19 42 39
18 41 38
19 42 39
18 42 39
18 41 38
18 41 38
19 43 40
18 41 38
18 42 39
19 42 39
18 41 38
19 43 40
18 41 38
18 41 38
19 42 39
18 41 38
18 41 38
19 43 40
19 42 39
19 43 40
18 42 39
19 42 39
18 40 37
18 41 38
18 41 38
19 42 39
19 42 39
18 41 38
18 41 38
19 43 40
19 42 39
19 43 40
19 43 40
19 42 39
18 41 38
19 42 39
19 42 39
19 42 40
18 41 38
18 41 38
18 42 39
18 40 38
19 42 39
19 43 40
18 41 39
18 41 39
19 42 39
18 41 38
19 42 39
19 42 39
19 42 39
19 42 39
19 42 39
19 42 39
19 42 39
18 41 38
19 42 39
19 42 39
18 42 39
19 42 39
18 41 38
19 42 39
19 42 39
19 42 39
18 41 38
18 41 39
19 42 39
18 42 39
18 42 39
18 41 39
18 41 38
18 41 38
19 42 39
19 42 39
18 40 38
18 42 39
18 41 38
19 42 39
19 42 39
18 42 39
18 41 38
19 42 39
19 42 39
19 43 40
19 42 39
19 42 39
18 41 38
18 41 38
19 42 39
18 42 39
19 43 40
19 42 39
18 41 38
18 41 38
19 42 39
19 42 39
19 42 39
18 42 39
19 43 40
19 42 39
18 41 39
18 42 39
19 42 39
18 42 39
19 42 39
18 41 39
19 42 39
18 41 39
19 42 39
19 42 39
19 43 40
19 43 40
19 42 39
19 42 39
19 43 40
19 43 40
19 42 39
19 42 39
19 42 39
19 42 39
19 42 39
19 43 40
19 43 40
19 42 39
18 42 39
19 42 39
18 41 39
18 42 39
18 42 39
19 43 40
18 41 39
19 42 39
19 42 39
19 43 39
19 42 39
18 41 38
19 42 39
18 41 39
19 42 39
19 42 39
18 41 38
19 42 39
19 42 39
19 42 39
18 42 39
18 41 38
19 42 39
19 42 39
18 42 39
19 42 39
19 42 39
19 42 39
19 42 39
18 41 38
19 42 39
19 42 39
18 41 38
18 42 39
19 43 40
19 43 39
18 42 39
19 43 40
19 42 39
19 42 39
19 42 39
19 42 39
19 42 39
19 42 39
19 42 39
19 42 39
19 43 39
19 42 39
19 42 39
18 42 39
19 42 39
18 41 38
19 43 39
18 42 39
19 42 39
19 42 39
18 42 39
19 42 39
18 41 38
18 41 38
18 42 39
18 41 38
19 42 39
19 42 39
18 42 39
19 42 39
19 42 39
19 42 39
19 42 39
18 42 39
18 41 38
18 41 38
18 41 38
19 42 39
19 42 39
18 41 39
18 41 38
19 42 39
18 41 38
18 41 39
19 42 39
19 43 40
19 42 39
18 41 38
18 41 38
18 41 38
18 41 38
18 41 38
18 41 38
19 42 39
18 42 39
19 42 39
19 42 39
19 42 39
19 42 39
19 42 39
18 42 39
18 41 38
19 42 39
18 41 38
19 42 39
19 42 39
19 42 39
19 43 40
19 42 39
19 43 40
19 42 39
19 42 39
19 42 39
19 43 40
19 43 40
19 42 39
18 41 38
18 41 38
19 42 39
19 43 40
19 43 40
19 43 40
18 42 39
19 43 40
19 43 40
19 42 39
19 42 39
19 43 40
19 43 39
18 41 38
19 42 39
19 42 39
19 42 39
19 42 39
19 42 39
19 42 39
19 42 39
19 43 39
19 42 39
18 41 38
18 42 38
18 41 38
19 42 39
19 43 40
19 42 39
19 43 40
19 42 39
19 43 40
19 42 39
19 43 39
19 42 39
19 42 39
19 43 40
19 42 39
19 42 39
19 42 39
19 43 40
19 42 39
19 42 39
19 43 39
19 42 39
19 43 40
19 42 39
19 43 40
19 43 40
19 42 39
19 42 39
18 41 39
18 41 38
18 41 38
19 42 39
19 42 39
19 42 39
19 42 39
19 43 40
19 42 39
19 42 39
19 44 40
18 42 39
19 42 39
19 43 40
19 42 39
18 41 38
19 42 39
18 42 39
19 42 39
19 42 39
19 43 40
18 41 38
18 42 39
18 41 38
19 42 39
19 42 39
19 43 39
19 42 39
19 43 40
18 41 38
19 42 39
19 42 39
18 41 38
19 42 39
19 42 39
19 42 39
19 42 39
19 42 39
18 41 39
19 42 39
18 41 39
19 42 39
19 42 39
19 43 40
18 42 39
19 43 40
18 41 38
19 42 39
18 41 38
19 43 40
19 42 39
19 43 40
19 43 40
19 42 39
19 42 39
19 42 39
19 42 39
18 41 38
19 42 39
19 42 39
19 43 40
19 42 39
19 42 39
18 41 38
19 42 39
19 42 39
19 43 40
19 42 39
19 42 39
19 43 39
18 42 39
18 41 38
19 42 39
19 42 39
19 42 39
19 43 40
19 42 39
19 43 40
19 42 39
19 43 40
19 42 39
19 43 40
19 42 39
19 42 39
19 42 39
19 42 39
19 42 39
19 42 39
19 42 39
19 42 39
19 42 39
19 42 39
18 41 38
19 42 39
19 43 40
19 43 40
19 43 40
19 42 39
19 43 39
19 43 40
19 43 40
19 42 39
19 42 39
19 42 39
19 43 40
19 42 39
19 42 39
19 42 39
19 42 39
19 43 40
19 42 39
19 43 40
19 42 39
19 42 39
19 43 40
19 42 39
19 42 39
19 42 39
19 43 40
19 43 40
19 42 39
19 42 39
19 42 39
19 42 39
19 43 40
19 43 40
19 43 40
19 42 39
19 42 40
19 43 40
19 43 40
19 43 40
19 42 39
19 44 41
19 43 40
19 42 39
19 42 39
19 42 39
19 42 39
18 41 38
19 43 40
19 42 39
18 41 38
19 43 40
18 41 38
19 42 39
19 42 39
18 41 39
19 43 40
19 42 39
19 42 39
19 43 40
19 44 40
19 43 40
18 41 38
19 42 39
18 41 38
19 42 39
19 42 39
19 43 39
19 42 39
19 42 39
18 41 38
19 42 39
19 42 39
19 42 39
19 42 39
19 42 40
18 42 39
18 41 38
19 43 40
19 42 39
19 43 40
19 43 40
19 42 39
19 42 39
19 44 40
19 42 39
19 43 39
19 42 39
18 41 38
18 41 38
18 41 38
19 42 39
19 43 40
18 41 38
19 43 40
19 42 39
19 42 39
19 42 39
19 42 39
19 42 39
19 42 39
19 42 39
18 42 39
19 43 40
19 43 40
19 43 40
19 43 40
19 42 39
19 42 39
18 41 38
19 43 40
19 43 40
19 42 39
19 42 39
19 43 39
19 43 40
19 43 40
19 43 40
19 44 40
19 43 40
19 43 39
19 42 39
19 43 40
19 42 39
19 43 40
19 43 40
19 42 39
19 42 39
19 42 39
19 43 40
19 42 39
19 43 40
19 42 39
19 42 39
19 43 40
19 42 39
19 43 40
19 43 40
19 43 40
19 43 40
19 43 39
19 42 39
19 43 40
19 42 39
19 43 40
19 42 39
19 43 39
19 42 39
19 42 39
19 43 40
19 42 39
19 43 40
19 42 39
19 42 39
19 43 40
19 43 40
19 43 40
19 43 40
19 42 39
19 42 39
19 42 39
19 42 39
19 42 39
19 43 40
19 43 40
19 43 40
19 43 40
19 43 40
19 43 40
19 43 40
19 42 39
18 42 39
19 43 39
18 42 39
19 42 39
19 43 40
19 43 40
19 43 39
19 43 39
19 42 39
19 43 40
18 41 38
18 42 39
19 43 40
19 43 40
19 42 39
19 42 39
18 41 38
19 42 39
19 42 39
19 42 39
19 42 39
19 42 39
19 42 39
19 43 40
19 42 39
19 42 39
19 42 39
19 43 40
19 42 39
19 42 39
19 42 39
19 42 39
19 42 39
19 43 40
19 43 40
19 43 40
19 44 40
19 42 39
19 44 40
19 43 39
19 43 40
19 42 39
19 43 40
19 42 39
19 43 40
19 43 39
19 43 39
19 42 39
19 43 40
19 43 40
19 43 40
19 43 40
19 43 40
19 43 40
19 42 39
19 43 40
19 43 40
19 42 39
19 43 40
19 43 40
19 43 40
19 43 40
19 42 39
19 42 39
19 43 40
19 43 40
19 43 40
19 42 39
19 42 39
19 42 39
19 43 40
19 43 40
19 43 40
19 43 40
19 42 39
19 42 39
19 43 40
19 43 40
19 43 40
19 44 40
19 42 39
20 44 41
19 43 40
19 42 39
19 43 40
19 43 40
19 43 40
19 42 39
19 43 40
20 44 41
19 43 39
19 42 39
19 42 39
19 43 40
19 42 39
19 42 39
19 42 38
19 42 39
19 42 39
19 43 40
19 43 40
19 43 40
20 44 41
19 42 39
19 42 39
18 42 38
19 43 40
20 45 42
19 42 39
19 44 40
19 42 38
19 42 39
19 42 39
19 42 39
19 42 39
19 43 40
19 42 39
19 43 40
19 43 40
19 42 39
18 41 38
19 43 40
19 43 40
19 42 39
19 42 39
19 43 40
19 42 39
19 44 40
19 42 39
19 42 39
19 42 39
19 43 40
19 43 40
19 43 40
20 44 41
19 42 39
19 43 40
19 43 40
19 43 40
19 42 39
19 43 40
19 43 39
19 43 40
18 42 39
19 42 39
19 42 39
19 42 39
19 42 39
19 43 39
19 43 40
19 43 40
19 43 40
19 43 40
18 41 38
18 41 38
19 42 39
19 42 39
20 44 41
19 42 39
19 42 39
19 43 39
19 42 39
19 44 40
19 43 40
19 43 39
19 43 40
19 43 40
19 43 40
19 43 40
19 42 39
19 43 39
19 44 40
19 43 40
19 44 40
19 43 40
19 42 39
19 42 39
19 43 39
19 43 40
20 44 41
19 43 39
19 43 40
19 43 40
19 43 40
19 43 40
19 43 40
19 43 40
20 44 40
19 42 39
19 43 39
19 43 40
19 43 40
20 44 41
20 44 41
19 43 40
19 43 39
19 43 40
19 43 40
19 43 40
19 42 39
19 43 39
19 42 39
19 42 39
19 43 40
19 42 39
19 43 40
20 44 41
19 43 39
19 43 39
19 43 40
19 43 39
19 42 38
19 43 40
19 41 38
20 44 40
19 42 39
19 43 40
19 42 39
19 42 39
19 42 39
19 42 39
19 43 39
19 43 40
19 43 40
20 44 41
19 43 40
19 42 39
19 43 39
19 43 40
19 43 40
19 42 39
19 43 40
19 43 40
19 42 39
19 43 40
19 42 39
19 42 39
19 43 39
19 43 40
20 44 41
19 43 39
19 42 39
19 43 40
19 43 40
20 44 41
19 43 40
19 43 39
19 43 40
19 42 39
19 42 39
19 43 40
19 43 40
19 43 40
19 42 39
19 43 40
19 42 39
19 43 40
19 42 39
19 43 40
19 43 40
19 42 39
19 42 39
19 42 39
19 43 40
19 43 39
19 43 40
19 43 40
19 42 39
19 43 39
19 43 40
19 43 40
19 43 40
19 43 40
19 44 40
19 43 40
19 43 40
20 44 41
19 43 39
20 44 40
20 44 41
19 42 39
19 43 40
19 43 40
19 43 40
19 43 40
19 43 40
19 43 40
19 43 40
19 44 40
19 43 39
19 42 39
19 42 39
19 43 39
19 43 40
19 43 40
19 42 39
19 43 40
19 42 39
19 42 39
19 43 40
20 44 41
19 42 39
19 43 40
19 44 40
20 44 40
19 42 39
19 43 40
19 43 40
19 43 39
19 42 39
20 44 40
19 42 39
19 43 40
19 43 40
19 43 40
19 43 40
19 43 40
19 43 40
19 43 40
19 43 40
19 43 39
19 43 40
19 42 39
19 43 39
19 42 39
19 44 40
19 43 40
19 43 40
19 42 39
20 44 41
19 42 39
19 43 40
19 43 40
19 43 40
19 43 39
19 43 40
19 43 40
19 43 40
19 42 39
19 43 40
19 42 39
19 43 40
19 43 40
19 43 40
19 43 39
18 41 38
20 44 41
19 43 40
19 42 39
19 43 39
19 43 40
20 44 41
19 43 40
19 42 39
20 44 40
19 43 40
19 43 40
19 42 39
19 43 39
19 43 40
19 43 40
19 43 39
19 43 40
19 43 40
19 43 40
19 42 39
19 43 39
19 43 40
19 42 39
19 42 39
19 43 39
19 43 40
19 43 39
20 44 41
19 42 39
19 43 40
19 42 39
20 44 41
19 43 40
19 43 40
19 43 40
19 42 39
19 42 39
19 44 40
19 43 40
20 44 40
20 44 41
19 42 39
19 43 40
19 43 39
20 44 41
19 43 40
19 43 40
19 43 40
19 42 39
19 42 39
19 43 39
19 43 40
19 42 39
19 43 40
19 43 40
19 43 40
19 42 39
20 44 40
19 42 39
19 42 38
19 44 40
20 44 40
19 43 40
19 43 39
19 43 40
19 43 40
20 44 41
19 43 40
20 44 41
19 43 40
19 42 39
20 44 40
19 44 40
19 43 40
20 44 40
19 44 40
20 44 41
20 44 41
19 43 40
19 43 40
20 44 40
19 43 40
19 42 39
19 43 40
19 44 40
19 43 40
19 44 40
19 43 40
19 44 40
20 44 40
19 43 40
19 43 40
20 44 40
19 43 39
19 43 40
19 43 40
19 43 40
19 43 40
19 43 40
19 43 39
20 44 41
20 45 41
20 44 40
19 43 40
19 43 39
19 43 40
19 43 40
19 43 39
20 44 41
19 43 40
19 43 39
19 42 38
19 43 40
20 44 40
19 43 40
20 44 40
19 42 39
19 43 39
19 43 40
19 43 40
20 44 41
19 42 39
19 43 40
19 43 40
19 43 40
19 43 40
19 44 40
20 44 41
19 44 40
19 43 40
20 44 40
19 43 39
19 43 40
20 44 41
19 42 39
19 42 39
19 42 39
19 44 40
19 42 39
19 43 40
19 43 40
20 44 40
19 43 40
19 42 39
19 43 40
19 43 40
19 43 40
19 43 39
19 42 39
19 43 40
19 42 39
19 42 39
19 43 40
19 42 39
19 43 40
19 43 40
20 44 41
19 43 40
19 43 40
19 43 40
19 42 39
19 43 40
19 43 39
20 44 41
19 43 40
19 43 40
19 43 40
19 43 40
19 43 40
19 43 39
19 43 40
20 44 40
20 44 40
19 43 39
19 43 40
19 43 40
20 44 41
19 43 39
20 44 41
19 44 40
20 44 41
19 43 40
20 44 41
20 44 40
19 43 40
20 45 41
19 43 40
19 43 40
19 43 40
19 44 40
19 43 40
19 43 39
19 43 39
20 44 41
20 44 40
20 44 41
20 44 40
19 43 40
19 43 40
20 45 42
19 44 40
20 44 40
19 43 40
20 44 41
20 44 41
20 44 40
19 43 40
19 43 40
19 43 40
19 43 40
19 43 40
19 43 40
20 45 41
19 43 40
20 44 41
20 44 40
19 43 40
20 44 40
19 42 39
19 43 39
20 44 40
20 45 41
20 44 40
20 44 40
20 44 41
20 45 42
20 44 40
19 43 40
19 43 40
19 43 40
19 43 40
19 43 40
20 44 41
19 43 40
19 43 39
20 44 40
20 44 40
19 43 40
19 43 39
19 43 39
19 43 40
19 43 40
20 44 41
19 43 39
20 45 41
19 43 40
20 44 40
19 42 39
19 42 39
20 44 41
20 44 40
19 43 40
19 43 40
20 44 41
19 43 40
20 44 40
19 43 40
20 44 41
19 43 40
19 43 40
19 42 39
19 43 40
19 43 40
19 43 39
19 43 40
19 43 40
19 42 39
19 43 40
19 43 40
19 43 40
19 42 39
19 42 39
19 42 39
19 43 40
20 44 41
19 42 39
19 43 40
19 43 39
19 43 40
19 43 40
19 43 39
19 43 39
19 43 40
19 44 40
20 44 40
20 44 41
19 42 39
20 44 41
19 43 39
19 43 40
19 43 40
20 44 40
19 43 39
19 43 39
19 44 40
20 44 41
20 44 41
20 44 41
19 43 40
19 43 40
19 43 40
19 43 40
20 44 40
19 43 40
19 42 39
19 43 40
19 43 39
20 44 40
19 43 40
20 44 41
19 43 39
20 44 41
20 44 40
19 43 40
20 44 40
20 44 40
19 43 39
20 44 41
19 43 40
20 44 40
20 44 40
19 43 40
19 43 39
19 43 40
20 44 41
19 43 40
19 44 40
20 45 41
20 44 41
20 44 41
19 43 40
19 43 40
20 44 41
20 44 41
19 43 40
20 44 41
19 43 40
20 44 41
20 44 41
19 43 40
19 43 40
20 44 41
20 44 41
19 43 40
19 43 40
20 45 41
20 44 40
20 44 40
20 44 41
20 44 40
19 43 39
19 43 40
20 44 40
20 44 41
19 43 40
20 44 40
19 42 39
20 44 41
19 43 40
20 44 41
20 44 40
20 44 40
19 43 40
19 43 40
19 43 40
19 42 39
20 44 41
19 43 40
19 43 40
19 43 40
19 44 40
20 44 41
19 44 40
19 43 40
19 43 40
20 44 40
19 43 40
19 43 40
19 43 40
19 43 40
19 42 39
20 44 40
19 43 40
19 43 40
20 44 41
19 43 40
19 43 40
19 44 40
20 44 40
20 44 41
19 43 40
20 44 40
20 44 41
19 43 39
20 44 40
19 43 40
20 44 41
20 44 41
19 44 40
19 43 40
19 43 40
19 43 39
19 43 40
19 44 40
20 44 41
20 44 40
20 44 41
20 44 41
19 43 40
19 43 39
20 44 41
20 44 41
19 43 40
20 44 40
19 44 40
19 43 40
20 44 41
20 44 40
20 44 40
19 44 40
20 44 41
19 43 40
19 43 40
19 43 40
20 44 41
19 43 40
20 45 41
19 43 39
20 44 41
20 45 41
19 43 39
19 43 40
20 44 40
20 44 40
19 43 40
19 43 40
20 44 40
19 43 40
20 44 40
20 44 41
20 44 40
20 45 41
19 43 40
20 44 40
20 44 40
20 44 40
19 43 40
19 43 40
19 43 40
20 45 42
20 45 41
19 42 39
20 44 40
20 44 40
19 43 40
19 43 40
19 43 40
19 43 40
20 44 41
20 44 40
20 44 41
20 44 41
20 44 40
20 44 40
19 43 40
20 44 41
19 43 40
20 44 41
19 43 40
20 44 41
20 44 40
20 44 41
20 44 41
19 43 40
19 43 40
20 44 41
20 44 41
20 44 40
19 43 40
19 43 40
20 44 40
19 43 40
19 43 40
19 43 40
20 44 41
20 44 40
19 43 40
19 43 40
20 44 41
20 45 42
20 44 40
20 44 40
19 43 40
19 43 40
20 44 40
19 43 40
20 44 41
20 44 41
19 43 40
19 42 39
19 42 39
20 44 41
19 43 40
19 43 40
19 43 40
19 43 39
20 44 41
19 43 40
20 44 40
19 43 40
19 43 40
19 42 39
20 44 41
19 43 39
20 44 41
20 44 40
19 42 39
20 45 41
19 42 39
19 43 40
20 44 41
19 42 39
20 44 41
20 44 40
20 44 41
19 43 40
19 43 40
19 43 40
20 44 41
20 44 41
20 45 41
19 43 40
20 44 41
20 44 40
20 44 40
19 43 40
19 43 40
20 44 40
19 43 40
20 44 40
20 44 41
19 42 39
20 44 41
20 44 40
19 43 40
20 45 41
20 44 41
20 44 41
20 44 41
20 44 41
20 44 40
19 43 40
20 45 41
20 45 41
19 43 40
20 44 40
20 44 41
20 44 41
20 44 41
20 44 41
19 44 40
20 44 41
20 44 40
20 44 41
20 44 40
20 45 41
20 45 41
20 44 41
20 45 41
20 44 41
20 44 41
20 44 41
19 43 39
20 45 41
20 44 40
20 44 41
19 43 39
20 45 41
20 44 40
19 43 40
19 43 40
19 43 40
20 45 41
19 43 40
19 43 40
20 44 40
20 44 41
20 44 40
20 44 40
20 44 40
20 45 42
20 44 41
20 44 41
20 44 40
20 43 40
19 43 40
20 44 40
20 44 41
20 44 41
19 43 40
20 44 41
20 44 40
20 44 40
20 44 41
20 44 41
20 44 41
20 45 41
19 43 40
20 44 41
20 44 40
20 45 41
20 44 41
20 44 40
19 43 40
19 44 40
20 44 40
19 43 40
20 44 40
19 43 40
20 44 40
19 44 40
19 43 40
20 44 40
20 45 41
19 43 39
20 44 40
20 44 40
19 43 40
20 44 41
19 43 40
19 43 39
20 44 41
20 45 42
20 44 41
19 43 39
20 44 41
20 44 40
20 44 41
19 43 40
20 44 40
19 43 40
20 44 40
20 44 41
20 44 41
19 43 40
20 44 40
20 44 40
19 43 40
20 44 40
20 44 41
20 44 41
19 43 40
19 42 39
20 44 40
19 43 40
20 44 40
19 43 40
20 44 40
20 44 41
19 43 40
19 43 40
20 44 41
19 43 40
20 44 40
19 43 40
20 44 41
20 44 41
20 45 41
20 44 41
19 43 40
20 44 41
19 43 39
19 42 39
20 44 40
20 44 40
20 45 41
20 44 40
20 44 40
20 44 41
20 44 41
20 45 41
20 44 40
20 44 40
19 43 40
20 45 42
20 44 41
19 43 40
20 45 41
20 45 41
20 45 41
20 44 41
20 44 40
20 44 40
20 45 42
20 44 40
20 44 41
19 43 39
20 45 41
20 44 40
20 44 41
20 44 40
19 43 40
20 44 41
20 44 40
20 45 41
20 45 41
20 45 41
20 44 41
20 44 41
20 45 42
20 44 40
20 45 41
20 44 40
20 44 41
20 44 40
20 44 41
20 44 41
20 45 41
20 45 41
19 43 40
20 45 41
20 44 40
19 43 40
19 43 40
20 44 41
20 45 41
20 45 42
20 44 40
19 43 40
20 44 41
20 44 40
19 43 39
20 44 41
19 43 40
20 45 41
20 44 41
19 43 39
20 44 41
19 43 39
20 44 40
20 44 41
20 44 40
20 45 41
20 44 41
20 44 40
20 45 41
20 44 40
19 43 40
19 43 40
20 44 41
20 44 41
19 43 40
19 43 39
20 44 41
20 45 41
20 44 41
19 43 40
20 44 41
19 43 40
20 44 40
20 44 41
19 43 39
20 45 41
19 43 40
19 43 40
20 44 40
20 44 41
20 44 41
20 44 40
20 44 40
20 44 41
19 43 40
20 44 41
20 44 40
19 43 40
19 43 40
20 45 41
20 44 41
19 43 40
20 44 40
20 44 41
19 43 40
20 44 41
20 44 41
20 44 41
20 45 41
20 44 41
19 43 40
20 44 40
19 43 40
20 44 41
20 45 41
20 45 42
21 46 42
19 43 40
21 46 42
20 44 41
20 44 40
20 44 41
20 45 41
20 44 41
20 44 41
20 44 40
20 44 40
20 45 41
20 45 41
20 44 41
20 45 41
20 45 42
20 44 41
20 45 41
20 44 40
19 43 40
20 44 41
20 44 41
20 44 40
20 44 40
20 44 41
20 44 40
20 44 41
20 45 41
20 44 41
20 44 41
20 45 41
20 45 41
20 44 41
19 43 40
20 44 41
20 44 41
19 43 40
20 44 41
20 44 40
21 46 42
20 45 42
20 45 41
20 44 41
20 45 41
19 43 39
20 44 41
20 44 41
20 44 40
20 44 41
20 44 40
19 42 39
20 44 41
20 45 41
20 45 41
19 43 40
20 44 40
20 45 42
20 45 41
19 43 40
20 45 41
19 43 40
20 44 41
20 44 40
20 45 41
20 43 40
20 44 40
20 44 41
20 44 40
20 44 41
20 44 40
20 44 41
20 44 40
19 43 40
20 44 40
19 43 40
20 44 40
20 44 40
20 44 40
20 44 40
19 43 40
19 43 40
19 43 40
20 44 40
19 43 40
19 43 40
20 44 41
20 45 41
20 44 40
19 43 40
20 45 41
20 44 40
20 44 40
20 44 41
20 44 41
19 43 40
19 43 39
20 44 41
20 44 41
20 44 41
20 44 41
19 43 40
20 44 40
20 44 40
20 44 41
20 45 41
20 44 40
20 45 41
20 45 41
20 44 41
20 45 42
20 44 41
20 44 40
20 44 40
19 43 40
20 44 40
20 44 40
20 44 40
20 45 41
20 44 41
20 45 41
20 44 40
20 45 41
20 44 41
20 44 41
20 44 40
20 44 40
20 45 41
20 44 40
20 44 40
20 44 41
20 44 41
20 44 40
20 44 41
19 43 40
20 44 41
21 46 42
20 44 41
20 45 42
20 45 41
20 44 40
20 44 40
20 44 41
20 45 41
20 45 42
20 44 41
20 44 40
20 44 40
20 45 41
20 44 40
20 45 41
20 44 40
20 44 40
20 46 42
20 45 41
20 44 40
20 44 41
19 43 40
20 45 41
20 44 40
20 44 40
20 45 41
20 45 42
20 44 41
20 45 41
20 45 41
20 45 41
20 44 41
20 45 41
20 44 40
20 45 42
20 44 41
20 45 41
20 45 41
20 45 41
20 44 41
19 43 40
20 44 40
20 45 41
20 44 41
19 43 40
20 44 40
21 46 42
20 44 40
19 43 40
19 43 40
20 44 40
19 43 39
20 44 41
20 45 41
20 45 41
20 44 41
20 44 41
20 45 41
20 45 41
20 45 41
20 44 41
20 45 41
19 42 39
20 44 41
20 44 41
20 45 41
20 44 41
20 44 41
20 44 41
19 43 40
20 44 41
20 44 41
20 45 41
20 44 41
19 43 40
20 45 41
20 45 41
20 44 40
20 45 41
20 45 41
19 43 39
20 44 40
20 45 41
20 44 40
20 45 42
20 44 40
20 44 41
20 45 41
20 44 41
20 45 41
20 43 40
20 44 40
20 45 42
19 43 40
20 45 41
20 45 41
20 44 40
20 44 40
20 45 42
19 43 40
20 44 40
20 44 40
20 44 40
20 44 40
20 44 41
20 44 40
20 45 42
20 45 42
20 44 41
20 46 42
20 44 41
21 46 42
20 45 41
20 44 41
20 45 41
20 45 41
20 45 41
20 44 41
21 46 42
20 44 41
20 44 40
20 45 41
20 45 41
20 45 41
20 44 40
19 43 40
20 44 41
20 44 40
20 45 42
21 46 42
20 44 41
20 46 42
20 45 41
20 44 41
20 45 41
20 44 41
21 46 42
20 44 41
20 45 41
20 44 40
20 44 40
20 45 41
20 45 41
20 45 41
20 44 41
20 44 40
20 44 40
20 45 41
21 46 43
20 44 41
20 46 42
20 44 41
20 45 42
20 44 40
20 45 41
20 44 40
20 45 41
20 45 41
20 45 41
20 45 41
20 44 40
20 45 41
19 43 40
20 45 41
20 45 41
20 44 41
20 44 41
20 45 41
20 44 41
20 45 41
20 44 40
20 44 40
20 45 41
20 44 40
21 46 42
20 44 41
19 43 40
20 45 42
20 44 41
20 45 41
20 45 41
20 45 41
19 43 40
20 44 40
20 44 40
20 44 40
20 45 41
20 44 41
20 44 41
20 44 41
19 43 40
20 44 41
20 45 42
19 43 40
20 43 40
20 45 41
20 44 40
20 45 42
20 44 41
20 45 41
20 44 41
20 44 41
20 45 41
20 45 41
20 44 40
20 44 41
21 46 43
20 45 42
20 45 42
20 45 41
20 45 41
20 45 41
20 44 41
20 44 41
20 44 40
20 44 41
20 44 40
20 44 41
20 44 41
20 45 41
20 44 40
20 44 41
21 46 42
20 44 41
19 43 40
20 45 42
20 45 41
20 44 41
20 45 42
20 44 41
20 45 41
20 44 40
20 45 41
20 44 41
20 44 41
20 45 41
20 45 41
20 45 41
20 45 41
20 45 41
20 43 40
20 45 41
20 45 41
20 45 41
20 45 42
20 45 41
20 44 41
21 46 42
20 44 41
20 45 41
20 45 41
20 44 41
20 44 41
20 45 41
20 44 41
20 45 42
20 44 41
21 46 42
20 45 41
20 45 42
20 45 41
20 45 41
20 45 42
20 44 40
20 45 41
20 45 42
20 44 40
20 45 41
20 45 42
20 44 40
20 44 41
20 45 41
20 44 40
20 43 40
20 45 41
20 45 41
20 44 41
20 45 42
20 44 41
20 45 41
20 45 41
20 44 40
20 44 40
20 44 41
21 46 43
20 45 41
20 44 41
20 44 41
20 44 41
20 45 41
20 45 42
20 44 40
20 45 41
20 45 42
20 44 41
20 44 41
20 44 41
20 44 40
20 45 41
20 45 41
20 45 42
21 46 42
20 45 42
20 44 40
20 45 41
20 44 40
20 45 41
20 45 42
20 45 41
21 46 43
20 45 41
20 45 42
19 43 40
20 45 41
20 44 40
20 44 40
20 44 41
20 44 41
20 44 41
20 45 41
20 45 41
20 45 41
20 45 42
20 45 41
19 43 39
20 45 41
20 44 41
20 44 40
20 45 41
21 46 42
20 45 41
20 44 41
20 45 41
20 45 41
20 45 41
20 44 40
20 45 41
20 44 41
20 44 41
21 46 42
20 45 42
20 44 41
20 45 41
20 45 41
20 45 41
20 45 41
20 45 42
20 45 41
20 45 41
21 46 42
20 45 41
20 45 42
20 45 42
20 44 40
20 45 41
21 46 42
20 45 41
20 44 41
21 46 43
20 45 41
20 44 40
20 45 41
20 44 41
20 44 40
20 45 41
20 45 41
20 45 42
20 45 41
20 45 41
20 45 41
20 45 41
20 45 41
21 46 42
20 44 41
20 45 41
21 46 42
20 44 41
20 44 41
20 44 40
20 45 41
20 45 42
20 44 41
20 45 41
20 45 41
20 44 40
20 45 41
20 45 41
20 44 41
20 44 40
20 44 41
20 45 41
20 45 41
20 45 41
20 45 42
20 45 41
20 45 42
20 45 41
20 44 40
20 45 41
20 45 42
21 46 42
20 45 42
20 44 40
20 45 42
20 44 41
20 44 41
20 45 41
20 45 41
20 45 41
20 45 42
21 46 42
20 44 40
20 44 41
20 45 41
20 45 41
20 45 41
21 46 42
21 46 42
20 46 42
20 45 41
20 44 40
21 46 42
20 45 41
20 45 41
20 44 41
20 45 41
20 45 41
20 44 41
20 44 41
19 43 40
20 44 41
20 45 41
21 46 42
20 44 41
20 44 41
20 44 40
20 45 41
20 45 41
20 45 41
20 45 42
20 45 41
20 44 41
20 45 42
20 45 41
20 45 41
20 45 41
20 44 41
20 44 41
20 44 41
20 45 41
20 44 40
20 44 41
20 45 42
20 45 42
19 43 40
20 45 41
20 44 40
20 44 41
21 46 42
20 45 41
20 45 41
20 45 41
20 45 41
20 45 41
20 45 41
20 45 42
20 45 42
20 45 41
20 45 41
21 46 42
20 45 41
20 45 41
20 45 41
20 44 41
21 46 42
20 45 41
20 44 41
21 46 42
20 45 42
20 44 41
20 45 42
21 46 42
20 45 41
20 45 41
20 45 41
20 44 41
20 45 41
20 44 41
21 46 42
20 44 40
21 46 42
20 45 41
20 45 41
20 45 41
20 45 42
20 45 41
20 45 42
20 44 41
20 44 41
21 46 42
20 44 40
20 45 41
20 44 41
20 44 40
21 46 43
20 45 41
20 45 41
20 44 41
20 45 41
21 46 42
20 44 40
20 44 40
20 45 41
20 45 41
20 45 42
21 46 42
20 45 41
20 45 41
21 46 42
20 44 41
20 45 41
20 45 41
20 45 41
20 45 41
20 45 42
20 44 40
20 45 41
20 45 41
20 45 41
20 45 42
20 45 41
20 44 40
20 45 41
20 45 41
20 45 41
20 45 41
19 43 40
20 44 40
20 45 41
20 45 41
20 44 41
20 44 40
20 45 41
21 46 42
20 45 41
20 45 41
20 44 40
20 45 41
20 45 41
20 45 41
20 44 40
20 45 42
20 45 41
20 44 41
20 44 41
20 44 41
20 44 41
20 45 41
20 45 41
20 44 41
20 45 42
20 44 41
20 45 41
20 45 41
21 46 42
20 46 42
20 44 41
20 45 41
20 46 42
20 45 41
20 44 41
20 44 41
20 45 41
20 45 41
21 46 42
20 45 41
20 44 40
21 46 42
20 44 41
20 45 42
20 45 41
20 45 41
20 44 40
20 45 41
20 45 41
21 45 42
20 45 41
21 47 43
20 44 41
21 45 42
20 45 41
21 46 42
20 44 41
20 45 41
21 47 43
20 45 41
20 45 41
21 46 42
20 45 42
21 46 42
21 46 42
21 46 42
20 45 41
20 45 41
20 44 41
20 44 40
20 44 40
21 46 42
20 45 41
20 45 41
20 45 41
20 44 41
20 45 41
20 45 41
20 45 41
21 47 43
20 44 40
20 45 41
21 46 42
20 45 41
21 46 42
20 45 42
20 45 41
20 45 42
21 46 42
20 45 41
21 47 43
20 44 40
20 45 41
20 44 41
20 45 41
21 46 42
20 45 41
20 45 41
21 46 42
21 46 42
20 45 42
20 45 42
20 45 41
20 44 41
21 46 42
20 45 41
20 45 42
21 45 42
21 46 42
20 44 41
21 46 42
21 46 42
20 45 41
21 46 42
20 44 41
21 46 42
21 46 42
20 45 41
20 46 42
20 45 41
19 43 40
20 45 41
20 45 42
20 45 42
20 45 41
20 45 41
20 44 41
21 46 42
21 46 43
20 45 42
20 44 41
20 45 42
20 45 42
20 44 40
20 44 41
20 45 41
21 46 42
21 46 42
20 45 41
20 44 40
20 44 40
20 45 41
20 45 41
21 46 42
20 45 41
20 45 41
20 45 41
20 45 42
20 45 41
20 44 40
21 46 42
20 45 41
21 46 42
20 45 42
20 45 41
20 45 41
20 45 41
21 47 43
21 46 42
20 45 41
21 45 42
20 45 42
20 45 41
21 46 42
21 46 42
20 45 41
20 45 41
20 45 41
21 46 42
20 44 41
20 45 41
20 45 42
20 44 41
20 44 41
20 45 41
20 45 41
20 45 41
20 45 41
20 45 41
20 45 42
20 44 40
20 45 41
20 45 42
20 44 40
20 45 41
21 46 42
20 45 41
20 45 41
20 45 42
20 45 42
21 46 42
21 47 43
20 44 41
20 45 42
20 44 41
20 45 41
20 45 41
20 45 41
20 45 41
20 45 41
21 46 42
21 46 42
20 44 41
21 46 42
20 45 41
20 45 41
21 46 42
21 46 42
21 46 42
21 47 43
21 46 42
21 46 42
20 45 41
20 45 41
20 45 41
20 44 41
20 45 41
20 45 41
21 46 42
20 44 41
20 45 41
21 45 42
20 44 41
20 45 41
20 45 41
20 45 42
21 46 42
20 46 42
21 46 42
20 45 41
20 44 41
21 46 42
21 46 42
20 45 41
20 45 41
20 45 42
21 46 42
20 45 41
20 45 41
20 45 41
20 45 41
20 45 41
20 45 41
20 45 41
20 45 41
20 45 41
20 44 41
20 45 41
20 45 41
20 44 40
20 44 41
21 47 43
20 44 40
20 45 42
20 45 41
20 44 40
21 46 42
21 46 42
20 44 40
20 44 41
21 47 43
20 45 41
20 45 41
20 45 41
20 45 42
21 46 42
21 46 42
20 45 41
20 45 41
20 44 41
20 45 41
20 45 41
20 45 41
20 45 42
20 45 41
21 46 42
21 46 42
21 46 42
20 45 41
21 46 42
20 45 41
21 45 42
21 46 42
21 46 42
20 45 41
20 45 41
20 45 41
20 45 41
20 44 40
21 46 42
21 46 42
21 46 42
20 45 41
20 45 42
21 47 43
20 45 41
21 46 42
20 45 41
21 46 42
21 46 42
21 45 42
21 46 42
21 46 42
21 46 42
20 45 41
21 46 42
20 45 41
21 46 42
21 46 42
20 45 42
21 46 42
20 45 41
20 45 41
20 45 41
20 45 41
19 43 40
20 45 42
21 47 43
21 46 42
21 45 42
21 46 42
21 46 42
21 46 42
20 44 40
21 46 42
21 46 42
21 46 42
21 46 42
21 46 42
20 45 41
20 45 42
20 45 42
21 46 42
21 47 43
20 45 41
20 45 42
20 45 41
21 46 42
21 46 43
21 46 42
21 46 42
20 45 42
20 45 41
21 47 43
20 45 42
21 46 42
21 45 42
20 45 41
20 45 41
20 45 41
21 46 42
20 45 41
21 45 42
20 45 41
21 46 42
20 44 41
21 46 42
21 46 42
20 45 41
20 44 41
21 46 42
21 46 42
20 45 42
20 45 42
20 45 41
21 46 42
20 45 41
20 45 41
20 44 40
20 45 42
21 46 42
20 44 40
20 45 41
21 46 43
20 45 41
20 45 41
20 45 41
21 46 42
21 46 42
21 46 42
20 45 41
20 45 42
20 45 41
20 45 41
21 46 42
20 45 42
20 45 41
20 44 41
20 45 42
20 45 42
20 45 42
21 46 42
21 46 42
20 45 41
21 46 42
20 45 41
21 46 42
21 46 42
20 45 41
20 45 41
20 45 41
21 46 42
20 45 41
20 44 40
21 46 42
20 45 41
21 46 42
20 45 41
21 47 43
21 45 42
20 45 41
21 46 42
21 46 42
20 45 42
21 46 42
21 46 42
20 45 42
20 45 41
21 46 42
21 47 43
20 45 41
21 46 42
20 45 41
21 46 42
21 46 42
21 46 42
21 46 42
21 46 42
21 46 42
20 45 41
21 47 43
20 44 41
21 46 42
20 45 42
21 46 42
21 46 42
21 47 43
20 45 42
21 46 42
21 46 42
21 46 42
20 44 40
21 46 42
21 46 42
20 45 41
21 46 42
20 45 41
20 45 41
21 46 42
21 46 43
20 45 41
21 45 42
21 46 42
21 46 42
21 46 42
21 46 42
21 46 42
20 45 41
20 45 41
21 46 43
20 45 41
20 45 41
21 46 42
20 45 42
21 46 42
21 46 42
21 46 42
20 45 41
21 46 42
21 46 42
21 46 42
21 46 42
20 45 41
20 45 42
20 45 41
20 44 40
20 45 42
21 46 42
20 45 41
21 46 42
20 45 41
21 46 42
20 46 42
20 45 42
21 46 42
20 45 41
20 45 41
20 45 41
21 46 42
20 45 41
20 45 41
20 45 41
21 46 42
20 45 42
20 45 41
20 45 41
20 45 41
20 45 41
20 45 41
20 45 41
20 45 41
21 46 42
21 46 42
21 47 43
20 45 41
20 45 41
21 46 42
20 45 41
21 46 42
21 46 42
21 46 42
21 46 42
21 46 42
21 46 42
20 45 42
20 45 41
21 46 42
20 45 42
21 46 42
20 45 42
20 45 41
21 46 42
21 46 42
21 46 42
20 45 41
20 45 41
21 46 42
21 46 42
21 46 42
20 45 41
20 45 41
20 45 41
21 47 43
21 47 43
21 46 42
21 46 42
21 46 42
21 45 41
21 46 42
21 47 43
21 46 42
20 45 41
20 45 41
21 45 42
21 46 42
21 47 43
21 46 42
21 46 42
20 45 41
21 46 42
21 46 42
21 46 42
21 46 42
21 46 42
20 44 40
21 46 42
21 46 42
21 46 42
21 47 43
21 46 42
21 46 42
21 46 42
21 46 42
21 46 42
21 47 43
21 46 42
20 45 41
21 46 42
21 46 42
21 46 42
21 45 41
21 46 42
21 46 42
21 47 43
21 46 42
21 46 42
20 45 41
21 46 42
21 46 42
20 45 41
20 45 41
20 45 41
21 46 43
21 46 42
21 47 43
21 45 42
21 46 42
20 44 40
21 46 43
21 46 42
20 45 41
20 45 41
20 45 41
20 45 41
20 45 41
21 46 42
21 46 42
21 45 42
21 47 43
21 46 42
21 46 42
20 45 41
21 46 42
20 45 42
20 46 42
20 44 41
21 46 42
20 45 41
20 45 42
21 46 42
20 45 42
21 46 42
20 45 41
20 45 41
20 45 41
21 45 42
20 45 41
20 44 41
20 45 41
20 45 41
21 46 42
21 46 42
21 47 43
20 45 41
20 45 41
20 45 41
21 46 42
20 45 41
21 46 42
21 46 42
21 46 42
21 47 43
21 46 42
20 45 41
21 46 42
21 46 42
22 48 44
21 46 42
20 45 41
21 47 43
20 45 41
20 45 41
21 46 42
20 45 41
20 45 41
20 45 41
21 46 42
21 45 42
21 46 42
21 47 43
21 46 42
21 46 42
21 46 42
21 46 42
21 45 41
20 45 41
21 47 43
21 46 42
21 46 42
21 46 43
21 46 42
21 46 42
21 47 43
20 45 41
20 45 42
21 46 42
21 47 43
20 45 41
20 44 40
21 47 43
21 46 42
20 45 41
21 46 42
21 47 43
21 47 43
21 47 43
21 46 42
21 47 43
21 46 42
21 46 42
20 45 42
21 46 42
21 47 43
20 45 42
21 47 43
21 46 42
20 45 41
21 46 42
21 46 42
21 46 42
21 46 42
21 46 42
21 46 42
21 46 42
21 46 42
21 46 42
21 46 42
21 46 42
21 46 42
21 46 42
52 62 57
99 96 87
98 96 88
48 59 54
20 45 41
21 46 42
21 45 42
21 46 42
20 45 41
20 45 41
21 46 42
21 45 42
21 46 42
21 46 42
21 46 42
21 46 42
21 46 42
21 46 42
21 46 42
21 46 42
21 46 42
21 46 42
21 46 42
20 45 41
20 45 41
21 46 42
21 46 42
20 45 41
20 45 41
21 46 42
21 47 43
21 46 42
21 45 42
20 45 41
21 47 43
20 45 42
21 46 42
21 46 42
21 46 42
21 46 42
20 45 42
21 46 42
21 47 43
21 47 43
21 46 42
20 45 41
20 45 41
21 47 43
22 48 44
21 46 42
20 45 41
21 46 42
22 48 43
21 46 42
21 46 42
20 45 41
21 46 42
21 47 43
20 45 41
21 46 42
21 46 42
21 46 42
21 46 42
20 45 41
21 46 42
21 46 42
21 47 43
21 47 43
21 46 42
21 46 42
21 46 42
20 45 41
20 45 41
21 46 42
21 46 42
21 45 42
21 47 43
21 46 42
20 45 41
21 46 42
21 47 43
21 46 42
21 47 43
21 46 42
20 45 41
21 46 42
21 47 43
21 46 42
21 46 42
21 46 42
21 46 42
21 46 42
21 46 43
20 45 41
21 47 43
20 45 42
21 46 42
21 46 42
20 45 41
21 46 42
22 48 44
20 45 42
21 46 42
21 46 42
21 47 43
21 46 42
21 46 42
21 46 42
21 46 42
21 46 42
22 48 43
21 46 42
21 46 42
21 45 42
21 46 42
21 46 42
21 46 42
21 46 42
47 58 53
168 152 138
229 204 187
239 213 195
237 211 193
218 196 179
80 75 79
21 47 43
21 46 42
20 45 41
20 45 41
21 46 42
21 46 42
21 47 43
21 46 42
20 45 42
21 46 42
21 47 43
20 45 41
20 45 41
20 45 41
21 46 42
20 45 42
20 45 41
21 46 42
21 46 42
21 46 42
21 47 43
20 45 41
21 46 42
21 46 42
20 45 42
20 45 41
20 45 41
21 46 42
21 46 42
21 46 42
21 46 42
21 46 42
20 45 41
21 46 42
21 45 42
21 47 43
21 46 42
20 45 41
20 45 41
20 45 41
21 46 42
21 46 42
21 46 42
21 47 43
20 45 42
20 45 41
21 47 43
21 46 42
21 45 41
21 47 43
21 46 42
21 46 42
21 46 42
21 46 42
21 46 42
20 45 41
21 47 43
20 45 41
21 46 42
20 45 41
21 46 42
21 45 42
21 46 42
21 47 43
21 46 42
21 45 42
21 46 42
21 47 43
21 46 42
21 46 42
21 45 41
21 46 42
21 47 43
21 47 43
21 46 42
21 46 42
21 46 42
21 46 42
21 45 42
21 46 42
22 48 44
21 46 42
21 46 42
21 47 43
21 46 42
21 46 42
21 46 42
20 45 41
21 46 42
21 46 42
21 46 42
21 46 42
21 47 42
21 47 43
21 46 42
21 46 42
21 46 42
21 47 43
21 46 42
21 46 42
21 47 43
21 46 42
21 46 42
21 46 42
22 48 44
21 45 42
21 46 42
21 46 42
21 47 43
21 46 42
21 47 43
21 46 42
22 46 42
181 162 147
239 212 192
245 218 198
248 220 199
246 218 198
238 212 193
116 87 114
52 49 64
21 46 42
21 46 42
20 45 41
21 46 42
21 47 43
21 47 43
20 45 41
21 47 43
21 46 42
22 48 44
21 46 42
21 46 42
21 46 42
20 44 41
21 46 42
21 45 42
20 45 41
20 45 41
21 46 42
21 46 42
21 46 42
21 46 42
20 45 41
21 46 42
21 46 42
21 46 42
21 46 42
20 45 41
20 45 42
21 46 42
21 45 41
21 46 42
21 46 42
21 47 43
21 46 42
21 46 42
20 45 41
21 46 42
21 47 43
21 47 43
20 45 41
20 45 41
21 47 43
21 46 42
21 46 42
21 47 42
21 46 42
21 46 42
21 47 43
21 45 42
21 46 42
21 46 42
21 46 42
21 46 42
21 46 42
21 46 42
20 45 41
21 46 42
21 47 43
21 45 41
22 48 44
20 45 41
21 47 42
20 45 41
21 47 43
21 46 42
21 47 43
20 45 41
21 46 42
22 48 44
21 47 43
21 47 43
21 47 43
20 45 41
21 46 42
21 47 42
20 45 41
21 46 42
21 47 43
20 45 41
21 46 42
21 47 43
21 47 43
21 47 43
21 46 42
21 46 42
21 46 42
21 46 42
21 46 42
21 47 42
21 46 42
21 47 43
21 47 43
21 46 42
21 46 42
21 45 41
21 46 42
21 47 43
21 47 43
21 46 42
20 45 41
21 46 42
21 46 42
21 46 42
21 46 42
21 45 41
21 47 43
21 47 43
21 46 42
21 46 42
21 45 41
93 90 81
218 193 174
240 211 191
248 219 197
255 239 213
252 223 201
194 166 162
98 64 104
81 55 88
24 46 43
21 46 42
20 45 41
21 47 43
21 45 42
21 46 42
21 46 42
21 46 42
21 47 43
21 46 42
21 45 41
21 46 42
20 44 40
21 46 42
21 47 43
21 47 43
21 46 42
21 46 42
21 46 42
21 46 42
21 45 42
21 46 42
21 46 42
21 47 43
20 45 41
21 46 42
20 45 41
21 46 42
21 46 42
21 46 42
21 46 42
21 46 42
21 46 42
21 46 42
21 47 43
21 47 43
21 46 42
21 45 42
21 45 42
20 45 42
21 46 42
21 46 42
21 46 42
21 46 42
21 46 42
21 46 42
22 48 43
21 47 43
21 47 43
21 46 42
21 47 43
21 46 42
21 46 42
21 46 42
21 46 42
21 46 42
21 46 42
21 46 42
21 47 43
21 46 42
21 47 43
22 48 44
21 46 42
20 45 41
21 46 42
22 48 43
21 47 43
21 47 43
21 47 43
22 48 43
21 46 42
21 47 43
21 47 43
22 48 44
21 45 42
21 46 42
21 46 42
21 46 42
21 45 41
21 47 43
21 47 42
21 47 42
21 47 43
21 46 42
21 47 43
21 46 42
21 46 42
20 45 41
21 47 43
21 47 43
21 46 42
21 47 43
21 46 42
21 46 42
21 46 43
21 47 43
21 46 42
21 47 42
21 47 43
21 47 43
22 48 43
21 46 42
21 46 42
21 47 43
20 45 41
21 46 42
21 46 42
21 46 42
21 46 42
21 46 42
21 47 43
116 107 96
208 183 163
226 198 176
235 206 184
253 223 198
203 175 164
125 98 114
113 86 107
82 54 86
36 45 50
21 46 42
21 47 43
21 47 43
21 46 42
20 45 41
21 47 43
21 46 42
21 46 42
21 46 42
21 47 43
22 48 44
21 46 42
21 47 43
21 47 43
20 45 41
21 47 43
21 46 42
21 47 43
21 47 43
20 45 41
21 46 42
20 45 41
21 46 42
21 47 43
20 45 41
21 46 42
21 46 42
21 47 43
21 46 42
21 46 42
21 47 43
21 46 42
21 46 42
21 46 42
21 46 42
21 47 43
21 46 42
21 46 42
21 46 42
21 45 42
22 48 43
21 46 42
20 45 41
21 45 41
21 47 43
21 46 42
21 47 43
21 47 43
21 47 43
21 46 42
21 46 42
21 46 42
21 47 43
21 46 42
21 46 42
21 47 42
21 46 42
21 47 43
21 47 43
21 47 43
22 48 43
21 46 42
21 46 42
21 46 42
21 46 42
21 47 43
21 47 43
21 46 42
21 47 43
22 48 44
21 47 43
21 47 43
21 47 43
21 47 43
21 47 43
21 47 42
21 46 42
21 46 42
21 46 42
21 46 42
21 47 43
21 47 43
21 46 42
21 46 42
21 46 42
21 45 41
21 46 42
21 47 43
21 46 42
22 48 44
21 47 42
21 47 43
21 47 43
21 47 43
21 47 43
21 47 43
21 46 42
21 46 42
21 46 42
21 47 43
21 46 42
21 46 42
21 47 43
21 46 42
21 47 43
21 46 42
21 47 43
21 46 42
21 46 42
21 46 42
112 104 94
182 159 140
207 181 160
204 176 160
148 121 125
140 115 116
192 167 148
178 156 139
86 64 81
45 49 54
21 46 42
21 46 42
21 47 43
21 46 42
21 47 43
21 46 42
21 45 41
21 46 42
21 47 43
21 46 42
21 46 42
21 46 42
21 47 42
21 47 43
21 46 42
21 46 42
21 46 42
21 46 42
21 46 42
21 46 42
21 45 42
21 47 43
20 45 41
21 47 42
21 47 43
21 47 43
21 46 42
21 47 43
21 46 42
21 46 42
21 45 41
21 46 42
20 45 41
21 47 42
21 46 42
21 47 43
21 47 43
21 46 42
21 47 43
21 47 43
21 47 43
21 46 42
20 45 41
21 46 42
21 47 43
21 47 43
21 46 42
22 48 44
21 46 42
21 47 43
22 48 44
21 47 43
22 48 43
21 46 42
21 47 43
21 47 43
22 47 43
21 45 41
20 45 41
21 47 43
21 47 43
21 47 43
21 47 43
21 47 43
21 47 43
21 47 43
21 47 43
21 47 43
22 48 43
21 47 42
21 46 42
21 46 42
21 47 42
21 46 42
21 47 43
21 46 42
20 45 41
21 46 42
21 46 42
22 48 44
21 47 43
22 48 44
21 46 42
21 47 43
21 47 43
21 46 42
21 46 42
21 46 42
21 47 43
22 48 43
21 46 42
21 46 42
21 47 43
21 46 42
21 46 42
22 48 44
21 46 42
21 47 42
21 46 42
21 47 43
21 47 43
21 47 43
21 47 43
21 46 42
21 46 42
21 45 41
21 46 41
21 46 42
21 46 42
21 46 42
32 42 44
97 79 84
90 67 82
84 55 82
83 54 81
162 140 123
151 131 115
151 132 116
84 71 74
30 48 44
21 46 42
21 46 42
21 46 42
21 46 42
21 46 42
21 46 42
21 47 43
21 45 42
21 47 43
21 46 42
21 47 43
21 47 42
21 47 43
21 46 42
20 45 41
21 46 42
21 47 43
21 47 43
21 47 43
21 46 42
21 47 43
21 47 43
21 46 42
20 45 41
21 46 42
21 47 43
21 46 42
21 46 42
21 46 42
21 47 43
20 45 41
21 47 43
21 47 43
21 46 42
21 47 43
21 47 43
22 48 44
21 46 42
21 46 42
21 47 43
21 46 42
22 47 43
21 46 42
21 47 42
21 47 43
21 46 42
21 46 42
21 47 43
21 46 42
21 46 42
21 47 43
21 47 43
21 47 43
21 46 42
21 47 42
21 47 43
21 46 42
21 47 43
21 47 43
21 46 42
21 47 43
21 47 43
22 48 44
22 48 43
22 47 43
21 47 43
21 47 43
21 47 43
21 46 42
21 47 43
22 48 43
21 47 43
21 47 43
21 47 43
21 47 43
22 48 43
21 46 42
22 48 44
22 47 43
21 46 42
21 47 43
21 46 42
21 47 43
22 48 44
21 46 42
21 47 43
21 47 42
21 46 42
21 47 43
21 47 43
22 48 43
21 46 42
22 48 43
21 47 43
21 47 43
21 47 43
21 47 42
21 47 43
21 46 42
22 48 43
21 46 42
21 46 42
21 47 42
22 47 43
21 45 41
21 45 41
21 46 42
21 47 42
20 44 40
21 46 42
20 44 40
39 29 41
57 36 55
60 38 57
67 43 64
118 99 92
125 109 94
86 75 68
56 55 52
17 39 36
20 44 40
21 46 42
21 46 42
21 46 42
21 46 42
21 47 43
21 46 42
21 46 42
21 46 42
22 48 44
21 47 43
21 46 42
21 46 42
21 47 43
21 46 42
21 45 41
21 46 42
21 46 42
21 46 42
21 46 42
21 46 42
21 47 43
21 46 42
21 47 43
21 47 43
21 46 42
21 46 42
21 46 42
21 46 42
21 46 42
22 48 43
21 45 41
21 47 43
21 46 42
21 47 43
21 47 42
21 46 42
21 46 41
21 46 42
21 47 43
22 47 43
20 45 41
21 47 43
21 47 43
21 47 43
21 45 41
21 47 43
21 46 42
21 47 43
22 48 43
21 47 43
21 47 43
21 47 43
21 47 43
21 47 43
21 47 43
21 46 42
21 47 43
21 47 43
21 46 42
21 46 42
21 47 42
22 48 43
22 47 43
21 47 42
21 47 43
21 47 43
21 47 43
22 48 44
22 48 43
21 47 43
21 47 43
22 48 44
22 48 44
22 48 43
21 47 43
21 47 43
21 46 42
21 47 42
21 47 42
21 46 42
22 48 44
21 47 43
22 48 44
21 47 43
21 47 43
22 48 43
21 46 42
21 46 42
22 47 43
22 48 44
21 47 43
21 46 42
22 48 43
22 48 44
21 46 42
21 46 42
21 47 43
21 47 43
22 47 43
21 47 43
21 46 42
22 48 43
21 46 42
21 46 42
21 45 41
21 46 42
21 45 41
21 45 41
20 43 39
18 39 35
14 30 29
24 20 25
33 22 31
36 23 33
35 23 33
36 31 31
42 43 36
19 33 31
17 38 35
20 44 39
21 45 41
21 45 41
21 46 42
21 46 42
21 46 42
21 46 42
21 46 42
20 45 41
21 46 42
21 46 42
21 46 42
21 46 42
21 47 43
21 46 42
21 47 43
21 47 43
21 47 43
21 46 42
21 47 43
21 47 43
21 47 42
21 47 43
21 47 42
21 46 42
21 47 43
21 46 42
21 47 43
22 48 43
21 47 43
21 46 42
22 48 43
21 47 43
21 46 42
21 46 42
21 46 42
22 48 44
21 47 43
21 47 43
21 47 43
21 47 43
21 47 43
21 47 43
21 46 42
21 47 43
21 47 43
21 46 42
22 49 44
21 47 43
22 47 43
21 46 42
21 46 42
22 48 43
21 47 43
21 47 43
21 46 42
21 47 42
21 47 42
22 48 43
21 47 43
21 46 42
21 47 42
22 47 43
21 47 43
21 46 42
21 47 43
21 47 42
22 47 43
22 47 43
22 48 44
22 48 43
21 47 43
21 46 42
22 48 44
21 46 42
22 48 43
22 47 43
21 47 43
22 47 43
21 47 43
22 48 44
21 47 43
22 48 44
21 46 42
21 46 42
21 47 43
21 47 43
22 48 44
21 46 42
21 46 42
22 48 43
21 47 43
22 47 43
22 48 44
21 46 42
21 47 43
21 47 43
21 46 42
22 48 44
21 47 43
21 47 43
22 47 43
21 47 42
22 48 43
21 47 43
22 47 43
21 47 43
21 45 41
21 45 40
20 44 40
19 42 38
17 37 33
14 30 27
13 17 17
24 24 20
19 25 20
21 28 23
12 27 24
17 38 34
20 42 38
20 44 40
21 45 41
21 46 42
21 46 42
21 46 42
21 45 41
21 46 42
21 47 43
21 45 41
22 48 43
21 45 41
21 45 41
21 47 43
21 47 43
21 47 43
21 47 43
21 46 42
21 47 43
21 46 42
21 45 41
21 46 42
21 47 43
21 47 43
20 45 41
21 46 42
21 47 42
21 47 42
21 46 42
21 46 42
21 46 42
21 46 42
21 47 43
21 46 42
21 47 43
21 46 42
21 47 43
22 48 43
21 47 43
22 47 43
21 45 41
22 48 44
21 47 43
21 47 43
22 48 44
21 47 43
21 47 43
21 47 43
21 47 43
21 46 42
22 48 44
22 48 43
22 47 43
22 48 43
21 47 43
22 48 43
22 48 43
22 48 44
21 47 43
21 47 43
22 48 44
21 47 43
22 48 44
22 48 44
22 48 44
22 48 43
21 47 43
22 49 44
22 48 43
21 47 43
22 48 44
21 47 42
21 47 43
22 48 43
21 46 41
21 46 42
22 48 43
22 48 44
22 48 43
21 47 43
21 46 42
21 47 43
21 47 42
21 47 43
22 49 44
21 47 43
22 48 43
22 47 43
21 47 43
21 46 42
21 47 43
22 48 44
21 47 42
21 47 43
21 46 42
21 47 42
22 47 43
21 46 42
22 48 43
21 47 43
21 47 43
21 47 43
22 47 43
21 47 43
21 47 42
21 46 42
22 47 43
21 46 42
21 45 41
21 46 42
21 46 41
20 44 40
20 44 39
20 43 38
19 42 37
19 41 37
18 39 35
19 41 37
20 44 39
20 44 39
20 44 40
20 45 40
21 47 42
21 46 41
21 47 43
22 48 44
21 45 41
21 46 42
21 46 42
21 46 42
21 46 42
22 48 44
21 47 43
22 48 44
21 46 42
22 48 44
21 46 42
21 47 43
21 47 42
21 47 43
21 46 42
22 48 44
22 48 43
21 46 42
22 47 43
21 47 43
21 46 42
21 47 43
21 47 43
22 48 44
21 47 43
22 48 44
22 47 43
21 47 43
22 47 43
21 47 42
22 48 43
21 47 42
21 47 43
22 48 44
21 46 41
22 47 43
21 47 42
22 48 44
21 47 43
21 47 43
21 46 42
21 46 42
21 46 42
22 47 43
21 47 43
21 47 43
22 48 44
21 47 43
21 47 42
21 47 42
21 47 43
22 48 43
21 47 43
22 47 43
21 47 43
21 47 43
21 47 43
22 47 43
21 47 43
22 48 43
22 48 43
21 47 42
22 48 44
22 49 44
21 47 42
21 47 43
22 47 43
22 48 44
22 48 44
21 46 42
22 48 44
21 47 43
22 47 43
21 47 43
21 47 43
21 47 43
22 47 43
22 48 44
21 47 43
21 47 43
22 48 44
22 49 45
22 48 43
21 47 42
21 47 43
21 46 42
22 47 43
22 48 43
21 47 43
22 48 44
21 46 42
22 48 44
22 48 44
22 48 44
21 47 42
22 48 43
22 48 43
21 46 42
22 48 44
21 47 42
22 47 43
22 47 43
22 48 43
21 46 42
21 46 42
22 47 42
21 46 41
21 46 41
21 46 41
21 45 41
20 45 40
21 45 41
21 45 41
21 46 41
20 45 41
21 46 41
21 46 42
21 46 42
21 46 42
21 47 43
21 47 42
21 47 43
22 47 43
21 47 43
22 48 44
21 46 42
22 48 43
21 46 42
21 47 43
22 48 43
21 46 42
21 47 43
21 46 42
21 47 43
21 47 42
21 46 42
21 47 43
21 47 43
21 47 43
21 47 43
21 47 43
22 48 44
21 46 42
22 47 43
21 47 43
21 46 42
21 47 43
21 46 42
21 47 43
21 47 42
22 48 43
21 47 43
21 46 42
22 48 44
21 47 42
21 46 42
22 48 43
22 48 44
21 46 42
22 48 44
22 48 44
21 47 43
22 48 44
22 48 44
22 48 44
22 48 43
22 48 44
22 48 44
21 46 42
22 48 43
22 49 44
21 46 42
22 48 43
21 46 42
21 46 42
22 48 43
22 48 44
22 48 43
21 46 42
22 47 43
21 46 42
22 48 43
22 47 43
22 47 43
22 48 43
22 49 44
22 48 43
21 47 42
21 47 43
21 47 43
21 47 42
22 48 44
21 46 42
22 48 44
21 47 42
21 47 43
22 48 43
22 48 43
21 47 42
22 49 45
22 48 43
22 48 44
22 48 44
22 48 43
22 48 44
22 48 43
21 47 43
22 48 44
22 48 43
21 47 42
22 48 44
22 48 44
22 47 43
22 47 43
21 47 43
22 48 43
22 48 43
22 48 43
21 47 43
21 47 42
22 47 43
22 48 43
21 47 43
22 47 43
22 47 43
21 47 43
22 48 43
22 48 43
21 46 42
21 46 42
21 46 42
21 47 43
21 46 42
22 48 43
21 47 42
21 46 42
21 47 43
21 47 42
21 47 42
21 47 43
22 47 43
21 46 42
21 47 43
21 47 43
21 47 42
21 47 43
22 48 44
22 48 43
21 47 43
22 47 43
21 47 43
21 47 43
21 46 42
21 46 42
21 46 42
21 47 43
21 47 42
21 47 43
22 48 43
22 48 44
21 47 43
21 47 43
21 47 43
21 46 42
21 46 42
21 46 42
22 48 44
21 47 43
21 47 43
22 48 43
22 48 44
21 47 42
21 47 43
21 47 43
22 48 43
21 46 42
21 47 42
22 48 43
21 47 42
21 47 43
22 48 43
21 46 42
21 47 43
22 48 43
21 47 43
21 46 42
21 47 43
21 47 43
22 48 43
22 47 43
22 47 43
21 47 43
22 48 43
22 48 43
21 47 43
22 48 44
22 48 44
22 48 44
22 48 44
21 47 43
22 48 43
22 48 43
21 47 42
21 47 42
21 47 43
22 48 43
22 48 43
21 47 42
22 48 43
22 49 44
22 48 43
21 46 42
21 47 43
21 47 43
22 48 44
22 48 44
21 47 43
21 46 42
22 49 44
22 48 43
21 47 43
21 47 43
21 47 42
21 47 43
21 47 43
21 47 43
22 47 43
21 47 43
21 47 43
22 48 44
22 48 44
21 47 43
22 48 43
22 48 44
22 48 43
21 46 42
21 47 43
21 47 43
21 47 43
21 47 42
22 47 43
21 47 42
22 48 43
22 48 43
22 48 44
21 47 43
21 46 42
21 47 43
20 45 40
22 49 44
21 46 42
20 45 41
21 47 43
21 47 43
22 47 43
22 48 44
22 48 43
22 48 44
21 47 43
21 47 43
21 47 43
21 46 42
21 47 43
21 47 43
21 46 42
21 47 43
22 48 43
21 47 43
21 47 43
21 46 42
21 45 41
21 47 43
21 47 43
21 46 42
22 48 43
21 46 42
22 48 44
22 49 44
22 48 43
21 47 43
21 47 43
22 48 44
21 46 42
22 48 43
21 47 43
22 49 44
21 46 42
21 46 42
22 49 44
22 48 44
21 46 42
21 46 42
21 46 42
21 46 42
22 47 43
21 47 43
22 49 44
22 48 44
21 46 42
21 47 43
21 47 43
22 48 43
21 47 43
22 47 43
22 47 43
21 46 42
22 49 44
22 48 44
22 48 44
22 47 43
21 47 43
21 47 43
22 47 43
22 48 43
22 48 43
22 49 45
22 47 43
22 48 44
21 46 41
22 49 45
22 48 43
21 47 43
22 47 43
22 49 44
21 47 43
22 49 44
21 47 42
22 48 44
22 47 43
21 47 43
21 47 43
22 48 43
22 48 44
21 47 42
21 47 43
22 48 44
22 47 43
22 48 43
22 48 44
22 49 44
22 48 44
22 48 43
22 48 44
22 48 43
22 48 43
22 48 44
22 48 43
22 48 43
22 48 43
22 48 44
22 49 44
22 47 43
22 48 43
22 48 44
22 48 44
21 47 43
21 47 43
22 48 44
21 47 43
21 47 42
22 48 43
21 46 42
22 48 43
21 47 43
22 47 43
21 47 42
23 50 45
21 47 43
21 47 43
21 46 42
21 46 42
21 46 42
21 47 43
22 48 44
22 48 43
21 47 42
21 47 43
21 47 43
21 47 43
21 47 43
22 48 43
22 48 43
22 48 44
22 48 43
22 48 44
22 47 43
22 48 43
21 46 42
21 46 42
22 48 44
22 47 43
22 48 43
22 48 44
20 45 41
22 48 43
22 48 44
21 46 42
22 48 43
22 49 44
21 47 43
22 48 43
21 47 43
22 47 43
21 47 43
22 48 44
22 48 44
22 49 44
21 47 43
22 48 44
21 47 43
21 47 43
22 49 44
21 46 42
22 48 43
22 47 43
21 47 43
22 48 43
22 48 43
22 48 44
22 47 43
22 48 44
22 48 44
21 47 43
22 47 43
22 48 44
22 48 43
21 47 43
22 48 44
22 48 44
22 47 43
22 48 44
22 48 43
21 47 42
21 47 43
22 48 43
22 48 43
22 48 43
21 47 43
22 49 44
21 47 43
22 47 43
21 47 42
21 47 43
22 49 44
21 47 42
22 48 44
22 48 43
21 47 43
21 47 43
22 49 44
22 48 44
21 47 42
22 47 43
22 47 43
22 47 43
21 47 43
21 47 43
22 47 43
22 48 44
22 47 43
22 47 43
22 48 44
21 47 43
22 48 44
21 47 43
22 48 43
22 48 44
22 48 44
22 48 44
22 48 43
21 47 43
22 49 44
22 48 44
23 49 45
22 48 44
22 48 43
22 48 43
22 48 44
22 49 44
22 48 44
22 47 43
22 48 44
21 47 43
22 48 43
22 48 44
22 47 43
22 48 44
22 47 43
21 47 43
22 48 43
22 48 43
22 48 44
22 48 43
21 47 43
22 48 44
21 47 42
21 47 43
22 49 44
22 47 43
21 47 43
22 48 43
22 48 44
22 48 43
22 48 44
21 47 43
21 46 42
21 47 43
21 47 43
22 48 43
22 48 43
22 48 43
22 47 43
21 47 43
21 47 43
22 47 43
21 47 42
21 46 42
22 48 43
21 47 43
21 47 43
22 48 43
22 47 43
21 47 43
21 47 43
22 48 43
22 47 43
22 49 44
21 46 42
21 47 43
22 48 43
22 48 44
22 48 43
22 48 44
22 47 43
22 47 43
22 49 44
22 49 45
22 48 43
22 48 44
21 47 43
22 48 43
22 48 44
22 48 43
22 48 43
22 48 44
22 48 43
22 48 44
21 47 42
22 47 43
22 48 44
22 48 44
22 48 44
22 49 45
22 48 44
22 47 43
22 49 45
22 49 45
22 49 44
22 48 44
22 47 43
22 48 43
22 48 44
22 48 44
21 47 42
22 49 44
21 47 43
22 48 43
21 47 43
21 47 43
22 48 43
22 48 44
22 47 43
22 48 43
22 49 44
21 46 42
22 47 43
22 49 44
22 47 43
22 48 44
22 48 44
22 48 43
22 49 44
22 49 44
21 47 43
22 49 44
22 49 44
21 47 42
22 48 44
22 49 44
21 47 42
22 48 44
22 48 43
21 47 42
23 50 45
22 48 44
22 47 43
22 48 43
22 48 44
22 48 44
22 48 44
22 48 44
22 48 44
22 48 43
22 48 44
21 47 43
21 45 41
22 47 43
21 46 42
22 49 44
22 48 44
22 48 44
22 48 43
22 48 43
21 47 43
21 47 43
21 47 42
22 47 43
21 47 42
21 46 42
22 48 43
22 48 44
22 48 44
22 48 43
22 47 43
22 49 44
21 47 43
21 47 42
21 47 43
21 47 42
22 48 44
22 47 43
22 48 43
21 47 43
21 47 43
22 49 44
22 48 43
21 47 43
21 47 43
21 47 43
21 46 42
21 47 43
22 49 44
22 48 43
22 48 44
22 49 44
21 47 42
22 49 44
21 47 43
21 47 43
22 48 43
22 48 43
22 48 44
22 48 43
22 48 43
22 48 43
21 47 43
22 49 44
22 48 43
21 47 43
22 48 43
22 49 45
22 48 44
22 49 44
22 48 43
22 48 44
22 48 43
22 49 44
21 47 43
22 48 44
22 48 43
22 48 44
22 47 43
22 48 44
21 47 43
21 47 43
22 48 43
21 46 42
22 48 44
22 49 44
21 47 42
22 48 44
21 47 42
22 48 44
22 47 43
22 48 43
21 47 43
22 48 44
25 47 43
30 46 45
31 46 45
30 46 44
37 53 49
22 48 44
22 48 44
22 49 44
22 49 45
22 48 44
22 48 44
22 48 43
22 48 44
22 49 44
23 50 45
22 48 44
22 48 43
22 49 44
22 48 44
22 48 43
22 48 43
22 48 44
22 48 44
22 48 44
21 47 42
22 48 43
22 47 43
22 49 44
21 47 43
22 48 44
22 48 44
22 47 43
21 47 43
22 49 44
21 47 43
22 48 44
22 48 43
21 47 43
22 49 44
22 48 44
22 48 43
22 49 45
21 47 43
22 47 43
22 48 44
22 48 43
22 48 43
22 48 44
22 49 44
22 48 43
21 47 43
23 50 46
22 49 44
22 49 45
22 48 44
21 47 43
22 48 43
21 47 43
22 47 43
22 48 44
22 47 43
22 48 43
22 48 43
22 48 43
21 47 42
21 47 43
21 46 42
22 48 43
21 47 43
21 47 42
21 47 43
22 48 44
21 47 42
22 48 43
21 46 42
22 47 43
22 47 43
21 47 43
21 46 42
21 47 43
21 47 42
21 47 43
21 47 43
21 47 43
22 47 43
22 48 44
22 47 43
22 49 44
22 49 44
22 48 44
22 49 45
22 48 43
22 47 43
21 47 43
22 48 44
22 49 44
22 49 45
22 48 44
22 48 44
22 48 43
22 48 44
22 48 43
22 48 43
22 48 44
22 48 44
22 48 43
22 48 44
22 49 44
22 48 43
22 48 44
22 49 44
22 48 43
21 47 43
22 48 43
22 48 44
22 49 45
22 49 45
22 48 44
43 57 51
81 78 73
39 42 46
40 43 47
40 43 47
40 43 47
89 82 78
188 169 154
64 72 66
22 48 43
22 48 44
22 48 43
22 48 44
22 48 44
22 48 44
21 46 42
22 48 44
22 48 43
22 48 43
21 47 42
22 48 44
22 48 43
22 48 44
22 48 44
21 46 42
21 47 43
22 49 45
22 48 43
22 49 44
23 49 45
22 48 43
21 47 43
22 47 43
21 47 43
22 49 44
22 48 43
22 49 44
23 50 45
22 48 43
22 48 44
22 48 43
22 48 43
22 48 44
22 48 43
21 47 43
22 48 43
22 48 43
22 48 43
22 48 44
22 48 44
21 47 43
21 47 43
22 48 43
22 48 44
22 48 43
22 49 44
22 48 43
21 46 42
22 48 43
21 47 43
22 49 44
22 48 44
22 47 43
22 48 43
22 48 44
22 48 43
22 49 44
22 48 43
21 47 42
22 47 43
21 47 43
22 48 44
21 47 43
22 47 43
22 48 44
20 45 41
22 47 43
22 47 43
22 48 44
21 47 43
22 49 45
22 49 44
21 47 43
22 49 44
22 48 43
22 48 44
22 48 44
22 48 44
22 48 44
22 48 43
22 48 44
22 48 43
22 49 44
22 48 44
22 49 44
21 47 43
22 48 43
22 48 44
22 48 43
22 48 44
22 49 45
22 49 45
21 46 42
22 48 44
22 49 44
22 48 43
22 48 44
22 48 44
22 49 45
22 49 44
22 49 45
23 49 45
22 49 45
22 48 43
22 48 44
22 49 44
22 48 44
22 49 45
22 47 43
24 49 44
179 161 146
166 149 137
40 43 46
40 43 47
41 44 48
41 43 47
40 43 47
226 200 182
196 175 159
31 53 48
22 47 43
22 49 45
22 49 44
22 48 43
22 48 44
22 48 43
22 49 44
21 47 43
22 48 43
22 48 44
22 48 43
22 49 44
22 49 44
21 47 43
22 48 43
22 48 43
21 47 43
22 48 43
22 49 45
22 49 44
22 48 44
21 47 42
22 48 43
22 49 44
22 48 44
22 49 44
21 47 43
22 48 44
22 48 44
22 47 43
22 48 44
22 48 44
22 48 43
22 49 44
21 47 43
22 48 44
23 51 46
21 47 43
22 47 43
22 49 44
22 49 44
22 48 43
22 48 44
22 48 44
21 47 43
22 47 43
22 47 43
22 48 44
21 47 43
22 48 44
21 47 43
22 47 43
22 47 43
21 47 43
22 48 43
21 47 42
21 47 42
22 48 43
21 47 43
22 49 44
22 47 43
22 47 43
22 48 43
22 48 43
21 46 42
22 48 43
22 49 44
22 48 44
22 48 44
22 48 44
22 48 43
21 47 43
22 48 44
22 48 43
21 47 43
22 49 44
22 47 43
22 47 43
22 49 44
21 47 43
22 48 43
22 48 43
22 48 44
22 48 44
21 47 43
22 48 44
22 48 43
21 47 43
21 47 43
22 48 44
22 48 43
22 48 44
23 50 45
22 48 43
22 48 44
22 48 44
22 48 43
22 49 44
22 48 43
22 48 43
22 48 43
22 49 44
22 49 44
22 48 44
22 49 44
22 48 43
22 48 44
22 48 43
22 49 44
126 118 107
221 196 178
180 160 146
40 43 46
54 54 54
117 110 97
66 64 62
40 43 47
212 188 171
225 197 177
127 117 106
22 48 43
22 48 44
22 48 44
21 47 43
21 46 42
22 47 43
22 48 43
22 48 44
23 49 45
21 47 43
22 49 44
22 48 44
23 49 45
22 47 43
22 48 43
21 47 43
22 47 43
22 48 43
22 47 43
22 49 45
21 46 42
22 48 44
22 48 44
22 48 44
22 48 44
22 48 43
22 48 43
22 48 43
22 49 44
22 48 44
22 48 43
22 49 44
22 48 44
22 48 43
21 47 42
22 49 44
22 48 43
22 48 43
22 48 44
22 49 44
22 48 44
22 48 44
22 47 43
22 48 43
22 48 44
22 49 44
21 47 43
22 48 43
22 48 43
22 47 43
22 48 44
22 47 43
22 49 44
22 48 43
22 48 44
22 48 43
22 49 44
22 47 43
22 47 43
22 47 43
22 48 44
21 46 42
22 48 44
21 46 42
22 48 44
22 48 43
22 48 43
22 47 43
22 48 43
22 48 43
21 46 42
21 47 42
22 49 44
22 49 45
22 48 44
22 49 44
22 47 43
22 48 44
22 48 44
23 50 45
22 49 44
22 47 43
22 49 44
22 48 44
22 48 44
22 49 44
22 49 45
22 49 44
22 49 44
22 48 44
22 49 44
22 49 44
22 48 43
22 48 44
21 47 42
22 48 43
22 49 44
22 48 44
22 48 44
22 48 44
22 48 44
22 48 43
22 48 43
22 49 44
22 47 43
22 49 44
22 48 44
22 48 43
22 48 43
165 148 134
213 189 171
189 167 151
39 42 45
52 52 52
129 121 105
70 68 64
40 42 45
186 163 147
218 190 171
172 152 137
22 47 43
22 49 44
22 48 44
22 49 44
22 48 44
22 48 43
22 48 44
22 48 44
22 49 44
22 48 43
23 50 45
22 48 44
22 48 44
22 47 43
22 48 44
22 48 44
22 48 44
22 48 43
22 49 44
22 48 44
22 48 43
83 59 47
185 94 59
237 115 69
246 118 71
230 122 84
165 120 102
73 78 71
22 49 45
22 48 43
22 48 44
22 47 43
22 49 45
22 48 43
22 48 43
22 48 43
22 49 44
22 49 45
22 47 43
22 48 43
22 48 43
22 47 43
23 50 45
22 47 43
22 48 43
22 48 44
22 48 43
22 47 43
21 47 42
22 47 43
21 47 42
22 49 44
21 47 42
22 48 44
22 48 43
22 48 43
22 48 43
22 48 43
22 48 44
22 49 44
22 47 43
22 48 43
22 48 43
21 46 42
22 47 43
21 47 42
22 47 43
22 48 43
22 47 43
22 48 43
22 48 43
22 49 44
22 48 43
22 49 44
21 47 42
22 48 43
22 48 44
22 48 43
22 48 44
22 48 44
22 48 43
21 47 43
22 48 43
22 48 43
22 48 43
22 48 44
23 50 45
22 49 45
22 48 44
22 48 43
23 49 45
22 48 44
22 48 43
22 48 44
22 48 44
22 48 44
22 47 43
22 49 44
22 48 43
22 48 44
22 49 44
22 49 45
22 48 43
21 47 42
21 46 42
22 48 44
22 49 44
22 48 44
36 54 49
167 150 135
203 179 161
190 167 150
37 39 42
38 40 43
39 41 44
39 41 44
37 39 42
151 132 118
206 180 161
172 151 135
29 51 46
22 47 43
22 49 44
22 48 44
22 47 43
22 48 44
22 47 43
22 47 43
22 48 44
22 48 44
22 49 44
22 49 44
23 49 45
21 47 43
22 48 44
22 48 44
22 49 44
22 49 44
22 49 44
22 49 44
131 74 52
251 120 71
255 126 74
255 127 75
255 127 75
255 127 75
255 125 74
235 166 139
114 108 98
21 47 43
21 46 42
22 48 43
22 49 44
22 49 45
23 49 45
22 48 44
22 48 43
22 49 44
22 49 44
21 47 43
22 49 44
22 48 43
22 49 44
22 47 43
22 49 45
22 48 44
22 48 43
22 48 44
22 48 44
22 48 44
22 48 43
22 49 44
22 48 44
23 50 45
22 48 44
22 48 43
22 49 44
22 49 44
22 49 44
22 47 43
21 47 42
22 47 43
22 48 44
21 46 42
22 48 44
21 46 41
21 46 41
22 47 43
23 50 45
22 48 44
22 49 45
21 47 43
22 48 44
22 49 44
22 48 43
22 48 44
22 49 44
22 47 43
22 48 44
22 49 44
22 48 44
21 47 42
22 49 44
22 48 43
21 47 43
22 48 44
23 50 45
22 48 44
22 48 43
22 48 44
23 50 45
22 48 43
22 49 44
22 49 44
22 48 44
21 47 43
22 48 44
22 48 44
22 47 43
22 49 45
22 48 44
22 49 44
22 49 44
22 48 43
21 47 42
22 48 44
22 48 43
21 47 43
37 55 50
151 136 123
181 161 144
188 166 148
38 39 40
35 36 39
35 37 40
35 36 39
34 35 38
131 114 102
176 154 136
147 127 113
22 47 43
22 49 44
22 48 44
22 47 43
22 49 44
22 48 44
21 46 42
22 49 44
22 48 43
22 48 44
22 49 44
22 49 44
22 48 43
23 49 45
22 49 44
23 50 45
22 48 44
23 49 45
22 47 43
111 69 52
238 136 100
255 129 80
255 126 74
255 128 76
255 130 77
255 127 75
255 125 74
255 124 74
227 166 142
87 87 79
22 48 43
23 49 45
22 48 43
22 49 44
22 49 44
22 48 43
22 49 44
23 50 45
22 48 44
22 48 43
22 48 44
22 49 44
22 48 44
22 48 44
22 49 44
22 49 44
22 48 43
21 46 42
22 47 43
22 49 44
22 48 44
22 49 44
22 47 43
22 48 43
21 47 42
22 48 44
22 48 43
22 49 44
21 47 42
22 47 43
22 48 43
22 48 44
22 48 43
22 47 43
21 47 42
21 46 42
21 46 41
22 49 45
22 49 44
22 49 45
22 49 45
23 50 45
22 47 43
22 49 44
22 47 43
22 49 44
22 49 44
22 48 44
22 48 44
22 48 44
22 48 43
22 48 44
22 48 44
22 49 44
22 48 44
22 48 43
21 47 43
22 48 44
22 48 44
22 49 44
21 47 43
21 46 42
22 48 44
22 49 44
22 49 44
22 49 44
22 47 43
22 49 44
23 50 46
22 48 44
22 48 43
22 48 44
22 49 44
22 47 43
22 49 44
22 48 44
22 49 44
22 48 43
22 48 43
103 97 88
152 135 120
168 148 131
50 47 45
30 32 34
31 32 34
29 31 32
30 31 33
91 81 73
150 130 114
102 93 82
22 47 43
22 48 43
22 47 43
22 48 43
22 49 44
22 48 44
22 48 43
23 49 45
23 49 45
22 48 43
22 48 43
22 48 44
22 48 43
22 48 43
22 49 44
22 49 44
22 48 44
22 47 43
22 48 44
172 151 135
224 197 178
242 211 190
255 178 149
255 147 98
255 186 136
255 133 82
255 125 73
255 122 71
241 117 71
171 143 128
21 47 42
22 48 43
22 47 43
22 49 44
22 47 43
23 50 45
22 48 44
22 49 44
22 48 44
22 48 44
22 49 44
21 47 43
22 48 44
22 49 44
22 48 44
22 49 45
22 48 43
22 48 44
22 49 44
22 49 44
21 47 43
22 49 44
22 48 44
22 48 43
22 48 43
23 50 45
22 49 44
23 49 45
22 48 43
22 48 44
22 48 43
22 49 44
21 46 42
22 47 43
22 47 42
21 47 42
21 45 40
22 49 44
22 48 44
22 48 44
22 49 45
22 49 45
22 49 44
22 49 44
22 49 44
22 47 43
22 49 44
23 50 45
22 49 44
22 48 44
22 48 43
22 49 44
22 48 44
22 48 44
22 48 44
22 49 44
22 48 43
22 48 43
22 48 43
22 49 44
22 49 44
21 47 42
22 48 44
22 49 44
21 47 43
22 49 44
22 48 44
23 49 45
22 49 45
22 48 44
22 49 44
22 49 44
22 48 44
22 48 44
22 48 43
22 49 44
22 47 43
21 47 42
21 46 42
47 55 49
108 99 89
129 115 102
51 47 43
25 26 28
25 26 27
24 26 27
24 26 27
70 62 55
100 88 76
58 61 55
21 46 41
21 45 41
22 48 44
22 49 44
22 48 44
23 50 45
22 47 43
22 47 43
22 48 44
22 48 43
23 49 44
22 47 43
22 48 44
22 48 44
22 48 44
22 47 43
22 48 43
22 48 43
56 65 58
191 169 152
220 194 174
230 203 183
239 211 191
254 189 161
255 148 99
255 124 74
255 121 71
250 118 69
233 111 65
199 126 100
57 66 60
23 49 45
22 49 44
22 48 43
22 48 43
22 48 44
22 48 43
22 49 44
22 48 43
22 49 44
22 48 43
22 49 44
22 49 44
22 48 44
22 48 43
22 48 44
22 49 45
21 47 43
22 47 43
22 48 43
22 49 44
22 48 44
22 48 44
22 49 44
23 51 46
22 49 44
22 47 43
22 48 44
22 48 43
22 47 43
22 49 44
22 48 44
22 47 42
22 48 43
22 47 43
22 48 43
21 46 41
22 47 43
23 50 45
22 48 44
23 50 45
22 48 44
22 47 43
22 49 44
22 48 44
21 47 43
23 49 45
22 48 44
22 48 43
22 49 44
22 49 44
22 48 43
22 49 44
22 48 43
23 50 45
22 49 44
22 48 44
22 48 44
22 48 44
22 48 43
22 49 44
22 48 44
22 48 43
22 49 45
21 47 42
22 48 43
22 48 44
22 48 43
22 48 44
22 47 43
22 48 44
21 47 42
22 48 43
22 47 43
23 50 45
21 46 42
22 47 42
21 46 42
19 42 38
16 36 33
53 55 47
76 71 61
42 40 36
17 18 19
18 19 20
16 17 18
15 16 16
25 26 23
45 45 37
17 38 34
20 43 39
22 47 42
21 46 41
22 48 43
22 47 43
22 49 44
21 46 42
23 49 44
21 46 41
22 49 44
23 49 44
23 49 44
22 48 44
22 48 43
22 48 44
22 49 44
22 48 43
22 49 44
78 80 73
179 158 140
202 178 159
219 193 173
227 200 179
228 201 180
241 166 138
250 118 68
242 114 67
227 118 79
185 125 103
180 104 78
74 75 68
22 48 43
23 49 45
22 48 44
23 49 45
22 49 44
22 49 44
22 49 44
22 48 43
22 47 43
23 50 45
22 48 43
23 50 45
21 47 42
22 48 44
23 50 45
23 50 45
22 48 43
22 48 44
22 48 44
23 49 45
22 48 43
22 49 44
22 49 44
22 49 44
22 48 44
22 47 43
22 48 43
23 49 45
22 48 44
22 47 43
22 48 43
22 48 43
22 49 44
22 48 43
22 47 42
22 47 42
22 48 43
22 49 44
22 49 44
22 48 44
22 49 44
22 48 44
23 50 45
22 49 44
22 48 44
22 49 44
22 48 43
22 49 45
22 49 44
22 48 43
23 49 45
22 49 44
22 49 44
22 49 44
22 49 44
22 48 44
22 49 44
22 49 44
23 49 45
22 48 44
22 49 44
22 48 43
22 48 44
22 49 44
22 48 43
23 49 45
23 49 45
22 49 44
22 47 43
22 49 44
22 49 44
22 48 44
22 49 44
22 48 43
22 48 43
22 48 43
21 46 41
19 41 37
14 32 30
14 28 26
33 38 29
17 20 15
7 9 8
7 8 7
7 9 8
6 8 7
12 17 15
12 26 24
16 35 32
20 43 38
21 45 40
22 48 43
22 47 42
22 48 43
22 48 43
22 48 43
22 49 44
22 48 43
22 48 44
22 48 43
22 48 44
22 47 42
22 47 43
22 47 43
22 49 44
22 49 44
22 47 43
62 69 62
157 139 124
181 160 142
200 176 157
206 181 162
209 183 163
210 183 163
231 123 85
220 109 68
165 132 114
176 156 140
148 124 110
69 65 57
23 49 44
22 48 44
22 48 44
22 48 43
22 48 43
22 48 44
22 49 44
22 48 44
22 48 43
22 48 44
22 49 44
22 48 43
23 49 45
22 49 44
22 49 44
23 50 45
22 48 44
22 49 44
21 47 43
22 48 44
22 48 44
22 49 45
21 46 42
21 47 43
22 48 43
22 48 44
22 48 44
22 48 44
22 47 43
22 48 44
22 49 44
22 49 44
22 49 44
22 48 43
22 47 43
21 46 42
22 48 43
22 48 43
22 49 45
22 49 44
22 49 44
22 47 43
22 48 43
22 49 44
23 50 45
22 48 43
22 48 43
22 48 44
22 49 44
22 49 44
22 49 44
23 50 45
22 48 43
22 49 44
23 49 45
22 49 44
22 49 44
22 49 44
22 49 44
22 49 44
23 50 45
22 49 45
22 49 44
22 48 44
22 49 44
22 47 43
22 48 44
22 49 44
22 48 44
22 48 43
22 49 44
22 49 44
22 48 43
22 47 42
21 46 42
22 48 43
22 47 42
21 45 40
18 40 35
13 30 27
10 22 21
7 16 15
5 11 10
5 10 9
5 10 9
7 16 14
11 24 22
16 34 31
19 40 36
21 45 40
22 47 42
22 48 43
21 46 41
22 48 43
22 47 43
22 48 43
22 49 44
22 49 44
22 49 44
22 48 44
23 49 44
22 48 43
22 48 43
22 47 42
23 49 44
22 48 43
21 46 41
40 56 51
121 109 97
156 139 123
169 149 132
176 155 137
178 156 138
181 159 141
189 133 110
179 96 66
154 136 122
115 103 92
105 86 76
39 49 43
22 48 44
22 48 43
22 49 44
22 48 43
22 49 44
22 49 44
22 48 44
22 49 44
22 47 43
23 49 45
22 48 43
22 49 44
22 47 43
22 48 43
22 49 44
23 50 45
22 48 43
23 49 44
22 48 43
23 50 45
22 49 44
22 48 44
22 49 44
22 47 43
22 48 44
22 49 45
22 48 43
22 48 43
22 48 43
23 50 45
21 47 43
22 48 44
22 47 43
21 47 42
22 48 44
22 48 43
23 50 45
22 48 43
22 48 43
22 48 44
22 49 45
22 49 44
23 50 45
22 48 43
22 48 44
22 49 44
22 49 45
21 47 43
23 50 45
22 48 43
22 47 43
23 50 45
22 48 44
22 49 44
22 48 44
23 49 45
22 48 44
23 49 44
22 49 44
23 50 45
22 48 43
22 48 44
22 49 45
22 49 44
23 50 45
23 50 45
23 49 45
22 49 44
22 49 44
22 48 44
22 47 43
22 48 43
22 47 43
22 49 44
22 48 43
22 47 42
22 47 42
22 48 43
21 46 41
21 45 40
20 42 37
17 36 32
16 35 32
15 33 30
16 35 31
17 38 33
19 40 35
21 45 40
22 47 42
21 46 41
21 46 41
22 47 42
22 48 43
22 47 42
22 48 43
22 47 43
22 49 44
22 47 42
22 48 43
23 49 45
22 49 44
22 48 43
22 47 43
22 47 42
22 47 43
22 47 42
23 49 44
21 45 40
63 64 57
103 94 82
128 114 100
139 124 108
151 133 117
158 140 123
150 127 110
139 82 61
106 95 84
100 92 82
75 57 48
21 46 41
22 47 42
23 49 45
22 48 44
22 48 43
22 48 44
22 48 43
22 48 43
22 48 44
22 49 44
22 48 44
22 49 44
22 49 44
22 49 44
21 47 43
22 48 43
23 50 45
22 48 43
23 49 45
22 48 44
22 49 44
22 48 43
22 48 43
22 49 44
22 48 43
22 48 44
23 49 44
23 50 45
22 47 43
22 48 43
22 48 44
22 47 43
22 48 43
23 49 45
22 49 44
22 48 43
22 48 44
22 48 44
22 49 44
22 47 43
22 49 45
22 48 43
22 49 44
22 48 43
22 49 44
22 49 44
22 48 44
22 49 44
22 49 44
22 48 43
23 50 45
23 49 45
23 49 45
22 48 43
22 48 43
22 48 44
23 50 45
22 48 44
22 49 44
22 48 43
23 50 45
22 47 43
22 49 44
22 49 44
22 49 44
23 50 45
22 49 44
23 49 44
22 49 44
23 50 45
22 49 44
22 48 43
22 49 44
22 49 44
22 48 43
22 49 44
22 48 43
22 47 42
22 47 43
21 46 41
21 46 41
21 46 41
21 45 40
21 45 40
21 45 40
21 45 40
21 46 41
21 45 41
22 47 42
21 46 41
22 47 42
22 47 43
22 48 43
21 45 41
23 49 44
22 48 43
23 50 45
22 49 44
22 48 44
22 49 44
23 49 45
22 48 43
22 49 44
22 48 43
22 48 43
21 46 41
21 46 41
22 47 42
20 43 39
27 39 35
68 65 56
77 71 60
95 86 74
110 98 84
107 95 81
98 88 76
91 47 28
69 53 43
74 56 46
30 35 31
19 40 37
21 45 41
22 47 42
22 47 43
22 48 43
23 49 45
22 47 43
22 48 43
22 49 44
22 49 44
22 48 44
22 48 44
21 47 43
22 48 44
22 48 44
22 49 44
22 48 43
23 49 45
22 49 44
23 50 45
22 48 44
22 49 44
22 48 44
22 47 43
22 48 44
22 48 44
22 49 44
22 48 43
22 48 44
22 49 44
22 47 43
22 48 44
22 48 43
22 48 44
22 48 44
22 48 43
22 49 44
22 49 45
22 49 44
22 48 43
23 49 45
22 49 44
22 49 45
23 50 45
22 48 44
23 50 45
23 49 45
22 47 43
22 49 45
22 49 44
22 48 43
23 50 45
23 50 45
22 48 43
22 48 44
22 49 44
22 48 43
23 49 45
22 48 44
23 50 45
22 48 44
23 50 45
22 49 44
23 50 45
22 48 44
22 48 44
22 49 44
22 48 44
22 49 44
23 50 45
23 50 45
22 48 44
23 49 45
23 49 45
22 48 43
22 49 44
22 47 43
22 48 43
22 47 43
21 46 42
22 47 43
21 46 42
22 49 44
22 48 43
21 47 42
21 46 42
21 47 42
21 46 42
22 48 43
22 47 42
21 47 42
22 47 43
22 49 44
22 49 44
22 49 44
23 49 44
22 48 44
22 48 44
22 49 44
22 48 43
22 48 44
22 48 43
22 49 44
22 47 42
22 48 43
22 48 43
22 47 43
22 46 41
20 43 39
15 34 31
26 32 30
36 40 30
39 43 31
45 47 36
50 51 39
47 47 35
54 29 15
51 28 16
27 28 24
13 29 27
17 38 35
21 45 40
22 48 43
21 47 42
22 48 43
23 50 45
22 48 43
22 48 43
21 47 42
23 50 45
22 48 43
22 49 44
22 49 44
22 48 43
22 49 44
22 48 43
22 48 44
22 49 44
23 49 45
22 49 44
22 47 43
22 48 43
22 47 43
22 48 44
22 48 43
22 48 44
22 47 43
22 48 44
22 48 44
22 47 43
22 49 45
22 47 43
22 48 44
22 47 43
22 47 43
22 47 43
22 48 43
22 49 44
22 48 44
23 49 45
22 49 44
23 49 45
23 49 45
22 49 44
23 50 45
22 49 44
22 49 44
22 49 45
22 49 44
23 50 45
22 49 44
22 49 44
22 48 43
22 49 44
22 48 43
22 49 44
22 49 44
23 50 45
23 50 45
22 48 43
23 50 46
22 48 44
22 48 44
22 48 44
22 48 44
22 49 44
23 51 46
23 50 45
23 50 45
22 48 44
23 50 45
22 48 44
22 49 44
22 48 44
23 49 45
22 49 44
23 50 45
22 48 43
21 46 42
22 48 43
23 50 45
21 47 42
22 48 43
22 48 43
22 48 43
22 47 43
22 47 43
22 49 44
22 48 43
22 49 44
22 47 43
22 49 44
22 48 44
22 48 43
22 49 44
22 49 44
22 48 43
22 49 44
22 48 43
23 49 44
22 48 43
22 49 44
22 49 44
22 47 43
22 47 42
22 47 42
21 46 41
21 46 41
22 47 42
19 40 36
14 30 28
10 22 21
24 26 20
25 28 21
27 30 22
28 24 17
16 17 14
10 21 20
12 27 25
16 35 32
19 41 37
21 46 41
22 48 43
21 46 41
22 48 43
22 48 43
22 49 44
21 47 42
22 48 43
22 47 42
23 50 45
22 48 43
22 49 44
22 48 44
22 49 44
22 49 44
21 47 43
22 48 43
22 48 44
22 49 44
23 49 44
22 48 44
22 48 43
22 49 44
22 48 44
22 49 44
23 50 45
22 48 43
22 48 43
23 50 45
22 47 43
22 48 44
22 48 44
23 49 45
22 49 44
22 49 45
22 48 44
22 49 44
22 49 44
22 49 44
22 49 45
22 49 44
23 49 45
22 49 44
22 48 44
22 48 43
22 49 45
22 48 44
22 49 45
22 48 44
22 49 45
22 48 43
22 48 44
23 50 45
22 48 44
22 49 44
21 47 43
22 48 44
22 48 44
22 49 44
22 49 44
22 48 44
22 48 44
22 48 44
22 49 44
22 49 44
22 49 44
22 48 44
22 49 44
22 49 44
22 47 42
22 49 44
22 48 43
22 49 44
23 50 45
22 49 44
23 49 44
22 48 43
22 48 44
22 48 43
22 49 44
22 48 44
23 50 45
22 48 44
22 48 43
22 48 43
22 49 44
22 49 44
22 48 43
22 48 43
22 49 44
22 48 43
23 49 44
23 50 45
23 50 45
22 48 44
21 47 42
22 47 43
22 49 44
22 48 43
22 48 43
22 49 44
22 48 43
23 49 44
22 48 43
22 47 42
22 49 44
21 46 41
21 46 41
21 46 41
20 43 38
18 40 35
16 34 30
14 30 27
12 27 24
13 29 26
14 30 27
16 35 32
19 41 37
20 43 38
21 45 40
22 47 42
22 47 43
21 46 41
22 47 43
23 49 44
22 47 42
23 49 44
23 49 45
22 48 43
22 49 44
22 48 44
22 48 44
22 48 43
23 49 45
22 48 43
23 50 45
23 49 44
23 50 46
22 49 44
23 50 45
23 51 46
22 48 44
23 50 45
22 49 44
22 48 44
23 50 45
22 49 44
22 47 43
22 49 44
22 49 44
22 48 43
22 49 44
22 48 43
22 49 44
22 49 44
22 49 44
22 48 44
22 49 45
22 49 44
22 49 44
22 49 45
22 47 43
22 49 44
23 49 45
22 48 43
22 49 44
23 51 46
23 50 45
22 48 43
23 51 46
23 50 45
22 48 44
22 48 43
22 48 44
23 51 46
22 49 44
22 49 44
23 50 45
22 49 44
23 50 46
23 50 45
24 51 46
23 50 45
22 48 43
22 48 43
23 51 46
22 49 44
22 47 43
23 50 45
23 51 46
23 49 45
22 49 44
22 49 44
22 48 44
23 50 45
23 49 45
23 50 45
23 49 44
22 49 44
22 49 44
22 48 43
23 49 45
22 47 43
23 49 44
22 48 43
22 48 44
23 50 45
23 49 45
23 49 44
22 49 44
22 49 44
22 48 44
22 49 44
22 49 44
22 48 44
22 48 44
22 48 43
22 49 44
22 49 44
22 49 44
22 48 44
23 49 44
23 50 45
23 50 45
22 48 43
21 47 42
22 47 42
22 48 43
21 46 41
22 47 42
22 46 41
21 44 39
21 46 41
21 45 40
20 43 38
21 45 40
21 45 40
21 44 40
21 44 40
21 46 41
22 48 42
22 48 43
22 48 43
21 47 42
23 50 45
23 50 45
22 48 43
22 47 42
22 49 44
23 49 45
22 48 44
22 48 44
22 49 44
22 48 44
22 48 44
22 48 43
23 50 46
22 49 44
22 48 43
22 48 44
23 51 46
23 49 45
23 50 46
22 48 43
23 49 45
22 49 44
22 48 44
22 48 44
22 48 44
22 48 44
22 48 43
22 48 43
23 49 45
22 49 44
22 49 45
22 48 44
23 50 45
22 48 44
22 49 44
22 48 44
23 50 45
23 49 45
22 49 44
22 49 44
22 49 45
22 49 44
22 49 44
23 49 45
22 49 44
23 50 45
22 49 44
22 48 43
23 50 45
23 51 46
22 48 44
23 49 45
23 51 46
23 50 45
23 50 45
23 50 45
23 49 45
22 49 44
22 49 44
22 49 44
22 49 44
22 49 45
22 48 44
23 49 45
23 50 45
23 50 45
22 49 44
23 49 45
23 51 46
22 48 44
22 48 43
23 50 45
22 49 44
22 49 44
23 50 45
22 49 44
22 49 44
22 49 44
23 50 45
22 48 44
22 48 43
22 49 44
22 48 43
22 49 44
22 49 44
22 48 44
23 50 45
22 49 44
22 47 43
22 49 44
23 50 45
22 48 43
23 50 45
22 48 44
23 50 45
22 48 43
23 49 45
22 48 43
23 49 44
22 48 43
23 49 44
23 50 45
22 47 43
22 48 43
23 49 44
22 47 42
21 46 42
22 47 42
22 48 42
22 47 41
22 47 42
22 48 43
21 46 41
22 47 42
22 48 43
21 46 41
23 49 44
22 48 43
22 49 44
23 50 45
22 49 44
22 49 44
22 48 43
22 49 44
22 49 44
22 48 43
23 50 45
22 48 43
23 50 45
23 50 45
22 48 44
22 49 44
22 49 44
23 51 46
22 48 44
22 49 44
22 48 43
23 49 44
22 48 43
22 48 44
22 49 44
23 49 45
22 48 44
23 50 45
22 48 43
22 48 44
22 49 44
23 50 45
22 49 44
23 49 45
22 48 44
23 50 45
22 48 44
22 49 44
22 48 44
23 50 45
22 49 44
23 50 45
22 49 44
23 49 45
22 49 44
23 49 45
22 48 43
22 48 44
22 48 44
23 50 45
23 50 45
23 49 45
22 49 44
22 49 44
23 50 45
22 49 44
23 49 45
23 50 45
23 50 45
22 49 44
22 48 44
22 49 44
22 49 44
23 50 45
22 49 44
23 50 45
22 49 44
22 49 44
23 49 45
22 49 44
23 50 45
23 50 45
22 48 44
22 49 44
22 48 43
22 49 44
23 49 45
23 50 45
23 49 45
23 50 45
23 49 45
22 48 44
23 50 45
22 49 44
22 47 43
22 48 44
22 49 44
23 49 45
22 49 44
23 50 45
22 48 44
22 49 44
22 48 44
22 48 43
22 48 44
23 50 45
22 49 44
22 49 44
23 50 45
22 47 43
22 48 44
22 48 43
22 49 44
22 48 44
23 50 45
23 49 45
22 48 43
22 49 44
22 48 44
23 49 44
22 47 43
22 47 43
23 49 44
23 49 44
22 48 43
22 47 42
22 48 43
22 48 43
22 48 44
23 50 45
21 47 42
22 48 43
22 49 44
23 49 44
22 48 44
23 49 44
22 49 44
22 49 44
22 48 43
22 48 44
22 47 43
22 48 43
22 49 44
22 49 44
22 48 44
23 50 45
23 50 45
23 50 45
22 49 44
23 50 45
23 49 44
22 49 44
22 48 43
23 49 45
23 50 45
23 49 45
22 49 44
22 49 44
22 48 44
22 49 45
22 49 44
22 49 44
22 49 44
23 49 45
23 49 45
22 48 44
23 49 45
22 49 44
22 49 44
22 48 43
22 49 44
23 50 45
22 49 44
23 50 45
22 49 44
23 50 45
22 49 44
23 50 46
23 50 45
22 47 43
23 50 45
23 49 45
23 49 45
23 51 46
23 50 45
22 48 44
22 49 44
23 50 45
22 47 43
22 49 44
22 48 44
22 48 43
23 51 46
22 48 44
23 50 45
22 48 44
23 49 45
23 50 45
23 49 44
22 49 44
23 51 46
23 51 46
23 49 44
23 50 45
22 48 44
22 49 44
22 49 44
22 49 44
23 50 45
23 50 45
22 48 43
22 49 44
23 50 45
23 50 45
22 49 44
22 48 43
23 50 45
23 50 45
23 49 45
23 50 45
23 49 44
23 49 45
22 48 44
23 49 44
22 48 44
22 49 44
22 49 44
23 50 45
22 49 44
23 50 45
22 48 43
23 49 44
23 50 45
22 49 44
23 49 44
22 48 43
23 50 45
22 48 44
23 51 45
22 49 44
23 49 44
22 49 44
22 48 44
23 50 45
23 49 44
22 48 43
22 47 43
22 49 44
22 48 44
23 49 44
23 50 45
23 50 45
22 48 44
22 49 44
22 49 44
22 48 43
22 49 44
23 50 45
23 50 45
23 49 45
22 49 44
22 49 44
22 49 44
22 49 44
22 48 44
23 50 45
23 50 45
22 49 44
22 48 44
23 50 45
23 49 45
22 48 43
23 49 45
22 49 44
22 49 44
23 50 45
22 49 44
22 48 44
22 49 44
23 50 45
22 49 44
22 47 43
22 48 43
23 50 45
22 48 44
22 48 44
23 50 45
23 50 45
23 50 46
22 49 44
22 49 44
23 50 45
23 50 45
22 49 44
22 49 44
23 49 45
22 49 44
23 49 45
23 50 45
22 49 44
22 49 44
23 49 45
22 49 44
22 49 44
23 49 45
22 49 44
23 51 46
23 49 45
22 48 44
23 50 45
23 50 45
22 49 44
23 49 45
22 48 44
22 49 44
22 49 44
22 48 44
22 49 44
22 49 44
23 49 45
22 49 44
22 49 44
22 49 44
23 49 45
22 49 44
23 50 45
22 49 44
23 50 45
22 48 43
22 49 44
22 49 44
22 49 44
23 50 45
22 49 44
22 49 44
22 48 43
22 49 44
22 48 43
23 50 45
22 49 44
23 50 45
22 48 43
22 48 43
23 50 45
23 49 45
22 48 43
22 49 44
22 49 44
23 49 45
23 50 45
23 49 44
23 50 46
22 49 44
23 50 45
23 50 45
23 50 45
22 49 44
23 50 45
23 49 44
21 47 42
23 50 45
23 49 44
23 50 45
23 50 45
23 50 45
23 49 44
23 50 45
23 50 45
23 50 45
23 50 45
23 50 45
24 51 46
23 50 45
22 49 44
23 50 45
23 50 45
23 50 46
22 49 44
22 48 44
22 48 44
23 50 45
22 49 44
22 49 44
22 48 44
23 49 44
22 49 44
23 51 46
22 49 44
23 49 45
22 49 44
22 49 44
24 51 46
23 49 45
23 51 46
23 50 45
22 49 44
22 49 44
23 50 45
23 49 45
23 50 45
23 50 45
22 48 43
23 49 45
22 49 44
22 48 43
22 49 44
