P3
120 80
255
18 40 38
18 40 37
18 41 38
18 41 38
18 41 38
18 40 37
19 42 39
18 41 39
18 40 38
18 41 39
18 42 39
18 41 38
18 41 39
18 40 38
18 41 38
18 41 39
18 41 38
18 41 39
18 41 38
18 40 38
18 41 38
18 40 38
18 42 39
18 41 38
18 41 38
18 40 37
18 41 39
18 41 38
18 41 39
18 41 39
18 41 39
18 41 39
18 41 38
18 41 38
18 41 38
18 41 38
18 41 38
18 41 38
19 42 39
19 42 39
18 41 38
18 42 39
18 41 39
18 41 38
18 41 39
18 42 39
18 42 39
18 41 38
18 41 38
19 42 39
18 41 38
18 40 37
18 42 39
19 42 39
19 42 39
18 42 39
18 41 38
19 42 39
18 41 38
19 42 39
19 42 39
19 42 39
18 41 38
19 42 39
19 42 39
18 41 38
18 41 38
19 42 39
19 42 39
18 41 38
18 41 38
18 41 38
18 41 39
19 42 39
19 42 39
18 41 39
18 41 38
19 42 39
19 43 40
19 42 39
19 42 39
19 42 39
19 42 39
19 43 40
18 41 38
19 42 39
18 41 38
18 41 38
19 42 39
18 41 38
18 41 39
19 42 39
18 42 39
19 42 39
19 43 40
19 42 39
18 41 38
18 42 39
18 41 38
18 41 38
18 41 38
18 41 38
18 42 39
18 41 39
19 42 39
19 42 39
19 42 39
19 42 39
18 41 38
19 42 39
19 42 39
19 42 39
18 42 39
19 42 39
19 42 39
19 42 39
19 42 39
19 42 39
19 42 39
19 42 39
18 41 38
18 42 39
18 41 39
18 41 39
18 40 38
18 41 38
18 41 38
18 40 38
18 41 38
18 41 38
18 41 38
18 40 38
18 41 38
18 40 38
18 41 38
18 42 39
18 41 39
18 42 39
18 41 38
18 41 38
18 41 38
18 41 38
19 42 39
19 42 40
18 42 39
18 42 39
18 41 38
18 41 38
18 41 38
19 42 39
18 42 39
18 42 39
19 42 39
19 42 39
19 42 39
18 42 39
19 43 40
18 41 39
18 41 38
18 41 38
18 41 38
18 41 38
19 42 39
19 43 40
18 40 38
18 41 38
19 42 39
18 41 38
18 41 38
19 42 39
19 43 40
18 41 38
18 42 39
19 43 40
18 41 39
18 41 38
19 43 40
19 42 39
19 43 40
18 41 38
18 41 38
19 42 39
19 42 39
19 42 39
19 42 39
18 42 39
19 42 39
19 42 39
18 41 38
19 43 39
19 42 39
19 42 39
19 42 39
19 42 39
19 43 40
19 42 39
19 42 39
19 42 39
19 43 40
19 42 39
18 42 39
19 42 39
19 42 39
19 42 39
19 42 39
19 42 39
19 44 41
20 44 41
19 42 39
19 42 39
19 44 40
19 42 40
19 42 39
19 43 39
19 43 39
19 42 39
19 42 39
19 42 39
19 43 40
19 42 39
19 43 40
19 42 39
19 42 39
19 42 39
19 42 39
19 43 40
19 42 39
19 42 39
19 42 39
19 42 39
19 43 40
19 42 39
19 43 40
19 42 39
19 42 39
19 42 39
19 42 39
19 43 40
19 42 39
19 43 40
18 41 38
18 41 39
18 40 38
19 42 39
18 40 37
18 41 39
18 42 39
18 40 38
18 40 37
18 41 38
18 42 39
19 42 39
19 42 39
19 42 39
19 42 39
19 43 40
19 42 39
19 42 39
19 42 39
18 41 38
19 43 40
18 41 39
19 43 40
19 42 39
19 42 39
18 41 38
18 42 39
19 43 40
18 41 39
18 41 38
18 41 38
19 42 39
19 42 39
18 42 39
18 41 38
18 41 38
19 42 39
19 42 39
19 42 39
19 42 39
18 41 38
19 42 39
18 42 39
19 43 40
18 41 38
19 42 39
19 43 40
19 42 39
19 42 39
19 42 39
18 42 39
18 42 39
18 41 38
19 42 39
19 42 39
19 42 39
19 42 39
19 42 39
19 42 39
19 42 39
19 43 40
19 42 39
19 43 40
19 42 39
19 43 40
19 44 40
19 42 39
19 42 39
19 42 39
19 42 39
19 42 39
19 42 39
19 43 40
18 42 39
19 42 39
19 43 40
18 41 38
19 43 40
19 43 39
19 43 40
19 42 39
19 42 39
19 42 39
19 42 39
19 42 39
19 42 39
20 44 41
19 42 39
19 43 40
19 43 39
19 42 38
18 41 38
19 42 39
19 43 40
19 43 40
19 43 40
20 44 41
19 42 39
19 42 39
19 43 40
19 42 39
19 42 39
19 42 39
19 43 40
20 44 41
19 43 40
19 42 39
19 43 40
19 43 40
19 42 39
19 42 39
19 43 40
19 44 41
19 42 39
19 43 40
19 42 39
19 43 40
19 43 40
19 42 39
19 42 39
18 42 39
18 42 39
18 40 37
19 43 40
18 40 38
19 42 39
17 40 37
19 42 39
19 42 39
18 41 38
18 41 38
19 42 39
18 41 38
18 41 38
19 42 39
18 42 39
18 41 38
18 41 38
18 40 38
18 41 38
19 42 39
18 41 38
19 42 39
19 42 39
18 41 38
19 42 39
19 42 39
19 42 39
19 43 40
19 42 39
18 41 38
18 42 39
19 42 39
18 41 38
19 42 39
18 41 38
19 42 39
18 41 38
19 42 39
19 42 39
19 42 39
19 42 39
19 42 39
19 42 39
19 42 39
19 42 39
18 42 39
19 43 40
19 42 39
19 42 39
19 42 39
18 41 38
19 42 39
18 41 38
19 42 39
19 42 39
19 44 40
19 42 39
19 42 39
19 43 40
19 43 40
19 43 40
19 43 40
19 43 40
19 42 39
19 42 39
19 42 39
19 42 39
19 43 40
19 43 40
19 42 39
19 42 39
19 43 40
19 42 39
19 44 40
19 43 40
19 43 40
19 44 40
19 43 40
19 42 39
19 43 40
19 43 40
19 42 39
20 44 41
18 41 39
19 43 40
19 44 40
19 42 39
19 42 39
19 42 39
19 43 39
19 43 40
19 42 39
19 43 40
19 43 40
19 42 39
19 42 39
19 42 39
20 44 41
19 43 40
19 44 40
19 42 39
19 43 40
19 43 40
19 43 40
19 42 39
19 43 40
20 44 41
19 43 40
19 42 39
19 43 40
19 43 40
19 43 40
19 43 39
19 43 40
20 44 41
19 44 40
19 43 40
19 42 39
19 43 40
19 42 39
19 42 39
18 41 38
19 43 40
18 41 38
19 42 39
18 41 39
18 41 38
18 42 39
19 42 39
19 42 39
18 41 38
19 42 39
18 41 38
19 42 39
18 42 39
19 42 39
19 43 40
19 42 39
18 41 38
18 41 38
19 43 40
18 41 38
19 42 39
19 42 39
19 42 39
19 43 40
19 43 40
19 43 40
19 43 40
19 42 39
19 43 40
18 41 38
18 41 38
19 42 39
19 42 39
18 41 39
19 42 39
19 43 40
19 42 39
19 42 39
19 42 39
19 43 40
19 42 39
19 43 40
19 42 39
19 42 39
19 43 40
19 42 39
19 42 39
19 43 39
19 42 39
19 42 39
19 42 39
19 43 39
19 42 39
18 41 38
19 43 40
19 43 40
19 43 40
19 43 40
20 44 41
19 42 39
19 43 40
19 43 40
19 42 39
20 44 41
19 42 39
20 44 41
19 43 40
19 43 40
19 42 39
19 43 40
19 43 40
19 42 39
19 43 40
19 43 40
19 43 40
19 43 40
19 43 40
19 44 40
19 43 40
19 43 40
19 43 40
19 43 39
19 43 40
19 43 39
19 42 39
19 42 39
19 43 40
19 43 40
20 44 41
19 43 40
19 43 40
19 43 40
19 43 39
20 44 40
19 43 39
19 43 40
19 42 39
20 44 40
19 44 40
19 43 40
19 43 40
20 44 40
20 44 41
20 44 40
20 44 40
19 42 39
19 43 40
19 43 40
19 43 40
19 43 40
20 44 41
20 44 40
19 44 40
19 43 40
20 44 41
20 44 41
19 43 40
18 41 38
19 43 40
19 42 39
18 42 39
19 42 39
19 42 39
18 41 38
19 42 39
19 43 40
18 42 39
19 43 40
19 42 39
19 42 39
18 41 38
19 42 39
19 42 39
18 42 39
19 43 40
19 42 39
19 42 39
19 43 40
19 43 40
18 41 38
19 43 40
19 42 39
19 42 39
18 42 39
19 43 40
19 43 39
19 43 40
19 43 40
19 42 39
19 42 39
19 43 39
19 42 39
19 43 39
18 41 38
19 42 39
19 42 39
19 43 40
19 43 40
19 42 39
19 42 39
19 42 39
20 44 41
19 42 39
19 42 39
19 42 38
19 42 39
19 43 40
19 43 40
19 42 39
19 43 40
19 43 39
19 42 39
20 44 40
19 43 40
19 43 39
19 42 39
19 42 39
19 43 40
19 43 40
19 43 40
19 44 40
20 44 41
19 43 40
19 43 40
19 42 39
19 43 40
19 42 39
19 43 39
19 43 40
19 43 40
19 43 40
19 43 40
19 43 40
20 44 41
19 42 39
19 43 40
19 43 40
20 44 41
20 44 40
19 43 40
20 44 41
20 44 40
19 43 40
20 44 41
19 43 40
19 43 40
19 43 40
20 44 41
19 42 39
19 44 40
20 44 40
20 44 41
19 43 40
19 43 40
19 43 40
19 43 40
20 44 40
20 44 41
20 44 40
20 44 40
20 44 40
20 44 40
19 43 40
20 44 40
20 44 40
20 44 40
20 44 41
20 44 40
20 44 41
20 44 40
19 43 40
19 44 40
20 44 41
20 44 40
19 43 40
20 44 40
20 44 41
18 41 38
18 42 39
18 42 39
19 42 39
19 42 39
19 42 39
18 41 38
19 42 39
19 43 40
19 42 39
18 41 38
19 42 39
18 41 39
19 42 39
19 42 39
18 42 39
19 42 39
19 43 40
18 41 38
19 43 40
18 42 39
19 42 39
19 42 39
19 43 40
19 42 39
19 43 40
19 43 40
19 42 39
19 44 40
19 43 40
19 43 40
19 43 40
19 43 40
20 44 41
19 42 39
19 43 40
19 42 39
19 44 40
19 43 40
19 42 39
19 42 39
19 42 39
19 42 39
19 42 39
19 42 39
20 44 40
19 43 40
19 43 40
19 43 40
19 43 40
19 42 39
19 43 40
19 43 40
19 43 40
19 43 40
20 44 40
19 43 40
20 44 41
19 43 39
20 44 41
20 44 40
19 43 40
19 43 40
19 44 40
20 44 40
19 43 40
20 44 41
20 44 41
19 42 39
19 44 40
20 44 40
20 44 41
20 44 40
19 43 40
20 44 40
20 44 40
19 42 39
20 45 41
20 44 41
19 43 40
20 44 41
19 42 39
19 43 39
20 44 41
19 43 40
19 43 40
19 43 40
20 44 41
20 44 41
19 43 40
20 44 41
20 45 42
20 44 41
20 44 41
20 44 40
20 44 40
19 44 40
19 43 40
20 44 40
20 44 41
20 45 41
20 44 41
20 44 41
20 44 40
20 45 41
19 43 40
20 44 40
19 43 40
20 44 41
20 44 41
20 44 40
20 44 40
20 44 40
20 45 41
20 44 40
20 44 41
20 45 42
19 43 40
20 44 41
20 45 41
18 41 38
18 41 38
18 42 39
19 43 39
19 42 39
19 43 40
19 43 40
19 42 39
18 41 38
18 41 39
19 43 39
19 43 40
19 42 39
19 43 40
19 43 40
19 42 39
19 43 40
19 42 39
19 42 39
19 42 39
18 42 39
19 42 39
19 42 39
19 42 39
19 43 40
19 43 40
19 42 39
19 43 40
19 42 39
19 42 39
19 43 40
19 42 39
19 42 39
19 43 40
20 44 41
19 43 40
19 43 40
19 43 40
19 42 39
19 42 39
19 43 40
19 43 40
19 43 40
19 42 39
19 42 39
19 43 40
20 44 40
19 43 39
20 44 41
19 42 39
19 43 39
19 42 39
20 44 41
20 44 40
19 43 40
19 43 40
19 42 39
20 44 40
19 43 40
19 42 39
19 42 39
20 44 40
20 45 41
19 43 40
19 43 39
20 44 41
20 44 41
19 43 40
19 43 40
19 43 39
19 43 40
19 43 40
20 44 41
19 43 40
20 44 40
20 44 41
20 45 41
20 44 40
20 44 41
19 43 40
20 44 41
20 44 41
20 44 41
20 44 41
19 43 40
21 46 42
19 43 40
20 45 41
20 44 41
20 44 41
20 44 41
20 45 41
20 45 41
20 44 40
20 44 40
20 44 41
20 44 41
20 45 41
20 44 41
20 44 40
20 44 41
20 44 41
20 45 41
20 44 41
20 44 40
20 44 41
20 45 41
20 44 40
20 45 41
20 44 41
20 45 42
20 45 41
20 45 41
19 43 40
19 43 40
20 45 42
20 44 41
20 44 41
20 45 41
20 44 40
19 43 40
19 42 39
18 41 38
19 42 39
18 41 38
19 43 40
19 43 40
19 42 39
19 43 40
19 42 39
19 42 39
19 43 40
19 43 40
19 43 39
19 43 40
19 42 39
19 43 40
19 42 39
19 42 39
19 43 40
19 42 39
19 42 39
19 43 39
19 43 40
19 42 39
19 42 39
19 42 39
19 43 39
20 44 40
19 43 40
19 42 39
19 42 39
20 44 40
19 43 40
19 43 40
19 42 39
19 43 40
19 43 40
19 43 40
19 42 39
19 43 40
19 43 40
19 43 40
19 43 39
19 43 39
20 44 40
19 43 40
19 43 39
20 44 40
19 43 40
20 44 40
19 42 39
19 43 40
20 45 41
20 44 41
20 44 41
20 44 41
19 42 39
19 43 39
19 44 40
20 44 41
20 44 41
20 44 40
19 43 39
20 45 41
19 43 40
19 44 40
20 44 41
20 44 41
20 44 40
19 43 40
20 44 40
20 45 41
20 44 40
19 44 40
19 43 40
20 44 41
20 44 40
20 44 41
20 45 41
20 44 40
20 45 41
19 43 39
20 44 41
20 45 41
20 44 41
20 45 42
20 44 40
19 43 40
20 45 41
20 44 41
20 44 41
20 44 41
20 45 42
20 45 41
20 45 41
20 44 40
20 44 40
20 44 40
20 44 40
20 44 40
20 45 41
20 44 41
21 46 42
20 45 41
20 44 41
21 46 42
20 44 41
20 44 41
20 44 40
20 44 40
20 45 41
20 45 41
20 45 41
20 45 42
20 45 42
20 44 40
20 45 41
20 45 42
20 44 41
19 42 39
19 43 40
19 42 39
19 43 40
19 43 40
19 42 39
19 43 39
19 43 40
19 43 40
19 42 39
19 43 40
19 42 39
19 43 40
19 43 39
19 43 40
19 42 39
19 42 39
19 43 39
19 42 39
19 43 40
19 42 39
19 42 39
19 42 39
19 43 40
19 42 39
19 43 40
19 43 40
19 43 40
20 44 41
20 44 40
19 43 40
19 43 40
18 41 38
19 43 40
19 42 39
19 43 40
19 43 40
19 42 39
20 44 41
19 43 40
19 43 39
19 44 40
19 43 40
20 44 41
19 43 40
20 44 41
19 44 40
19 43 40
20 44 40
20 44 41
20 44 41
19 43 40
20 45 41
19 43 40
19 43 40
20 44 40
20 44 41
20 44 41
20 45 41
20 44 40
20 44 41
20 44 41
20 44 41
19 43 40
20 44 40
20 44 41
20 44 40
20 44 40
20 44 41
20 44 40
19 43 40
20 45 41
20 45 41
20 45 41
20 45 41
20 45 41
20 45 41
20 44 40
20 45 41
20 45 41
20 44 41
20 44 41
20 45 41
20 45 41
20 44 41
20 44 41
20 45 41
20 45 41
20 44 41
20 44 41
20 44 41
20 45 41
20 44 41
20 44 41
20 44 41
20 45 41
20 44 41
20 44 40
20 45 41
20 45 41
20 44 40
20 45 41
21 46 42
20 45 41
20 46 42
20 45 42
20 45 41
20 45 41
20 44 41
20 45 41
21 46 42
21 46 42
20 44 40
21 46 42
20 45 41
21 46 42
20 44 41
21 46 42
20 44 41
20 45 41
19 42 39
19 42 39
19 42 39
19 42 39
19 42 39
19 43 40
19 43 40
19 42 39
19 43 40
19 43 40
19 43 40
19 43 40
19 43 40
19 43 39
19 43 40
19 43 40
19 42 39
19 43 40
19 43 39
19 43 39
19 43 39
20 44 41
19 42 39
19 42 39
19 43 39
19 43 40
20 44 40
19 43 40
19 42 39
20 44 41
19 43 39
19 43 40
19 44 40
19 43 40
19 42 39
19 44 40
20 44 41
20 44 40
19 43 40
20 44 40
19 43 40
19 43 40
20 44 40
19 43 40
20 44 41
20 44 40
20 44 41
20 45 41
20 44 40
20 44 40
19 43 40
20 44 41
20 44 41
19 43 40
20 45 41
19 43 40
20 43 40
20 44 40
20 44 40
20 45 41
20 44 40
19 43 40
20 45 42
20 45 41
20 45 41
19 44 40
20 44 41
20 44 41
20 44 41
20 45 41
20 44 40
20 45 41
20 45 42
20 44 40
20 44 41
20 45 41
20 44 40
20 44 40
20 44 41
20 44 41
20 45 41
20 44 41
20 45 41
21 46 43
20 45 41
20 45 42
20 45 41
21 46 42
20 45 42
20 45 41
20 44 41
21 46 42
20 45 41
20 45 42
20 45 42
20 45 41
21 46 42
20 45 41
20 45 41
21 46 42
20 44 40
20 44 41
20 45 41
20 44 41
20 45 41
20 45 41
20 45 42
21 46 42
20 45 42
21 46 42
21 46 42
21 47 43
21 46 42
20 45 42
20 45 41
20 45 42
20 45 41
21 46 42
21 46 42
21 46 43
20 44 41
19 43 39
19 42 39
19 42 39
20 44 41
19 42 39
19 43 39
19 43 39
19 43 40
19 43 40
19 43 40
19 43 40
19 43 40
19 43 40
19 43 40
19 44 40
19 42 39
20 44 40
19 43 40
19 42 39
20 44 41
20 44 41
19 43 40
19 44 40
20 44 40
20 44 41
20 44 40
19 43 39
20 44 41
19 43 39
20 44 40
19 43 40
19 44 40
20 43 40
20 44 40
19 43 40
19 43 40
19 43 40
20 44 40
19 43 40
19 43 40
19 43 40
20 44 40
20 45 41
20 45 41
19 43 40
19 43 40
20 44 41
20 44 40
20 44 40
20 44 41
20 44 40
20 45 42
20 45 41
20 44 41
20 44 40
20 45 41
21 46 42
20 45 41
20 44 40
20 45 41
20 45 41
20 46 42
20 45 42
20 45 41
20 45 41
20 45 42
20 45 42
20 44 41
20 45 41
20 44 41
20 45 42
21 46 42
21 46 42
20 45 41
20 45 42
20 45 41
20 44 40
20 45 42
20 45 41
20 45 41
20 44 41
20 44 41
20 45 41
21 46 42
21 46 42
21 46 42
20 45 41
21 46 42
20 45 42
20 45 42
20 45 41
21 46 43
20 45 41
20 45 41
20 45 41
20 45 41
20 45 41
21 46 42
20 44 40
21 46 42
20 45 41
20 45 42
20 45 41
21 46 42
21 46 42
20 45 42
21 47 43
21 46 42
21 46 42
21 46 42
20 45 42
20 45 42
20 45 41
20 45 42
21 46 42
21 46 42
21 46 42
21 47 43
21 46 42
19 44 40
19 43 40
19 43 40
19 43 40
19 43 40
20 44 41
19 42 39
19 43 40
20 44 40
19 43 40
19 43 39
20 44 41
19 43 40
19 43 39
20 44 40
20 44 40
19 42 39
19 43 40
19 44 40
19 43 40
19 43 40
20 44 41
20 44 40
20 44 40
19 42 38
19 43 40
19 44 40
20 44 41
20 44 41
20 44 40
20 44 40
19 43 40
20 45 42
20 44 41
20 44 41
20 45 42
20 44 41
20 44 41
19 43 40
19 43 40
20 44 41
19 42 39
20 45 42
20 44 40
19 43 40
20 44 40
20 45 41
20 44 41
20 45 41
20 44 40
20 45 41
20 44 41
20 44 40
20 45 41
20 46 42
20 45 42
21 46 42
20 44 41
20 45 41
20 45 41
20 45 41
20 44 40
20 45 41
20 44 41
20 46 42
19 43 39
20 45 41
20 45 41
20 44 40
20 45 41
21 46 42
20 45 41
20 45 41
20 45 42
20 45 41
20 44 41
20 45 41
20 44 41
20 45 41
20 45 41
21 46 42
21 46 42
21 46 42
21 46 42
20 45 41
21 46 42
21 46 42
21 46 42
21 46 42
21 46 42
20 45 41
21 46 42
21 46 42
21 46 42
21 46 42
21 46 42
21 46 42
21 46 42
20 44 40
21 46 42
20 45 42
21 46 42
21 46 42
21 46 42
21 46 42
21 46 43
21 47 43
21 46 42
20 45 41
20 45 41
20 45 41
21 46 42
21 46 42
20 45 41
21 46 42
21 46 42
21 47 43
21 46 42
21 46 42
21 46 42
19 43 40
19 43 40
19 43 40
20 44 41
19 43 40
19 42 39
19 43 40
20 44 40
19 43 40
19 43 40
20 44 41
19 43 40
20 44 40
19 43 40
19 43 40
20 45 41
19 43 40
20 44 41
19 43 40
19 43 40
20 44 40
20 44 41
20 44 40
20 44 40
20 44 41
19 44 40
20 45 41
19 43 40
19 43 40
20 45 42
20 45 41
19 43 40
20 44 41
20 44 41
20 45 41
20 44 41
20 45 41
20 45 41
21 46 42
20 44 40
20 44 41
20 44 41
20 44 40
20 44 41
20 44 40
20 44 40
20 44 40
20 44 41
20 45 42
20 44 40
20 45 41
20 44 40
20 45 42
20 45 41
20 45 41
21 46 42
20 45 41
20 44 40
20 45 41
21 46 42
21 46 42
20 45 42
20 44 40
20 45 42
20 45 41
20 45 41
20 45 42
20 44 41
20 45 42
20 45 41
20 44 41
20 45 41
20 45 41
20 45 41
21 46 42
20 45 41
21 46 42
20 45 42
20 46 42
21 46 42
20 45 41
21 47 43
21 46 42
21 45 42
21 46 42
20 44 41
20 45 42
20 45 41
21 46 42
21 46 42
21 46 42
21 47 43
21 47 43
21 46 42
21 46 42
21 46 42
21 46 42
21 45 42
21 46 42
21 47 43
21 46 42
21 46 42
20 45 41
21 46 42
21 46 42
21 46 42
21 46 42
21 47 43
21 47 43
21 46 42
21 47 42
21 47 43
21 46 42
21 46 42
21 46 42
21 47 43
22 47 43
20 45 41
21 47 43
21 46 42
19 43 40
19 43 40
20 44 40
19 43 40
19 43 40
19 43 40
20 44 41
19 43 40
19 43 40
19 43 40
20 44 41
19 43 40
20 44 41
19 43 39
20 44 41
20 44 40
20 44 41
20 44 40
19 43 39
19 42 39
19 43 40
20 44 40
20 44 41
20 44 40
19 43 40
20 44 41
20 44 40
20 44 41
20 44 40
20 44 40
20 45 41
19 44 40
20 44 41
20 44 40
20 44 40
20 44 41
20 44 41
20 45 41
20 44 41
20 44 41
20 44 41
20 44 40
20 44 40
20 44 40
20 45 41
20 46 42
20 45 41
20 44 41
20 44 40
20 45 41
20 44 41
20 45 42
20 45 41
20 44 40
20 44 41
20 46 42
20 45 41
20 45 41
21 45 42
20 45 42
20 45 42
20 44 41
21 46 42
20 45 41
20 45 41
21 47 43
20 45 41
21 46 42
20 45 41
21 46 42
20 45 41
20 45 41
21 46 42
20 44 41
21 46 42
20 45 42
21 46 42
21 46 42
21 46 42
21 46 42
21 46 42
21 46 42
20 45 41
21 45 42
21 47 43
21 46 42
21 46 43
21 46 42
20 45 41
21 47 43
21 47 43
21 47 43
20 45 41
21 47 43
22 48 43
21 46 42
21 45 42
21 47 43
21 46 42
21 46 42
21 46 42
21 46 42
21 45 42
21 46 42
21 46 42
21 47 42
21 47 43
21 46 42
21 47 43
21 47 43
21 47 43
21 46 42
21 47 43
21 47 43
21 46 42
21 47 43
21 47 43
21 46 42
21 47 43
21 47 43
20 44 41
19 43 40
19 43 40
19 43 40
19 43 40
20 44 41
19 42 39
19 43 40
20 44 41
19 43 39
19 43 40
19 43 40
19 43 40
19 43 40
20 44 40
20 44 40
19 43 40
20 44 41
20 44 41
19 43 39
19 43 40
20 44 40
19 43 40
20 44 40
20 45 41
20 45 41
20 45 41
20 45 41
20 45 41
20 45 41
19 43 40
20 44 40
20 44 41
20 45 41
20 45 41
20 45 41
20 45 42
20 45 41
20 44 41
20 45 42
20 44 41
20 44 41
19 43 40
20 44 41
20 45 41
20 45 41
20 44 41
20 45 41
20 45 41
20 44 41
20 45 41
20 45 42
20 45 41
20 44 41
20 45 41
21 46 42
20 45 41
20 46 42
20 45 41
20 44 41
21 46 42
20 44 41
20 45 42
20 45 41
21 46 42
21 46 42
21 46 42
20 45 42
20 45 41
20 45 41
21 46 42
21 46 42
20 45 41
20 44 40
20 44 41
21 46 42
21 45 42
21 46 42
21 47 43
21 46 42
21 46 42
21 46 42
21 46 43
21 46 42
21 47 43
21 46 42
20 45 41
21 47 43
21 47 43
21 47 43
21 46 42
20 45 41
21 46 42
21 47 42
21 46 42
21 46 42
21 46 42
21 47 43
21 46 42
21 47 43
21 47 43
21 46 42
21 47 43
21 46 42
21 46 42
21 46 42
21 47 43
21 47 43
21 46 42
21 46 41
21 46 42
21 47 43
22 47 43
21 47 43
21 46 42
22 48 44
22 48 44
22 48 44
21 47 43
21 47 43
19 44 40
19 43 40
20 44 40
20 44 41
19 42 39
19 43 40
20 44 41
20 44 41
19 43 40
19 43 40
19 43 40
19 43 40
20 44 40
19 43 40
19 43 40
19 43 40
20 44 41
20 44 40
19 43 40
20 44 41
20 45 41
20 44 41
20 44 41
20 45 41
20 45 42
20 44 40
20 45 42
20 44 41
20 45 41
20 45 41
20 45 41
20 45 42
20 44 40
20 44 41
20 44 40
20 45 41
20 44 40
20 45 41
20 45 41
20 44 40
20 44 41
20 44 41
21 46 42
20 45 41
20 45 41
20 45 41
20 45 41
20 44 40
20 45 41
20 44 41
21 46 42
20 45 41
20 44 41
21 46 42
20 45 41
21 46 42
21 46 42
20 45 41
20 45 41
20 45 41
20 45 41
21 46 42
20 45 41
21 46 42
20 45 41
21 47 43
21 46 43
21 46 42
21 47 43
21 46 42
21 46 42
20 45 41
21 46 42
20 45 42
21 46 42
21 47 43
20 45 41
21 47 43
20 45 41
21 47 43
21 47 43
21 47 43
21 47 43
22 48 44
21 46 42
21 46 42
21 47 43
21 46 42
21 47 43
21 46 42
21 47 43
22 48 43
21 47 43
21 47 43
21 46 42
21 47 43
22 47 43
22 48 44
21 46 42
21 46 42
21 46 42
22 48 44
22 47 43
21 47 43
21 47 43
21 47 43
21 47 43
22 48 44
21 47 43
21 47 43
21 47 43
22 48 43
21 47 42
21 47 43
21 47 43
22 48 44
21 47 42
22 48 44
21 46 42
22 48 43
19 43 40
19 43 39
20 44 41
20 44 41
19 43 40
20 44 41
20 44 40
19 43 40
20 45 42
20 44 40
19 43 40
19 44 40
20 44 40
20 45 41
19 43 40
20 45 41
20 45 41
20 44 40
20 44 40
20 45 41
20 44 40
19 43 40
20 44 41
20 45 42
20 44 40
20 44 41
19 43 39
20 44 41
20 44 41
20 44 40
20 45 41
19 43 40
20 45 41
20 45 42
19 43 40
20 45 41
20 44 41
20 44 40
20 44 41
20 45 41
20 44 41
20 45 41
20 45 42
20 45 42
20 44 40
20 45 41
20 44 41
21 46 42
20 44 41
21 46 42
20 45 41
20 45 42
21 46 42
21 45 42
20 45 41
20 45 41
20 44 40
21 46 42
21 45 42
21 46 42
20 45 41
21 46 42
21 46 42
21 46 42
20 45 41
21 46 42
21 46 42
21 45 42
21 46 42
21 46 42
21 46 42
20 45 41
21 46 42
21 46 42
21 46 42
21 45 41
21 47 43
21 47 43
21 46 42
21 46 42
21 46 42
21 47 43
20 45 41
21 46 42
21 47 42
21 47 43
22 48 43
21 47 43
21 46 42
21 46 42
21 46 42
21 47 43
21 47 43
21 46 42
21 47 43
22 48 44
22 48 44
21 46 42
21 46 42
21 46 42
21 47 43
21 47 43
22 48 43
22 48 43
21 47 42
21 47 43
21 47 43
22 47 43
22 49 44
22 47 43
21 46 42
21 47 43
21 46 42
21 47 43
21 47 43
22 48 43
21 47 43
21 47 43
21 47 43
21 47 42
20 44 41
20 44 40
19 43 40
19 43 39
20 44 41
20 44 40
20 46 42
20 44 41
20 44 41
20 44 41
20 44 41
19 43 40
20 44 40
20 45 41
20 44 41
20 44 41
20 44 41
20 44 41
20 44 40
20 44 40
20 44 41
20 45 42
20 44 41
20 44 41
20 45 41
20 44 41
20 45 41
20 44 41
20 44 40
20 45 41
20 44 41
20 45 41
20 44 40
21 46 42
20 46 42
20 44 40
20 45 41
20 45 41
20 45 41
20 45 42
20 45 41
21 46 42
20 45 41
20 45 41
20 45 41
20 44 41
20 45 42
20 45 41
21 46 42
20 45 41
20 45 41
21 46 42
20 45 41
21 47 43
20 45 41
20 45 42
21 46 42
20 45 41
21 46 42
21 46 43
20 45 41
21 47 43
20 45 41
20 45 41
22 48 43
20 44 41
21 46 42
21 45 42
21 47 43
20 45 41
20 45 42
21 47 43
21 46 42
21 46 42
21 47 43
21 46 42
21 46 42
20 45 41
21 46 42
21 47 42
21 46 42
20 45 41
21 47 43
21 46 42
21 47 43
21 47 43
21 47 43
21 46 42
22 48 44
21 47 43
22 48 43
21 47 43
21 47 43
22 48 44
21 47 43
21 47 43
21 47 42
22 48 43
21 47 43
22 47 43
22 48 43
21 47 42
22 48 44
22 48 44
21 47 43
21 47 43
21 46 42
21 47 43
22 48 43
22 48 43
21 47 42
22 48 44
21 47 43
22 48 43
21 47 43
22 48 43
22 48 43
21 46 42
22 48 44
22 48 43
20 44 41
19 43 40
20 45 41
19 43 40
20 44 40
19 43 40
20 44 40
20 44 41
20 44 40
20 44 40
20 44 40
20 44 41
19 43 40
20 45 41
20 44 41
20 44 41
20 44 41
20 44 40
20 44 41
20 44 40
20 44 40
20 44 40
20 44 40
20 44 41
20 44 40
20 44 40
20 44 41
20 44 40
21 46 42
20 44 40
20 45 41
20 45 41
20 44 41
20 45 41
20 44 41
20 45 42
20 44 40
20 45 41
20 45 41
20 44 40
21 46 42
21 46 42
20 45 41
20 45 41
21 46 42
21 46 42
20 45 41
20 45 41
21 46 42
20 44 41
20 45 41
20 45 41
21 46 42
20 45 41
21 46 42
21 46 42
20 45 42
21 46 42
21 46 42
20 45 41
20 45 41
21 46 42
21 46 42
21 46 42
21 47 43
21 46 42
21 46 42
21 46 42
21 47 43
21 46 42
21 46 42
21 46 42
21 46 42
21 46 42
22 48 44
20 45 41
21 47 43
21 47 43
21 47 43
21 46 42
21 47 43
21 46 42
21 46 42
21 47 43
21 46 42
21 46 42
21 47 43
21 47 43
22 48 44
21 47 43
21 47 43
22 48 43
21 46 42
21 47 43
21 46 42
68 73 67
144 109 98
150 94 83
135 92 81
53 49 43
21 47 43
21 47 43
21 47 43
21 47 42
21 46 42
22 48 43
22 48 44
22 48 44
22 49 44
22 48 43
22 48 44
22 49 44
21 47 43
22 47 43
22 48 44
22 48 44
22 48 43
22 48 44
22 48 44
22 48 43
19 43 40
20 44 41
19 43 40
20 45 41
20 46 42
19 43 40
20 44 41
20 44 40
20 44 40
20 45 41
20 44 40
20 44 41
20 44 41
20 45 42
20 44 40
20 45 41
20 45 42
19 43 40
20 45 41
20 44 41
20 44 41
20 44 41
19 43 40
20 45 41
20 45 41
20 45 41
20 44 41
20 44 40
20 45 42
19 43 40
20 45 41
20 45 41
20 44 41
20 44 41
21 46 42
20 45 42
20 45 41
20 44 40
20 45 42
20 44 40
20 44 41
21 46 42
20 45 41
21 46 42
20 44 41
21 46 42
21 46 42
20 45 42
21 46 43
21 46 42
21 47 43
21 45 42
20 45 41
21 47 43
21 46 43
21 46 42
20 45 41
21 46 42
21 46 42
21 46 42
21 46 42
21 46 42
20 45 41
20 45 41
21 46 42
21 46 42
21 46 42
21 46 42
21 46 42
21 46 42
21 46 42
21 47 43
21 46 42
21 46 42
21 47 43
21 46 42
21 47 43
21 46 42
21 46 42
21 46 42
21 46 42
21 46 42
22 48 44
21 47 43
21 47 42
21 46 42
21 47 43
22 48 43
21 47 43
22 47 43
21 46 42
21 46 41
22 48 43
22 47 43
113 70 62
200 86 70
220 73 53
233 78 56
243 83 60
216 77 57
59 50 44
21 47 43
22 48 43
22 48 43
22 48 44
22 49 44
21 47 43
21 47 43
21 47 43
21 47 43
22 48 44
22 48 43
22 49 45
22 48 44
22 48 43
22 48 44
22 49 44
21 47 43
22 48 44
22 48 44
20 44 40
19 43 40
20 44 40
20 45 42
20 45 41
20 44 41
20 44 40
20 45 41
20 45 41
20 45 41
20 44 41
20 44 40
20 45 41
20 45 41
19 43 40
20 44 41
20 45 42
21 46 42
20 45 41
19 43 40
20 44 41
19 44 40
20 45 41
20 46 42
20 44 41
20 44 40
20 44 40
20 44 41
20 45 41
21 46 42
19 43 40
21 46 42
20 45 41
20 45 41
21 46 42
21 46 42
21 46 42
20 44 41
20 45 41
20 45 41
21 45 42
21 46 42
20 44 40
21 47 43
20 45 41
21 46 42
21 47 43
21 46 42
21 47 43
20 45 41
21 47 43
21 46 42
21 46 42
21 46 42
21 47 43
21 46 42
21 46 42
21 47 43
20 45 41
21 46 42
21 47 43
21 47 43
21 46 42
21 46 42
21 46 42
21 46 42
21 46 42
21 47 43
21 47 43
21 46 42
22 48 44
22 48 43
21 46 42
21 47 43
22 48 44
21 46 42
21 47 43
21 47 43
21 47 42
22 47 43
21 47 43
21 46 42
21 47 42
21 47 43
21 47 43
21 46 42
21 47 42
22 48 43
21 47 43
21 47 43
22 48 44
21 46 42
22 48 44
64 55 50
166 58 43
196 66 48
213 71 51
226 76 55
255 135 108
245 89 65
172 64 48
22 48 44
22 48 44
22 47 43
21 47 43
22 48 44
22 48 43
22 48 43
22 49 44
22 48 44
22 48 43
21 47 43
23 50 45
22 47 43
21 47 43
22 48 44
22 48 44
21 47 43
22 48 43
22 47 43
20 44 41
20 44 40
20 44 40
20 44 40
20 44 41
20 44 41
20 44 41
20 44 41
20 45 41
20 44 41
20 45 41
20 44 41
20 45 41
20 44 41
20 45 42
20 45 41
20 45 41
20 44 41
20 44 41
19 43 40
20 45 41
20 44 40
20 45 41
20 45 42
20 45 42
20 45 41
20 45 41
21 46 42
20 44 41
20 45 41
21 46 42
21 46 42
20 44 41
20 45 41
20 45 41
20 45 41
20 45 42
20 45 41
21 46 42
21 46 43
21 46 42
20 45 41
20 45 41
20 45 42
20 45 41
21 46 42
20 45 42
21 46 42
21 46 42
21 46 42
21 46 42
21 46 42
21 46 42
20 45 41
21 46 42
21 46 42
21 46 42
21 46 42
21 46 42
21 46 42
20 45 41
21 47 43
21 46 42
21 46 42
21 47 42
21 46 42
21 46 42
21 46 42
21 46 42
21 47 43
21 47 43
21 46 42
21 47 42
20 45 41
21 47 43
21 47 43
21 47 43
22 48 44
22 48 44
21 46 42
21 47 43
22 48 44
21 47 43
21 47 42
21 47 43
22 48 44
22 48 44
21 46 42
22 48 44
22 47 43
21 47 43
21 47 43
22 48 44
85 82 76
153 55 42
170 57 42
191 86 71
208 120 105
218 124 107
227 107 89
206 69 49
38 48 43
22 48 43
22 48 44
22 48 44
21 47 43
22 49 44
22 49 44
22 49 44
22 47 43
22 49 44
22 48 43
21 47 43
21 47 43
22 48 43
22 48 43
22 49 44
22 49 44
22 48 44
22 48 44
19 43 39
20 44 41
20 44 40
20 44 40
20 45 41
20 44 40
20 44 40
20 44 40
20 45 41
20 45 41
20 44 40
20 45 41
20 45 42
20 44 41
20 45 41
20 44 40
20 45 41
20 45 42
21 46 42
20 44 40
20 45 41
20 45 41
20 44 40
20 45 42
20 44 40
20 45 41
20 44 40
20 44 40
20 45 41
20 45 41
20 45 41
20 45 41
20 45 41
21 46 42
21 46 42
20 45 42
21 46 42
20 44 40
20 45 42
20 45 41
20 45 41
20 45 41
21 46 42
21 46 42
21 45 42
20 45 41
20 45 41
21 46 42
21 47 43
20 45 41
20 45 41
20 45 41
21 46 42
20 44 40
21 46 42
21 46 42
21 46 42
20 45 41
20 45 41
21 46 42
21 46 42
21 47 43
21 47 43
21 46 42
21 46 42
21 47 43
21 47 43
21 47 43
21 46 42
21 46 42
21 47 43
21 46 42
21 46 42
21 46 42
21 46 42
21 47 43
21 47 43
22 48 43
21 47 43
21 47 43
21 47 43
22 48 43
21 46 42
22 48 43
22 48 44
22 48 43
22 48 43
22 49 45
22 48 43
22 48 44
22 48 44
22 48 43
22 48 43
81 80 74
116 53 43
124 96 88
148 132 121
163 145 131
183 161 145
190 165 147
190 124 107
36 48 43
23 47 43
102 99 91
157 144 132
160 146 133
110 105 95
22 48 44
21 47 43
22 49 44
22 48 44
22 48 43
22 48 44
22 49 44
23 50 45
22 48 43
22 48 44
22 49 44
22 49 44
22 49 45
20 45 41
20 45 41
20 44 41
20 44 40
20 44 41
20 45 41
20 45 42
20 45 41
20 44 41
20 44 40
20 44 41
20 45 42
20 45 41
20 44 40
21 46 42
20 44 41
20 45 42
20 45 41
21 46 42
20 45 41
20 45 41
21 46 42
20 45 42
20 45 42
19 43 40
20 44 40
20 44 41
20 45 41
20 44 41
20 45 41
21 46 42
20 45 41
20 45 41
20 45 41
20 45 41
20 44 40
20 44 41
21 46 42
21 46 42
21 46 42
20 45 41
20 45 41
20 45 41
21 46 42
21 46 42
20 45 41
21 47 43
20 45 41
21 46 42
21 47 43
20 45 41
20 45 41
21 46 42
21 46 42
20 45 41
21 46 42
21 45 42
21 46 42
21 47 43
21 46 42
21 47 43
21 46 42
21 46 42
21 47 43
21 46 42
21 46 42
21 47 43
21 47 43
21 46 42
21 46 42
21 46 42
21 46 42
22 47 43
21 47 43
21 47 42
21 45 41
21 47 42
22 48 44
21 46 42
21 47 43
21 47 43
22 48 44
22 47 43
22 48 44
22 47 43
22 47 43
22 47 43
21 47 42
21 47 42
21 47 43
22 48 43
21 47 42
22 48 44
56 58 52
96 69 61
104 97 88
92 86 78
107 96 86
132 116 103
146 127 110
141 120 104
61 66 60
170 156 145
210 190 177
220 199 184
232 208 191
242 216 196
195 174 157
33 52 47
22 48 43
22 48 43
22 49 44
22 48 44
22 49 44
22 49 44
22 48 44
22 49 45
22 48 43
22 49 44
22 49 44
20 45 41
20 44 41
19 43 40
20 44 40
19 43 40
20 44 41
20 45 42
20 44 41
20 45 41
20 44 41
19 43 40
20 44 41
20 45 42
20 44 41
20 45 41
20 44 41
20 45 42
20 45 41
19 43 40
20 44 40
20 45 41
20 45 41
20 45 41
20 45 41
21 46 42
20 44 40
20 45 41
21 46 42
20 44 41
21 46 42
21 46 42
20 45 41
20 45 41
21 46 42
21 46 42
20 44 41
20 44 41
21 47 43
20 45 41
21 46 42
21 46 42
21 46 42
20 44 40
21 47 43
20 45 41
21 47 43
21 47 43
20 44 41
21 46 42
20 45 41
21 46 42
21 46 42
21 46 42
20 45 41
21 46 42
21 46 42
21 46 42
21 46 42
21 46 42
21 46 42
21 47 43
21 46 42
22 48 43
21 47 43
21 47 43
21 46 42
21 47 43
21 47 43
21 46 42
21 47 43
22 48 44
21 47 43
22 48 43
22 48 44
21 47 43
22 47 43
21 46 42
21 46 42
21 47 42
22 48 44
21 46 42
21 46 42
21 47 43
21 47 42
21 46 42
21 47 42
21 47 43
22 47 43
21 47 42
21 45 41
22 48 44
21 47 42
20 44 40
32 44 40
49 43 37
56 56 49
45 48 41
45 47 40
67 62 51
89 80 67
58 63 56
113 105 105
167 152 146
184 165 158
197 177 167
212 189 176
254 227 206
221 193 178
134 119 113
22 48 43
22 49 44
22 49 45
22 49 45
22 48 44
22 49 44
22 48 44
22 49 45
22 49 44
22 48 43
22 48 44
20 44 40
20 44 40
20 46 42
20 44 41
20 45 41
20 44 40
20 44 41
20 45 41
20 44 41
19 43 40
20 45 41
20 45 41
21 46 43
20 45 42
20 44 40
20 44 40
20 45 42
19 43 40
20 45 42
20 44 41
20 44 40
20 45 42
20 45 41
20 45 41
20 44 40
21 46 42
21 46 42
20 45 41
20 45 41
20 45 42
20 45 42
20 45 41
20 45 41
21 46 42
20 45 41
20 45 41
20 45 41
20 44 40
20 45 41
21 47 43
20 45 41
21 47 43
21 46 42
21 46 42
21 46 42
21 46 42
21 47 43
21 46 42
21 46 42
20 45 41
21 46 42
20 45 41
21 47 43
20 45 42
21 46 42
21 47 43
21 46 42
22 47 43
21 46 42
21 47 43
21 46 42
21 46 42
21 46 42
21 47 42
21 46 42
21 47 43
21 46 42
21 46 42
21 46 42
21 47 42
21 46 42
21 47 43
21 46 42
21 47 43
21 47 43
21 47 43
22 47 43
22 48 43
22 48 43
21 47 42
21 46 42
21 47 43
22 47 43
21 47 43
22 48 43
22 48 44
22 49 44
21 47 43
21 46 42
19 43 40
17 38 35
14 32 31
14 31 30
13 29 28
11 23 22
11 21 17
21 27 20
39 38 27
34 37 28
28 42 36
28 44 43
64 44 74
66 45 76
75 51 85
82 55 91
87 58 94
92 62 97
94 62 99
88 60 92
24 48 44
22 48 43
22 48 44
22 48 44
22 48 44
22 49 44
22 49 44
22 49 44
22 48 43
22 49 44
22 48 44
20 45 41
20 44 41
20 44 41
20 45 41
20 44 41
20 44 40
20 44 40
20 45 42
20 45 41
21 46 42
20 44 40
20 45 41
21 46 42
20 44 41
20 44 41
20 44 41
20 46 42
20 44 41
20 45 42
21 46 42
20 44 40
21 46 42
21 46 42
21 46 42
21 46 42
21 46 42
21 46 42
20 45 41
20 45 42
20 45 42
20 45 41
21 45 42
21 46 42
20 45 41
20 44 41
21 46 42
20 45 41
20 45 41
21 46 42
20 45 41
21 46 42
21 47 43
21 46 42
21 46 42
21 46 42
21 46 42
21 46 42
21 45 41
21 46 42
22 48 44
21 47 43
21 46 42
21 46 42
20 45 41
21 46 42
21 47 43
21 47 43
20 45 41
22 48 43
21 46 42
21 47 43
21 47 43
21 47 43
21 47 43
21 46 42
21 46 42
21 47 42
21 46 42
21 46 42
21 47 43
22 48 43
21 46 42
21 47 43
21 46 42
22 48 44
21 47 43
21 47 42
22 47 43
21 47 43
21 46 42
21 47 43
22 47 43
21 47 42
21 47 43
22 47 43
21 47 43
22 48 43
21 47 43
21 46 42
21 46 42
20 45 41
19 42 39
19 41 38
17 38 35
16 36 33
15 33 30
13 30 27
16 33 29
17 38 33
19 42 37
34 40 45
54 37 61
56 38 64
60 41 68
66 44 73
74 50 81
79 52 84
82 53 84
81 53 83
30 48 47
23 49 45
22 48 44
22 49 44
22 48 43
23 50 45
23 50 46
22 49 44
22 48 43
23 50 45
23 49 45
19 43 40
19 43 40
20 44 40
20 45 41
20 44 41
20 45 41
20 45 42
21 46 42
20 44 41
20 45 41
20 45 41
20 46 42
20 44 41
20 46 42
20 44 41
20 45 42
20 45 41
20 44 41
20 45 42
20 45 41
20 44 40
20 45 41
20 45 42
20 45 42
21 46 42
21 46 42
21 46 42
21 46 42
20 44 41
21 46 42
21 45 42
20 44 40
21 46 42
21 46 43
20 45 41
20 45 41
21 46 42
21 47 43
20 45 42
20 45 41
21 47 43
21 46 42
21 46 42
21 46 42
20 45 42
21 46 42
21 46 42
21 46 42
21 46 42
21 47 43
21 47 42
21 47 43
21 46 42
20 45 41
22 48 44
21 46 42
21 46 42
21 47 43
21 47 43
22 48 44
21 46 42
21 45 42
21 47 43
21 46 42
21 46 42
22 48 44
21 46 42
21 47 43
21 46 42
21 46 42
21 46 42
22 47 43
22 48 44
21 47 43
21 47 43
21 47 42
21 47 43
21 47 43
21 46 42
22 48 44
21 47 42
22 49 44
22 47 43
22 48 44
21 47 43
21 46 42
21 46 42
22 47 43
21 47 43
22 49 45
21 46 42
21 46 41
22 47 43
21 46 42
21 46 42
22 47 42
21 47 42
22 47 43
21 46 42
21 47 42
28 44 44
43 29 48
47 32 53
49 34 56
51 35 58
53 36 58
59 39 63
67 44 69
64 44 66
26 48 45
22 48 43
22 49 45
22 49 44
22 49 44
23 49 45
22 49 44
22 48 44
22 48 44
23 50 45
23 50 45
20 44 40
19 43 39
20 45 41
20 44 40
20 45 41
20 46 42
20 45 41
20 45 42
20 45 41
20 45 41
20 45 41
20 45 42
20 46 42
20 44 41
20 44 40
20 45 41
20 45 42
20 45 41
20 45 41
20 45 41
20 45 41
20 45 41
20 45 42
20 45 42
20 45 41
21 46 42
20 45 41
20 45 41
21 46 42
20 45 41
20 45 41
20 45 42
21 46 42
20 45 41
21 45 42
21 46 42
21 45 42
21 46 42
21 46 42
21 46 42
21 46 42
21 45 42
21 46 42
21 46 42
20 45 41
21 46 42
21 46 42
21 46 42
21 47 43
21 47 43
21 46 42
21 46 42
21 46 42
21 46 42
21 45 42
21 46 42
21 46 42
20 44 41
21 47 43
21 47 43
20 45 41
21 46 42
21 46 42
21 47 43
22 48 44
21 47 43
21 46 42
22 48 44
21 46 42
21 47 43
21 46 42
22 49 44
22 48 43
22 47 43
21 47 43
21 47 43
21 46 42
21 46 42
21 46 42
22 48 44
21 47 43
21 47 43
21 47 42
21 47 43
21 47 43
22 48 43
21 47 43
22 47 43
21 47 43
21 47 43
21 47 43
21 46 42
22 47 43
22 48 43
22 48 44
21 47 42
21 46 42
21 47 43
21 47 42
21 46 42
22 46 43
36 33 40
32 24 36
36 27 39
34 24 39
36 26 41
44 33 44
50 34 47
46 45 51
22 47 43
22 48 43
22 49 44
22 48 43
22 48 43
22 48 44
22 49 44
22 48 44
22 48 43
23 49 45
23 50 45
20 44 41
20 45 41
20 45 41
20 45 41
20 44 41
20 44 41
20 44 40
20 45 41
21 46 42
20 44 41
20 45 41
20 45 42
20 45 42
20 45 41
20 44 40
20 44 40
20 45 41
21 46 42
21 46 42
20 45 41
20 45 42
21 46 42
20 44 40
20 45 41
20 44 41
20 44 40
20 45 41
21 47 43
20 45 41
21 45 42
20 45 41
21 46 42
20 44 41
20 45 41
21 46 42
21 47 43
20 45 41
21 46 42
20 45 41
21 46 42
21 46 42
20 45 42
21 45 42
21 46 42
20 45 42
21 46 42
21 46 42
21 46 42
20 45 41
21 46 42
21 47 43
21 47 43
21 47 43
21 47 43
21 46 42
20 45 41
21 47 43
20 45 41
20 45 41
21 46 42
21 45 41
21 47 43
21 46 42
21 46 41
21 47 43
21 46 42
21 47 43
21 47 43
22 47 43
21 47 43
21 46 42
22 48 43
21 46 42
21 47 43
21 46 42
21 46 42
21 47 43
21 47 43
21 46 42
21 47 43
22 48 43
21 46 42
21 46 42
22 48 43
21 47 43
22 48 43
21 46 42
21 47 43
21 47 42
22 48 43
21 47 43
22 48 43
22 48 44
21 47 43
21 46 42
22 47 43
21 46 41
19 43 39
18 41 37
18 40 37
17 38 35
20 35 32
26 33 28
24 32 26
37 41 33
42 44 35
51 49 37
47 51 43
29 48 43
22 47 43
22 49 44
22 48 43
22 48 43
22 48 43
21 47 42
22 48 43
22 49 44
22 49 44
23 49 45
22 49 44
20 45 41
20 45 41
20 44 40
20 45 41
20 45 41
20 44 41
20 45 42
20 45 42
20 45 41
21 46 42
20 45 41
20 45 41
20 45 41
20 45 41
20 45 41
21 46 43
20 45 42
20 45 42
20 44 41
20 45 42
20 46 42
20 45 41
21 46 43
20 45 41
21 46 42
20 45 41
21 46 42
20 44 40
20 45 42
20 45 41
20 45 41
20 45 41
21 46 42
20 45 41
20 45 41
21 46 42
21 46 42
20 45 41
21 46 42
20 44 40
21 46 43
21 45 42
20 45 41
21 46 42
21 47 43
21 46 42
21 46 42
21 46 42
21 47 43
21 46 42
21 46 42
21 47 43
21 46 42
21 47 43
22 48 44
22 48 43
21 46 42
21 47 43
21 47 43
21 46 42
21 47 43
21 47 42
21 47 43
21 47 43
22 47 43
21 47 43
21 45 41
22 47 43
22 48 43
21 47 43
21 47 43
21 47 42
22 48 43
21 46 42
21 47 43
22 48 43
22 48 44
21 47 43
22 49 44
21 47 42
22 48 44
21 47 43
21 47 43
22 48 43
22 48 43
21 46 42
21 47 43
21 47 42
22 48 43
22 47 43
22 48 44
22 48 43
22 48 43
21 46 42
22 47 43
21 45 41
19 43 39
17 37 35
15 34 32
13 30 29
13 30 29
11 25 24
10 21 20
9 18 15
17 21 16
29 29 21
21 30 25
21 43 37
21 45 40
21 46 41
22 47 42
22 48 43
22 48 43
22 48 43
22 48 43
22 48 44
23 50 45
22 48 44
22 49 44
23 50 45
20 45 41
20 45 41
20 44 40
20 45 41
20 45 41
20 44 41
20 45 41
20 45 42
20 44 41
20 45 41
20 44 40
20 45 41
20 45 41
20 44 40
20 44 41
20 45 42
20 45 41
20 45 41
20 45 41
20 45 41
20 44 41
20 45 41
21 47 43
21 47 43
21 46 42
20 45 41
20 45 41
21 46 42
21 46 42
21 46 42
20 45 41
21 46 42
21 46 42
20 45 42
21 46 42
20 45 41
20 45 42
20 45 41
21 46 42
21 47 43
21 46 42
21 47 43
20 45 41
21 45 41
21 46 42
21 47 43
21 45 41
20 45 41
21 46 42
22 48 44
20 45 41
20 45 41
21 47 43
21 46 42
21 45 42
21 46 42
21 47 43
21 47 43
22 48 43
21 46 42
22 48 44
21 47 42
21 46 42
21 47 43
21 47 43
21 47 42
21 46 42
21 47 43
22 49 44
22 48 43
21 47 43
22 48 44
21 47 42
21 46 42
21 47 43
21 46 42
21 47 43
22 48 43
22 47 43
22 48 43
21 47 43
22 48 43
22 48 43
22 49 44
21 47 43
22 48 43
22 49 44
21 47 43
21 47 42
23 50 45
21 47 43
22 48 44
22 49 45
22 48 43
22 48 43
22 48 43
21 47 42
21 47 42
20 43 39
19 42 39
18 40 37
17 38 35
17 37 34
17 37 33
15 34 31
17 38 34
19 42 37
20 44 39
20 44 39
21 46 41
21 47 42
22 48 43
22 48 43
22 48 44
22 48 43
22 48 43
22 48 43
22 49 44
22 49 44
22 49 44
20 44 41
20 44 40
20 45 41
20 44 40
20 45 41
20 44 41
20 44 40
20 44 41
20 45 42
20 45 41
21 46 42
21 46 42
20 45 42
20 45 41
20 45 41
20 44 40
20 45 42
20 45 42
21 46 42
20 44 41
21 46 42
20 45 41
20 45 41
21 46 42
20 45 41
20 45 41
20 45 41
21 46 42
20 44 40
21 46 42
21 46 42
21 46 42
21 46 42
20 45 41
20 45 41
20 45 41
20 45 41
21 46 42
21 47 43
21 46 42
21 45 42
21 46 42
21 47 43
21 46 42
21 47 43
21 47 43
20 44 41
21 47 43
21 46 42
21 46 42
21 46 42
21 46 42
21 46 42
21 47 43
21 47 43
21 47 43
21 47 43
21 47 43
21 46 42
21 46 42
21 46 42
21 46 42
21 47 43
21 47 42
22 48 44
21 46 42
21 46 42
21 47 43
21 47 43
21 47 43
22 48 44
22 48 44
21 47 43
21 47 43
21 47 43
22 47 43
22 48 43
21 47 43
21 47 43
22 48 43
22 48 44
22 48 44
22 48 44
22 48 44
22 48 44
22 48 44
22 48 44
22 48 43
22 48 43
22 48 43
21 46 42
22 47 43
22 48 43
22 48 43
22 48 43
22 47 43
21 46 42
22 48 43
22 48 44
22 47 43
21 46 42
22 48 44
22 47 43
21 46 42
22 47 43
21 46 42
22 48 43
22 47 43
21 47 42
22 48 43
21 47 42
22 47 43
22 47 43
22 48 44
23 50 45
22 49 44
22 49 44
22 48 43
22 48 44
22 47 43
20 44 41
20 45 41
20 45 41
20 45 41
20 44 41
20 45 42
20 44 41
20 45 42
20 45 41
20 45 41
21 46 42
21 46 42
20 45 41
20 44 40
21 45 42
20 45 41
21 46 42
21 46 42
20 46 42
20 45 42
20 44 40
20 46 42
21 47 43
20 45 41
20 45 41
20 45 42
20 45 41
21 46 42
20 45 41
20 44 41
21 46 42
20 45 41
21 46 42
20 45 41
21 47 43
21 46 42
20 45 41
21 47 43
21 46 42
20 45 41
21 45 42
21 46 42
21 47 43
21 47 43
21 47 43
21 46 42
21 46 42
21 46 42
21 47 43
21 46 42
21 46 42
21 46 42
21 47 42
21 46 42
21 46 42
21 46 42
21 46 42
21 47 43
22 48 44
21 47 43
21 47 43
21 46 42
21 46 42
21 46 42
21 47 43
21 47 43
21 46 42
21 46 42
21 46 42
21 47 43
22 49 44
21 47 43
21 47 43
22 48 44
22 48 44
22 48 44
22 47 43
21 47 43
21 47 43
21 46 42
22 48 44
22 47 43
22 48 43
22 48 44
22 48 44
22 48 44
22 48 43
21 46 42
22 48 44
22 47 43
21 47 43
22 48 43
22 48 44
21 47 43
21 47 42
22 48 44
22 49 44
22 47 43
22 48 44
22 48 43
21 47 43
21 47 42
22 48 44
21 47 42
21 47 42
22 48 43
22 48 44
22 49 44
22 49 44
22 48 43
22 48 44
22 49 44
23 49 44
22 48 43
21 47 42
22 48 44
22 47 43
22 48 43
22 48 43
22 47 43
20 44 40
20 44 40
20 45 41
20 43 40
20 45 42
20 44 41
20 45 41
21 46 42
20 45 41
20 45 41
20 44 41
20 44 40
20 45 41
20 45 41
20 44 41
20 45 42
21 46 42
21 46 42
20 45 41
21 46 42
21 46 42
20 45 41
20 45 41
21 46 42
20 45 42
20 44 41
20 44 41
21 46 42
21 46 42
20 45 41
20 45 41
20 45 41
21 46 42
20 44 41
21 46 42
20 45 41
20 45 41
20 45 41
21 45 42
21 46 42
21 46 42
20 45 41
21 46 43
21 47 43
21 46 42
20 45 41
21 46 42
21 47 43
21 47 43
21 46 42
21 46 42
20 45 41
21 47 42
21 47 43
21 47 42
22 48 43
21 46 42
21 47 43
21 47 43
21 46 42
21 47 43
21 47 42
21 46 42
22 48 43
21 47 43
22 47 43
21 47 43
22 48 44
21 47 42
22 48 43
21 46 42
22 48 43
21 47 43
21 47 43
22 48 43
21 46 42
22 49 44
22 48 44
21 47 43
22 48 43
21 47 42
21 47 43
22 48 44
22 48 44
21 47 43
22 48 43
21 47 43
22 47 43
22 48 44
22 48 44
22 48 43
22 48 44
22 47 43
22 49 44
21 47 43
21 47 43
22 49 44
22 48 43
22 49 45
22 47 43
22 48 43
21 47 43
22 48 44
22 48 44
22 48 44
22 48 44
22 48 44
22 48 43
22 49 44
22 48 44
22 48 44
22 48 43
21 47 43
22 48 44
21 47 43
22 49 44
21 47 42
22 48 44
22 48 44
22 48 43
20 44 40
20 45 41
20 46 42
20 45 42
20 45 41
21 46 42
20 44 41
20 44 40
20 45 41
20 45 41
21 46 42
20 44 41
21 46 42
20 44 41
20 45 42
21 46 42
20 45 42
20 45 41
21 47 43
20 45 41
21 46 42
20 45 41
20 44 41
20 45 41
21 46 42
20 45 41
20 45 41
21 46 42
21 46 42
21 46 42
20 45 41
21 47 43
21 47 43
20 45 42
21 46 42
21 46 42
20 45 41
20 45 41
21 46 42
21 46 42
20 45 41
21 46 42
21 46 42
21 46 42
21 46 42
20 45 41
21 46 42
21 45 42
21 46 42
21 46 42
21 46 42
21 47 43
21 46 42
21 47 43
21 46 42
21 47 43
21 46 42
21 47 43
21 46 42
21 46 42
21 46 42
21 47 42
21 47 43
22 48 43
21 47 43
22 48 44
21 47 43
21 47 43
21 47 43
21 46 42
21 47 43
21 47 43
22 49 45
21 46 42
21 46 42
22 48 43
21 47 42
22 48 43
21 47 43
22 48 43
22 47 43
22 47 43
22 48 44
22 48 44
21 47 43
22 48 44
21 47 43
22 48 44
22 48 43
22 48 44
21 47 43
22 47 43
22 49 44
21 47 43
21 47 43
22 48 44
22 48 43
21 47 43
22 48 43
22 48 43
22 49 44
21 47 43
22 49 44
22 48 44
23 50 45
23 50 45
22 47 43
23 50 45
22 47 43
22 48 44
21 47 42
22 49 44
22 48 44
22 48 43
22 48 44
22 48 43
22 48 44
22 47 43
22 49 44
22 49 44
20 44 41
20 45 41
20 44 41
20 45 41
20 45 41
19 43 40
20 44 41
21 46 42
20 45 41
20 44 41
20 44 40
20 44 41
20 43 40
20 44 41
21 46 42
21 46 42
20 45 42
20 45 41
21 46 42
21 46 42
20 45 41
20 45 42
21 46 42
21 47 43
20 45 42
21 46 42
21 46 42
21 45 42
20 45 41
21 46 42
21 46 42
20 45 41
21 47 43
21 47 43
21 46 42
21 47 43
20 45 42
21 46 42
21 46 42
21 46 42
20 45 42
21 46 42
20 45 41
20 45 41
21 46 42
21 47 43
21 46 42
21 47 43
21 46 42
21 45 42
21 47 43
21 46 42
21 46 42
21 47 43
21 46 42
21 47 43
21 46 42
21 47 43
21 46 42
21 46 42
21 46 42
21 47 43
21 46 42
21 46 42
21 46 42
21 47 43
21 47 42
21 47 43
21 46 42
22 48 44
22 48 44
22 47 43
21 47 42
21 46 42
22 47 43
22 48 44
21 47 43
21 47 43
22 48 44
22 48 43
22 48 44
22 48 44
22 48 44
22 48 44
22 48 44
21 46 42
21 46 42
22 48 44
21 47 43
22 48 43
22 48 44
22 48 43
22 49 44
22 48 44
22 48 44
22 49 44
22 49 44
21 47 43
22 48 43
21 47 43
22 48 44
22 48 44
22 48 44
22 48 44
22 49 44
22 49 44
22 48 43
22 48 44
22 48 43
22 48 44
22 48 44
22 49 44
22 49 44
22 48 44
22 48 44
22 48 44
22 47 43
22 48 44
22 49 44
22 49 45
20 45 41
20 44 40
20 43 40
20 45 41
20 45 41
20 45 41
20 44 40
21 46 42
20 45 41
20 45 41
20 44 41
20 45 41
20 45 41
20 44 41
20 45 41
20 45 41
21 46 42
20 44 41
21 46 42
20 45 41
20 45 42
21 46 42
20 45 41
20 45 41
21 45 42
21 46 42
20 45 41
20 45 41
21 46 42
20 45 41
21 45 42
21 47 43
21 47 43
21 46 42
21 46 42
21 46 42
21 47 43
21 46 42
21 46 42
21 46 42
22 48 44
21 46 42
20 45 41
21 47 43
20 45 41
21 47 43
21 46 42
21 46 42
21 46 42
21 47 43
21 45 41
20 45 41
21 47 43
22 48 43
21 46 42
21 46 42
21 46 42
21 47 43
21 46 42
22 48 44
21 47 43
21 47 42
21 46 42
21 45 41
22 48 44
21 46 42
22 48 43
21 47 43
21 47 43
22 47 43
21 46 42
21 46 42
21 47 43
21 46 42
21 47 43
21 47 43
21 47 43
22 48 44
22 48 44
22 48 43
22 48 44
21 47 43
22 47 43
22 47 43
22 48 44
21 47 43
21 47 43
21 47 43
21 47 43
21 47 43
22 47 43
22 48 44
22 49 44
21 46 42
22 48 44
22 48 44
22 49 44
22 48 43
21 47 42
21 47 42
22 48 43
22 48 44
23 50 45
22 48 43
22 48 44
22 48 43
22 48 44
22 49 44
22 48 43
22 48 44
22 48 44
21 47 43
22 48 44
22 48 44
22 48 43
22 48 44
22 49 44
22 49 44
22 47 43
22 49 44
20 44 40
21 46 42
20 45 41
20 45 41
20 45 41
20 45 42
20 44 40
20 45 41
20 45 42
20 44 40
21 46 42
20 44 41
20 45 41
21 46 42
20 44 40
21 46 42
21 47 43
21 46 42
21 46 42
21 46 42
20 45 42
21 46 42
20 45 41
20 45 41
21 46 42
21 46 42
21 46 42
21 46 42
21 46 42
21 47 43
21 46 42
21 46 42
21 46 42
20 45 41
20 45 41
21 46 42
21 46 42
21 47 43
20 45 41
21 46 42
20 45 41
21 46 42
21 46 42
21 45 42
21 45 42
21 46 42
22 48 44
20 45 41
21 46 42
20 45 42
21 46 42
21 47 43
21 46 42
21 46 42
21 46 42
21 47 43
21 46 42
21 47 42
21 46 42
20 45 41
21 47 43
21 46 41
21 47 43
21 47 42
21 47 43
21 47 43
21 47 43
21 47 43
21 47 43
21 46 42
22 48 44
21 47 42
21 46 42
21 47 43
21 47 43
21 47 43
21 47 43
21 47 43
22 48 44
21 46 42
22 48 44
22 48 44
22 48 44
22 48 43
21 47 43
22 48 44
21 47 43
21 47 42
22 48 43
22 48 44
22 48 44
22 48 44
22 48 44
22 47 43
21 47 43
22 49 45
22 49 44
22 47 43
22 48 44
22 49 44
22 48 44
21 47 42
22 48 44
22 48 44
22 48 44
21 47 43
22 49 44
22 48 44
22 49 44
22 49 44
22 47 43
23 49 45
22 48 43
22 48 43
22 48 44
22 49 44
22 48 43
22 49 44
21 47 43
22 47 43
20 44 41
20 45 41
20 45 41
20 45 41
20 45 41
20 45 42
21 46 42
21 47 43
20 44 41
20 45 42
20 45 41
20 45 41
20 45 41
20 45 41
20 45 41
20 45 41
21 46 42
20 45 41
20 45 41
21 46 42
20 45 41
20 45 41
21 46 42
21 46 42
21 46 42
20 45 41
21 46 42
21 46 42
21 46 42
20 45 41
21 46 42
21 46 43
21 46 42
21 47 43
20 45 41
21 47 43
21 47 43
21 47 43
21 46 42
20 45 41
21 47 43
21 46 42
20 45 41
21 46 42
21 47 43
21 46 43
21 46 42
21 47 43
21 47 43
20 45 41
20 45 41
21 46 42
20 45 41
21 45 41
21 46 42
21 47 43
21 45 41
21 46 42
21 47 43
21 47 43
21 47 43
21 47 43
21 47 43
21 46 42
21 47 43
21 46 42
21 47 43
22 47 43
21 46 42
21 47 43
22 48 44
22 48 44
21 46 42
21 47 43
21 47 43
21 47 43
22 48 44
21 47 43
22 49 44
21 47 43
21 47 42
21 47 43
21 47 43
22 48 43
21 46 42
22 48 43
22 47 43
22 49 44
22 48 43
22 48 44
22 48 43
21 47 43
22 49 44
22 48 43
22 48 44
23 50 45
22 47 43
22 48 43
22 48 43
22 48 43
22 48 43
22 47 43
22 49 45
22 47 43
22 48 44
22 48 44
23 50 45
22 48 44
22 49 45
22 49 44
21 47 42
22 48 44
22 48 44
22 48 44
22 48 43
22 48 43
22 49 44
22 48 43
21 47 43
22 48 43
20 45 41
20 45 41
20 46 42
20 45 41
20 44 41
20 45 41
20 45 41
20 44 40
20 45 41
20 45 41
20 44 41
21 46 43
21 46 42
20 45 41
20 45 42
20 45 41
20 45 41
21 46 42
20 45 42
20 44 40
20 45 42
20 45 41
20 45 41
21 46 42
21 46 42
20 45 41
20 45 41
20 45 41
20 45 41
20 44 41
21 46 42
21 46 42
21 46 43
20 45 41
21 46 43
21 46 43
21 46 42
20 45 42
20 45 42
20 45 41
21 47 43
21 46 42
21 46 42
21 46 42
21 47 43
21 47 43
21 46 42
21 46 42
21 47 43
21 47 43
21 45 41
21 46 42
21 47 43
21 47 43
21 47 43
21 47 43
21 47 42
21 46 42
21 46 42
21 47 43
21 47 43
21 47 43
21 46 42
21 46 42
21 46 42
22 48 44
21 46 42
21 47 43
21 47 43
21 47 42
21 46 42
21 47 43
21 47 43
21 47 43
21 47 43
21 47 43
21 47 43
22 48 44
21 47 43
21 47 42
21 47 43
21 47 43
21 47 42
22 48 43
22 48 44
21 46 42
21 47 43
21 47 43
21 46 42
21 47 43
21 47 43
22 48 44
21 47 43
21 46 42
21 47 43
22 48 43
21 47 43
22 48 44
22 47 43
22 49 44
22 48 43
22 48 44
22 49 45
21 47 42
23 49 45
22 47 43
22 48 44
22 48 43
22 48 43
22 48 44
21 47 43
22 48 44
22 48 44
22 48 43
22 49 45
22 48 43
22 48 43
22 49 44
23 50 45
22 48 44
19 43 40
20 45 42
20 46 42
21 46 42
20 45 41
20 44 40
20 44 41
21 46 42
20 44 41
20 45 41
20 45 41
20 45 41
20 45 41
20 44 41
20 45 41
20 44 41
20 43 40
20 45 42
20 45 41
20 45 42
20 44 40
20 45 42
20 45 41
20 45 41
20 45 41
20 45 41
20 45 42
21 46 42
20 45 41
21 46 42
20 45 41
21 47 43
20 45 41
20 45 41
21 46 42
20 45 42
20 45 42
21 46 42
21 46 42
20 45 41
21 46 42
20 45 41
21 47 43
20 45 42
21 47 43
21 46 42
21 46 42
21 46 42
21 47 43
21 47 43
21 46 42
20 45 41
21 47 43
21 46 42
21 46 42
21 46 42
21 46 42
21 47 43
21 46 42
21 46 42
20 45 41
22 48 43
21 46 42
22 48 43
21 45 42
21 46 42
21 47 43
21 47 43
21 46 42
21 47 43
21 46 42
21 46 42
21 46 42
22 48 44
21 47 43
21 47 43
21 47 43
22 47 43
22 48 43
22 48 44
22 48 43
22 48 43
21 46 42
21 46 42
22 49 44
22 48 43
21 47 43
22 47 43
21 47 43
22 48 43
21 47 43
21 47 43
21 47 43
21 47 43
21 46 42
22 48 43
22 49 44
22 48 44
22 48 43
21 47 43
22 48 44
22 48 44
22 47 43
21 47 43
22 47 43
22 48 43
21 47 43
22 48 43
22 49 44
22 48 43
22 48 43
22 47 43
22 49 44
22 48 44
22 48 44
23 50 45
22 47 43
22 48 43
22 47 43
22 48 44
20 44 41
20 44 41
21 46 42
21 46 42
20 45 41
20 45 41
20 45 41
20 45 41
21 46 42
21 46 42
20 45 41
20 44 41
20 44 41
20 45 41
20 45 41
20 44 41
21 46 43
20 44 40
20 45 41
20 45 41
21 46 42
20 45 42
20 45 41
21 46 42
20 45 41
20 45 41
20 45 41
21 46 42
21 46 42
20 45 41
21 46 42
20 45 41
20 44 41
20 45 41
20 44 41
21 46 42
20 44 40
21 46 42
21 46 42
20 45 41
21 46 42
21 46 43
21 46 42
20 45 42
21 46 42
21 47 43
20 45 41
21 46 42
21 46 42
21 46 42
21 46 42
21 47 43
21 47 43
22 48 44
21 46 42
20 45 41
21 47 43
21 46 42
21 47 43
21 46 42
22 48 44
21 47 43
21 47 43
21 47 43
21 47 43
21 46 42
21 47 43
21 46 42
22 48 43
22 48 44
21 47 43
21 47 43
21 47 43
21 46 42
22 49 45
22 47 43
22 48 44
21 47 43
21 47 42
21 47 43
21 47 43
22 48 44
21 47 43
21 46 42
22 48 44
22 48 43
21 47 43
22 48 44
21 47 42
21 47 43
22 48 44
21 47 43
22 49 44
22 48 44
21 47 42
21 47 43
22 48 43
21 46 42
22 48 44
22 48 44
22 49 44
21 46 42
23 50 45
22 48 43
22 48 43
21 46 42
22 48 44
22 48 43
22 49 44
22 48 44
21 46 42
22 48 44
21 47 42
22 48 43
22 48 44
22 49 44
22 48 43
22 49 44
22 49 44
22 48 43
20 45 41
20 45 41
20 45 41
20 45 42
21 46 42
20 45 41
20 45 41
20 45 41
20 45 42
20 44 41
20 44 40
20 45 41
21 46 42
21 46 42
20 45 41
20 44 41
20 45 41
21 46 42
21 46 42
20 44 40
20 45 41
20 45 41
20 45 41
20 45 42
20 45 41
20 44 40
21 46 42
20 45 42
21 46 42
20 45 41
21 46 42
20 45 41
21 46 42
21 47 43
21 45 42
20 45 41
21 46 42
20 45 42
20 45 41
20 45 41
21 45 41
21 46 42
21 46 42
22 48 43
21 47 43
21 46 42
20 44 41
21 46 42
20 45 41
21 46 42
20 45 41
21 46 42
20 45 41
21 46 42
21 46 42
21 46 42
21 47 43
21 46 42
22 48 43
21 46 42
21 45 41
22 48 44
21 47 43
21 46 41
21 46 42
21 46 42
22 48 43
22 48 43
21 47 42
21 46 42
21 47 43
21 47 43
22 48 44
22 47 43
22 48 44
21 47 43
22 48 44
21 47 43
21 46 42
21 47 43
21 47 43
21 46 42
21 47 43
21 47 43
21 47 42
21 47 43
22 47 43
21 46 42
22 48 44
22 48 43
21 47 43
22 48 44
21 47 43
22 48 43
22 47 43
22 48 43
22 47 43
21 46 42
21 47 43
22 48 44
22 49 44
22 48 43
22 48 43
22 48 43
21 47 43
22 49 44
21 47 42
22 48 44
22 48 44
22 49 44
22 48 43
22 48 44
22 48 44
22 47 43
21 47 42
21 47 43
22 48 44
22 48 43
21 47 43
22 48 44
21 46 42
21 46 42
20 45 42
20 45 41
20 45 42
21 46 42
20 45 41
20 45 41
20 45 42
21 46 42
20 45 41
21 46 42
20 45 41
20 45 41
20 44 40
21 46 42
20 45 41
20 45 41
21 47 43
20 45 41
21 46 43
20 45 41
20 45 41
20 45 41
20 45 41
20 45 41
20 45 41
20 45 41
21 46 42
21 46 42
21 46 42
21 46 42
20 45 41
21 45 42
20 44 40
21 46 42
21 46 42
20 45 41
21 47 43
21 46 42
21 46 42
21 47 43
21 46 42
20 45 41
20 45 41
21 47 43
21 47 43
21 46 42
21 48 43
21 46 42
22 48 44
21 46 42
21 46 42
21 46 42
21 46 42
21 47 43
21 46 42
21 47 43
21 47 43
21 46 42
21 46 42
21 47 43
21 45 41
21 47 42
21 47 43
21 46 42
21 46 42
21 46 42
21 46 42
21 46 42
22 48 43
21 47 43
22 48 44
21 46 42
22 48 44
21 47 43
22 48 44
21 47 43
21 46 42
21 46 42
21 47 43
21 47 43
20 45 41
21 46 42
21 47 42
21 47 43
21 45 41
22 48 44
22 48 43
22 48 44
21 46 42
21 47 43
22 49 44
21 47 42
22 48 44
21 47 43
22 48 44
22 47 43
22 48 44
22 49 45
21 47 42
22 49 45
22 48 44
21 47 43
21 47 43
22 48 44
22 48 44
22 49 44
22 47 43
23 50 45
21 47 43
22 49 44
22 48 44
22 48 43
21 47 43
22 47 43
22 49 44
21 46 42
22 49 44
22 49 44
20 45 41
20 44 41
20 44 41
20 44 41
20 45 41
20 45 41
20 44 41
20 45 41
20 45 41
20 45 41
21 46 42
21 46 43
20 45 41
20 45 42
21 46 42
20 45 41
20 45 41
21 46 42
20 44 41
20 44 41
20 44 40
20 45 41
21 46 42
21 46 42
20 45 41
20 45 41
21 47 43
20 45 42
21 47 43
20 45 41
20 45 42
20 45 41
20 45 41
21 46 42
21 45 42
21 46 42
20 43 40
21 46 42
20 45 41
21 47 43
21 46 42
21 47 43
20 45 41
21 46 42
21 46 42
21 47 43
21 46 42
21 47 43
21 46 42
21 47 43
21 46 42
21 46 42
21 46 42
21 47 43
20 45 41
21 46 42
21 46 42
21 46 42
21 46 42
21 47 43
21 46 42
21 46 42
21 47 43
21 47 43
21 47 43
21 47 43
21 46 42
21 46 42
21 46 42
21 46 42
21 47 42
22 48 43
21 47 43
22 48 44
22 48 43
21 47 43
22 48 43
21 47 43
21 47 43
22 48 44
22 48 44
21 46 42
21 46 42
21 47 43
21 47 43
22 48 43
21 46 42
22 48 44
22 48 44
22 49 44
21 47 42
22 48 43
21 47 43
21 47 43
21 47 43
22 47 43
21 47 43
21 47 42
22 48 44
22 47 43
21 47 43
22 48 44
22 48 44
22 48 43
22 47 43
22 47 43
22 48 43
22 48 44
22 48 43
22 48 44
22 48 43
23 50 45
22 48 43
22 47 43
23 50 45
22 49 44
22 49 44
22 48 44
22 48 43
22 49 44
20 44 40
21 46 42
20 45 41
21 46 42
20 45 41
20 44 40
20 46 42
20 44 41
20 44 40
21 46 42
20 45 41
20 43 40
20 45 41
21 46 42
20 44 41
20 44 41
20 44 41
21 46 42
21 46 42
20 45 42
21 46 42
20 44 41
20 45 41
21 46 43
21 46 42
21 47 43
21 46 42
21 45 42
20 44 40
21 47 43
20 44 41
21 46 42
21 46 42
21 47 43
21 46 42
21 47 43
21 46 42
21 46 42
20 45 41
21 46 42
20 45 41
20 45 41
21 47 42
20 45 41
21 46 42
21 46 42
21 47 42
21 46 42
21 47 43
21 47 43
21 46 42
21 47 43
21 46 42
20 45 41
21 46 42
21 46 42
21 46 42
21 47 43
21 47 42
20 45 41
21 46 42
21 46 42
22 47 43
21 46 42
21 47 43
21 46 42
21 46 42
21 46 42
21 46 42
21 46 42
21 46 42
21 46 42
21 46 42
21 47 43
21 46 42
21 47 43
22 48 43
21 47 43
21 46 42
21 47 43
21 47 43
21 47 43
21 47 43
21 47 43
21 47 43
21 47 43
21 46 42
22 48 43
21 46 42
21 46 42
22 48 43
21 46 42
22 47 43
22 48 44
22 48 44
22 47 43
21 47 43
21 47 43
21 47 43
22 47 43
22 48 43
21 47 43
22 48 44
21 47 43
22 48 44
22 48 43
21 47 43
21 47 43
21 47 43
22 48 44
21 47 43
21 47 43
22 48 44
21 47 43
22 49 44
21 47 43
22 48 44
22 47 43
22 48 43
21 47 43
20 45 41
20 44 41
20 45 41
20 45 41
20 45 42
21 46 42
21 46 42
20 45 42
20 45 41
20 45 42
21 46 42
20 45 42
21 47 43
21 46 42
20 45 41
20 45 41
20 45 41
20 44 40
20 44 41
20 45 41
20 45 41
20 44 41
20 45 41
20 45 41
20 45 41
21 46 42
20 45 41
20 45 41
21 46 42
20 45 42
20 45 41
21 46 42
20 45 41
21 46 42
21 46 42
20 45 41
21 47 43
21 46 42
20 45 41
21 46 42
21 46 42
21 47 43
21 46 42
21 46 42
21 46 43
21 46 42
20 45 42
21 46 42
20 45 41
20 45 41
21 46 42
20 45 41
21 47 43
21 46 43
21 45 42
21 47 43
21 46 42
21 47 43
21 47 43
21 47 43
22 48 44
22 48 43
21 46 42
21 46 42
21 46 42
21 47 43
21 46 42
21 47 43
21 46 42
20 45 41
21 46 42
21 47 43
21 47 43
21 47 43
21 46 42
21 46 42
21 47 43
21 47 43
21 47 42
22 48 44
21 47 43
21 46 42
21 47 43
21 46 42
22 48 44
22 47 43
21 45 41
21 47 43
22 48 43
22 47 43
22 48 44
21 47 43
22 48 43
21 47 43
22 48 44
21 47 43
21 46 42
21 47 43
21 47 43
21 47 43
21 46 42
22 48 43
22 48 44
22 48 43
22 48 44
22 48 44
21 47 43
22 49 44
22 49 44
21 47 43
22 48 43
22 48 44
22 48 43
21 47 43
21 47 43
22 47 43
22 48 44
22 49 44
21 47 43
22 48 44
20 45 42
20 44 41
20 45 41
20 44 40
20 44 41
20 45 41
20 44 41
21 46 42
20 45 41
20 44 41
20 45 41
20 44 40
20 45 41
20 45 41
20 45 41
20 45 41
20 45 42
20 44 41
21 46 42
20 45 42
20 45 42
20 45 41
21 46 42
21 47 43
21 46 42
21 46 43
21 45 42
21 46 42
20 45 41
20 45 41
20 45 41
21 46 42
21 46 42
20 44 41
21 46 42
21 46 42
20 45 42
20 45 41
21 46 42
21 47 43
20 45 41
21 47 43
21 46 42
21 47 43
21 46 42
21 46 42
21 46 42
21 47 43
21 46 42
20 45 41
21 46 42
21 46 42
21 46 42
21 46 42
21 47 43
21 46 42
21 46 42
21 46 42
22 48 44
21 46 42
22 48 44
21 46 42
21 46 42
21 47 43
22 48 43
21 46 42
21 47 43
21 47 43
21 47 43
21 47 43
21 46 42
21 47 43
21 46 42
21 47 43
21 47 43
21 46 42
21 46 42
21 46 42
21 47 43
22 48 44
21 47 43
21 47 43
21 47 43
21 46 42
22 48 44
21 47 43
21 47 43
22 48 44
22 47 43
21 47 43
21 47 43
21 47 42
21 47 43
21 46 42
21 46 42
21 47 43
21 47 43
22 47 43
21 47 42
21 46 42
22 48 44
21 47 43
22 48 44
21 47 43
22 48 43
22 48 43
21 46 42
22 49 44
21 47 42
22 48 43
21 47 43
22 49 45
22 48 43
22 48 44
22 48 44
22 48 43
22 48 43
22 48 43
21 46 42
22 48 44
20 44 40
20 45 41
19 43 40
20 45 41
20 44 40
20 45 41
20 45 41
21 47 43
20 45 41
20 45 41
20 45 41
20 44 40
20 45 41
20 46 42
20 44 40
21 46 42
21 46 42
20 45 41
21 46 42
21 46 42
21 46 42
20 45 41
20 45 41
21 46 42
20 45 41
20 45 42
21 46 42
20 45 41
20 45 41
20 45 41
20 45 41
21 47 43
21 46 42
21 46 42
21 46 42
21 46 42
20 45 42
20 45 42
20 45 41
21 46 42
21 46 42
20 45 41
21 46 42
20 45 41
21 47 43
20 45 41
20 45 41
22 48 44
21 46 42
21 46 42
21 47 43
21 46 42
22 48 44
21 46 42
22 48 43
21 46 42
20 44 40
21 46 42
21 46 42
21 47 43
21 47 43
21 47 43
21 46 42
22 48 44
21 47 43
21 46 42
21 47 42
21 46 42
21 46 42
21 47 43
21 45 41
21 47 43
21 47 43
21 46 42
21 47 43
21 46 42
20 45 41
21 47 43
22 48 43
21 46 42
22 48 44
22 48 43
21 47 43
21 47 43
21 46 42
21 47 43
22 48 43
22 49 44
21 47 43
21 46 42
22 48 43
22 48 43
22 48 43
21 47 43
21 47 43
21 47 43
21 46 42
22 48 43
21 46 42
22 49 45
22 48 44
21 47 43
22 48 43
21 46 42
22 48 44
22 48 43
22 48 43
22 48 43
21 47 42
22 47 43
21 47 43
21 47 43
22 49 44
22 47 43
22 48 44
22 47 43
21 46 42
21 47 42
22 48 44
22 49 44
20 45 41
21 46 42
21 46 42
20 45 41
20 44 41
20 45 42
21 46 42
20 45 41
21 46 42
20 45 41
20 45 41
20 45 41
20 45 41
20 45 41
20 44 41
20 45 41
20 45 42
20 45 41
20 46 42
21 46 42
20 45 41
21 46 42
20 45 41
21 46 42
20 44 41
21 46 43
21 46 42
21 46 42
20 45 41
20 45 41
20 45 41
21 46 42
21 46 42
21 46 42
21 46 42
21 46 43
21 46 42
21 46 42
21 45 42
21 46 42
20 45 41
20 45 41
21 47 43
21 46 42
20 45 42
21 46 42
21 45 41
21 47 43
21 46 42
21 46 42
21 46 42
21 47 43
21 47 43
21 46 42
21 46 42
21 46 42
21 46 42
21 46 42
20 45 41
21 47 43
21 46 42
20 45 41
21 45 42
21 46 42
21 46 42
21 46 42
21 47 43
21 47 43
21 47 43
21 46 42
21 47 43
21 46 42
21 46 42
21 47 42
21 46 42
21 47 43
21 46 42
21 46 42
21 46 42
21 47 43
22 48 44
21 47 43
22 48 44
21 47 43
21 47 43
21 46 42
21 46 42
22 48 43
21 47 43
21 47 43
21 47 43
21 47 43
22 48 44
22 47 43
22 48 44
21 47 42
22 48 43
21 47 42
21 47 43
21 47 43
22 48 44
22 47 43
21 47 43
21 47 42
22 48 44
22 48 43
22 47 43
22 47 43
22 47 43
22 48 43
21 47 43
22 48 44
22 48 44
22 48 43
22 48 44
22 49 44
21 47 43
21 47 43
22 48 43
21 47 42
20 44 41
20 45 41
20 45 41
21 46 42
21 47 43
20 44 40
21 46 42
20 44 41
20 45 42
20 45 41
20 44 40
20 44 41
20 45 42
20 45 41
20 45 41
21 46 42
20 45 41
21 46 42
20 45 41
20 45 41
20 45 41
20 45 41
20 45 41
20 45 41
21 47 43
21 47 43
20 45 41
20 45 42
21 46 42
21 46 42
20 45 41
21 46 42
21 46 42
21 47 42
20 45 41
21 46 42
21 45 42
21 45 42
20 45 41
20 45 41
20 45 42
21 47 43
21 46 42
20 45 41
21 46 42
21 47 43
21 46 42
20 45 41
20 45 42
21 46 42
20 45 41
20 45 41
21 46 42
21 46 42
20 45 41
21 47 43
20 45 41
21 46 42
21 46 42
21 46 42
21 45 42
21 46 42
21 45 41
21 47 43
21 47 43
21 47 43
21 46 42
21 46 42
21 46 42
21 47 43
20 45 41
21 47 43
21 46 42
21 47 42
21 46 42
21 46 42
22 48 44
21 47 43
21 47 43
21 47 43
21 47 43
21 46 42
21 47 43
21 47 43
22 48 43
21 47 43
21 47 43
21 46 42
22 48 43
22 48 44
21 46 42
22 48 44
21 46 42
21 47 42
21 47 43
21 47 42
22 47 43
21 47 43
21 46 42
21 46 42
22 48 43
22 48 43
22 48 44
21 47 43
22 48 43
21 47 43
21 47 42
21 47 43
22 47 43
22 47 43
22 47 43
21 47 43
22 47 43
21 47 42
22 48 44
21 47 43
21 46 42
21 47 43
21 47 43
22 48 43
20 45 42
20 45 42
20 44 41
20 45 42
20 44 41
21 46 42
21 46 42
21 46 42
19 43 40
20 45 41
20 45 41
20 45 41
20 45 42
20 45 41
20 45 41
20 44 41
20 45 41
20 45 41
20 45 41
20 45 41
21 46 42
20 45 42
20 45 41
20 44 41
20 45 41
20 44 41
20 44 40
20 44 41
21 46 42
21 46 42
21 46 42
21 46 42
20 45 41
20 45 42
20 45 41
20 45 41
20 45 41
20 45 41
21 46 43
21 45 42
21 47 43
21 46 42
21 46 42
21 46 42
20 45 41
21 46 42
21 46 42
21 46 42
21 47 43
20 45 41
21 47 43
21 46 42
21 46 43
22 48 44
21 47 43
20 45 41
21 45 41
21 46 42
20 45 41
21 46 42
21 46 42
21 46 42
21 47 43
21 46 42
21 46 42
22 48 44
21 47 43
21 46 42
21 46 42
21 46 42
20 45 41
21 46 42
21 47 43
21 46 42
21 47 43
21 46 42
21 47 43
21 47 43
21 47 43
21 46 42
21 46 42
21 47 43
21 47 43
21 47 43
22 47 43
22 48 43
21 46 42
21 47 43
21 47 42
21 46 42
21 47 43
21 47 43
21 46 42
21 45 41
21 47 43
22 48 44
21 47 43
22 48 44
21 46 42
21 47 43
21 47 43
21 46 42
21 47 43
22 49 45
21 47 43
21 47 43
21 47 43
22 49 44
22 48 43
22 48 44
22 47 43
22 48 44
22 48 44
21 47 43
22 47 43
22 48 44
22 49 45
22 48 44
22 48 44
23 50 45
20 45 42
20 44 40
20 44 40
20 45 41
20 45 41
20 44 40
21 46 43
21 46 43
21 46 42
20 45 42
20 45 41
21 46 43
21 46 42
20 45 41
20 45 41
20 45 42
20 44 41
20 44 41
20 45 42
20 45 42
21 46 42
20 45 41
20 45 42
20 45 42
20 44 41
21 46 42
21 46 42
21 46 42
21 47 43
21 46 42
20 44 41
21 46 42
20 45 41
21 47 43
21 46 42
20 45 41
21 46 43
21 46 42
21 47 43
21 46 42
21 47 43
20 45 41
20 44 40
21 46 42
20 45 41
21 46 42
20 45 41
21 46 42
21 47 43
21 46 42
21 45 42
21 47 43
21 46 42
21 46 42
21 47 43
21 46 42
21 46 42
21 46 42
21 46 42
20 45 41
21 47 43
21 46 42
21 46 42
21 47 43
20 45 41
22 48 44
21 47 43
21 45 42
21 46 42
21 47 43
21 47 43
21 46 42
21 46 42
21 46 42
21 46 42
22 48 43
21 46 42
22 48 44
21 47 43
21 47 43
21 46 42
21 47 43
21 47 43
21 46 42
21 47 43
21 47 43
21 46 42
21 46 42
21 47 43
21 47 43
21 47 43
22 48 43
21 47 43
21 47 43
22 47 43
21 47 43
22 47 43
22 48 44
21 46 42
22 48 44
21 47 43
22 48 44
21 46 42
22 48 44
21 47 42
22 48 44
21 46 42
21 46 42
22 48 44
22 47 43
22 48 44
22 47 43
21 47 43
21 46 42
21 47 43
22 48 44
21 46 42
22 48 44
21 47 43
22 48 43
20 44 40
20 45 41
21 46 42
20 45 41
20 44 41
19 43 40
20 45 41
20 44 40
20 45 41
20 45 41
20 45 42
20 44 40
20 45 41
21 46 42
20 44 41
20 45 41
20 45 41
21 46 42
21 46 42
21 46 42
20 45 42
20 45 41
20 45 41
21 45 42
20 45 41
20 44 41
21 46 42
20 45 41
20 45 41
20 44 40
21 47 43
21 46 42
21 46 42
21 47 43
20 44 41
20 45 41
20 44 40
20 45 42
20 45 41
20 45 42
21 46 42
21 46 42
21 47 43
21 46 42
21 46 42
20 45 41
21 46 42
21 45 42
21 47 43
21 47 43
21 46 42
21 47 43
20 45 41
20 44 41
21 46 42
21 47 43
20 45 41
21 47 42
21 46 42
21 47 43
20 45 41
21 46 42
21 46 42
21 46 42
21 47 42
21 45 42
21 46 42
21 46 42
21 47 43
21 46 42
21 46 42
21 46 42
22 48 43
21 46 42
21 46 42
21 46 42
21 47 43
21 45 41
21 46 42
21 47 43
21 46 42
21 46 42
21 46 42
21 46 42
22 48 44
21 47 43
21 45 41
21 47 43
21 47 42
22 48 44
21 47 42
22 47 43
21 47 43
21 46 42
21 47 43
22 48 44
21 47 43
22 49 44
21 47 43
22 48 44
21 47 43
21 47 43
22 47 43
21 46 42
21 47 43
22 47 43
22 47 43
21 46 42
21 47 43
21 46 42
21 46 42
22 48 44
22 48 44
22 47 43
21 46 42
21 47 43
21 47 43
22 47 43
21 47 43
21 47 42
21 46 43
19 43 40
20 44 40
20 44 41
20 44 40
21 46 42
20 45 42
20 45 41
21 46 42
20 45 41
21 46 42
20 45 41
20 45 41
20 44 41
21 46 42
20 45 41
20 44 40
20 45 41
21 46 42
20 45 42
20 45 41
20 45 41
20 45 41
20 44 41
21 46 42
21 46 42
20 44 41
21 46 42
20 45 41
20 45 41
21 46 42
21 46 42
21 46 42
21 46 42
21 46 42
20 45 41
21 46 42
20 45 41
20 45 41
21 46 42
20 45 41
21 46 42
21 46 42
21 47 43
21 46 42
21 46 43
21 45 42
21 46 42
21 46 42
21 47 43
21 46 42
21 46 42
21 47 43
20 45 41
21 46 42
21 45 41
21 46 42
21 46 42
21 47 43
21 46 42
21 46 42
21 47 43
20 44 41
21 46 42
20 45 41
21 46 42
20 45 41
21 46 42
20 45 41
22 48 43
21 47 43
21 45 41
21 46 42
21 46 42
21 46 42
21 47 43
21 46 42
21 46 42
21 46 42
21 47 43
21 45 41
21 46 42
21 47 42
22 48 44
21 47 42
21 47 42
21 45 41
21 47 43
21 47 43
21 46 42
21 46 42
21 46 42
21 46 42
21 46 42
21 47 43
21 46 42
22 47 43
21 47 43
21 47 43
21 47 43
21 47 43
21 46 42
21 47 42
21 47 43
21 47 42
22 48 43
22 48 43
21 47 43
21 47 43
22 49 45
21 47 43
22 48 44
21 47 43
21 47 42
21 47 43
22 49 44
21 47 43
22 49 45
22 47 43
21 46 42
20 45 41
20 45 41
20 44 41
21 46 42
20 45 42
20 45 42
20 44 40
20 45 41
21 47 43
21 46 42
20 44 41
20 45 41
20 45 41
20 45 42
20 45 41
20 44 40
20 45 41
20 45 41
21 45 42
20 45 41
20 45 41
21 46 42
20 44 41
21 46 42
20 44 41
20 44 41
20 44 41
21 46 42
20 45 42
20 45 41
21 47 43
20 45 42
21 46 42
20 45 41
21 46 42
21 46 42
20 45 41
20 45 41
20 45 41
21 47 43
21 47 43
20 45 41
21 46 42
21 46 42
20 45 41
21 46 42
20 45 41
20 45 41
21 45 42
21 46 42
20 45 41
21 46 42
21 47 43
21 46 42
21 47 43
20 45 42
21 47 43
21 47 43
21 47 43
22 47 43
20 45 41
21 46 42
21 47 43
20 45 41
21 47 43
21 47 43
21 46 42
21 46 42
20 45 41
21 46 42
21 47 43
21 46 42
21 46 42
21 47 42
21 46 42
20 45 41
21 47 43
21 47 43
21 46 42
21 46 42
22 48 44
21 47 43
21 46 42
21 46 42
21 47 43
21 47 43
21 47 43
21 47 43
21 46 42
22 48 44
21 47 42
21 47 43
22 48 44
21 47 43
21 46 42
21 46 42
21 47 43
22 48 43
21 47 43
21 46 42
21 47 43
21 47 43
21 46 42
22 47 43
21 46 42
22 48 43
21 46 42
22 48 43
21 46 42
21 47 43
21 47 43
22 49 45
21 47 43
21 47 42
22 47 43
21 47 42
21 47 43
22 47 43
21 46 42
22 49 44
20 45 41
20 46 42
20 45 41
20 44 41
20 44 40
20 44 41
20 45 41
20 44 40
21 46 42
20 45 42
21 46 42
21 46 42
21 47 43
20 44 41
20 45 41
20 45 41
21 46 42
20 44 41
20 45 42
20 45 42
20 45 41
20 44 41
20 45 41
20 45 41
21 46 42
21 46 42
20 45 41
20 45 42
20 45 41
21 46 42
20 44 41
20 44 41
21 46 42
20 44 41
20 45 41
21 46 42
21 46 42
20 44 41
20 45 41
20 45 41
20 45 41
21 47 43
20 45 41
21 46 42
21 46 42
22 48 44
20 45 41
20 45 41
21 47 43
20 45 41
21 47 43
21 47 43
21 46 42
21 47 43
20 45 41
21 47 43
21 47 43
20 45 41
21 46 42
21 47 43
20 45 41
21 46 42
21 47 43
21 46 42
21 45 42
21 46 42
21 46 42
21 46 42
21 46 42
21 46 42
21 46 42
21 46 42
21 46 42
22 48 44
21 46 42
21 47 43
21 47 43
21 47 42
21 47 43
21 46 42
21 46 42
22 48 44
21 46 42
21 47 43
21 47 43
21 47 43
21 46 42
21 47 43
22 48 44
21 47 43
20 45 41
21 47 43
21 47 43
21 47 43
21 46 42
21 46 42
21 46 42
21 45 41
21 46 42
22 48 44
21 47 43
22 48 44
21 47 43
21 46 42
21 46 42
21 46 42
22 48 44
21 47 43
21 47 43
21 46 42
21 47 43
22 48 43
22 48 43
22 48 43
22 47 43
21 46 42
21 47 42
22 47 43
21 46 42
22 48 44
20 45 42
20 45 41
20 44 40
20 45 41
21 46 42
20 45 41
20 45 41
20 44 41
20 45 41
20 45 42
20 45 41
20 44 40
20 45 41
20 44 40
21 46 43
21 46 42
21 47 43
20 45 41
20 45 41
20 45 41
20 45 41
21 46 42
20 45 41
21 46 42
21 46 42
21 46 42
21 46 42
21 46 42
20 45 42
21 46 42
20 45 41
20 45 41
20 45 41
21 46 42
21 46 42
20 45 41
20 45 42
21 46 42
21 46 42
21 46 42
20 44 41
21 46 42
21 46 42
21 45 41
21 46 42
20 45 41
21 46 42
20 45 41
21 46 42
21 46 42
21 47 43
21 46 42
21 46 42
21 46 42
21 47 43
21 46 42
20 45 41
21 46 42
20 45 41
21 46 42
21 46 42
21 46 42
21 46 42
21 47 43
22 48 43
21 47 43
21 47 43
21 47 43
21 46 42
20 45 41
21 46 42
21 46 43
21 46 42
21 47 43
21 47 43
21 47 43
21 46 42
21 47 43
21 47 43
21 46 42
21 46 42
21 46 42
21 47 43
21 47 43
22 47 43
21 46 42
21 47 43
21 47 43
21 47 43
21 46 42
21 47 43
21 47 43
21 47 42
21 47 43
21 47 43
21 46 42
21 47 42
21 47 43
21 47 43
21 46 42
21 47 43
22 48 44
21 47 43
21 47 43
21 47 43
21 47 43
22 48 43
22 48 44
21 47 42
21 47 42
22 47 43
21 46 42
22 48 44
21 47 43
21 47 42
21 47 43
22 48 43
21 47 43
21 47 42
21 45 41
20 44 40
20 45 41
20 44 40
20 44 40
20 44 41
20 45 41
20 45 41
20 46 42
20 45 42
20 45 41
20 44 41
20 45 41
20 45 41
20 45 41
21 46 42
20 45 41
20 44 40
20 45 41
20 44 41
20 44 41
20 45 41
21 46 43
21 46 42
20 45 41
20 45 41
20 45 41
21 47 43
21 46 42
20 44 40
21 46 42
21 47 43
20 45 42
20 44 41
21 45 42
21 46 42
21 47 43
21 45 42
21 46 42
21 46 42
20 45 41
21 45 42
20 45 41
21 46 42
20 45 41
20 45 42
21 47 43
21 46 42
21 46 42
21 46 42
20 45 41
21 47 43
21 46 42
21 47 43
21 47 43
20 45 41
21 47 43
21 46 42
20 45 41
21 46 42
21 45 42
20 45 41
21 45 42
21 46 42
20 45 41
21 46 42
21 47 43
21 46 42
21 47 43
21 47 43
21 45 42
21 47 43
21 45 42
21 47 43
21 47 43
21 46 42
21 47 43
20 45 41
21 46 42
21 47 43
21 47 43
21 46 42
21 47 43
21 47 43
21 47 43
21 47 43
21 47 43
21 47 43
22 48 43
21 46 42
21 47 43
21 46 42
21 46 42
21 47 43
21 47 43
21 47 43
21 47 43
22 49 44
22 48 43
21 47 43
21 46 42
21 47 43
21 47 42
21 46 42
21 46 42
22 48 43
21 47 43
21 47 43
21 46 42
21 45 41
21 47 42
22 48 44
22 48 44
21 47 43
21 46 42
21 47 43
22 48 43
22 47 43
21 47 43
22 47 43
21 47 42
20 45 41
20 45 41
20 44 40
20 45 41
20 45 42
21 46 42
20 45 41
21 46 42
20 43 40
21 46 43
20 44 40
20 45 42
20 45 41
20 45 41
20 44 41
20 45 42
20 44 41
21 46 42
20 44 40
20 45 41
20 45 42
20 45 41
20 45 42
20 45 41
20 45 41
20 44 41
20 45 41
20 45 41
21 46 42
21 46 42
20 45 41
21 46 42
20 44 40
20 44 41
20 45 41
20 45 41
20 45 41
20 45 41
21 46 42
21 46 42
20 45 41
21 46 42
21 46 43
20 45 42
20 45 41
21 46 42
21 46 42
20 45 42
21 47 43
20 45 41
20 45 41
21 46 42
20 45 41
21 46 42
21 46 42
20 45 41
21 46 42
20 45 41
21 46 42
21 47 43
20 45 41
21 45 41
21 47 43
21 46 42
20 45 41
21 46 42
21 47 43
21 46 42
21 47 43
21 45 41
20 45 41
20 45 41
21 46 42
21 47 43
21 46 42
21 47 43
21 46 42
21 46 42
21 46 42
21 46 42
21 46 42
21 46 42
21 47 43
21 45 41
21 46 42
21 46 42
21 46 42
21 46 42
21 45 41
22 48 43
21 47 43
21 47 43
21 47 43
21 47 43
21 47 43
21 46 42
21 47 43
21 46 42
21 47 43
21 46 42
21 46 42
22 48 43
21 46 42
20 45 41
21 46 42
22 48 43
22 48 43
21 47 42
21 47 43
22 48 43
21 47 43
22 48 43
21 47 43
22 47 43
21 45 41
22 48 44
21 46 42
21 47 43
21 47 43
22 48 44
20 44 40
20 44 41
20 44 41
20 45 41
21 46 42
21 46 42
20 45 42
21 46 42
21 46 42
20 45 42
20 44 40
21 46 42
20 45 41
21 46 42
20 45 42
20 45 42
20 45 41
20 45 41
20 45 42
20 45 42
21 46 42
21 46 42
20 45 42
21 46 42
20 45 41
21 46 42
20 45 42
20 45 41
20 45 41
20 45 41
21 45 42
20 44 40
20 44 41
21 45 41
21 46 42
20 45 41
20 45 41
20 45 41
20 45 41
21 46 42
20 45 41
21 46 42
20 44 40
21 46 42
21 46 42
21 46 43
21 45 42
20 45 41
21 47 43
20 45 42
21 46 42
20 44 41
21 46 42
20 45 41
21 47 43
20 44 41
20 45 42
21 46 42
21 46 42
21 46 42
20 45 41
21 46 42
21 46 42
21 46 42
21 46 42
21 46 42
21 46 42
21 47 43
21 46 42
20 45 41
20 45 41
20 45 41
21 47 43
21 45 42
20 45 41
21 46 42
20 45 41
21 47 43
21 47 43
20 45 41
21 45 41
21 46 42
20 44 41
21 46 42
21 46 42
21 46 42
21 47 43
21 47 43
21 46 42
21 47 43
21 46 42
21 46 42
21 46 42
21 46 42
21 46 42
21 46 42
21 47 43
22 48 44
21 47 43
22 48 44
21 47 43
21 47 43
21 47 43
21 47 42
22 48 43
21 47 43
21 47 43
21 47 43
21 46 42
21 47 43
21 46 42
21 47 43
21 47 43
22 48 44
21 46 42
21 47 43
21 47 43
21 46 42
21 46 42
22 48 44
19 43 40
20 45 41
20 45 41
20 45 41
20 45 42
20 45 42
20 45 41
20 45 41
20 44 41
20 44 41
21 46 42
20 44 40
20 44 40
21 46 43
21 46 42
21 46 42
20 45 41
21 46 42
20 45 41
20 44 41
20 44 41
21 46 42
20 45 41
21 46 42
20 45 41
20 45 42
21 46 42
21 46 42
21 46 42
20 45 41
20 45 41
21 47 43
20 44 41
21 46 42
20 45 41
21 47 43
20 45 41
20 45 41
21 47 43
20 45 42
21 46 42
21 46 42
20 45 42
21 45 42
20 44 41
20 45 41
20 45 41
21 46 42
20 45 41
21 46 42
20 45 41
20 45 41
21 46 42
20 45 42
21 47 43
21 47 43
20 44 40
21 47 43
21 46 42
20 45 41
21 47 42
21 45 42
20 45 42
20 45 42
20 45 41
21 46 42
21 46 42
21 46 42
21 47 43
21 46 42
20 45 41
21 46 42
20 45 41
21 46 42
21 46 42
21 46 42
21 46 42
21 46 42
21 46 42
21 46 42
22 48 44
21 47 43
21 47 43
21 46 42
21 47 43
21 46 42
21 46 42
21 47 43
22 48 44
21 47 43
22 48 44
21 46 42
21 47 43
21 46 42
21 46 42
21 46 42
21 46 42
21 47 43
21 46 42
21 47 43
21 47 43
21 47 43
21 47 43
21 47 43
21 47 43
21 46 42
22 47 43
22 48 43
21 46 42
21 46 42
22 48 43
21 46 42
21 46 42
21 47 43
21 47 43
21 47 43
21 46 42
21 47 42
22 48 43
21 46 42
20 44 41
20 45 41
20 44 40
20 44 41
21 46 42
20 45 41
20 44 40
20 45 41
21 46 42
20 44 41
20 44 41
21 46 42
20 44 40
21 46 42
20 44 41
20 45 41
21 46 42
20 45 42
20 44 40
21 46 42
20 45 41
20 45 41
20 45 41
20 44 41
20 45 42
20 44 40
20 45 41
21 46 42
21 46 42
20 45 41
20 45 41
20 45 41
20 45 42
21 46 42
20 45 41
20 45 42
20 45 41
20 45 42
21 46 42
21 47 43
21 46 42
21 46 42
20 45 41
21 46 42
20 45 41
20 45 42
21 45 42
21 46 42
21 46 42
20 44 41
21 46 42
21 46 42
21 47 43
21 46 42
21 46 42
21 46 42
21 46 42
20 45 41
20 45 41
21 47 43
21 46 42
20 45 41
20 45 41
21 46 42
21 45 42
21 47 43
21 46 42
22 48 43
21 46 42
20 45 41
21 47 43
21 45 42
21 46 42
20 45 42
21 47 43
21 46 42
20 45 41
21 46 42
21 47 43
21 46 42
20 45 41
21 46 42
21 46 42
20 44 41
21 46 42
21 46 42
21 46 42
21 47 42
21 47 43
22 48 44
21 46 42
22 48 44
21 46 42
21 47 43
20 45 41
21 47 43
22 48 44
21 46 42
21 47 43
21 46 42
21 47 43
22 48 43
21 47 43
21 46 42
21 46 42
21 47 43
22 49 44
21 47 42
21 46 42
22 47 43
22 47 43
22 47 43
21 46 42
21 47 43
22 47 43
21 46 42
21 46 42
21 46 41
21 47 43
21 46 42
20 44 41
20 44 40
20 45 41
20 45 41
20 44 41
19 43 40
20 44 41
20 44 41
20 45 41
20 45 41
20 45 41
20 45 41
20 45 41
21 46 42
21 46 42
19 43 40
20 45 41
21 46 42
20 45 41
20 44 41
20 44 41
20 45 41
20 44 40
20 45 42
19 43 40
20 45 41
20 45 41
20 45 42
21 46 42
20 45 41
20 45 41
21 45 42
20 45 42
20 45 41
20 44 41
21 46 43
20 45 41
20 45 41
20 45 42
20 45 41
20 44 40
21 46 42
21 46 42
21 47 43
21 47 43
21 46 42
20 45 41
20 45 42
21 47 43
20 45 41
21 45 42
21 47 43
21 46 42
21 46 42
21 46 42
20 45 42
20 45 42
20 44 41
21 47 43
21 47 43
21 46 42
20 45 41
21 46 43
21 46 42
20 45 41
21 45 42
20 45 41
21 46 42
21 47 43
21 46 42
21 46 42
21 46 42
21 46 42
21 46 42
20 45 41
20 45 41
21 46 42
21 46 42
20 44 40
21 47 43
21 46 42
22 48 44
21 45 42
21 46 42
21 47 43
21 46 42
21 45 41
21 46 42
21 47 42
21 46 42
21 47 43
21 47 43
21 46 42
21 47 43
21 47 43
21 47 43
21 46 42
21 46 42
21 47 43
20 44 40
21 47 43
21 47 43
22 48 44
21 47 43
22 48 44
21 46 42
21 47 43
22 48 43
21 47 43
21 45 41
21 47 43
21 47 43
20 45 41
21 47 43
21 47 43
22 47 43
22 48 44
21 47 43
21 47 43
21 46 42
20 44 40
20 44 40
20 45 41
20 44 41
20 44 40
20 44 40
20 45 41
20 45 41
20 45 41
20 45 41
20 44 40
20 44 41
20 45 42
20 45 41
20 45 41
21 46 42
20 45 42
20 45 41
21 46 42
21 46 42
21 46 42
20 45 41
21 46 42
20 45 41
20 44 41
20 45 41
20 44 40
21 46 42
20 45 41
20 45 41
20 45 41
20 44 40
21 46 42
20 45 41
20 45 41
20 45 41
21 46 42
20 44 40
20 45 42
21 46 42
20 44 40
20 45 41
20 45 41
21 46 42
21 47 43
20 45 42
21 46 42
21 47 43
21 47 43
21 45 42
21 46 42
21 46 42
21 47 43
21 46 42
20 45 41
20 45 41
20 45 41
20 45 41
21 46 42
21 46 42
21 47 43
21 46 42
21 47 43
20 45 41
20 45 41
21 46 42
20 45 41
21 46 42
21 46 43
20 45 41
21 47 43
21 46 42
21 46 42
21 46 42
20 45 41
20 45 41
21 46 42
21 47 43
21 47 43
21 46 42
21 45 42
21 46 42
22 48 43
21 47 43
21 46 42
21 47 43
21 45 42
21 46 42
22 47 43
21 47 43
21 47 42
21 46 42
21 46 42
20 45 41
21 46 42
21 47 43
21 46 42
21 46 42
21 46 42
21 46 42
21 47 43
21 47 43
21 46 42
21 46 42
22 48 43
21 47 43
21 46 42
21 46 42
21 46 42
21 46 42
21 46 42
21 46 42
22 48 44
21 46 42
21 47 43
22 48 43
21 47 43
21 47 43
21 47 43
21 47 43
20 45 41
20 45 41
20 45 41
20 45 41
20 45 41
20 45 41
20 44 40
20 44 41
20 45 41
20 44 41
20 45 41
21 46 42
20 45 41
20 45 42
20 45 41
20 44 41
20 45 41
19 43 40
20 45 42
20 44 41
20 45 42
20 45 41
20 44 40
20 44 41
20 45 41
21 47 43
21 47 43
21 46 42
20 45 41
20 45 41
20 44 40
20 45 41
20 45 41
20 44 40
20 44 41
20 45 41
20 44 41
21 46 42
21 45 42
20 45 41
21 46 42
20 45 41
21 46 42
20 45 41
21 46 42
21 46 42
20 45 41
20 44 40
21 46 42
21 46 42
20 45 41
21 46 42
21 46 42
21 46 42
20 45 41
20 44 41
21 45 42
20 45 41
20 45 41
21 47 43
20 44 40
21 46 42
20 44 40
21 47 43
20 45 41
21 46 42
21 47 43
20 45 41
20 45 41
21 47 43
21 45 42
21 46 42
20 45 42
21 46 42
21 46 42
21 46 42
21 46 42
21 47 43
21 46 42
21 47 43
21 46 42
21 46 42
20 44 40
21 48 43
21 47 43
21 47 43
21 46 42
21 46 42
21 46 42
21 47 43
21 46 42
21 46 42
21 46 42
22 47 43
21 46 42
21 46 42
21 47 43
21 45 41
21 46 42
21 46 42
21 45 41
21 47 43
22 47 43
21 47 43
21 47 43
21 46 42
21 47 43
22 48 44
22 48 44
21 47 43
21 47 43
21 46 42
21 47 43
21 45 42
21 47 43
22 48 43
21 47 43
21 47 43
21 47 43
21 46 42
20 44 40
20 45 41
20 44 40
20 44 40
20 44 41
20 45 42
20 44 40
21 46 42
20 44 40
19 43 39
20 44 40
20 45 41
20 45 41
20 44 40
20 44 40
20 45 41
20 44 41
20 44 40
20 44 41
20 45 42
20 45 41
20 45 41
20 44 40
20 45 41
20 45 42
20 44 40
20 45 41
21 46 42
20 45 41
20 44 41
21 46 42
20 45 41
20 44 41
20 44 41
20 45 41
20 45 41
21 46 42
20 44 40
21 46 42
20 44 40
21 46 42
21 46 42
21 47 43
20 44 40
21 46 42
20 45 41
21 46 42
20 45 41
20 45 42
20 44 41
21 47 43
21 45 42
21 47 43
21 47 43
20 45 41
20 45 41
20 45 41
20 44 40
21 47 43
20 45 41
21 46 42
21 46 42
21 46 42
21 47 43
21 46 43
21 47 43
21 46 42
21 46 42
21 46 42
20 45 41
20 45 41
21 46 42
20 45 41
21 46 42
20 44 41
21 46 42
21 46 42
21 47 42
21 46 42
21 46 42
21 46 42
20 45 41
21 47 43
20 45 41
20 45 41
21 46 42
20 44 41
21 47 43
21 47 43
21 46 42
21 46 42
21 46 42
20 45 41
21 46 42
21 46 43
21 46 42
21 47 43
21 47 43
21 47 43
21 45 41
21 46 42
21 46 42
22 47 43
21 46 42
21 46 42
21 46 42
21 47 43
21 46 42
21 47 43
21 46 42
20 45 41
21 46 42
21 46 42
22 48 43
21 47 42
22 48 43
22 48 43
22 48 43
22 48 43
21 47 43
20 45 41
21 46 42
20 44 41
20 45 41
20 44 41
20 44 40
20 44 41
20 45 41
20 44 40
20 45 41
20 45 41
20 44 41
20 45 41
20 44 41
20 44 41
20 45 41
20 44 40
20 45 42
21 46 42
20 45 42
20 44 41
20 45 41
20 45 41
20 45 41
21 46 42
20 45 41
20 45 41
20 45 41
20 45 41
20 45 42
20 45 42
21 46 42
20 45 41
20 45 41
20 45 41
20 45 41
21 46 42
20 45 41
21 47 43
20 45 41
20 45 42
21 46 42
21 46 42
21 46 42
20 45 41
21 46 42
20 45 41
21 46 42
20 45 41
20 44 41
21 46 42
20 45 42
20 45 41
21 46 42
22 48 44
21 46 42
21 46 42
21 46 42
21 46 42
21 46 42
21 46 42
21 45 42
20 45 41
21 46 42
21 46 42
21 46 42
21 46 42
20 45 41
20 44 40
21 45 42
21 46 42
20 45 41
20 45 41
21 45 41
21 46 42
21 47 43
21 47 43
21 46 42
20 45 41
21 47 43
21 46 42
22 48 43
21 47 43
20 45 41
21 46 42
21 47 43
22 48 44
21 46 42
20 45 41
21 46 42
20 45 41
21 46 42
21 46 42
21 46 42
21 47 43
21 47 43
21 46 42
21 46 42
21 47 43
21 45 41
21 47 43
21 47 43
21 46 42
21 47 43
21 46 42
21 46 42
21 46 42
21 47 43
21 46 42
21 46 42
21 46 42
21 46 42
21 46 42
21 46 42
21 46 42
21 45 41
21 47 43
21 47 43
21 47 43
21 46 41
20 45 41
20 45 42
20 44 41
20 45 41
20 45 41
20 46 42
20 44 41
20 45 42
20 45 41
20 45 41
20 44 41
20 44 40
20 45 42
20 45 42
20 45 41
20 45 41
20 45 42
20 45 42
20 45 41
21 46 42
20 44 41
20 46 42
20 45 41
20 45 41
20 44 41
20 45 41
21 46 42
20 45 41
20 44 41
20 45 41
21 46 42
20 45 42
20 44 41
20 45 42
20 45 41
20 45 41
20 44 40
21 47 43
20 45 41
20 44 41
21 46 42
21 46 42
20 45 41
21 46 42
20 45 42
20 45 41
21 46 42
20 45 41
21 46 42
21 46 42
20 45 41
21 46 42
21 47 43
20 45 42
20 45 41
20 45 41
20 45 42
20 45 41
21 45 42
20 45 41
21 46 42
21 46 42
20 45 41
20 44 41
21 46 42
21 47 43
20 45 41
21 46 42
20 44 40
20 45 41
21 46 42
21 47 43
21 47 43
21 45 42
21 46 42
20 45 41
21 46 42
21 46 42
21 47 42
20 45 41
21 46 42
21 46 42
21 46 42
20 45 41
21 46 42
21 46 42
21 46 42
21 46 42
21 46 42
21 46 42
21 46 42
20 45 41
21 46 42
21 46 42
21 47 43
22 48 44
20 45 41
21 46 42
21 46 42
21 46 42
21 47 43
21 47 43
22 48 43
21 46 42
21 46 42
21 47 43
21 46 42
21 47 43
21 47 43
21 46 42
21 47 43
21 46 42
21 46 42
21 47 43
21 47 42
21 47 43
21 47 43
22 48 44
21 46 42
22 48 43
20 44 41
20 44 41
20 45 41
21 46 42
20 45 41
20 44 40
20 44 41
20 44 40
20 44 41
20 45 41
20 45 41
20 45 41
21 46 42
20 45 41
20 45 41
20 45 42
20 45 42
20 44 41
20 45 41
21 46 42
21 46 42
21 46 42
20 45 42
20 46 42
20 45 42
20 44 40
20 44 41
20 44 40
21 46 42
21 46 42
20 45 42
20 45 42
20 45 41
20 45 41
21 46 42
20 44 41
20 45 41
20 45 42
20 44 41
20 45 42
20 44 40
20 44 40
21 46 42
20 46 42
20 44 41
20 45 42
20 45 41
20 45 42
20 45 41
20 44 41
20 45 41
21 46 42
20 45 41
21 46 42
22 48 44
21 46 42
21 47 43
20 45 41
21 46 43
21 47 43
21 46 42
21 47 43
21 46 42
21 47 43
21 46 42
20 45 41
21 46 43
21 47 43
21 46 42
20 44 40
21 46 42
20 45 41
20 45 41
21 46 42
21 46 42
20 45 41
21 47 43
21 46 42
22 48 44
21 46 42
20 45 41
21 46 42
21 45 42
21 46 42
20 45 41
21 47 43
21 47 43
21 46 42
21 46 42
21 46 42
21 46 42
21 47 43
21 46 42
21 46 42
21 47 43
21 46 42
21 47 43
21 47 43
21 46 42
20 45 41
21 47 43
21 47 43
20 45 41
21 45 41
21 46 42
21 46 42
21 46 42
22 47 43
21 47 43
21 46 42
21 47 43
21 46 42
21 46 42
21 47 43
21 46 42
22 47 43
21 46 42
21 46 42
22 47 43
21 47 42
20 44 41
20 44 41
20 45 41
21 46 42
20 45 41
20 45 42
20 45 42
20 45 41
20 45 42
20 45 41
20 45 42
20 45 42
20 45 42
20 44 41
20 45 41
20 44 40
20 45 41
20 45 41
20 44 41
20 45 41
20 45 41
20 44 40
21 46 42
21 46 42
20 44 40
20 45 41
21 46 42
20 44 41
21 46 42
21 46 42
20 44 41
21 46 42
21 46 42
20 44 41
21 46 42
21 46 42
20 45 41
20 44 41
21 46 42
20 44 41
20 44 41
21 46 42
20 44 41
20 45 41
20 44 40
20 45 41
20 45 41
21 46 42
20 44 41
21 46 42
20 45 41
21 46 42
20 45 41
20 45 41
20 45 41
20 45 41
20 44 40
20 45 41
21 46 42
21 46 42
20 45 42
20 45 41
20 45 42
20 44 40
22 48 43
21 47 43
20 45 41
21 46 42
21 46 42
21 46 42
20 45 41
21 46 42
21 46 42
21 46 42
20 45 41
21 47 43
20 45 42
21 46 42
21 46 42
21 47 43
21 46 42
21 47 43
21 45 42
21 46 42
21 46 42
21 46 42
21 46 42
20 45 41
20 45 41
20 45 41
21 46 42
21 47 42
20 45 41
21 46 42
20 45 42
21 46 42
22 48 44
21 47 43
21 47 43
21 46 42
21 46 42
21 45 41
21 47 42
21 46 42
21 46 42
21 46 42
21 47 43
21 46 42
21 46 42
21 47 43
21 46 42
21 47 42
20 45 41
21 46 42
22 48 44
21 47 43
21 46 42
22 48 44
21 47 43
22 47 43
20 45 42
21 46 42
20 45 41
20 44 41
21 46 42
20 45 41
20 45 41
20 44 41
20 45 41
20 45 41
20 45 41
19 43 40
20 45 41
20 44 40
20 45 41
20 44 40
20 44 41
21 46 42
21 46 42
20 45 42
20 46 42
21 46 42
20 45 41
20 45 42
20 44 41
20 45 41
20 45 41
20 44 41
21 46 42
20 45 42
20 45 41
20 45 41
20 45 42
20 44 41
20 44 40
21 46 42
21 46 42
20 44 41
21 46 43
21 46 43
21 46 42
20 45 42
21 46 42
21 46 42
21 46 42
20 45 41
20 45 41
20 45 41
21 46 42
21 46 42
20 45 41
21 46 42
21 46 43
20 44 40
20 44 41
20 45 42
21 46 42
20 45 41
20 45 42
20 45 41
20 44 41
21 46 42
21 47 43
21 46 42
21 46 42
21 47 43
21 46 42
21 47 43
20 45 42
21 46 42
21 46 42
21 46 42
20 44 41
21 46 42
21 46 42
21 46 42
20 45 41
20 45 41
21 46 42
21 46 42
20 44 41
21 47 43
21 47 43
20 45 41
21 46 42
21 46 42
20 45 41
21 47 43
21 46 42
21 46 42
21 46 42
21 47 43
21 47 43
20 45 41
21 45 42
21 46 42
21 46 42
21 46 42
21 47 43
21 46 42
20 45 41
21 47 43
21 46 42
22 48 43
21 47 43
21 46 42
21 47 43
21 47 43
21 46 42
21 46 42
21 46 42
21 46 42
21 46 42
20 45 41
21 47 43
21 46 42
21 47 43
21 46 42
21 46 42
22 48 44
20 44 41
20 44 40
20 45 41
20 44 40
20 45 42
20 45 41
19 42 39
20 44 41
21 46 42
19 43 40
19 43 40
20 44 41
20 44 40
20 44 41
20 45 42
20 45 41
20 45 41
19 43 40
21 46 42
20 44 41
20 44 40
20 45 42
20 44 40
21 46 43
20 45 42
20 45 41
20 45 41
20 44 41
20 45 41
20 45 41
20 45 41
20 45 41
20 46 42
20 44 41
20 44 41
20 45 42
20 45 41
21 46 42
21 47 43
20 45 41
21 45 42
21 46 42
20 45 41
20 45 41
20 44 40
21 46 42
21 46 42
21 46 42
21 46 42
21 46 42
20 45 41
21 46 42
20 45 41
20 45 42
20 45 41
21 46 42
20 46 42
21 46 42
21 46 42
20 45 41
21 46 42
20 45 41
20 45 41
20 45 41
20 45 41
21 47 43
21 46 42
21 47 43
21 46 42
21 46 42
21 47 43
21 46 42
21 47 43
21 46 42
20 45 42
20 45 41
21 46 42
20 45 41
20 45 41
20 45 41
21 46 42
21 46 42
21 46 42
22 48 44
21 46 42
20 45 41
21 47 43
21 46 42
21 47 43
20 45 41
21 46 42
21 46 42
20 45 41
21 47 43
20 45 41
21 47 43
21 46 42
21 47 43
20 45 41
21 46 42
21 46 42
21 45 42
21 47 43
22 48 44
21 47 43
21 46 42
21 46 42
21 47 43
21 46 42
21 46 42
21 46 42
21 46 42
21 47 43
21 46 42
21 47 43
21 46 42
22 47 43
21 47 43
21 46 42
22 47 43
20 45 41
20 44 40
20 44 40
20 44 41
19 43 39
20 45 42
20 45 41
20 45 41
20 45 42
20 45 41
20 44 41
20 44 40
20 44 41
20 44 40
20 44 40
20 45 41
20 44 41
20 45 41
20 44 40
20 44 40
20 44 41
20 45 41
20 45 41
21 46 42
20 45 41
20 45 42
20 45 42
20 45 41
20 44 40
20 45 41
20 45 41
20 45 42
20 44 41
21 46 42
20 44 41
20 45 41
20 45 42
20 45 41
20 45 41
20 45 42
20 45 41
21 46 42
20 45 41
20 45 41
21 46 42
19 43 40
21 46 42
21 46 42
20 45 42
21 46 42
20 45 41
21 46 43
20 45 41
21 46 42
21 46 42
20 45 41
21 46 42
21 48 44
20 45 41
20 45 41
21 45 42
20 45 41
21 46 42
20 45 41
21 46 42
20 45 42
21 46 42
20 44 41
21 46 42
21 46 42
20 45 41
20 45 41
21 46 42
21 46 42
21 45 42
21 47 43
21 46 42
21 46 42
20 45 41
21 46 42
21 47 43
21 46 42
21 47 43
21 46 42
20 44 41
21 47 43
21 47 43
20 44 41
20 44 40
21 47 43
21 47 43
21 47 43
21 46 42
21 46 42
20 45 41
21 46 42
21 46 42
20 45 41
21 46 42
20 45 41
21 46 42
21 47 43
21 47 43
20 44 40
22 47 43
22 48 44
21 45 41
21 47 43
21 47 43
21 46 42
22 48 43
21 47 43
21 46 42
21 46 42
22 47 43
22 48 44
21 46 42
22 47 43
22 48 44
22 46 42
20 45 42
21 46 42
20 45 42
21 48 44
20 45 41
21 46 42
20 44 41
20 44 41
21 46 42
20 45 41
20 45 41
20 45 41
20 45 41
21 46 42
20 45 41
20 45 41
20 44 41
20 45 41
21 46 42
20 45 41
20 45 41
20 45 41
20 44 40
21 47 43
21 46 42
20 44 41
21 46 42
20 45 42
20 45 42
20 45 41
20 45 41
20 45 42
20 45 41
20 45 41
21 46 42
21 47 43
20 46 42
20 45 42
20 45 42
21 46 42
20 45 41
20 45 41
21 46 42
20 45 41
20 45 41
21 46 42
20 45 41
20 45 41
20 44 41
20 45 41
21 46 42
20 44 41
21 47 43
20 44 41
20 45 41
21 46 42
21 46 42
20 45 41
21 46 42
20 45 41
21 46 42
20 45 41
20 45 41
20 45 41
21 47 43
21 46 42
21 46 42
20 45 41
20 44 41
21 47 43
20 44 41
21 46 42
21 46 42
21 46 42
21 46 42
20 44 40
21 46 42
21 46 42
21 46 42
20 45 41
20 45 41
20 45 41
21 47 43
21 46 42
21 46 42
21 46 43
21 46 42
21 46 42
21 46 42
20 45 41
20 45 41
22 48 44
21 45 41
21 45 41
21 47 43
20 45 41
21 47 43
21 47 43
21 46 42
20 45 41
21 47 43
21 46 42
20 45 41
21 46 42
22 47 43
20 45 41
21 46 42
21 46 42
21 46 42
21 46 42
21 45 41
22 47 43
21 45 41
21 46 42
21 45 41
22 47 43
21 45 41
21 46 42
21 46 42
22 48 43
21 46 42
20 45 42
20 44 40
20 44 40
20 44 41
20 45 41
20 45 42
20 44 40
19 43 40
21 46 42
20 44 40
20 45 41
21 46 42
20 45 41
20 45 41
20 46 42
20 46 42
20 45 41
20 45 41
20 46 42
21 46 42
20 46 42
20 44 40
20 45 41
20 45 42
21 46 42
20 45 41
20 45 41
20 45 41
20 45 42
20 45 42
21 45 42
21 46 42
21 46 42
21 46 42
20 45 42
21 46 42
20 44 40
20 44 40
20 45 41
20 45 41
20 44 41
20 45 41
20 45 41
21 45 42
21 46 42
20 45 41
21 45 42
21 46 42
20 45 41
21 46 42
20 45 42
20 45 42
20 44 40
21 47 43
20 44 41
20 44 41
20 44 40
21 46 42
20 45 41
20 45 41
21 47 43
20 45 41
21 46 42
21 46 42
20 44 41
21 46 42
20 45 41
20 45 41
20 44 41
20 45 41
20 45 41
21 47 43
20 45 42
21 46 42
20 45 41
20 45 41
21 46 42
21 47 43
20 45 41
21 46 42
21 46 42
21 47 43
21 46 43
21 46 42
21 47 43
21 47 43
20 45 41
21 46 42
20 45 41
20 45 42
20 45 41
20 45 41
21 45 42
20 45 41
21 47 43
20 45 41
21 46 42
21 46 42
21 46 42
21 46 42
21 46 42
22 48 44
21 47 43
21 46 42
21 47 42
21 47 43
21 47 43
21 46 43
21 47 43
21 47 43
22 47 43
21 46 42
21 46 42
22 47 43
22 47 43
22 47 43
22 46 42
22 47 43
22 46 42
20 44 41
20 44 40
21 46 42
19 43 39
21 46 42
20 44 41
19 43 40
20 44 40
20 45 41
20 45 41
20 45 42
20 45 41
20 45 41
20 45 41
20 44 40
21 46 42
19 43 39
20 44 41
20 45 42
20 44 41
20 45 41
20 44 41
20 45 41
21 46 42
21 46 42
20 45 41
19 43 40
20 45 41
20 44 40
20 45 41
20 45 42
20 44 40
20 44 41
20 45 42
20 45 42
21 46 42
20 45 41
21 46 42
20 44 41
20 45 41
20 45 41
20 44 41
21 46 42
20 45 41
20 45 42
21 45 42
20 45 41
21 46 42
20 45 41
20 45 41
21 46 42
21 45 42
20 45 42
21 46 42
20 45 41
20 44 41
21 45 42
20 45 41
20 45 41
20 45 41
20 45 41
20 45 42
21 46 42
21 46 42
21 46 42
20 45 41
21 47 43
21 46 42
20 45 41
20 45 41
20 45 41
21 46 42
20 45 42
20 44 41
21 46 42
20 45 41
20 44 40
21 47 43
21 46 42
20 45 41
20 45 41
21 47 43
20 45 42
20 45 41
20 45 41
20 45 41
21 46 42
21 47 43
21 45 42
20 45 41
21 46 42
20 45 41
21 46 42
21 46 42
21 45 42
21 46 42
21 46 42
21 46 42
21 45 41
21 47 43
21 47 43
21 47 43
21 47 43
21 46 42
21 46 42
21 45 41
21 46 42
21 46 42
21 45 41
22 47 43
22 47 43
22 47 43
22 48 44
22 47 43
21 45 41
22 47 43
22 46 42
22 46 42
23 48 43
22 47 43
20 44 40
20 45 41
20 44 40
20 44 41
20 45 41
20 44 41
19 43 39
20 44 41
20 44 40
20 44 41
20 44 41
20 45 41
20 44 41
20 44 41
20 45 41
20 44 41
20 45 41
20 45 41
20 45 41
20 45 41
20 45 42
20 44 41
20 44 40
20 45 41
21 47 43
20 45 41
21 47 43
20 43 40
20 44 41
21 46 42
20 44 40
20 44 41
20 45 41
20 45 42
20 45 42
20 44 41
20 45 41
20 44 40
20 45 41
20 45 42
21 46 42
20 45 41
20 45 41
20 44 40
20 44 40
21 46 42
21 46 42
20 44 41
20 44 41
20 45 41
21 46 42
21 46 42
21 47 43
20 45 41
20 45 41
20 45 41
20 45 41
20 44 41
20 45 42
21 47 43
20 44 40
21 46 42
20 44 41
20 44 41
21 46 42
21 46 42
21 46 42
20 45 41
21 48 43
20 45 41
21 47 43
20 45 41
20 45 42
20 45 41
21 46 42
21 46 42
21 46 42
20 45 42
20 45 41
21 46 42
20 45 41
21 46 42
21 47 43
22 48 44
21 46 42
21 46 42
21 47 43
20 45 41
20 45 41
20 45 41
21 45 42
21 45 42
21 46 42
21 46 42
21 46 42
21 46 42
21 46 42
21 47 43
22 47 43
21 46 42
21 46 42
21 46 42
21 46 42
21 46 42
21 46 42
21 46 42
21 46 42
21 46 42
21 45 41
21 45 41
21 46 42
22 47 43
21 46 42
22 47 43
22 46 42
22 47 43
22 47 43
22 46 42
22 46 42
23 47 43
