P3
120 80
255
17 40 37
17 40 37
17 40 37
17 39 36
17 39 37
17 40 37
17 39 37
17 40 37
18 40 38
17 39 37
17 39 37
17 39 37
17 40 37
17 39 37
17 39 37
17 39 37
17 39 37
17 39 37
17 39 37
17 40 37
17 39 37
17 39 37
18 41 38
18 41 38
17 39 37
18 40 38
17 40 37
17 40 37
18 40 38
18 40 38
17 40 37
17 39 37
17 40 37
18 40 38
17 40 37
18 40 38
18 40 37
18 41 38
17 39 37
17 39 37
17 39 37
17 39 37
17 39 37
17 40 38
18 41 38
17 40 37
17 39 37
17 39 37
17 40 37
17 40 37
17 40 37
18 41 38
17 38 36
17 39 37
17 39 36
18 40 38
17 39 36
17 40 37
17 39 37
18 40 38
17 39 37
18 40 38
17 39 37
17 40 37
18 41 38
18 40 38
17 39 37
17 40 37
17 39 37
17 39 37
17 40 37
17 39 37
17 39 37
18 40 37
17 40 37
17 40 37
17 40 37
17 39 37
18 40 38
17 40 37
17 39 37
17 40 37
17 39 37
18 40 37
17 40 37
17 39 37
17 39 36
17 39 37
17 40 37
18 40 38
17 40 37
17 39 37
17 39 37
17 39 36
18 40 38
17 40 37
17 40 37
18 40 38
17 40 37
18 40 38
17 39 37
17 39 36
18 40 38
18 40 38
17 39 37
18 40 38
17 39 37
18 40 38
18 40 38
17 40 37
17 40 37
17 40 37
17 39 37
18 40 37
17 39 37
18 40 38
17 40 37
18 40 38
17 40 37
17 39 37
17 39 37
17 40 37
17 39 37
17 38 36
18 40 38
17 39 37
17 40 37
18 41 38
17 40 37
17 40 37
18 40 38
17 39 37
17 40 37
17 39 37
17 39 37
17 39 37
17 39 36
17 39 37
17 40 37
17 39 37
18 41 38
18 40 38
17 39 37
18 41 38
17 39 37
18 41 38
18 40 38
17 40 38
17 40 37
17 39 37
17 39 37
17 40 37
17 39 37
18 40 37
17 40 37
18 40 38
17 39 37
18 40 38
17 40 37
17 39 37
18 40 38
17 40 37
18 40 38
17 39 37
17 40 37
18 40 38
17 40 38
17 40 37
17 40 37
17 39 37
17 39 37
18 40 38
17 40 37
18 40 38
17 40 37
18 40 38
17 39 37
18 40 37
18 40 38
17 40 37
18 40 38
17 39 37
17 39 37
17 39 36
18 40 38
18 40 38
17 39 37
18 40 38
17 40 37
17 39 37
17 39 37
17 40 37
17 39 37
17 39 37
18 41 38
18 40 38
17 38 36
17 40 37
17 40 38
18 40 38
17 39 36
17 40 37
18 40 38
18 40 38
18 40 38
17 40 37
17 39 36
18 40 38
17 39 37
17 40 37
18 40 37
17 40 37
17 39 37
17 39 37
17 39 37
17 39 37
17 40 37
18 41 38
17 39 37
18 40 37
18 40 38
17 39 37
18 41 38
18 41 39
18 40 38
18 40 38
17 40 37
17 39 36
17 40 37
18 40 38
17 39 37
17 40 37
17 40 37
17 39 37
17 40 37
17 40 37
17 39 37
17 38 36
17 40 37
18 40 38
18 40 38
17 39 36
17 39 37
17 40 37
18 40 38
17 39 37
17 40 37
17 39 37
18 40 38
17 39 37
18 40 38
18 40 38
17 40 37
17 38 36
18 40 38
18 40 38
17 39 37
18 40 38
17 40 37
18 40 38
18 40 37
17 40 37
17 40 37
18 40 38
17 40 37
17 40 37
17 40 37
17 40 37
18 40 38
17 40 37
18 40 38
18 41 38
17 39 37
17 39 37
18 40 38
17 39 37
17 40 37
18 40 37
17 39 37
18 41 38
18 40 38
17 39 37
17 40 37
17 40 37
18 41 38
18 40 38
17 40 37
17 39 37
18 41 38
17 39 37
17 39 37
18 40 38
17 40 37
18 40 37
17 40 37
18 40 38
18 41 38
17 39 36
18 41 39
17 39 37
17 39 37
18 40 37
17 40 37
17 39 37
18 41 39
18 41 38
18 41 38
17 40 37
17 39 37
18 40 38
18 40 38
18 40 38
17 39 36
18 40 38
18 40 38
17 39 37
18 40 38
17 39 37
18 40 38
18 40 38
18 40 37
18 40 38
18 40 38
18 40 37
18 40 38
17 39 37
17 39 37
17 40 37
17 40 37
18 40 38
18 40 38
18 40 38
17 39 37
17 40 37
17 40 37
17 39 37
18 40 38
18 41 38
18 40 38
18 40 38
17 39 37
17 39 37
17 40 37
17 40 37
18 40 38
17 39 37
17 40 37
17 40 37
18 40 37
17 39 36
18 40 38
17 40 37
17 40 37
18 40 38
17 40 37
17 40 37
17 40 37
17 39 36
17 40 37
17 39 37
18 40 38
17 40 37
17 40 37
17 39 37
17 40 37
18 40 38
18 40 38
18 40 38
17 39 37
17 40 37
18 41 38
18 40 38
18 40 38
17 39 37
18 40 37
18 40 38
17 39 37
17 40 37
17 40 37
17 39 37
18 40 38
18 40 38
18 40 37
18 41 38
17 40 37
18 40 38
18 40 38
18 41 39
18 41 38
18 41 38
18 40 38
17 40 37
17 40 37
17 39 37
18 41 38
18 40 37
17 40 37
17 40 37
18 41 39
17 40 37
18 40 37
17 39 37
17 40 37
18 40 38
18 40 38
17 40 37
17 39 37
18 40 37
18 40 38
17 39 37
18 40 38
17 40 37
18 40 38
18 40 38
18 40 38
17 40 37
18 40 38
18 41 38
17 40 37
18 40 38
17 39 37
18 40 38
17 40 37
17 39 37
17 40 37
18 41 38
18 41 38
18 40 38
18 40 37
18 41 38
18 40 37
18 41 38
17 40 37
18 40 38
18 41 38
18 40 37
18 40 37
17 40 37
17 39 37
18 40 38
18 41 38
18 40 38
18 40 37
18 41 38
18 40 38
17 40 37
18 40 38
18 40 38
17 40 37
17 39 37
18 40 38
18 40 38
18 40 38
18 40 38
18 40 37
18 40 38
18 40 38
18 40 38
17 39 37
17 40 37
18 41 38
17 39 36
18 41 38
18 41 38
17 40 37
18 40 37
18 40 38
18 40 38
18 41 38
18 40 37
17 39 37
18 40 38
18 40 38
18 41 38
18 40 38
18 41 38
18 40 38
17 39 37
18 40 38
18 41 39
18 40 38
18 40 38
17 40 37
18 40 38
17 39 37
18 40 38
17 40 37
18 40 38
17 40 37
17 40 37
17 39 37
18 40 38
18 40 38
18 40 38
18 40 38
18 40 37
18 40 37
18 40 38
17 40 37
18 40 37
18 41 38
18 40 38
18 40 38
18 40 38
18 40 38
18 40 37
18 40 37
18 40 38
18 40 38
18 40 38
18 41 38
18 41 38
17 40 37
18 41 38
18 40 38
17 40 37
17 39 37
18 41 38
18 41 38
18 40 38
18 40 37
17 40 37
18 40 38
18 40 37
17 40 37
18 41 38
18 41 39
18 40 38
17 39 37
18 41 38
18 40 38
18 41 38
17 39 37
18 40 38
18 40 38
17 40 37
18 41 38
18 40 38
18 41 38
17 40 37
18 41 38
18 40 38
18 40 37
17 40 37
17 40 37
18 41 38
18 41 39
18 41 38
18 40 37
17 40 37
18 41 38
18 41 38
18 40 38
18 41 38
18 40 38
18 40 38
17 40 37
18 40 38
18 40 37
18 40 37
18 40 38
18 41 38
18 41 38
18 41 38
18 41 38
17 40 37
18 40 37
18 41 38
17 40 37
18 41 38
18 40 38
18 40 38
18 41 38
17 40 37
18 40 37
18 41 38
18 40 38
18 40 37
18 40 37
18 40 38
17 40 37
17 40 37
18 41 38
18 40 38
18 40 38
18 40 37
18 40 38
18 40 37
18 40 38
18 40 38
18 41 38
18 40 38
18 40 38
18 40 37
17 40 37
18 40 37
17 39 37
18 40 38
17 40 37
17 40 37
17 39 37
17 40 37
18 41 38
18 40 38
18 40 37
17 40 37
18 40 38
18 41 38
18 40 38
18 40 38
18 40 37
18 40 37
17 40 37
18 40 38
18 40 38
18 41 39
18 40 38
18 41 38
18 40 37
17 39 37
18 40 38
18 40 37
18 40 37
18 41 38
18 40 38
18 40 37
18 41 38
18 40 37
17 39 37
18 41 38
17 39 37
18 40 38
18 41 38
18 40 37
18 40 37
18 41 38
18 41 38
18 41 38
18 40 37
18 40 37
18 41 38
18 40 37
17 39 37
18 40 38
18 40 38
18 40 37
18 40 37
18 41 38
18 41 39
17 40 37
18 40 38
18 41 38
18 41 38
18 40 38
18 40 38
18 41 38
18 41 38
18 40 37
18 41 38
18 40 38
18 41 38
18 41 39
18 40 37
18 40 38
18 42 39
17 40 37
18 40 37
18 40 38
17 39 37
17 39 37
18 40 38
18 41 39
18 41 38
17 40 37
18 40 38
18 41 38
18 41 38
18 40 38
18 42 39
18 40 38
18 40 38
18 41 38
17 39 37
18 41 39
17 40 37
18 40 37
18 40 38
18 41 38
18 41 38
18 40 38
17 40 37
18 40 38
18 40 38
18 41 38
18 41 38
18 41 39
18 41 38
17 39 36
18 41 38
18 41 38
18 41 39
18 40 37
17 39 37
18 41 38
18 41 38
18 40 38
18 40 38
18 40 38
18 40 38
18 40 38
18 40 37
18 40 38
18 40 38
18 40 37
18 40 38
17 39 37
18 40 38
18 41 38
18 40 38
18 41 38
18 41 38
18 41 38
18 41 38
18 40 38
17 39 37
18 41 38
18 41 38
18 40 38
18 40 38
17 40 37
18 41 38
17 40 37
18 40 38
18 41 38
18 40 38
18 41 39
18 40 38
18 40 37
18 40 38
17 40 37
18 41 38
18 41 38
18 41 38
18 40 37
18 41 38
18 41 38
18 41 39
18 40 38
18 41 38
17 40 37
17 39 36
18 41 38
17 40 37
18 40 37
18 41 38
18 40 38
18 41 38
18 41 38
18 41 39
18 41 38
18 41 38
18 40 38
18 41 38
18 41 38
18 41 38
18 41 38
17 40 37
18 41 38
18 41 38
18 40 37
18 41 38
18 40 37
18 41 38
18 40 38
18 40 38
18 41 38
18 40 38
18 40 38
18 41 38
18 40 38
18 40 38
18 41 38
18 41 38
18 40 38
18 41 38
18 41 39
18 40 38
18 40 37
18 41 38
17 39 37
18 41 38
18 40 37
18 40 37
18 41 38
17 40 37
19 42 39
18 40 38
18 41 39
18 41 39
18 40 38
18 41 38
18 40 38
18 41 38
18 41 38
18 40 38
18 41 38
18 41 38
18 41 38
18 40 38
18 41 38
18 41 38
17 40 37
18 40 38
18 41 38
18 40 38
18 41 38
18 41 38
18 41 38
18 41 38
18 40 38
17 39 37
18 42 39
18 40 38
18 41 39
18 40 37
18 41 38
18 41 38
18 40 38
18 40 38
18 40 38
18 42 39
18 40 38
18 40 38
18 40 37
18 41 38
18 41 39
18 40 38
18 41 38
18 41 38
18 41 38
18 40 38
18 40 38
18 40 37
18 41 39
17 40 37
18 41 38
18 41 38
17 40 37
18 40 37
18 40 38
18 41 38
18 41 39
18 40 37
18 40 38
18 41 38
18 41 38
18 41 38
18 40 38
18 41 38
18 41 38
18 40 38
18 41 38
18 41 38
18 41 38
18 40 38
18 40 37
18 41 38
18 41 38
18 40 38
18 41 38
18 41 38
18 40 38
18 40 38
18 41 39
18 41 38
18 41 38
18 41 38
18 41 38
18 42 39
18 41 38
18 41 38
18 41 39
18 41 38
18 41 38
18 41 38
18 40 38
18 41 39
18 41 39
18 42 39
18 41 38
18 41 38
18 41 39
18 40 38
18 40 38
18 40 37
18 41 38
18 40 38
18 42 39
18 41 38
18 40 37
18 42 39
18 41 38
18 41 38
18 41 38
18 41 38
18 41 38
18 41 38
18 40 38
18 40 38
18 40 37
18 40 38
18 41 38
18 42 39
18 40 38
18 41 39
18 42 39
18 41 38
18 40 38
18 41 38
18 41 38
18 41 38
18 41 38
17 40 37
18 40 38
18 40 37
18 40 38
18 41 38
18 41 38
18 41 38
18 41 38
18 41 38
18 40 37
18 41 38
18 41 38
18 41 39
18 41 38
18 41 38
18 40 38
18 40 37
18 41 38
17 40 37
18 41 38
18 41 38
18 40 38
18 41 39
18 41 38
18 41 38
18 41 38
18 40 38
18 40 37
18 41 38
18 40 37
18 41 38
18 40 38
18 41 39
18 41 38
18 40 37
17 40 37
18 41 38
17 40 37
18 41 39
18 40 38
18 42 39
18 40 38
18 40 38
18 42 39
18 41 38
18 40 38
18 41 38
17 40 37
18 40 38
18 41 39
18 41 38
18 41 38
18 41 39
18 41 38
17 39 37
18 42 39
18 41 38
18 41 38
18 41 38
18 42 39
18 40 38
18 40 38
18 41 38
18 41 38
18 40 38
18 41 38
18 40 38
18 42 39
18 41 39
18 40 37
18 40 38
18 41 38
18 40 37
18 41 38
18 40 38
18 41 38
18 41 38
18 41 38
19 42 39
18 40 38
18 41 38
18 40 37
18 40 37
18 40 38
18 41 39
18 41 39
18 41 39
18 41 38
18 41 38
18 41 38
18 41 38
18 41 38
18 42 39
18 40 38
18 41 38
18 41 38
18 40 38
18 41 39
18 40 38
18 41 39
18 41 38
18 41 39
18 41 38
18 41 38
18 40 38
18 41 38
18 41 38
18 41 38
19 42 39
18 41 39
17 40 37
18 41 38
18 41 38
18 41 38
18 42 39
17 39 36
18 41 38
18 42 39
18 40 38
18 41 38
18 41 39
18 41 39
18 41 38
18 40 37
18 41 39
18 41 38
18 42 39
18 41 38
18 40 38
18 42 39
18 42 39
18 40 38
18 41 38
19 42 39
17 40 37
18 41 38
18 41 39
18 41 39
18 42 39
18 41 38
17 39 37
18 41 38
18 41 38
18 41 38
18 41 39
18 41 39
18 41 38
18 42 39
18 41 38
18 41 38
18 40 37
18 41 39
18 41 38
18 42 39
18 41 39
18 41 38
18 41 38
18 41 39
18 40 38
18 41 38
18 41 38
18 41 38
18 41 38
18 41 38
18 41 38
18 40 38
18 41 38
18 41 38
18 41 38
18 41 38
18 40 38
18 41 38
18 41 38
18 41 38
18 41 38
18 42 39
18 41 38
18 41 38
18 41 38
18 41 38
18 41 38
17 39 37
18 41 38
18 40 37
18 41 38
19 42 39
18 40 38
18 41 38
18 41 39
18 41 39
18 40 38
18 40 37
18 41 39
18 41 38
18 42 39
18 41 39
18 42 39
18 41 38
18 42 39
18 41 38
18 40 38
18 40 38
18 41 38
18 42 39
18 40 38
18 40 38
18 41 38
18 42 39
18 42 39
18 41 38
18 41 38
18 41 38
18 42 39
18 41 38
18 41 38
18 40 38
18 42 39
18 41 38
18 41 38
18 42 39
19 42 39
18 41 38
18 41 38
18 41 39
18 42 39
18 40 37
18 40 38
18 41 38
18 42 39
18 41 38
18 41 38
18 41 38
18 41 39
18 41 38
18 40 37
18 41 39
18 41 38
18 41 38
18 40 37
18 41 38
18 42 39
18 41 38
18 41 38
18 41 38
18 41 38
18 41 38
18 41 38
18 41 39
18 41 38
18 41 38
18 41 38
19 42 39
18 40 38
18 41 38
18 41 38
18 42 39
19 42 39
18 42 39
18 41 39
18 40 38
18 41 38
18 41 38
18 41 38
18 41 39
18 41 38
18 41 39
18 40 38
18 41 38
18 41 38
18 41 38
18 41 38
18 41 38
18 41 38
18 41 38
18 42 39
18 41 39
18 40 38
18 41 38
18 40 38
18 41 38
19 42 39
18 40 37
18 41 38
18 41 38
18 40 38
18 41 39
18 41 38
18 40 38
18 41 38
18 41 38
18 41 39
18 40 38
18 41 38
18 41 38
18 41 38
18 42 39
18 41 39
18 41 38
18 42 39
19 42 39
18 41 38
18 41 38
18 41 38
18 42 39
19 42 39
18 40 38
19 42 39
18 41 38
18 42 39
18 40 38
18 41 38
18 40 38
18 41 38
19 42 39
19 42 39
18 41 39
18 41 38
18 42 39
18 41 39
18 42 39
18 41 38
18 41 38
18 40 37
18 41 38
17 39 37
18 41 38
18 41 38
18 42 39
18 41 38
18 42 39
19 42 39
18 41 39
18 41 38
18 41 38
18 41 38
18 41 39
18 40 38
18 41 38
18 41 39
18 41 38
18 40 38
18 41 38
18 41 38
18 41 38
18 41 38
18 41 38
19 42 39
18 41 38
19 42 39
18 41 38
18 41 38
18 40 38
18 41 38
18 41 38
18 41 39
18 41 39
18 41 39
18 41 38
18 41 38
18 41 39
18 41 38
18 41 39
18 40 38
18 41 39
18 41 39
19 42 39
18 41 38
19 42 39
18 41 38
18 41 38
18 41 39
18 41 38
18 41 39
18 42 39
18 41 39
18 41 38
18 41 38
18 41 38
18 41 38
18 41 39
18 40 38
18 40 37
18 40 38
18 41 38
18 40 38
18 40 38
19 42 39
18 41 38
18 42 39
18 40 38
18 40 38
18 41 38
18 42 39
18 41 39
18 41 38
18 40 37
18 41 38
19 42 39
18 40 38
18 40 38
19 42 39
18 41 38
18 40 37
18 41 38
18 40 37
18 41 39
18 41 38
18 41 38
18 41 38
18 40 37
18 42 39
18 41 39
18 42 39
18 41 38
18 41 38
19 42 39
18 41 39
19 42 39
18 40 38
18 40 38
18 41 38
19 42 39
19 42 39
18 41 39
18 41 38
18 41 39
18 42 39
18 41 39
18 41 38
18 42 39
18 41 39
19 42 39
18 41 38
18 41 38
18 41 38
18 42 39
18 41 38
18 41 39
19 42 39
18 41 38
19 42 39
18 41 39
18 41 38
18 41 38
18 41 39
18 41 38
18 41 38
18 41 38
18 41 39
18 41 38
19 42 39
18 40 37
19 42 39
18 42 39
18 42 39
18 40 38
18 41 38
18 41 39
18 40 38
18 41 38
18 41 39
18 40 37
18 41 38
18 41 38
19 42 39
18 41 38
18 40 37
18 41 38
18 41 38
18 41 38
19 42 39
18 41 38
18 42 39
18 40 38
18 41 38
18 41 39
18 41 38
18 41 38
18 41 38
19 42 39
19 42 39
19 42 39
19 42 39
18 41 38
19 42 39
18 41 38
19 42 39
18 41 38
19 42 39
18 40 37
18 41 39
18 42 39
19 42 39
19 42 39
18 41 38
18 42 39
19 42 39
18 41 38
18 41 38
19 42 39
18 41 38
18 41 38
19 42 39
18 41 38
18 41 38
18 41 38
18 40 38
18 40 38
19 42 39
18 41 38
18 41 38
18 41 38
19 42 39
18 41 39
18 41 38
18 41 38
19 42 39
18 41 38
18 41 39
18 41 38
18 41 38
18 41 39
18 41 38
18 41 38
19 42 39
18 41 38
18 40 37
18 40 37
19 42 39
18 41 38
19 42 39
18 41 38
18 41 38
18 41 38
18 42 39
18 41 38
18 41 38
19 42 39
19 42 39
18 41 38
18 42 39
18 42 39
19 42 39
19 42 39
19 42 39
19 42 39
18 41 38
18 42 39
19 42 39
18 42 39
18 41 38
18 41 39
19 42 39
18 42 39
18 41 38
18 42 39
18 41 38
19 42 39
18 41 38
18 41 38
18 40 38
18 41 39
18 41 38
18 41 38
19 42 39
18 41 38
18 41 38
18 41 38
18 41 38
19 42 39
19 42 40
18 41 38
18 41 38
18 41 38
18 42 39
18 41 38
18 41 39
18 41 38
18 41 38
18 42 39
19 42 39
18 41 38
18 41 38
18 40 37
18 41 38
19 42 39
18 41 38
18 41 38
18 41 38
18 41 38
18 41 38
18 41 38
18 41 38
18 41 38
18 42 39
19 42 39
19 42 39
19 42 39
19 42 39
18 41 39
19 42 39
18 41 39
19 42 39
19 42 39
18 41 38
19 42 39
18 42 39
19 43 40
18 41 38
18 41 38
18 42 39
19 42 39
19 42 39
19 42 39
18 41 38
18 41 38
19 42 39
19 42 39
18 41 38
18 42 39
19 42 39
19 42 39
19 43 40
18 41 38
18 41 39
18 41 38
19 42 39
18 42 39
18 42 39
18 41 38
18 42 39
19 42 39
18 41 38
18 41 38
19 42 39
18 41 38
18 42 39
18 42 39
18 41 39
19 42 39
18 41 38
19 42 39
18 41 38
18 41 39
19 42 39
18 42 39
18 41 38
18 41 38
18 41 38
18 41 38
19 42 39
18 42 39
18 41 39
18 41 38
19 42 39
19 42 39
19 42 39
19 42 39
19 43 40
18 40 38
18 41 38
19 42 39
19 42 39
18 42 39
19 42 39
19 42 40
18 40 38
18 41 38
18 41 38
18 42 39
19 42 39
18 42 39
19 42 39
19 42 39
19 42 39
18 41 39
19 42 39
18 41 38
18 41 38
18 41 39
18 41 39
18 42 39
18 41 38
18 41 38
18 41 38
18 41 38
19 42 39
19 42 39
18 41 38
19 42 39
18 41 39
19 42 39
18 41 38
18 41 38
18 41 38
19 43 40
18 41 38
18 42 39
18 41 38
19 42 39
18 41 38
19 42 39
19 44 40
19 42 39
19 42 39
18 42 39
18 41 39
18 42 39
19 42 39
18 42 39
19 42 39
18 41 39
19 43 40
18 41 38
18 41 38
18 42 39
18 41 38
18 41 39
18 42 39
18 41 38
18 41 38
18 42 39
19 42 39
18 41 38
19 42 39
19 42 39
19 42 39
18 42 39
19 42 39
19 42 39
19 43 40
18 42 39
19 42 39
19 42 39
19 42 39
19 42 39
19 42 39
19 42 39
18 41 38
19 42 39
18 41 38
18 41 38
18 42 39
18 41 38
18 42 39
19 42 39
19 42 39
19 42 39
19 42 39
18 41 38
18 41 38
19 42 39
18 41 39
18 41 38
19 42 39
18 40 38
18 41 38
19 42 39
18 42 39
18 41 38
18 41 38
19 42 39
19 42 39
18 41 38
18 41 38
18 42 39
19 42 39
18 41 39
18 42 39
19 42 39
19 42 39
19 42 39
18 42 39
18 42 39
18 41 38
18 41 39
18 42 39
19 42 39
19 42 39
18 42 39
19 42 39
18 41 38
18 42 39
19 42 39
18 41 39
19 43 40
18 41 38
19 42 39
19 42 39
18 41 38
18 42 39
19 42 39
19 42 39
19 42 40
19 42 39
18 41 38
18 41 38
18 41 38
19 43 40
19 42 39
18 41 38
19 42 39
19 43 40
18 41 38
18 41 39
19 42 39
18 41 38
19 42 39
18 41 38
19 43 40
19 43 40
19 42 39
18 42 39
19 42 39
19 43 40
18 42 39
19 42 39
19 42 39
19 42 39
19 42 39
19 42 39
18 41 38
19 42 39
19 43 40
19 42 39
19 42 39
19 43 40
18 41 38
19 42 39
19 42 39
19 42 39
19 42 39
18 41 38
19 42 39
19 43 40
19 42 39
19 42 39
19 42 39
18 41 38
19 43 40
19 43 40
19 42 39
19 42 39
19 42 39
19 42 39
18 41 39
19 42 39
19 43 40
19 42 39
18 41 38
19 42 39
19 43 40
18 42 39
19 42 39
19 42 39
18 41 38
18 41 38
19 42 39
18 41 38
18 41 38
19 42 39
18 42 39
19 43 40
19 42 39
18 41 38
19 43 40
19 42 39
19 42 39
18 41 39
18 42 39
19 43 40
19 42 39
18 42 39
18 42 39
19 42 39
19 42 39
19 42 39
18 41 38
18 41 39
18 41 38
18 41 38
18 41 38
18 42 39
19 42 39
18 41 38
18 41 38
18 41 38
18 41 38
19 42 39
19 42 39
19 43 40
19 42 39
18 41 38
19 43 40
18 42 39
18 41 38
18 41 38
19 42 39
19 42 39
19 42 39
19 43 40
19 42 39
19 42 39
19 42 39
18 42 39
18 41 38
18 41 38
18 41 38
19 42 39
18 42 39
18 41 38
19 42 39
18 41 38
18 41 38
19 42 39
19 42 39
19 42 39
18 41 38
19 42 39
19 43 39
19 42 40
19 42 39
19 42 39
18 41 38
19 42 39
18 41 38
19 43 40
19 43 40
19 42 39
18 41 38
19 42 39
19 42 39
19 42 39
19 43 40
19 42 39
19 42 39
19 42 39
19 42 39
18 42 39
19 42 39
19 42 39
19 42 39
19 42 39
19 42 39
19 42 39
19 42 39
19 43 40
19 42 39
18 41 38
19 42 39
19 43 40
19 42 39
19 42 39
19 43 40
19 42 39
18 42 39
19 42 39
19 42 39
19 42 39
19 44 40
19 42 39
19 43 40
19 42 39
19 42 39
19 42 39
19 42 39
19 42 39
19 42 39
19 42 39
18 42 39
19 43 40
19 42 39
18 42 39
19 42 39
19 42 39
19 42 39
19 42 39
18 42 39
19 43 40
18 41 38
18 42 39
19 42 39
19 42 39
19 42 39
19 42 39
19 42 39
19 42 39
19 42 39
19 42 39
19 42 39
18 42 39
19 42 39
18 41 38
18 42 39
19 42 39
19 42 39
19 43 39
18 42 39
18 41 38
18 41 38
18 41 38
18 42 39
18 41 38
19 42 39
19 43 40
18 41 38
18 40 37
19 42 39
19 42 39
19 42 39
19 42 39
19 43 40
19 42 39
18 42 39
18 41 39
19 42 39
18 41 38
19 43 40
19 42 39
18 42 39
19 43 40
18 42 39
19 43 40
19 42 39
18 41 38
19 42 39
19 42 39
19 42 39
19 42 39
19 42 39
19 42 39
19 42 39
19 42 39
19 43 40
19 42 39
19 42 39
19 42 39
19 43 40
19 43 40
18 41 38
19 43 40
19 42 39
19 42 39
19 42 39
19 43 40
18 41 38
19 43 40
19 42 39
18 41 38
19 42 39
19 42 39
18 41 38
19 42 39
19 42 39
19 43 40
19 42 39
19 42 39
18 42 39
19 42 39
19 42 39
19 42 39
19 43 40
19 43 40
19 43 40
19 42 39
19 43 40
18 41 38
19 43 40
19 43 40
18 41 38
19 43 40
19 43 40
19 43 40
18 41 38
18 41 38
19 42 39
18 41 38
19 42 39
19 43 40
18 41 38
19 42 39
19 43 40
19 43 40
19 42 39
18 41 39
19 43 39
19 42 39
18 42 39
19 43 39
19 43 40
19 43 40
19 42 39
19 42 39
19 43 40
19 43 40
19 42 39
19 42 39
19 42 39
19 42 39
18 41 39
19 43 40
19 42 39
19 42 39
19 42 39
19 42 39
19 42 39
19 43 39
19 43 40
19 43 40
19 42 39
19 43 40
18 42 39
20 44 41
19 42 39
19 42 39
19 43 39
19 43 40
19 42 39
19 43 40
19 43 40
19 42 39
19 43 40
19 42 39
19 42 39
18 41 38
19 42 39
19 42 39
19 42 39
19 42 39
19 42 39
19 42 39
18 41 38
19 43 40
19 42 39
19 43 40
19 43 39
19 42 39
19 43 40
19 42 39
19 42 39
19 42 39
19 43 40
19 42 39
19 42 39
18 41 38
19 42 39
19 43 40
18 41 38
19 42 39
19 42 39
19 42 39
18 41 38
19 43 40
19 42 39
19 42 39
19 42 39
19 43 40
19 43 40
19 43 40
19 42 39
19 43 39
19 43 40
19 42 39
19 43 39
19 42 39
19 43 39
19 42 39
19 43 40
19 42 39
19 43 40
18 41 38
19 43 40
19 42 39
19 42 39
19 42 39
19 43 39
19 42 39
19 43 40
19 42 39
19 42 39
18 42 39
18 41 38
19 43 40
19 42 39
19 43 40
19 42 39
19 42 39
19 43 40
19 43 40
19 43 40
19 43 40
19 43 40
19 42 39
19 42 39
19 43 39
19 42 39
19 42 39
19 43 40
19 42 39
19 42 39
19 42 39
19 44 40
19 43 40
19 42 39
18 41 38
19 43 40
19 43 40
19 42 39
19 42 39
19 43 40
19 42 39
19 43 40
19 43 40
19 42 39
19 42 39
19 43 40
19 43 40
19 42 39
19 42 39
19 42 39
19 42 39
19 42 39
19 42 39
19 43 39
19 42 39
19 43 40
19 42 39
19 42 39
19 42 39
19 42 39
19 42 39
19 42 39
19 43 40
19 43 40
19 43 40
19 42 39
18 41 38
19 43 40
18 41 38
19 42 39
19 43 40
19 43 39
19 43 40
18 42 39
19 42 39
19 43 40
18 42 39
19 43 40
19 42 39
19 42 39
19 42 39
19 42 39
19 43 40
19 42 39
19 43 40
19 43 40
19 42 39
19 42 39
19 42 39
19 43 40
19 43 39
19 42 39
19 42 39
19 43 40
19 43 40
19 43 40
19 43 40
19 42 39
19 42 39
19 42 39
19 43 40
19 42 39
19 42 39
19 43 40
19 43 40
19 42 39
19 42 39
19 42 39
19 42 39
19 42 39
19 43 39
19 43 40
19 43 40
19 43 40
19 43 40
18 41 38
19 42 39
19 43 39
19 42 39
19 43 40
20 44 41
19 43 40
19 42 39
19 42 39
18 41 38
19 43 39
19 42 39
19 43 40
19 43 40
19 42 39
19 43 40
19 43 40
19 42 39
19 43 40
20 44 41
19 42 39
19 43 40
19 42 39
19 42 39
19 42 39
19 42 39
18 41 38
19 42 39
19 43 40
20 44 41
19 43 39
19 43 40
19 43 40
19 43 40
19 42 39
19 42 39
19 43 40
19 42 39
19 43 40
19 42 39
20 44 41
20 44 41
19 42 39
19 43 40
19 42 39
19 43 40
19 43 40
19 43 40
19 43 40
19 43 39
19 43 40
19 43 40
19 42 39
19 42 39
19 43 40
19 43 40
19 43 40
19 43 40
19 43 40
19 44 41
19 43 40
19 44 40
19 42 39
19 43 39
19 43 40
18 41 38
19 42 39
19 43 40
18 42 39
19 43 40
19 42 39
19 44 40
19 42 39
19 42 39
19 43 40
19 43 40
19 42 39
19 42 39
19 43 40
18 41 38
19 42 39
19 42 39
19 43 40
19 43 40
19 43 40
19 43 40
19 43 40
19 42 39
19 42 39
18 42 39
19 43 40
19 42 39
19 42 39
19 43 39
19 43 40
19 42 39
19 42 39
19 42 39
19 42 39
19 43 40
19 42 39
19 43 40
19 42 39
19 42 39
19 42 39
19 43 40
19 42 39
19 42 39
19 42 39
19 44 41
19 42 39
19 43 40
19 43 39
19 43 40
19 42 39
19 43 40
19 43 39
19 42 39
19 43 40
19 43 40
19 42 39
18 41 38
19 42 39
19 43 40
20 44 41
19 42 39
18 41 38
19 43 40
19 44 40
19 44 40
19 43 39
19 44 40
19 43 40
19 43 40
19 43 40
19 43 40
19 43 40
19 43 40
19 43 40
19 43 39
19 44 40
19 42 39
19 42 39
19 43 40
19 43 39
19 43 40
19 43 40
19 42 39
19 42 39
19 43 40
19 43 40
18 42 39
19 43 39
19 42 39
19 43 40
18 42 39
20 44 40
19 43 40
19 44 40
19 42 39
19 43 39
19 43 40
19 42 39
19 43 39
19 42 39
19 43 40
19 42 39
19 43 40
19 43 40
19 43 39
19 42 39
19 43 40
19 42 39
19 43 40
19 42 39
19 43 40
19 42 39
19 43 40
19 43 40
18 41 38
19 43 40
19 42 39
19 43 40
19 43 40
19 42 39
20 44 41
19 43 40
19 44 40
19 43 40
19 43 39
19 42 39
19 42 39
19 44 40
19 42 39
20 44 40
19 42 39
19 43 40
19 43 40
19 43 40
19 43 40
19 42 39
19 43 40
19 43 40
19 43 40
19 43 39
19 42 39
19 43 40
19 43 39
19 43 40
19 42 39
19 42 39
19 42 39
19 42 39
19 43 40
19 43 40
19 43 40
19 43 40
19 43 40
19 42 39
19 42 39
19 42 39
19 43 40
19 43 39
19 43 40
19 44 40
19 42 39
19 43 40
19 43 40
20 44 41
20 44 40
19 43 40
19 43 40
19 43 40
19 43 40
19 42 39
20 44 40
19 43 40
20 44 41
19 43 40
19 43 40
19 43 40
19 43 40
19 42 39
19 43 40
19 43 40
19 42 39
19 42 39
19 43 40
19 43 40
20 44 40
20 45 41
19 43 40
19 44 40
19 43 39
19 43 39
19 44 40
19 43 40
19 42 39
19 42 39
19 43 39
19 43 40
19 43 40
20 44 40
19 43 40
19 44 40
19 42 39
19 43 40
19 44 40
19 42 39
19 43 39
19 43 39
20 44 41
19 43 39
19 43 39
19 43 40
19 42 39
19 43 40
19 43 40
19 43 40
19 43 40
19 43 40
19 44 40
18 42 39
19 43 40
19 42 39
19 42 39
19 43 40
20 44 41
19 43 40
19 43 39
20 44 40
19 43 40
19 43 39
19 42 39
19 43 40
19 43 40
19 42 39
19 43 40
19 43 40
19 43 40
19 43 40
19 43 40
19 42 39
19 43 40
19 42 39
19 44 40
19 43 40
19 43 40
19 43 40
19 43 40
19 43 40
19 42 39
19 43 40
19 42 39
19 42 39
19 42 39
19 42 39
19 42 39
19 43 40
19 43 40
19 42 39
19 43 40
19 42 39
19 42 39
19 43 40
19 43 40
19 43 39
19 43 40
19 44 41
19 43 40
19 42 39
19 43 40
19 42 39
19 43 39
20 44 40
19 42 39
19 43 40
19 43 40
19 43 40
19 43 40
19 42 39
19 42 39
19 43 40
19 42 39
19 43 40
19 43 40
19 43 40
19 42 39
19 43 40
19 42 39
19 43 39
19 42 39
19 43 39
19 44 40
20 44 41
19 42 39
19 42 39
19 43 40
19 42 39
19 43 40
19 42 39
20 44 41
20 44 40
19 42 39
19 44 40
20 44 41
20 44 40
20 44 41
20 44 40
19 43 40
19 43 40
19 43 40
19 43 40
20 44 41
20 44 40
19 43 40
19 42 39
19 42 39
19 43 40
19 44 40
19 43 40
19 44 40
19 43 40
19 43 40
20 44 41
20 44 41
19 42 39
19 43 40
19 43 40
19 43 40
19 42 39
19 43 40
19 43 40
19 43 40
19 43 40
19 44 40
19 43 40
20 44 40
19 43 40
20 44 41
18 41 38
19 43 40
19 43 39
19 43 39
19 43 40
19 43 40
19 42 39
19 43 39
19 43 40
19 43 40
19 43 40
19 43 40
19 43 40
19 43 40
19 43 40
19 43 39
20 44 41
19 43 39
19 42 39
19 43 40
19 42 39
19 44 40
19 43 40
19 42 39
20 44 40
20 44 41
19 43 40
19 43 40
19 43 39
19 43 40
19 43 40
20 45 41
19 43 39
19 43 40
19 43 40
19 42 39
19 42 39
19 42 39
18 41 38
19 43 40
19 42 39
19 42 39
19 43 40
19 42 39
19 43 40
19 43 40
19 43 39
19 43 40
19 43 40
19 43 40
19 42 39
19 43 40
19 42 39
19 42 39
19 43 40
19 44 40
19 44 40
19 43 40
19 43 40
19 43 40
19 43 40
19 43 40
19 43 40
19 43 40
19 43 40
19 43 40
19 43 40
19 44 40
19 42 39
19 43 40
19 42 39
19 43 40
19 43 40
19 43 40
19 43 40
19 42 39
19 43 40
19 42 39
19 43 40
20 45 41
19 43 39
19 43 40
19 43 40
19 42 39
19 42 39
19 43 40
19 43 39
19 43 39
20 44 40
19 43 40
20 44 41
19 43 40
19 43 40
19 43 40
19 44 40
19 42 39
20 44 41
19 42 39
19 44 40
19 43 40
20 44 40
19 43 40
20 44 40
19 43 40
19 43 40
20 44 41
20 44 41
19 43 40
20 44 41
20 44 41
20 44 41
20 44 41
20 44 40
19 43 39
19 43 40
19 44 40
19 43 40
20 44 41
20 44 41
19 43 39
19 43 39
19 42 39
19 44 40
19 43 40
19 43 39
19 43 39
19 42 39
19 44 40
19 43 40
19 43 40
20 44 41
20 44 41
19 44 40
19 43 40
20 44 40
19 43 40
19 43 40
20 44 41
20 44 41
20 44 41
19 44 40
19 43 39
19 42 39
20 44 41
19 43 40
19 43 40
19 43 40
20 44 41
20 45 41
19 43 40
19 42 39
19 43 40
19 43 40
19 43 39
19 43 40
20 44 41
20 45 42
19 43 39
20 44 41
19 42 39
19 43 40
20 44 41
19 42 39
19 44 40
19 43 40
20 44 40
19 44 40
19 43 40
19 43 40
19 44 40
19 42 39
19 43 40
19 44 40
19 43 40
19 43 40
19 42 39
20 44 41
19 42 39
20 44 40
20 44 41
19 43 40
19 43 39
19 42 39
20 44 41
19 43 40
20 44 40
20 44 41
19 43 40
19 43 40
19 43 40
19 42 39
19 43 40
20 44 41
19 43 40
20 44 40
19 43 40
20 44 41
19 43 40
20 46 42
19 44 40
19 43 40
19 42 39
20 44 40
19 43 40
20 44 41
19 43 40
20 44 40
19 44 40
20 44 41
20 44 41
19 42 39
20 44 40
19 43 40
19 43 40
20 44 41
19 43 39
20 44 40
19 43 40
19 43 40
19 43 39
20 44 41
19 43 40
20 44 40
20 44 41
20 44 40
19 43 40
19 44 40
19 42 39
20 44 41
20 44 40
19 43 39
20 44 40
19 43 40
20 44 41
19 42 39
19 43 40
20 44 40
19 43 40
19 43 40
20 44 41
19 43 40
19 43 40
19 43 40
19 43 40
20 44 40
19 43 39
20 44 40
19 43 39
20 44 41
19 43 40
19 43 40
19 43 40
19 43 40
19 43 40
19 42 39
20 44 41
19 43 40
19 43 40
20 44 40
19 43 40
20 45 42
20 44 41
19 43 40
20 45 41
20 44 41
20 44 40
19 43 39
20 44 41
19 44 40
20 45 42
19 43 40
20 44 41
19 43 40
19 43 39
19 43 39
19 42 39
19 43 40
20 44 41
19 43 40
19 43 40
19 43 40
19 43 40
19 42 39
19 44 40
19 43 40
19 43 40
19 43 39
19 44 40
19 43 40
19 43 40
19 43 40
19 43 40
19 43 40
19 43 40
20 44 40
19 43 40
20 44 41
19 43 40
20 44 41
19 42 39
19 42 38
19 43 39
20 44 40
20 44 41
19 43 40
19 43 40
20 44 41
20 44 40
19 43 40
19 43 40
20 44 40
20 44 40
19 44 40
19 43 40
20 44 41
20 45 41
19 44 40
19 43 39
19 43 40
19 43 40
19 42 39
19 42 39
20 44 40
19 43 40
20 44 41
20 44 41
20 45 41
19 43 40
19 43 40
20 44 41
20 44 41
19 43 40
19 43 39
20 44 41
20 44 41
19 43 40
20 44 40
20 44 40
20 45 42
20 44 41
20 45 41
20 45 41
19 43 39
20 45 41
19 43 40
19 43 40
19 43 39
19 43 40
19 43 40
19 43 40
20 44 40
20 44 40
19 43 40
20 44 40
20 44 40
20 44 40
20 44 41
20 44 40
20 44 40
19 42 39
20 44 40
20 45 42
19 43 40
20 45 41
20 44 41
20 44 41
20 44 41
20 44 40
19 43 40
19 43 40
20 44 41
19 43 40
19 43 40
20 44 40
19 43 40
20 44 41
19 43 40
19 43 40
20 44 41
19 43 40
19 43 40
20 45 41
19 43 40
20 45 41
19 43 40
19 42 39
20 44 40
20 44 41
20 44 41
20 44 40
20 44 41
20 44 40
20 44 40
20 44 41
19 43 40
19 43 40
19 42 39
19 43 40
19 43 40
20 44 41
19 43 40
19 43 39
19 44 40
19 43 40
19 43 40
20 44 40
19 43 39
19 43 40
19 43 40
19 43 40
19 43 39
20 44 41
19 43 40
19 43 40
20 44 40
19 43 40
19 44 40
20 44 41
20 44 40
19 43 40
19 43 40
19 43 40
20 44 41
19 43 40
19 43 40
20 45 41
19 43 40
20 45 41
19 43 40
19 44 40
19 43 40
20 44 41
20 44 41
19 43 39
20 44 40
20 44 41
20 44 40
20 44 41
19 43 40
20 44 41
20 44 41
19 43 40
19 42 39
19 43 40
20 44 40
19 42 39
19 43 40
20 44 41
20 44 41
20 45 42
19 43 40
20 44 40
19 43 39
20 44 41
20 44 41
20 44 40
20 44 41
20 44 41
20 45 42
19 43 40
19 43 40
20 44 41
20 45 42
20 44 40
19 43 40
20 45 41
19 43 40
20 44 41
20 44 41
20 45 41
19 43 40
20 44 41
19 43 40
19 43 40
20 44 40
20 44 40
19 43 39
20 44 41
20 44 41
20 43 40
20 44 41
19 43 40
20 45 41
19 43 40
19 43 40
20 45 42
20 45 41
20 45 41
20 44 41
20 44 41
20 44 41
20 44 41
20 44 41
19 43 39
20 45 41
19 42 39
20 44 41
20 44 40
20 45 41
20 45 41
20 44 41
19 43 40
20 44 41
20 44 40
20 44 41
20 44 40
19 43 40
20 44 40
20 44 41
20 44 40
20 44 40
20 44 40
20 44 40
19 43 40
19 43 40
19 43 40
20 44 40
20 44 41
19 43 40
20 44 40
19 43 40
20 44 41
19 43 40
19 43 40
19 42 39
20 45 41
20 44 40
19 43 40
19 43 40
20 45 41
20 44 40
19 43 40
20 44 41
19 43 40
20 44 41
19 43 40
19 43 39
19 43 40
20 44 41
19 43 40
20 44 41
20 44 40
20 44 41
20 44 41
20 44 40
19 44 40
19 43 40
20 44 40
20 44 40
20 44 40
20 44 41
20 44 41
20 45 41
20 44 41
20 44 41
20 44 41
20 44 41
20 44 41
19 44 40
20 44 41
20 44 41
19 44 40
20 44 40
20 45 42
20 44 41
20 44 41
20 44 41
19 43 40
19 43 40
19 43 40
20 45 42
20 44 40
20 44 41
20 44 41
19 43 40
20 44 41
20 44 41
20 45 41
20 45 41
20 44 41
20 45 41
19 43 40
20 44 41
20 44 40
20 45 41
20 45 41
19 43 39
20 44 41
20 44 40
19 43 40
20 44 40
20 44 40
20 45 41
19 44 40
20 44 40
20 44 41
20 44 41
20 44 40
20 45 41
20 44 41
20 44 40
20 44 41
20 44 41
20 44 40
19 43 40
20 44 40
20 45 41
19 43 40
20 45 41
20 44 40
20 44 40
20 45 41
20 45 41
20 44 40
20 44 41
20 45 42
20 44 41
20 45 41
19 43 40
20 44 40
19 43 40
19 43 40
20 44 41
20 45 41
19 43 40
20 44 41
20 44 41
20 44 40
20 44 40
20 43 40
19 43 40
19 43 39
20 45 41
20 44 40
20 44 41
19 44 40
19 42 39
19 44 40
19 42 39
19 43 39
20 44 40
19 43 40
19 43 40
19 43 40
19 43 40
19 43 39
20 44 40
20 44 41
20 44 41
19 43 40
20 44 40
20 44 41
19 43 40
20 44 41
19 43 40
19 43 40
20 44 41
19 43 39
20 44 41
20 44 41
20 44 41
19 42 39
20 44 41
20 44 40
19 43 40
20 45 41
19 43 40
20 44 41
19 43 39
20 45 41
20 44 41
20 44 41
19 43 40
20 44 41
20 44 40
20 44 40
19 43 40
20 45 41
20 44 41
20 44 40
20 44 41
20 44 41
20 44 41
20 44 40
20 45 41
20 45 42
19 43 39
20 45 41
19 43 40
20 45 41
20 44 41
20 45 41
20 44 40
20 45 41
20 45 42
20 44 40
20 44 41
20 45 41
20 44 41
20 45 41
19 44 40
19 43 40
20 44 40
20 44 41
20 44 41
19 43 40
20 44 40
20 45 41
20 45 41
20 44 41
20 44 41
20 45 41
20 44 41
20 44 40
20 44 40
20 45 41
20 45 41
20 44 41
20 44 40
20 45 41
20 45 42
20 44 40
19 43 40
19 43 40
20 44 41
19 43 40
20 44 40
20 44 40
20 45 42
20 45 41
20 44 41
20 45 41
20 45 41
20 44 41
20 44 40
19 43 40
19 43 40
20 45 42
20 44 40
20 44 41
20 44 41
19 44 40
20 44 40
20 45 41
20 45 41
20 44 41
20 44 40
20 44 41
20 44 40
20 44 40
20 44 40
20 44 41
19 43 40
19 42 39
20 44 41
20 44 41
20 44 40
20 44 40
20 44 40
19 43 40
19 43 40
20 44 40
20 44 40
19 43 40
20 44 40
20 44 41
19 43 40
20 45 41
19 43 40
19 43 40
19 43 40
20 44 41
20 44 41
19 43 40
19 43 40
19 43 39
20 44 41
19 43 40
20 44 40
20 44 40
20 45 41
19 43 40
20 44 41
19 43 40
19 43 40
20 44 41
20 45 41
19 43 40
20 44 41
20 45 42
19 44 40
19 43 40
20 44 41
20 45 42
19 43 40
19 43 40
20 44 40
19 43 40
20 44 40
20 44 41
20 44 40
21 46 42
20 44 40
19 43 40
20 44 41
20 43 40
20 45 41
20 45 42
20 44 40
20 45 41
20 45 42
20 44 41
20 44 40
20 44 41
19 43 40
19 43 40
20 44 41
20 44 40
20 45 41
20 44 41
19 43 40
20 44 40
20 45 41
19 43 40
20 44 40
19 43 40
20 44 40
19 43 40
20 44 40
19 43 40
20 44 40
20 44 41
20 44 41
20 45 41
20 44 40
20 44 41
20 44 41
19 43 40
20 44 40
19 43 40
20 45 41
20 44 41
20 44 41
20 44 41
20 44 41
20 44 41
20 45 42
20 44 40
19 43 40
20 44 41
20 45 41
20 45 42
20 44 41
20 45 41
19 43 40
20 44 41
20 44 40
20 44 41
20 44 40
20 44 41
20 44 40
20 45 41
20 44 41
20 44 41
19 43 40
20 44 40
20 44 40
20 44 41
20 44 41
19 43 40
20 45 41
20 45 42
20 44 41
20 45 41
20 44 41
20 44 40
20 44 41
19 43 40
20 44 41
19 43 40
20 45 42
20 44 41
19 43 39
19 43 40
20 45 42
20 44 40
20 44 40
20 44 40
19 43 40
20 44 41
19 43 39
20 44 41
20 44 41
20 43 40
19 43 40
20 44 41
20 45 41
20 45 41
19 43 40
21 46 42
20 45 41
19 43 40
20 44 40
20 45 41
20 44 41
20 44 40
20 45 41
20 44 40
20 44 40
20 44 40
20 44 41
19 43 40
20 45 41
20 45 42
20 44 41
20 44 41
20 44 41
20 44 40
20 44 41
20 44 41
20 44 40
20 44 41
20 44 41
19 43 40
19 43 40
20 44 41
20 44 41
20 45 42
20 44 40
20 45 41
19 43 39
20 44 41
20 45 41
20 45 42
20 45 41
20 45 41
20 45 42
20 45 41
20 44 41
20 44 41
20 44 41
20 45 41
19 43 39
20 44 40
20 44 41
19 43 40
20 44 41
20 45 41
20 44 41
20 44 40
20 45 41
20 44 41
19 43 40
20 44 41
20 45 41
20 44 41
20 45 42
20 44 40
20 44 40
20 44 40
20 44 40
20 44 41
20 44 41
20 45 41
20 44 40
20 44 40
20 44 40
20 45 41
20 44 41
20 44 41
20 44 40
20 46 42
20 45 41
20 45 41
20 44 41
20 44 41
20 45 41
20 45 41
20 45 41
20 44 41
20 44 40
20 45 42
20 44 41
20 44 41
20 44 40
19 43 40
20 44 40
20 44 41
19 44 40
20 43 40
20 45 42
20 44 41
20 44 40
20 45 41
20 44 40
20 45 41
19 43 40
20 44 40
19 43 40
19 43 40
20 44 40
20 44 40
19 43 40
19 44 40
19 43 40
19 43 40
19 43 40
20 45 41
20 44 41
20 44 41
20 44 41
20 45 42
20 44 40
19 43 40
20 44 41
20 45 41
20 44 40
20 44 40
20 45 41
20 44 41
20 45 42
20 44 41
19 43 40
20 46 42
20 44 41
20 44 40
20 44 40
19 43 40
20 45 42
20 44 40
19 43 39
20 45 41
20 44 41
20 44 41
20 44 41
20 45 41
20 44 40
20 44 40
20 44 40
20 44 40
20 43 40
20 44 41
20 44 41
20 44 41
20 45 41
20 45 41
21 46 42
20 44 41
20 44 41
20 44 41
20 44 41
20 45 41
20 44 41
20 45 42
20 45 41
20 45 41
19 43 40
20 44 41
20 45 41
20 44 41
20 44 41
20 44 41
19 43 40
20 45 41
20 44 40
20 44 40
20 44 41
20 44 41
20 44 41
20 44 41
20 45 41
20 45 41
20 44 40
20 45 42
20 45 41
20 44 40
20 45 41
20 44 41
20 45 42
20 45 41
20 44 41
20 44 40
20 45 41
20 44 40
20 45 41
20 45 41
20 44 41
20 45 41
20 45 41
20 45 41
20 44 41
20 45 41
20 44 41
21 46 42
19 43 40
20 45 41
20 45 41
20 45 41
20 44 41
20 45 41
19 43 40
20 44 41
20 45 42
20 45 41
20 44 41
20 44 41
20 44 40
20 44 41
20 44 41
20 45 41
20 45 41
20 44 41
20 45 41
20 45 41
19 43 39
20 44 40
20 44 41
19 43 39
19 43 40
20 44 40
20 45 42
20 44 41
20 44 40
20 45 41
20 44 41
20 44 40
19 43 39
20 45 41
20 44 41
20 44 41
20 44 41
20 44 41
20 44 41
20 44 41
20 44 40
20 44 41
20 44 41
20 44 41
20 44 41
20 44 41
20 44 40
20 44 41
20 45 41
20 44 41
20 45 41
20 44 41
20 45 41
20 44 41
20 44 41
20 45 41
20 44 41
20 44 40
20 44 41
20 45 41
20 45 41
20 45 41
20 45 42
20 44 41
20 44 40
20 45 41
20 45 41
20 45 41
20 44 40
20 45 41
20 44 41
20 45 42
20 44 41
20 44 40
20 44 41
20 44 40
20 44 41
20 46 42
20 44 41
20 45 41
20 45 41
20 44 41
20 45 41
20 45 41
20 45 42
20 45 42
20 45 41
20 44 40
20 45 41
20 45 41
20 44 40
20 44 41
19 43 40
21 46 42
20 45 41
20 45 41
20 45 42
20 44 40
20 44 41
20 45 41
20 44 41
20 44 41
20 45 41
20 44 41
21 46 42
20 45 41
20 45 41
21 46 42
20 44 41
21 46 42
20 44 40
20 45 41
20 45 41
20 44 41
20 45 42
20 45 42
20 44 41
20 45 42
20 45 41
20 45 41
20 44 40
20 45 41
20 45 41
21 46 42
20 45 41
20 45 42
20 44 40
20 44 41
20 44 41
20 44 41
20 44 40
20 44 41
19 43 40
20 45 41
20 45 42
20 45 41
20 44 41
20 44 41
20 44 40
20 44 41
20 44 41
20 45 41
20 45 41
20 45 41
20 45 41
20 45 41
20 45 42
20 44 41
20 44 41
20 44 40
20 44 40
20 44 40
20 44 41
20 44 40
20 44 40
20 44 40
19 43 40
20 45 41
20 45 41
19 43 40
20 44 41
20 44 41
20 45 41
20 44 41
19 43 40
20 44 40
20 44 41
20 44 41
20 44 41
20 44 41
20 44 40
20 45 42
20 44 41
21 46 42
20 44 41
20 44 41
20 44 41
20 45 41
20 45 41
20 45 42
20 45 41
20 45 42
21 46 42
20 45 41
20 45 41
20 45 42
20 45 41
20 45 41
20 44 41
20 44 41
20 45 41
21 46 42
20 45 41
20 44 40
20 45 41
21 46 42
19 43 40
20 45 41
20 46 42
20 44 41
21 46 42
20 45 41
20 45 41
20 45 42
20 44 40
20 44 41
20 44 41
20 45 41
20 44 40
20 44 41
20 45 41
20 45 42
20 45 42
20 45 41
20 45 41
20 44 41
20 45 41
21 45 42
20 45 41
20 45 41
20 45 41
20 44 40
20 45 41
20 45 41
20 45 41
20 45 41
20 45 41
20 44 40
20 45 42
20 44 41
20 45 41
21 46 42
21 47 43
20 45 42
20 45 41
20 45 41
20 44 40
21 46 42
21 46 42
20 44 40
20 44 40
20 45 41
20 45 41
20 45 41
20 44 40
20 44 41
20 44 41
21 46 42
21 46 42
20 45 42
21 46 43
20 45 42
20 45 41
20 44 40
20 45 41
20 44 41
20 46 42
20 45 41
20 44 41
20 45 42
19 43 40
20 45 41
20 44 40
20 44 40
20 45 41
20 45 41
20 44 40
20 45 41
20 44 40
20 44 41
20 45 42
19 43 39
20 44 40
20 44 40
20 44 41
20 45 41
20 44 40
20 44 41
20 45 41
20 44 41
20 45 41
20 44 40
20 44 40
21 46 42
20 44 41
20 45 42
20 44 40
20 45 41
21 46 42
20 45 41
20 44 41
20 45 41
20 45 41
20 45 41
20 44 40
20 45 41
20 44 40
20 45 41
20 45 41
20 45 41
20 45 41
20 44 41
21 46 42
20 45 42
20 45 41
20 45 42
20 45 41
20 44 41
21 46 42
20 45 42
20 44 41
20 44 41
20 45 42
20 45 41
20 45 41
21 46 42
20 45 42
20 45 41
20 45 41
21 47 43
20 45 42
20 45 41
21 46 42
20 45 41
20 45 42
20 45 41
20 45 42
20 44 41
20 45 41
21 46 42
20 45 42
21 46 42
21 46 42
20 44 41
20 45 41
20 45 41
20 45 42
20 45 41
21 46 42
20 45 41
20 45 41
20 44 41
20 45 41
20 45 42
21 46 42
20 45 42
20 45 41
21 46 42
20 45 41
20 44 41
20 44 40
20 45 41
20 45 41
20 45 42
20 44 40
20 45 41
20 45 42
20 44 41
20 45 41
21 46 42
20 45 41
20 44 41
20 45 41
20 44 40
21 46 42
20 44 41
20 44 40
20 44 41
20 45 42
20 44 40
21 46 42
21 46 42
21 46 42
21 46 42
21 46 42
21 46 42
21 46 42
20 45 41
20 44 40
20 45 41
21 46 42
20 44 40
20 45 41
20 45 41
20 45 41
20 44 41
20 45 41
20 44 41
20 44 41
20 44 40
20 44 40
21 46 42
20 43 40
20 44 41
20 45 42
20 44 41
20 45 42
20 44 40
20 45 41
20 45 41
20 45 41
20 45 41
20 45 41
20 44 40
20 45 42
20 45 41
20 44 40
20 45 42
20 44 41
20 45 41
20 44 41
20 45 41
20 44 41
20 44 41
20 45 41
20 44 40
20 45 41
20 43 40
21 46 42
20 45 41
20 45 42
20 45 41
20 45 41
20 45 41
20 45 41
20 45 42
20 44 41
20 45 42
20 44 41
20 45 42
20 45 42
21 46 42
20 45 42
21 46 42
21 46 42
20 45 41
20 45 41
21 46 42
20 45 41
21 46 42
20 45 42
21 46 42
20 45 42
20 44 41
20 45 42
20 45 41
20 44 41
20 45 41
20 45 41
21 46 42
20 45 42
20 46 42
20 44 41
21 46 42
20 45 41
20 45 41
20 45 41
20 45 41
20 45 41
21 46 42
20 45 41
20 45 41
20 45 41
21 46 42
21 46 42
21 46 42
20 45 42
20 45 41
20 44 41
21 46 42
20 44 41
20 44 41
21 46 42
21 46 42
20 44 40
20 45 42
20 44 41
20 44 40
20 44 41
20 45 41
20 45 41
21 46 42
21 46 42
20 44 41
20 45 42
20 44 40
20 45 41
20 44 40
20 45 42
20 45 42
20 46 42
20 45 41
20 45 41
20 44 40
21 46 42
20 45 41
20 45 42
20 45 41
21 46 42
19 43 40
20 44 40
20 45 42
20 44 41
20 44 41
20 45 41
20 44 41
20 45 41
20 45 41
20 45 41
21 46 42
20 44 41
20 44 40
20 45 41
20 45 42
20 44 40
20 44 40
20 44 40
20 44 41
20 45 41
20 43 40
20 44 41
20 45 41
20 45 42
20 44 41
20 45 41
21 46 42
20 45 41
20 44 41
20 44 41
21 46 42
20 45 41
20 44 40
20 45 42
20 44 41
20 45 41
21 46 42
20 45 42
20 45 41
20 45 41
20 45 42
20 45 41
21 46 42
20 45 41
20 44 41
21 46 42
20 45 41
20 45 41
20 44 40
20 45 41
20 45 41
20 44 41
20 44 41
21 46 42
20 45 41
20 45 41
20 44 40
20 45 41
20 45 42
20 45 41
21 47 43
20 44 41
20 45 41
20 45 41
20 45 41
20 45 41
20 45 41
20 45 41
20 45 42
20 45 41
21 46 42
21 46 42
20 44 41
20 45 41
21 46 42
20 45 41
21 45 42
21 46 42
20 45 42
20 45 41
21 46 42
21 46 42
21 46 42
21 46 42
21 46 42
20 44 41
20 45 41
20 45 41
21 46 42
20 45 42
20 45 42
20 45 42
20 45 42
21 46 42
21 46 42
20 45 41
21 46 42
20 44 40
20 45 41
21 46 42
21 46 42
20 45 41
21 46 42
20 44 41
20 45 41
20 44 40
21 46 42
20 45 42
21 46 42
21 46 42
21 46 42
20 45 42
20 45 41
20 44 40
20 45 41
20 44 41
21 47 43
21 45 42
20 45 42
20 45 42
21 46 42
20 45 42
20 44 40
20 45 42
20 45 41
20 44 41
20 44 41
20 44 40
20 45 41
20 44 40
20 45 41
20 45 42
20 45 41
21 46 42
20 44 40
20 44 41
21 46 42
20 45 41
20 45 41
20 44 40
20 44 41
20 45 42
21 46 42
20 45 41
20 45 42
20 45 42
20 45 41
20 45 41
20 44 41
20 45 41
20 45 41
21 46 42
20 45 42
20 45 41
20 45 41
20 44 40
21 46 42
20 45 42
20 46 42
21 46 42
20 44 41
20 45 41
21 46 42
20 45 41
21 46 42
20 44 41
20 45 41
21 46 42
21 46 42
20 44 40
20 45 42
20 45 42
20 45 41
21 46 42
20 45 41
21 46 42
21 46 42
20 44 40
20 45 41
21 46 42
20 45 41
21 46 42
21 46 42
20 45 42
20 45 41
20 45 41
21 46 42
20 45 41
21 46 42
21 46 42
21 46 42
21 45 42
20 45 41
21 46 42
21 46 42
20 45 41
21 46 42
21 46 42
21 46 42
20 45 41
20 45 41
20 45 42
21 46 42
21 46 42
21 46 42
21 46 42
20 45 42
21 46 42
21 46 42
21 46 42
21 46 42
21 46 42
21 46 42
21 46 42
21 47 43
21 46 42
21 46 42
21 46 42
20 45 41
20 45 41
21 46 42
20 45 41
21 46 42
20 45 41
21 45 42
20 45 41
21 45 42
21 46 42
21 46 42
20 45 41
20 44 40
20 45 41
20 45 41
20 45 41
21 46 42
20 45 41
21 46 42
20 45 41
21 46 42
21 46 42
20 44 40
20 44 40
20 44 41
20 45 41
20 44 40
21 46 43
21 46 42
20 43 40
20 45 41
20 45 41
20 45 41
20 45 41
20 45 41
20 44 40
20 45 41
20 45 41
20 43 40
21 46 42
20 45 41
20 45 41
20 45 41
20 44 40
20 44 41
20 45 41
20 45 41
20 45 41
20 45 41
20 45 41
20 45 41
20 45 41
20 45 41
21 46 42
20 45 41
20 45 41
20 45 41
20 44 41
21 46 42
20 45 41
20 45 41
20 45 41
20 45 41
21 46 42
20 45 42
20 45 42
20 44 40
21 46 43
21 45 42
20 44 40
20 45 41
20 45 41
20 45 42
21 45 42
20 45 41
21 46 42
20 45 42
21 46 42
21 46 42
21 45 42
20 44 40
20 45 41
21 46 43
20 45 42
20 45 41
21 46 42
21 46 42
20 45 41
20 45 41
21 46 42
20 45 42
20 45 41
20 45 41
20 46 42
21 45 42
20 45 41
21 46 42
20 45 41
20 45 42
21 46 42
21 46 42
21 46 42
20 45 41
21 45 42
21 46 42
21 46 42
20 45 41
21 46 42
21 46 42
21 47 43
21 46 42
20 45 41
20 45 41
20 45 41
20 45 41
20 45 42
21 46 42
20 45 41
20 45 41
21 46 42
20 45 41
20 45 41
20 45 41
20 45 41
20 45 41
21 46 43
21 46 42
21 46 42
21 46 42
21 46 42
21 46 42
20 45 41
20 45 41
20 45 42
21 46 42
21 46 42
20 45 41
20 45 42
20 45 41
21 46 42
20 45 42
21 46 42
20 45 41
20 45 41
20 45 41
20 45 41
20 45 41
19 43 39
20 45 41
20 45 41
21 46 42
21 46 42
21 46 42
21 46 42
20 45 41
20 44 41
20 44 40
20 45 41
20 45 41
20 45 41
21 46 42
21 47 43
21 47 43
20 45 41
21 46 42
20 45 41
21 46 42
20 45 41
20 45 41
20 45 41
20 45 41
20 45 42
20 45 41
21 45 42
20 45 42
21 45 42
21 47 43
20 44 41
20 45 41
21 46 42
21 46 42
21 46 42
20 45 41
20 44 40
20 45 41
20 44 40
21 47 43
20 45 41
21 46 42
20 45 41
21 47 43
21 46 42
20 45 41
20 45 41
21 46 42
20 45 41
21 46 42
21 46 42
21 46 42
21 46 42
21 46 42
20 45 41
21 46 42
21 47 43
21 47 43
21 46 42
20 45 42
20 45 42
21 45 42
21 46 42
21 46 42
20 45 41
21 45 42
21 46 42
21 46 42
20 45 41
20 45 41
21 47 43
20 45 42
20 45 42
21 47 43
21 46 42
21 46 42
21 46 42
21 46 42
20 45 41
20 45 41
21 46 42
21 46 42
21 46 42
21 46 42
20 45 42
20 45 41
20 45 42
20 45 41
21 47 43
21 46 42
21 46 42
20 45 41
20 45 41
21 46 42
21 46 42
21 47 43
21 46 42
21 47 43
20 45 41
21 47 43
21 46 42
21 46 42
21 46 42
20 45 41
20 45 41
21 46 42
21 47 43
21 47 43
21 46 42
21 46 42
20 44 41
20 44 41
20 45 41
21 46 42
21 45 42
20 45 41
20 43 40
20 44 41
20 45 42
21 46 42
20 45 42
21 46 42
20 45 41
20 45 41
20 44 41
20 45 41
20 45 41
20 45 41
20 45 41
21 45 42
20 44 41
21 46 42
20 45 41
20 44 41
20 45 41
20 44 41
21 46 42
20 45 41
20 45 41
21 46 42
20 45 41
20 45 41
21 46 42
21 46 42
21 46 42
20 45 41
20 45 42
21 46 42
21 45 42
21 46 42
20 45 41
20 45 41
20 45 41
20 45 41
20 45 41
20 44 41
20 45 41
21 47 43
20 45 42
21 46 42
20 45 41
21 46 42
20 45 41
20 45 41
21 46 42
21 46 42
21 46 42
21 46 42
20 45 41
21 46 42
21 47 43
21 46 42
20 45 41
21 46 42
21 46 42
21 46 42
21 47 43
21 46 42
20 45 41
21 47 43
21 46 42
21 46 42
20 45 41
21 46 42
20 45 42
21 45 41
20 45 41
21 47 43
21 46 42
20 45 41
20 45 41
21 46 42
20 45 41
21 47 43
21 46 42
21 46 42
21 46 42
20 44 40
21 45 41
21 46 42
21 47 43
21 46 42
21 46 42
21 46 42
21 46 42
21 46 42
21 46 42
21 46 42
21 45 42
20 44 40
21 46 42
21 46 42
21 46 42
21 46 42
21 46 42
21 47 43
21 46 42
20 45 41
21 46 42
21 46 42
21 47 43
21 46 42
20 45 42
21 46 42
21 46 42
21 46 42
21 46 43
21 46 42
21 46 42
21 46 42
21 46 42
21 46 42
20 45 41
21 46 42
20 45 41
20 45 41
21 47 43
20 45 41
20 45 41
20 45 42
20 45 41
20 45 41
21 47 43
20 44 41
20 45 41
20 44 41
20 44 40
20 44 41
20 45 41
20 44 40
21 46 42
21 47 43
20 45 42
20 45 41
21 46 42
21 46 42
21 46 42
21 46 42
20 45 41
21 46 42
20 45 41
21 46 42
20 45 41
20 45 41
21 46 42
20 45 42
20 45 41
20 45 42
21 47 43
21 47 43
20 45 41
21 46 42
20 45 41
21 46 42
21 46 42
21 46 42
20 45 42
21 46 42
20 45 41
21 47 43
21 46 42
20 45 41
21 46 42
21 46 42
21 47 43
20 45 41
21 47 43
21 46 42
21 45 42
20 45 41
20 45 42
20 45 41
20 45 41
20 45 41
21 45 41
21 46 42
21 46 42
21 46 43
21 47 43
21 46 42
21 46 42
21 46 42
21 46 42
21 46 42
21 45 42
21 46 42
21 46 42
21 45 41
21 46 42
20 45 41
21 47 43
20 45 41
21 47 43
20 45 41
21 46 42
21 47 43
21 46 42
21 47 43
21 46 42
20 45 41
21 46 42
21 46 42
20 45 41
21 46 42
21 46 42
21 46 42
21 47 43
21 46 42
21 46 42
21 46 42
20 45 41
21 47 43
21 46 42
21 46 42
21 46 42
21 47 43
20 45 41
21 46 42
21 46 42
21 46 42
21 46 42
21 47 43
20 45 41
20 45 41
20 45 41
21 46 42
21 46 42
20 45 41
21 46 42
21 47 43
21 47 43
21 45 41
20 45 41
21 46 42
21 46 42
20 44 40
21 45 42
20 45 41
21 46 42
20 45 41
21 46 42
20 45 41
21 46 42
21 46 42
20 45 42
21 46 42
20 45 42
20 45 42
20 45 41
20 45 41
20 45 41
21 45 42
20 45 41
21 46 42
20 45 41
21 46 42
21 46 42
20 44 41
21 47 43
20 45 41
21 47 43
20 45 41
21 46 42
20 45 41
21 47 43
21 46 42
20 45 41
20 45 41
21 47 43
21 46 42
20 45 42
21 46 42
21 45 42
21 46 42
21 45 42
21 46 42
21 47 43
21 46 42
21 46 42
21 47 43
21 46 42
21 46 42
21 46 42
20 45 41
21 46 42
21 46 42
21 46 42
21 47 43
21 46 42
21 46 42
21 45 42
21 46 42
21 47 43
21 46 42
21 47 43
21 46 42
20 45 41
21 46 42
21 46 42
21 46 42
21 47 43
21 46 42
20 45 41
21 46 42
21 47 43
21 47 43
22 48 44
21 46 42
21 45 42
21 46 42
21 47 43
21 46 42
21 46 42
21 47 43
21 46 42
21 45 41
21 46 42
20 45 41
21 46 42
21 47 43
20 45 41
21 47 43
20 45 41
21 46 42
21 46 42
21 47 43
21 46 42
21 47 43
21 46 42
21 47 42
21 46 42
21 46 42
21 47 43
22 48 44
22 48 43
21 46 42
21 46 42
21 46 42
21 47 43
20 45 41
21 45 42
21 46 43
21 46 42
22 48 44
21 46 42
21 46 42
21 46 42
21 46 42
21 46 42
21 46 42
21 46 42
21 46 42
20 45 42
20 45 41
20 45 41
20 45 41
20 45 41
21 46 42
21 46 42
21 46 42
21 47 43
21 46 42
21 46 42
20 44 40
20 45 41
21 46 42
21 46 42
20 45 41
21 46 42
21 46 42
20 44 41
21 47 43
21 46 42
21 47 43
20 45 41
20 45 41
20 45 41
20 45 42
21 46 42
21 47 43
21 47 43
21 46 42
20 45 41
21 46 42
21 46 42
21 47 43
21 47 43
20 45 41
21 46 42
20 45 41
21 46 42
21 46 42
21 46 42
21 46 42
21 46 42
20 45 41
21 46 42
20 45 41
22 48 44
20 45 42
22 48 44
21 47 43
22 48 43
21 46 42
21 45 42
21 46 42
20 44 40
21 45 42
20 45 41
21 46 42
21 45 42
21 46 42
21 46 42
21 47 43
22 48 44
21 46 42
21 46 42
21 47 43
21 46 42
21 47 43
21 46 42
21 46 42
21 47 43
21 46 42
21 47 43
21 47 43
21 46 42
21 47 43
21 47 43
21 47 42
21 47 43
21 47 43
21 46 42
21 46 42
21 47 43
20 45 41
21 45 42
21 45 41
21 47 43
21 47 42
21 47 43
21 47 43
21 47 43
21 46 42
20 45 41
21 46 42
22 48 43
21 47 43
22 48 44
22 48 44
21 47 43
21 46 42
21 46 42
21 46 42
21 47 43
21 46 42
21 45 42
21 46 42
21 46 42
21 47 43
21 46 42
21 45 42
21 46 42
21 46 42
21 46 42
21 46 42
21 46 42
20 45 41
21 46 42
21 46 42
22 48 43
21 46 42
21 46 42
20 45 41
21 46 42
21 46 42
20 45 41
20 45 42
20 45 42
21 46 42
20 45 41
21 46 42
20 45 41
20 44 40
21 46 42
21 46 43
21 46 42
20 44 41
21 46 42
20 45 41
20 45 41
20 45 41
21 45 42
20 45 41
21 46 42
21 46 42
21 45 42
20 45 41
21 46 42
21 46 42
20 45 41
21 46 42
21 46 42
21 45 42
21 46 42
21 46 42
21 47 43
21 46 42
20 45 41
21 46 42
21 46 42
21 46 42
20 45 41
21 46 42
21 46 42
21 46 42
21 46 42
21 46 42
21 46 42
21 46 42
20 45 41
20 45 41
21 46 42
20 45 41
21 46 42
21 46 42
21 46 42
21 47 43
21 47 43
21 46 42
21 46 42
21 45 42
21 45 42
21 47 43
22 48 44
21 47 43
22 48 44
21 47 43
21 46 42
21 47 43
21 46 42
20 45 41
21 45 41
21 46 42
21 46 42
21 47 43
21 46 42
21 47 43
21 46 42
20 45 41
21 47 43
21 47 43
21 47 43
21 47 43
21 46 42
21 46 42
21 46 42
21 46 42
21 47 43
21 47 43
21 47 43
21 46 42
21 46 42
21 46 42
22 48 44
21 47 43
21 46 42
21 46 42
21 46 42
22 48 44
21 46 42
21 46 42
21 47 43
21 47 42
20 45 41
21 47 42
21 46 42
20 45 41
21 46 42
21 46 42
21 47 43
21 47 43
21 47 43
21 46 42
21 46 42
21 47 43
21 46 42
21 46 42
21 46 42
21 46 42
20 45 41
21 46 42
21 46 42
21 47 43
21 46 42
20 45 41
20 45 41
20 44 41
21 46 42
21 46 42
21 46 42
21 46 43
21 46 42
21 46 42
21 46 42
21 46 42
21 45 42
21 46 42
21 47 43
21 46 42
20 45 41
21 46 42
21 46 42
21 46 42
21 46 42
21 46 42
21 46 42
20 45 41
21 46 42
21 46 42
21 46 42
21 46 42
20 45 41
21 46 42
21 47 43
21 45 41
21 46 42
21 45 42
20 45 41
21 46 42
21 46 42
21 46 42
21 47 43
21 46 42
21 46 42
21 46 42
21 46 42
21 46 42
21 45 42
21 46 42
21 46 42
21 47 43
21 46 42
21 46 42
20 45 41
21 47 43
21 46 42
22 48 43
21 47 43
21 46 42
21 47 43
21 46 42
21 46 42
21 47 43
21 46 42
21 46 42
21 47 42
21 47 43
21 47 43
22 48 44
21 47 43
21 46 42
20 45 41
21 46 42
21 47 43
21 47 43
21 47 43
21 47 43
21 46 42
20 45 41
21 46 42
21 46 42
21 47 43
21 46 42
21 47 42
21 46 42
21 47 43
22 48 44
22 48 44
21 47 43
21 47 43
21 47 43
22 48 44
21 47 43
22 48 44
21 46 42
21 47 42
21 47 43
21 47 43
21 47 43
22 48 44
20 45 41
21 46 42
20 45 41
21 47 43
21 46 42
21 45 41
21 47 43
21 47 43
21 46 42
21 46 42
21 46 42
21 46 42
21 46 42
21 46 42
21 46 42
21 46 42
21 47 43
22 48 44
21 46 42
21 46 42
21 46 42
21 46 42
21 46 42
21 47 42
20 45 41
21 46 42
21 48 44
20 45 41
21 47 43
21 46 42
21 46 42
21 46 42
21 46 42
21 46 42
20 45 41
20 45 41
20 45 41
20 45 42
21 46 42
21 46 42
21 47 43
21 46 42
21 46 42
20 45 41
21 47 43
21 45 41
21 47 42
21 46 42
21 47 43
21 46 42
21 47 43
21 46 42
21 47 43
21 46 42
21 46 42
21 46 42
21 46 42
21 47 43
21 46 42
21 46 42
21 47 43
21 47 43
21 47 43
21 47 43
21 46 42
21 46 42
21 46 42
21 46 42
21 47 43
20 45 41
21 47 43
21 47 43
21 46 42
21 46 42
21 46 42
21 46 42
21 46 42
21 47 43
21 47 43
22 48 43
22 48 44
21 46 42
21 47 43
20 45 41
21 47 43
21 46 42
21 46 42
21 46 42
21 47 42
21 47 43
21 46 42
22 48 44
20 45 41
21 47 43
21 47 43
22 48 44
21 47 43
21 47 43
21 46 42
21 46 42
22 48 43
21 47 42
22 48 43
22 48 43
21 47 43
21 47 42
21 46 42
21 46 42
20 45 41
21 46 42
21 47 43
22 48 43
21 47 43
21 46 42
21 47 43
22 48 43
21 47 43
21 47 43
21 47 43
21 47 43
21 46 42
21 45 42
21 47 43
20 45 41
21 46 42
21 46 42
21 46 42
21 46 42
21 46 42
21 47 42
21 46 42
21 46 42
21 46 42
21 46 42
21 46 42
21 46 42
21 46 42
21 47 43
21 47 43
21 46 42
20 44 41
21 46 42
22 48 44
21 46 42
21 47 43
21 46 42
21 46 43
21 46 42
21 47 43
21 46 42
20 45 41
21 45 41
20 44 40
20 45 41
21 46 42
21 46 42
21 46 42
21 46 42
21 46 43
21 47 43
20 45 41
21 45 42
21 47 43
21 46 42
21 46 42
21 46 42
21 46 42
21 47 43
21 46 42
21 46 42
21 46 42
21 46 42
21 46 42
21 47 43
21 47 43
21 47 43
21 46 42
21 46 42
21 46 42
21 46 42
22 48 43
21 46 42
22 48 43
21 46 42
21 46 42
21 47 42
21 47 42
21 46 42
21 46 42
21 46 42
21 47 43
21 47 43
20 45 41
21 46 42
21 46 42
21 47 43
21 47 43
21 47 42
21 46 42
21 47 43
21 46 42
21 47 43
21 47 43
22 48 44
21 47 43
21 46 42
21 46 42
21 46 42
21 47 43
21 46 42
22 48 44
22 48 44
21 47 42
21 46 42
21 47 43
21 47 43
22 48 43
21 45 41
21 47 43
22 47 43
21 47 43
21 46 42
21 47 43
21 47 43
22 48 44
21 47 43
21 47 43
21 46 42
21 46 42
21 46 42
22 48 44
21 47 43
21 47 43
21 46 42
21 46 42
21 47 43
22 48 43
21 45 41
21 47 43
21 47 43
21 46 42
21 47 43
21 46 42
21 46 42
21 46 42
21 46 42
21 47 43
21 46 42
21 47 43
21 46 42
21 46 42
21 46 42
21 47 43
21 46 42
21 46 42
21 46 42
21 47 43
21 45 41
20 45 41
21 47 43
21 47 43
21 46 42
21 47 43
21 47 43
20 45 41
21 46 42
21 46 42
20 45 41
21 46 42
21 46 42
20 45 41
21 46 42
21 46 42
20 45 41
21 46 42
21 47 43
21 46 42
21 46 42
21 46 43
21 47 43
21 46 42
21 46 42
21 46 42
21 46 42
21 47 43
21 46 42
21 46 42
21 46 42
21 46 42
21 47 43
21 47 43
21 46 42
21 46 42
21 47 43
21 47 43
21 46 42
21 47 43
21 46 42
21 47 43
21 47 42
20 45 41
21 47 43
21 46 42
21 46 42
21 47 43
21 47 43
21 47 43
21 47 43
21 46 42
21 47 43
21 46 42
21 47 43
21 47 42
21 47 43
21 46 42
22 48 43
21 46 42
21 47 42
21 46 42
21 47 43
21 47 43
21 46 42
21 46 42
21 47 43
21 47 43
21 46 42
21 47 42
22 47 43
21 47 43
21 47 43
22 48 44
21 47 43
21 46 42
21 46 42
21 46 42
22 48 43
21 47 43
21 47 43
21 47 42
22 48 43
21 47 42
22 48 43
21 46 42
22 48 44
21 46 42
21 47 43
21 47 43
21 47 43
21 47 43
21 46 42
21 47 43
22 48 44
21 46 42
21 46 42
21 47 43
21 46 42
21 47 42
21 46 42
21 46 42
21 47 42
21 46 42
21 47 43
22 48 43
21 47 43
21 47 43
21 46 42
21 47 43
21 47 43
21 47 43
21 47 43
22 49 44
21 47 43
21 47 42
21 47 43
21 47 43
21 47 42
21 46 42
21 47 43
21 47 43
21 47 43
21 45 41
21 46 42
22 48 43
21 47 43
21 47 43
21 47 43
21 47 43
21 46 42
21 46 42
20 45 41
21 47 43
21 45 42
22 48 44
21 46 42
21 46 42
21 46 42
21 46 42
20 45 41
21 47 43
21 47 43
21 47 43
21 47 43
21 46 42
21 46 42
21 47 43
21 46 42
21 46 42
21 47 43
22 48 44
21 46 42
21 47 42
21 47 43
21 45 41
21 46 42
21 47 43
21 47 43
21 47 43
22 48 44
21 45 42
21 46 42
21 47 43
21 47 43
22 48 44
21 46 42
21 47 43
22 48 44
21 47 43
21 47 43
21 47 43
21 47 43
21 46 42
21 46 42
21 46 42
21 46 42
21 47 43
21 47 43
21 46 42
21 46 42
21 46 42
21 46 42
21 45 41
22 48 44
21 47 43
22 47 43
21 46 42
21 46 42
21 46 42
21 47 43
21 47 43
21 47 43
21 47 43
22 48 43
21 47 43
22 48 44
21 47 43
21 47 43
21 47 42
22 48 44
21 46 42
21 47 42
21 47 42
21 47 43
21 46 42
21 47 43
21 46 42
21 46 42
21 47 43
21 47 43
21 46 42
22 48 43
21 46 42
22 48 43
21 47 43
21 47 43
21 47 43
21 47 42
21 47 43
22 49 44
21 47 43
21 47 42
21 47 43
21 46 42
21 47 43
22 48 44
21 47 43
21 46 42
21 47 43
21 46 42
21 47 43
22 48 43
21 47 43
22 48 44
21 46 42
21 46 42
22 48 43
22 48 43
22 47 43
21 47 42
21 46 42
21 46 42
21 46 42
21 46 42
21 47 43
22 48 44
21 46 42
21 46 42
21 46 42
21 47 43
21 46 42
21 47 43
21 45 42
21 46 42
21 46 42
21 46 42
21 47 43
21 46 42
21 45 41
21 46 42
20 45 41
21 46 42
21 47 43
20 45 41
21 47 43
21 46 42
21 46 42
22 48 44
21 47 43
21 46 42
22 48 44
21 47 42
21 46 42
22 48 44
21 46 42
21 46 42
21 46 42
22 48 44
21 46 42
21 47 42
21 47 43
21 46 42
21 46 42
21 47 42
21 47 43
21 47 43
21 47 43
21 47 43
21 47 43
21 46 42
21 46 42
21 47 43
22 48 43
21 47 43
21 47 43
21 46 42
21 47 43
21 47 42
21 47 43
22 48 44
21 46 42
21 47 43
21 47 42
21 46 42
22 48 44
21 46 42
21 47 42
21 47 42
21 47 43
21 47 42
21 47 43
21 47 43
21 47 43
22 48 44
22 48 44
21 47 43
21 47 42
21 47 43
21 47 43
22 48 43
22 48 44
21 47 43
21 47 42
21 46 42
21 46 42
21 47 43
21 47 43
22 48 44
21 47 43
21 47 43
21 47 43
21 46 42
22 48 44
22 48 43
22 48 43
22 48 43
21 47 43
21 47 43
21 47 43
22 48 43
22 48 44
21 47 43
22 48 44
21 46 42
22 48 44
22 47 43
21 47 43
21 47 42
21 46 42
21 47 42
21 46 42
21 47 43
21 47 43
21 47 42
22 48 44
22 48 44
21 47 43
21 47 43
21 47 43
21 47 43
21 47 43
22 48 43
21 47 42
21 46 42
21 46 42
21 47 42
21 47 43
21 47 43
21 48 43
21 46 42
22 48 44
21 47 43
21 46 42
21 46 42
20 45 41
21 47 43
21 47 43
21 46 42
21 46 42
21 46 42
21 47 43
21 47 43
21 47 43
21 46 42
21 46 42
21 46 42
21 46 42
21 47 43
21 46 42
21 47 43
21 47 43
21 47 43
21 47 43
21 46 42
21 46 42
21 47 43
21 47 42
21 47 43
21 47 43
21 47 43
21 46 42
22 47 43
21 47 43
22 48 44
21 47 43
22 48 44
21 47 43
21 46 42
22 48 44
21 46 42
21 46 42
21 46 42
21 46 42
22 48 43
21 47 43
22 48 43
22 48 43
21 47 43
22 48 43
21 46 42
22 48 43
22 48 43
22 48 44
21 46 42
22 48 43
22 48 44
21 46 42
21 46 42
21 46 42
21 47 42
21 47 43
21 47 42
21 47 43
21 46 42
21 47 43
22 48 44
22 48 44
21 47 42
22 48 44
21 47 43
22 48 44
21 47 43
22 48 44
21 47 43
21 47 43
21 47 43
21 47 43
21 47 43
22 48 44
21 47 42
22 48 44
21 47 43
22 48 44
21 46 42
22 48 43
21 47 43
21 47 43
21 47 42
22 48 44
21 47 43
21 46 42
22 47 43
22 48 44
21 46 42
21 47 42
22 49 44
21 47 43
21 45 41
21 47 42
21 46 42
21 46 42
21 47 43
21 46 42
22 48 43
22 48 44
22 48 43
21 46 42
22 48 43
22 48 44
21 47 43
21 46 42
22 48 43
22 48 44
21 47 43
21 47 43
21 47 43
21 46 42
21 46 42
21 46 41
21 47 42
21 47 43
21 47 43
21 46 42
21 47 43
21 46 42
20 45 41
22 48 44
21 46 42
21 46 42
21 46 42
21 46 42
21 47 43
21 47 43
21 45 41
21 46 42
21 46 42
21 47 43
21 46 42
21 46 42
21 46 42
22 48 44
21 47 43
21 46 42
21 47 43
21 46 42
21 47 43
22 47 43
21 47 43
21 47 43
21 46 42
22 49 44
21 45 41
21 47 43
21 46 42
22 48 44
21 47 43
21 47 43
21 47 43
21 47 43
22 47 43
21 47 43
21 46 42
22 47 43
21 47 43
21 46 42
21 47 43
21 47 43
21 47 42
21 46 42
21 47 43
21 47 43
21 47 43
21 47 43
22 47 43
21 46 42
22 48 43
21 46 42
22 48 44
21 47 43
22 48 44
22 48 43
22 47 43
22 48 44
21 47 43
21 46 42
21 47 42
21 46 42
21 46 42
21 47 43
21 47 42
22 47 43
22 47 43
22 48 44
21 47 43
21 46 42
22 48 43
22 48 44
21 47 43
22 47 43
21 47 43
22 48 44
21 47 43
22 49 44
22 48 44
22 47 43
22 48 43
22 49 44
22 48 43
21 47 43
21 46 42
21 47 42
21 47 43
21 47 43
22 48 43
21 47 42
22 48 44
21 47 42
21 47 43
21 45 41
22 48 44
21 47 43
22 48 44
21 47 43
21 47 42
22 47 43
21 47 43
22 48 44
22 47 43
22 48 43
22 48 44
21 47 43
21 47 43
21 47 43
21 47 43
21 46 42
21 46 42
21 47 43
21 46 42
21 47 43
21 47 43
21 46 42
21 46 42
21 46 42
21 46 42
22 47 43
21 46 42
21 46 42
21 46 42
21 46 42
21 47 43
21 46 42
21 47 43
21 47 43
21 47 43
22 48 43
21 47 43
21 47 43
21 46 42
22 48 44
21 46 42
21 46 42
21 46 42
21 47 42
21 46 42
22 48 44
21 46 42
21 47 43
21 47 43
22 47 43
21 46 42
21 47 43
21 46 42
21 47 43
21 47 43
21 47 42
21 47 43
21 47 43
21 47 42
21 47 43
21 47 43
21 47 43
22 47 43
22 48 43
21 47 43
21 47 43
21 47 43
21 46 42
21 47 43
21 47 43
22 48 43
22 48 43
21 47 43
21 47 43
22 48 44
22 48 44
22 48 43
21 46 42
21 46 42
22 48 43
22 47 43
21 46 42
22 48 44
22 48 44
21 47 43
21 47 43
21 47 43
22 48 44
21 47 43
21 47 43
21 47 42
22 48 43
21 47 43
21 47 43
21 47 43
22 48 43
22 48 43
21 47 43
22 48 43
22 47 43
21 47 43
22 49 44
22 48 44
21 47 43
21 46 42
22 48 43
22 48 43
22 48 43
22 48 43
22 48 43
21 47 43
21 47 43
22 47 43
22 49 44
22 48 44
21 47 43
21 47 43
21 47 43
22 49 45
22 48 44
22 49 44
21 47 43
21 47 42
21 47 43
21 46 42
21 47 43
22 47 43
21 47 43
22 48 43
21 46 42
22 48 43
21 46 42
106 102 94
146 135 123
172 156 142
126 118 108
75 79 72
21 47 43
21 47 43
21 47 42
21 46 42
21 47 43
21 46 42
21 46 42
21 46 42
21 47 42
21 47 43
21 47 43
21 47 43
22 48 43
21 47 43
21 47 43
21 47 43
22 48 43
21 46 42
21 47 43
21 46 42
22 49 44
21 47 43
21 47 43
21 47 43
21 47 43
21 47 43
21 47 43
21 47 43
22 47 43
22 48 44
21 47 43
22 49 44
21 47 43
21 47 42
22 48 44
22 48 44
21 47 43
22 48 44
21 46 42
21 47 43
21 46 42
21 46 42
22 48 43
21 47 43
22 47 43
21 47 43
21 46 42
22 47 43
21 47 43
21 47 42
22 49 44
21 47 43
21 47 42
21 47 43
22 48 43
22 47 43
22 49 45
21 47 43
21 47 42
22 48 43
22 48 43
22 48 44
21 47 42
22 48 43
21 47 43
21 47 43
21 47 43
22 48 43
21 47 43
21 47 43
22 48 44
21 47 43
21 47 42
22 48 44
22 48 43
22 48 44
22 48 44
21 47 43
21 47 43
22 48 44
21 47 43
22 48 43
22 48 44
21 47 43
22 48 44
21 46 42
22 48 44
21 47 43
22 49 44
21 47 42
21 47 43
21 47 43
22 48 44
22 49 44
21 47 43
22 48 44
21 47 43
22 48 44
21 47 43
21 47 43
22 47 43
22 48 44
22 48 44
21 47 43
22 47 43
21 46 42
22 48 43
22 48 44
22 48 44
22 48 43
22 49 44
22 48 43
21 47 42
83 84 77
194 175 159
236 210 192
241 215 196
243 217 198
242 216 197
235 209 191
21 47 43
21 46 42
21 46 42
22 48 43
21 46 42
22 48 43
21 47 43
21 46 42
21 46 42
21 47 43
21 47 43
21 47 43
21 46 42
22 48 43
21 47 43
22 48 43
21 47 43
21 46 42
22 48 44
21 47 43
21 46 42
22 48 44
22 48 44
21 47 43
20 45 41
22 48 44
21 47 43
22 48 43
21 47 43
22 48 43
21 47 43
21 47 43
22 48 43
21 47 43
21 47 43
22 48 44
22 48 44
22 47 43
21 47 43
22 48 43
21 47 43
21 47 43
21 47 43
22 48 43
22 49 44
22 47 43
21 47 43
21 47 43
21 47 43
21 47 43
22 49 45
22 49 44
21 47 43
22 47 43
21 47 42
21 47 43
22 48 43
21 47 43
21 47 43
21 47 43
22 48 43
22 48 43
21 46 42
21 47 43
21 47 43
22 48 44
22 47 43
21 47 43
21 46 42
21 47 43
22 48 44
22 48 43
21 47 43
21 47 43
22 49 44
22 48 43
22 48 44
22 48 43
21 47 43
21 46 42
22 48 44
22 48 44
22 48 44
22 48 43
22 48 44
21 46 42
21 47 43
22 48 43
22 48 43
21 47 42
22 47 43
22 47 43
22 49 44
22 49 44
21 47 43
22 48 44
21 47 42
22 48 43
22 49 44
22 48 44
22 49 45
22 47 43
22 48 43
21 47 43
22 47 43
22 48 44
22 48 43
22 47 43
22 48 44
22 48 43
21 47 42
22 48 43
33 47 49
191 169 157
236 209 190
242 215 196
246 218 198
247 219 200
246 219 199
245 217 197
21 47 43
20 45 41
21 46 42
22 48 44
21 47 43
21 46 42
21 47 43
22 48 44
21 47 43
21 47 43
21 46 42
21 47 43
21 47 43
22 48 43
21 46 42
22 48 44
21 46 42
21 47 43
22 48 43
22 48 44
21 47 43
22 48 44
21 47 43
21 46 42
21 47 43
21 46 42
22 48 43
21 47 43
21 47 43
21 47 43
21 47 42
21 47 43
21 47 43
21 47 43
22 47 43
22 47 43
21 47 43
21 47 43
22 48 44
21 47 43
22 49 44
22 47 43
21 47 43
21 47 43
22 48 44
21 46 42
22 48 44
22 48 44
21 47 42
21 47 42
22 49 44
22 48 44
22 48 43
22 48 44
21 47 43
22 48 43
22 49 44
22 49 44
22 49 44
21 47 43
21 47 42
21 47 43
22 49 44
22 48 43
21 47 43
21 46 42
22 48 43
21 47 42
21 47 42
22 47 43
22 48 44
22 48 43
22 48 43
22 47 43
22 49 44
22 47 43
22 48 43
21 47 43
22 48 44
22 48 43
21 47 43
22 49 45
22 48 43
21 47 43
22 48 44
22 48 44
21 47 43
22 48 44
21 47 43
22 48 44
21 46 42
22 48 43
21 47 43
21 47 43
21 47 43
22 48 43
22 47 43
22 48 44
21 47 42
22 48 43
22 48 44
22 49 44
22 48 43
22 48 43
22 48 43
21 47 43
21 47 42
22 48 43
22 48 44
22 48 44
21 47 43
21 47 43
66 51 74
106 78 105
195 168 162
240 212 193
248 220 199
255 238 213
251 223 201
245 217 197
21 46 42
20 45 41
21 47 43
21 47 43
21 46 42
22 48 43
21 46 42
21 47 43
21 46 42
22 48 43
22 48 44
21 47 43
21 47 42
22 48 44
21 47 43
21 47 43
21 47 43
21 47 43
21 46 42
21 46 42
21 46 42
21 46 42
22 47 43
21 46 42
21 47 42
21 46 42
21 46 42
21 47 43
21 47 43
22 48 43
21 47 42
21 46 42
21 46 42
22 48 43
22 48 43
22 49 45
22 48 44
22 49 44
21 46 42
21 47 42
21 47 43
22 48 44
22 49 45
22 48 43
21 46 42
22 48 43
22 48 44
22 48 44
21 47 42
22 48 44
22 47 43
21 47 43
21 47 43
22 48 44
22 47 43
22 48 44
22 48 44
22 47 43
21 47 43
22 48 44
22 48 44
22 49 45
21 47 43
22 47 43
21 47 42
22 48 44
22 48 44
22 47 43
22 49 44
23 50 45
22 47 43
21 47 43
21 47 43
21 47 43
21 47 43
22 48 43
22 48 44
22 48 44
22 49 44
22 48 43
21 47 43
22 48 44
21 47 43
21 47 43
22 48 44
22 48 44
22 48 44
22 47 43
22 48 44
22 48 43
22 48 44
22 48 44
22 48 43
22 49 45
22 48 44
21 47 42
22 48 43
22 47 43
22 49 44
21 46 42
22 48 44
22 48 43
22 48 44
21 46 42
21 47 43
22 47 43
21 46 42
21 47 43
22 48 44
21 47 42
22 47 43
27 47 46
74 50 79
87 57 91
96 63 101
126 97 119
188 160 158
250 220 201
251 222 200
242 213 192
22 48 44
21 47 43
21 47 43
22 48 44
21 47 42
21 47 42
22 48 44
21 47 43
21 47 43
21 47 43
21 47 43
22 48 44
22 47 43
22 48 44
21 47 43
22 48 43
21 46 42
22 48 44
21 47 42
21 47 43
21 47 43
22 47 43
21 46 42
21 47 43
22 48 43
22 49 44
21 47 43
21 47 42
22 48 44
22 48 44
22 47 43
22 48 44
22 48 44
22 48 43
22 48 44
22 48 43
22 47 43
22 48 43
22 47 43
22 48 43
22 48 44
22 48 44
21 47 42
21 46 42
22 47 43
22 48 44
22 48 43
22 49 45
22 48 44
21 47 43
22 49 44
21 47 43
21 46 42
21 47 43
21 47 43
22 47 43
22 47 43
22 48 43
21 47 43
21 47 43
22 48 44
22 47 43
22 49 44
22 48 43
22 49 45
22 48 43
22 48 43
23 49 45
22 49 44
21 47 42
22 48 43
22 48 43
22 49 44
22 48 43
21 46 42
22 49 44
22 48 44
21 47 43
22 48 43
22 48 43
22 48 43
22 47 43
22 48 44
22 48 44
22 47 43
22 48 43
22 48 43
21 47 43
22 48 43
21 47 43
21 47 43
22 49 44
22 48 43
22 49 44
22 47 43
22 48 44
22 49 44
22 48 44
22 48 43
22 48 43
22 48 44
21 47 43
22 48 44
21 47 43
22 48 43
22 48 43
21 47 43
22 48 43
22 47 43
21 47 43
22 47 43
28 45 45
71 47 75
83 54 87
90 59 93
95 62 98
97 63 100
101 67 104
100 68 102
113 82 110
21 47 43
21 46 42
21 47 43
21 47 43
21 46 42
21 47 43
21 46 42
21 46 42
21 46 42
22 48 44
21 46 42
21 46 42
21 47 43
22 48 43
21 47 43
22 48 43
21 47 43
21 47 43
22 48 43
22 48 44
21 47 43
21 47 43
21 47 43
22 48 44
21 47 43
21 47 43
22 48 44
21 47 42
22 47 43
22 47 43
22 47 43
21 47 43
22 48 43
21 47 43
21 47 43
22 48 43
22 48 43
21 47 43
21 46 42
22 47 43
22 47 43
22 48 43
22 49 44
21 47 42
22 48 43
22 48 43
22 48 44
21 46 42
22 48 43
21 47 43
22 48 44
22 48 44
21 47 42
22 48 43
21 47 43
22 49 44
22 48 43
22 47 43
22 49 45
21 47 43
22 48 43
22 48 43
22 49 44
22 48 44
22 48 43
22 48 43
22 49 44
22 48 43
22 48 44
21 47 43
21 47 43
22 48 43
22 48 44
22 48 44
22 49 45
22 47 43
23 50 45
22 48 44
21 46 42
22 48 44
22 49 45
22 48 44
22 47 43
21 47 42
22 48 44
21 47 42
22 48 43
22 48 44
22 48 43
22 48 43
22 48 43
22 48 44
22 49 45
22 48 44
22 48 43
22 47 43
22 48 43
22 47 43
22 47 43
23 50 45
22 48 43
22 48 43
22 48 43
22 48 44
22 48 44
22 47 43
22 48 43
22 49 44
22 47 43
21 47 43
21 47 43
24 46 43
59 39 62
71 46 73
80 52 81
85 55 86
88 56 89
91 59 94
91 60 93
143 121 118
21 46 42
21 47 43
21 46 42
21 46 42
21 47 43
21 47 43
21 47 42
21 46 42
22 47 43
21 47 43
21 47 43
22 48 43
22 48 44
21 47 43
22 48 43
21 47 42
21 47 43
21 47 43
21 46 42
21 46 42
21 47 42
22 48 44
21 47 43
21 47 43
21 47 43
22 48 43
22 47 43
22 48 43
22 48 44
21 47 43
22 48 43
22 47 43
22 47 43
22 48 44
22 48 43
21 46 42
21 47 42
22 48 43
22 48 44
22 48 44
23 49 45
22 48 43
22 48 43
22 49 44
22 49 45
21 47 42
22 49 44
22 47 43
22 48 44
21 47 43
22 47 43
22 48 44
22 48 44
22 48 44
22 48 43
22 49 45
21 47 42
22 47 43
22 48 44
21 47 42
21 47 42
22 47 43
22 48 44
22 48 44
22 48 44
22 47 43
23 50 45
22 48 44
22 48 43
22 48 43
22 48 44
22 48 43
22 48 43
22 48 44
22 48 44
22 48 44
21 47 42
22 48 44
22 48 44
22 48 44
22 48 43
22 48 44
22 49 44
22 48 43
22 48 43
22 48 44
22 48 44
22 48 44
22 48 44
22 49 45
22 47 43
22 48 44
21 47 43
21 47 43
22 48 44
22 49 44
22 48 43
22 47 43
21 47 43
22 48 44
22 48 44
22 47 43
21 47 42
22 48 43
22 48 44
21 47 42
22 47 43
21 47 43
21 47 42
22 47 43
21 47 42
20 44 40
48 38 52
58 38 60
67 43 67
73 47 73
78 50 79
79 51 79
112 89 98
168 147 130
21 46 42
21 47 43
21 47 42
21 47 43
22 47 43
22 47 43
21 46 42
22 48 43
21 47 43
22 48 44
22 48 44
21 47 43
21 47 43
22 49 44
21 47 43
21 47 42
22 48 43
22 48 43
22 47 43
22 49 44
21 47 43
22 48 43
22 48 43
22 48 43
22 48 43
22 48 44
22 48 43
21 46 42
22 49 45
22 48 43
21 47 43
21 47 43
22 48 44
21 47 42
21 47 42
22 48 44
22 48 43
22 48 44
22 48 44
22 48 43
22 47 43
22 48 43
22 48 43
22 48 43
22 48 44
22 48 43
22 48 43
21 46 42
22 48 44
22 48 43
22 47 43
22 49 44
22 48 44
22 48 43
22 48 44
22 48 43
22 48 44
22 49 44
22 48 43
22 48 44
22 49 44
22 48 43
22 48 43
22 47 43
22 48 44
22 47 43
22 48 44
27 51 47
83 84 77
94 93 84
22 47 43
22 49 44
22 48 44
22 48 44
22 47 43
22 48 44
22 48 44
22 48 43
22 47 43
22 49 45
22 49 45
22 48 44
22 48 43
21 47 43
22 49 44
22 48 43
21 47 43
22 49 44
22 48 44
22 49 44
22 48 44
22 48 44
22 48 44
22 48 44
22 48 43
22 49 44
22 48 43
22 48 43
22 49 45
22 48 44
21 46 42
22 48 44
22 47 43
22 47 43
22 47 43
22 48 43
21 46 42
22 47 43
22 49 44
21 47 42
20 45 40
18 40 37
36 42 38
48 39 44
48 32 48
56 36 54
60 38 57
63 40 61
90 73 75
137 119 103
21 47 43
22 48 43
21 47 43
21 46 42
22 48 43
21 46 42
22 48 43
21 46 42
21 47 43
22 48 43
22 49 44
21 47 43
21 47 43
22 48 44
21 45 41
22 48 43
21 47 43
21 47 43
21 47 42
21 47 43
22 48 43
22 47 43
22 49 45
21 47 43
21 47 42
22 48 44
21 46 42
22 48 44
22 48 43
21 47 43
22 47 43
21 47 43
22 48 44
21 47 43
22 48 44
22 48 44
22 47 43
21 47 43
21 47 43
22 48 44
22 48 44
22 48 43
21 47 43
22 48 43
21 47 43
22 49 44
22 47 43
22 49 44
22 49 44
22 48 44
22 48 44
22 48 44
22 48 43
22 48 44
22 47 43
22 48 43
22 49 44
22 48 43
22 47 43
22 48 43
22 48 44
22 48 44
22 48 43
22 49 45
21 47 43
43 58 53
155 142 129
220 197 181
238 212 194
159 142 131
39 43 46
36 43 45
25 47 43
22 47 43
22 49 44
22 48 43
22 49 44
21 47 42
22 48 44
22 48 44
22 48 44
22 48 44
23 49 45
22 49 45
22 48 43
22 48 43
22 48 43
22 48 44
22 48 44
22 48 44
22 49 44
22 49 45
23 49 45
22 49 44
22 48 43
22 48 44
23 49 45
22 49 44
22 47 43
22 47 43
21 47 43
33 48 43
82 59 47
65 54 44
33 48 43
22 48 44
22 47 42
22 47 43
21 46 41
21 45 41
20 43 38
16 36 33
18 30 29
46 46 38
44 42 35
39 35 33
45 32 43
43 28 41
50 37 45
79 69 61
21 47 43
22 48 43
22 49 44
22 47 43
22 48 44
21 47 43
21 46 42
22 47 43
21 47 43
22 48 44
21 47 43
21 47 43
21 46 42
21 47 43
22 48 44
21 47 43
22 48 44
22 48 44
21 46 42
22 49 44
22 47 43
22 48 43
22 47 43
22 48 43
22 48 44
22 47 43
22 48 44
22 48 43
21 47 42
22 48 44
22 48 44
22 48 44
21 47 42
22 48 43
22 49 45
21 47 43
22 48 44
21 47 42
22 48 44
21 46 42
22 48 43
22 48 43
22 48 44
22 48 44
22 48 44
22 48 43
22 48 43
22 48 44
23 50 45
22 48 44
22 49 44
21 47 42
21 47 43
22 48 43
22 49 44
22 48 43
22 48 44
22 48 44
22 49 44
22 47 43
21 47 42
22 48 43
22 47 43
22 49 44
65 72 66
198 177 161
231 207 189
238 213 194
161 145 134
40 43 47
41 43 47
41 43 47
39 43 46
28 46 44
22 48 44
22 48 43
22 48 43
22 48 43
22 48 44
21 47 43
22 48 44
22 49 44
22 49 44
22 48 44
22 49 44
22 48 43
22 48 43
22 48 44
22 48 43
22 48 44
22 48 44
22 47 43
22 48 44
23 50 45
22 47 43
22 48 43
22 48 43
22 49 44
22 49 44
100 63 48
203 100 62
249 119 71
255 125 73
255 125 74
247 120 73
190 112 85
68 73 66
22 48 43
21 45 41
21 47 42
21 45 41
20 43 38
15 32 30
12 26 25
22 26 21
33 35 25
43 43 31
44 44 32
38 38 29
29 32 24
22 49 44
21 47 42
21 47 43
21 46 42
21 47 43
21 46 42
21 47 43
22 48 44
21 46 42
22 48 44
22 48 44
21 47 43
22 47 43
21 47 43
22 49 44
22 48 43
21 47 43
21 47 43
22 48 44
22 47 43
22 48 44
22 48 43
22 48 44
22 48 44
22 47 43
22 48 43
22 49 44
22 48 44
22 48 43
22 48 44
22 48 43
21 47 42
22 47 43
22 49 45
21 47 43
21 47 43
22 48 43
22 48 43
22 49 45
22 48 44
22 49 44
21 46 42
22 48 44
22 48 44
22 47 43
21 47 43
22 48 43
22 48 44
22 48 43
22 48 43
22 48 44
22 48 43
22 49 44
22 48 44
22 48 44
22 48 44
22 49 44
22 48 43
22 47 43
22 48 43
22 49 44
23 49 45
21 47 42
26 50 46
162 148 135
224 199 182
233 208 190
178 160 147
41 43 47
51 52 53
45 47 49
41 43 47
40 43 46
38 41 43
25 46 43
22 47 43
23 49 45
22 49 44
22 47 43
22 47 43
22 48 44
22 48 43
23 50 45
22 48 44
22 47 43
22 48 43
22 49 45
22 48 44
21 47 43
23 50 45
22 48 44
22 49 44
22 48 43
22 48 44
22 48 44
22 48 44
21 47 43
23 49 45
142 78 53
237 113 67
255 123 72
255 126 74
255 127 75
255 128 75
255 127 75
255 126 74
239 147 115
95 93 84
22 47 42
22 48 43
21 45 41
21 45 40
20 44 39
18 39 34
15 33 30
11 23 21
10 20 18
20 22 17
12 19 17
10 22 20
21 47 43
21 47 43
21 47 43
21 47 43
21 46 42
21 47 43
21 47 43
21 47 43
22 49 44
21 47 43
22 49 45
22 49 44
22 49 45
22 48 44
22 48 43
22 48 44
22 48 43
22 48 44
22 48 43
21 46 42
22 48 43
22 47 43
22 48 44
21 47 43
21 46 42
22 49 44
21 47 42
22 48 44
22 49 44
22 49 44
21 47 42
22 48 44
22 48 44
22 48 43
22 48 44
22 48 44
22 48 43
21 47 42
22 48 43
22 49 44
22 47 43
22 48 43
22 48 44
23 49 45
22 49 45
22 48 43
22 49 44
21 46 42
22 49 44
22 48 44
22 49 44
22 49 44
22 48 44
22 48 44
22 48 44
22 48 44
22 48 43
22 48 43
22 48 44
22 49 45
22 48 44
22 49 44
22 49 44
97 95 87
198 177 162
220 196 178
193 173 158
45 47 49
50 51 52
145 136 118
110 104 92
42 44 47
40 43 46
39 41 44
67 66 61
22 48 44
22 49 44
21 47 42
22 47 43
23 50 45
22 48 44
22 49 44
21 47 43
22 48 44
22 48 44
22 49 44
22 49 44
22 48 43
22 48 43
23 49 45
23 50 45
22 48 44
22 49 44
22 48 43
22 48 44
22 49 44
22 47 43
90 81 71
207 173 154
233 199 179
247 185 160
255 137 93
255 128 76
255 130 78
255 128 75
255 127 74
255 124 73
219 151 126
53 63 57
22 47 42
22 48 43
21 45 41
21 45 41
20 44 40
21 45 40
19 42 36
19 41 36
19 41 36
19 42 37
20 42 37
22 48 44
22 49 44
22 48 44
22 47 43
21 47 43
21 47 43
22 48 44
21 47 42
22 48 44
21 46 42
22 48 44
21 46 42
22 48 44
22 48 44
22 49 44
22 48 44
21 47 43
22 47 43
21 47 43
22 49 45
22 48 44
22 48 44
21 47 43
22 48 43
22 47 43
22 49 44
22 48 44
22 48 43
22 49 44
23 49 45
22 49 44
22 48 44
22 47 43
22 49 44
22 47 43
21 47 43
22 48 43
21 47 43
22 48 44
22 48 44
22 48 43
22 47 43
22 49 45
22 48 44
22 48 43
22 48 44
22 48 44
22 48 43
22 49 44
21 47 42
22 48 44
22 48 43
22 48 44
23 50 45
22 48 43
22 49 45
22 48 43
22 48 44
23 50 46
22 47 43
22 49 44
22 48 43
22 49 45
116 108 99
189 169 153
189 169 153
69 64 62
39 41 44
42 44 46
80 76 70
76 73 67
40 43 46
39 41 44
84 76 71
188 164 146
47 59 54
22 48 44
22 48 44
22 48 43
22 49 44
22 47 43
22 49 44
23 50 45
22 49 44
22 48 44
22 48 44
22 48 44
22 49 44
22 48 43
22 48 44
22 48 43
23 50 45
23 50 45
22 48 43
21 47 43
22 48 44
22 47 43
144 131 119
209 185 167
227 201 182
238 211 191
244 206 184
255 162 121
255 189 139
255 135 84
255 126 74
255 125 73
249 123 77
158 130 114
22 48 43
22 48 43
21 47 42
21 46 42
21 45 41
22 47 42
21 45 40
21 46 41
21 46 42
21 45 40
22 47 42
21 47 43
22 48 44
22 48 43
22 49 44
21 47 43
22 49 44
21 47 43
22 48 43
22 48 44
22 48 43
21 47 43
21 47 43
22 48 43
21 47 43
22 47 43
21 47 43
22 48 44
22 48 43
22 49 44
22 48 43
22 49 44
22 48 43
22 48 44
22 49 44
22 48 44
22 49 45
22 48 44
22 49 45
21 47 42
22 48 44
22 48 43
22 48 44
22 47 43
22 49 44
22 48 43
22 49 44
22 48 44
22 48 43
22 48 44
22 49 44
21 46 42
22 48 43
22 48 44
22 49 45
22 48 44
22 49 44
22 48 44
22 49 45
23 49 45
22 49 44
22 48 44
22 49 44
22 49 45
23 50 45
22 48 43
22 49 45
22 48 44
22 48 43
21 47 43
22 47 43
21 47 43
22 48 43
22 49 45
119 111 102
170 152 137
96 87 80
99 90 83
94 85 79
37 40 43
38 40 43
38 40 43
37 39 42
71 65 62
203 178 158
195 170 151
64 70 63
22 49 44
22 47 43
22 49 44
22 49 44
22 49 45
22 47 43
22 49 44
21 47 43
22 49 44
21 47 42
22 48 43
22 48 44
22 49 44
22 48 44
22 48 44
22 48 43
22 48 44
22 49 45
23 50 45
22 49 44
22 48 44
162 145 131
200 177 160
215 189 171
230 204 184
239 211 190
249 206 182
255 154 109
255 129 78
255 124 72
253 120 70
244 115 67
203 134 108
32 52 47
22 49 44
22 48 43
21 46 42
22 48 43
21 45 41
21 46 42
21 45 41
21 46 41
21 46 41
22 47 43
21 46 42
22 48 44
22 48 43
21 47 43
21 47 43
22 48 44
21 46 42
22 47 43
21 47 43
22 48 43
22 48 43
22 47 43
22 48 44
22 48 44
22 48 44
22 49 44
22 48 44
22 49 44
22 48 44
22 49 44
22 48 44
22 48 43
22 48 44
22 48 43
22 48 44
22 48 43
22 49 44
22 48 43
22 48 43
22 47 43
22 48 43
21 47 43
22 48 44
22 48 43
22 48 43
22 49 44
22 48 44
22 49 44
22 49 45
22 48 43
22 48 44
22 48 44
22 49 44
22 48 43
22 49 45
22 48 43
23 49 45
23 49 45
22 48 44
23 50 45
22 48 43
22 49 45
22 48 43
22 48 44
22 48 44
22 48 44
22 49 44
22 48 44
22 48 43
22 48 43
23 50 45
21 47 42
22 49 44
98 94 86
105 95 87
120 107 97
178 158 142
172 152 136
129 114 103
35 37 39
35 36 39
59 55 53
178 156 139
193 169 149
172 150 133
52 63 56
21 47 42
22 48 43
22 48 43
22 48 43
22 48 43
22 48 43
22 49 44
22 49 44
22 48 44
23 49 44
22 49 44
22 49 44
22 49 44
22 49 44
23 50 45
22 49 44
22 48 44
22 49 44
23 50 45
22 48 44
45 59 53
156 140 127
181 160 144
202 178 160
215 190 171
222 195 175
228 201 180
241 172 145
249 117 68
246 116 67
238 112 65
232 110 64
198 114 85
57 67 60
21 47 42
22 49 44
22 48 44
22 49 44
22 48 44
23 49 45
22 49 44
22 48 43
22 47 42
21 46 42
21 47 42
22 48 44
21 47 43
22 48 44
21 46 42
21 46 42
22 49 44
22 48 43
22 48 44
22 49 44
22 48 43
21 47 42
22 48 44
22 48 44
21 47 43
22 48 44
22 48 43
22 48 43
22 48 44
21 47 43
22 48 43
22 48 43
22 48 43
22 49 45
22 49 44
22 48 44
22 48 44
22 47 43
21 47 43
22 48 43
22 49 45
22 48 43
22 48 44
22 49 45
22 47 43
21 47 43
22 48 43
22 49 44
22 49 44
22 48 43
22 48 44
22 48 44
22 49 45
22 48 44
22 49 44
22 49 44
22 48 43
22 49 44
22 49 44
22 48 44
22 49 44
22 48 43
22 48 43
22 48 43
22 48 43
23 49 45
22 48 43
22 48 43
22 49 44
22 48 43
22 48 43
22 48 43
22 47 43
49 55 51
45 42 40
123 110 98
109 96 86
174 154 137
163 144 129
82 74 69
34 35 37
157 138 122
181 159 140
166 146 129
131 116 102
33 52 47
23 49 44
22 47 43
21 46 42
22 48 43
22 48 43
21 47 42
22 49 44
22 48 43
22 48 43
22 48 43
22 48 43
22 48 43
22 48 43
22 49 44
22 48 43
23 49 44
23 49 45
22 47 43
22 47 42
22 47 43
46 59 54
126 115 104
170 150 134
178 157 140
196 173 155
205 180 161
209 184 164
212 184 164
228 111 68
228 107 62
217 102 59
207 97 56
180 92 60
54 63 57
22 48 43
22 48 44
21 47 42
22 47 43
22 48 43
22 48 43
22 47 42
22 48 43
22 49 44
22 48 44
21 47 43
22 47 43
22 47 43
21 47 43
22 48 43
22 48 43
22 49 44
22 48 43
21 47 43
22 49 44
21 46 42
22 48 44
22 48 44
22 48 44
21 46 42
22 47 43
22 48 44
22 48 44
22 48 44
21 47 43
22 49 44
22 48 44
22 49 44
22 48 43
22 49 44
22 48 43
22 49 45
21 47 42
22 48 43
22 49 44
22 48 44
22 49 45
22 48 44
22 49 44
22 48 43
23 49 45
22 48 44
22 47 43
23 50 45
22 48 44
23 50 45
23 49 45
23 50 45
22 49 44
22 48 44
22 48 43
22 49 44
22 48 43
22 48 44
22 48 43
22 48 44
22 49 44
23 50 46
22 48 43
22 47 43
21 46 42
22 47 43
22 47 43
22 48 43
22 47 43
21 46 42
20 45 40
18 41 37
15 33 31
13 16 17
82 76 68
116 105 93
94 83 74
134 118 104
73 66 60
106 94 83
157 138 120
146 128 112
128 113 98
81 79 70
22 47 42
22 47 42
22 48 43
22 47 42
22 48 44
22 47 42
22 49 44
22 48 43
22 48 43
22 47 43
22 48 44
22 49 44
22 48 43
22 47 43
22 48 44
22 48 44
23 50 45
22 49 44
21 46 42
22 47 43
22 47 43
25 48 44
95 89 80
129 116 103
160 142 127
169 149 132
184 162 145
183 161 142
190 167 148
199 121 92
204 96 55
197 93 53
183 87 50
153 74 44
34 52 48
21 47 42
22 48 43
22 48 43
23 49 44
22 48 43
22 47 43
22 48 44
22 48 43
23 50 45
22 49 44
22 48 44
22 48 44
22 48 44
22 48 43
21 47 42
22 47 43
22 49 44
22 48 44
21 47 43
21 47 43
22 48 43
22 48 43
22 49 44
21 47 43
22 49 44
22 48 43
22 48 44
22 49 44
21 47 43
22 48 44
22 47 43
22 48 43
22 48 44
22 47 43
22 49 45
22 48 43
22 48 43
22 48 43
22 48 44
21 47 43
22 47 43
22 48 44
22 48 43
21 47 43
22 49 44
22 48 44
22 48 43
22 47 43
23 50 45
22 48 44
22 49 44
22 48 43
22 48 44
22 48 43
22 48 44
22 48 44
23 49 45
22 48 44
22 48 43
22 49 44
22 49 44
22 48 43
22 48 44
22 48 43
21 47 43
22 47 42
22 49 44
22 47 43
22 48 44
22 48 43
22 48 43
19 42 38
15 35 33
13 30 28
13 22 22
32 30 28
83 77 68
83 76 66
80 71 61
63 57 49
116 103 88
116 103 89
106 95 82
67 63 53
27 44 40
22 47 42
21 46 41
21 47 42
22 48 43
21 47 42
22 48 43
22 48 44
22 47 43
21 47 42
22 47 43
22 48 43
22 48 44
22 49 44
23 49 45
22 48 44
22 48 44
23 51 46
22 47 43
22 47 43
22 48 43
21 45 41
19 42 38
54 56 50
96 88 79
119 108 96
136 121 107
153 136 120
159 140 124
159 140 123
176 118 94
169 80 45
158 75 43
144 69 40
95 54 37
22 47 43
22 48 44
22 48 44
22 48 43
22 49 44
22 49 44
22 47 43
22 49 44
22 48 44
22 48 44
22 49 44
21 47 43
21 47 43
21 47 43
21 46 42
22 49 45
21 47 43
22 48 43
22 48 43
22 48 44
22 48 43
22 48 43
22 48 44
22 47 43
22 49 45
22 48 44
22 48 44
22 49 44
22 48 43
22 49 44
22 48 44
22 48 43
22 49 45
22 49 44
22 49 44
22 48 44
22 48 43
21 47 42
22 48 44
22 48 44
22 48 44
22 48 44
22 48 44
22 47 43
22 48 44
22 48 43
22 49 44
22 48 43
22 49 44
22 49 44
22 47 43
22 49 44
23 50 45
22 49 44
22 49 44
22 49 44
22 48 43
23 50 45
23 50 45
22 48 43
22 49 44
22 49 44
22 49 44
21 47 42
22 48 44
22 48 44
22 48 43
22 48 43
22 48 43
22 49 44
22 47 43
22 47 42
19 43 39
15 34 32
13 29 28
11 26 24
8 18 18
7 9 8
16 17 15
18 18 14
55 54 42
56 54 41
42 45 34
43 45 35
27 37 34
18 39 35
21 46 41
22 48 43
22 47 42
22 47 42
21 47 42
22 48 43
22 49 44
22 48 43
22 48 43
21 47 42
22 48 43
22 48 44
22 48 43
22 48 43
22 47 43
22 47 42
22 48 43
21 47 42
22 47 42
21 47 42
19 41 38
16 35 32
24 35 33
62 60 51
76 72 61
95 87 76
117 104 91
115 103 88
124 110 95
124 89 71
126 60 34
119 58 32
103 51 30
29 42 37
21 46 42
22 47 42
22 47 42
22 48 43
22 49 44
22 49 44
22 49 44
23 49 45
22 49 44
22 49 44
22 48 43
22 49 44
22 47 43
22 49 44
22 48 43
21 47 43
22 47 43
22 48 44
22 49 44
22 47 43
22 49 44
21 47 43
22 48 44
22 49 45
22 49 44
22 48 44
22 47 43
21 47 42
22 48 44
21 47 43
22 49 44
22 48 43
22 48 43
21 47 43
22 48 44
22 48 44
22 48 43
22 47 43
21 47 43
22 48 43
22 49 44
22 49 44
22 49 45
22 48 43
22 49 45
22 48 44
23 49 45
21 47 42
22 47 43
23 51 46
22 48 43
22 47 43
22 49 44
22 48 44
22 49 44
22 48 43
22 48 44
22 48 44
22 48 44
22 48 43
22 49 44
22 49 44
23 50 45
22 49 44
22 49 44
22 48 44
23 50 45
23 50 45
22 48 43
22 48 43
22 47 43
22 47 42
21 46 41
18 40 36
15 33 31
12 27 26
10 23 22
8 18 17
6 11 10
24 27 20
38 37 27
33 34 25
26 29 23
11 24 22
16 35 32
21 44 39
21 45 40
21 45 40
22 48 43
22 47 42
22 47 42
23 49 44
23 50 45
22 47 42
22 48 43
22 48 44
22 48 44
23 49 44
22 49 44
23 50 45
22 47 43
21 46 41
22 48 43
22 47 42
21 46 42
21 45 40
19 42 38
16 36 33
12 27 26
15 28 25
42 42 33
44 46 34
50 50 39
57 56 45
58 57 46
70 46 32
53 28 14
54 30 17
31 33 28
18 39 35
21 45 40
22 48 43
22 47 43
22 48 43
22 49 44
22 48 44
22 47 42
23 49 45
22 48 43
22 48 43
22 49 44
22 48 43
21 47 43
21 47 43
21 47 42
22 49 44
22 48 44
22 49 44
22 47 43
22 48 44
22 48 44
22 48 44
22 49 44
22 48 43
22 48 43
22 48 43
22 49 45
22 48 44
22 49 44
22 48 43
22 47 43
22 48 44
22 47 43
22 48 44
22 49 44
22 48 43
22 49 45
22 49 44
22 49 44
22 49 44
22 49 45
23 50 46
22 48 43
22 48 43
22 49 44
22 48 44
21 47 43
22 49 44
22 49 44
22 49 44
22 49 44
22 49 44
22 49 45
22 49 45
21 47 43
22 49 44
22 49 44
22 48 43
22 48 43
22 49 44
22 49 44
22 48 43
22 49 44
23 50 45
22 48 43
22 48 43
22 49 44
22 49 44
22 48 44
22 47 42
22 47 42
22 47 42
22 48 43
21 46 41
20 43 39
18 40 36
16 35 32
13 30 27
12 26 24
9 19 17
11 25 22
12 25 23
15 33 29
18 38 34
21 44 39
21 45 40
21 45 40
22 47 42
22 49 44
22 48 43
22 48 44
21 46 41
22 48 43
22 49 44
23 49 44
22 48 43
23 49 45
22 49 44
22 47 43
22 48 43
23 49 44
23 49 44
21 47 42
22 48 43
22 48 43
22 47 43
21 45 40
19 42 37
15 32 29
11 24 23
10 20 18
18 22 17
28 31 23
35 38 27
46 39 27
43 23 11
32 22 15
14 25 23
14 30 28
18 40 35
22 47 42
21 46 41
21 46 41
22 48 43
22 48 43
22 48 43
22 47 43
23 50 45
23 49 44
22 48 44
22 48 44
22 49 45
22 47 43
22 48 44
21 47 42
23 50 45
22 48 44
22 48 44
22 48 44
22 48 44
22 48 44
22 48 43
22 49 44
22 49 45
22 48 44
22 47 43
22 48 43
22 49 44
23 50 45
22 48 44
23 49 45
22 47 43
22 48 43
22 49 44
21 47 43
23 50 45
22 49 44
23 50 45
22 48 44
22 48 44
22 48 44
22 48 44
23 50 45
22 48 43
22 48 44
22 49 44
22 48 44
22 48 44
21 47 43
22 49 44
22 49 44
22 49 44
22 49 44
22 49 44
22 48 44
22 49 45
23 49 45
22 49 44
22 48 43
22 49 44
23 49 45
23 50 45
22 49 44
22 49 44
23 50 45
21 47 42
22 48 43
22 49 44
22 47 43
21 47 42
22 48 43
22 47 42
22 47 43
21 45 40
22 47 42
21 46 41
20 44 39
21 46 41
20 43 38
21 45 40
21 46 41
21 44 39
21 45 40
21 45 40
21 46 41
22 46 41
21 46 41
22 48 43
22 48 43
22 48 43
22 48 43
22 49 44
22 48 43
22 48 43
22 49 44
22 49 44
22 48 44
21 47 42
22 48 44
22 47 43
22 48 43
22 48 43
22 49 44
22 48 43
22 48 43
21 45 41
21 46 41
21 46 41
21 45 40
19 41 36
15 34 30
12 26 24
10 21 19
8 18 17
8 17 15
9 20 18
11 24 23
15 31 28
18 39 35
21 45 40
22 47 41
22 46 41
21 46 41
22 47 42
22 47 42
21 46 41
22 49 44
22 47 43
22 48 44
22 48 43
22 49 44
22 49 44
21 47 43
22 48 43
21 47 43
22 49 44
22 48 44
23 50 45
22 47 43
22 48 43
21 47 43
22 49 44
22 49 44
22 48 43
22 48 44
22 49 44
22 48 44
22 48 44
22 48 44
22 49 44
22 48 44
22 48 44
21 47 43
22 48 44
22 49 44
22 49 44
22 49 44
22 48 44
22 48 44
23 49 44
22 48 44
23 49 45
21 47 43
22 48 44
22 48 44
22 48 44
22 48 43
23 49 45
22 49 44
22 48 44
22 48 44
22 49 44
22 48 44
22 49 44
22 49 44
22 49 44
23 50 45
22 49 45
22 48 43
22 49 44
22 49 44
23 49 44
23 49 45
22 49 44
22 48 43
22 49 44
22 48 44
23 50 45
22 48 43
22 48 43
22 49 44
22 48 44
22 48 44
22 48 43
21 46 42
22 47 42
22 47 42
22 47 42
22 47 42
21 45 41
21 45 40
22 47 42
22 46 41
22 48 43
22 47 42
22 48 43
22 47 42
22 49 44
21 47 42
22 48 43
22 48 43
22 48 43
22 48 43
23 49 44
22 49 44
23 49 45
23 50 45
22 48 44
23 49 44
22 48 44
22 49 44
22 48 44
22 48 43
22 49 44
22 48 43
22 47 42
22 47 42
22 47 42
21 46 41
21 45 40
21 45 40
21 44 39
21 44 39
19 41 36
19 41 36
19 40 35
20 43 38
20 43 38
21 45 40
21 45 39
22 46 41
22 48 43
22 47 42
22 47 42
22 47 43
22 49 44
22 49 44
23 49 44
23 49 44
23 50 45
23 49 44
22 48 44
22 47 43
22 48 43
22 48 43
22 49 44
22 48 44
21 47 43
22 48 44
22 48 44
22 49 45
22 48 44
22 49 44
22 47 43
22 48 43
22 48 43
21 47 43
22 48 43
22 49 45
21 47 43
22 48 43
22 48 43
22 49 44
22 49 44
22 48 43
22 48 44
22 48 44
22 47 43
23 50 45
22 48 44
22 48 44
22 49 44
21 47 42
23 50 45
23 50 45
22 49 44
22 49 44
22 48 44
22 48 44
22 48 43
22 49 44
23 49 45
22 48 44
22 48 43
23 50 45
22 48 44
23 50 45
22 48 44
22 48 43
22 48 44
22 48 43
22 49 44
22 49 44
21 47 43
22 48 44
22 47 43
22 48 44
22 48 43
22 47 42
22 47 43
22 49 44
22 48 44
22 49 44
22 47 43
22 49 44
22 48 44
22 48 43
22 47 43
22 47 43
22 48 43
22 47 42
22 47 43
22 47 42
22 49 44
22 48 43
22 47 42
22 48 43
22 48 43
22 48 43
22 47 43
22 49 44
23 50 45
22 48 43
23 49 44
23 50 45
22 49 44
22 48 44
22 48 44
22 48 44
22 49 44
23 49 44
23 50 45
23 51 46
23 50 45
23 50 45
22 48 44
23 49 44
22 47 42
23 49 44
22 47 42
22 47 42
22 48 43
22 48 42
21 45 40
21 45 40
21 45 40
21 45 40
22 46 41
22 48 43
21 46 42
21 46 41
22 47 42
22 49 44
22 47 43
22 47 42
22 48 43
22 47 42
23 49 45
22 48 43
23 50 45
22 49 44
22 49 44
22 48 43
22 48 44
22 48 44
22 49 44
22 48 44
22 48 44
21 47 43
23 49 45
22 49 45
21 47 42
22 49 45
22 48 44
22 47 43
22 49 44
22 48 44
22 48 44
22 48 44
22 48 44
22 48 44
22 48 44
23 50 45
22 49 44
22 48 44
22 49 44
22 49 44
22 48 44
22 48 44
22 48 44
22 49 44
23 50 45
22 49 44
22 48 44
23 50 45
22 49 45
22 49 44
22 48 43
22 49 44
23 49 45
22 48 44
22 48 44
21 47 42
22 49 44
22 49 44
22 49 44
22 49 44
22 49 44
22 48 43
22 49 45
22 49 44
22 49 44
23 50 45
23 50 45
23 49 45
22 48 43
23 49 45
22 49 44
22 48 43
23 49 45
22 48 43
23 50 45
22 47 43
22 48 43
22 48 43
22 48 43
22 48 44
21 47 42
22 48 43
23 50 45
22 48 44
22 47 42
22 48 43
22 48 43
22 47 43
22 47 43
22 48 43
22 48 43
23 50 45
22 48 43
22 49 44
22 47 43
22 48 43
22 48 44
23 49 45
23 49 44
22 47 43
22 48 43
22 48 43
23 49 44
23 50 45
23 49 44
22 48 43
22 48 43
22 48 43
22 48 43
22 48 43
23 49 44
22 48 43
22 48 43
23 49 44
23 49 44
22 48 43
22 48 43
22 47 42
22 48 43
22 48 43
23 49 44
22 47 42
22 48 43
23 49 44
23 49 44
22 48 43
23 49 44
23 49 45
23 49 44
23 49 44
22 48 43
22 48 44
23 49 45
22 49 44
22 49 44
22 49 45
22 48 43
22 49 44
22 49 44
21 47 43
22 48 44
22 49 44
22 48 44
23 50 45
21 47 43
22 49 44
21 47 42
22 48 43
22 49 44
22 48 44
22 49 44
23 50 45
22 49 45
22 49 44
22 48 44
22 48 44
22 49 45
22 49 44
22 49 44
21 47 42
22 49 44
22 49 45
22 48 44
22 48 44
22 49 44
23 50 45
22 48 43
22 49 44
22 49 44
23 50 45
22 48 43
22 49 44
23 50 45
23 49 45
22 48 44
23 49 45
22 49 44
22 47 43
22 48 44
23 50 45
22 48 43
22 49 45
22 49 44
22 49 44
23 50 45
21 47 42
22 49 44
22 49 44
23 50 45
24 51 47
22 49 45
22 48 44
22 48 43
22 48 44
22 49 44
22 49 44
22 48 43
22 48 43
23 49 44
22 48 44
22 49 44
23 49 44
22 49 44
22 49 44
22 47 42
22 49 44
22 48 43
22 49 44
22 48 44
22 48 43
22 48 44
22 49 44
21 47 42
23 50 45
23 49 44
22 49 44
23 50 45
22 49 44
23 49 44
22 49 44
22 48 44
23 50 45
23 50 45
22 49 44
23 50 45
23 49 45
22 49 44
23 49 44
23 50 45
22 49 44
23 50 45
22 48 43
22 49 44
22 48 43
23 49 44
22 48 43
22 47 43
23 49 44
22 48 43
22 48 43
22 49 44
22 48 43
23 49 44
23 49 44
23 49 44
22 49 44
22 48 43
22 49 44
22 49 44
22 49 44
22 49 44
23 49 45
22 49 44
23 50 45
22 49 45
22 48 43
22 48 44
22 49 44
22 48 43
22 49 44
23 50 45
22 49 44
22 49 44
22 48 44
22 48 43
23 49 45
22 48 44
22 47 43
22 48 43
22 48 43
21 47 43
22 48 44
22 49 45
22 48 43
22 48 44
22 48 44
23 50 45
22 48 43
23 50 45
21 47 43
21 47 43
22 48 43
23 50 45
22 49 44
22 49 44
23 50 45
22 48 43
22 48 44
23 50 45
22 48 44
22 49 44
23 49 45
22 49 44
23 50 45
22 49 44
22 49 44
22 48 43
23 50 45
22 49 44
23 50 45
23 49 45
22 49 44
22 49 44
23 50 45
22 48 43
23 49 45
22 48 43
22 48 43
22 47 43
22 47 43
23 50 45
22 48 43
22 49 44
23 49 44
23 50 45
23 49 45
22 48 43
22 49 44
22 48 44
22 49 44
22 47 43
22 48 44
22 49 44
23 50 45
22 48 44
22 48 44
22 49 44
23 49 45
22 48 43
22 49 44
22 48 44
23 49 45
22 49 44
22 49 44
22 48 44
22 49 44
22 48 43
22 49 44
23 50 45
23 49 44
23 51 46
23 50 45
23 50 45
22 49 44
23 50 45
22 48 43
23 49 44
22 49 44
22 48 43
23 49 44
23 50 45
22 49 44
22 49 44
23 50 45
23 49 44
23 49 44
23 49 44
23 51 45
22 48 43
23 49 44
23 50 45
23 49 44
23 49 44
22 49 44
23 49 44
23 49 44
22 48 43
22 49 44
23 49 44
23 50 45
23 50 45
23 50 45
22 49 44
22 49 44
