P3
120 80
255
17 39 37
17 40 37
17 38 36
17 39 37
17 39 37
17 39 37
17 38 36
17 39 37
17 39 37
17 39 37
17 39 37
17 39 36
17 39 37
17 40 38
17 39 37
17 39 36
17 39 37
17 39 37
17 39 37
17 40 37
17 39 37
17 39 37
17 39 36
17 39 37
16 38 36
17 38 36
17 40 37
17 38 36
17 38 36
17 39 37
17 38 36
17 38 36
17 38 36
16 37 35
17 39 37
17 39 36
17 39 37
17 40 37
17 39 37
17 39 36
17 38 36
17 39 37
17 39 37
17 38 36
17 39 36
17 39 37
17 39 37
17 39 37
17 39 37
17 39 37
17 38 36
17 39 37
16 37 35
17 39 37
17 39 37
17 39 37
17 38 36
17 39 37
17 39 37
17 40 38
17 39 37
17 39 37
17 39 37
17 39 37
16 38 36
17 39 37
17 39 37
17 39 37
17 40 37
17 39 37
17 39 37
16 38 36
17 39 37
17 39 37
17 39 37
17 39 37
17 39 36
17 39 37
17 39 37
17 39 37
17 39 37
17 38 36
17 39 37
17 40 37
17 39 37
17 39 37
17 39 37
16 38 36
17 39 37
16 38 36
18 40 38
17 39 36
17 40 37
17 40 37
17 38 36
17 39 37
17 38 36
17 39 36
17 38 36
17 38 36
17 38 36
17 38 36
17 39 37
17 38 36
17 38 36
17 39 37
17 39 37
17 39 36
17 39 36
17 39 36
17 38 36
17 39 36
17 39 37
17 38 36
17 38 36
17 38 36
17 39 37
17 39 37
16 38 36
17 39 37
17 39 37
17 38 36
17 39 37
17 39 37
17 39 36
17 39 37
17 38 36
17 39 37
17 39 37
17 39 37
17 39 37
17 39 37
17 40 37
17 39 36
17 38 36
17 39 37
17 40 38
17 39 37
17 38 36
17 39 37
17 38 36
17 39 37
17 39 37
17 39 37
17 38 36
17 39 36
17 39 37
17 38 36
17 39 37
17 39 37
17 39 37
17 39 36
18 40 38
17 39 37
17 39 36
17 39 37
17 39 37
18 40 38
17 39 36
17 38 36
17 40 37
17 39 37
17 38 36
17 39 37
17 39 37
17 39 37
17 39 37
17 39 37
17 40 37
17 39 37
17 38 36
18 40 38
17 39 37
17 39 37
17 39 37
18 40 38
18 40 38
17 39 36
17 39 37
17 39 37
17 39 37
17 39 37
17 38 36
17 39 37
17 39 37
17 39 36
17 39 37
17 40 38
17 39 37
17 38 36
17 39 37
17 39 37
17 39 37
17 39 37
17 39 37
17 39 37
17 39 37
17 38 36
17 38 36
17 38 36
17 39 37
17 40 37
17 39 37
17 38 36
17 39 37
17 39 37
17 39 37
17 39 37
17 39 37
17 38 36
17 39 37
18 40 38
17 39 37
17 39 37
17 38 36
17 40 37
17 39 37
17 40 37
17 38 36
17 38 36
17 39 37
17 39 37
17 38 36
17 39 37
17 40 37
17 39 37
17 39 37
17 39 37
17 39 37
17 39 37
17 39 37
17 39 37
17 39 37
17 40 37
17 38 36
17 39 37
17 39 37
17 38 36
17 39 37
17 40 37
17 39 37
18 40 38
17 39 37
17 38 36
17 39 37
17 39 37
17 39 37
17 39 37
17 39 37
17 40 37
17 40 37
17 38 36
17 39 37
17 39 37
17 39 36
17 39 37
17 39 37
17 39 37
17 39 37
17 39 37
17 39 37
17 39 37
17 39 36
17 39 37
17 40 37
17 38 36
17 40 38
17 38 36
17 40 37
17 40 37
17 39 37
17 40 38
17 39 37
17 40 37
17 38 36
17 39 37
17 39 37
17 38 36
17 39 36
18 41 38
17 39 37
17 39 37
17 39 37
17 39 36
17 39 37
18 40 38
17 39 37
17 40 37
17 39 37
17 39 37
17 39 36
17 39 37
17 39 37
18 40 38
17 39 37
17 40 38
17 39 37
17 39 37
17 39 36
17 40 37
17 39 37
17 39 37
17 39 37
17 39 37
17 39 37
17 40 37
17 39 37
17 39 36
17 39 36
17 40 37
17 39 37
17 39 37
17 38 36
17 39 37
17 39 37
17 38 36
17 39 37
18 40 38
17 38 36
17 40 38
17 39 37
17 39 37
17 39 37
17 39 37
17 39 37
17 39 37
18 40 38
17 39 37
17 39 37
17 38 36
17 38 36
17 39 37
17 38 36
17 39 37
17 39 36
17 38 36
17 39 37
17 40 37
17 39 36
17 39 37
17 40 37
18 40 38
17 38 36
17 40 37
17 39 36
17 39 37
17 39 37
17 39 36
17 40 37
17 39 37
17 40 38
17 40 38
17 39 37
17 39 37
17 39 37
17 39 37
17 40 37
17 39 37
17 40 37
17 39 37
17 40 38
17 40 37
17 40 38
17 38 36
17 39 37
17 39 37
17 39 36
17 39 37
17 39 37
17 39 37
17 39 37
17 40 37
17 40 37
17 39 37
17 39 37
17 40 37
18 40 38
17 40 37
17 39 37
17 39 37
17 40 37
17 40 37
17 39 37
17 40 37
17 40 37
17 39 37
17 40 37
17 39 37
17 40 38
18 40 38
17 39 36
17 40 38
17 39 37
17 40 37
17 40 37
17 39 37
18 40 38
17 39 37
17 39 37
17 39 36
17 40 37
17 39 37
17 38 36
17 39 37
17 39 37
17 39 36
17 39 37
17 39 37
17 40 37
17 39 37
17 39 37
17 40 37
17 39 37
17 39 37
17 40 38
17 40 37
17 40 37
17 39 37
17 39 37
17 40 37
17 40 37
17 39 37
17 40 37
17 40 37
17 40 37
17 39 36
17 39 37
17 39 37
18 40 38
17 39 37
17 39 36
17 39 37
17 39 37
17 40 37
17 39 37
17 39 37
17 39 37
17 39 37
17 39 36
17 40 37
17 39 37
17 39 37
17 39 37
17 40 37
18 40 38
17 39 37
17 40 38
17 39 37
17 39 37
17 40 37
17 39 36
17 39 37
17 39 37
17 39 36
17 39 36
17 40 37
17 39 36
17 39 37
17 39 37
17 39 37
18 40 38
17 39 37
17 39 37
18 40 38
17 38 36
17 39 36
17 39 37
17 39 37
17 40 38
17 39 37
17 39 37
17 39 37
17 39 37
17 38 36
17 39 37
17 39 37
17 40 38
17 39 36
17 38 36
17 40 37
17 39 36
17 39 37
17 39 37
17 39 37
17 40 37
17 39 37
17 39 37
17 39 37
18 40 38
17 39 36
18 41 38
17 39 37
18 40 38
17 38 36
17 40 37
18 40 38
17 39 37
17 40 37
17 39 37
17 39 37
17 39 37
17 40 37
18 40 38
17 39 37
17 40 37
18 40 38
17 39 36
17 39 37
17 39 37
18 40 38
17 40 37
18 40 38
17 40 37
18 40 38
17 39 37
17 40 37
17 39 36
17 39 37
17 40 38
17 40 37
18 40 38
18 41 38
17 39 37
18 40 37
17 40 38
17 40 37
17 40 37
17 39 37
18 40 38
17 40 37
17 40 37
17 40 37
17 40 37
17 39 37
18 40 37
18 40 38
18 41 38
17 40 37
17 39 36
17 39 37
18 40 38
18 40 38
17 39 37
17 39 37
18 40 38
17 40 37
18 40 37
17 39 37
17 39 37
17 39 37
17 39 37
17 39 37
18 40 38
17 39 37
17 39 37
17 39 37
18 40 38
17 39 37
18 41 38
18 40 38
17 39 37
17 39 37
17 39 37
17 40 37
17 39 37
17 39 37
18 41 38
17 40 38
17 38 36
17 39 37
17 40 37
17 39 37
17 39 37
17 40 37
18 41 38
17 39 37
17 39 37
17 39 37
17 39 37
17 40 37
17 40 37
17 38 36
17 39 37
17 39 37
17 40 37
17 39 37
17 38 36
17 39 37
18 40 38
17 39 36
18 40 38
18 40 37
17 39 37
17 40 37
17 39 37
17 39 37
18 40 38
17 39 37
17 39 37
18 41 38
17 40 37
17 40 37
17 39 37
18 40 37
17 39 37
17 40 37
18 40 38
17 39 37
18 41 38
18 40 38
18 40 38
18 40 38
18 41 38
18 40 38
17 40 37
18 40 38
18 40 38
17 39 37
17 40 37
18 40 37
18 40 38
17 39 37
18 40 38
17 39 37
18 40 38
18 40 38
17 39 37
18 40 38
17 39 37
17 39 37
17 39 37
17 39 37
17 40 37
17 39 37
18 40 38
18 40 38
18 40 38
17 40 37
17 40 37
17 40 37
17 40 37
17 40 37
17 40 37
18 41 38
17 40 37
18 40 38
18 40 38
17 40 37
18 40 38
18 41 38
17 40 37
18 40 38
17 39 37
17 39 37
17 40 37
17 39 37
17 40 37
18 40 38
17 40 37
17 39 37
17 40 37
18 40 38
17 39 37
18 41 38
17 40 37
17 40 37
18 40 38
17 39 37
17 38 36
17 40 37
17 39 37
17 39 37
18 40 38
17 39 37
17 39 37
18 40 38
18 40 38
17 39 37
18 40 38
17 40 38
18 40 38
18 41 38
17 39 37
18 41 39
18 41 38
17 39 37
17 39 37
18 40 38
18 40 38
18 40 38
18 40 38
18 40 38
17 39 36
17 39 37
17 39 37
17 40 37
18 40 37
17 39 37
17 39 37
17 39 37
17 39 37
17 39 36
17 40 37
17 40 37
17 39 37
17 38 36
17 40 37
18 41 38
17 39 37
18 40 38
18 40 38
17 40 37
17 40 37
17 40 37
17 40 38
18 40 38
17 39 37
17 39 37
17 39 37
17 40 37
18 40 38
17 40 37
18 41 38
18 40 38
17 40 37
18 40 37
18 40 38
18 40 38
18 40 37
18 41 38
18 40 38
17 40 37
18 41 38
18 40 38
17 40 37
17 39 37
17 40 37
18 40 38
17 39 37
18 40 38
18 40 38
18 41 39
18 40 37
17 40 37
17 40 37
18 40 38
17 39 37
18 42 39
18 41 38
18 41 39
17 39 37
18 40 38
17 39 37
18 40 38
17 40 37
17 39 37
18 40 38
17 40 37
18 40 38
18 40 38
18 40 37
18 40 37
17 39 36
17 39 37
17 39 37
17 40 37
17 40 37
18 41 38
18 40 38
18 40 38
17 39 37
18 40 38
17 39 37
18 40 38
17 39 37
18 41 39
18 40 38
17 40 37
17 40 37
17 40 37
17 39 37
17 39 37
18 41 38
18 40 37
17 39 37
18 40 38
17 40 37
18 41 38
17 40 37
18 40 37
17 40 37
18 41 38
18 40 38
18 40 38
17 39 37
18 40 38
18 40 38
17 40 37
17 39 37
18 40 37
17 39 37
17 40 37
17 39 37
17 40 37
17 39 37
17 39 37
17 40 37
17 40 37
18 42 39
17 40 37
18 41 38
17 39 37
18 40 38
17 39 37
17 39 37
18 40 38
17 39 37
18 40 38
17 39 37
18 40 38
18 41 39
17 40 38
17 40 37
17 39 37
18 40 38
17 40 37
18 40 38
18 40 38
17 40 37
18 40 38
18 40 37
18 41 38
17 40 37
17 40 37
17 40 37
18 40 38
17 39 37
18 40 37
18 41 38
17 39 37
17 40 37
18 41 38
17 39 37
18 40 38
18 40 37
17 40 37
18 40 38
17 40 37
18 41 38
18 40 37
18 40 37
17 40 37
18 41 38
18 40 37
18 41 39
17 40 37
17 39 36
18 41 38
18 40 38
18 40 38
18 41 38
18 40 38
17 39 37
17 40 37
17 40 37
18 40 38
18 40 37
18 40 38
17 39 37
18 40 37
17 39 37
18 40 38
17 39 37
17 40 37
18 41 38
18 40 38
18 40 38
18 40 38
17 40 37
17 39 37
17 40 37
17 39 37
17 40 37
18 40 38
17 39 37
18 40 38
17 39 37
18 40 37
18 41 38
17 39 37
18 41 39
18 40 37
18 40 38
18 41 38
17 40 37
18 41 38
18 40 38
18 41 38
18 40 38
18 41 38
18 41 38
17 39 37
17 39 37
17 39 37
17 39 37
18 41 39
17 40 37
18 40 38
18 40 38
18 41 38
18 41 38
17 39 37
18 40 38
17 39 37
18 40 38
17 39 37
17 39 37
17 40 37
17 40 37
18 40 38
18 41 38
18 40 38
18 40 37
17 40 37
17 39 37
17 40 37
18 40 38
17 39 37
18 41 38
18 41 38
18 40 38
17 40 37
18 40 37
17 40 37
17 39 37
18 40 38
17 39 37
17 39 37
17 40 37
18 40 38
18 41 38
18 40 37
17 40 37
18 41 38
18 40 38
17 40 37
17 40 37
18 40 37
17 39 37
17 39 37
17 40 37
17 39 37
18 40 37
17 40 37
17 40 37
17 39 37
18 40 38
17 40 37
17 40 37
18 40 38
18 40 38
18 41 38
18 40 37
18 40 37
17 39 37
18 40 37
17 40 37
18 40 37
18 40 37
18 40 38
18 40 38
17 39 37
18 40 38
18 41 38
18 41 38
18 40 37
18 40 38
18 41 38
17 39 36
18 40 37
18 41 38
18 40 38
18 40 37
18 41 38
18 41 38
18 40 37
18 41 38
17 40 37
17 40 37
18 41 38
18 40 38
17 39 37
18 40 37
18 40 38
18 40 37
18 41 38
18 40 38
18 41 38
18 40 38
18 40 38
18 40 38
17 39 37
18 41 38
18 41 38
17 39 37
18 41 38
18 42 39
18 40 38
18 40 37
18 40 38
18 40 38
17 40 37
18 40 38
18 40 38
17 39 37
17 40 37
18 40 37
18 40 37
18 40 38
18 40 38
18 41 38
18 41 38
18 41 38
18 40 38
18 40 38
18 40 38
18 41 38
18 40 38
17 39 37
17 39 37
18 41 39
17 39 37
18 40 37
17 40 37
18 40 38
18 40 37
18 40 38
18 41 38
18 40 38
17 39 37
18 41 38
18 40 38
18 40 38
18 40 38
18 41 39
18 40 38
18 40 37
18 41 38
18 40 37
18 40 37
17 40 37
18 40 37
18 41 38
17 39 37
17 40 37
18 41 38
18 41 38
18 40 38
18 40 37
18 40 38
17 39 37
18 40 37
18 40 37
17 40 37
18 40 38
18 40 38
18 40 37
18 40 38
18 40 38
18 40 37
18 40 37
18 40 37
17 40 37
17 40 37
17 40 37
17 39 37
18 40 38
17 40 37
18 40 38
17 39 37
18 41 38
18 40 37
18 41 38
18 41 39
18 40 37
18 41 38
18 41 39
18 40 37
17 40 37
18 41 38
18 40 37
17 40 37
17 40 37
18 40 37
18 41 38
18 40 38
18 40 37
18 41 38
18 41 39
18 40 38
18 40 38
18 41 38
18 40 38
18 40 38
18 40 38
18 40 37
18 40 38
18 40 38
18 40 37
17 39 37
18 41 39
18 40 38
18 41 38
17 40 37
18 41 38
18 40 38
18 40 37
17 40 37
18 41 38
18 40 38
17 39 37
18 41 38
18 41 38
18 41 38
18 40 38
18 42 39
18 41 38
18 40 38
18 40 38
18 41 38
18 40 38
18 41 39
18 41 38
18 40 38
18 41 38
18 41 38
17 40 37
18 40 37
18 41 38
18 41 38
18 40 37
17 39 37
17 40 37
17 40 37
18 40 37
18 40 38
18 40 38
18 40 37
18 40 37
18 40 38
18 41 39
18 40 37
18 40 38
18 41 38
18 40 38
18 40 38
18 40 38
18 40 38
18 41 38
18 40 38
18 40 38
18 40 38
18 40 37
18 40 38
18 41 38
17 39 37
18 40 38
18 40 37
18 40 38
18 40 38
18 40 37
18 41 38
18 41 38
18 40 38
18 41 38
18 40 37
18 41 38
18 40 37
18 40 38
18 40 37
18 41 38
18 41 38
18 40 38
17 40 37
18 40 38
18 41 38
17 40 37
18 40 38
17 40 37
18 40 37
17 40 37
18 40 38
18 40 37
18 40 38
17 40 37
18 41 38
18 40 38
18 41 38
17 39 36
18 40 38
18 40 38
18 40 37
18 41 38
18 40 37
18 41 38
18 41 38
18 40 38
18 41 38
18 40 38
18 41 38
18 40 37
17 39 37
18 40 38
18 40 37
18 41 38
18 40 38
17 40 37
18 40 38
18 40 38
18 42 39
18 40 37
17 39 37
18 41 38
17 39 37
18 40 38
18 41 38
18 41 38
18 40 38
18 41 38
18 41 38
18 40 38
17 39 37
18 41 38
18 40 38
18 41 39
18 41 38
18 40 38
17 39 37
18 41 38
18 40 38
18 41 38
18 41 38
18 41 39
18 41 38
18 41 38
18 40 37
18 41 38
18 40 37
18 40 37
18 40 38
18 41 38
18 40 38
18 41 38
18 41 38
18 42 39
18 41 38
18 42 39
18 40 38
18 41 38
18 41 38
18 41 38
18 41 38
18 40 37
18 41 39
18 41 38
18 41 38
18 40 37
18 41 39
18 40 38
18 40 38
18 42 39
18 41 38
18 41 39
18 41 39
18 41 38
18 41 38
18 41 38
18 41 38
18 40 37
18 40 38
18 41 39
18 41 38
18 40 37
18 40 37
18 41 38
18 41 38
18 40 38
18 41 38
17 39 37
18 40 38
18 41 38
18 40 37
18 41 39
18 40 38
18 40 37
18 40 38
18 41 38
18 40 38
18 41 38
18 40 38
18 40 38
18 40 38
18 41 38
18 40 38
18 40 38
18 40 38
18 40 38
18 40 38
18 41 38
18 40 38
17 39 37
18 40 38
18 41 38
18 40 37
18 40 38
18 41 38
18 40 37
18 40 37
18 40 38
17 39 37
18 41 38
18 40 38
18 40 38
18 41 38
18 40 37
18 40 37
18 42 39
18 42 39
18 40 38
18 41 38
18 40 37
18 40 37
18 41 38
18 41 38
18 40 38
18 41 38
18 41 38
18 41 38
18 41 38
18 41 38
18 40 38
18 40 38
18 40 38
17 40 37
18 40 38
18 41 38
18 42 39
18 41 38
18 41 38
18 41 38
18 40 37
18 41 38
18 41 38
19 42 39
18 41 38
18 42 39
18 40 38
18 41 38
18 41 38
18 40 37
18 41 39
18 41 38
18 40 38
19 42 39
18 41 39
18 41 39
18 41 38
18 41 38
18 40 38
18 41 39
18 40 37
18 40 38
18 41 38
18 41 39
18 41 39
18 41 38
18 41 38
18 41 38
18 40 37
18 40 38
18 40 37
18 41 38
18 40 38
18 40 37
18 41 38
18 40 38
18 41 38
19 42 40
18 41 38
18 42 39
18 40 38
18 41 38
18 41 38
18 41 39
18 41 38
18 40 38
18 41 38
18 41 38
18 40 38
18 41 38
18 41 39
18 41 38
18 42 39
18 41 39
18 41 38
18 41 38
18 41 38
18 41 38
18 41 39
18 41 38
18 41 38
18 40 37
18 41 38
18 40 38
17 40 37
18 41 38
18 41 38
18 41 39
18 41 39
18 41 38
18 40 37
18 41 39
18 41 38
18 41 38
17 40 37
18 41 38
18 41 39
18 41 38
18 40 38
18 41 39
18 40 37
18 40 38
18 41 38
18 41 38
18 41 38
18 41 38
18 41 38
17 40 37
18 40 38
18 40 38
18 41 38
18 40 37
18 40 38
18 40 37
18 41 39
18 40 38
18 40 38
18 41 38
18 41 39
19 42 39
18 41 38
18 41 38
18 40 37
18 41 38
18 41 38
18 41 38
18 42 39
18 40 38
18 40 37
18 40 38
18 41 38
18 40 38
18 40 38
18 40 38
18 41 38
18 42 39
18 42 39
18 41 38
18 41 38
18 41 38
18 41 39
18 41 38
18 41 39
18 40 37
18 41 39
18 42 39
18 41 38
18 41 38
18 40 37
18 41 38
18 41 38
18 41 39
18 42 39
18 41 38
18 41 38
18 40 38
18 40 38
18 41 38
18 41 39
18 41 38
18 41 38
18 41 38
18 41 38
18 41 38
18 41 39
18 40 38
18 41 38
18 40 37
18 42 39
18 41 38
18 41 38
18 40 37
18 42 39
19 42 39
18 41 38
19 42 39
18 42 39
19 42 39
18 40 37
18 40 37
18 41 38
18 41 38
18 41 38
18 40 37
18 41 39
18 41 38
18 41 38
18 42 39
18 41 38
18 41 38
18 42 39
18 41 38
18 40 38
19 43 40
18 41 38
18 41 38
18 40 38
18 41 38
18 41 38
18 40 37
18 41 38
18 40 37
18 42 39
18 41 38
17 40 37
18 41 38
18 41 38
18 42 39
17 40 37
17 39 37
18 41 38
18 41 38
17 40 37
18 41 38
18 41 38
18 42 39
18 41 38
18 41 39
18 40 38
18 41 38
18 40 37
18 41 38
18 41 38
18 41 39
17 39 36
18 40 38
18 41 38
18 41 38
19 42 39
18 40 38
18 41 38
18 41 38
18 41 39
18 41 38
18 42 39
18 41 39
19 42 39
18 40 38
18 42 39
18 41 38
19 42 39
19 42 39
18 40 38
18 41 38
18 41 38
18 41 38
18 40 37
18 41 38
18 41 38
18 40 38
18 40 38
19 42 39
19 42 39
19 42 39
18 41 39
18 41 38
18 42 39
18 41 38
18 41 39
18 41 38
18 41 39
19 42 39
18 41 38
18 41 38
18 40 38
18 42 39
18 41 38
18 41 38
18 42 39
18 41 38
19 42 39
18 41 38
19 44 41
18 42 39
18 41 38
18 42 39
18 41 38
18 41 38
18 41 38
18 41 38
18 41 38
18 41 38
18 41 39
18 41 38
18 41 38
18 42 39
18 41 38
18 42 39
18 40 38
18 40 38
18 41 39
18 41 38
18 41 38
18 41 38
18 41 38
19 42 39
18 41 38
18 41 38
18 42 39
18 40 37
18 41 38
18 41 39
18 41 38
18 42 39
18 41 38
18 41 38
18 40 38
18 41 39
18 41 38
19 42 39
19 42 39
18 41 38
18 40 38
19 42 39
18 40 38
18 41 38
18 41 39
18 40 37
18 41 39
18 41 38
19 43 40
18 41 38
18 41 38
18 41 38
18 41 38
18 41 38
18 41 38
18 40 38
18 41 38
18 41 38
19 42 39
18 41 38
19 42 39
18 42 39
18 40 37
19 42 39
18 41 38
18 41 38
18 41 38
18 40 38
17 39 37
17 39 37
18 41 38
18 41 39
18 40 38
18 40 37
18 41 38
18 41 38
18 41 38
18 41 38
18 41 38
19 42 39
18 41 38
18 41 38
18 41 38
18 41 38
18 40 38
18 41 38
18 41 38
18 41 38
18 41 39
18 42 39
18 40 38
19 42 39
18 41 38
18 41 39
18 41 38
18 42 39
18 41 38
18 41 38
18 41 38
18 40 37
18 41 38
18 41 39
18 42 39
18 41 38
18 41 38
19 42 39
18 41 38
18 42 39
19 42 39
17 40 37
18 42 39
18 41 39
19 42 39
18 41 38
18 42 39
19 42 39
18 41 38
18 41 38
18 41 39
19 42 39
19 42 39
18 40 37
19 42 39
19 42 39
18 41 38
18 41 38
18 42 39
18 41 38
18 41 38
18 41 38
18 41 38
18 41 38
18 40 37
18 41 38
18 42 39
19 42 39
18 41 39
19 42 39
18 41 38
18 42 39
18 41 38
18 41 39
18 40 38
19 42 39
19 42 40
18 42 39
19 42 39
18 41 39
18 41 38
18 41 38
18 41 38
18 41 38
18 40 38
18 41 39
18 41 38
18 42 39
18 40 38
18 41 38
18 40 38
18 41 39
18 41 38
18 42 39
18 41 39
18 41 38
18 42 39
18 42 39
18 42 39
18 41 38
18 41 38
18 42 39
18 41 39
18 42 39
19 42 39
18 41 39
18 42 39
19 42 39
18 42 39
18 41 39
18 41 38
18 41 39
18 41 38
18 41 38
18 41 38
18 41 38
18 41 38
18 41 38
18 41 38
18 41 38
18 41 38
18 41 39
18 42 39
18 41 38
18 42 39
18 41 38
18 41 39
18 41 38
18 41 38
18 41 38
18 41 38
18 41 38
18 41 38
18 42 39
18 42 39
18 41 38
19 42 39
19 42 39
18 42 39
18 41 38
19 42 39
18 41 39
18 41 38
18 41 38
19 42 39
19 42 40
18 41 38
18 42 39
18 41 38
18 41 38
18 40 38
18 41 38
18 41 38
19 43 40
18 42 39
18 40 38
19 42 39
18 41 38
18 42 39
18 41 38
18 41 38
19 43 40
19 42 39
19 42 39
18 42 39
19 42 39
19 42 39
18 41 38
18 41 38
19 42 39
19 42 39
18 41 38
19 43 40
19 42 39
18 41 39
19 43 40
19 42 39
18 40 38
18 41 39
19 42 39
18 41 38
18 42 39
18 41 38
18 40 38
18 41 38
19 42 39
19 43 40
18 41 38
18 41 39
18 41 38
19 42 39
18 41 38
19 43 40
19 42 39
18 41 39
18 41 38
19 42 39
18 41 38
18 41 38
18 41 39
19 42 39
18 42 39
18 42 39
18 41 38
18 41 38
19 42 39
18 41 39
19 42 39
18 41 38
19 42 39
18 41 38
18 40 38
19 42 39
18 41 39
18 42 39
18 42 39
18 41 38
18 40 38
19 42 39
19 42 39
18 41 38
18 41 39
19 42 39
18 41 38
18 40 38
18 41 39
18 41 39
18 41 38
18 41 38
19 42 39
18 41 38
18 40 38
18 41 38
18 41 38
18 41 38
18 41 38
18 41 38
18 42 39
18 41 38
19 42 39
19 42 39
18 41 38
18 41 38
18 40 38
18 41 38
18 41 38
18 41 38
18 42 39
18 42 39
18 40 37
18 41 38
19 42 39
18 42 39
18 42 39
18 42 39
18 41 38
18 41 38
18 42 39
19 43 40
18 41 39
19 42 39
18 41 39
18 41 38
18 41 39
18 41 38
18 41 38
19 42 39
18 41 38
18 42 39
18 42 39
19 42 39
18 41 39
18 41 38
18 42 39
18 41 38
19 42 39
18 42 39
19 42 39
18 42 39
18 41 38
18 41 38
19 42 39
19 42 39
18 41 38
18 41 38
19 42 39
19 42 39
19 42 39
19 43 40
19 42 39
18 41 38
18 41 39
18 42 39
19 42 39
18 41 38
18 41 38
19 42 39
19 42 39
18 42 39
19 42 39
18 41 38
18 41 38
19 42 39
19 42 39
18 42 39
18 41 38
18 41 38
19 42 39
18 41 38
19 42 39
19 42 39
18 41 38
19 42 39
19 42 39
19 42 39
18 42 39
18 41 38
18 42 39
19 43 40
19 43 40
18 41 38
18 41 38
19 42 39
18 41 38
18 41 38
18 41 38
18 42 39
18 40 38
19 42 39
19 42 39
18 41 38
18 41 38
19 42 39
19 42 39
18 41 38
18 41 38
18 41 38
18 41 38
18 41 38
18 41 38
19 42 39
18 42 39
18 41 38
18 41 38
19 42 39
18 41 38
19 42 39
18 42 39
19 42 39
18 41 38
19 42 39
19 42 39
19 42 39
18 41 38
18 41 38
18 41 39
18 40 38
18 41 38
19 43 40
18 42 39
19 42 39
19 42 39
19 42 39
18 41 38
19 42 39
18 41 38
18 42 39
19 42 39
18 41 38
18 42 39
18 41 38
19 43 40
18 41 39
19 42 39
19 42 40
19 42 39
19 42 39
19 43 40
19 43 40
19 42 39
18 42 39
19 42 39
18 41 38
18 41 38
19 42 39
18 41 39
18 41 39
18 42 39
18 41 38
19 42 39
19 42 39
19 43 40
18 41 38
18 41 38
19 43 40
18 42 39
18 41 39
19 42 39
19 42 39
18 41 38
18 41 38
19 42 39
19 42 39
18 42 39
19 43 40
19 42 39
18 42 39
19 42 39
19 42 39
18 42 39
19 43 40
19 42 39
19 42 39
18 42 39
18 41 38
18 41 38
18 41 39
19 42 39
18 41 38
19 43 40
19 42 39
19 42 39
18 41 38
19 42 39
19 43 40
18 41 38
18 41 38
19 43 40
19 42 39
18 42 39
18 41 38
19 42 39
19 42 39
19 42 39
18 41 39
18 41 38
19 42 39
19 43 40
18 41 39
18 41 38
19 42 39
19 42 39
19 43 40
18 41 38
19 42 39
18 42 39
19 43 40
19 42 39
19 42 39
19 42 39
19 42 39
18 41 39
19 42 39
19 42 39
19 42 39
18 41 38
19 42 39
19 42 39
19 42 39
19 42 39
18 41 38
19 42 39
19 42 39
19 42 39
19 42 39
19 42 39
18 41 38
18 41 39
18 42 39
18 41 38
18 42 39
19 43 40
19 42 39
18 41 38
19 42 39
18 41 38
19 42 39
18 42 39
19 42 39
19 42 39
19 42 39
18 42 39
18 42 39
18 41 38
18 41 38
19 42 39
19 42 39
18 41 38
18 41 38
19 42 39
19 42 39
18 41 38
18 41 38
19 42 39
19 42 39
19 42 39
18 41 38
19 43 40
19 42 39
19 43 39
18 41 38
19 42 39
18 41 38
19 42 39
19 42 39
18 42 39
19 42 39
19 42 39
19 42 39
18 42 39
19 42 39
19 43 40
19 42 39
19 43 40
18 41 38
18 41 38
19 43 40
19 42 39
19 42 39
19 42 39
19 42 39
19 42 39
19 42 39
19 42 40
19 43 40
18 41 38
18 40 37
19 42 39
19 43 40
19 42 39
19 42 39
19 42 39
18 41 38
19 42 39
19 42 39
19 44 40
18 42 39
19 42 39
18 41 38
19 42 39
19 42 39
18 41 38
19 42 39
19 43 40
18 41 38
19 43 40
19 42 39
19 43 40
19 44 41
18 41 38
19 42 39
19 42 39
19 42 39
19 42 39
19 42 39
19 42 39
19 42 39
18 41 38
19 42 39
19 42 39
19 42 39
19 43 40
19 42 39
19 42 39
18 41 38
19 42 39
19 42 39
19 42 39
19 42 39
19 42 39
19 42 39
18 42 39
19 42 40
18 40 37
19 43 40
18 41 38
19 43 40
18 42 39
19 42 39
19 42 39
19 42 39
19 42 39
19 43 40
19 42 39
19 42 39
19 42 39
19 42 39
19 43 40
19 42 39
19 42 39
18 41 39
19 43 40
19 42 39
19 42 39
19 43 39
18 41 38
19 42 39
19 42 39
19 42 39
18 41 38
18 42 39
18 41 38
19 42 39
19 43 40
19 42 39
18 42 39
18 42 39
19 42 39
18 41 39
18 41 39
19 42 39
19 43 40
19 43 40
19 42 39
19 42 39
19 42 39
19 42 39
19 42 39
19 42 39
18 41 39
19 42 39
19 43 40
18 42 39
18 41 38
19 43 40
19 42 39
19 43 40
19 44 41
19 42 39
19 42 39
19 42 39
19 42 38
19 42 39
19 43 40
18 41 38
18 41 38
19 43 40
19 43 40
19 42 39
19 43 40
19 42 39
19 42 39
18 41 38
19 43 40
19 42 39
19 42 39
19 43 40
19 42 39
19 43 40
18 42 39
19 43 40
19 43 40
19 43 40
19 43 40
19 42 39
19 42 39
19 42 39
19 43 40
19 43 40
19 42 39
19 42 39
19 42 39
19 42 39
19 42 39
19 42 39
19 42 39
19 42 39
19 43 40
19 42 39
19 42 39
19 42 39
19 42 39
19 43 40
19 42 39
19 42 39
18 41 38
18 42 39
19 43 40
19 42 39
19 43 40
19 42 39
19 42 39
19 42 39
19 43 40
19 42 39
19 42 39
19 42 39
19 42 39
18 41 38
19 43 40
19 43 40
18 41 38
19 42 39
19 42 39
19 42 39
19 43 40
19 42 39
19 42 39
19 42 39
18 42 39
19 42 39
19 42 39
18 41 38
18 41 38
19 42 39
19 43 40
19 42 39
18 41 38
18 41 38
18 41 38
18 41 38
18 41 39
19 42 39
19 42 39
19 43 40
18 41 38
19 42 39
19 42 39
18 41 38
19 42 39
19 42 39
18 41 39
19 43 40
19 43 40
19 44 41
18 41 38
18 41 38
19 42 39
19 43 40
19 42 39
19 42 39
19 43 40
19 42 39
18 41 38
19 43 40
19 42 39
19 42 39
18 41 38
19 43 39
19 43 39
18 41 38
19 42 39
19 43 40
19 43 40
18 41 38
19 43 40
19 43 40
19 42 39
19 42 39
19 43 40
19 43 40
19 42 39
19 42 39
19 42 39
19 42 39
19 43 40
19 43 40
19 42 39
19 42 39
19 42 39
19 42 39
19 42 39
19 43 40
19 43 40
19 43 40
19 43 40
19 43 40
19 42 39
19 42 39
19 43 40
19 42 39
19 42 39
19 42 39
19 42 39
19 42 39
20 44 40
19 43 40
20 44 40
18 42 39
19 43 40
19 43 40
19 42 39
19 44 40
19 42 39
19 43 40
19 42 39
19 42 39
19 42 39
19 42 39
19 43 40
19 42 39
19 42 39
19 42 39
19 43 40
19 43 40
18 41 38
19 42 39
19 43 40
19 42 39
19 42 39
19 43 40
19 42 39
19 42 39
19 42 39
18 41 38
19 43 40
19 43 40
19 42 39
19 42 39
19 42 39
19 43 40
19 42 39
19 42 39
19 43 40
19 42 39
19 42 39
19 42 39
19 42 39
19 43 39
19 43 40
19 42 39
18 41 38
19 42 39
19 43 40
19 42 39
19 43 40
19 43 40
19 43 40
19 43 40
19 42 39
19 42 39
18 41 38
19 42 39
19 43 40
19 42 39
18 41 38
18 41 38
19 42 39
19 42 39
19 42 39
19 42 39
19 42 39
19 42 39
19 42 39
19 42 39
19 42 39
19 42 39
18 41 39
19 43 40
19 42 39
19 43 40
19 43 39
19 42 39
19 43 40
20 44 41
19 42 39
19 43 40
19 42 39
19 42 39
19 42 39
18 41 38
19 42 39
19 43 39
19 43 40
19 42 39
20 44 41
19 43 40
19 42 39
19 42 39
19 43 39
19 42 39
19 42 39
19 43 40
19 42 39
19 43 40
19 43 39
19 43 40
19 42 39
19 43 40
19 43 40
19 43 40
19 43 39
18 41 38
19 43 40
19 43 39
19 42 39
19 42 39
19 42 39
19 43 40
19 42 39
19 43 40
19 44 40
19 43 40
19 43 40
19 42 39
19 42 39
19 43 40
19 42 39
19 43 40
19 43 39
19 42 39
19 42 39
19 43 40
19 42 39
19 43 40
19 43 40
19 42 39
19 43 40
18 41 38
19 43 39
19 43 40
19 43 40
19 42 39
19 43 40
19 42 39
19 42 39
19 42 39
18 42 39
19 42 39
19 43 40
19 43 39
19 42 39
19 42 39
19 43 40
19 43 40
19 43 40
19 42 39
19 42 39
19 43 40
19 43 40
19 43 40
19 43 40
19 42 39
19 42 39
19 43 40
19 43 40
19 42 39
19 42 39
19 43 40
19 43 40
19 42 39
19 43 40
19 42 39
19 44 41
19 42 39
19 42 39
19 42 39
19 42 39
19 43 40
19 42 39
19 43 40
18 41 38
19 42 39
19 42 39
19 42 39
19 43 40
19 42 39
19 43 40
19 42 39
18 41 38
19 42 39
18 41 38
19 43 40
19 42 39
19 42 39
19 42 39
19 44 40
19 43 40
19 42 39
18 41 38
19 42 39
19 42 39
19 42 39
18 41 38
19 42 39
19 42 39
19 43 40
19 43 39
19 43 40
19 44 40
19 43 40
19 43 39
19 43 40
19 43 39
19 43 40
19 43 40
19 42 39
19 43 40
19 43 40
19 42 39
19 43 40
19 42 39
19 42 39
19 43 40
19 43 39
19 42 39
20 44 41
19 42 39
19 43 39
19 42 39
19 43 40
20 44 41
19 43 40
19 43 39
19 43 40
19 43 40
19 42 39
19 42 39
19 44 40
19 42 39
19 42 39
20 44 41
19 43 40
19 42 39
19 43 40
19 43 40
19 42 39
19 42 39
19 43 40
19 42 39
19 43 40
19 42 39
19 42 39
19 42 39
19 42 39
19 44 40
20 44 41
19 43 40
19 43 40
19 43 40
20 44 40
19 42 39
19 42 39
19 42 39
19 44 40
20 44 41
19 42 39
19 42 39
19 42 39
19 44 40
19 43 39
19 44 40
19 43 40
19 42 39
19 43 40
19 43 40
19 42 39
18 41 38
19 42 39
19 42 39
19 43 40
19 43 40
19 43 40
19 42 39
19 43 40
18 41 38
19 43 40
19 43 40
19 43 40
19 42 39
19 43 39
19 43 40
19 43 40
19 43 40
19 43 40
19 43 40
19 42 39
19 42 39
19 43 40
19 42 39
19 42 39
18 41 38
19 43 39
19 42 39
19 43 40
19 42 39
19 43 40
19 42 39
19 42 39
19 43 40
19 42 39
19 42 39
19 42 39
18 41 38
19 43 39
20 44 41
19 43 40
19 43 40
19 42 39
19 42 39
19 43 40
19 42 39
19 43 40
19 43 40
19 42 39
19 43 40
19 43 39
19 43 40
19 43 39
19 42 39
19 42 39
19 43 39
19 44 40
19 43 40
19 43 40
19 42 39
20 44 41
19 43 40
19 43 39
19 43 40
19 42 39
20 44 41
19 44 40
19 43 40
19 43 40
19 42 39
19 43 40
19 43 40
19 43 40
19 42 39
19 43 40
19 42 39
19 43 40
20 44 41
19 43 40
20 44 41
19 43 39
19 43 40
19 43 39
19 43 40
19 43 40
19 43 40
19 43 40
19 42 39
19 43 40
19 43 40
20 44 40
20 44 41
19 42 39
19 43 40
19 43 39
19 43 40
20 44 41
19 43 40
19 43 40
19 43 40
19 43 40
19 42 39
19 43 39
19 42 39
19 43 40
20 44 41
19 43 40
19 44 40
19 42 39
19 43 39
20 44 41
19 43 40
19 43 40
20 44 41
19 43 39
19 42 39
19 43 40
19 43 40
19 43 40
19 43 40
19 44 40
19 42 39
19 43 40
19 42 39
19 43 39
19 42 39
19 43 40
19 42 39
19 43 39
19 43 40
19 42 39
19 42 39
19 43 40
19 42 39
19 43 40
19 43 40
19 43 40
19 43 40
19 43 39
19 42 39
19 43 40
19 43 40
19 43 40
19 42 39
19 43 40
19 42 39
19 42 39
19 43 39
19 42 39
19 42 39
19 43 40
19 43 40
19 43 40
19 42 39
19 42 39
19 42 39
19 43 40
19 42 39
19 42 39
19 43 40
19 42 39
19 42 39
19 43 40
19 43 40
19 43 40
19 42 39
19 43 40
19 42 39
19 44 40
19 42 39
19 43 40
19 43 40
19 43 40
19 43 40
19 44 40
19 43 40
19 43 40
19 42 39
19 44 40
20 44 41
19 43 40
19 42 39
19 43 40
19 42 39
19 43 40
19 42 39
19 43 39
19 43 39
19 42 38
19 43 40
19 42 39
19 43 40
18 42 38
19 44 40
20 44 41
20 44 40
20 44 40
19 43 39
20 44 40
20 44 41
19 43 40
19 43 40
19 43 39
19 43 40
19 43 39
19 43 40
19 43 40
19 43 39
20 44 41
19 43 39
19 44 40
20 45 41
19 43 39
19 43 40
19 43 39
19 43 40
19 43 40
19 43 40
19 43 40
19 43 39
19 43 40
19 43 40
19 43 39
19 43 40
19 43 39
19 43 40
19 42 39
19 43 40
19 43 39
20 44 40
20 44 41
19 43 40
19 43 40
19 43 39
19 43 40
19 44 40
20 44 41
19 43 40
19 43 39
19 43 39
19 43 40
20 44 41
19 42 39
19 42 39
20 44 41
19 43 40
19 42 39
19 43 40
19 43 40
19 42 39
19 42 39
19 43 40
19 43 39
19 42 39
19 43 40
19 43 40
19 43 40
19 43 40
19 42 39
20 44 40
19 43 39
19 43 40
19 43 39
20 44 41
19 43 40
19 43 40
19 43 40
19 43 40
19 43 40
19 43 40
20 45 41
20 44 41
19 42 39
19 42 39
20 44 41
19 42 39
18 42 38
19 43 39
19 42 39
19 42 39
19 43 40
19 43 40
19 43 39
19 42 39
19 42 39
19 44 40
19 43 40
20 44 41
19 43 40
19 43 40
19 43 40
19 43 40
20 44 41
19 43 40
19 43 40
19 43 40
19 43 40
19 44 40
19 43 40
19 43 40
19 43 40
20 44 40
20 44 41
19 42 39
19 43 40
19 43 40
19 43 40
19 43 39
20 44 41
20 44 40
19 43 39
19 43 40
19 42 39
19 43 40
19 43 40
19 43 40
19 43 40
19 42 39
20 44 41
20 44 41
19 44 40
19 43 40
19 43 40
19 43 40
19 43 40
19 43 40
20 44 40
19 44 40
19 43 40
19 43 40
19 43 40
19 43 39
19 43 40
20 44 41
20 44 41
19 43 40
20 44 41
19 43 40
19 43 40
19 42 39
20 44 41
19 43 39
19 43 40
20 44 40
19 44 40
20 44 40
20 44 41
19 44 40
19 43 40
19 44 40
19 43 40
20 44 41
20 44 40
19 43 40
19 43 40
19 43 40
20 44 41
19 43 40
20 44 41
19 43 40
19 42 39
19 42 39
20 44 40
20 44 40
19 43 40
19 44 40
20 44 40
20 44 41
20 44 40
19 43 39
19 44 40
19 43 40
19 43 39
20 44 40
20 44 41
19 43 40
20 44 41
19 42 39
20 44 41
19 43 40
20 44 41
19 43 40
19 43 40
20 44 41
19 42 39
19 42 39
19 43 40
19 43 39
19 44 40
19 43 40
19 43 40
19 42 39
19 43 40
19 42 39
19 43 40
19 43 40
19 43 40
19 43 39
19 42 39
19 43 40
19 43 40
19 42 39
19 44 40
19 43 40
19 43 40
19 44 40
19 44 40
19 43 40
19 43 40
20 44 41
19 42 39
20 44 41
19 43 39
19 43 40
20 44 40
20 44 40
20 44 40
20 44 41
19 43 40
19 43 40
19 43 40
19 43 40
19 43 40
20 44 40
20 44 40
20 44 41
20 44 40
19 43 40
19 43 40
19 43 40
20 44 40
20 44 40
20 44 41
20 45 41
19 44 40
19 43 40
20 44 41
19 43 40
20 44 40
20 44 41
20 44 40
20 44 40
19 42 39
19 43 40
19 44 40
20 44 40
19 43 40
19 43 40
19 43 40
20 44 40
20 44 41
19 43 40
20 44 40
20 44 41
19 44 40
20 44 41
19 43 40
20 45 41
19 44 40
19 43 40
20 44 41
19 43 40
20 44 40
19 44 40
19 44 40
19 43 40
20 44 40
19 44 40
20 44 40
19 43 39
19 43 40
19 42 39
20 44 40
20 44 41
19 44 40
19 43 40
19 43 40
20 44 40
19 43 39
20 44 40
19 43 40
19 43 40
20 45 41
20 44 40
19 43 40
20 44 40
19 43 40
19 43 40
19 43 40
19 43 39
19 43 40
19 43 40
20 45 41
19 43 39
20 44 40
19 43 39
19 43 40
19 43 40
19 42 39
19 43 39
19 43 40
19 43 40
19 43 40
19 43 40
19 44 40
19 43 40
19 43 40
19 43 40
19 43 40
19 43 40
19 43 40
19 43 40
19 43 40
19 43 40
19 43 40
19 43 39
19 43 40
19 43 39
19 43 40
19 43 40
19 42 39
19 42 39
19 43 40
19 43 40
19 43 40
19 43 40
20 44 40
19 43 40
19 43 40
20 44 41
20 44 40
19 43 40
19 44 40
20 44 40
19 44 40
19 44 40
19 44 40
20 44 41
20 44 41
19 42 39
20 44 40
19 44 40
20 44 40
19 44 40
19 43 40
20 45 42
19 43 39
19 43 39
20 44 40
20 44 41
20 44 40
19 44 40
20 44 41
20 44 41
20 44 41
20 44 41
19 44 40
20 44 41
20 44 41
20 44 41
20 44 41
20 44 40
19 43 40
19 43 40
19 44 40
19 43 39
20 44 40
19 43 39
21 46 42
19 43 40
19 44 40
20 44 41
19 43 40
19 43 40
19 43 40
20 45 41
20 45 41
19 43 39
20 44 41
19 43 40
20 44 41
19 44 40
20 44 41
19 44 40
19 42 39
20 44 41
20 44 41
19 43 40
19 44 40
19 43 40
19 43 40
20 45 41
19 43 40
19 43 40
19 43 40
20 44 40
20 44 40
20 44 41
20 44 41
20 44 40
19 43 40
20 44 40
20 44 41
19 43 40
19 43 40
20 44 40
19 44 40
20 44 41
20 45 41
20 44 41
20 44 41
20 44 41
20 44 41
20 44 40
20 44 41
20 44 41
19 43 40
20 44 41
20 44 41
19 44 40
19 43 39
20 44 40
19 44 40
19 43 40
19 43 40
19 44 40
19 43 39
19 43 40
19 43 40
20 44 41
20 45 41
19 43 40
19 43 40
19 42 39
20 44 41
19 43 40
19 43 40
19 43 40
19 42 39
19 42 39
19 42 39
19 43 39
19 42 39
19 43 39
20 44 41
20 44 41
20 44 40
19 43 40
19 43 39
20 44 41
19 43 40
20 44 40
20 44 41
20 44 41
19 43 40
19 43 40
20 44 40
19 43 40
20 44 41
19 44 40
19 43 40
20 44 40
20 45 41
19 43 40
19 43 40
19 43 40
19 43 40
19 43 39
20 44 40
20 44 41
20 44 41
19 43 40
19 43 40
20 44 41
20 44 40
20 44 41
20 44 40
19 43 40
20 44 40
20 44 40
20 44 40
20 44 41
20 45 41
20 44 40
20 45 41
20 44 41
20 44 41
19 43 40
20 44 41
20 45 41
20 45 41
20 44 41
20 44 40
20 44 40
20 44 40
20 44 41
20 45 41
19 43 40
19 43 40
19 43 39
20 44 40
20 44 41
20 44 41
20 43 40
19 44 40
19 43 40
19 43 40
19 43 40
20 44 40
19 43 40
20 44 41
19 43 40
20 44 41
19 43 40
20 44 41
19 43 40
20 44 40
20 44 40
20 45 41
20 44 41
19 43 40
20 44 41
19 43 39
20 44 41
20 44 41
19 43 40
19 44 40
19 42 39
20 44 41
20 44 41
20 44 41
19 44 40
19 43 40
19 43 39
19 43 40
19 43 40
19 43 39
20 44 41
19 44 40
20 44 41
20 44 40
19 43 39
19 43 40
19 43 40
19 43 39
19 43 40
19 43 40
19 43 40
19 43 40
19 43 39
20 44 41
20 45 41
19 43 40
20 44 41
19 43 39
20 45 41
19 43 39
19 43 40
20 44 41
20 44 41
19 44 40
19 43 40
19 43 40
19 42 39
20 45 41
20 44 41
19 42 39
19 43 39
20 45 42
19 43 39
20 44 40
20 43 40
19 43 40
20 44 41
20 44 40
20 44 40
20 45 41
20 44 41
20 45 41
20 45 41
20 45 42
20 45 41
19 43 39
20 44 41
19 43 40
19 43 40
20 44 41
20 44 40
20 44 40
20 44 41
19 43 40
20 44 41
20 44 41
20 45 41
20 44 41
20 44 41
20 45 41
20 44 40
20 44 40
20 44 40
20 44 41
20 44 41
20 44 40
20 44 41
19 43 39
19 43 40
20 45 41
19 43 40
19 43 40
20 44 41
20 44 40
20 44 40
20 45 41
20 45 41
20 45 41
20 45 41
20 44 41
20 44 40
20 44 41
20 44 41
20 45 41
20 45 41
20 44 41
20 44 40
20 44 40
20 44 41
20 44 41
20 44 41
19 43 40
19 42 39
20 44 40
20 44 40
19 43 40
20 44 40
20 44 40
20 44 40
19 43 40
20 43 40
20 44 40
20 44 40
19 43 40
19 43 40
20 44 41
20 44 41
20 44 41
20 44 41
20 44 41
20 45 41
20 44 40
19 43 39
20 44 41
20 44 40
19 43 39
20 44 41
20 44 41
20 45 42
20 44 40
19 42 39
20 44 41
20 45 41
20 44 41
20 44 41
20 44 40
19 42 39
19 43 39
20 44 40
19 43 40
19 43 39
19 43 40
19 43 40
20 44 40
19 43 40
20 45 41
19 43 40
19 43 40
19 43 40
19 44 40
20 44 41
20 44 40
19 43 40
19 43 39
20 44 40
19 43 40
20 44 40
20 44 41
20 44 40
19 43 40
20 44 41
20 44 41
20 44 40
20 45 41
19 43 40
20 44 41
19 43 40
20 45 41
20 44 41
20 45 41
20 44 40
20 44 41
20 45 41
20 44 40
20 44 40
20 44 41
20 45 41
20 44 40
20 44 41
20 44 41
20 44 41
20 44 41
20 44 41
20 45 42
20 44 40
20 44 41
19 43 40
20 44 41
20 44 41
20 44 41
20 44 41
20 44 40
19 43 40
20 45 41
20 45 41
20 45 41
20 44 41
20 44 40
20 45 41
20 44 41
20 44 40
20 45 41
20 44 40
20 44 40
20 45 41
19 43 40
19 43 40
20 45 42
20 44 41
19 43 40
20 45 41
20 45 41
20 44 41
20 45 41
20 44 40
20 44 41
20 44 40
20 44 40
20 45 41
19 43 40
20 45 41
20 44 41
20 44 40
19 43 40
20 45 42
20 44 40
20 44 40
20 45 41
20 45 41
20 44 41
20 44 41
20 45 41
20 44 40
20 44 40
20 44 41
20 44 41
20 44 41
20 44 41
20 44 40
20 45 41
20 44 40
20 45 41
20 44 40
20 45 41
20 45 41
20 44 40
19 43 40
20 45 41
20 45 41
20 44 40
20 44 41
20 44 40
20 44 41
20 45 41
20 45 41
20 44 40
20 44 40
20 44 41
20 44 40
19 44 40
20 44 41
20 44 41
19 43 40
20 45 41
20 44 41
19 43 40
19 42 39
19 43 40
20 44 40
19 43 39
20 44 41
20 44 41
20 44 40
20 44 41
19 43 40
20 45 42
20 44 40
20 45 41
20 44 41
20 44 40
20 45 41
20 44 40
20 44 41
20 44 41
20 44 41
20 45 41
20 45 41
19 43 40
20 44 41
20 45 42
20 44 40
20 45 41
20 45 41
20 44 41
20 44 41
20 45 41
20 44 40
20 44 40
19 43 40
20 45 42
20 45 41
20 44 41
20 45 41
20 45 42
20 44 40
20 45 42
20 44 40
20 44 41
20 45 41
20 44 40
20 44 40
20 45 41
20 45 41
20 45 41
20 45 41
20 44 41
20 44 40
20 44 40
20 44 41
20 45 41
20 44 40
20 44 40
20 45 41
20 45 41
20 44 41
20 44 40
20 44 40
21 46 42
20 44 41
20 45 41
20 44 40
20 44 41
20 44 40
20 44 40
20 45 41
20 44 40
20 45 41
20 45 41
20 44 41
19 42 39
20 45 41
20 44 41
20 45 41
20 44 40
20 45 41
20 44 41
20 45 41
20 44 40
20 45 41
20 44 40
20 44 41
20 45 41
20 45 41
20 44 41
20 44 40
20 44 41
20 45 42
20 44 40
21 46 42
20 44 40
20 44 40
21 46 42
20 44 40
19 43 40
20 45 41
20 44 40
20 44 40
20 45 41
20 44 41
20 44 40
19 43 40
20 44 40
19 44 40
19 43 40
19 43 40
20 44 41
20 44 41
20 45 41
20 45 42
19 43 40
20 44 41
20 44 41
20 44 41
20 44 41
20 44 41
19 43 40
19 43 39
19 43 40
20 44 41
20 44 41
20 44 41
20 45 41
19 43 40
20 44 40
20 45 41
20 44 40
20 45 41
20 44 40
20 45 41
20 45 41
20 45 42
20 44 40
19 43 40
20 45 41
20 44 40
20 44 40
20 44 40
20 44 41
20 45 41
20 45 41
20 44 40
20 45 41
20 44 41
19 43 40
20 44 40
20 44 41
20 44 41
20 44 40
20 45 42
20 44 41
20 44 41
20 45 41
20 44 41
20 43 40
20 44 41
20 44 41
20 44 41
20 45 42
20 45 41
20 45 41
20 44 40
20 45 41
20 45 41
20 45 41
20 45 41
20 45 41
20 45 42
20 46 42
20 44 40
20 45 41
20 45 41
20 44 40
20 44 40
20 45 41
20 45 42
20 44 41
20 44 41
20 44 41
20 44 41
20 44 41
20 44 41
20 44 40
20 44 41
20 44 41
19 43 40
20 45 41
20 45 41
20 44 41
20 45 41
20 44 40
20 44 41
20 44 41
20 44 41
20 45 42
20 44 41
21 46 42
20 44 41
20 45 41
20 44 40
20 44 40
20 44 41
20 45 42
20 45 41
20 44 40
20 45 41
20 44 41
20 44 41
20 44 41
20 45 42
20 44 41
20 44 41
20 46 42
20 45 41
20 44 41
20 44 41
20 44 40
20 44 40
20 45 41
20 45 41
21 46 42
20 44 41
19 43 40
20 44 40
20 44 41
20 44 41
20 45 41
20 44 40
20 44 40
20 44 41
20 45 41
20 45 41
20 44 40
20 44 40
20 45 41
20 45 41
20 45 41
20 44 40
20 45 41
19 43 40
20 44 40
20 44 41
20 44 41
19 43 40
20 44 41
20 44 41
20 44 41
19 43 40
20 44 40
20 45 42
20 44 41
20 45 41
20 45 41
20 44 40
20 45 41
20 45 41
20 44 41
20 44 41
20 45 41
19 43 40
20 45 41
20 45 41
20 44 41
20 44 41
20 44 41
20 44 40
20 44 40
20 44 40
20 44 40
20 44 41
21 46 42
20 45 41
20 45 41
20 45 41
20 44 40
20 45 41
20 45 41
20 44 41
20 44 41
20 45 41
20 43 40
20 44 41
20 44 41
21 46 42
20 45 41
21 46 42
20 44 41
21 46 42
20 44 40
20 45 42
20 44 41
20 45 41
20 45 41
20 45 41
20 44 41
20 45 41
20 44 41
20 44 40
20 44 40
20 44 41
20 45 41
20 44 41
21 46 43
19 43 40
20 45 41
20 45 41
20 45 41
20 44 40
20 45 42
20 45 42
20 44 40
20 45 41
20 45 42
21 46 42
20 45 41
20 44 40
20 44 41
20 44 40
20 44 41
20 44 40
21 46 42
20 45 41
21 46 42
20 44 40
20 46 42
20 44 41
20 44 41
20 45 41
19 43 40
20 44 41
19 43 40
20 44 41
20 45 42
20 44 40
20 45 42
20 44 41
20 45 41
20 45 42
20 45 41
21 46 43
20 44 41
20 44 40
20 45 41
20 44 40
20 44 41
20 44 41
20 43 40
20 45 41
20 45 41
20 44 41
20 44 41
20 44 41
20 44 40
20 44 40
20 44 41
20 44 41
20 45 41
19 43 40
20 45 41
20 44 40
20 44 41
20 44 41
19 43 40
19 43 40
20 44 40
20 45 41
20 44 40
19 43 40
20 45 41
20 43 40
20 45 41
20 45 41
20 44 41
20 45 41
20 45 42
20 45 41
20 44 41
20 44 41
20 45 41
20 45 41
20 44 41
20 44 41
20 44 41
20 44 41
20 44 40
21 46 42
20 45 41
20 45 41
20 45 42
20 44 41
20 45 41
21 46 42
20 44 41
20 44 40
20 45 41
20 45 41
21 46 42
20 45 41
21 46 42
20 45 41
20 44 41
20 45 41
20 45 42
20 45 41
20 45 41
20 45 41
20 45 41
20 44 41
20 44 41
21 46 42
21 46 42
20 45 41
20 46 42
21 46 42
20 45 41
20 44 40
20 45 41
20 45 41
20 45 41
20 44 41
20 45 41
20 44 41
21 46 42
20 45 41
20 44 41
20 45 41
20 44 40
20 45 41
20 45 41
20 45 41
21 46 42
20 44 40
20 45 41
20 44 40
20 45 41
20 45 42
20 45 42
20 44 40
20 44 40
20 44 41
20 44 40
20 45 41
21 46 42
20 44 40
21 46 42
20 45 42
20 44 41
20 45 41
20 44 40
20 44 40
20 45 41
20 45 41
20 45 41
20 44 40
20 45 41
21 46 42
20 45 41
20 45 41
20 45 41
20 44 41
20 45 42
20 44 41
20 45 41
20 44 40
20 44 41
20 45 42
20 45 42
20 44 41
20 45 41
20 44 40
20 45 42
20 45 41
20 45 41
20 44 41
20 44 41
20 44 41
19 43 40
20 44 40
20 43 40
21 46 42
20 44 41
20 44 41
20 45 41
20 44 40
20 44 41
20 44 41
19 43 40
20 45 41
20 45 41
20 45 41
20 45 41
20 44 40
20 45 41
20 45 41
20 44 40
20 44 40
20 45 42
20 45 41
21 46 42
20 45 41
20 45 41
21 46 43
20 45 41
20 45 41
20 45 42
20 44 40
20 45 41
20 45 41
21 46 42
20 45 41
21 46 42
20 45 41
20 45 41
21 46 42
20 45 41
20 45 42
20 45 41
20 45 41
20 44 41
20 44 40
20 45 41
20 45 41
20 45 42
20 44 41
21 46 42
21 46 42
20 45 41
21 46 42
20 46 42
20 46 42
20 43 40
20 44 41
20 44 40
20 45 41
20 44 41
21 46 42
21 46 42
20 44 41
21 46 42
20 45 41
21 46 42
20 45 42
20 44 40
21 46 42
20 45 42
21 46 42
20 45 42
20 45 41
20 45 41
20 45 41
20 45 41
20 45 41
20 45 41
21 46 42
20 46 42
21 46 42
20 45 41
20 45 42
20 45 42
21 47 43
20 44 40
20 45 41
20 45 41
20 45 42
20 44 40
21 46 42
20 45 41
20 45 42
21 46 42
20 45 41
20 44 41
20 45 41
20 45 41
20 44 40
20 45 41
20 45 42
21 46 42
20 44 41
20 44 40
20 44 41
20 45 41
20 44 41
20 45 41
20 44 41
20 44 41
20 45 42
20 44 40
21 46 42
20 44 40
20 46 42
20 44 41
20 45 41
20 45 41
21 47 43
20 45 41
20 45 41
20 45 41
20 45 41
20 44 40
20 43 40
20 45 41
20 44 40
19 43 40
20 44 40
20 44 40
20 45 41
20 44 40
20 44 40
19 43 40
20 45 41
20 44 40
20 45 41
21 46 42
20 44 41
20 44 41
20 44 40
20 44 40
20 45 41
20 45 41
20 45 41
20 44 41
21 46 42
20 45 42
20 45 41
20 44 41
21 46 42
21 46 42
20 45 41
21 46 43
20 45 41
21 46 42
20 45 41
21 46 43
20 44 40
20 45 42
21 47 43
21 46 42
20 45 42
20 45 41
20 44 41
21 46 42
20 45 42
20 45 42
20 45 41
21 46 42
21 46 42
21 45 42
21 46 42
20 45 42
20 45 41
21 46 42
20 45 41
20 45 41
20 45 41
20 45 41
21 46 42
20 45 42
20 45 42
20 45 41
20 44 41
20 45 41
21 46 42
21 46 42
21 46 42
20 44 41
21 46 42
20 45 42
20 45 42
20 44 40
21 46 42
20 45 41
21 46 43
21 46 42
20 45 41
20 45 41
20 45 41
20 45 41
20 45 41
20 45 41
21 46 43
20 45 41
21 46 42
20 45 42
20 45 41
21 46 42
20 45 41
21 46 42
21 46 42
20 44 40
21 46 42
21 46 42
20 45 42
21 46 42
20 45 41
20 45 41
20 45 41
20 44 41
20 44 41
20 44 40
20 45 41
20 44 41
20 44 41
20 45 41
20 45 41
20 45 41
21 46 42
20 45 42
20 44 40
20 45 41
20 45 41
20 44 40
20 43 40
20 45 41
20 44 41
21 46 42
21 46 42
20 44 41
20 44 40
20 44 40
21 46 42
20 45 41
20 44 41
20 44 41
20 44 41
20 45 41
20 46 42
20 45 41
20 44 40
21 45 42
20 44 41
20 45 41
20 43 40
20 44 40
20 45 41
20 45 41
20 45 41
20 45 42
21 46 42
20 45 41
20 44 41
20 44 41
20 44 41
20 44 41
20 45 41
20 44 41
21 47 43
21 46 42
20 45 41
21 46 42
20 45 41
20 45 42
21 46 42
20 45 41
20 45 41
20 45 41
20 45 41
21 46 42
21 47 43
20 45 41
21 47 43
21 46 42
20 45 41
20 45 41
21 46 42
20 45 41
20 45 41
21 45 42
21 47 43
20 45 41
21 46 43
20 44 41
20 45 41
21 46 42
21 46 42
21 46 42
20 45 41
20 45 41
20 45 42
20 45 41
21 46 42
20 45 41
20 45 41
21 46 42
21 47 43
20 44 41
20 45 41
21 46 42
21 45 42
20 45 41
20 45 42
21 46 43
20 44 41
20 45 41
20 45 41
21 46 42
20 45 42
21 46 42
21 46 42
20 45 41
20 44 41
21 47 43
20 45 41
20 45 41
21 46 42
20 45 41
21 46 42
20 45 41
20 45 41
21 46 42
20 44 41
20 45 41
20 44 41
20 45 41
20 44 40
21 47 43
20 45 41
20 45 41
20 45 41
20 44 41
20 45 41
20 45 41
20 45 41
20 44 41
20 45 41
20 45 41
20 45 41
20 45 41
20 44 41
20 45 42
21 46 42
20 45 41
20 45 41
20 45 41
20 44 41
20 45 41
20 44 41
20 44 41
20 45 41
20 45 41
19 43 40
20 45 41
20 45 42
20 44 41
20 45 41
20 45 41
20 45 41
20 45 42
20 45 41
20 45 41
21 46 43
20 45 41
20 45 41
20 45 42
20 45 42
20 45 41
20 45 41
20 45 41
21 46 42
20 44 40
20 44 40
21 46 42
21 46 42
20 45 41
21 46 42
20 45 41
20 45 41
20 45 41
20 45 42
20 45 42
21 46 42
20 45 41
20 45 41
21 46 42
20 45 41
20 45 41
20 45 41
20 45 41
21 46 42
20 45 42
21 46 43
21 46 42
21 46 42
21 46 42
21 45 42
21 46 42
20 45 41
20 45 41
20 45 41
21 45 42
21 46 42
21 46 42
20 45 41
21 46 42
21 46 42
20 45 41
21 46 42
20 45 41
21 46 42
20 45 41
21 46 42
20 45 41
20 45 41
21 47 43
21 46 42
20 45 41
21 47 43
21 46 42
20 45 41
20 45 42
21 46 42
21 46 42
21 46 42
20 45 41
20 45 41
21 46 42
20 45 41
21 46 42
20 45 42
21 47 43
20 45 41
21 47 43
21 47 43
20 45 41
21 46 42
20 45 42
20 45 41
21 46 43
20 45 42
20 44 41
21 46 42
20 45 41
21 46 42
20 45 41
21 46 42
20 45 41
21 46 43
21 46 42
20 45 41
21 46 42
20 45 41
20 45 41
20 44 41
20 44 40
21 46 42
20 44 40
21 46 42
20 45 41
20 44 41
20 45 41
20 45 42
20 44 41
21 46 42
20 44 41
20 45 41
20 45 41
21 46 42
20 45 41
20 45 41
21 46 42
20 45 41
20 45 41
20 45 41
20 44 41
20 45 41
20 44 40
20 45 41
20 45 41
20 45 41
21 46 42
21 47 43
21 46 42
20 45 42
21 46 42
20 45 41
20 45 41
21 46 42
20 44 41
20 45 41
21 46 42
21 46 42
21 46 42
21 46 42
20 45 42
21 47 43
21 46 42
20 45 41
21 46 42
21 46 42
21 46 42
21 47 43
21 46 43
21 47 43
21 46 42
21 47 43
21 46 42
21 46 42
21 46 43
21 46 42
21 46 42
21 45 42
21 46 42
21 47 43
21 47 43
21 46 42
20 45 41
20 45 41
21 46 42
21 46 42
20 45 42
20 45 41
20 45 41
21 46 42
21 46 42
20 45 41
21 46 42
20 45 41
21 46 42
21 47 43
20 45 41
21 46 42
20 45 41
20 45 41
21 46 42
20 45 41
21 47 43
20 45 41
21 46 42
21 47 43
21 46 42
20 45 41
21 46 42
20 44 40
21 46 42
21 46 42
20 45 41
20 45 41
20 45 41
21 46 42
21 46 42
21 46 42
21 46 42
21 46 42
21 46 42
20 45 41
21 46 42
20 45 42
20 44 41
20 45 42
21 46 42
21 46 42
21 46 42
20 45 41
21 46 42
21 46 42
20 45 41
20 45 41
20 45 41
21 46 42
21 46 42
20 45 41
21 46 42
21 46 42
21 46 42
20 45 41
20 44 41
21 45 42
21 46 42
20 45 41
21 46 42
20 44 41
20 45 41
20 44 40
21 46 42
21 46 42
20 45 41
20 45 42
20 45 41
20 45 41
20 45 41
20 45 42
20 45 41
20 44 41
20 44 41
21 46 42
20 45 42
20 45 42
20 45 42
19 43 40
20 44 41
21 46 42
21 46 42
21 46 42
21 46 42
20 45 41
21 47 43
21 46 43
20 45 41
21 46 42
21 46 42
21 46 42
21 46 42
21 46 42
20 45 41
21 46 42
21 47 43
21 46 42
20 44 40
21 46 42
21 46 42
21 46 42
21 46 42
20 45 41
20 45 41
21 46 42
20 45 41
21 47 43
21 47 43
21 46 42
21 46 42
20 45 42
20 45 41
21 46 42
20 45 41
20 45 41
20 44 40
21 46 42
21 46 42
21 46 42
21 47 43
21 46 42
21 46 42
21 46 42
21 45 42
20 45 41
21 46 42
20 45 41
21 46 42
20 45 41
21 46 42
21 46 42
21 46 42
21 47 43
21 46 42
21 46 42
21 46 42
21 45 42
21 46 42
21 46 42
20 45 41
21 46 42
20 45 41
21 47 43
21 46 42
21 46 42
20 45 41
21 46 42
21 46 42
21 45 41
21 46 42
21 46 42
21 46 42
21 46 42
20 45 41
21 46 42
21 46 42
21 46 42
21 46 42
21 47 43
21 46 42
21 46 42
21 46 42
20 45 41
20 45 42
21 46 42
21 46 42
21 46 42
20 45 41
20 44 41
21 46 42
21 47 43
21 46 42
20 45 41
21 46 42
21 46 42
21 46 42
21 46 42
21 46 42
20 45 41
21 46 42
21 46 43
21 46 42
21 46 42
20 45 41
20 45 41
20 45 41
20 45 41
20 45 41
21 46 42
20 45 41
20 45 42
20 45 41
20 45 41
20 45 42
21 46 42
20 45 41
20 45 42
20 45 41
20 45 41
21 47 43
21 46 42
21 46 42
21 46 42
21 46 42
21 46 42
21 46 42
21 46 42
21 46 42
20 45 41
20 45 42
21 46 42
20 45 41
21 47 43
21 45 42
21 47 43
21 46 42
20 45 41
21 46 42
20 45 41
21 46 42
21 47 43
20 44 40
21 46 42
20 45 41
21 46 42
21 46 42
21 47 43
21 46 42
21 46 42
21 46 42
21 45 42
21 46 42
21 46 42
21 46 42
21 46 42
21 46 42
22 48 44
21 47 43
21 47 43
20 45 41
20 45 41
21 46 42
21 47 43
21 47 43
21 47 43
21 46 42
21 47 43
22 48 43
20 45 41
21 46 42
20 45 41
20 45 41
20 45 41
21 46 42
21 47 43
21 47 43
21 45 42
21 46 42
21 46 42
21 46 42
21 47 43
21 46 42
20 45 41
21 47 43
21 46 42
21 47 43
21 47 43
21 46 42
21 46 42
21 46 42
20 45 41
21 46 43
21 46 42
20 45 41
21 46 42
21 46 42
20 45 41
21 47 43
20 45 41
21 46 42
21 46 42
20 45 42
21 46 42
21 46 42
21 46 42
21 45 42
21 47 43
21 45 42
21 45 42
21 47 43
21 47 43
21 46 42
21 45 42
20 45 41
21 46 42
21 46 42
21 46 43
21 46 42
20 45 41
21 47 43
21 46 42
20 45 42
21 46 42
21 46 42
21 46 43
21 46 42
20 45 42
21 46 42
20 45 41
21 46 42
20 45 41
20 45 41
21 46 42
21 46 42
20 45 41
21 46 42
20 44 41
21 46 42
20 45 41
21 46 42
21 46 42
21 46 42
21 46 42
21 46 42
20 45 41
20 45 41
20 45 41
21 46 42
21 47 43
20 45 41
21 46 42
21 46 42
20 45 41
21 46 42
21 46 42
21 46 42
21 47 43
21 46 42
21 46 42
21 47 43
21 46 42
21 46 42
20 45 41
21 46 42
21 46 42
21 46 42
21 46 42
20 45 41
21 46 42
21 45 42
21 46 42
21 46 42
21 46 42
21 46 42
21 47 43
21 46 42
21 47 43
21 46 42
20 45 41
21 47 43
21 46 42
21 47 43
20 45 41
21 46 42
21 47 43
21 46 42
21 47 43
21 46 42
21 46 42
21 46 42
21 47 43
21 47 43
21 47 43
21 46 42
21 46 42
21 45 41
21 47 43
21 46 42
21 46 42
21 45 42
21 47 43
21 46 42
21 46 42
21 46 42
20 45 41
20 45 41
21 46 42
21 46 42
21 46 42
21 46 42
21 46 42
20 45 41
21 47 43
21 46 42
21 46 42
21 46 42
21 46 42
21 46 42
21 45 42
21 46 42
21 46 42
81 83 76
132 123 112
100 97 89
33 51 47
21 45 42
21 46 42
21 47 42
21 47 43
21 47 43
21 46 42
20 45 42
21 46 42
21 46 42
21 45 42
20 45 41
20 45 41
21 46 42
21 46 42
20 45 41
20 45 41
21 46 42
20 45 42
21 46 42
21 46 42
20 45 41
21 46 42
20 45 41
21 45 41
21 46 42
21 46 42
21 46 42
20 45 41
21 46 42
20 45 41
20 44 40
20 45 41
20 45 41
20 45 41
20 44 41
21 46 42
21 46 42
21 46 42
21 46 42
21 46 42
21 46 42
21 46 42
20 45 41
21 46 42
20 45 41
21 46 42
21 47 43
20 45 41
21 46 42
21 46 42
22 48 44
21 47 43
21 45 41
21 46 42
21 46 42
21 47 43
21 47 43
21 46 42
21 46 42
21 46 42
21 47 43
21 45 41
22 48 44
21 46 42
21 46 42
21 45 42
21 46 42
21 47 43
21 47 43
21 47 43
20 45 41
21 46 42
21 47 43
21 47 43
21 46 42
21 46 42
21 47 43
21 46 42
21 47 43
21 46 42
21 46 42
21 47 43
21 47 43
21 46 42
21 46 42
21 47 43
21 46 42
21 46 42
21 47 43
21 47 43
21 47 43
21 47 43
20 45 41
21 46 42
21 46 42
21 47 43
21 46 42
21 46 42
21 47 42
21 47 43
21 46 42
21 46 42
21 46 42
21 47 43
21 46 42
21 46 42
21 47 43
21 46 42
21 46 42
21 47 43
21 46 42
21 46 42
20 45 41
21 46 42
72 76 69
190 170 155
237 212 193
239 214 195
234 210 192
189 169 159
52 50 64
21 45 41
21 46 42
21 46 42
21 46 42
21 46 42
21 47 43
20 45 41
21 46 42
20 45 41
21 46 42
21 46 42
20 45 42
21 46 42
20 45 41
20 45 41
21 47 43
21 47 43
20 45 41
21 45 42
21 47 43
21 45 42
21 46 42
20 44 41
20 45 42
20 44 40
21 46 42
21 46 42
21 46 42
21 46 42
20 45 41
20 45 41
20 45 42
20 45 41
21 48 43
21 46 42
21 46 42
21 46 42
21 47 43
21 47 43
21 46 42
20 45 41
21 47 43
21 46 42
21 47 43
21 47 43
21 46 42
21 47 43
21 46 42
21 46 42
21 47 43
21 47 42
21 47 43
21 47 43
21 46 42
21 46 42
21 46 42
21 47 43
20 45 41
21 46 42
21 46 42
21 47 43
21 47 43
21 47 43
21 46 42
21 46 42
21 45 42
21 47 42
21 47 43
21 46 42
21 47 42
20 45 41
21 47 43
21 47 43
21 47 43
21 46 42
21 46 42
21 46 42
21 46 42
21 47 42
21 47 43
21 46 42
21 46 42
21 47 43
21 46 42
22 48 43
21 46 42
21 46 42
21 45 41
21 46 42
21 47 43
22 48 43
20 45 41
21 46 42
21 47 43
21 47 43
21 46 42
21 47 43
21 46 42
21 47 43
21 47 43
21 46 42
20 45 41
21 46 42
21 47 43
21 46 42
21 45 41
20 45 41
21 46 42
21 47 42
21 47 43
21 46 42
21 46 42
43 57 51
197 176 159
245 217 196
248 220 199
247 219 199
242 216 196
177 152 152
90 60 97
38 46 52
21 47 43
21 45 41
21 46 42
21 46 42
21 45 42
20 45 41
21 46 42
21 45 41
21 46 42
21 46 42
21 46 42
20 45 42
21 46 42
21 46 42
21 46 42
21 45 42
21 46 42
21 47 43
20 45 41
21 46 42
20 45 41
21 46 42
21 46 42
21 46 42
20 44 41
20 45 41
21 46 42
20 44 40
21 46 42
20 45 41
20 45 41
21 46 42
21 47 43
21 46 42
20 45 41
21 47 43
21 45 41
21 47 43
21 45 42
21 46 42
21 47 43
21 47 43
22 48 44
21 47 43
21 46 42
22 47 43
21 47 43
22 48 43
21 47 43
21 46 42
21 46 42
21 47 43
22 48 44
21 47 43
21 46 42
21 47 43
21 46 42
21 47 43
21 45 42
21 46 42
21 46 42
21 46 42
21 47 43
21 46 42
21 47 43
22 48 44
21 46 42
21 46 42
21 46 42
21 47 43
20 45 41
22 48 43
21 46 42
21 46 42
22 48 43
21 47 43
22 48 43
21 47 43
21 47 43
21 47 42
21 46 42
21 46 42
21 46 42
21 47 43
21 46 42
22 48 43
21 47 43
22 48 43
21 46 42
21 46 42
22 47 43
21 46 42
21 46 42
21 46 42
21 47 43
21 46 42
21 47 43
21 46 42
21 47 43
21 46 42
21 46 42
21 46 42
21 46 42
22 48 43
21 47 43
21 46 42
21 46 42
21 47 43
21 47 43
21 46 42
21 46 42
113 106 95
229 202 181
242 212 189
255 226 202
255 242 215
205 177 169
101 67 106
93 61 98
65 50 74
20 45 41
21 46 42
21 46 42
21 46 42
21 46 42
21 46 42
21 46 42
21 46 42
21 47 43
21 47 43
21 47 43
21 46 42
20 45 41
21 46 42
21 47 43
21 46 42
20 44 40
21 45 42
21 46 42
21 46 42
20 45 41
21 47 43
21 46 42
21 46 42
20 45 41
21 46 42
21 46 42
20 45 41
21 46 42
20 45 41
21 47 43
20 45 41
21 46 42
21 46 42
21 46 42
21 47 42
20 45 41
21 47 43
21 46 42
22 48 44
22 48 43
21 47 43
21 47 43
21 47 42
21 46 42
21 47 43
21 47 43
21 47 43
21 47 43
21 47 43
21 46 42
22 48 44
21 47 42
21 47 43
21 47 43
22 48 44
21 47 42
21 46 42
21 46 42
21 46 42
21 47 43
21 47 43
21 47 43
21 46 42
21 46 42
21 47 43
21 47 43
21 46 42
22 48 44
21 46 42
21 46 42
21 47 43
21 47 43
22 47 43
22 47 43
21 47 43
22 48 44
21 47 43
22 48 43
21 47 43
21 47 43
21 47 43
21 47 43
21 47 43
22 47 43
21 47 43
21 47 43
21 46 42
21 47 42
21 45 42
21 47 43
21 46 42
21 46 42
21 46 42
21 46 42
22 48 44
21 46 42
21 47 43
21 45 41
21 47 43
21 46 42
21 47 43
21 47 43
21 46 42
21 46 42
21 46 42
20 45 41
21 47 43
21 46 42
21 46 42
21 46 42
137 124 110
221 193 172
230 201 179
239 209 187
194 166 160
137 112 118
126 100 112
86 56 90
68 47 74
23 46 43
21 47 43
21 46 42
21 47 43
21 47 43
21 45 41
21 47 43
21 46 42
21 47 43
21 46 42
21 46 42
20 45 41
20 45 41
21 46 42
21 47 43
20 45 41
21 46 42
20 45 41
20 45 42
21 46 42
21 47 43
21 46 42
21 47 43
21 46 42
21 46 42
21 46 42
21 46 42
21 46 42
20 45 41
21 46 42
21 46 42
20 45 41
21 46 42
21 47 43
21 47 43
21 46 42
22 47 43
21 46 42
20 45 41
21 47 43
22 48 44
21 46 42
21 47 43
22 49 44
21 47 43
21 47 43
21 46 42
21 46 42
21 46 42
21 46 42
21 47 43
21 47 43
21 46 42
22 48 43
21 46 42
21 46 42
21 47 43
21 46 42
21 47 43
21 47 43
22 48 44
21 47 43
21 47 43
21 46 42
21 46 42
21 47 43
21 46 42
21 47 42
21 46 42
22 48 44
21 47 43
21 47 43
21 46 42
21 46 42
21 47 43
22 48 43
21 47 42
21 47 43
21 46 42
22 49 44
21 47 42
21 47 43
21 46 42
21 47 43
21 46 42
21 47 43
21 47 43
21 47 43
21 47 43
21 46 42
21 47 43
21 47 43
21 46 42
21 46 42
21 47 43
21 46 42
21 47 43
22 48 43
21 46 42
21 47 43
21 47 43
21 47 43
21 47 43
21 47 43
21 46 42
21 46 42
21 47 43
21 46 42
21 46 41
21 47 43
21 45 41
111 101 91
178 153 137
171 145 135
131 103 114
154 129 125
181 158 139
187 165 146
107 87 94
70 54 71
27 48 44
21 47 43
21 46 42
21 47 43
21 46 42
21 46 42
21 46 42
21 47 43
21 46 42
21 46 42
21 46 42
21 46 42
21 47 43
21 47 43
21 47 43
21 46 42
21 46 42
21 46 42
21 46 42
21 47 43
21 47 43
21 47 43
20 44 41
21 46 42
21 46 42
21 46 42
21 46 42
21 47 43
21 47 43
21 46 42
21 46 42
21 46 42
21 47 43
21 46 42
22 48 43
21 47 43
22 48 44
21 47 43
21 47 43
21 47 43
21 46 42
21 47 43
21 47 43
21 46 42
21 47 42
22 48 44
21 47 43
22 48 44
21 47 42
22 48 44
21 47 43
21 47 43
21 47 43
21 47 43
21 47 43
22 49 44
21 47 43
21 46 42
21 47 43
21 47 43
21 47 43
21 46 42
22 48 43
21 47 43
21 46 42
22 47 43
21 46 42
21 46 42
22 48 43
21 46 42
21 46 42
22 48 44
22 48 44
22 48 44
21 47 42
22 48 44
21 47 43
21 47 43
21 47 43
22 48 44
21 46 42
21 46 42
21 47 42
21 46 42
21 47 43
21 46 42
21 47 43
22 47 43
21 46 42
21 47 43
22 48 44
21 46 42
21 46 42
21 47 43
21 45 41
22 48 43
21 47 43
21 47 43
22 48 43
21 46 42
21 46 41
21 46 42
21 46 42
21 47 43
21 47 43
21 46 42
21 46 42
21 46 42
21 46 42
21 47 43
21 46 42
33 43 45
65 42 66
74 47 73
79 51 79
147 125 111
152 133 116
146 128 113
85 71 73
79 74 71
19 43 39
20 45 41
21 47 43
21 46 42
21 47 43
21 46 42
21 46 42
21 46 42
21 46 42
21 46 42
21 47 42
21 47 43
21 47 43
21 47 43
21 47 43
21 46 42
21 47 43
21 47 43
21 46 42
21 46 42
21 46 42
21 46 42
20 45 41
21 47 43
21 46 42
21 46 42
21 47 43
21 47 43
21 46 42
21 46 42
21 46 42
21 47 42
21 47 43
21 47 43
21 47 43
21 47 43
22 48 44
21 47 43
21 47 43
22 48 43
21 47 43
22 48 43
21 46 42
21 47 42
21 47 43
21 47 43
21 47 43
22 48 44
22 48 44
21 46 42
21 47 43
22 48 43
21 46 42
21 47 43
21 46 42
21 47 43
21 46 42
21 47 43
21 47 43
22 49 44
22 48 44
22 48 43
22 48 44
21 47 43
21 47 43
21 46 42
22 48 44
22 48 44
21 47 43
21 47 43
21 47 43
21 47 43
22 48 43
21 46 42
22 48 44
22 48 43
21 46 42
22 48 44
21 46 42
21 47 43
21 47 43
22 48 43
22 48 43
22 48 44
22 48 44
21 46 42
22 47 43
21 47 43
21 47 42
22 48 43
21 47 43
21 47 43
21 47 43
22 48 43
21 47 43
22 48 43
21 47 43
21 46 42
22 48 44
21 46 42
21 47 42
21 47 43
21 46 42
21 47 42
20 45 41
21 46 41
21 47 43
21 45 41
22 48 43
21 46 42
20 44 40
20 45 40
41 32 43
53 34 50
59 38 57
96 78 75
117 100 87
85 74 66
73 66 62
47 52 48
16 36 34
19 42 39
21 45 41
21 47 43
21 46 42
22 47 43
21 47 43
21 46 41
21 46 42
20 45 41
21 45 41
21 46 42
21 47 43
21 46 42
21 47 43
21 47 43
21 45 41
21 46 42
20 45 41
21 47 43
21 47 43
22 48 43
21 46 42
21 47 43
21 46 42
21 47 43
21 46 42
21 47 43
21 46 42
21 46 42
21 47 43
21 47 43
21 47 43
22 47 43
21 47 43
21 46 42
22 48 43
21 47 42
21 47 42
21 47 43
22 48 43
21 46 42
21 47 43
21 47 43
21 46 42
21 47 42
22 48 43
21 47 43
22 49 45
21 47 43
21 47 43
21 47 42
21 47 43
22 48 44
21 47 43
21 47 43
22 48 44
21 47 43
21 47 43
21 47 43
22 48 44
21 47 43
21 47 43
21 47 43
22 48 44
21 46 42
21 46 42
22 48 43
22 48 44
22 48 44
22 48 43
21 46 42
21 47 43
21 47 43
21 47 43
21 47 42
21 47 43
21 47 43
22 48 44
22 48 44
22 48 43
21 46 42
21 46 42
21 46 42
21 47 43
22 48 44
22 47 43
22 48 43
21 47 43
21 47 43
22 48 43
21 46 42
21 46 42
22 47 43
21 47 43
21 47 43
21 47 43
21 46 42
22 48 43
21 47 43
21 47 42
21 47 43
21 47 42
21 47 43
21 47 43
21 46 41
20 45 41
21 47 42
20 44 40
21 46 42
20 43 39
19 42 38
16 32 30
21 20 23
27 19 26
30 22 27
34 30 29
36 37 29
32 37 34
13 31 29
16 36 33
20 45 41
21 46 42
20 45 41
21 46 41
21 46 42
21 46 42
21 47 42
21 46 42
21 46 42
21 46 42
22 48 43
21 46 42
21 46 42
21 46 42
21 47 43
21 46 42
21 46 42
21 46 42
20 45 41
21 46 42
21 46 42
21 47 43
21 46 42
21 46 42
20 45 41
21 46 42
21 47 43
21 46 42
20 45 41
21 47 43
20 45 41
22 48 43
22 47 43
22 48 44
21 47 43
22 48 44
21 47 43
21 47 42
22 48 44
21 47 43
21 47 43
21 47 42
22 48 44
21 46 42
22 48 43
22 48 43
21 47 43
21 46 42
22 48 44
22 48 43
21 47 43
21 47 43
21 47 43
21 46 42
22 48 44
21 47 43
21 46 42
21 47 43
21 47 43
22 49 44
22 48 43
22 48 43
22 48 43
22 48 44
21 47 43
22 48 44
22 48 44
21 47 43
21 47 43
22 48 44
21 47 43
21 46 42
21 47 43
22 48 44
21 47 43
22 47 43
22 49 44
21 47 42
22 48 43
21 47 43
22 48 43
21 47 43
22 48 44
22 48 44
22 49 44
22 48 44
21 47 43
21 47 42
21 47 43
22 48 44
21 47 43
22 47 43
21 47 42
21 45 41
21 47 42
22 48 44
22 48 44
22 48 44
22 48 43
21 47 43
22 47 43
21 45 41
21 47 42
21 47 42
21 46 42
21 47 42
20 45 40
21 46 41
21 45 41
20 44 39
20 43 38
19 41 36
16 34 30
14 28 25
24 32 26
21 29 24
13 29 26
15 32 29
18 39 35
20 44 40
21 45 41
20 45 41
20 45 41
21 46 42
21 46 42
21 46 42
21 46 42
21 47 43
21 47 43
21 46 42
21 46 42
21 47 42
21 46 42
21 46 42
21 46 42
21 47 43
21 47 42
21 46 42
21 46 42
21 47 43
21 47 43
21 46 42
21 46 42
21 47 43
21 47 43
21 46 42
21 47 43
21 47 43
21 46 42
21 46 42
21 47 43
21 47 42
22 47 43
21 47 43
21 47 43
22 48 44
22 48 44
21 46 42
22 48 43
21 47 43
22 48 44
21 47 42
22 48 43
21 47 42
21 47 43
22 47 43
22 47 43
22 48 44
22 47 43
22 48 43
21 46 42
22 48 43
22 48 43
21 46 42
22 48 44
22 48 43
22 48 44
22 48 44
22 48 43
22 48 44
22 48 43
22 48 44
21 47 43
21 47 43
22 48 43
21 47 43
21 47 42
22 47 43
22 48 44
21 47 42
21 47 43
22 48 44
22 48 43
22 48 44
22 48 44
21 47 43
22 48 43
22 47 43
21 47 43
22 48 43
22 48 44
22 47 43
21 47 43
22 48 44
22 48 43
21 47 42
22 47 43
21 47 43
22 48 43
21 47 43
21 46 42
21 47 43
22 47 43
22 48 44
21 47 43
21 47 43
21 47 42
22 48 43
21 46 42
21 47 43
21 47 43
22 47 43
21 46 42
22 47 43
21 46 42
21 47 42
22 47 43
21 46 42
21 45 41
21 47 42
20 44 40
20 45 40
20 42 38
20 43 38
20 43 38
20 44 39
19 42 38
20 44 40
21 45 41
20 45 40
21 46 42
20 45 41
21 46 42
21 47 42
21 47 42
21 47 43
21 47 43
21 45 41
21 47 43
21 47 42
22 48 43
21 46 42
21 46 42
22 47 43
22 48 44
21 47 42
21 46 42
22 48 44
21 46 42
21 47 42
21 46 42
22 48 44
22 47 43
21 47 43
21 47 43
21 47 43
21 47 43
21 47 43
21 47 43
21 46 42
21 47 42
22 48 43
22 48 44
21 47 42
22 48 43
22 49 44
22 48 44
21 46 42
21 47 43
21 47 43
22 48 44
22 48 44
21 47 42
21 47 43
22 48 43
22 48 44
21 47 43
22 48 43
21 47 43
22 48 44
22 48 44
22 48 43
22 48 44
22 48 44
22 48 44
22 47 43
22 48 43
22 49 44
21 47 43
22 48 43
21 47 43
21 47 43
22 48 44
22 49 44
21 47 43
21 47 43
21 47 43
22 47 43
22 47 43
22 48 44
21 47 43
22 48 43
22 48 43
22 48 44
21 46 42
22 48 44
21 47 42
22 48 44
21 46 42
22 48 44
21 47 42
22 48 43
21 47 43
22 48 44
21 47 43
22 49 44
22 48 43
22 49 44
21 46 42
22 48 43
21 47 42
21 47 43
21 46 42
21 47 43
22 47 43
22 48 43
22 48 43
22 48 44
21 47 43
21 47 43
22 48 43
21 47 42
21 47 43
21 46 42
21 46 42
21 47 42
21 47 43
21 46 42
21 47 43
21 46 42
22 47 43
21 45 41
21 46 42
21 45 41
21 45 41
21 46 42
21 46 42
21 45 41
21 46 41
21 46 42
21 46 41
21 47 42
21 46 41
21 46 42
21 46 42
21 47 43
21 47 42
21 46 42
21 46 42
21 47 43
21 47 43
21 46 42
21 47 43
21 47 43
21 46 42
21 47 43
21 47 43
21 46 42
21 46 42
22 48 44
22 48 44
21 47 43
20 45 41
21 46 42
21 46 42
21 47 43
21 46 42
21 46 42
21 47 43
22 48 44
21 46 42
21 47 43
22 48 44
21 46 42
22 48 43
22 47 43
21 47 43
22 48 44
22 49 45
22 47 43
22 49 44
22 48 44
22 48 44
22 48 43
21 47 43
21 47 43
22 48 43
22 47 43
22 48 44
21 47 43
22 47 43
21 47 42
21 47 43
21 46 42
22 48 44
22 48 43
22 48 44
22 48 43
22 49 45
21 47 42
22 48 44
22 49 44
22 47 43
22 48 43
21 47 43
22 48 43
21 47 43
21 47 42
22 48 43
22 48 44
22 47 43
21 47 43
22 49 44
21 47 43
22 48 44
21 47 43
22 48 43
21 47 43
22 48 44
22 47 43
21 47 43
22 48 43
22 48 44
22 48 44
22 48 44
22 48 43
22 48 44
21 47 43
22 48 44
22 48 43
22 48 44
22 48 43
21 47 43
22 48 44
21 47 43
22 49 44
22 47 43
22 48 43
21 47 42
22 49 44
22 48 44
21 47 43
22 47 43
22 48 43
21 47 42
22 47 43
22 48 43
21 47 42
22 48 44
21 47 43
21 46 42
21 47 43
21 47 43
21 46 42
21 47 43
21 47 43
22 47 43
22 47 43
22 48 44
22 48 43
21 47 43
21 47 43
21 47 43
21 47 43
21 47 43
21 47 43
21 47 42
22 47 43
21 47 42
22 48 43
21 47 43
21 47 42
21 47 43
21 46 42
21 47 43
21 47 43
22 48 44
21 47 42
21 47 43
21 47 43
21 46 42
21 47 43
22 48 44
21 47 43
21 47 43
21 46 42
21 47 43
21 47 43
21 47 42
21 46 42
21 47 43
22 49 44
22 48 43
22 48 44
22 48 44
22 47 43
21 47 42
22 47 43
22 48 43
22 47 43
21 47 42
22 48 44
22 49 44
22 47 43
22 49 45
21 46 42
22 48 43
22 48 43
22 48 44
21 47 43
22 48 44
22 49 44
22 48 43
21 47 43
22 48 44
22 47 43
21 47 43
22 47 43
22 47 43
22 48 43
21 47 42
22 47 43
22 48 43
22 49 44
22 48 44
21 47 43
21 47 43
21 46 42
22 47 43
22 48 44
22 48 43
22 48 43
22 48 44
22 49 44
21 47 42
22 48 44
22 49 44
22 47 43
22 49 45
21 47 42
22 48 43
21 47 42
22 48 43
22 48 43
22 48 44
21 47 42
21 46 42
21 47 43
22 47 43
22 48 43
22 49 45
22 47 43
21 47 43
22 48 44
22 48 44
22 48 44
22 48 43
22 48 44
22 48 43
22 48 44
21 47 43
22 48 44
22 49 44
22 48 44
22 48 44
21 47 42
22 47 43
21 46 42
21 47 42
21 46 42
22 48 43
21 47 43
21 46 42
21 47 43
21 47 43
22 47 43
21 47 42
21 47 43
21 47 43
22 48 44
22 48 43
21 47 43
21 46 42
21 46 42
21 47 42
22 48 43
22 48 44
21 47 43
21 46 42
22 48 43
21 47 43
21 46 42
21 46 42
22 48 44
21 47 43
21 47 43
21 47 42
22 48 44
21 47 43
21 46 42
21 47 43
21 46 42
21 46 42
21 46 42
21 46 42
22 49 45
22 48 44
21 47 43
21 47 43
21 47 43
21 47 43
22 48 44
22 47 43
22 48 43
22 48 44
22 48 44
21 47 43
21 47 43
22 48 44
22 48 44
22 48 43
22 48 43
22 49 45
22 48 44
22 49 44
22 47 43
22 49 44
22 48 43
22 48 43
22 48 43
22 48 43
21 47 43
22 49 44
22 49 44
22 49 44
22 48 43
22 48 44
22 49 44
22 49 45
21 47 42
22 49 44
23 49 45
22 48 43
22 47 43
27 47 45
35 44 45
38 43 46
37 43 46
33 44 45
92 91 83
22 49 44
22 48 43
22 48 44
22 48 43
22 48 44
22 49 45
22 48 44
22 49 44
21 47 43
21 47 43
21 47 42
22 47 43
22 48 44
21 47 43
22 48 44
21 47 43
22 48 44
22 48 44
22 48 43
22 49 44
22 48 43
22 48 43
22 48 44
22 48 44
22 49 45
21 47 43
22 47 43
22 47 43
22 48 44
22 48 44
22 49 44
22 48 43
22 48 44
22 48 43
22 48 44
22 48 43
21 47 43
22 48 43
22 48 44
22 48 43
22 48 44
21 47 42
21 47 43
22 48 43
21 47 42
22 48 43
21 46 42
21 47 43
21 46 42
21 47 43
22 48 43
21 47 42
21 47 43
21 46 42
22 49 45
22 47 43
22 48 43
22 48 43
21 47 42
21 46 42
21 47 43
21 47 43
21 47 43
22 48 43
22 47 43
21 47 42
21 47 43
21 47 43
21 46 42
21 46 42
22 49 44
21 47 42
21 47 43
21 47 43
21 46 42
21 46 42
21 46 42
21 47 43
21 47 43
21 47 43
21 46 42
22 48 44
22 48 44
22 49 44
22 48 43
22 48 44
22 49 44
22 48 43
21 47 43
21 47 43
22 48 43
22 49 45
22 47 43
22 48 44
22 48 44
22 48 43
22 48 44
22 48 43
22 48 43
22 49 44
21 47 43
21 47 42
22 49 44
22 48 43
22 49 45
22 47 43
22 48 43
22 48 44
22 49 44
22 47 43
22 48 44
23 50 45
35 54 49
132 121 110
40 42 46
41 43 47
41 43 47
40 43 47
94 86 82
230 205 187
140 129 117
22 48 44
22 48 44
21 47 42
22 48 44
21 47 42
22 47 43
22 49 44
22 48 44
22 48 44
22 48 44
22 48 43
21 47 43
21 47 43
22 48 43
22 49 44
21 47 42
21 47 43
22 49 44
22 48 43
22 48 44
22 47 43
22 48 43
22 49 45
21 47 43
21 47 42
22 48 44
22 47 43
22 49 45
21 46 42
22 48 43
22 48 43
22 48 44
22 48 44
21 47 43
22 49 45
22 47 43
22 48 44
21 47 43
22 47 43
22 48 44
21 47 42
22 48 44
22 48 43
21 47 43
22 48 44
22 47 43
21 47 43
22 48 44
22 48 44
22 48 44
22 48 43
22 47 43
22 47 43
22 48 44
21 46 42
21 47 43
22 48 43
21 47 43
21 47 43
22 48 44
22 47 43
21 47 42
21 47 43
21 47 43
21 47 42
21 47 43
21 47 43
22 48 43
22 48 44
22 48 43
21 47 43
21 46 42
83 84 76
145 134 122
150 138 126
116 104 94
58 50 45
21 47 43
21 46 42
22 48 43
22 48 43
22 48 44
22 49 44
22 47 43
21 46 42
22 48 43
21 47 43
22 49 45
22 47 43
22 49 44
22 49 44
22 48 43
22 48 43
22 47 43
22 48 44
22 48 43
22 48 44
22 48 44
22 48 44
22 49 45
22 49 45
22 49 44
23 49 45
22 48 44
22 48 44
22 48 43
22 48 43
22 47 43
22 47 43
22 48 44
22 47 43
155 141 128
164 146 133
40 43 47
43 45 48
63 62 60
45 47 49
130 117 108
238 211 191
215 191 173
90 89 81
22 48 43
22 47 43
22 48 43
21 47 42
22 48 44
22 48 44
22 49 44
22 48 44
22 48 44
22 47 43
22 48 43
22 48 44
22 48 43
22 48 43
22 49 44
22 48 44
22 48 43
22 49 44
22 48 44
21 47 42
22 48 44
22 49 44
22 48 43
22 48 43
22 49 44
22 49 44
22 49 44
22 48 43
22 48 44
21 46 42
21 47 42
22 48 43
22 49 44
22 49 44
22 49 45
22 48 44
22 48 44
22 48 43
21 47 43
22 48 44
22 48 43
22 47 43
22 48 44
21 47 42
22 47 43
22 49 44
22 48 44
21 47 43
22 47 43
22 48 44
22 48 43
22 47 43
22 48 43
22 47 43
22 47 43
22 48 43
22 48 44
21 46 42
21 46 42
21 47 43
22 49 44
22 47 43
22 48 43
21 47 42
21 47 43
22 48 43
21 46 42
21 47 42
21 47 43
44 58 52
186 167 151
239 212 193
243 217 197
241 168 150
236 94 75
220 74 53
146 60 48
26 47 42
22 48 43
22 48 44
22 48 44
22 48 44
22 48 44
22 48 44
22 48 43
22 48 44
22 48 44
22 47 43
22 48 43
21 47 43
22 48 43
22 48 43
22 48 43
22 49 44
21 47 43
22 49 44
22 48 44
22 49 45
22 47 43
22 48 44
22 47 43
22 47 43
22 48 43
22 48 44
22 49 44
22 48 44
23 49 45
22 48 44
22 47 43
60 68 61
210 186 168
160 142 129
40 42 46
54 54 54
156 146 126
76 73 68
130 116 107
233 205 184
211 186 168
165 148 134
22 48 44
22 48 44
22 49 44
22 48 44
22 48 44
22 49 45
22 48 43
21 47 42
21 47 43
22 48 44
22 47 43
22 48 43
22 48 44
21 47 42
22 47 43
22 47 43
23 50 45
22 49 44
22 48 44
22 48 43
22 48 44
22 49 44
21 47 43
21 46 42
22 47 43
21 46 42
22 49 44
22 48 44
21 47 43
22 49 44
22 49 44
22 48 43
22 49 44
22 48 43
22 47 43
22 48 43
22 49 45
22 48 43
22 48 44
22 48 43
21 47 43
22 47 43
22 48 44
22 47 43
21 47 43
22 47 43
22 48 43
22 47 43
22 47 43
22 48 43
21 47 43
21 46 42
21 47 43
21 47 42
22 48 43
22 48 43
22 48 44
23 50 45
22 48 44
21 47 43
21 47 42
21 47 43
22 48 44
21 47 43
22 48 44
21 47 43
21 47 43
21 47 43
30 49 44
202 179 160
245 216 195
249 214 193
249 138 120
245 81 58
240 79 57
234 77 55
222 74 53
147 58 45
21 45 41
22 49 44
22 49 44
23 50 45
22 48 44
22 49 44
22 48 44
22 47 43
23 49 45
22 49 44
22 48 43
22 48 44
22 49 45
22 49 44
22 48 43
22 48 44
22 49 44
22 48 44
22 48 43
22 48 43
22 48 43
22 48 44
22 47 43
22 49 44
22 48 43
23 50 45
22 49 44
22 48 43
22 48 43
22 49 44
22 48 43
95 93 84
199 175 157
153 137 124
38 40 43
40 42 45
54 54 53
41 43 45
123 109 100
219 191 171
207 181 162
164 146 132
22 48 44
22 49 44
22 49 44
22 49 44
22 49 44
22 49 44
22 48 43
21 47 42
22 48 44
22 48 44
23 49 45
22 49 44
22 48 43
22 48 44
22 49 44
22 48 44
22 49 44
22 48 44
22 48 44
22 48 44
79 58 47
32 51 45
22 47 43
22 49 45
22 49 44
22 49 44
22 49 44
22 49 44
22 48 43
22 49 44
22 49 45
22 48 44
22 48 44
22 47 43
22 49 44
21 47 43
22 48 44
22 48 44
21 47 43
22 49 44
22 48 43
22 49 44
22 48 44
21 46 42
22 48 43
22 48 44
21 47 43
22 49 44
22 49 44
22 48 44
22 48 43
22 48 43
21 47 42
22 47 43
21 47 43
22 47 43
22 48 44
22 48 43
22 48 44
22 48 43
22 47 43
21 47 43
21 47 43
22 47 43
21 47 42
22 49 45
22 47 43
21 47 43
139 126 113
233 204 183
244 200 179
252 114 93
255 124 97
253 96 72
241 79 56
234 77 55
225 74 53
204 68 48
101 52 43
22 48 44
22 48 44
22 48 43
22 48 43
23 50 45
22 48 44
21 47 43
22 49 44
22 47 43
22 48 43
22 49 45
22 48 43
22 48 44
22 49 44
22 48 44
23 50 45
22 48 43
22 48 44
22 48 44
22 47 43
22 48 44
22 49 44
22 48 44
22 48 43
22 49 44
23 50 45
22 49 45
22 49 44
22 48 43
22 48 43
93 90 81
179 158 141
138 122 111
34 36 38
36 38 41
36 38 40
35 37 40
108 95 86
197 170 151
182 160 143
146 128 114
28 51 46
22 48 43
22 48 43
22 49 44
22 49 44
22 49 45
22 48 43
22 49 44
22 49 44
23 50 45
21 47 43
22 49 44
22 49 44
23 49 45
23 50 45
21 47 42
22 47 43
110 67 49
213 105 65
255 123 73
255 126 74
254 132 88
207 150 128
115 109 99
22 47 43
22 49 44
22 48 43
22 48 44
22 48 43
22 48 44
22 48 43
21 47 43
22 48 43
22 49 45
22 48 43
22 47 43
22 47 43
22 48 43
22 48 43
22 48 43
22 49 45
22 49 45
23 50 45
22 48 44
22 48 43
22 48 43
22 49 44
22 48 43
21 47 42
22 48 44
22 48 44
22 48 43
21 47 42
22 48 43
22 48 43
21 47 42
21 46 42
21 47 43
22 48 44
22 48 44
21 47 43
21 46 42
21 47 42
22 48 43
21 46 42
21 47 43
22 47 43
22 48 44
186 164 146
227 183 162
242 97 76
248 86 62
255 144 115
251 97 73
239 78 55
232 76 54
218 72 51
197 65 46
129 69 60
22 47 43
22 49 44
22 48 44
21 47 42
22 48 43
22 48 43
22 49 44
22 48 44
22 48 43
22 48 43
22 49 44
22 48 44
22 49 44
22 49 44
22 47 43
22 48 44
21 47 42
21 47 42
22 49 44
22 49 44
22 49 44
22 48 44
22 49 44
23 50 46
22 48 44
22 49 44
22 47 43
22 49 44
22 48 44
22 48 43
70 74 67
151 135 120
128 113 101
30 32 34
31 33 35
32 33 35
31 33 35
77 69 63
173 151 134
144 127 112
99 92 82
25 50 45
22 47 43
21 46 42
22 48 43
22 47 43
23 50 45
22 48 43
22 48 44
22 48 43
22 47 43
22 49 45
22 49 44
22 49 44
22 49 45
22 49 44
22 48 43
139 77 53
255 122 71
255 127 75
255 128 75
255 127 75
255 126 74
255 125 76
233 185 164
130 121 110
22 48 44
22 48 43
22 49 44
22 48 43
22 48 43
22 48 43
22 48 43
22 49 45
22 49 44
21 47 43
22 48 44
22 48 44
22 48 43
22 49 44
22 48 44
22 47 43
23 50 45
22 49 45
22 49 44
23 50 45
21 47 43
21 47 43
22 48 44
22 49 44
22 48 44
22 48 44
22 48 44
22 49 44
22 47 43
21 46 42
22 48 43
22 48 44
22 47 43
22 48 43
22 47 43
22 47 43
22 48 44
21 46 42
21 47 42
22 48 43
21 47 42
21 47 42
22 48 44
180 149 132
214 90 71
228 74 51
229 74 52
232 76 53
227 74 52
225 74 52
218 71 50
203 79 61
178 132 118
134 123 114
22 48 44
22 48 44
22 48 44
22 48 43
22 48 44
22 49 44
22 49 45
22 49 45
22 48 44
22 49 44
22 49 44
22 49 44
22 49 44
22 49 45
22 49 44
22 48 44
22 49 44
22 48 44
22 48 44
22 48 44
22 49 45
22 49 44
22 49 44
22 49 44
22 48 44
22 47 43
22 49 44
22 47 43
22 49 44
22 48 43
25 49 44
91 85 75
106 94 84
25 26 28
26 27 29
25 26 28
26 28 29
50 46 42
124 108 94
99 87 76
59 58 52
21 45 41
21 46 42
22 47 43
22 48 43
22 48 43
22 49 44
22 48 43
22 48 44
22 48 43
22 48 44
22 48 43
22 48 44
22 48 44
22 48 43
22 48 43
71 75 67
228 184 161
255 156 120
255 127 75
255 134 83
255 138 88
255 126 74
255 123 73
250 135 95
211 185 168
85 85 78
21 47 42
22 49 45
21 47 43
22 48 43
22 48 44
22 48 43
22 48 44
22 48 44
22 49 44
21 47 43
22 48 43
22 48 43
22 47 43
22 48 43
22 49 44
22 48 44
22 48 44
22 48 44
22 49 44
22 48 44
21 47 43
22 49 44
21 47 43
21 47 43
22 49 44
22 48 43
22 49 45
22 48 44
22 48 43
22 49 44
22 48 44
22 49 44
22 47 43
22 47 43
22 48 43
22 47 43
22 48 43
22 48 43
22 48 43
22 48 43
22 48 43
21 47 42
158 82 68
188 61 41
203 65 45
211 68 47
212 69 48
209 68 47
204 66 46
192 87 71
179 146 131
156 141 128
123 114 106
22 47 43
22 48 44
22 49 44
23 50 45
23 50 45
22 48 43
23 50 45
22 48 43
22 47 43
23 50 45
22 48 44
22 49 44
21 47 43
22 49 45
22 48 43
22 47 43
22 47 43
22 48 43
22 49 44
22 49 44
22 48 43
22 48 44
23 49 45
22 48 44
22 47 43
22 49 44
22 47 42
22 48 43
22 48 43
21 46 41
21 45 41
47 53 47
73 68 59
16 17 18
17 18 18
19 21 21
16 17 17
14 15 15
54 50 40
42 44 36
15 33 31
18 41 37
21 45 40
21 46 41
22 48 43
22 47 42
22 48 43
22 49 44
23 49 45
22 47 42
22 48 43
22 49 44
21 47 42
23 50 45
22 48 43
21 47 42
160 144 130
221 195 175
240 210 189
255 163 129
255 160 111
255 173 124
255 125 74
255 122 72
248 118 69
220 150 125
149 134 122
22 47 43
22 48 43
22 48 44
22 48 44
22 48 44
22 49 44
22 49 44
22 49 45
22 48 44
22 48 44
22 48 43
22 49 44
22 49 44
22 49 44
21 47 43
22 48 44
22 48 44
22 49 44
22 48 43
22 49 44
22 49 44
22 48 44
22 48 44
21 46 42
21 47 43
23 49 45
22 48 44
22 48 43
22 48 44
22 48 43
23 50 45
22 48 43
22 48 43
22 48 43
21 46 42
22 47 43
22 47 43
22 47 43
21 47 42
21 47 42
21 47 42
21 47 42
97 43 34
165 53 36
181 58 39
181 58 40
187 60 41
187 61 42
176 91 76
166 143 128
152 136 123
127 117 106
91 88 81
22 48 44
22 49 44
23 49 45
22 48 44
22 49 45
22 47 43
21 47 43
22 48 43
22 48 43
22 47 43
22 49 44
22 48 43
22 47 43
23 49 45
23 50 45
22 49 44
22 49 44
22 48 43
22 47 43
22 48 44
22 47 43
23 49 45
22 48 43
22 47 43
22 48 44
22 48 43
22 48 43
21 47 42
22 48 43
22 47 42
20 44 40
15 34 32
28 35 30
14 16 13
8 9 8
8 9 8
7 9 8
9 10 9
28 29 22
20 30 27
13 30 28
18 39 35
21 45 40
21 45 41
22 47 42
22 47 42
22 48 43
22 49 44
22 48 43
22 47 43
22 48 44
22 48 44
22 49 44
22 49 44
22 48 43
22 48 44
179 159 142
214 189 169
229 201 180
233 200 178
252 135 93
255 124 74
252 119 70
244 116 68
234 111 65
217 115 78
163 146 132
30 52 47
21 47 42
23 49 44
22 48 43
22 48 43
22 49 44
22 49 44
23 49 45
23 50 45
22 49 44
23 50 45
21 47 43
22 49 44
21 47 42
22 49 44
22 47 43
22 48 43
23 50 45
22 48 44
22 48 44
22 49 44
22 48 43
22 49 45
22 48 43
22 48 43
22 49 44
22 48 43
22 48 44
22 48 43
22 49 44
22 48 43
23 49 45
22 49 44
22 48 43
22 47 43
22 47 43
21 46 42
21 46 42
22 48 43
21 46 42
22 47 42
21 46 42
47 43 38
111 37 25
132 42 28
148 47 31
155 50 34
152 82 68
138 121 107
119 107 94
99 92 82
87 82 75
37 46 42
23 49 45
22 49 44
22 49 44
22 49 44
23 50 45
23 50 45
22 48 44
22 49 45
22 48 44
22 49 44
23 49 45
22 49 44
23 50 45
23 50 46
22 49 44
23 50 45
22 48 43
22 49 44
22 48 43
23 50 45
22 49 44
23 50 45
22 48 43
22 48 43
22 48 44
22 49 44
22 48 43
22 48 44
22 47 42
21 46 41
20 44 39
18 38 34
14 30 28
9 21 19
6 14 13
5 10 9
5 10 9
6 15 14
9 21 19
14 31 28
18 40 35
21 45 40
22 47 42
22 47 42
21 47 42
22 48 43
22 48 44
22 49 44
22 48 44
22 48 44
22 48 44
22 48 44
22 48 43
22 48 44
22 49 44
21 47 42
167 148 131
198 174 156
212 187 167
214 188 168
227 173 149
233 110 63
238 114 69
189 123 98
168 144 129
163 111 91
145 115 101
30 51 46
22 48 43
22 49 44
21 47 42
22 48 43
22 49 44
23 49 45
22 49 44
22 49 44
22 49 44
22 48 43
22 49 44
23 50 45
22 48 44
22 48 44
22 49 45
22 49 44
21 46 42
22 49 44
22 49 45
22 48 43
22 49 44
22 49 44
22 49 44
22 48 44
21 47 43
21 46 42
22 48 44
22 48 43
22 48 44
22 49 44
22 48 43
22 48 43
22 47 43
22 48 44
22 47 42
21 47 42
21 46 42
21 47 42
21 46 42
21 46 41
20 44 39
21 45 40
35 30 26
72 24 16
84 28 18
88 43 31
93 81 68
79 73 62
70 67 58
62 62 54
39 44 39
14 32 30
23 49 45
22 49 44
22 49 45
22 49 44
23 49 45
22 48 44
22 48 43
23 50 45
22 49 44
22 48 44
22 49 44
22 48 44
22 48 43
22 48 43
22 48 44
23 50 45
23 49 45
22 49 44
22 48 44
22 48 43
22 49 44
23 51 46
22 48 43
22 48 44
23 49 44
22 48 44
22 48 43
22 48 43
22 48 43
21 46 41
21 46 41
21 45 40
21 45 40
19 41 36
18 39 34
16 36 32
17 36 32
18 38 34
19 41 37
21 44 39
21 46 41
22 48 43
22 47 42
21 47 42
22 49 44
22 48 43
22 48 43
22 47 42
22 49 44
22 48 43
21 46 42
22 49 44
21 46 42
22 47 43
22 49 44
23 49 44
132 119 105
165 145 128
182 160 141
188 165 146
195 169 149
214 120 86
189 113 86
171 151 135
163 145 130
130 116 104
115 77 63
28 49 45
22 48 44
22 49 44
21 47 42
22 47 43
22 49 44
22 48 43
22 48 43
22 49 44
22 48 44
22 48 44
22 49 44
22 48 44
22 48 43
22 49 44
22 48 43
22 48 43
22 48 43
22 49 44
22 49 44
22 48 44
22 48 43
22 49 44
22 49 44
22 49 44
22 48 44
22 47 43
22 49 44
22 48 43
21 47 42
22 47 43
22 49 44
22 49 44
22 49 44
22 47 43
22 48 43
21 46 42
22 47 42
22 47 42
21 45 41
21 45 40
20 43 38
20 42 37
16 35 31
23 21 19
35 18 12
40 40 29
39 40 29
31 36 26
30 35 26
14 27 23
12 28 26
13 30 28
22 48 43
22 48 44
22 49 44
22 48 43
22 49 44
22 48 43
23 50 45
22 49 44
22 49 44
22 48 44
23 50 45
22 49 44
22 49 44
23 50 46
23 49 45
23 50 45
22 49 44
23 50 45
22 48 43
22 49 44
23 50 45
22 48 43
22 49 44
22 49 44
22 47 43
22 48 44
23 49 44
22 48 43
22 48 44
22 48 43
22 47 42
20 44 39
22 47 42
21 46 41
21 45 40
21 45 40
21 46 41
22 47 42
21 46 42
22 48 43
22 47 42
22 47 42
22 49 44
22 48 43
22 48 44
22 48 43
22 48 43
22 48 44
21 46 42
22 48 43
22 48 43
22 48 44
22 47 43
22 49 44
22 47 42
22 48 43
85 84 75
137 122 108
149 132 115
164 144 128
161 142 125
166 119 99
143 103 86
120 106 94
86 78 70
101 89 80
80 59 49
21 45 41
22 48 44
22 48 44
21 46 42
22 48 43
22 48 44
22 49 44
22 48 43
22 48 44
22 48 44
22 48 44
22 48 44
22 49 45
22 49 44
22 48 43
22 48 44
23 50 46
22 48 43
22 48 44
23 49 45
22 49 44
22 49 44
22 48 44
23 49 45
22 48 44
22 48 44
22 49 44
23 50 45
22 48 44
22 49 44
22 48 44
22 48 43
22 48 44
22 47 43
22 47 43
22 48 44
23 49 44
22 47 43
22 47 42
22 47 42
21 45 40
20 44 39
21 44 39
21 44 39
18 38 33
15 32 28
11 24 21
11 21 18
9 20 18
10 23 21
11 25 23
14 31 29
16 35 32
23 50 45
23 50 45
23 50 45
22 48 43
22 49 44
22 48 44
22 49 44
23 50 45
22 48 43
22 48 43
22 49 44
22 49 44
22 49 44
22 49 44
22 49 44
23 50 45
23 50 45
22 49 45
22 48 44
22 48 43
22 49 44
22 49 44
22 49 44
22 48 43
22 48 44
23 49 44
23 49 45
22 49 44
22 48 43
22 47 43
22 48 43
21 47 42
22 48 44
23 49 44
21 47 42
21 46 42
22 48 43
22 48 43
21 45 41
21 46 42
22 48 43
21 47 42
22 48 43
23 49 44
22 48 44
22 47 42
22 47 43
23 49 45
22 48 43
23 49 45
22 48 43
22 49 44
22 48 43
22 48 43
22 48 43
21 46 42
37 51 46
83 77 67
108 98 86
118 105 91
120 106 92
126 104 88
116 69 51
92 84 75
81 73 64
62 42 31
32 35 31
18 40 36
21 45 41
21 47 42
22 49 44
22 48 43
22 48 43
23 49 45
22 49 44
22 49 44
22 49 45
22 49 44
22 49 44
23 49 45
22 48 44
22 49 44
22 48 44
23 50 45
22 49 45
22 49 44
22 49 44
22 48 43
22 48 43
22 48 43
22 48 44
22 48 43
22 48 44
22 48 43
22 49 44
22 48 44
22 47 43
22 48 43
22 49 45
22 47 43
22 48 43
23 49 45
21 47 43
22 48 44
22 48 44
22 46 42
21 46 41
21 46 41
21 45 41
21 46 41
21 44 40
21 45 40
20 43 38
21 45 40
20 42 37
19 42 37
19 41 37
20 43 39
20 44 39
20 43 39
23 49 45
22 48 44
22 49 44
22 48 44
22 49 44
23 50 45
22 48 44
22 48 44
23 49 45
22 48 44
23 51 46
23 50 45
23 50 45
22 49 44
22 48 43
23 49 45
22 49 44
23 50 45
22 49 44
22 49 44
23 49 45
22 49 44
22 49 44
23 50 45
23 49 45
22 49 44
22 49 44
22 48 44
22 48 43
22 49 44
21 47 42
22 48 44
22 48 43
22 49 44
22 48 44
22 48 43
22 48 43
23 49 44
23 49 45
22 48 43
23 49 44
23 49 45
22 49 44
23 50 45
23 49 44
22 49 44
23 49 45
23 50 45
22 48 44
22 49 44
22 47 42
22 48 43
22 49 44
22 47 42
22 47 43
21 46 41
19 41 37
34 42 38
42 45 34
60 58 46
58 57 46
59 55 44
58 31 16
62 38 25
49 30 18
33 29 24
13 29 28
16 35 33
19 42 38
21 46 41
21 46 42
21 46 42
22 48 43
22 49 44
22 48 44
22 48 43
22 48 43
22 49 44
22 49 44
22 48 44
22 48 44
22 47 43
22 48 43
22 47 43
22 48 44
22 49 44
23 49 45
22 49 45
22 49 44
22 48 44
22 48 43
22 48 44
22 48 44
22 49 44
22 48 44
22 48 43
21 47 42
22 47 43
23 49 45
22 49 44
22 48 43
22 49 44
22 47 43
21 47 42
22 49 44
22 49 44
22 48 43
21 45 41
22 48 43
22 47 43
21 46 41
22 47 42
21 46 41
21 46 41
22 47 42
21 45 40
21 45 40
21 46 42
21 45 41
21 46 41
22 48 44
23 50 45
22 48 43
23 49 45
22 48 44
22 49 44
22 49 44
23 50 45
23 49 45
22 49 44
22 49 44
23 50 45
22 49 44
22 48 44
23 49 45
22 48 43
22 49 44
23 50 45
23 50 45
22 48 44
22 48 44
23 50 45
22 49 44
23 49 45
23 50 45
23 49 45
23 49 44
23 49 44
23 49 44
23 50 45
22 48 43
22 49 44
22 48 44
22 49 44
22 48 44
23 50 45
22 49 44
23 50 45
23 50 45
22 49 44
23 49 45
22 48 44
23 50 45
23 50 45
22 48 44
22 47 43
22 48 43
22 48 43
23 49 44
22 48 44
22 48 43
22 48 43
22 48 43
22 48 43
21 46 41
21 45 40
20 42 37
13 30 27
15 23 20
29 32 24
40 40 29
40 37 26
34 20 9
24 17 11
10 19 17
11 24 23
13 29 27
17 39 35
20 44 40
22 47 42
22 47 43
22 48 44
22 48 43
22 49 44
22 47 42
22 48 43
22 49 44
23 49 45
22 48 44
22 48 43
22 48 44
22 48 44
23 50 45
21 47 42
22 49 44
22 49 44
22 48 44
22 48 44
22 49 44
22 48 44
22 49 45
23 50 45
22 49 44
23 50 45
22 48 44
22 47 43
22 48 43
22 48 44
22 48 44
22 48 44
22 48 43
22 48 43
22 49 44
22 49 44
22 49 44
22 48 43
22 48 43
22 49 44
21 46 42
22 47 43
22 48 43
22 48 44
22 47 42
21 46 42
21 46 41
21 46 42
22 48 43
22 47 43
22 47 42
22 48 43
22 48 43
23 50 45
22 48 44
23 49 45
22 49 44
23 49 45
22 48 43
22 49 44
22 48 43
23 49 45
23 49 45
22 49 44
22 49 44
23 50 46
22 49 44
22 49 44
23 49 44
23 50 45
23 50 45
23 50 45
23 50 45
22 49 44
23 50 46
22 49 45
22 48 44
22 49 44
23 50 45
22 48 44
22 49 44
23 49 45
23 49 44
23 50 45
22 48 43
22 49 44
23 50 45
22 48 44
22 49 44
22 48 44
23 50 45
23 49 45
23 49 45
23 50 45
22 48 44
23 49 45
22 49 44
23 49 44
22 47 42
22 48 43
22 49 44
23 49 44
22 48 44
22 48 43
22 49 44
22 47 42
22 48 43
21 46 41
21 46 41
20 42 37
17 36 32
13 28 25
11 24 22
9 19 18
10 22 20
12 26 24
13 28 26
16 34 31
20 43 39
21 44 39
22 48 43
22 47 42
22 48 44
22 48 43
22 48 44
21 47 42
22 48 44
22 48 44
22 47 43
22 47 43
22 49 44
22 49 44
22 49 44
22 48 43
23 50 45
22 49 44
22 49 44
23 49 45
22 48 43
22 48 43
23 50 45
23 49 45
22 49 45
22 48 44
23 50 45
22 49 45
22 49 44
22 49 44
22 49 44
22 48 44
22 48 43
22 48 44
22 49 44
22 49 44
22 48 43
22 47 43
22 48 43
22 49 45
22 47 43
22 48 43
22 48 43
21 47 42
22 48 43
21 46 42
21 47 42
22 48 43
23 49 44
22 48 43
21 47 43
22 48 43
22 47 43
22 48 43
22 48 44
23 50 45
22 49 45
22 49 44
22 49 45
23 50 46
23 50 45
23 49 45
22 48 44
23 50 46
22 49 44
23 50 45
23 50 45
23 51 46
23 49 45
22 49 44
22 49 44
22 49 44
23 49 45
22 48 43
22 49 44
23 49 44
23 50 45
22 48 43
23 50 45
22 48 43
22 48 43
23 49 44
22 49 44
22 49 44
22 48 43
23 50 45
22 49 44
22 49 44
23 49 45
22 48 44
23 50 45
22 48 43
22 48 44
23 49 45
22 48 43
23 50 45
22 48 43
23 49 44
22 49 44
23 50 45
22 49 44
22 49 44
22 49 44
22 48 43
22 48 43
22 47 42
23 49 44
22 47 43
23 49 44
21 46 41
21 46 41
21 46 41
21 45 39
21 45 40
20 42 37
20 43 38
20 43 38
20 43 38
21 45 40
21 46 41
21 44 39
22 48 43
22 48 43
22 48 43
22 47 43
22 49 44
22 47 43
23 49 45
22 48 43
22 49 44
23 50 45
22 48 44
22 48 43
22 48 43
23 50 45
22 48 43
23 49 44
22 49 44
22 49 44
22 49 44
22 49 45
22 48 44
22 48 44
22 49 44
23 49 45
23 49 45
22 48 43
22 48 43
23 49 44
22 49 44
22 49 45
23 49 45
21 47 43
22 48 44
22 48 44
22 48 43
22 47 43
22 48 43
22 48 43
22 49 44
23 50 45
22 48 44
22 49 44
22 47 43
22 49 44
22 47 43
22 49 44
22 48 43
22 48 44
22 48 43
22 49 44
22 48 43
22 48 43
22 48 44
23 49 45
22 49 44
22 49 44
22 49 44
23 50 45
23 49 44
22 49 44
22 48 44
22 49 44
23 50 45
22 49 44
22 48 44
23 50 45
23 50 45
23 50 45
22 49 44
22 49 44
23 49 45
23 50 45
22 48 43
23 51 46
23 50 45
22 49 44
22 49 44
23 50 45
23 50 45
23 50 45
22 49 44
22 49 44
23 50 45
23 49 45
23 50 45
22 49 44
23 49 45
22 49 44
22 49 44
23 49 45
23 49 44
22 49 44
23 51 46
23 49 45
23 50 45
22 49 44
23 50 45
23 50 45
22 48 43
22 48 44
22 49 44
23 50 45
23 51 46
23 51 46
22 48 43
22 48 43
22 48 44
22 49 44
22 48 43
22 48 43
21 46 41
22 46 41
22 49 43
22 47 42
22 47 42
21 46 41
21 46 41
21 46 41
21 46 42
22 47 42
22 49 44
22 48 43
22 48 43
22 49 44
22 49 44
22 48 43
22 49 44
22 49 44
23 49 45
23 50 45
22 49 44
23 49 45
22 48 43
22 48 43
22 49 44
22 48 43
23 49 44
23 50 45
23 50 45
22 48 44
22 48 43
22 49 44
22 49 44
22 49 44
22 49 44
23 50 45
22 49 45
22 47 43
23 49 45
23 50 45
22 49 45
22 48 44
23 49 45
22 48 44
22 48 43
22 48 44
22 48 43
22 48 43
22 48 44
22 48 44
23 49 44
22 49 44
22 48 43
22 48 44
22 49 44
22 48 44
22 47 43
22 48 44
22 48 43
22 48 44
22 48 44
22 49 45
22 48 43
23 50 45
23 50 45
22 49 44
22 49 44
23 50 45
22 49 44
22 48 44
22 49 44
23 49 45
22 48 44
22 48 43
23 49 44
22 48 44
23 49 45
23 50 45
22 49 44
22 49 44
23 50 45
22 49 44
23 50 45
23 49 44
22 49 44
23 49 44
22 49 44
22 49 44
23 50 45
22 48 44
22 49 44
23 50 45
23 49 45
23 49 44
23 50 45
23 49 45
22 48 43
22 49 44
22 49 44
23 50 45
22 49 44
22 49 44
22 49 44
23 49 45
23 49 44
23 50 45
22 49 44
22 49 44
23 50 46
23 49 45
23 50 45
23 50 45
22 49 44
23 49 45
22 48 44
23 50 45
22 49 44
22 47 43
22 48 43
22 48 43
22 47 42
22 48 43
23 49 44
21 46 41
22 47 42
22 47 43
22 47 43
23 49 44
22 47 43
22 48 43
22 48 43
22 49 44
23 49 44
23 49 44
22 48 44
22 48 43
23 50 45
22 48 43
22 48 43
23 50 46
23 49 44
23 51 46
22 48 43
22 49 44
22 49 44
22 48 44
23 50 45
23 49 45
23 50 45
23 51 46
23 49 45
22 49 44
22 47 43
22 48 44
23 49 44
22 49 44
23 49 45
22 48 44
22 48 44
22 48 44
22 48 44
23 50 45
22 47 43
23 50 45
22 48 44
22 48 44
22 48 44
22 48 44
21 47 42
22 49 44
22 48 43
22 48 43
22 48 43
22 48 44
22 47 43
22 49 44
22 48 44
22 48 43
22 49 44
22 49 44
22 47 43
22 48 44
22 49 44
23 51 46
23 51 46
23 50 45
22 49 44
23 49 45
23 50 45
23 50 45
23 50 45
23 49 45
22 49 44
23 50 45
22 48 43
22 49 44
23 50 45
23 50 45
23 50 45
22 49 44
22 49 44
23 50 45
22 49 44
22 49 44
22 49 44
23 50 45
23 51 46
23 49 45
22 49 44
22 49 44
22 49 44
22 48 44
22 48 44
23 51 46
23 50 45
24 53 48
23 50 45
23 50 45
22 49 44
23 49 45
22 49 44
23 49 45
23 50 45
23 50 45
23 50 45
23 50 45
23 51 46
22 49 44
22 48 43
23 49 44
24 52 47
23 50 45
22 49 44
21 47 42
23 49 45
23 49 44
22 48 44
23 50 45
22 49 44
23 49 44
22 48 43
22 49 44
23 50 45
22 48 43
23 50 45
22 48 43
23 49 44
23 49 44
23 50 45
23 49 45
22 49 44
22 48 44
23 50 45
22 47 43
22 49 44
23 50 45
23 50 45
22 49 44
23 49 45
23 50 45
23 50 45
22 49 44
22 48 43
23 49 45
23 50 45
22 49 44
22 48 44
23 50 46
23 50 45
22 49 44
23 49 45
22 49 44
22 49 44
22 48 44
22 49 44
22 48 43
22 48 43
22 48 44
22 48 43
22 48 44
22 49 44
22 49 44
22 49 44
23 50 45
22 49 44
22 48 43
22 48 43
22 48 43
22 49 44
22 49 44
22 48 43
23 49 45
22 49 45
22 49 44
22 49 45
22 48 44
22 49 44
22 48 43
22 49 44
22 48 43
22 49 44
22 48 44
22 48 44
22 49 44
22 49 44
23 50 45
23 51 46
23 50 45
22 49 44
23 49 45
22 49 44
23 50 45
23 50 45
23 49 45
23 50 45
22 49 44
23 50 45
22 49 44
23 50 45
23 50 45
22 49 44
22 48 44
23 50 45
23 49 44
22 48 43
23 50 45
22 49 44
23 50 46
22 49 44
22 49 44
23 50 45
22 49 44
23 49 45
22 49 44
23 49 45
23 50 45
23 50 45
22 49 44
22 49 44
23 49 44
23 49 44
23 50 45
23 49 45
22 48 44
23 50 45
22 49 44
22 48 44
23 49 44
22 49 44
23 50 45
23 50 46
23 50 45
23 50 45
23 50 45
23 50 45
23 50 45
22 48 44
22 48 44
22 48 44
22 49 44
23 49 44
22 49 44
22 48 43
23 50 44
23 50 45
23 50 45
23 49 44
23 50 45
22 49 44
23 50 45
22 48 44
22 48 43
23 50 45
22 49 44
22 48 44
23 50 45
22 49 44
23 50 45
22 48 43
23 49 44
22 49 44
22 49 44
22 49 44
22 49 44
22 49 44
22 49 44
22 49 44
23 49 45
23 50 45
22 49 44
22 48 43
23 49 45
23 50 45
22 48 43
22 49 44
23 49 44
22 48 43
22 48 43
23 50 45
23 49 44
22 49 44
23 50 45
23 50 45
22 48 43
22 49 44
23 50 45
22 48 44
22 48 44
23 50 45
23 49 45
22 49 44
22 48 43
22 49 44
22 48 43
22 47 43
22 48 43
22 48 44
22 49 45
22 47 43
22 47 43
22 49 44
22 49 45
22 48 43
23 50 45
23 50 45
23 50 45
22 49 44
22 49 44
23 50 45
22 49 44
22 48 44
23 49 45
22 49 44
22 49 44
23 49 44
23 51 46
23 50 45
23 50 45
23 50 45
23 49 44
22 49 44
23 50 45
23 50 45
23 49 44
22 49 44
23 50 45
23 51 46
22 49 44
23 50 45
23 51 46
23 50 45
23 50 45
23 50 45
22 49 44
23 50 45
23 49 44
22 49 44
23 50 45
23 51 46
23 50 45
23 50 45
22 49 44
23 49 44
23 51 46
23 49 45
23 50 45
23 50 45
23 49 44
23 50 45
24 51 46
23 50 45
23 51 46
22 49 44
22 48 44
22 48 43
23 50 45
22 49 44
23 50 45
23 49 44
23 49 45
22 49 44
22 49 44
23 49 45
23 49 44
23 49 44
23 49 44
22 49 44
22 49 44
23 49 44
22 48 43
23 49 45
23 49 45
23 50 45
22 49 44
22 49 44
22 49 44
22 47 42
22 49 44
22 49 44
22 48 44
21 47 42
22 49 44
22 48 44
23 50 45
23 50 45
22 49 44
22 49 44
22 49 44
22 48 44
22 49 44
22 49 44
22 49 44
22 49 44
22 49 44
23 50 45
23 49 45
22 48 44
23 50 45
23 50 45
22 47 43
23 50 45
22 49 44
22 49 44
22 49 45
22 48 44
22 48 43
22 48 44
22 49 44
22 48 44
22 48 43
22 48 43
23 49 45
22 48 44
22 49 44
22 49 44
23 50 45
22 49 44
22 48 43
22 48 43
22 48 44
23 49 44
22 49 45
22 48 44
22 49 45
22 49 45
23 49 45
23 50 45
22 49 44
22 49 44
23 50 45
23 49 45
23 49 45
23 50 45
22 49 44
23 50 45
23 50 45
22 49 44
23 50 45
22 49 44
23 50 45
23 50 45
23 50 45
22 48 44
22 49 44
23 50 45
23 50 45
23 51 46
23 49 44
23 50 45
23 50 45
23 51 46
23 50 45
22 49 44
23 50 45
23 50 45
23 49 45
22 48 44
23 50 45
23 50 45
22 49 44
23 50 45
23 49 45
23 50 45
23 50 45
22 47 43
23 49 44
22 49 44
22 49 44
23 49 45
23 51 46
23 50 45
23 49 44
23 50 45
22 49 44
23 51 46
22 49 44
22 49 44
22 47 43
23 50 45
23 50 45
23 50 45
23 50 45
23 49 44
22 49 44
23 49 45
23 50 46
21 47 42
22 48 43
23 50 45
22 49 44
22 48 43
23 49 44
22 49 44
22 49 44
23 50 45
22 49 44
23 49 44
23 50 45
23 50 45
23 50 45
23 50 45
22 48 43
23 49 44
22 49 44
23 50 45
22 49 44
23 51 46
22 48 43
23 50 45
23 50 45
23 50 45
23 49 45
22 49 44
22 49 44
23 50 45
22 49 44
23 50 45
22 49 44
22 48 44
22 49 44
22 48 44
22 49 44
22 49 44
22 48 44
22 48 44
23 50 45
23 50 45
22 49 44
22 48 43
22 48 43
22 49 44
22 49 44
22 48 44
22 48 43
22 48 44
22 47 43
23 49 45
22 48 43
22 48 43
22 47 43
23 50 45
21 47 42
22 49 44
