P3
120 80
255
17 40 38
17 40 37
17 40 37
17 39 37
17 40 38
18 40 38
17 38 36
18 40 38
17 39 37
18 40 37
18 40 38
17 40 37
17 40 38
17 40 37
17 39 37
17 40 37
17 40 37
17 39 37
17 40 37
18 40 37
18 40 37
17 40 38
17 39 37
17 40 37
17 40 37
18 40 38
17 39 37
17 39 37
18 40 38
18 40 38
17 40 37
17 40 37
18 40 38
17 40 37
18 40 38
18 40 38
18 40 38
17 39 37
18 40 37
17 39 37
17 40 37
17 40 37
17 40 37
18 41 38
18 42 39
17 39 37
18 40 38
17 39 37
18 40 38
17 40 37
18 41 38
18 40 38
17 40 37
17 40 37
18 40 38
18 40 38
18 40 37
17 40 37
18 40 38
17 40 37
18 41 38
18 40 37
18 40 37
18 40 37
17 40 37
17 39 37
18 40 37
18 41 38
18 41 38
18 40 38
18 40 37
18 41 38
18 40 38
18 40 38
18 40 37
18 41 38
18 40 37
17 40 37
18 41 38
17 40 37
17 39 37
18 41 38
18 41 38
18 40 38
18 40 38
18 41 38
17 40 37
18 40 38
18 40 38
18 40 38
17 39 37
17 39 37
18 40 38
17 40 37
18 40 38
18 40 37
18 40 38
17 40 37
18 40 37
18 40 37
17 40 37
18 40 38
18 40 38
17 40 37
17 40 37
18 40 37
18 40 38
18 41 38
18 41 38
17 39 37
18 40 37
18 41 38
18 41 38
18 40 38
18 41 38
17 40 37
18 40 38
18 40 37
18 40 38
17 40 37
17 40 37
18 40 38
17 39 37
18 40 37
18 40 37
18 40 38
17 40 37
17 40 37
18 40 38
18 40 38
17 40 37
17 40 37
18 41 38
18 40 38
17 40 37
17 40 37
17 39 37
17 39 37
18 40 37
17 39 36
18 41 38
17 39 37
18 40 38
18 40 38
18 40 37
17 40 37
18 40 38
17 39 37
18 41 38
18 41 38
17 39 37
17 39 37
18 40 37
18 40 38
17 40 37
18 41 38
18 40 38
17 39 37
18 40 38
17 39 37
18 40 38
18 41 38
17 40 37
18 41 39
17 40 37
18 41 38
17 39 36
18 41 38
18 41 38
18 40 37
18 40 38
18 40 38
18 41 38
18 41 39
18 40 37
18 41 38
18 40 38
18 41 38
18 41 38
17 40 37
17 39 37
17 39 37
18 41 38
18 41 38
17 40 37
17 39 37
18 41 38
17 39 37
18 40 38
18 40 37
17 40 37
17 40 37
18 40 38
17 39 37
18 41 38
18 40 37
18 41 38
17 40 37
17 40 37
18 40 37
17 40 37
18 40 38
18 40 38
17 40 37
18 41 38
17 39 37
18 40 38
17 40 37
18 40 38
18 40 37
17 40 37
17 40 37
17 40 37
18 40 38
18 40 38
18 40 38
17 39 37
17 40 37
17 40 37
17 39 37
17 40 37
17 39 36
18 40 37
18 41 39
18 40 38
18 40 38
18 40 37
18 41 39
18 40 38
18 41 38
18 40 38
18 40 38
17 40 37
18 41 39
18 41 38
18 40 38
18 40 38
17 40 37
18 40 37
18 40 38
17 40 37
18 40 38
17 39 37
17 40 37
17 40 37
18 40 38
17 39 37
18 41 39
18 40 38
18 40 37
17 39 37
18 41 39
18 41 38
17 39 36
18 40 38
18 41 38
18 42 39
18 40 38
18 41 38
17 40 37
17 40 37
17 40 37
17 39 37
17 39 36
18 40 38
18 40 38
18 40 38
18 41 38
18 40 38
18 40 38
18 40 37
18 40 38
18 40 38
18 40 38
18 40 38
18 40 38
18 40 38
18 40 37
18 40 38
17 40 37
17 40 37
18 40 38
18 41 38
18 40 38
18 40 38
17 39 36
18 40 38
18 41 38
17 39 37
17 39 37
18 40 37
18 41 38
18 41 38
18 40 38
18 41 38
18 42 39
18 41 38
18 41 38
18 41 38
18 41 38
18 41 38
17 39 36
18 42 39
18 40 38
18 40 38
18 41 38
17 39 37
18 41 38
18 40 38
18 41 38
18 41 38
18 40 38
18 41 38
18 40 38
18 40 38
18 40 38
18 40 38
17 39 37
18 41 38
18 41 38
18 40 38
18 40 38
17 39 37
18 40 38
18 40 38
18 41 39
18 40 37
18 40 38
18 41 38
18 40 37
18 40 38
18 41 38
18 41 39
18 41 38
18 40 38
17 40 37
18 41 38
18 40 38
17 39 37
18 41 38
17 40 37
17 40 37
18 40 38
18 40 38
17 39 37
18 41 38
18 40 38
18 40 38
17 40 37
18 41 39
18 40 38
18 42 39
18 40 38
18 40 38
18 41 39
18 41 38
18 40 38
18 40 37
18 40 38
18 40 38
18 40 37
18 40 38
18 41 38
17 40 37
18 40 38
18 40 38
18 41 38
17 39 37
18 40 37
18 40 38
18 40 38
18 41 38
18 40 37
18 41 38
18 40 38
18 41 38
18 40 37
17 40 37
18 40 38
18 41 38
17 40 37
18 40 38
18 40 38
18 40 38
18 40 37
18 40 37
17 39 37
18 41 38
18 40 37
18 41 38
18 40 38
18 40 38
18 40 38
18 40 37
18 41 38
17 40 37
17 40 37
18 40 38
18 40 38
17 40 37
18 42 39
18 40 38
18 40 37
18 40 38
18 41 38
18 41 39
18 40 38
18 40 38
17 40 37
18 40 38
18 40 37
18 40 38
18 40 38
18 40 38
18 41 38
17 40 37
18 41 38
18 41 38
18 40 38
18 40 38
18 41 38
18 40 37
18 41 38
18 40 38
18 41 38
18 40 37
18 40 38
17 40 37
18 40 38
18 41 38
17 40 37
17 40 37
18 41 38
18 40 38
18 41 38
18 40 38
18 40 38
18 41 38
18 40 38
18 41 39
18 40 38
18 40 37
18 40 38
18 41 38
18 41 39
18 41 38
18 41 38
17 39 37
18 40 38
18 41 38
18 42 39
18 41 39
18 41 38
18 41 38
18 40 38
18 41 38
17 39 36
18 40 37
17 40 37
18 40 38
18 40 38
18 40 38
18 41 38
18 41 39
18 40 38
18 40 38
17 40 37
18 40 38
18 41 38
18 40 37
18 40 38
18 41 39
18 41 38
18 41 38
18 40 37
18 40 38
18 40 37
17 40 37
18 41 38
18 41 38
18 41 38
18 40 38
18 40 37
18 41 38
17 40 37
17 39 36
18 40 38
18 42 39
18 40 38
18 40 38
18 40 38
18 40 37
18 41 38
18 40 38
18 40 38
18 40 38
18 40 37
18 41 38
18 40 37
17 39 37
18 41 38
18 40 38
18 42 39
18 40 38
18 40 37
18 40 38
18 41 38
18 41 38
18 42 39
18 40 37
18 40 37
18 41 38
17 39 37
18 40 37
18 42 39
18 41 39
18 41 38
17 39 36
18 41 39
18 40 38
18 41 38
18 41 39
18 41 38
18 42 39
18 41 38
18 41 39
18 40 38
18 41 38
19 42 39
18 40 38
18 41 38
18 40 38
17 39 37
18 40 38
18 41 39
17 40 37
17 39 37
18 41 38
18 41 38
18 41 39
18 41 38
18 41 38
18 40 38
18 41 38
18 40 38
18 41 38
18 41 38
18 40 38
18 41 38
18 41 38
18 40 37
18 41 38
18 41 38
18 41 38
18 40 38
18 41 38
18 42 39
18 41 38
18 40 38
18 40 38
18 40 37
18 41 38
18 40 37
18 40 38
18 41 38
18 42 39
19 42 39
18 41 38
17 39 37
18 40 37
19 42 39
18 40 38
18 41 38
18 41 38
18 40 37
18 41 39
18 41 38
18 41 38
18 41 39
18 40 37
18 41 38
18 41 38
18 41 38
18 41 39
18 40 37
18 41 38
18 41 38
18 40 38
17 39 36
18 42 39
18 41 39
18 41 38
18 41 38
18 41 38
18 40 38
18 41 38
18 41 38
18 41 38
18 41 39
18 41 38
18 40 38
18 40 37
18 41 38
18 40 37
18 40 38
18 40 38
18 41 38
17 39 36
18 41 39
18 40 38
17 39 37
18 41 38
18 40 38
18 41 38
18 40 37
17 40 37
18 41 38
18 41 38
18 40 37
19 42 40
17 39 37
18 40 38
18 40 38
18 40 37
18 41 38
18 41 38
18 41 38
18 40 37
18 41 38
18 41 38
18 40 38
18 41 38
18 40 37
18 41 38
18 40 37
18 40 37
18 41 38
17 39 37
18 41 38
18 41 38
18 41 38
18 41 38
18 42 39
18 41 39
18 41 38
18 40 38
18 40 37
18 41 38
18 41 38
18 41 38
18 41 38
18 41 38
18 40 38
18 42 39
18 40 37
18 40 38
18 40 38
19 42 39
18 41 38
18 41 38
18 41 38
18 41 38
18 41 38
17 40 37
18 41 38
18 42 39
18 42 39
18 41 38
17 39 37
18 41 38
18 42 39
18 40 38
18 40 38
18 42 39
18 40 38
18 41 38
18 41 38
18 40 38
18 41 38
18 41 38
19 42 39
19 42 39
18 41 38
18 41 39
18 40 38
18 42 39
18 41 38
18 41 38
18 41 38
18 41 38
18 41 38
18 40 38
18 41 38
18 41 38
18 40 37
18 42 39
18 41 39
18 41 38
18 40 37
18 41 38
18 41 38
18 42 39
18 41 38
18 40 38
17 40 37
18 41 38
18 42 39
18 41 38
18 40 38
18 41 38
18 41 39
18 41 39
18 41 38
18 41 39
18 41 38
18 41 38
18 40 37
18 41 38
18 40 38
18 41 39
18 40 38
18 40 37
18 42 39
18 40 38
18 40 38
18 40 38
18 40 38
18 41 38
18 41 38
18 40 38
18 41 38
18 41 39
18 41 38
17 40 37
18 41 39
18 41 39
18 41 38
18 41 38
18 41 39
18 41 38
18 40 38
18 40 37
18 41 38
18 41 38
18 40 38
18 41 39
18 40 37
18 40 38
18 40 38
18 40 38
18 41 38
18 41 39
18 41 38
18 41 38
18 41 38
18 40 38
18 41 38
18 41 38
18 41 38
18 41 38
18 40 38
18 41 39
18 41 38
17 40 37
18 41 38
18 41 38
18 41 38
18 40 38
18 41 38
18 41 38
18 41 38
18 40 37
18 41 38
18 41 38
18 41 38
18 41 39
18 41 38
18 41 38
19 42 40
18 41 38
18 40 38
18 41 38
18 42 39
18 41 38
18 41 38
18 41 38
18 41 38
18 41 38
18 41 38
18 41 38
18 42 39
18 41 39
18 41 38
18 42 39
18 41 38
18 40 38
18 41 38
18 42 39
18 40 38
18 41 38
18 41 38
18 41 38
18 41 38
18 41 38
19 43 40
18 41 38
18 41 38
18 41 38
18 41 39
18 41 38
18 41 38
18 41 38
18 41 39
18 41 38
18 42 39
18 40 38
18 41 39
18 40 38
18 41 38
18 41 38
18 41 38
18 40 38
18 41 38
18 42 39
18 40 38
18 41 38
18 41 38
18 41 39
18 40 38
18 40 38
19 42 39
18 40 38
18 41 39
18 41 38
18 42 39
18 41 38
18 42 39
18 41 38
18 40 38
18 41 38
18 41 39
18 41 38
18 41 38
18 40 38
18 41 38
18 41 38
18 41 38
18 41 38
18 40 37
18 40 38
18 41 38
19 42 39
18 41 38
18 42 39
18 41 39
18 40 38
18 41 38
18 41 38
18 41 38
18 42 39
18 41 38
18 41 39
18 41 38
18 40 38
18 41 38
18 40 38
18 41 38
18 41 38
18 41 38
18 41 39
18 41 38
18 41 39
18 40 38
18 40 37
18 42 39
18 41 39
18 42 39
18 41 38
18 40 37
18 41 39
18 40 37
18 40 38
18 41 38
18 40 38
18 41 38
18 41 38
18 41 38
18 41 39
18 40 38
18 41 38
18 42 39
18 41 38
18 41 38
19 42 39
18 42 39
18 41 38
18 41 38
19 42 40
18 41 39
18 40 38
18 41 38
18 41 38
18 41 38
18 41 38
18 41 38
19 42 39
18 41 39
18 41 38
18 40 38
18 41 38
18 41 39
19 42 39
18 41 38
18 41 38
18 42 39
18 41 38
18 41 38
18 41 38
18 41 38
19 42 39
18 41 38
18 41 38
18 40 38
18 41 38
18 42 39
18 41 39
18 41 38
19 42 39
18 41 38
18 41 38
17 40 37
18 42 39
18 40 38
18 41 38
18 41 39
18 41 38
18 41 38
18 41 39
18 42 39
18 41 39
19 42 39
18 41 38
18 42 39
18 41 38
18 41 38
18 42 39
19 42 39
18 41 38
18 41 38
18 42 39
18 41 38
18 41 38
18 42 39
18 41 38
18 41 38
18 42 39
18 40 37
19 42 39
18 41 38
18 41 38
18 41 38
18 41 38
18 40 37
18 41 39
18 41 39
18 42 39
18 41 39
18 41 38
19 42 40
18 41 38
18 41 39
18 41 38
18 41 38
18 41 38
18 41 38
18 41 38
18 41 38
18 42 39
19 42 39
18 40 37
18 41 38
18 42 39
18 41 38
19 42 39
18 41 38
18 40 38
18 41 38
18 41 38
18 41 39
19 42 39
18 41 38
18 40 37
18 41 38
18 41 39
18 41 39
19 42 39
18 41 39
18 41 39
19 42 39
18 40 37
18 41 39
18 41 38
18 41 38
18 41 38
18 41 38
18 41 38
19 42 39
18 41 38
18 41 39
18 41 38
18 40 38
18 41 39
18 41 38
18 42 39
19 42 39
18 41 38
18 42 39
18 42 39
18 41 38
18 41 39
18 40 37
19 42 39
18 41 39
18 42 39
19 42 39
18 41 38
19 42 39
18 41 39
18 41 38
19 42 39
18 41 39
19 42 39
19 42 39
18 41 38
18 42 39
19 42 39
19 42 39
18 41 38
19 42 39
18 41 38
18 41 38
19 42 39
18 41 38
18 41 38
19 42 39
18 40 38
18 41 38
18 42 39
18 41 38
18 41 38
18 42 39
18 41 39
19 42 39
18 41 38
18 41 38
18 42 39
18 41 38
18 41 38
18 41 38
19 42 39
18 41 39
18 41 38
18 41 38
18 41 39
19 42 39
18 40 37
18 41 39
19 42 39
18 41 39
18 40 38
18 41 38
19 42 39
18 42 39
19 42 39
19 42 39
18 41 38
18 41 38
18 41 38
18 41 39
19 42 39
18 41 39
18 41 39
18 41 38
18 40 38
18 42 39
18 41 39
18 41 38
18 41 38
18 42 39
18 41 38
18 41 38
18 41 38
18 41 38
18 41 38
18 41 38
18 41 39
18 41 39
18 41 38
18 41 38
18 41 38
18 41 38
18 41 39
18 42 39
19 42 39
18 41 38
18 41 38
18 41 39
19 42 40
18 41 38
18 42 39
18 42 39
19 42 39
18 41 38
18 41 39
18 42 39
18 42 39
18 41 38
18 42 39
18 41 38
18 41 39
18 41 38
18 41 39
18 41 38
19 42 39
18 41 38
18 41 38
19 43 40
18 41 38
19 42 39
18 41 38
18 42 39
19 42 39
18 41 38
19 42 39
19 42 39
18 41 38
18 41 38
18 42 39
19 42 39
19 42 40
18 41 38
18 42 39
19 42 40
19 43 40
18 41 38
18 41 38
18 41 38
19 42 39
19 42 39
18 41 38
18 42 39
19 42 39
18 41 39
18 41 39
19 42 39
19 42 39
18 41 38
19 42 40
18 40 38
19 42 39
18 41 38
19 42 39
19 43 40
18 41 39
18 41 38
18 42 39
18 41 38
19 42 39
18 41 38
18 41 39
18 42 39
19 42 39
19 42 39
19 42 39
18 42 39
19 42 39
19 42 39
19 42 39
19 42 39
18 40 38
18 41 38
18 41 38
18 41 38
19 42 39
18 41 38
18 41 39
18 41 39
18 41 38
18 40 38
18 41 38
19 42 39
18 42 39
18 42 39
18 42 39
18 41 38
18 41 38
18 41 38
18 42 39
18 41 38
18 41 38
18 41 38
18 41 38
19 42 39
18 41 39
18 40 37
18 41 39
18 41 38
18 40 38
19 42 39
18 41 39
18 41 38
18 41 39
18 41 39
19 43 40
18 41 39
18 41 39
18 41 38
18 41 38
18 42 39
18 42 39
18 41 39
18 41 38
18 41 39
18 41 38
18 41 39
18 40 38
18 41 38
19 42 39
18 41 38
19 42 39
18 41 38
18 40 38
18 40 38
18 41 38
19 42 39
19 43 40
19 42 39
18 41 39
18 40 37
18 41 38
18 41 38
18 42 39
19 42 39
18 41 38
18 41 38
19 42 39
18 41 39
18 40 37
19 42 39
19 43 40
18 41 38
19 42 39
18 41 38
18 41 39
18 40 37
19 42 39
19 42 39
18 41 38
19 42 39
19 42 39
19 43 40
19 42 39
18 41 38
19 42 39
18 41 38
18 41 38
18 41 38
18 41 39
19 42 39
18 42 39
19 42 39
19 43 40
18 42 39
19 42 39
19 43 40
19 42 39
18 41 38
19 42 39
18 42 39
18 41 38
18 41 38
18 41 38
19 42 39
18 41 39
19 43 40
18 41 38
19 42 39
18 42 39
18 41 38
18 41 38
18 42 39
19 42 40
18 41 38
19 42 39
18 41 38
19 42 39
19 42 39
18 41 38
19 42 39
19 43 40
19 42 39
19 42 39
18 41 38
18 41 38
18 41 39
18 41 39
18 42 39
18 42 39
19 43 40
19 42 39
18 41 38
19 42 39
18 41 38
18 41 39
18 41 38
18 41 38
19 42 39
18 41 38
18 42 39
19 43 40
18 40 38
18 42 39
18 40 38
18 41 38
18 41 39
19 42 39
18 41 38
18 41 38
19 43 40
18 41 39
19 42 39
19 42 39
18 41 38
18 41 38
18 41 38
18 41 39
19 42 39
19 42 39
18 41 39
18 41 39
18 42 39
19 42 39
18 40 38
18 41 38
19 42 39
18 41 38
19 42 39
18 42 39
18 40 37
18 42 39
19 42 39
18 40 38
19 42 39
18 41 38
18 41 38
19 42 39
18 41 38
19 42 39
19 42 39
19 42 39
18 41 39
19 42 39
18 42 39
19 42 39
18 41 38
18 41 38
18 41 38
19 42 39
19 42 39
18 41 38
18 41 38
18 41 39
19 42 39
19 43 40
19 42 39
18 41 38
19 42 39
18 41 38
18 41 38
18 42 39
18 42 39
18 42 39
19 43 40
19 42 39
18 42 39
19 42 39
19 43 40
19 43 40
18 41 38
19 42 39
19 42 39
18 41 39
18 41 38
18 41 39
19 42 39
19 42 39
18 41 38
19 42 39
18 41 38
19 42 39
18 41 38
19 42 40
18 41 38
19 42 39
19 42 39
19 43 40
19 42 39
19 42 39
19 42 39
19 42 39
18 42 39
18 41 38
19 42 39
18 41 38
19 42 40
18 42 39
18 41 39
18 42 39
18 41 38
19 42 39
19 43 40
19 42 39
19 42 39
19 42 39
19 42 39
19 42 39
19 42 39
19 43 40
19 42 39
19 42 39
19 42 39
18 41 38
18 41 39
19 42 39
18 42 39
18 41 38
18 41 38
19 43 40
19 42 40
19 42 39
18 42 39
18 41 38
18 41 38
18 42 39
18 41 38
18 41 39
19 42 39
18 41 38
18 41 39
18 41 39
19 43 40
18 40 38
19 42 39
18 41 38
18 41 38
19 42 39
18 41 38
18 41 39
19 42 39
18 41 38
18 41 38
18 41 39
19 43 40
19 42 39
18 41 38
18 41 38
18 41 38
19 42 39
18 42 39
19 42 39
19 42 39
19 42 39
19 42 39
19 43 40
19 42 39
19 42 39
18 41 38
18 41 38
18 41 38
18 42 39
18 41 38
19 42 39
18 41 38
19 42 39
19 42 39
19 42 39
18 42 39
18 41 38
18 42 39
18 41 38
19 42 39
19 43 40
19 42 39
19 42 39
19 42 39
19 42 39
19 42 39
18 42 39
18 41 38
19 42 39
19 42 40
19 43 40
19 42 39
19 42 39
19 42 39
19 42 39
19 42 39
19 44 41
19 42 39
18 41 39
19 42 39
19 42 39
18 41 38
19 43 40
19 43 40
19 42 39
19 42 39
19 42 39
19 42 39
19 42 39
18 41 38
19 42 39
19 42 39
19 42 39
19 43 40
19 42 39
18 41 38
19 42 39
18 41 39
19 42 39
18 42 39
19 42 39
19 42 39
19 42 39
19 43 40
18 41 39
18 41 38
19 42 39
19 43 40
19 42 39
18 42 39
18 41 38
18 41 38
18 40 38
19 42 39
19 42 39
19 42 39
18 41 38
19 42 39
19 43 40
19 42 39
19 42 39
19 42 39
19 43 40
19 42 39
19 42 39
19 42 39
19 42 39
19 42 39
19 43 40
18 40 38
18 41 39
19 43 40
19 42 39
19 42 39
18 41 39
18 41 38
18 41 38
19 42 39
18 41 38
19 42 39
19 42 39
19 42 39
18 40 38
18 41 38
18 41 38
19 42 39
18 42 39
19 42 39
18 41 38
19 42 39
19 42 39
19 42 39
19 42 39
18 42 39
19 42 39
18 41 39
19 42 39
19 42 39
18 41 38
18 41 38
18 42 39
19 43 40
18 41 39
19 42 39
19 42 39
19 42 39
19 42 39
19 42 39
18 41 38
19 42 39
19 42 39
18 42 39
19 43 40
18 41 38
18 41 38
18 42 39
18 41 38
19 43 39
19 43 39
19 42 39
19 42 39
19 43 40
19 42 39
19 42 39
19 42 39
19 42 39
19 43 40
18 41 38
19 42 39
19 42 39
18 42 39
19 42 39
19 42 39
19 42 39
18 41 38
19 42 39
18 41 38
19 43 40
19 42 39
19 43 40
19 42 39
19 42 39
19 43 40
18 41 39
19 42 39
19 43 40
19 42 39
19 43 40
19 42 39
19 42 39
19 42 39
19 42 39
19 42 39
18 41 38
19 42 39
19 42 39
19 43 40
19 43 40
19 42 39
19 43 40
19 43 39
18 41 38
19 42 39
19 42 39
18 41 39
19 42 39
19 42 39
19 42 39
19 42 39
19 43 40
19 43 39
19 42 39
19 42 39
19 42 39
18 42 39
19 42 39
18 41 38
19 43 40
19 42 39
19 43 40
19 42 39
19 42 39
19 42 39
19 42 39
19 42 39
19 42 39
19 42 39
19 42 39
19 43 40
19 42 39
19 43 40
19 42 39
18 41 39
19 42 39
19 42 39
19 42 39
19 43 40
19 44 41
19 42 39
18 41 38
19 42 39
19 42 39
18 41 38
19 42 39
19 42 39
18 42 39
19 42 39
19 43 40
18 41 39
19 42 39
18 42 39
18 41 39
19 43 40
19 42 39
19 42 39
19 43 40
19 42 39
18 41 38
19 43 40
19 42 39
19 42 39
19 42 39
19 43 40
19 42 39
18 42 39
18 41 38
19 42 39
19 42 39
19 42 39
19 42 39
19 43 40
19 43 40
19 43 40
19 42 39
19 42 39
19 42 39
19 42 39
19 43 40
18 42 39
18 41 38
19 42 39
19 42 39
19 42 39
19 42 39
19 42 39
19 42 39
19 42 39
19 44 41
19 42 39
19 42 39
19 42 39
19 43 40
19 42 39
18 41 38
19 43 39
19 43 40
19 42 39
19 43 40
19 42 39
19 43 40
19 43 40
19 43 40
19 42 39
19 42 39
19 43 40
18 41 38
19 43 40
19 42 39
19 42 39
19 42 39
19 43 40
19 42 39
19 42 39
19 42 39
19 43 40
19 42 39
19 42 39
19 42 39
19 42 39
19 43 40
19 42 39
18 41 38
19 43 40
19 42 39
19 42 39
19 42 39
19 42 39
19 43 40
19 42 39
19 42 39
19 43 40
19 42 39
18 41 38
19 42 39
19 42 39
19 42 39
18 41 38
19 42 39
19 42 39
19 43 40
19 42 39
19 43 40
18 41 38
19 43 40
19 42 39
18 42 39
19 43 40
19 43 39
19 43 40
19 42 39
19 42 39
18 41 38
19 42 39
19 42 39
18 41 38
19 42 39
18 42 39
19 42 39
19 42 39
18 42 39
18 41 38
19 42 39
19 42 39
18 41 38
19 43 40
19 43 40
18 41 38
18 41 38
19 42 39
19 43 40
18 42 39
19 42 39
19 42 39
19 43 40
19 42 39
19 44 40
19 43 40
19 42 39
19 43 40
19 42 39
19 43 40
19 43 40
18 42 39
19 42 39
19 42 39
19 42 39
19 42 39
19 43 40
19 43 40
19 42 39
19 42 39
18 42 38
19 43 39
18 42 39
19 43 40
19 42 39
18 42 39
19 42 39
19 43 40
19 43 40
19 42 39
19 43 40
18 41 38
19 42 39
19 42 39
19 42 39
19 42 39
19 42 39
19 42 39
19 44 40
19 42 39
19 42 39
18 41 39
19 43 40
19 43 40
19 42 39
19 43 40
19 43 40
19 42 39
19 43 40
19 42 39
19 42 39
19 42 39
19 42 39
19 42 39
19 43 40
19 43 40
19 43 40
19 43 40
19 43 40
19 43 39
19 43 40
19 43 40
19 43 40
19 42 39
19 42 39
19 43 40
19 43 40
19 42 39
19 43 40
19 42 39
19 42 39
19 42 39
19 43 39
19 42 39
19 42 39
20 44 41
19 43 40
19 43 40
19 43 40
19 42 39
19 42 39
19 42 39
19 43 39
19 42 39
19 43 40
19 43 40
19 42 39
19 43 40
19 44 41
19 43 40
19 43 40
19 43 40
19 43 40
19 43 40
19 43 40
19 43 40
19 43 40
19 42 39
19 42 39
18 41 38
18 41 38
19 43 40
19 42 39
19 42 39
19 43 40
19 42 39
19 42 39
18 41 38
19 43 40
19 42 39
19 43 40
18 41 38
18 41 38
19 43 40
19 42 39
19 43 40
18 42 39
18 42 39
18 41 38
19 43 40
19 43 40
19 42 39
18 41 38
19 42 39
19 43 39
18 42 39
19 42 39
19 43 40
19 43 40
19 42 39
19 43 40
19 43 40
19 42 39
19 42 39
19 43 39
19 42 39
19 42 39
19 42 39
18 41 38
19 43 40
19 43 40
19 43 39
19 43 40
19 43 40
19 42 39
19 43 39
19 42 39
19 43 39
19 42 39
19 42 39
19 42 39
19 43 39
19 42 39
19 43 40
19 44 41
19 43 40
19 43 39
19 42 39
19 42 39
19 43 40
19 43 40
19 43 40
19 42 39
19 44 40
19 43 39
19 43 40
19 42 39
20 44 40
19 42 39
19 43 40
20 45 41
20 44 40
19 44 40
19 43 40
18 41 38
19 42 39
19 43 40
19 43 40
19 43 40
19 43 40
19 43 40
19 43 40
19 43 40
19 43 40
19 44 40
19 43 40
19 42 39
19 42 39
19 43 40
19 43 40
19 44 40
19 43 40
19 43 40
19 43 39
19 43 40
19 42 39
19 42 39
19 44 40
19 43 39
19 43 40
19 42 39
19 43 40
19 43 40
19 43 40
20 44 41
19 43 40
19 43 40
19 44 40
19 43 40
19 43 40
19 43 40
19 42 39
19 43 40
19 43 40
19 42 39
19 43 40
19 43 40
19 42 39
18 41 38
19 42 39
19 42 39
19 42 39
19 42 39
19 42 39
18 42 39
19 42 39
18 42 39
19 42 39
19 42 39
19 42 39
19 42 39
19 43 40
19 42 39
18 42 39
19 42 39
19 43 40
19 43 39
18 41 38
19 42 39
19 42 39
19 42 39
19 42 39
19 42 39
19 43 40
19 43 40
19 42 39
18 41 38
19 43 40
19 42 39
18 41 38
19 43 40
19 42 39
18 42 39
19 43 40
19 42 39
19 43 40
19 43 40
19 43 40
19 42 39
19 42 39
19 43 40
19 42 39
19 43 40
20 44 41
19 43 39
19 43 40
19 43 40
19 43 40
19 42 39
19 42 39
19 43 40
19 43 40
19 43 40
19 43 40
19 43 40
19 43 40
19 43 40
19 42 39
19 43 40
19 43 40
19 42 39
19 42 39
20 44 41
19 43 39
19 42 39
19 43 40
19 43 40
19 43 40
20 44 41
19 44 40
20 44 40
19 43 40
19 43 40
19 42 39
19 43 40
19 43 40
19 43 40
19 42 39
19 42 39
19 42 39
19 42 39
19 42 39
19 42 39
18 41 38
19 42 39
19 43 39
19 43 40
20 44 41
19 43 40
19 43 40
19 44 40
19 43 40
20 44 41
20 44 41
19 43 39
19 42 39
19 42 39
19 43 40
19 43 39
19 43 40
19 43 40
19 43 40
19 43 40
19 43 39
19 43 40
19 43 40
19 43 40
19 44 40
19 43 40
19 42 39
19 43 40
19 43 40
19 42 39
19 43 40
20 44 41
19 43 40
19 42 39
19 43 40
19 42 39
19 42 39
19 42 39
19 43 40
19 42 39
19 43 40
19 42 39
19 42 39
19 42 39
19 42 39
19 43 40
19 43 39
19 42 39
19 42 39
19 42 39
19 43 39
19 42 39
19 42 39
19 42 39
19 42 39
19 42 39
19 43 39
19 43 40
19 43 40
19 43 40
19 42 39
19 43 40
19 42 39
19 42 39
19 42 39
19 42 39
18 41 38
19 42 39
19 43 40
20 44 41
19 42 39
19 44 41
19 43 39
19 42 39
19 43 39
19 43 40
19 43 39
19 43 40
19 43 40
19 43 40
19 43 40
19 43 39
19 43 40
19 43 40
20 44 41
19 42 39
19 42 39
20 44 41
19 43 39
19 42 39
19 43 40
20 44 41
19 43 40
19 42 39
19 42 39
19 43 40
19 43 40
19 43 40
19 42 39
19 43 39
19 43 40
19 43 40
19 43 40
20 44 40
20 44 41
19 43 40
19 44 41
19 43 40
19 42 39
19 43 40
19 42 39
19 42 39
20 44 40
19 43 40
19 43 40
19 42 39
19 43 40
19 42 39
19 43 40
19 43 40
19 43 40
19 42 39
19 43 40
19 43 40
19 44 40
19 42 39
19 43 40
19 43 40
19 44 40
19 43 40
19 43 40
19 43 40
20 44 41
20 44 41
19 44 40
19 42 39
19 43 40
19 42 39
19 44 40
19 42 39
20 44 41
19 42 39
19 43 39
19 43 39
19 43 40
19 43 40
19 44 40
19 42 39
19 43 39
19 43 39
19 43 40
20 44 40
19 43 40
19 42 39
19 43 39
19 43 40
19 42 39
19 42 39
19 42 39
19 42 39
20 44 41
19 42 39
19 42 39
19 43 40
18 41 38
19 42 39
19 43 40
19 43 40
19 42 39
19 43 40
19 43 40
19 43 40
19 42 39
19 42 39
19 43 40
19 42 39
19 43 40
19 42 39
19 42 39
19 43 40
19 43 40
19 43 40
19 42 39
19 43 40
19 43 40
19 43 40
19 42 39
19 43 40
19 43 39
19 43 40
20 44 41
19 42 39
19 43 40
19 42 39
20 44 41
19 42 39
19 43 40
19 42 39
19 43 40
19 43 39
20 44 41
19 42 39
19 43 40
19 43 40
19 43 40
19 43 39
20 45 42
19 43 40
19 43 40
19 42 39
19 43 40
19 42 39
19 43 40
19 43 40
19 43 40
19 43 39
19 44 40
20 44 41
19 43 40
19 42 39
20 44 41
20 44 41
19 43 40
19 43 39
19 43 40
19 43 40
19 43 40
19 42 39
19 42 39
20 44 41
20 44 40
19 44 40
19 43 39
19 43 40
19 44 40
20 44 41
19 42 39
19 43 39
19 42 39
19 43 39
19 43 40
19 43 40
19 42 39
19 43 40
19 43 39
20 44 41
20 44 40
19 43 40
19 42 39
19 43 40
19 43 40
20 44 40
19 44 40
20 44 40
20 44 40
19 43 40
19 44 40
19 43 39
20 44 40
20 44 41
19 43 40
19 43 40
19 44 40
19 43 40
19 43 40
19 43 40
19 43 40
20 44 41
19 43 40
19 43 40
20 45 41
19 42 39
19 43 40
19 44 40
20 44 40
19 43 40
19 43 40
19 42 39
19 43 40
19 43 39
19 42 39
19 43 40
19 42 39
19 43 40
19 42 39
19 43 40
20 44 41
20 44 41
19 43 40
19 43 40
19 42 39
19 44 40
19 43 40
19 43 40
20 44 41
19 43 40
19 43 40
19 43 40
19 43 40
19 43 40
19 43 40
19 43 40
20 44 40
19 43 40
19 43 39
19 43 40
19 43 40
19 43 40
19 43 39
19 43 40
20 44 41
19 43 39
19 43 40
19 42 39
19 43 40
19 43 39
19 43 40
20 44 41
19 44 40
20 44 41
19 43 40
19 43 40
20 44 40
19 42 39
19 43 40
20 44 41
19 44 40
19 43 39
19 44 40
19 42 39
20 44 41
19 43 39
20 44 41
19 43 40
19 43 39
20 44 41
19 43 40
19 43 40
19 42 39
19 43 40
19 43 40
19 43 40
19 43 40
19 42 39
19 43 40
19 43 40
19 43 40
19 43 40
19 43 40
19 44 40
19 43 39
20 44 40
19 43 40
20 44 40
19 43 40
19 43 40
19 43 40
20 45 41
19 43 40
20 44 41
19 43 40
19 43 40
20 44 41
19 43 40
19 43 39
19 44 40
19 42 39
19 43 40
19 42 39
20 44 41
19 43 40
20 44 40
20 44 40
19 44 40
19 43 39
19 42 39
20 45 41
20 44 41
20 45 41
19 43 40
20 44 41
19 42 39
20 44 41
20 44 40
19 43 40
19 43 40
19 43 40
19 43 40
19 43 40
19 43 40
20 44 40
19 43 39
19 43 40
19 43 39
19 43 40
19 42 39
19 42 39
19 43 40
19 43 40
19 43 40
19 43 40
20 44 40
19 43 40
20 44 41
19 43 40
19 43 40
19 43 40
19 43 40
20 44 41
19 43 39
19 42 39
19 42 39
19 42 39
19 43 40
19 43 40
19 43 40
19 44 40
19 43 40
19 43 40
19 42 39
18 41 38
19 42 39
19 43 40
19 43 40
19 42 39
20 45 41
19 42 39
19 43 40
19 43 40
19 42 39
19 43 39
19 42 39
19 43 40
19 43 40
19 43 40
19 43 39
19 43 40
19 42 39
19 43 40
20 44 40
20 45 41
20 45 41
19 42 39
20 44 41
19 43 40
20 44 41
19 43 40
19 43 40
19 43 40
20 44 40
19 43 39
20 44 41
19 43 39
19 43 40
20 44 41
19 43 40
19 43 40
19 43 40
20 44 40
20 44 41
19 43 40
20 44 41
19 43 40
19 43 40
19 43 40
20 44 40
19 42 39
20 44 41
19 43 40
19 43 40
19 43 40
19 43 40
20 44 41
20 44 41
19 43 40
19 43 40
19 43 40
19 43 40
19 44 40
20 44 41
19 43 40
20 44 40
19 43 39
19 44 40
20 45 41
19 43 40
20 44 41
19 43 39
20 44 41
19 43 40
19 43 40
20 44 41
19 43 40
20 44 41
19 43 40
20 44 40
20 44 41
20 44 41
20 44 40
19 43 40
19 43 40
19 43 40
19 43 40
20 45 41
20 44 40
19 43 40
19 43 40
20 44 40
20 45 41
20 44 41
19 43 40
20 44 41
19 43 40
20 44 41
19 43 40
20 44 41
19 42 39
19 43 40
19 42 39
19 43 40
20 44 41
19 42 39
19 43 40
19 43 40
19 43 39
19 42 39
19 43 40
19 42 39
19 43 40
20 44 40
19 42 39
19 43 40
19 42 39
19 42 39
20 44 41
19 43 40
20 44 41
19 43 39
19 44 40
19 44 40
19 43 40
19 42 39
19 44 40
19 43 40
19 43 40
19 43 40
20 44 41
20 44 41
19 42 39
19 43 40
19 43 39
19 42 39
19 43 40
19 44 40
19 43 40
19 42 39
19 43 39
19 43 39
20 44 40
19 43 40
19 43 40
20 44 41
20 44 41
20 44 41
20 45 42
20 44 40
19 43 40
20 44 40
19 43 40
20 44 40
19 43 40
20 44 41
20 44 41
20 44 41
19 43 39
19 44 40
20 44 40
19 42 39
19 44 40
19 42 39
19 43 39
19 42 39
20 44 40
20 44 40
19 44 40
19 43 40
19 43 40
20 44 40
20 44 40
20 44 41
20 45 41
19 43 40
19 43 40
20 44 40
20 44 40
19 44 40
19 43 40
19 43 39
20 45 41
20 44 40
20 44 41
20 44 41
19 42 39
20 45 41
20 45 41
20 44 41
20 44 41
20 44 40
20 44 41
19 43 39
20 44 41
20 44 40
20 44 41
19 43 40
19 44 40
20 44 40
19 43 40
20 44 41
20 44 40
20 44 41
20 44 40
20 45 41
20 44 41
20 45 41
20 44 40
19 43 40
20 44 41
19 43 40
19 42 39
20 44 41
19 43 40
19 43 40
19 44 40
20 44 41
20 44 40
19 42 39
19 43 40
19 42 39
19 43 39
19 43 39
19 42 39
19 43 40
19 43 39
19 43 40
19 43 39
20 44 40
19 43 40
19 43 40
19 43 40
19 43 40
19 43 39
19 44 40
20 44 41
19 42 39
19 43 40
19 43 40
19 42 39
19 43 39
19 42 39
20 44 41
19 42 39
20 44 41
19 43 40
20 44 41
20 44 40
19 42 39
19 43 40
19 43 40
19 44 40
20 44 40
19 43 40
19 44 40
19 43 40
19 43 40
20 44 41
20 44 40
20 44 40
19 43 39
20 44 41
19 42 39
19 42 39
19 44 40
20 44 41
20 44 41
20 44 40
20 44 40
20 44 40
19 43 40
20 44 41
19 43 40
20 44 41
20 44 41
19 43 40
20 44 40
19 42 39
19 44 40
20 45 41
20 45 41
20 44 40
19 43 40
20 44 40
20 44 40
20 44 40
20 45 41
20 44 41
19 43 40
20 44 40
20 44 41
19 43 40
20 43 40
19 43 40
20 44 41
19 44 40
20 45 41
20 45 41
20 44 40
20 44 40
20 44 40
19 43 40
20 44 40
19 42 39
19 44 40
20 45 41
19 43 40
20 44 41
19 43 40
20 44 41
19 43 40
20 44 40
20 45 41
19 43 39
20 45 41
21 46 42
20 44 40
20 45 41
19 43 40
19 43 40
19 43 40
20 44 41
20 44 41
20 44 40
19 43 39
20 44 40
20 44 41
19 43 40
19 43 40
20 44 40
20 44 41
20 45 41
20 44 41
21 46 42
20 44 40
20 45 41
19 43 39
19 43 40
20 44 41
19 43 40
19 43 40
19 43 39
19 43 39
19 42 39
19 43 39
19 42 39
19 44 40
19 44 40
19 43 40
20 44 41
19 44 40
18 41 38
19 43 40
19 43 40
20 44 41
19 43 40
19 43 40
19 43 40
20 44 41
20 44 41
19 44 40
20 45 41
19 43 40
19 43 40
20 44 40
19 43 40
19 43 40
20 44 41
19 44 40
20 45 41
19 44 40
20 44 41
19 43 40
19 43 40
20 44 41
19 43 40
20 45 41
19 43 40
20 44 40
20 44 41
20 44 41
19 43 40
20 44 40
19 43 40
20 44 40
20 45 42
20 45 41
20 44 40
19 43 39
20 44 40
20 44 40
20 44 40
20 44 40
20 45 41
20 44 41
20 44 41
20 44 41
20 44 41
20 45 41
20 44 41
20 44 41
20 44 41
20 44 41
20 44 40
20 45 41
20 45 41
20 44 40
20 44 41
20 45 41
20 44 40
20 44 41
19 43 40
20 45 41
20 44 41
20 45 42
20 44 40
20 45 42
20 44 40
19 43 40
20 44 41
20 44 41
19 43 40
19 43 40
20 44 41
19 44 40
20 44 40
19 42 39
20 44 40
20 45 41
20 45 41
20 45 41
20 44 40
20 44 41
20 44 40
19 43 40
20 44 40
20 44 41
20 44 40
20 45 41
20 44 40
20 43 40
20 43 40
20 44 41
20 44 40
20 44 41
19 43 40
19 43 40
20 45 41
20 44 41
20 44 41
20 45 41
20 44 41
20 44 41
20 45 41
20 45 41
20 44 41
20 45 41
20 44 40
19 42 39
19 43 40
19 43 40
19 43 39
19 42 39
20 44 40
19 43 40
19 44 40
19 43 40
20 44 41
19 43 40
20 44 40
20 44 41
20 44 41
20 44 40
19 42 39
19 43 40
20 44 41
19 43 40
19 43 40
20 44 41
20 44 41
20 44 40
19 43 40
19 43 39
20 44 41
19 43 40
19 43 40
19 43 40
19 43 39
20 44 40
20 44 41
20 44 41
20 44 40
20 44 40
20 44 40
20 44 40
19 43 40
19 43 40
20 45 41
19 43 40
19 43 40
20 44 41
20 44 41
19 43 39
20 44 40
20 44 41
19 43 40
20 44 41
19 43 40
19 43 40
20 44 40
19 43 40
20 44 41
20 44 40
19 43 39
20 44 41
20 44 40
20 45 41
20 44 41
20 44 41
20 44 40
19 43 39
20 44 41
20 44 41
20 44 41
20 45 42
20 44 40
20 44 41
20 44 41
20 45 41
20 44 40
20 45 42
20 44 40
20 45 41
20 44 41
20 45 41
20 44 41
20 44 40
19 43 40
20 44 40
20 44 41
20 45 41
20 44 41
20 44 41
19 43 40
19 43 40
20 44 41
21 46 42
20 44 40
19 43 40
20 44 40
20 44 41
20 44 41
20 44 41
20 44 40
20 44 41
20 44 41
20 43 40
20 45 41
20 45 41
20 44 41
20 45 41
20 45 41
20 46 42
20 45 41
20 45 41
20 45 41
20 45 41
20 45 41
20 44 40
20 44 40
20 46 42
20 44 40
20 45 41
20 45 42
20 45 41
20 44 40
20 45 41
20 44 40
19 43 40
19 43 40
19 43 40
19 42 39
19 43 39
19 44 40
19 43 40
20 44 41
19 43 40
19 44 40
19 43 40
19 43 40
19 42 39
19 43 39
20 44 40
20 44 40
19 43 40
20 44 41
20 44 40
19 43 40
19 43 40
20 44 40
20 44 41
19 43 40
19 43 40
19 43 40
20 44 40
20 44 40
20 44 41
19 43 40
20 44 40
20 44 40
19 43 40
19 43 40
19 43 40
19 43 40
19 43 40
20 44 41
20 44 40
20 44 40
19 42 39
19 43 40
20 44 40
20 44 41
19 43 39
20 45 41
20 45 41
20 44 40
19 43 40
20 44 41
20 44 40
20 44 40
20 46 42
20 44 41
19 43 40
20 44 40
20 44 41
20 44 41
20 44 41
20 44 40
20 44 41
20 44 40
20 44 41
20 44 41
20 45 41
20 45 41
20 44 40
20 44 40
19 43 40
20 44 40
20 44 40
20 45 41
20 44 40
20 45 41
21 46 42
20 44 40
20 44 41
19 43 40
20 45 42
20 44 41
20 44 40
20 45 41
20 44 41
19 43 40
20 45 41
20 45 41
20 45 41
20 45 41
20 45 41
20 45 41
20 46 42
20 44 41
20 44 40
20 44 41
20 45 41
20 44 41
20 45 41
20 45 41
20 45 41
20 44 41
20 44 41
20 45 41
20 45 41
20 44 41
20 44 40
20 45 41
20 45 41
20 45 41
20 44 40
19 43 39
21 46 42
20 44 40
20 44 41
20 44 41
20 45 41
21 46 42
20 45 41
20 45 41
20 45 41
20 44 41
19 43 40
19 43 40
19 44 40
19 42 39
20 44 41
19 43 39
19 43 40
20 44 40
19 43 40
20 44 41
19 43 40
19 43 40
19 43 40
20 44 41
20 44 40
19 42 39
19 43 40
19 43 40
20 44 41
19 43 40
20 44 41
20 44 41
19 43 39
20 44 40
20 44 41
20 44 41
19 43 40
20 45 41
20 45 41
20 44 41
20 44 41
20 44 41
19 43 40
20 44 40
20 43 40
20 45 41
20 44 41
20 44 41
20 44 41
20 44 41
19 43 39
20 44 41
20 45 41
19 43 40
20 44 40
20 44 40
20 44 41
19 43 40
20 44 40
20 45 41
20 44 41
20 44 41
20 45 41
19 43 40
20 45 41
20 45 42
20 45 42
20 44 41
21 46 42
21 46 42
20 44 41
19 43 40
20 45 41
20 44 41
21 47 43
20 45 41
20 45 41
20 45 41
20 44 41
20 44 40
20 44 41
20 44 41
20 44 41
20 44 41
20 45 41
20 45 41
20 45 41
20 45 41
20 45 41
20 45 41
20 44 41
20 44 41
20 45 41
20 44 40
20 45 41
20 45 41
20 45 42
20 45 41
20 44 41
20 44 41
20 44 41
20 45 41
20 44 41
20 44 40
20 44 40
20 44 40
20 45 41
20 44 41
20 44 41
20 44 41
20 44 41
20 44 41
20 45 41
20 44 40
20 45 41
20 44 40
20 45 41
20 45 41
20 44 41
20 44 40
20 44 40
20 44 40
21 46 42
20 45 41
20 45 41
20 45 41
20 44 41
20 44 40
20 44 41
20 45 41
20 44 40
19 43 40
19 43 40
19 43 40
19 43 40
20 46 42
19 43 40
19 43 40
20 44 40
19 44 40
20 44 41
20 44 40
20 44 40
19 43 40
20 45 41
20 44 41
20 44 40
19 43 39
20 44 41
20 44 40
19 43 40
19 43 40
19 43 40
19 43 40
19 43 40
20 44 41
20 44 40
20 44 40
20 44 41
19 43 39
20 44 40
20 45 41
20 45 42
20 44 41
20 43 40
20 44 40
19 43 40
20 44 41
20 44 41
20 44 40
20 44 40
20 44 40
20 45 41
20 44 40
20 45 42
20 45 41
20 44 40
20 44 41
20 45 41
20 45 41
20 45 41
20 45 41
20 45 41
20 45 41
20 45 41
20 44 41
20 43 40
20 44 40
20 45 41
20 45 41
20 46 42
19 43 39
20 45 41
20 44 41
20 44 41
20 45 41
20 44 41
21 46 42
20 45 41
20 44 40
19 43 40
20 44 41
20 45 41
20 45 41
20 45 41
20 45 41
20 45 41
20 45 41
20 45 41
19 43 40
20 45 41
20 44 41
20 45 41
20 45 41
20 45 41
20 44 41
20 45 41
20 44 41
20 44 40
20 45 41
20 44 41
20 45 41
21 46 42
20 45 41
20 45 41
20 45 41
21 46 42
20 44 41
20 45 42
20 45 41
20 45 41
20 44 40
20 44 41
21 45 42
20 45 41
21 46 42
21 46 42
20 45 41
20 45 41
20 44 41
20 45 41
20 45 41
21 46 42
20 45 42
20 45 41
20 44 41
20 45 41
20 44 41
20 44 40
20 44 40
20 44 41
19 43 40
21 46 42
19 43 40
19 43 40
19 42 39
19 43 40
20 44 40
19 43 40
19 42 39
20 44 40
20 44 41
20 44 40
20 44 40
19 43 40
19 43 40
20 45 41
20 44 41
20 44 41
20 44 40
20 44 40
19 43 40
20 45 41
20 44 41
20 44 41
20 44 41
20 45 42
20 46 42
20 44 40
20 44 40
20 45 41
20 44 41
20 44 41
20 45 41
20 44 40
20 44 41
20 45 41
20 45 41
20 44 41
21 46 42
20 45 42
20 45 41
20 45 41
20 44 40
20 44 41
20 44 40
20 44 41
20 44 40
19 43 40
20 45 41
20 44 41
20 45 41
20 45 41
20 45 41
21 46 42
20 45 41
20 44 41
20 44 40
20 45 41
20 45 41
20 44 40
20 45 42
20 45 41
20 45 41
20 44 41
20 45 41
21 47 43
21 46 42
19 43 40
21 46 43
21 46 42
20 44 41
20 44 40
20 45 41
20 45 41
20 45 41
20 45 41
20 44 40
20 45 41
20 44 41
20 44 41
20 44 41
21 46 42
20 45 42
21 46 42
20 44 40
20 45 41
20 45 41
20 45 41
21 46 42
20 45 41
20 45 41
20 45 41
20 44 40
20 44 41
20 44 40
20 45 41
20 45 41
20 45 41
20 45 41
20 45 41
20 44 41
20 44 41
20 45 41
20 45 42
20 44 41
20 44 40
20 45 41
20 44 41
20 45 41
20 45 41
20 44 41
21 46 42
20 45 42
20 45 42
20 44 41
20 44 41
20 45 41
20 45 42
20 45 42
19 43 40
19 43 40
20 45 41
20 44 40
20 44 40
20 44 41
20 44 40
20 45 41
20 44 40
20 44 40
20 44 40
20 45 41
19 43 40
19 44 40
19 43 40
20 45 41
20 44 41
19 43 40
19 43 40
20 44 41
19 43 39
20 44 40
20 45 42
20 45 42
20 44 40
20 44 41
20 45 41
20 44 41
20 44 41
20 45 41
20 45 41
20 44 41
20 45 42
20 45 42
20 44 41
20 45 42
20 45 41
20 45 41
20 44 40
20 44 41
20 44 41
20 44 41
20 45 41
20 45 42
20 45 41
20 44 40
20 44 40
20 45 41
20 45 41
20 45 41
20 45 41
20 45 41
20 45 41
20 45 42
20 45 42
20 45 42
20 44 40
20 45 41
20 45 41
20 45 41
20 45 41
20 45 41
20 45 41
21 46 42
20 45 41
20 45 42
20 45 42
20 45 41
20 44 41
20 44 40
20 45 41
20 45 41
20 44 41
20 43 40
20 45 41
20 46 42
20 44 41
21 46 42
20 45 41
20 45 41
20 45 41
20 44 41
20 45 41
20 45 41
20 45 42
20 45 41
20 45 42
20 44 41
20 45 41
21 46 42
20 45 41
20 45 42
20 44 40
20 45 41
20 45 41
20 45 41
19 43 40
20 45 41
20 45 41
20 44 41
20 45 41
20 45 41
20 45 41
20 45 41
20 45 41
20 45 42
21 46 43
21 47 43
20 45 41
20 44 41
20 45 41
20 45 41
20 45 41
21 46 42
20 45 41
20 46 42
21 46 42
20 45 41
21 46 42
20 45 42
19 43 39
20 45 41
20 44 40
19 43 40
20 44 41
20 44 41
20 44 41
20 44 41
19 44 40
20 45 41
20 44 40
19 43 40
20 44 40
20 44 41
20 44 41
20 44 41
20 44 41
20 44 41
19 43 40
20 44 40
20 45 41
20 44 41
19 43 40
20 45 41
20 44 40
20 44 41
20 45 41
20 45 41
20 44 41
20 45 41
20 45 41
20 44 41
20 44 41
20 44 41
20 45 41
20 44 40
20 45 42
20 44 40
20 44 41
20 44 40
20 44 41
20 45 42
21 46 42
20 45 41
20 44 41
20 44 41
20 45 41
20 45 41
20 45 41
20 44 41
20 45 42
20 44 41
21 46 42
20 44 40
20 45 41
20 45 42
20 45 42
20 44 41
20 45 41
21 46 42
21 46 42
21 46 43
21 46 42
21 46 42
20 45 41
20 45 41
20 44 41
20 45 42
20 45 41
21 46 42
20 45 41
20 45 41
21 46 42
20 45 41
20 45 42
21 46 42
20 45 41
21 46 42
21 46 42
20 45 41
20 45 41
20 45 41
20 45 41
20 45 41
20 45 41
21 46 42
20 45 41
20 45 41
21 46 42
20 44 41
20 45 41
20 45 41
20 45 42
20 45 41
20 45 41
20 45 41
20 45 41
21 46 42
21 46 42
21 46 42
20 45 41
20 44 41
21 46 42
21 46 42
20 45 41
20 44 41
20 45 41
20 45 41
20 45 42
21 46 42
21 46 42
20 45 41
20 45 41
20 45 41
20 44 40
20 45 42
20 45 41
20 45 41
21 46 42
20 45 42
20 45 41
20 44 40
20 43 40
20 45 42
20 45 41
20 44 41
20 45 42
20 45 41
20 44 40
20 45 42
20 44 41
20 44 40
20 44 41
20 46 42
20 45 41
20 45 41
20 44 41
20 44 41
20 44 41
20 45 41
20 45 41
20 44 41
20 45 42
20 45 41
20 44 41
20 44 40
20 45 42
20 44 41
20 44 41
20 45 41
20 44 40
20 45 41
20 44 40
21 46 42
21 46 42
20 45 42
20 45 42
20 45 42
20 45 41
20 45 41
20 44 41
20 45 41
20 44 41
20 45 41
20 45 42
20 44 41
21 46 42
20 44 40
20 45 42
20 45 41
21 46 42
20 44 41
20 44 41
20 45 42
20 45 42
20 45 41
20 45 41
21 46 42
20 45 41
21 46 42
20 44 41
20 45 42
21 46 42
20 45 41
20 45 41
20 44 41
20 44 40
21 46 42
21 46 42
20 45 41
20 45 41
20 45 41
20 45 42
20 44 40
21 46 42
20 44 41
21 46 42
21 46 42
20 44 41
21 46 42
20 45 41
21 46 43
20 45 41
21 46 42
21 46 42
20 45 41
20 45 41
21 46 42
20 45 42
21 46 42
21 46 42
20 44 41
21 46 42
21 46 42
20 45 42
21 46 42
20 45 41
21 46 42
20 45 41
21 46 42
21 46 42
20 45 41
20 45 41
20 45 42
20 44 41
20 45 41
20 45 41
20 45 41
20 45 41
21 46 42
20 45 41
21 46 42
20 44 40
20 44 40
21 46 42
21 47 43
21 46 42
20 45 41
20 45 41
20 45 42
20 45 41
19 43 40
20 45 42
20 44 41
20 44 41
20 44 41
20 44 40
20 45 41
20 44 40
20 45 41
20 44 40
20 44 41
20 45 41
20 45 41
20 44 41
20 44 41
20 43 40
20 44 40
20 44 41
20 44 41
20 44 41
20 45 41
20 45 41
20 44 40
20 45 41
20 45 41
20 45 41
20 45 41
20 44 40
20 44 41
20 44 41
20 45 41
20 45 42
20 44 41
20 44 41
20 44 41
21 47 43
19 43 39
20 44 40
20 44 41
20 45 42
20 45 42
20 45 42
21 46 42
20 45 41
20 45 41
20 45 41
20 45 42
19 43 40
20 45 41
21 46 42
20 45 41
21 46 42
20 45 42
20 45 41
20 44 41
20 44 41
20 45 41
20 45 42
21 46 42
20 45 41
20 45 41
20 45 41
21 46 42
21 46 42
21 46 42
21 46 42
20 44 41
20 45 41
20 44 40
20 45 41
21 46 42
21 45 42
21 46 42
21 46 42
21 47 43
20 44 41
20 45 41
20 44 40
20 45 41
20 45 41
21 46 42
20 45 41
21 46 42
20 45 41
21 46 42
21 46 42
20 45 41
21 47 43
20 45 41
21 46 42
21 46 42
20 45 41
21 46 42
21 46 42
21 47 43
21 45 42
20 45 41
21 46 42
20 45 42
21 46 42
20 45 41
20 45 41
20 45 41
20 45 42
21 46 42
20 45 42
21 46 42
20 45 41
20 45 41
20 45 41
20 45 41
20 45 41
21 46 42
21 45 41
21 46 42
21 46 42
20 45 41
20 45 42
21 46 42
20 45 41
20 44 41
19 43 40
19 43 39
20 44 41
20 45 41
20 45 41
20 44 41
20 45 41
20 45 41
20 45 42
20 44 41
21 47 43
20 44 40
20 44 40
20 44 41
20 45 41
20 44 40
20 44 40
20 45 41
20 45 42
20 45 41
20 44 41
20 45 41
20 44 41
20 45 41
20 45 41
20 44 41
20 45 41
21 46 42
20 44 40
20 44 40
19 43 40
20 45 41
20 45 41
20 45 42
20 44 41
20 44 41
20 45 41
20 45 42
20 45 41
20 45 41
20 45 41
20 45 42
21 46 42
20 45 41
20 44 40
20 44 41
20 45 42
20 45 41
20 44 40
20 45 41
20 45 41
20 45 42
20 45 42
21 46 42
21 46 42
21 46 42
20 44 41
20 45 42
20 45 41
20 45 41
20 45 41
20 45 42
20 45 41
21 46 42
21 46 42
20 45 41
21 46 42
20 45 41
20 45 41
20 44 40
20 45 41
21 46 42
21 46 42
20 45 41
20 45 41
21 45 42
21 46 42
20 45 41
21 46 42
20 45 42
20 45 41
20 45 41
21 46 42
20 45 42
20 45 41
21 45 42
20 45 41
20 45 41
21 45 42
20 45 41
20 45 41
20 45 41
20 45 41
20 45 41
20 45 41
21 46 42
21 47 43
21 46 42
21 46 42
20 45 41
21 46 42
20 45 41
21 46 42
20 45 41
21 47 43
21 46 42
21 47 43
21 46 42
20 45 42
21 46 42
20 45 41
20 45 42
21 46 42
20 45 41
21 46 42
20 45 41
21 46 42
21 46 42
20 45 41
19 43 39
20 44 41
20 45 41
20 45 41
20 44 40
20 45 41
20 45 41
20 44 41
20 44 40
20 46 42
19 43 40
20 45 41
21 46 42
21 46 42
20 45 41
20 45 42
20 44 40
20 45 41
20 43 40
20 44 41
20 45 41
21 46 42
20 44 41
20 45 41
20 44 41
20 44 40
21 46 42
20 45 41
20 45 41
21 46 42
20 45 42
20 45 41
20 45 41
19 43 40
20 45 41
20 44 41
20 45 42
20 45 42
20 44 41
21 46 42
20 45 41
20 45 42
21 46 42
21 46 42
20 45 41
20 45 41
20 44 40
20 45 41
21 46 42
20 44 40
20 45 42
21 46 42
21 46 42
21 46 42
20 45 42
20 45 41
21 46 42
21 46 42
20 45 41
21 45 42
20 45 41
21 46 42
20 45 41
21 46 42
20 45 41
21 46 42
21 46 42
21 46 42
20 45 41
20 45 41
20 44 41
21 46 42
21 46 42
21 46 42
21 46 42
20 45 41
20 45 41
21 45 42
21 46 42
20 45 41
21 47 43
21 47 43
21 46 42
21 46 42
20 45 41
20 45 42
20 45 41
21 46 42
21 46 42
21 46 42
20 45 41
20 45 41
21 46 42
20 45 41
20 45 41
20 45 41
21 45 42
21 46 42
20 45 41
20 45 41
20 45 41
21 45 42
21 46 42
21 46 42
21 45 42
21 46 42
21 46 42
21 46 42
20 45 41
21 46 42
21 46 42
21 46 42
20 45 41
21 45 41
20 45 41
21 47 43
21 46 42
21 46 42
21 47 43
20 45 42
20 44 41
21 46 42
20 43 40
20 44 41
20 44 40
20 45 42
20 44 41
20 45 41
20 45 41
20 44 41
20 44 41
21 46 42
20 45 42
20 45 41
20 45 42
20 44 40
20 45 41
21 46 42
20 44 41
20 45 41
20 45 41
20 45 41
20 44 40
21 46 42
21 46 42
20 45 41
20 45 42
20 45 42
20 44 41
21 46 42
20 45 41
20 45 41
20 44 40
21 46 42
20 45 41
20 45 41
20 45 41
20 45 42
20 45 41
21 46 42
21 46 42
21 46 42
21 46 43
20 45 41
21 46 42
20 45 42
21 46 42
21 46 42
20 45 41
20 44 41
20 45 41
20 45 42
20 45 41
21 45 41
21 47 43
20 44 40
20 44 41
20 44 41
20 45 42
20 45 41
21 46 42
20 44 40
20 45 42
21 46 42
21 46 42
21 46 42
20 45 42
20 45 41
20 44 41
20 45 41
20 45 42
20 45 41
20 45 41
20 45 41
21 46 42
21 45 42
20 45 41
21 46 42
21 46 42
21 46 42
21 46 42
21 46 42
21 47 43
20 45 41
20 45 41
20 45 41
21 47 43
20 45 41
21 47 43
21 46 42
21 46 42
21 46 42
21 46 42
21 46 42
20 45 41
21 46 42
21 46 42
21 46 42
21 46 42
21 47 43
21 46 42
20 45 41
21 46 42
20 45 41
21 46 42
21 46 42
21 47 43
20 45 41
20 45 41
21 45 42
20 45 41
21 46 42
20 45 41
21 46 42
21 45 41
21 46 42
21 46 42
21 46 42
20 45 41
20 45 41
20 44 40
20 45 41
20 45 41
21 46 42
20 44 40
20 44 40
20 45 41
20 45 42
20 45 42
20 45 41
20 45 41
20 44 40
20 45 41
20 45 42
20 45 41
20 45 41
20 45 42
20 44 40
20 44 40
20 44 40
21 46 42
20 45 41
20 44 40
21 46 42
20 44 40
20 45 41
20 45 41
20 45 41
20 44 41
20 45 41
20 45 42
20 45 42
21 46 42
21 46 42
20 44 40
20 45 41
20 45 41
20 45 42
20 45 41
20 45 41
20 45 41
21 45 42
21 45 42
20 45 42
20 45 41
20 44 40
20 45 41
20 45 41
21 46 42
21 46 42
20 45 41
20 45 41
21 46 42
21 46 42
21 46 42
20 45 41
21 46 43
21 46 42
20 45 42
20 45 41
20 45 41
20 44 40
21 46 42
21 47 43
20 45 41
21 46 42
20 45 41
21 46 42
21 46 42
21 47 43
20 45 41
21 46 42
20 45 41
21 45 42
21 47 43
20 45 41
20 45 41
21 45 42
21 46 42
20 45 41
21 46 42
21 47 43
20 44 41
20 45 41
21 46 42
21 47 43
21 47 43
21 46 42
21 47 43
21 46 42
20 45 41
21 46 42
20 45 41
21 46 42
21 46 42
20 45 41
21 46 42
21 46 42
21 47 43
21 46 42
21 46 42
21 46 42
21 46 42
20 45 41
21 47 43
21 46 42
21 46 42
21 46 42
21 46 42
20 45 41
21 47 43
20 45 41
20 45 41
21 46 42
21 47 43
21 47 43
21 47 43
21 46 42
21 46 42
20 45 42
20 45 41
20 45 42
20 44 41
21 46 42
20 45 41
20 44 41
20 44 41
20 45 41
20 45 42
20 45 41
20 45 41
20 45 41
20 44 40
20 45 41
20 45 41
20 45 42
21 46 42
20 45 41
20 45 42
20 45 41
20 45 41
20 45 41
20 45 41
21 46 42
20 45 41
21 46 42
20 44 41
21 46 42
20 44 41
21 46 42
21 46 43
20 45 42
20 45 41
21 45 42
20 45 42
20 45 42
21 47 43
21 46 42
21 46 42
21 46 42
20 45 41
20 45 41
21 46 42
21 45 42
20 45 41
20 45 42
21 47 43
21 46 42
21 47 43
21 45 42
20 45 41
21 45 42
21 46 42
20 45 42
20 45 41
20 45 41
21 46 42
21 46 42
21 46 42
21 46 42
21 46 42
21 46 42
21 46 42
20 45 41
21 45 42
20 45 41
21 46 42
21 46 43
21 47 43
20 45 41
21 46 42
21 46 42
21 46 42
21 46 42
20 45 41
21 46 42
21 46 42
21 45 42
21 47 43
21 47 43
21 46 42
21 47 43
21 46 42
21 47 43
20 45 41
21 47 43
21 46 43
20 45 41
21 46 42
21 46 42
20 45 41
21 46 42
21 47 43
21 47 43
21 46 43
21 46 42
21 46 42
21 46 42
21 46 42
21 47 43
21 46 42
21 46 42
21 47 43
21 46 42
21 46 42
21 46 42
21 46 42
21 45 41
21 46 42
21 46 42
21 47 43
20 45 41
21 46 42
21 46 42
21 47 43
21 47 43
21 46 42
21 47 43
21 47 43
21 46 42
20 45 41
20 45 41
20 45 41
20 45 41
20 45 41
20 44 41
20 44 41
20 45 41
20 44 41
21 47 43
20 45 41
20 45 41
20 45 42
20 45 41
20 44 41
20 45 41
20 45 41
20 45 41
20 45 42
21 47 43
20 45 41
21 45 42
20 45 41
20 44 41
20 45 41
20 44 40
21 46 42
20 45 41
21 46 42
21 46 42
20 45 41
21 47 43
20 45 41
21 46 42
21 46 42
21 46 42
21 46 42
21 46 42
21 46 42
21 46 42
20 44 41
21 46 42
21 46 42
21 46 42
21 46 42
21 46 42
21 47 43
21 46 43
20 45 41
21 46 42
21 46 42
21 46 42
21 46 42
20 45 42
21 46 42
20 45 41
20 45 41
21 46 42
21 46 42
21 45 41
21 46 42
20 45 41
21 46 42
21 46 42
21 46 42
21 46 42
21 46 42
21 46 42
21 47 43
21 46 42
20 45 41
21 47 43
20 45 41
21 46 42
21 46 42
21 46 42
21 47 43
20 45 42
21 45 42
21 47 42
20 45 41
21 47 43
21 46 42
21 46 42
21 47 43
21 46 42
21 46 42
22 48 43
21 47 43
21 46 42
21 45 42
21 47 43
21 46 42
21 46 42
21 46 42
21 46 42
21 46 42
21 46 42
20 45 41
21 46 42
21 46 42
21 46 42
21 46 42
21 47 43
21 47 43
21 46 42
21 46 42
21 47 43
22 48 44
21 47 42
21 46 42
21 46 42
21 47 43
21 46 42
21 46 42
21 46 42
21 46 42
21 47 43
21 46 42
20 45 41
20 45 41
20 45 42
20 45 42
20 45 41
20 45 41
20 45 42
20 45 41
20 45 42
20 45 41
20 45 41
20 45 41
20 45 41
20 45 41
20 45 41
20 45 41
20 45 41
20 45 41
20 45 41
21 46 42
20 45 42
20 45 41
20 45 41
20 45 42
20 45 41
20 45 41
20 45 41
21 46 42
20 45 41
20 45 41
20 45 41
20 45 41
21 46 42
21 46 42
21 46 42
21 46 42
20 45 41
21 46 42
21 46 42
20 45 41
20 45 41
20 45 41
21 47 43
20 45 41
20 45 41
21 46 42
21 46 42
21 46 42
21 47 43
21 46 42
20 45 41
20 45 41
21 47 43
20 45 41
20 45 41
21 46 42
21 46 42
20 45 41
21 46 42
21 46 42
21 47 43
21 46 42
21 46 42
21 46 42
21 46 42
20 45 41
21 47 43
21 46 42
21 46 42
21 47 43
21 46 42
21 46 42
21 47 43
21 46 42
21 46 42
21 47 43
21 46 42
21 46 42
21 47 43
21 46 42
21 48 44
21 47 43
21 47 43
21 46 42
21 47 43
21 46 42
21 46 42
21 46 42
21 46 42
20 44 41
21 47 43
21 47 43
21 46 42
21 45 42
21 47 43
21 47 42
21 46 42
21 47 43
21 47 43
21 46 42
21 46 42
21 46 42
21 47 43
22 47 43
21 46 42
21 46 42
21 46 42
21 47 43
21 46 42
22 48 44
21 46 42
22 48 44
21 47 43
20 45 41
21 45 41
21 46 42
22 48 44
21 47 43
21 47 43
21 47 43
20 46 42
20 45 42
21 46 42
20 45 41
20 45 42
20 45 41
20 45 42
20 45 41
21 46 42
21 46 42
20 44 41
20 45 42
20 45 41
20 45 42
20 44 41
20 45 41
20 45 41
21 46 42
20 45 41
20 44 41
20 44 41
20 44 40
20 45 41
21 46 42
21 46 43
20 45 42
21 46 42
21 46 42
21 46 42
20 45 41
21 46 42
21 46 42
21 46 42
20 45 41
21 45 42
21 46 42
21 46 42
21 46 42
21 47 43
21 46 42
20 45 42
20 45 41
21 45 42
21 46 43
21 46 42
20 45 42
20 45 41
21 46 42
21 47 43
21 46 42
21 46 43
21 47 43
21 46 42
21 47 42
21 47 43
21 46 42
21 47 43
21 46 42
21 46 42
21 45 41
21 46 42
21 47 43
20 45 41
21 46 42
21 46 42
21 46 42
21 46 42
21 46 42
21 46 42
21 46 42
21 46 42
21 45 42
20 45 41
21 47 43
21 46 42
20 44 41
22 48 43
21 47 43
21 46 42
21 46 42
21 46 42
22 48 43
21 47 43
20 45 41
21 47 43
21 47 43
21 46 42
21 46 42
21 47 43
21 47 43
20 45 41
21 47 43
21 46 42
21 47 43
21 47 43
21 47 43
21 46 42
21 47 43
21 46 42
21 46 42
21 47 42
21 47 43
21 46 42
22 48 43
21 46 42
21 47 43
21 46 42
21 46 42
21 46 42
21 47 42
21 47 43
21 46 42
21 47 43
21 46 42
21 46 42
21 47 43
21 47 43
21 45 41
21 47 43
21 47 43
21 46 42
20 45 41
20 45 41
20 45 42
20 44 40
20 45 41
20 45 41
20 45 41
20 44 40
20 45 41
21 45 42
20 45 41
21 46 42
20 44 41
20 45 41
20 45 42
21 46 42
21 47 43
20 45 41
21 46 42
21 46 42
20 45 42
20 45 42
21 46 42
20 45 41
20 44 41
20 45 42
20 45 42
20 45 42
20 45 42
21 46 42
21 46 42
21 46 42
21 46 42
20 45 41
20 45 41
21 46 42
21 46 42
21 47 43
21 46 42
20 45 41
20 45 41
20 44 41
21 47 43
21 46 42
21 45 42
21 46 42
21 46 42
21 46 42
21 46 42
21 47 43
21 47 43
21 45 42
21 46 42
21 47 43
20 45 41
21 47 43
21 47 43
21 45 42
20 45 41
21 46 42
20 45 41
20 45 41
22 48 43
21 46 42
20 44 41
21 45 41
21 45 41
21 47 43
21 46 42
21 47 43
21 46 42
22 47 43
21 46 42
21 46 42
21 46 42
21 47 43
21 47 43
21 46 42
21 46 42
21 46 42
21 46 42
21 46 42
21 46 42
21 46 42
21 47 42
21 46 42
21 47 43
22 48 44
21 45 42
21 46 42
21 47 43
21 47 43
21 47 43
21 46 42
21 47 43
21 47 43
21 47 43
21 46 42
21 45 41
21 45 41
21 47 42
21 46 42
20 45 41
21 47 43
21 46 42
21 46 42
21 46 42
21 47 43
21 47 43
20 45 41
21 47 43
21 47 43
21 47 43
21 46 42
21 46 42
21 46 42
21 46 42
21 47 43
21 47 43
20 45 42
20 44 40
20 45 41
20 45 42
20 45 41
20 45 42
20 44 41
20 45 41
20 44 40
20 45 42
21 46 42
20 45 42
20 45 41
21 46 42
20 44 40
21 47 43
20 45 41
21 46 42
20 45 41
20 45 41
20 45 42
21 46 42
21 46 42
20 45 41
21 46 42
20 45 41
21 46 43
20 45 41
21 46 42
21 46 42
20 45 41
20 45 41
20 45 41
20 44 40
21 46 42
21 46 42
21 46 42
21 46 42
20 45 41
21 46 42
21 46 42
21 45 42
21 46 42
21 47 43
21 47 43
21 46 42
21 47 43
21 46 42
21 46 42
21 47 43
20 45 41
21 46 42
21 47 43
20 45 41
20 45 41
22 48 44
21 47 43
21 46 42
21 46 42
21 46 42
21 47 43
21 45 41
20 45 41
21 46 42
22 48 44
21 46 42
21 46 42
21 46 42
22 48 43
21 46 42
22 49 44
20 45 41
21 46 42
21 47 43
21 46 42
21 47 43
21 46 42
21 46 42
21 46 42
22 47 43
21 47 43
21 46 42
22 48 43
21 47 43
21 46 42
21 46 42
22 48 43
22 48 44
21 47 43
21 46 42
22 48 44
21 46 42
21 47 43
21 46 42
21 47 42
21 47 43
21 45 41
21 46 42
21 47 43
21 45 41
21 45 41
21 46 42
21 47 43
21 46 42
21 46 42
21 46 42
21 46 42
22 48 44
22 48 44
21 47 43
22 48 43
21 47 43
21 47 43
21 47 43
21 47 43
21 46 42
21 46 42
21 46 42
21 46 42
22 48 43
20 45 41
20 44 41
20 45 41
20 44 40
21 46 42
20 45 42
20 45 41
20 45 41
20 44 41
20 45 41
21 46 42
20 44 40
20 45 41
21 46 42
20 45 41
21 47 43
20 45 42
21 47 43
20 45 41
21 46 42
21 46 43
21 47 43
21 47 43
21 46 42
21 46 42
21 46 42
21 46 42
21 46 42
20 45 41
21 46 42
20 45 41
21 46 42
21 46 42
21 46 42
20 45 41
20 45 41
21 47 43
21 47 43
21 46 42
21 46 42
21 46 42
21 46 42
21 46 42
20 45 41
21 46 42
21 46 42
21 46 42
21 46 42
20 45 41
21 46 42
21 46 42
21 47 43
21 47 43
21 47 43
21 47 43
21 46 42
21 47 43
21 47 42
21 47 43
21 47 43
21 46 42
21 47 43
21 46 42
21 47 42
21 47 43
21 46 42
21 46 42
21 46 42
21 47 43
21 46 42
20 45 41
21 47 43
21 47 43
21 47 43
21 47 43
21 46 42
21 46 42
21 47 43
21 46 42
22 47 43
21 46 42
20 45 41
21 46 42
21 46 42
21 47 43
21 47 43
21 47 42
21 47 43
21 47 43
22 48 44
22 48 43
21 47 43
22 48 43
22 48 44
21 47 43
21 46 42
21 47 43
21 47 43
21 46 42
21 47 43
21 47 42
22 47 43
21 46 42
22 48 44
20 45 41
21 47 43
22 48 43
21 47 43
21 47 43
21 47 43
22 48 43
22 48 44
21 47 42
21 46 42
21 47 43
21 46 42
21 46 42
21 46 42
21 47 42
21 47 43
21 46 42
20 44 41
20 45 41
21 46 42
20 45 41
20 45 41
20 45 41
20 45 41
21 46 42
20 45 41
21 46 42
21 46 42
20 45 41
21 47 43
20 45 42
21 46 42
21 46 42
21 45 42
20 45 41
21 46 42
20 45 41
21 46 42
21 47 43
21 47 43
20 45 41
21 46 42
21 46 42
20 45 41
20 45 41
21 46 42
21 46 42
21 46 42
21 46 42
21 46 42
21 46 42
21 46 42
20 45 41
21 46 42
21 45 42
21 45 41
20 45 41
21 46 42
21 46 42
21 47 43
21 45 42
21 46 42
21 46 42
21 47 43
21 46 42
21 46 42
22 48 43
21 47 43
21 46 42
21 47 43
21 46 42
21 47 43
21 46 42
21 47 43
21 46 42
21 47 43
21 46 42
21 46 42
21 47 43
21 47 43
21 47 43
22 47 43
21 47 43
20 45 41
21 46 42
21 46 42
21 47 43
22 48 44
21 47 43
21 47 43
21 47 43
21 45 41
21 46 42
21 47 43
21 47 43
21 47 43
22 48 43
22 48 44
21 47 43
22 47 43
21 46 42
21 46 42
21 47 43
21 46 41
21 47 43
21 47 43
22 48 43
21 46 42
21 46 42
21 47 43
21 47 43
21 46 42
22 48 43
21 46 42
21 46 42
22 47 43
21 47 43
21 46 42
21 47 43
21 47 43
21 47 43
21 46 42
21 47 43
22 48 43
22 48 43
21 47 43
21 47 43
21 47 43
21 47 43
21 47 43
21 46 42
21 47 43
21 47 43
22 48 44
21 47 43
21 46 42
20 44 41
21 46 42
21 46 43
21 46 42
21 46 42
20 45 41
21 46 42
21 46 42
20 45 41
20 45 41
21 46 42
21 46 42
21 47 43
20 45 41
21 46 42
21 46 42
20 45 42
21 46 42
21 45 42
20 45 41
20 45 42
21 46 42
21 46 42
20 45 42
21 46 43
21 46 42
20 45 41
21 46 42
21 46 42
21 47 43
21 46 42
21 47 43
21 47 43
21 46 42
21 47 43
21 45 41
21 46 42
20 45 41
20 45 41
21 47 42
21 45 41
21 46 42
21 46 42
21 45 41
21 46 42
21 46 42
22 48 44
21 47 43
21 46 42
21 47 42
21 47 43
20 45 41
21 46 42
20 45 41
21 47 43
22 48 44
21 46 42
21 46 42
21 46 42
21 46 42
21 46 42
21 46 42
21 47 43
21 46 42
21 46 42
21 46 42
21 47 42
22 49 44
22 48 43
21 47 43
21 47 42
22 47 43
22 48 44
21 46 42
21 47 43
21 46 42
22 48 44
21 46 42
21 46 42
21 46 42
22 49 44
20 45 41
22 48 44
21 46 42
21 47 43
22 48 43
21 47 43
21 46 42
21 47 43
21 47 43
22 48 44
21 46 42
21 46 42
21 46 42
22 47 43
22 48 43
22 48 43
22 48 43
21 46 42
21 47 43
22 48 44
21 46 42
21 47 43
21 47 43
21 47 43
21 46 42
21 46 42
21 47 43
21 47 42
21 46 42
22 48 44
22 48 43
22 48 43
21 45 41
21 47 43
22 48 44
22 48 43
21 47 43
22 48 44
21 47 43
21 46 42
21 46 42
21 47 43
20 45 41
20 45 42
21 47 43
21 46 42
20 45 41
21 46 42
20 45 41
20 45 41
20 44 41
21 46 42
20 45 41
21 45 41
20 44 40
21 46 42
20 45 41
21 47 43
21 46 42
21 46 42
21 46 42
20 45 41
21 46 42
21 45 42
21 47 43
21 46 42
21 47 43
21 46 42
20 45 41
20 45 41
21 46 42
21 46 42
21 46 42
21 46 42
21 46 42
20 45 41
21 46 42
21 46 42
21 46 42
21 45 41
21 47 43
21 47 43
22 48 44
21 47 43
21 46 42
21 46 42
21 47 43
21 47 43
21 46 42
21 47 43
21 46 42
21 47 43
21 47 43
21 47 43
21 47 43
21 46 42
21 47 43
21 46 42
21 46 42
22 48 44
22 49 44
22 48 44
22 48 44
21 47 43
22 48 43
21 46 42
21 47 43
22 48 43
21 47 43
21 46 42
21 46 42
21 47 43
22 48 44
21 47 43
21 46 42
21 47 43
21 47 43
21 47 43
21 46 42
21 46 42
22 48 44
21 46 42
21 47 43
22 47 43
22 48 44
21 47 43
21 47 43
22 48 44
22 48 43
22 48 44
22 47 43
21 47 43
22 48 43
21 46 42
22 48 44
21 46 42
22 47 43
22 47 43
22 48 44
21 47 43
22 48 43
21 47 43
22 49 44
21 47 43
21 47 43
21 46 42
21 47 42
21 47 42
21 47 43
21 47 43
21 47 43
21 47 43
22 48 43
21 47 43
22 48 43
21 47 43
21 47 43
21 47 42
22 48 44
21 46 42
20 45 41
21 46 42
20 44 41
20 45 41
20 45 41
20 45 42
20 45 41
21 46 42
21 47 43
21 46 42
21 46 42
21 46 42
21 46 42
21 46 42
20 45 41
21 45 42
20 45 41
21 46 42
21 45 42
21 46 42
21 47 43
20 45 41
21 47 42
21 47 43
20 45 41
21 47 43
21 46 42
21 46 42
21 46 42
21 46 42
21 47 43
20 45 41
21 46 42
21 46 42
21 47 43
21 47 43
21 45 41
21 46 42
21 46 42
21 47 43
21 47 43
21 47 43
21 46 42
21 47 43
21 47 43
21 46 42
21 46 42
21 47 43
21 46 42
21 46 42
21 47 43
21 46 42
21 47 43
21 46 42
21 47 43
21 47 43
21 47 43
21 47 43
21 47 43
21 47 43
21 47 43
21 47 43
21 47 42
21 46 42
21 46 42
21 47 43
21 47 43
22 48 44
21 47 43
22 48 44
22 48 44
21 47 42
22 49 44
21 47 43
21 47 43
21 47 43
21 47 43
21 46 42
21 47 42
21 47 42
21 46 42
22 48 43
21 47 43
21 45 41
21 47 43
22 48 43
21 47 43
21 47 43
21 47 43
21 46 42
21 47 42
21 47 43
21 47 43
22 48 44
21 47 43
22 48 43
22 48 43
21 46 41
22 48 44
22 48 44
22 48 44
21 47 43
22 47 43
22 48 43
22 48 44
21 47 42
21 47 43
22 48 44
22 48 43
21 47 42
22 48 43
22 49 44
21 47 43
21 45 41
21 47 43
22 48 44
21 47 43
22 48 43
21 47 42
20 45 41
21 46 42
21 46 42
21 46 42
21 46 42
21 46 42
21 47 43
20 45 41
21 46 42
20 45 41
20 45 41
21 46 42
20 45 41
21 46 42
20 45 41
21 46 42
20 45 41
21 46 42
22 48 44
21 46 42
21 46 42
21 46 42
21 47 43
21 46 42
20 45 42
21 46 42
21 46 42
20 45 41
21 46 42
22 48 44
21 47 43
21 46 42
21 46 42
21 46 42
22 48 43
21 47 43
21 46 42
21 47 43
20 45 41
21 47 43
21 46 42
21 47 43
21 46 42
21 47 43
22 48 43
21 47 43
21 46 42
21 47 42
21 46 42
21 47 43
22 48 44
21 47 43
21 46 42
21 47 43
21 47 43
21 47 43
21 47 43
21 47 43
21 47 43
21 47 43
21 47 43
21 47 43
21 47 43
21 47 43
21 47 43
22 48 44
22 48 43
21 47 43
21 46 42
21 47 43
21 46 42
21 46 42
22 49 45
22 48 43
22 48 43
21 46 42
21 46 42
22 48 43
21 47 43
21 46 42
22 48 43
22 48 44
22 48 43
22 47 43
21 47 43
22 47 43
21 47 43
21 47 42
22 48 44
21 47 43
22 48 43
22 47 43
22 48 43
21 47 43
22 48 43
22 48 44
22 48 44
22 48 43
21 47 43
22 47 43
22 48 44
21 47 43
22 48 43
22 48 44
22 47 43
22 48 44
22 48 43
21 47 43
22 48 44
22 48 43
21 47 43
22 48 44
21 47 42
21 47 42
22 48 43
21 46 42
21 47 43
21 47 43
21 47 43
21 47 43
21 46 42
21 47 43
21 46 42
20 45 41
21 46 42
21 46 42
21 47 43
21 46 42
21 46 42
20 45 41
21 46 42
21 47 43
21 46 42
20 45 41
21 46 42
21 46 42
21 46 42
20 45 41
21 46 42
20 45 41
21 45 42
20 45 41
21 46 42
22 48 43
21 46 42
21 46 42
21 47 43
21 46 42
22 48 43
21 47 43
21 47 43
21 46 42
21 45 41
22 47 43
21 46 42
21 46 42
21 46 42
21 47 43
21 46 42
21 47 43
21 46 42
21 46 42
21 46 42
21 46 42
22 48 43
21 47 43
21 46 42
21 46 42
21 47 42
21 47 43
21 46 42
21 46 42
21 47 43
21 47 43
21 47 43
21 47 43
21 47 43
21 46 42
21 47 43
22 49 44
22 47 43
21 47 43
21 47 43
22 48 44
21 47 43
21 47 43
21 46 42
21 47 43
21 46 42
21 47 43
21 47 43
22 48 43
21 47 43
21 47 43
21 47 43
21 47 43
21 46 42
22 48 43
21 46 42
21 47 43
22 48 44
22 48 44
22 47 43
21 47 43
21 47 43
22 48 44
21 46 42
22 48 43
21 47 43
21 47 43
22 48 44
22 48 43
22 48 43
21 47 43
22 48 44
21 47 43
21 47 43
22 48 43
22 48 43
21 47 42
22 48 44
21 47 43
22 48 43
21 46 42
22 48 44
21 47 43
21 47 42
22 48 44
21 47 43
21 47 42
22 48 44
22 47 43
21 45 41
22 48 43
22 47 43
21 47 42
22 48 44
22 48 44
21 47 42
22 47 43
21 46 42
20 45 42
21 47 43
20 46 42
21 46 42
21 46 42
20 45 41
21 46 42
21 46 42
21 46 42
21 46 42
20 45 41
21 46 42
20 45 41
21 46 42
20 45 41
21 46 42
21 46 42
21 46 42
21 46 42
21 46 42
21 47 43
22 48 43
21 47 42
21 47 43
20 45 41
21 47 43
21 46 42
21 46 42
21 47 43
22 48 44
21 47 43
21 46 42
22 48 44
21 47 43
22 48 44
21 47 43
21 47 43
21 47 43
21 45 41
21 47 43
21 47 43
22 48 43
21 47 43
21 46 42
21 47 42
21 47 43
21 47 43
21 46 42
21 47 43
22 48 43
22 47 43
21 47 42
21 47 43
22 48 44
21 46 42
22 48 44
21 47 43
21 47 43
21 47 43
21 46 42
21 47 43
21 47 43
21 47 43
22 47 43
22 48 44
22 48 43
22 48 43
21 47 43
22 47 43
22 48 44
21 47 43
21 46 42
21 47 42
22 48 44
21 46 42
22 48 44
22 48 44
22 48 43
21 46 42
22 48 43
21 47 43
21 47 42
21 47 43
22 48 43
22 48 43
22 47 43
22 48 43
21 47 42
22 47 43
21 47 43
22 49 44
21 47 43
22 47 43
22 48 44
22 49 44
21 47 43
22 48 44
21 47 43
22 49 44
22 48 43
21 47 43
21 47 42
21 47 42
21 47 43
21 46 42
21 47 43
21 47 43
22 48 43
21 47 43
21 47 43
21 46 41
22 48 44
22 48 43
21 46 42
21 47 43
22 48 44
21 46 42
21 47 43
22 48 43
21 46 42
20 45 41
21 46 42
21 47 43
21 47 43
21 46 42
21 46 42
21 47 43
21 45 42
21 46 42
21 46 42
21 47 43
21 46 42
20 45 41
20 45 41
21 47 43
21 46 42
21 46 42
21 47 43
21 46 42
21 47 43
21 46 42
21 45 41
21 47 43
21 47 43
22 47 43
21 47 43
21 46 42
21 45 42
21 46 42
21 46 42
21 46 42
21 47 42
21 47 43
21 46 42
21 45 41
21 46 42
21 46 42
22 48 44
21 47 43
21 46 42
22 48 44
22 48 44
21 46 42
22 48 44
21 47 43
21 47 43
22 48 44
22 48 44
21 47 43
21 47 42
21 47 42
21 47 43
22 48 43
21 47 42
21 47 43
22 48 44
21 46 42
21 47 43
21 46 42
21 47 43
22 48 44
21 47 43
21 46 42
21 47 43
21 46 42
21 46 42
22 48 44
22 49 44
22 48 43
22 47 43
21 47 43
22 47 43
21 46 41
21 47 43
21 47 43
22 48 44
21 46 42
21 47 43
21 47 43
22 48 44
21 47 43
22 49 44
22 47 43
22 48 43
21 47 43
21 47 43
21 47 43
21 46 42
22 48 43
21 47 43
22 48 43
22 48 43
21 47 43
22 48 44
22 48 43
22 48 43
22 48 44
22 48 44
22 47 43
22 48 44
22 48 44
22 48 44
22 47 43
22 48 44
22 48 43
22 48 43
22 48 43
22 48 43
22 48 44
22 48 43
23 50 46
22 48 43
22 48 44
22 47 43
22 49 45
22 48 44
21 47 42
22 48 43
21 47 43
21 46 42
21 46 42
20 45 41
21 45 42
21 47 43
21 46 42
21 46 42
21 45 42
21 47 43
21 46 42
21 46 42
22 48 43
21 47 42
21 47 43
21 46 42
21 46 42
21 47 43
21 46 42
21 47 43
21 47 43
21 46 42
21 47 43
21 46 42
22 47 43
21 47 43
22 48 43
21 46 42
21 46 42
22 48 43
21 47 42
21 47 43
21 45 41
21 47 43
21 47 43
21 47 43
21 47 43
22 49 44
21 47 43
21 47 43
21 47 43
21 46 42
22 48 44
21 46 42
21 47 42
21 47 43
21 47 42
22 48 43
21 46 42
22 48 44
21 47 42
21 47 43
21 47 43
22 49 44
21 46 42
22 47 43
21 47 42
21 46 42
21 46 42
21 47 42
22 48 43
22 48 44
22 48 44
22 49 44
22 48 44
21 47 43
22 47 43
22 48 43
22 48 44
22 47 43
22 48 44
22 48 44
21 47 43
21 47 42
22 47 43
21 47 43
22 48 44
21 47 42
22 48 43
22 47 43
22 49 45
21 46 42
22 48 44
22 48 44
22 48 44
22 47 43
22 49 45
21 46 42
22 47 43
21 47 43
22 49 44
23 50 45
22 48 43
22 48 43
22 48 44
21 47 42
22 48 44
22 49 44
22 48 44
21 47 43
22 48 43
22 48 43
22 49 44
22 48 44
22 48 43
22 49 45
22 49 44
21 47 43
22 49 44
21 46 42
21 47 43
21 47 43
22 48 44
21 47 43
22 49 44
22 48 44
21 47 43
22 48 43
22 47 43
21 46 42
22 48 44
21 46 42
21 46 42
21 46 43
21 46 42
20 45 41
21 46 42
21 46 42
20 45 41
21 46 42
20 45 42
21 46 42
21 47 43
21 47 43
20 45 41
21 46 42
20 45 41
21 45 41
21 47 43
21 46 42
21 47 43
21 45 41
21 47 43
21 46 42
21 46 42
21 46 42
21 47 43
21 46 42
21 47 42
21 46 42
21 47 43
21 46 42
21 47 43
21 46 42
21 46 42
21 47 43
21 47 43
22 48 44
21 46 42
21 47 43
21 46 42
21 46 42
21 47 42
21 47 43
21 47 43
22 47 43
22 48 44
21 47 42
22 48 43
21 47 43
22 48 44
22 48 43
22 48 43
22 47 43
21 47 43
21 47 43
21 46 42
22 48 43
21 47 43
21 47 43
21 47 42
21 47 43
22 48 43
22 48 44
22 48 43
22 47 43
22 48 44
22 48 44
21 46 42
22 49 44
22 48 43
22 48 43
21 47 43
22 48 44
22 48 43
22 49 44
21 47 43
22 48 44
21 46 42
21 47 43
21 47 43
21 47 42
22 49 44
22 48 43
22 48 44
22 48 44
22 49 44
22 48 43
22 47 43
22 48 43
22 48 43
22 49 44
22 48 44
22 49 44
22 48 44
21 47 43
21 47 43
22 48 43
22 48 43
21 47 43
22 47 43
23 50 45
22 47 43
22 48 43
22 47 43
21 47 43
22 48 44
21 47 43
22 47 43
22 47 43
22 49 45
22 47 43
22 47 43
22 48 43
22 48 44
21 47 43
22 48 44
22 48 44
22 48 44
22 47 43
22 48 43
21 46 42
21 47 43
21 47 43
21 46 42
21 46 42
21 46 42
21 47 43
21 47 43
21 47 43
21 45 41
21 47 43
21 46 42
22 48 43
21 46 42
21 46 42
21 47 43
21 47 43
21 47 43
21 47 43
21 47 43
20 45 41
21 46 42
21 47 43
21 46 42
21 46 42
21 46 42
21 47 43
21 47 43
21 46 42
21 47 43
21 46 42
21 47 43
21 46 42
21 47 42
21 46 42
22 47 43
22 48 43
22 48 44
21 46 42
21 46 42
21 46 42
21 47 43
21 46 42
22 47 43
21 46 42
21 46 42
22 48 44
21 47 43
21 47 42
21 47 43
22 47 43
22 48 44
21 47 43
21 46 42
22 48 43
21 46 42
22 48 44
21 47 43
21 47 43
22 48 44
22 48 44
22 49 45
22 48 44
22 48 44
21 46 42
22 47 43
22 48 43
21 47 43
21 46 42
21 47 43
22 47 43
21 47 43
21 47 42
21 47 43
22 48 43
22 49 44
22 48 43
22 48 43
22 48 44
22 49 44
22 48 44
22 49 44
21 47 42
22 49 44
21 46 42
22 48 43
22 48 44
22 47 43
21 47 43
22 47 43
21 47 43
22 48 43
21 47 42
22 47 43
22 48 43
22 48 44
22 47 43
22 48 43
22 48 44
21 47 42
22 49 44
22 47 43
22 49 44
22 48 43
22 47 43
22 49 45
21 47 43
22 49 44
22 48 44
22 47 43
22 48 43
22 49 45
22 47 43
21 46 42
21 47 42
22 47 43
21 47 43
22 48 44
21 47 42
22 48 43
21 46 42
21 46 42
21 46 42
21 47 43
21 46 42
21 47 43
21 46 42
21 46 42
21 46 42
20 44 41
21 46 42
20 45 41
21 47 42
21 47 43
21 46 42
20 45 41
21 46 42
21 47 43
21 47 43
21 47 43
21 46 42
21 46 42
21 47 43
21 47 43
21 46 42
21 47 43
21 47 43
21 46 42
21 47 43
20 45 41
21 47 43
22 48 44
21 46 42
21 47 43
21 46 42
21 47 43
22 48 44
21 47 43
21 47 43
21 47 43
21 47 43
22 48 44
22 48 44
21 47 43
21 46 42
21 46 42
22 48 44
21 46 42
21 47 43
21 47 43
21 46 42
22 48 43
22 48 43
22 47 43
22 48 43
22 47 43
22 48 43
22 49 44
21 47 42
22 48 44
22 49 44
21 46 42
21 47 43
22 48 44
21 46 42
21 47 43
21 47 43
22 48 44
22 49 45
21 47 43
22 48 43
21 46 42
22 48 43
21 47 43
22 47 43
21 46 42
22 48 44
21 47 43
22 49 44
22 48 44
22 48 44
21 47 43
22 49 44
22 49 45
21 47 43
22 47 43
22 49 44
22 49 45
22 48 43
21 47 43
22 49 44
21 47 43
22 48 43
22 48 44
22 48 44
22 49 45
21 47 43
22 48 44
22 48 44
22 48 44
21 47 42
22 48 44
22 49 44
22 48 43
22 48 44
22 48 43
21 47 42
22 48 44
22 48 43
21 46 42
22 49 44
22 49 44
22 47 43
22 47 43
22 48 44
22 47 43
22 48 43
22 48 44
22 48 44
21 47 42
21 46 42
21 46 42
21 46 42
20 45 41
20 45 41
21 46 42
21 46 42
20 45 41
21 46 42
22 48 44
22 48 44
21 46 42
21 47 42
21 47 43
21 47 43
21 46 42
21 46 42
21 46 42
21 47 43
21 47 43
21 47 43
22 48 44
21 47 43
21 46 42
21 47 43
21 46 41
21 47 43
22 47 43
21 47 43
21 47 43
22 48 44
21 47 43
22 48 43
21 47 43
21 47 43
21 47 43
21 47 43
22 48 44
21 46 42
20 45 41
22 49 45
21 47 43
21 47 42
21 46 42
21 47 43
21 47 43
22 49 44
21 46 42
21 46 42
21 47 43
21 47 43
22 48 44
22 48 43
22 48 44
22 47 43
21 47 42
22 48 43
21 47 43
22 47 43
21 47 43
21 47 43
22 48 44
22 48 44
22 48 43
21 47 43
21 46 42
22 48 44
22 48 44
22 48 43
22 48 43
22 49 44
22 49 44
22 47 43
22 48 43
21 47 43
21 47 43
22 48 43
22 47 43
23 49 45
22 49 44
21 47 43
22 49 44
21 47 42
22 48 44
22 49 44
22 48 44
22 48 43
23 50 45
22 49 45
22 48 44
22 48 43
22 49 44
22 48 44
22 48 43
22 48 44
21 47 43
22 48 44
22 47 43
21 47 43
21 47 43
21 47 43
22 48 44
22 48 43
22 47 43
21 47 43
22 47 43
22 48 44
22 48 44
22 48 43
22 48 43
22 49 44
22 48 44
22 49 44
22 47 43
22 48 43
21 47 43
21 47 42
22 48 44
22 47 42
22 47 42
21 46 42
21 46 42
21 46 42
21 46 42
21 47 43
21 47 43
21 47 43
22 47 43
21 46 42
20 45 41
21 46 42
21 46 42
21 46 42
21 47 43
21 46 42
21 47 43
21 47 43
21 46 42
21 46 42
21 46 42
21 47 43
21 47 43
21 46 42
21 46 42
21 47 43
22 48 43
21 47 43
21 46 42
21 47 42
21 47 43
22 48 43
21 47 43
21 46 42
21 47 43
21 46 42
21 47 43
22 47 43
21 47 43
21 47 43
21 47 43
21 47 43
22 47 43
22 48 43
22 48 43
21 46 42
22 47 43
22 48 44
22 48 43
21 47 43
21 47 43
21 47 43
22 48 43
21 47 43
21 47 42
22 48 43
22 48 43
21 46 42
21 46 42
22 49 44
22 48 44
23 49 45
22 48 44
21 47 43
21 47 43
22 48 43
22 47 43
21 47 43
21 46 42
22 48 43
22 49 45
22 48 44
21 47 43
22 49 44
22 49 44
22 48 44
21 47 42
22 48 44
22 47 43
22 48 44
22 48 43
22 47 43
22 48 43
21 47 43
22 48 43
21 47 43
22 48 44
22 48 44
22 48 44
22 48 44
21 47 42
22 48 43
22 48 44
22 47 43
22 49 44
22 48 43
22 49 45
22 48 43
22 48 43
21 47 43
22 48 44
22 48 43
22 48 44
22 48 43
22 48 43
22 47 43
22 48 43
22 48 44
21 47 43
22 48 44
21 47 43
22 48 44
22 49 45
22 47 43
22 48 44
22 48 43
22 48 44
22 48 43
22 47 43
21 46 42
22 48 43
20 44 40
21 47 43
21 46 42
20 45 41
21 46 42
20 45 41
21 46 42
21 46 42
22 48 44
21 47 43
21 47 43
22 48 44
22 48 43
21 47 43
21 47 43
21 46 42
21 46 42
21 46 42
21 46 42
21 47 43
21 46 42
21 46 42
21 45 41
21 47 43
21 47 42
21 47 43
21 46 42
21 47 43
21 47 43
21 47 43
21 47 43
21 46 42
21 47 43
21 47 42
22 48 44
21 46 42
21 47 43
21 47 42
21 47 42
21 47 43
21 47 43
22 47 43
21 47 43
23 50 45
22 48 44
21 47 43
22 47 43
21 46 42
21 47 42
21 47 43
21 47 43
21 47 42
22 49 44
22 48 43
21 47 42
21 47 42
22 48 44
21 47 42
22 49 44
22 48 44
22 48 44
22 48 44
22 48 44
22 47 43
21 46 42
22 49 45
21 47 42
22 48 43
21 47 43
22 49 44
22 49 44
23 50 45
22 47 43
22 48 44
22 49 44
22 48 43
21 46 42
21 47 43
22 48 43
22 48 43
22 48 43
22 48 44
22 49 44
22 48 43
22 48 43
22 49 44
22 48 43
21 47 43
22 49 44
22 49 44
22 48 43
21 47 43
22 48 43
22 48 44
22 49 44
22 49 44
22 48 43
21 47 42
22 47 43
22 49 44
21 47 43
21 47 43
22 49 44
22 48 43
22 48 44
22 48 43
22 49 44
21 47 43
22 47 43
22 49 44
22 49 45
22 48 43
22 49 44
22 48 43
22 47 43
22 47 43
22 48 44
22 49 44
22 47 43
21 46 42
22 48 44
21 46 42
21 47 43
21 46 42
21 47 43
21 47 43
21 46 42
21 46 42
20 45 41
21 47 43
22 47 43
21 47 43
20 45 41
21 46 42
21 46 42
21 46 42
21 47 43
21 47 43
22 47 43
21 47 43
21 46 42
21 47 43
21 47 43
21 47 43
21 47 43
21 46 42
21 47 43
22 48 44
21 46 42
21 46 42
21 46 42
21 47 43
21 46 42
21 47 43
21 47 43
21 47 43
22 47 43
22 48 43
22 48 44
22 48 43
21 47 43
21 47 42
21 47 43
21 47 43
22 47 43
21 47 43
22 48 44
22 48 44
22 47 43
21 47 43
22 47 43
22 49 45
22 48 44
22 48 44
21 47 42
22 48 44
22 48 44
21 47 43
22 48 44
22 48 44
22 48 43
22 48 43
22 49 45
21 47 43
22 48 44
22 48 44
21 47 43
22 48 43
22 47 43
22 48 44
22 49 45
21 47 43
22 48 43
22 49 44
22 49 45
21 47 43
22 48 43
22 48 43
22 48 43
22 49 45
22 49 44
22 49 44
22 49 45
21 47 43
22 48 44
22 48 44
21 47 43
22 48 43
22 48 43
22 49 44
22 49 44
22 48 44
44 58 53
68 73 67
28 50 45
21 47 43
22 48 44
22 49 44
22 48 43
21 47 43
22 47 43
21 47 42
22 48 44
22 49 45
21 47 43
22 48 44
22 48 44
21 47 43
22 49 44
22 49 44
22 48 44
22 49 44
22 49 44
22 49 44
22 49 45
22 48 43
23 50 45
21 46 42
22 48 43
22 48 44
21 47 43
21 46 42
21 47 43
21 46 42
21 46 42
22 47 43
21 46 42
21 46 42
22 48 43
21 47 43
21 47 43
21 47 43
21 47 43
21 47 43
21 46 42
22 48 43
21 46 42
21 47 43
22 48 44
21 47 43
21 47 43
22 49 45
21 47 42
21 46 42
22 48 43
21 47 43
21 47 43
21 46 42
21 46 41
22 48 44
21 47 43
21 46 42
22 48 44
21 47 42
21 45 41
22 48 44
22 48 43
22 47 43
21 47 43
22 48 44
22 48 43
22 48 44
22 48 44
21 47 42
21 47 43
22 48 44
21 47 42
22 48 44
22 47 43
22 48 44
21 47 43
21 47 43
22 48 43
21 47 43
22 48 44
22 48 44
22 48 44
22 49 44
21 47 43
22 47 43
22 48 43
21 47 43
22 48 43
22 48 44
23 50 45
22 49 44
22 48 44
22 48 43
21 47 43
22 47 43
22 48 44
22 48 43
22 49 44
23 49 45
22 48 43
22 48 44
22 48 43
22 47 43
22 48 44
22 48 43
22 48 43
22 48 44
22 49 44
22 49 44
22 47 43
22 48 44
22 48 44
22 49 45
22 48 43
22 49 44
126 118 108
198 179 164
232 207 189
238 212 194
91 84 80
36 44 45
28 47 44
23 49 45
23 50 45
22 49 44
22 48 44
22 48 44
22 48 44
22 49 44
22 49 44
23 50 45
22 49 44
22 49 44
22 48 43
22 49 44
21 47 42
22 47 43
22 48 43
22 48 44
22 49 44
22 49 44
22 47 43
21 47 43
22 48 44
22 49 44
22 48 43
21 46 42
21 46 42
21 46 42
21 46 42
21 46 42
21 45 41
21 46 42
21 47 43
21 47 43
21 46 42
21 46 42
21 47 43
21 46 42
22 48 43
21 46 42
22 48 43
21 46 42
21 47 43
21 46 42
21 47 43
21 46 42
22 48 44
21 47 43
21 47 43
21 47 43
21 47 43
21 47 43
22 47 43
22 48 44
21 46 41
22 48 44
21 47 43
22 47 43
22 48 44
21 47 42
21 47 43
21 47 42
22 48 43
21 46 42
22 48 44
21 47 43
21 47 42
21 47 43
21 46 42
21 47 43
21 46 42
22 48 44
21 46 42
21 47 42
21 47 43
22 48 43
22 48 43
21 47 43
22 47 43
22 48 44
22 47 43
21 47 43
22 48 44
22 49 44
21 47 43
22 48 44
22 48 44
22 48 43
22 48 44
22 48 44
22 49 44
22 48 43
22 48 43
22 49 44
22 48 43
22 48 43
22 49 44
22 48 44
21 47 43
22 48 43
22 47 43
22 48 43
22 48 43
22 48 44
22 49 44
22 48 44
22 48 43
22 48 44
22 48 44
22 48 44
22 48 43
22 49 44
47 60 54
161 147 136
221 198 182
229 206 189
236 211 193
227 203 185
50 50 53
41 43 47
41 43 47
35 44 45
22 47 43
22 48 44
22 48 43
22 48 44
22 48 43
22 49 44
22 47 43
21 47 43
22 48 43
22 48 43
22 48 44
22 48 43
22 48 43
22 48 44
22 48 44
22 47 43
22 47 43
22 48 43
23 50 45
22 48 43
22 48 44
22 47 43
21 46 42
21 47 43
21 46 42
21 46 42
21 47 43
21 46 42
21 46 42
22 48 43
22 48 44
21 46 42
21 46 42
21 47 43
21 46 42
21 47 43
22 48 43
21 47 43
21 46 42
22 48 44
21 47 43
21 47 42
21 47 43
21 46 42
22 47 43
21 47 42
21 47 42
22 48 44
21 47 42
22 48 44
21 47 43
22 48 44
21 47 43
21 47 43
21 46 42
22 48 43
22 48 44
21 47 43
22 48 44
21 47 42
21 47 43
22 48 43
22 47 43
22 47 43
22 48 44
21 46 42
22 48 44
21 47 43
21 47 43
22 48 43
22 48 44
22 48 44
22 48 43
22 49 44
22 48 44
21 47 42
22 49 45
22 48 44
22 48 44
22 48 43
22 48 43
22 48 44
22 48 43
21 45 41
22 48 43
22 49 44
22 48 44
21 47 43
22 48 43
22 49 44
23 50 45
22 48 44
22 49 45
22 49 44
22 48 44
22 49 45
22 47 43
22 48 43
21 47 42
22 48 44
22 49 44
22 48 43
22 48 44
22 47 43
22 48 43
22 49 44
22 48 44
22 49 44
22 48 44
22 48 44
137 128 118
210 188 173
223 200 183
230 206 189
236 211 193
161 145 134
46 48 50
42 45 48
41 44 47
41 43 47
34 44 44
22 48 43
22 49 44
22 48 43
22 49 44
21 46 42
22 49 44
22 48 43
22 47 43
22 48 43
22 48 44
23 49 45
22 48 43
22 48 44
22 49 44
22 48 43
23 51 46
22 49 44
22 49 45
22 49 44
23 49 44
21 47 42
21 47 43
21 46 42
21 46 42
21 46 42
21 47 42
21 45 41
21 47 43
21 47 43
22 47 43
21 46 42
21 47 42
21 47 43
21 46 42
22 48 44
21 45 41
22 48 43
21 47 43
21 46 42
22 48 44
21 47 43
21 47 43
21 47 43
21 46 42
21 47 43
21 47 43
21 47 43
21 47 42
21 47 43
21 47 42
21 47 43
22 48 43
21 47 43
22 48 43
21 47 43
22 48 43
21 47 43
21 47 43
21 47 43
22 48 44
21 47 43
22 48 43
22 48 44
21 46 42
22 48 44
22 49 44
21 46 42
21 47 43
21 47 43
22 48 44
22 48 44
22 48 44
22 47 43
22 48 44
22 49 44
22 48 43
22 48 43
22 48 44
22 48 43
22 48 44
22 49 45
22 48 44
22 48 44
22 48 44
22 49 45
22 49 45
22 49 44
22 49 44
22 48 44
22 49 45
22 48 43
22 48 44
22 48 44
22 47 43
22 48 44
22 48 44
22 47 43
22 48 43
22 48 44
22 49 44
22 48 44
22 48 44
22 48 43
22 48 43
22 49 44
22 47 43
22 48 43
21 47 43
59 67 62
175 159 147
205 184 169
221 197 180
228 204 186
216 193 177
76 72 69
136 127 111
103 97 87
42 44 47
40 43 46
39 41 44
27 48 45
22 48 43
22 48 43
22 49 45
22 48 43
22 49 44
23 50 45
22 48 44
23 49 45
22 48 44
22 48 44
22 49 44
22 48 43
22 48 44
22 48 43
21 47 42
22 48 43
23 50 45
22 48 44
23 50 45
21 46 42
22 48 43
21 47 43
21 47 43
21 47 43
21 47 43
21 46 41
21 47 43
21 47 43
22 48 44
21 46 42
21 47 43
21 47 43
21 46 42
21 46 42
21 46 42
22 48 44
22 47 43
21 47 43
22 48 44
22 48 43
21 46 42
22 48 43
22 47 43
21 47 42
21 46 42
22 48 44
22 48 44
22 48 44
22 48 44
21 47 43
21 46 42
22 48 43
22 48 44
21 47 43
22 48 44
22 48 44
22 48 43
22 48 43
22 48 44
22 48 43
21 47 43
22 47 43
22 47 43
21 47 43
22 48 43
22 48 44
21 47 43
21 47 43
22 48 43
22 49 44
22 48 44
22 48 44
21 47 43
22 49 44
22 49 44
22 48 44
22 48 44
21 47 43
21 47 42
22 48 44
22 48 43
22 48 44
22 48 43
22 49 45
22 48 44
22 48 43
23 50 45
22 48 44
22 48 43
22 49 44
22 48 44
22 49 44
23 49 45
22 49 44
22 49 44
23 50 45
22 49 44
22 48 43
21 47 43
22 49 44
22 48 43
22 48 44
22 47 43
21 47 43
22 48 44
22 48 43
22 49 45
108 103 96
172 155 143
196 176 161
210 187 170
224 199 182
126 114 105
45 47 48
100 94 84
90 86 78
42 44 47
39 41 44
38 40 42
130 117 104
21 47 42
21 47 42
22 49 44
22 49 44
22 48 44
22 49 44
22 47 43
22 49 44
22 48 43
22 49 44
23 49 45
23 49 45
22 48 44
22 49 44
22 47 43
22 47 43
22 48 43
22 48 43
22 47 42
22 48 43
21 47 43
21 47 42
20 45 41
21 46 42
21 46 42
20 45 41
21 46 42
21 47 43
21 47 43
22 48 44
21 47 43
22 48 44
21 47 43
22 48 44
21 47 43
22 48 44
21 46 42
21 47 43
22 48 44
22 48 43
21 47 43
21 47 42
21 46 42
22 48 43
21 47 43
21 47 43
21 47 42
21 47 42
21 47 43
21 47 43
22 48 44
22 48 43
22 48 44
22 48 44
22 48 44
22 48 44
22 48 43
21 46 42
22 48 43
21 47 43
22 48 44
22 47 43
22 48 43
22 48 44
22 48 44
22 48 44
22 48 43
22 48 44
22 48 43
21 47 43
22 48 43
22 48 44
22 48 43
21 46 42
22 48 43
21 47 43
22 48 44
22 49 44
22 48 43
22 48 43
22 48 44
22 48 44
22 47 43
22 48 43
22 48 43
22 47 43
22 48 44
21 46 42
22 48 44
22 48 43
22 49 44
22 49 45
22 49 44
22 49 44
22 48 44
21 47 43
22 49 44
21 47 43
22 49 44
22 48 43
21 47 43
22 48 43
22 48 44
22 49 44
22 48 43
22 48 43
21 47 43
104 99 92
151 138 127
175 157 142
197 176 160
163 146 133
36 38 42
37 40 43
39 41 44
40 42 44
38 40 43
37 39 42
64 59 57
183 161 143
22 48 43
23 49 45
22 49 44
22 49 44
23 49 44
22 48 44
23 50 45
22 48 44
22 48 44
22 48 43
22 49 44
22 49 44
22 48 44
22 48 44
22 48 43
22 48 43
22 48 43
20 45 40
21 46 42
21 45 41
21 47 43
21 46 42
21 47 43
21 46 42
21 46 42
21 47 43
21 46 42
22 47 43
21 47 42
22 48 44
21 47 43
21 47 42
21 46 42
22 48 43
22 48 43
21 47 43
22 48 43
21 46 42
20 45 41
21 47 43
21 47 43
21 47 43
21 47 43
22 48 44
23 49 45
21 47 43
21 47 43
21 47 43
22 48 43
21 47 43
22 48 43
21 47 43
21 47 42
21 47 42
22 48 43
22 48 44
22 48 43
21 47 43
22 48 43
21 47 43
21 47 43
22 49 44
21 47 42
22 49 44
21 47 43
22 48 44
22 48 43
21 46 42
22 48 44
21 47 43
22 48 44
21 46 42
22 48 44
23 50 45
22 49 44
22 49 45
21 47 43
22 49 44
22 49 44
22 49 44
22 49 44
22 49 44
22 48 44
22 48 43
22 48 44
22 48 44
23 49 45
22 49 44
22 47 43
22 48 44
22 47 43
22 48 43
22 48 43
22 49 44
22 49 45
22 48 43
22 48 44
21 46 42
22 49 44
21 47 43
22 48 43
23 49 45
22 48 43
22 48 44
22 48 43
22 48 43
21 47 42
104 98 91
136 125 115
159 143 130
166 149 136
79 72 68
116 104 94
136 120 109
111 99 90
54 52 51
35 37 40
35 37 40
151 133 119
175 153 135
21 47 42
22 48 43
22 47 43
23 50 45
22 48 44
22 49 44
22 48 43
22 48 43
21 47 42
22 48 44
22 49 44
23 50 45
22 48 44
22 48 43
22 48 43
22 48 43
22 48 43
20 44 40
18 40 37
16 36 33
20 45 41
21 47 43
21 47 42
21 46 42
21 46 42
21 46 42
21 47 43
21 47 43
21 47 43
21 47 43
21 46 42
21 46 42
21 47 42
21 47 43
22 48 44
21 46 42
22 47 43
22 48 43
22 47 43
22 47 43
22 48 43
21 47 42
22 48 44
22 48 44
21 47 43
22 48 44
21 47 43
21 46 42
21 47 43
21 47 42
22 48 43
21 46 42
22 48 43
22 48 44
22 49 44
22 47 43
21 47 43
22 48 44
22 48 44
22 48 43
22 48 43
22 48 44
22 48 44
22 49 44
22 48 43
22 48 43
22 48 44
22 47 43
23 50 45
21 46 41
22 48 43
22 49 45
22 48 43
22 48 44
21 46 42
22 48 44
22 48 44
21 46 42
22 48 44
21 47 43
22 48 44
22 48 44
21 47 43
22 49 44
22 49 44
22 48 43
22 49 44
22 48 43
22 49 44
22 48 43
22 48 43
22 49 45
22 48 44
22 49 44
22 49 44
22 49 44
22 48 44
22 49 44
22 48 43
22 48 44
22 49 44
22 48 43
22 47 43
22 48 43
22 48 43
21 45 41
20 45 41
81 80 73
110 102 94
123 112 103
66 61 57
125 111 101
169 149 133
188 166 148
182 160 143
125 110 98
33 34 37
65 59 56
170 150 132
159 140 123
22 48 43
22 48 43
22 49 44
22 49 44
22 47 43
23 49 44
22 48 43
22 47 43
22 48 43
22 48 43
23 49 44
22 48 43
23 49 44
22 48 43
21 47 42
22 48 43
22 47 43
19 41 38
16 36 34
14 32 30
21 47 43
21 47 43
21 47 43
21 47 43
22 49 44
22 48 44
21 47 43
21 47 43
21 46 42
21 46 42
22 48 44
21 47 43
22 48 44
22 48 44
22 48 44
21 47 42
22 48 43
21 47 43
21 47 43
21 47 43
22 48 44
21 47 43
22 49 45
21 47 43
21 46 42
22 48 43
21 47 43
21 47 43
22 49 44
22 48 43
21 47 43
22 48 44
21 47 43
21 47 43
22 48 43
22 48 43
22 47 43
23 50 45
21 47 42
22 48 43
22 48 43
21 46 42
21 47 43
22 48 43
22 49 44
22 48 44
22 48 43
22 49 44
22 49 44
22 48 44
23 49 45
21 47 43
22 49 44
22 48 44
22 49 44
22 47 43
22 48 44
22 48 44
21 47 42
21 47 43
22 48 43
23 49 45
22 48 44
22 48 44
22 47 43
22 49 44
22 48 44
22 49 44
21 47 43
22 49 44
21 47 42
22 48 44
22 47 43
22 48 44
22 48 43
22 48 43
21 47 42
22 48 44
23 50 46
22 49 44
22 48 43
22 47 43
22 48 44
22 48 43
20 44 40
18 40 36
17 39 36
59 61 57
89 84 77
45 43 40
57 52 49
114 102 91
101 91 81
111 98 87
172 152 135
137 121 107
31 32 33
129 114 101
159 140 123
92 85 74
22 47 43
22 47 42
22 49 44
22 48 43
22 48 43
22 48 43
22 47 43
22 49 44
22 47 43
22 48 44
22 48 43
22 48 43
21 47 42
22 48 43
22 47 43
22 48 43
22 48 43
21 45 40
18 39 35
13 30 28
21 47 43
21 47 43
21 47 43
22 49 45
21 47 43
21 47 43
21 47 43
21 47 43
21 46 42
21 46 42
22 48 43
21 47 43
21 47 42
21 47 43
21 47 43
22 49 44
21 47 43
21 46 42
22 48 44
22 47 43
21 47 43
21 47 43
21 47 43
22 48 43
22 47 43
21 47 43
22 48 44
22 48 43
21 47 43
21 47 43
22 48 43
22 48 44
21 47 43
21 47 43
22 48 43
22 48 44
22 48 44
22 48 44
21 47 43
22 48 44
22 48 44
21 47 42
22 48 43
22 48 44
22 48 44
22 48 44
22 48 44
22 49 44
22 48 43
22 48 44
21 46 42
22 48 43
21 47 43
22 48 44
22 48 43
22 48 44
22 48 43
22 49 45
22 48 44
23 50 45
22 48 44
22 49 44
23 49 45
21 47 43
22 48 44
23 50 45
22 48 44
22 49 45
21 47 42
23 50 45
22 49 44
22 48 44
22 48 44
22 47 43
21 47 43
22 49 44
22 48 43
22 48 44
22 48 43
22 47 43
22 49 44
22 49 44
21 47 42
20 44 40
18 41 37
16 36 34
14 32 31
13 31 30
12 18 18
13 15 16
13 15 16
71 66 59
108 99 87
114 102 90
110 98 87
94 84 73
88 78 68
135 119 103
109 98 84
38 54 49
22 47 42
22 48 43
22 47 42
22 48 43
22 48 44
22 47 43
22 49 44
23 49 44
22 49 44
23 49 44
22 48 44
22 48 43
22 49 44
21 47 42
21 47 42
22 49 44
22 48 43
22 47 42
21 45 40
18 40 36
21 47 42
22 48 43
21 46 42
21 46 42
22 48 44
22 47 43
21 47 42
21 47 43
21 46 42
22 48 44
22 47 43
21 47 43
22 49 45
22 48 43
21 47 42
21 46 42
22 48 44
21 47 43
22 47 43
22 48 44
21 47 43
21 47 43
22 48 43
21 47 43
21 47 43
22 48 44
21 47 43
22 48 43
22 48 44
22 47 43
22 48 43
21 47 43
22 48 44
21 47 42
22 48 43
22 47 43
21 47 43
22 49 45
22 48 44
22 48 44
22 48 44
22 48 44
22 48 43
22 47 43
22 48 44
22 48 44
22 48 44
22 49 45
21 47 43
22 47 43
22 48 43
23 50 45
22 48 44
22 48 43
22 49 44
21 47 43
22 48 43
21 47 43
22 49 44
22 49 44
22 48 43
22 48 43
22 49 44
22 48 44
22 49 44
22 48 44
22 48 44
22 48 44
22 48 44
22 48 43
22 49 44
22 48 43
22 49 44
22 49 44
23 49 45
22 49 45
22 48 43
22 48 43
22 49 44
22 47 43
22 49 44
22 48 43
21 45 41
20 45 41
18 40 37
15 35 33
13 30 29
12 28 27
11 26 25
7 12 12
7 9 9
11 14 13
40 40 34
58 55 47
69 63 54
50 47 40
91 82 69
85 77 65
37 49 42
21 46 41
21 46 41
22 47 42
21 47 42
22 47 43
22 49 44
22 47 42
22 48 44
23 50 45
22 48 43
22 47 43
22 49 44
22 49 44
22 48 43
22 48 43
22 48 43
22 48 43
22 48 43
21 46 41
21 46 41
21 46 41
21 47 43
22 48 44
21 47 42
21 47 43
22 48 43
21 47 43
21 46 42
21 47 43
21 46 42
21 47 42
21 47 43
22 48 44
22 48 44
21 47 43
22 48 43
21 47 43
22 48 44
22 48 44
21 47 43
22 49 44
21 47 43
21 47 43
22 48 43
22 48 43
22 48 43
22 48 44
22 49 44
22 48 43
22 48 43
21 46 42
22 48 44
21 47 42
22 48 44
22 47 43
22 49 45
22 48 44
22 48 44
22 48 44
21 47 43
22 48 44
21 47 43
22 48 44
22 49 44
22 49 44
21 47 43
22 48 43
21 46 42
21 46 42
21 46 42
22 48 43
22 49 44
22 48 43
22 48 44
22 48 44
21 47 42
22 48 44
22 48 43
22 48 43
22 48 44
22 49 44
22 48 44
23 49 45
21 47 43
22 49 44
22 49 44
22 48 44
22 49 44
22 48 44
22 49 45
22 49 44
22 48 44
22 49 44
22 49 45
22 48 44
22 48 44
22 49 45
21 47 42
22 48 44
22 48 44
22 48 43
22 47 43
22 48 43
22 47 43
22 48 44
19 42 38
15 34 32
13 30 29
12 29 28
11 25 24
9 22 21
5 12 11
5 7 6
6 8 7
7 9 8
17 19 14
45 45 33
40 42 33
23 34 29
20 44 38
20 44 39
21 45 40
22 48 43
22 48 43
22 47 42
22 48 43
22 47 42
22 48 43
22 48 43
22 48 44
22 48 44
22 49 44
23 49 45
22 48 44
22 47 42
22 48 43
22 49 44
22 48 43
22 48 43
22 48 43
22 47 42
22 47 43
22 47 43
21 47 43
22 48 44
22 48 43
21 46 42
21 46 42
21 47 42
21 47 43
21 46 42
21 46 42
22 48 44
21 47 43
21 46 42
21 47 42
22 48 43
22 47 43
21 47 43
21 47 43
22 49 45
21 46 42
22 47 43
22 48 44
22 48 44
22 48 44
22 48 44
23 50 46
22 48 43
22 49 44
21 47 42
21 47 43
21 47 43
22 48 44
21 47 42
22 48 44
22 48 44
22 48 44
22 49 44
22 47 43
21 47 42
22 48 43
22 48 44
21 47 43
23 50 45
22 48 44
22 49 45
22 48 44
22 48 44
22 49 44
22 48 43
21 47 42
23 49 45
22 48 43
23 50 45
22 48 44
22 48 44
22 48 43
22 48 44
21 46 42
23 49 45
22 49 44
23 50 45
22 49 45
22 48 44
22 47 43
22 48 44
22 48 43
21 47 43
22 47 43
22 49 44
22 48 43
22 48 43
22 48 44
22 48 44
21 47 42
22 47 43
22 48 43
22 48 44
23 49 45
22 49 44
22 48 43
22 48 43
22 47 42
22 47 43
22 47 42
20 44 39
19 41 37
15 33 31
12 28 26
10 24 23
8 20 19
7 16 15
6 13 12
12 14 12
26 28 21
18 23 18
11 24 22
17 36 32
20 43 38
22 47 41
21 45 39
22 48 42
22 47 42
21 46 41
23 49 44
22 48 43
22 49 44
22 48 43
22 48 43
23 49 44
23 49 44
22 48 43
22 47 43
22 48 44
22 49 44
22 48 43
22 47 43
23 49 44
23 49 44
22 48 43
21 46 42
22 48 44
22 49 45
22 48 43
21 47 43
21 47 43
21 47 42
21 47 42
21 47 42
21 46 42
21 47 43
22 48 44
21 47 43
22 48 43
22 48 44
21 47 43
21 47 43
21 47 43
21 47 43
22 49 45
22 48 44
22 48 44
22 48 44
21 47 43
22 48 44
21 47 43
22 47 43
21 47 43
22 48 44
21 46 42
22 48 44
22 48 44
22 47 43
21 47 43
21 47 43
22 47 43
22 47 43
22 47 43
22 48 43
22 47 43
22 47 43
22 48 43
22 48 44
22 49 44
23 49 45
22 48 43
22 48 43
22 48 43
21 47 43
22 49 44
22 48 43
22 49 44
23 50 46
22 49 45
22 49 45
22 49 45
22 48 44
22 49 44
22 48 44
22 49 44
22 49 45
22 49 44
22 49 44
22 49 44
22 47 43
22 47 43
23 50 45
22 48 44
22 48 43
22 48 44
22 48 43
22 47 43
22 49 45
22 49 44
22 48 44
22 48 44
22 49 44
22 49 44
22 48 43
22 48 44
22 49 44
22 48 43
22 48 43
22 48 43
22 47 42
21 46 41
21 46 42
21 45 40
19 43 39
17 37 33
15 33 30
14 30 27
12 28 25
12 26 24
14 30 27
16 34 30
19 40 35
21 45 39
21 46 40
21 45 40
22 47 42
21 45 40
21 47 42
21 46 42
22 47 42
22 48 43
22 48 43
22 48 43
22 47 43
23 51 46
22 48 43
23 49 45
23 51 46
22 48 43
22 48 44
22 48 44
23 50 45
23 50 45
23 50 45
23 50 45
21 46 42
22 48 44
22 48 44
22 48 44
22 48 44
21 47 43
21 47 43
21 47 43
21 46 42
22 47 43
22 48 44
21 47 43
22 48 43
22 49 44
22 48 43
22 48 44
22 47 43
22 48 43
21 47 43
21 47 43
22 47 43
22 47 43
22 47 43
22 48 43
22 48 44
22 47 43
22 47 43
22 48 44
22 48 43
22 49 45
22 48 43
21 47 43
22 49 45
22 48 43
21 47 42
22 47 43
22 48 44
22 48 44
22 48 43
22 47 43
23 49 45
22 49 44
21 47 43
22 48 44
22 48 44
22 48 43
22 49 44
21 46 42
23 50 45
22 48 44
22 48 44
22 48 43
22 48 43
22 49 44
22 49 44
22 48 43
22 48 44
21 47 42
22 48 44
22 48 43
22 48 44
22 48 43
22 49 44
22 48 43
22 49 44
22 48 43
22 49 45
23 50 45
22 48 43
23 50 45
23 49 45
22 49 44
22 48 43
22 48 43
22 48 44
22 48 43
22 49 45
22 49 44
22 48 43
22 48 44
22 48 44
22 49 44
22 49 44
21 46 42
22 47 43
21 47 42
21 46 41
22 47 42
21 47 42
22 47 42
21 45 40
21 44 40
21 46 40
20 44 39
21 44 39
21 45 40
21 45 40
21 46 41
21 44 40
21 46 41
21 46 41
22 47 42
23 49 44
22 48 43
22 48 43
22 47 42
22 48 43
22 48 43
23 49 44
22 48 43
22 48 43
23 49 44
22 48 43
23 50 45
23 49 45
23 49 44
23 50 45
23 49 44
23 50 45
22 49 44
21 47 43
22 47 43
21 47 43
22 48 43
22 47 43
20 45 41
21 47 43
22 48 43
21 47 43
22 48 43
21 47 43
22 48 44
21 47 43
21 47 42
22 48 44
22 48 43
21 46 41
21 47 42
21 47 42
22 47 43
22 47 43
22 48 43
21 46 42
22 49 44
22 49 45
22 49 44
22 47 43
22 48 44
22 48 44
22 48 43
21 47 43
21 47 43
22 49 44
22 48 43
22 49 45
21 47 42
22 48 43
22 49 44
22 47 43
22 48 44
22 48 43
22 48 43
23 49 45
22 48 44
22 48 44
23 50 45
21 47 42
22 48 44
23 50 45
22 48 44
22 48 43
22 48 43
22 48 44
23 50 46
23 49 45
22 48 43
22 48 44
22 49 45
22 48 44
22 49 45
22 48 43
23 50 45
22 49 44
23 50 45
22 49 44
22 49 44
22 48 44
22 48 44
23 49 45
22 49 44
22 48 44
22 49 44
22 47 43
22 49 44
22 48 44
22 49 44
23 50 45
22 48 43
22 48 44
22 48 43
22 47 42
22 47 42
22 49 44
22 48 43
23 50 45
22 47 43
22 48 43
22 48 44
22 48 44
21 47 42
21 47 42
22 47 42
22 47 42
21 46 41
21 46 41
22 47 42
21 46 41
21 45 40
22 48 43
22 47 42
21 46 41
22 47 42
22 48 43
22 48 43
22 48 43
22 47 43
22 47 43
22 48 43
22 48 43
22 48 44
22 48 43
23 51 46
22 49 44
22 48 44
22 49 44
22 47 43
23 51 46
22 49 44
22 49 44
23 49 44
22 47 43
22 48 44
22 48 44
21 46 42
22 47 43
21 47 43
22 48 44
22 47 43
22 48 43
22 49 44
22 49 44
22 47 43
21 46 42
22 48 44
22 47 43
21 47 42
22 49 44
22 48 44
21 47 43
21 47 43
22 49 45
22 48 43
21 47 43
22 48 43
22 48 43
22 48 44
22 48 43
21 47 43
21 47 43
21 47 42
22 49 44
21 47 43
22 48 44
22 47 43
22 49 44
22 48 44
22 48 44
23 49 45
23 50 45
22 49 45
22 48 44
22 48 43
22 49 45
22 48 43
23 50 45
22 48 44
22 49 45
22 49 44
21 47 43
22 49 44
21 47 43
22 49 44
22 47 43
22 49 44
22 49 45
22 48 44
22 49 44
22 47 43
22 48 44
21 47 43
21 47 43
22 48 44
22 49 45
22 47 43
22 48 44
22 48 43
22 49 44
22 48 44
22 49 44
22 48 44
22 49 44
22 48 43
22 48 44
22 48 43
22 49 44
22 48 43
23 49 45
22 49 44
22 48 44
22 48 44
22 48 44
22 47 42
22 48 43
22 49 44
22 48 44
23 50 45
23 50 45
22 49 44
22 49 44
22 49 44
23 49 44
22 47 43
22 48 43
22 49 44
21 46 42
22 48 44
23 50 45
21 46 42
22 47 42
22 48 43
22 49 44
22 48 43
22 48 43
22 48 43
22 48 43
22 48 43
23 50 45
22 49 44
23 50 45
22 49 44
22 49 44
22 49 44
22 49 44
23 50 45
22 49 44
23 50 45
23 50 45
23 49 44
23 49 45
22 48 44
22 48 43
21 46 42
22 47 43
22 47 43
21 47 43
22 49 44
22 48 44
21 46 42
22 48 43
22 48 44
22 48 44
21 46 42
21 47 43
22 47 43
21 46 42
22 49 45
22 48 43
22 48 44
21 47 43
21 46 42
21 47 43
22 48 43
22 48 43
21 47 42
22 48 44
22 48 43
22 48 44
22 48 44
21 47 42
22 48 44
22 47 43
21 47 43
22 48 43
23 50 45
22 48 43
21 47 43
22 49 45
22 47 43
22 47 43
21 46 42
22 49 44
22 48 43
21 47 43
22 48 44
22 49 44
22 48 43
22 48 44
22 49 45
22 48 44
22 48 43
22 48 44
22 48 43
22 49 44
22 48 44
22 49 45
22 48 43
22 49 44
22 47 43
23 49 45
23 49 45
22 49 44
22 47 43
22 49 44
22 48 44
22 48 44
22 48 43
22 49 44
22 47 43
21 47 43
22 48 44
22 49 44
22 49 44
22 49 44
22 49 44
22 48 43
22 48 44
23 49 45
22 49 44
22 49 44
22 49 45
23 50 45
22 48 43
22 49 44
22 49 44
23 49 44
23 50 45
22 49 44
22 48 44
23 50 45
22 49 44
22 48 43
22 49 44
22 47 43
22 48 44
22 48 44
22 49 44
22 48 43
23 50 45
23 50 45
22 49 44
22 47 43
22 49 44
22 48 43
22 49 44
23 49 44
23 51 45
23 49 45
22 49 44
22 49 44
23 50 46
23 50 45
23 50 45
23 50 45
22 49 44
23 50 45
23 50 45
23 50 45
23 49 44
23 50 45
23 49 44
22 48 44
22 48 44
21 47 43
22 48 44
22 47 43
21 47 43
21 47 43
22 48 44
21 46 42
22 48 44
21 46 42
22 48 44
22 48 44
23 50 45
22 48 43
22 48 44
22 48 44
22 48 43
21 47 43
22 47 43
22 47 43
22 47 43
21 47 43
22 48 44
21 47 43
22 48 43
22 48 44
22 48 44
22 48 43
22 49 44
22 47 43
21 47 43
22 48 44
22 48 43
22 48 44
22 49 44
21 47 43
22 48 44
22 48 43
22 49 44
22 48 43
22 48 44
22 49 44
22 48 43
22 48 44
22 47 43
22 48 44
21 47 43
22 48 44
23 50 45
22 47 43
22 49 44
22 48 44
22 48 44
24 52 47
22 49 44
23 49 45
23 49 45
22 47 43
22 49 44
23 50 45
21 47 42
22 48 44
23 50 45
22 48 44
22 49 44
22 49 45
22 49 44
22 49 44
22 48 43
22 48 43
22 48 44
22 48 43
23 50 46
22 49 45
22 48 43
22 49 44
22 48 43
22 49 44
22 49 44
22 48 44
22 47 43
22 49 44
22 48 43
22 49 44
22 49 44
22 48 44
23 51 46
22 48 43
22 49 44
22 49 44
22 49 44
22 48 44
22 48 44
22 49 44
22 49 44
22 48 43
23 49 44
23 49 44
22 48 44
23 50 45
22 49 44
23 49 44
23 50 45
22 49 44
22 49 44
22 49 44
23 49 45
22 49 44
22 49 44
23 50 45
22 49 44
22 48 43
22 48 43
23 49 44
22 48 43
22 48 44
23 50 45
22 48 43
23 50 45
