P3
120 80
255
18 41 38
18 41 39
18 41 38
18 40 38
18 40 38
18 40 38
18 41 38
18 41 38
18 40 38
18 41 38
18 41 38
18 41 38
18 42 39
18 41 38
18 42 39
18 40 37
18 41 39
18 41 38
18 41 39
18 41 38
18 40 38
18 41 38
18 41 39
18 41 38
18 42 39
18 41 38
18 41 38
19 42 39
18 41 39
18 41 38
19 42 39
19 43 40
18 41 38
18 41 38
18 42 39
18 41 38
18 41 38
18 41 38
18 41 38
19 42 39
18 42 39
18 41 38
18 41 38
18 41 39
18 41 38
18 40 37
18 42 39
18 42 39
18 41 38
18 42 39
18 42 39
18 41 38
19 42 39
18 41 39
19 42 39
19 42 39
18 40 38
19 42 39
19 42 39
18 41 38
18 41 38
19 42 39
18 41 39
18 42 39
18 41 38
18 41 38
18 41 38
19 42 39
18 42 39
18 41 38
18 41 39
18 41 38
18 41 38
18 41 38
19 42 39
19 43 40
18 41 38
19 42 39
19 42 39
18 41 39
18 42 39
18 42 39
18 41 39
18 41 38
19 42 39
19 42 39
19 42 39
19 42 39
19 43 40
18 42 39
18 41 38
18 42 39
18 41 39
18 41 38
18 41 38
18 41 38
19 42 39
19 42 39
18 41 38
18 42 39
18 41 38
19 42 39
18 41 38
18 41 39
18 40 38
18 41 38
18 41 38
19 42 39
18 41 38
18 41 38
18 41 39
18 41 39
18 41 38
18 41 38
18 41 38
18 41 38
18 42 39
18 41 38
18 40 38
18 41 38
18 40 38
18 41 39
18 41 38
18 41 39
18 41 38
18 41 38
18 42 39
18 41 38
18 42 39
18 41 38
18 41 38
18 41 38
18 40 37
18 40 38
18 41 38
18 42 39
18 41 38
19 42 39
18 41 38
18 42 39
18 40 38
18 41 38
18 41 38
18 42 39
18 42 39
18 40 38
19 42 39
18 41 39
19 42 39
18 41 38
19 42 39
19 42 39
18 41 39
18 41 38
18 41 38
19 42 39
18 41 38
18 41 38
18 41 38
19 42 39
18 41 38
19 42 39
19 42 39
18 41 38
19 42 39
18 42 39
19 42 39
19 43 40
18 42 39
19 43 40
19 43 40
18 41 38
18 41 38
18 41 38
18 42 39
19 42 39
19 42 39
18 41 38
19 42 39
18 41 38
19 43 40
18 42 39
19 42 39
19 42 39
19 42 39
19 42 39
19 42 39
19 43 40
19 43 40
19 42 39
19 42 39
19 42 39
19 42 39
19 42 39
18 41 38
19 42 39
19 42 39
18 41 39
19 42 39
19 43 39
19 42 39
19 42 39
18 41 38
19 43 40
19 42 39
18 41 38
18 41 38
19 43 40
19 42 39
19 42 39
18 41 38
18 41 38
18 41 38
19 42 39
18 42 39
18 42 39
19 42 39
19 43 40
18 42 39
19 42 40
18 41 38
19 42 39
19 42 39
19 42 39
19 42 39
18 41 38
19 42 39
19 42 39
19 42 39
19 42 39
19 43 40
19 43 40
19 42 39
18 41 38
18 42 39
19 42 39
19 42 39
19 42 39
19 42 39
19 42 39
18 42 39
18 41 39
18 41 38
19 42 39
18 41 38
18 41 38
19 42 39
18 41 39
18 42 39
19 42 39
18 41 39
19 42 39
19 42 39
18 42 39
18 40 38
19 42 39
18 42 39
19 42 39
19 42 39
19 42 40
18 41 38
19 43 40
18 41 38
18 42 39
18 41 38
18 41 38
19 43 40
18 42 39
18 42 39
19 42 39
18 41 38
19 42 39
18 42 39
19 42 39
19 42 39
18 41 38
19 43 40
19 42 39
18 41 38
19 43 40
19 43 40
19 42 39
19 42 39
19 43 40
19 43 39
19 42 39
19 43 40
19 42 39
19 42 39
18 41 38
18 41 39
19 43 40
19 43 40
18 42 39
19 42 39
19 42 39
19 42 39
19 43 40
19 42 39
19 42 39
19 43 40
19 42 39
19 42 39
19 42 39
18 41 38
19 42 39
19 43 40
19 43 39
19 42 39
19 42 39
19 43 40
19 43 40
19 42 39
19 42 39
19 43 40
19 43 40
19 42 39
19 43 39
19 42 39
19 43 40
19 43 40
19 42 39
19 43 40
19 43 39
19 43 39
19 43 39
20 44 41
19 43 40
19 43 40
19 42 39
19 43 40
19 43 40
19 43 40
19 43 40
19 42 39
19 44 41
19 42 39
19 42 39
19 42 39
19 43 40
19 42 39
19 42 39
19 43 40
19 42 39
19 42 39
19 42 39
19 43 40
19 42 39
19 43 40
19 43 40
19 43 40
19 43 40
19 42 39
19 43 40
19 42 39
19 42 39
19 42 39
18 41 38
19 42 39
19 43 40
19 42 39
18 42 39
18 41 38
19 42 39
19 42 39
18 41 38
19 42 39
18 41 38
18 41 38
19 42 39
19 42 39
19 42 39
19 42 39
19 42 39
18 41 38
19 43 40
19 42 39
18 41 38
19 42 39
19 42 39
19 43 40
19 42 39
18 42 39
19 42 39
19 42 39
19 43 40
19 42 39
19 43 40
19 42 39
19 42 39
19 42 39
19 42 39
19 43 39
19 43 40
19 42 39
19 43 40
19 42 39
19 42 39
19 43 40
19 43 40
19 43 40
19 42 39
20 44 41
19 43 40
19 43 39
19 42 39
19 42 39
19 44 41
19 43 40
19 43 39
19 43 39
19 43 40
19 43 40
19 43 40
19 43 40
19 43 40
19 43 40
19 43 40
19 42 39
19 42 39
19 43 40
19 43 40
19 44 40
19 43 40
19 44 40
19 42 39
19 43 40
19 43 40
19 43 40
20 44 41
19 43 40
19 44 40
19 43 40
19 44 40
20 44 40
19 42 39
19 42 39
19 43 40
20 45 41
19 43 40
19 43 40
19 43 40
19 43 40
19 43 40
19 42 39
19 43 40
20 44 40
19 43 39
19 43 40
19 42 39
20 44 41
19 42 39
19 43 40
19 43 40
19 42 39
19 42 39
19 42 39
19 43 40
19 43 40
19 43 40
19 43 40
19 43 40
19 42 39
19 43 40
19 42 39
19 43 40
19 43 40
20 44 41
19 44 40
19 44 40
19 44 40
19 44 40
19 43 40
19 43 39
19 43 39
19 42 39
19 43 40
19 42 39
19 43 39
19 42 39
19 42 39
18 41 38
18 41 39
19 42 39
19 42 39
18 42 39
19 42 39
19 42 39
19 42 39
19 43 40
19 42 39
18 41 38
19 43 40
19 42 39
19 43 40
19 43 40
19 42 39
18 41 38
19 43 40
19 43 40
18 41 38
19 42 39
19 42 39
19 42 39
19 42 39
19 42 39
19 43 39
19 42 39
19 42 39
19 42 39
19 43 40
19 43 40
20 44 41
19 43 40
18 41 38
19 43 40
20 44 40
19 43 40
18 41 38
19 42 39
19 43 39
19 44 40
20 44 40
19 43 40
19 44 40
20 45 42
20 44 41
19 43 40
19 42 39
19 42 39
19 43 40
19 42 39
19 43 39
19 43 39
19 43 39
19 43 40
19 43 40
19 43 40
19 42 39
20 44 40
19 43 40
19 43 40
19 43 40
20 44 40
19 42 39
19 43 40
20 44 40
19 44 40
19 43 40
19 43 40
19 43 40
19 43 40
20 44 40
19 44 40
20 44 40
20 44 41
19 43 39
19 43 40
19 43 39
19 43 40
19 43 40
19 43 39
19 42 39
20 44 40
20 44 40
20 44 40
19 43 40
19 43 40
20 44 41
19 43 40
19 43 39
19 43 40
20 44 40
20 45 41
19 43 40
19 43 40
20 44 41
20 44 40
20 44 41
19 43 40
19 43 40
19 43 40
20 44 41
20 44 41
20 44 41
20 44 41
20 44 41
19 43 40
20 44 41
20 44 40
19 43 40
19 43 40
20 44 41
20 44 40
20 44 41
20 44 41
19 43 40
19 43 40
19 43 40
19 44 41
19 43 40
19 42 39
19 42 39
19 43 40
19 42 39
19 42 39
19 42 39
19 42 39
19 43 40
19 42 39
19 42 39
19 43 40
19 43 40
19 43 39
19 43 39
19 43 40
19 43 40
19 42 39
19 43 39
20 45 42
19 43 40
19 42 39
19 42 39
19 43 39
19 42 39
20 44 40
19 44 41
19 42 39
19 42 39
19 43 40
19 42 39
20 44 41
19 42 39
19 44 40
19 43 40
19 43 39
19 43 40
19 43 39
19 43 40
20 44 41
20 44 41
20 44 41
20 44 41
20 44 40
19 43 40
19 43 40
20 44 41
19 43 40
20 44 40
20 44 40
19 44 40
20 44 41
20 44 41
20 44 40
20 44 41
20 44 41
20 44 40
20 44 40
20 44 41
20 45 41
20 45 41
19 43 40
19 43 40
20 44 41
19 43 40
19 43 40
20 44 40
20 45 41
20 44 40
20 45 42
20 44 40
19 43 40
20 44 40
20 44 40
20 44 40
20 46 42
19 43 40
20 44 40
19 43 40
20 44 41
19 43 40
20 45 41
20 44 40
20 44 41
20 44 41
20 44 40
19 43 40
20 43 40
20 44 41
20 44 40
20 44 40
20 45 41
20 44 41
20 44 40
20 44 41
19 43 40
20 44 41
20 45 41
19 43 40
20 44 40
20 44 41
20 44 40
20 44 40
20 44 40
19 43 40
20 44 40
19 43 39
20 45 41
19 43 40
20 44 41
20 44 41
20 44 41
20 44 41
19 43 40
20 45 41
19 43 40
20 44 41
20 44 41
19 43 39
20 44 41
20 44 41
19 42 39
19 42 39
19 43 40
19 42 39
19 42 39
19 42 39
19 42 39
19 42 39
19 43 40
19 42 39
19 43 40
19 42 39
19 44 40
19 43 40
19 43 40
19 43 40
20 44 41
19 43 39
19 43 40
19 43 40
20 44 41
19 43 40
20 44 41
19 43 40
19 43 40
19 43 40
20 44 40
19 43 40
20 44 41
19 43 39
20 44 41
19 43 40
20 44 41
20 44 40
20 44 40
20 45 41
19 43 40
20 44 41
20 44 40
20 44 40
20 44 40
20 44 40
20 44 41
20 45 42
20 44 40
20 44 41
20 44 40
20 45 42
20 45 41
20 44 41
20 44 41
19 43 40
20 44 40
20 46 42
19 43 40
20 44 40
20 44 40
20 45 41
20 45 41
20 45 42
20 45 42
20 44 41
20 44 40
20 45 41
20 45 42
20 45 42
20 45 41
20 44 40
20 45 41
20 45 41
20 45 41
20 45 41
20 45 41
20 45 42
19 43 40
20 44 40
20 45 42
20 44 41
20 45 41
20 45 41
20 45 41
20 45 42
20 45 41
20 44 41
20 45 41
20 45 41
20 43 40
20 45 41
20 44 40
20 45 41
20 45 41
20 45 42
20 44 41
20 45 42
20 45 41
20 45 41
20 44 41
20 45 41
20 44 40
20 44 40
20 45 41
21 46 42
20 45 41
20 44 41
20 45 42
20 45 42
20 45 41
20 45 41
20 45 41
20 45 41
20 45 41
20 45 41
20 44 41
20 45 41
20 45 42
20 44 41
20 45 42
19 43 40
20 44 41
19 43 40
19 42 39
19 43 40
19 43 40
19 43 39
20 44 41
19 42 39
19 43 40
19 43 40
19 43 40
19 43 40
19 43 40
19 43 40
19 42 39
20 44 40
19 43 40
20 44 40
20 44 40
20 44 41
19 43 40
19 42 39
19 43 40
19 43 40
20 44 41
20 44 40
20 45 41
20 44 40
20 44 40
20 44 40
20 44 40
19 44 40
19 43 40
20 45 41
19 43 40
19 44 40
20 44 41
20 44 40
20 44 41
20 44 40
20 44 41
19 43 40
20 45 41
20 45 41
20 46 42
20 45 42
20 44 40
20 45 41
20 45 42
20 44 40
20 45 42
20 44 40
20 45 41
20 45 42
20 45 41
20 45 42
20 45 41
21 46 42
20 45 41
20 45 41
20 45 41
20 45 41
20 45 41
20 46 42
20 45 41
20 45 41
20 45 41
20 44 41
20 45 41
20 45 42
20 45 41
21 46 42
19 43 40
20 45 41
21 45 42
20 45 42
20 45 42
20 44 41
20 45 42
20 45 41
20 45 42
20 45 41
21 47 43
20 45 41
20 44 41
21 46 42
21 47 43
20 45 41
20 45 41
20 44 41
20 45 41
21 46 42
20 45 41
20 44 41
20 45 41
20 45 41
20 45 41
21 46 42
20 45 42
20 45 41
21 46 42
20 44 41
20 45 41
20 45 41
20 45 41
21 46 42
20 45 41
20 46 42
20 44 41
21 46 42
21 46 42
20 44 41
21 46 42
20 44 40
21 47 43
20 45 41
21 46 42
21 46 42
20 44 41
21 46 42
20 45 41
20 44 41
19 43 40
19 43 40
20 44 40
20 44 40
19 43 39
19 43 40
19 43 39
20 44 41
19 43 40
19 43 40
20 44 40
20 44 40
20 44 41
20 44 40
19 43 40
20 44 41
19 43 39
19 43 40
19 43 40
20 44 40
20 45 42
19 43 40
20 44 40
20 44 41
20 44 41
20 44 40
20 44 41
20 44 40
20 44 40
20 44 41
20 44 40
20 44 41
20 43 40
20 44 41
20 44 41
20 45 42
20 44 41
20 45 41
21 46 42
20 44 41
20 45 41
20 44 40
20 45 41
20 44 40
20 45 41
21 46 42
21 46 42
20 45 41
21 46 43
21 46 42
20 44 41
20 44 40
20 45 41
20 45 41
20 45 42
21 47 43
20 45 41
20 45 41
20 44 40
20 45 41
21 46 42
20 44 41
20 45 41
20 45 41
21 46 42
21 46 42
20 45 42
21 46 42
20 45 41
20 45 42
21 47 43
20 45 42
21 46 42
21 46 42
21 46 42
21 46 42
21 46 42
20 45 41
21 46 42
21 46 42
21 45 42
20 45 41
20 45 41
21 46 42
20 45 41
21 45 42
21 47 43
21 47 43
21 45 41
21 47 43
21 46 42
21 47 43
20 45 41
21 46 42
21 46 42
21 47 43
20 45 41
21 47 43
20 45 41
21 47 43
21 46 42
21 46 42
21 46 42
20 45 41
21 46 42
20 45 41
21 46 42
20 45 41
21 46 42
21 46 42
20 45 41
21 46 42
20 45 41
21 46 42
20 45 41
21 46 42
20 45 41
20 45 41
21 46 42
20 44 41
20 44 40
19 43 40
19 43 40
19 43 39
19 43 40
20 44 41
20 45 41
20 44 40
19 44 40
20 44 41
19 43 40
20 44 40
20 45 41
20 45 41
20 44 41
20 45 41
20 45 41
20 44 41
20 44 40
19 43 40
20 45 41
20 44 41
20 44 41
20 44 41
20 45 41
20 44 41
20 44 41
20 45 41
20 44 41
20 44 40
20 44 40
21 46 42
20 45 41
20 45 41
20 45 41
20 45 41
20 45 41
20 45 41
20 44 41
20 44 40
20 45 41
20 44 41
20 45 41
20 45 41
21 46 42
21 46 42
20 45 41
20 45 41
20 45 42
21 46 42
21 47 43
20 45 42
21 46 42
20 45 41
21 46 42
20 45 41
20 45 41
21 46 42
21 46 42
20 45 41
21 46 42
21 46 42
21 46 42
21 46 42
21 46 42
22 48 43
20 45 41
20 45 41
21 46 42
21 46 42
21 46 42
21 46 42
21 46 42
21 47 43
21 46 42
21 47 43
21 47 43
21 46 42
21 47 43
21 46 42
21 46 42
21 46 42
21 46 42
20 45 41
21 46 42
21 47 43
21 46 42
21 47 43
21 45 42
21 47 43
21 46 42
21 47 43
21 47 43
21 46 42
21 47 43
21 46 42
21 46 42
21 46 42
21 47 43
21 47 43
21 46 42
21 47 43
22 48 44
21 47 43
21 45 42
21 45 41
21 46 42
21 46 42
21 46 42
21 45 42
21 46 42
21 46 42
21 45 42
21 46 42
22 48 44
21 47 42
20 45 41
21 45 41
21 46 42
20 44 41
20 44 41
19 43 40
20 44 40
20 45 41
20 44 41
20 44 41
20 44 41
20 45 41
21 46 42
20 44 41
20 45 42
20 44 41
20 44 41
20 44 41
20 44 40
20 44 41
20 44 41
20 45 41
20 45 41
20 44 41
20 44 41
20 44 40
20 44 41
20 45 41
20 45 42
20 44 40
21 46 42
21 46 42
20 44 41
20 44 41
21 46 42
20 45 41
20 45 41
20 45 41
20 45 41
20 45 41
21 46 42
21 46 42
20 45 42
21 47 43
20 45 41
21 46 42
21 45 42
21 46 42
20 45 41
20 44 41
20 45 42
21 46 42
21 46 42
21 45 42
21 46 42
20 45 41
21 47 43
20 45 41
21 47 43
21 46 42
21 47 43
21 47 43
21 46 42
21 47 42
22 48 43
21 46 42
21 47 43
21 46 42
21 46 42
20 45 41
21 46 42
21 47 43
22 48 44
22 48 44
21 46 42
21 46 42
21 47 43
21 47 43
21 46 42
22 48 43
21 47 43
21 47 43
21 46 42
21 46 42
21 47 42
21 46 42
21 46 42
22 47 43
21 47 43
21 47 43
22 48 44
22 48 44
21 46 42
22 48 44
21 47 43
21 47 43
21 47 42
22 48 44
21 47 43
21 47 43
21 47 43
21 47 43
22 47 43
21 47 43
21 47 43
21 47 43
22 48 44
21 47 43
21 47 43
22 48 43
22 47 43
22 48 44
21 47 43
21 47 43
21 47 42
21 47 43
21 47 42
22 48 43
22 47 43
21 47 43
21 47 43
21 46 42
21 46 42
20 44 41
20 43 40
20 44 41
20 44 41
20 44 40
20 44 41
20 44 41
19 43 40
20 44 41
20 44 41
20 45 42
20 44 41
20 45 41
20 44 41
20 45 41
20 44 41
21 46 42
20 44 41
20 45 41
20 46 42
20 45 41
21 46 42
21 46 42
21 46 42
21 46 42
20 45 41
20 45 41
21 46 42
20 45 41
20 45 41
20 45 41
20 45 42
20 45 42
21 46 42
20 45 41
20 45 41
21 46 42
21 46 42
21 46 43
20 45 41
21 47 43
21 46 42
21 45 42
21 45 42
21 47 43
21 46 42
20 45 42
21 46 42
21 45 41
21 47 43
21 46 42
21 46 42
21 47 43
21 47 43
21 47 42
21 47 43
21 46 42
21 47 42
21 47 43
21 46 42
21 46 42
21 46 42
21 47 43
21 46 42
21 47 43
22 48 43
21 47 43
21 47 43
21 47 43
22 48 43
21 46 42
21 47 43
22 48 44
21 46 42
21 47 43
21 47 42
22 48 43
22 47 43
21 47 42
21 47 43
22 48 44
21 46 42
21 47 43
21 47 43
21 47 43
21 47 42
22 48 43
22 47 43
21 47 43
22 48 44
22 48 43
22 47 43
22 48 43
22 49 44
22 48 44
21 47 43
21 47 43
21 47 43
22 48 43
22 47 43
22 48 44
22 48 44
22 48 44
22 49 44
21 47 43
22 49 44
21 47 43
21 47 43
21 47 43
22 48 43
22 48 43
22 47 43
22 49 44
21 47 43
22 48 43
21 47 43
22 48 44
22 48 44
22 49 45
21 47 43
20 44 40
20 45 41
20 44 41
20 44 40
20 44 41
20 45 41
20 45 41
20 44 41
20 44 40
20 45 42
20 45 41
20 45 41
20 44 41
20 44 41
20 45 41
20 45 41
21 46 42
20 45 41
20 44 40
20 44 41
21 46 42
20 44 41
21 46 42
20 45 41
20 46 42
20 45 41
21 46 42
21 46 42
21 47 43
20 45 41
20 45 42
21 46 42
21 45 42
21 46 42
21 46 42
21 46 42
21 47 43
20 45 41
20 45 42
21 46 42
20 45 41
21 46 42
21 46 42
21 46 42
21 46 42
21 47 43
21 46 42
21 46 42
22 47 43
21 47 43
21 47 43
20 45 41
21 47 43
21 47 42
21 46 42
21 46 42
21 47 43
21 47 43
21 47 43
21 47 43
21 47 43
22 48 43
21 47 43
21 47 43
21 47 43
22 48 44
22 48 43
21 47 43
22 48 44
22 48 43
22 48 43
22 48 44
21 47 43
22 48 44
22 48 43
21 47 43
22 48 44
22 47 43
22 48 44
22 48 43
21 47 43
23 50 45
22 48 43
21 47 43
22 48 44
22 49 45
22 48 43
22 49 45
22 48 44
22 48 43
21 47 43
21 47 43
21 47 43
22 48 44
22 48 44
23 49 45
22 48 44
22 48 43
22 48 44
22 48 44
22 49 44
22 48 44
22 49 45
22 47 43
21 47 43
22 48 43
22 47 43
22 48 43
21 47 43
21 46 42
22 48 44
21 47 43
22 49 44
23 50 45
22 48 44
22 48 44
22 49 44
22 49 44
22 48 44
22 48 43
21 46 42
21 46 42
20 44 40
20 46 42
20 45 41
20 44 41
20 45 41
20 45 41
20 45 41
20 45 41
20 44 40
21 46 42
20 45 41
20 45 41
20 45 41
20 45 42
21 46 42
21 47 43
20 45 41
21 46 42
20 45 41
21 46 42
20 44 40
20 45 41
21 46 42
21 46 42
21 46 42
21 46 42
21 47 43
20 44 41
20 45 41
20 45 41
22 48 44
20 45 42
21 47 43
21 47 43
21 45 42
21 47 43
21 47 43
21 46 42
21 46 42
21 47 42
21 46 42
21 47 43
21 46 42
21 46 42
21 46 42
21 47 43
21 46 42
21 47 43
21 47 43
21 47 43
22 47 43
21 47 43
21 47 43
22 48 44
22 48 44
22 48 44
22 48 44
21 47 43
22 49 44
22 48 43
22 49 44
21 47 43
22 48 43
22 48 43
22 48 44
22 47 43
21 47 43
22 48 43
22 48 44
21 47 43
22 48 44
22 47 43
22 48 44
22 49 44
22 49 44
22 48 44
22 48 44
22 48 44
22 48 43
22 48 44
22 49 45
22 49 44
22 49 44
22 48 43
22 47 43
22 48 44
22 49 44
22 48 43
22 49 44
22 48 44
22 48 43
22 48 44
22 48 43
22 49 45
22 49 45
22 49 44
22 48 44
22 49 44
22 48 44
22 49 44
22 48 44
22 48 44
22 48 44
22 49 44
22 48 43
22 48 43
22 48 44
22 49 44
22 48 44
22 49 45
22 47 43
22 48 44
22 48 44
22 48 44
22 47 43
22 48 44
22 49 44
22 49 45
20 44 41
20 44 40
20 45 41
20 44 41
20 45 41
20 44 41
20 45 41
20 45 41
21 46 42
21 46 42
20 45 42
20 45 41
21 46 42
20 45 41
20 45 41
20 44 41
20 45 42
21 46 42
20 45 41
20 44 41
21 46 42
21 45 42
21 46 42
21 46 42
21 47 43
21 46 42
21 46 42
21 45 42
21 46 42
21 47 43
21 47 43
21 46 42
22 48 44
21 46 42
21 47 43
21 46 42
21 47 43
21 47 43
21 46 42
21 46 42
21 47 43
21 46 42
21 47 43
21 47 43
21 46 42
21 47 42
21 46 42
21 47 43
22 48 43
21 47 43
22 48 44
21 46 42
21 47 43
22 48 44
22 49 44
22 48 43
22 48 43
21 47 43
21 46 42
22 48 44
21 47 43
22 48 44
21 47 43
22 49 44
22 48 44
21 47 43
22 48 44
22 49 44
22 48 43
22 49 44
22 49 44
22 48 44
22 49 44
22 48 43
22 47 43
22 48 43
22 49 45
22 48 44
22 48 44
22 49 44
22 49 44
22 49 44
22 49 44
22 48 43
22 47 43
22 48 44
22 48 43
23 50 46
22 48 44
23 50 45
22 48 43
22 48 43
22 48 44
22 49 44
23 50 45
22 49 44
23 50 45
22 49 44
22 48 43
22 49 44
22 49 45
22 48 44
22 49 44
23 50 45
22 48 44
22 49 44
23 49 45
22 49 45
22 49 44
22 49 44
23 50 45
22 49 44
23 50 45
22 48 44
22 49 45
22 49 45
22 48 44
22 49 44
23 49 45
22 48 44
20 44 41
20 45 41
20 44 41
20 45 41
20 45 41
21 46 42
21 46 42
20 45 42
20 45 41
21 47 43
20 45 41
21 46 42
20 45 41
20 45 41
21 46 42
21 46 42
21 46 42
21 46 42
21 45 42
21 47 43
21 47 43
21 46 42
21 46 42
20 45 41
21 46 42
21 46 42
21 47 43
21 46 42
21 46 42
21 47 43
21 47 43
21 47 43
21 47 43
21 47 43
21 47 43
21 47 43
21 46 42
21 47 42
22 48 44
21 47 43
21 47 43
21 46 42
22 48 43
21 47 42
21 47 43
21 47 43
22 48 44
22 48 43
22 48 43
21 47 43
21 46 41
22 48 43
21 47 43
22 47 43
21 47 43
23 49 45
22 49 44
21 47 43
22 48 44
22 49 44
22 49 44
22 48 44
22 48 44
22 48 43
22 48 43
22 48 44
22 48 44
22 48 44
22 49 44
22 48 43
22 48 44
23 50 45
22 49 44
22 49 44
22 49 44
22 49 44
22 48 44
22 49 44
22 47 43
22 49 45
23 49 45
23 50 45
23 50 45
22 49 44
22 48 43
23 50 45
23 49 45
23 50 45
22 49 44
22 49 44
23 49 45
22 48 44
22 48 44
23 49 45
23 49 45
23 50 45
23 49 45
23 49 45
23 50 46
23 49 45
23 50 45
22 48 44
22 49 44
23 50 45
23 49 44
23 51 46
22 48 44
23 50 45
23 50 45
23 50 45
23 50 45
23 49 45
22 49 44
23 49 45
22 48 44
22 49 44
23 50 45
23 50 45
23 50 45
23 50 45
20 45 42
20 45 41
20 45 41
21 45 42
20 44 41
20 45 42
20 44 40
20 45 41
20 45 41
21 47 43
20 45 42
21 47 43
21 47 43
21 47 43
21 46 42
21 46 42
21 46 42
21 46 42
21 46 42
21 47 43
21 47 43
21 46 42
21 47 43
21 46 42
21 47 43
21 46 42
21 46 42
21 47 43
21 45 41
21 46 42
21 47 43
21 47 43
21 47 42
22 48 44
21 47 43
21 47 43
22 48 43
22 48 44
22 47 43
21 47 43
22 48 43
22 49 44
22 48 43
22 49 45
21 47 43
22 48 44
22 48 43
22 48 43
21 47 43
22 48 43
22 47 43
22 48 43
22 48 43
22 48 44
22 49 45
22 48 44
21 47 43
22 49 44
22 49 44
22 48 44
22 47 43
22 47 43
22 48 43
22 48 44
22 48 44
22 48 44
22 49 44
22 48 44
22 49 45
23 49 45
22 49 44
22 47 43
22 48 44
22 48 44
22 49 44
22 49 44
23 50 45
23 49 45
22 49 44
23 50 45
22 49 44
23 49 45
22 49 44
23 50 45
22 49 44
23 49 45
22 48 43
22 49 45
23 49 45
22 49 44
23 50 45
23 50 45
23 50 45
22 49 44
23 50 45
22 49 44
23 49 45
23 50 45
22 49 44
22 49 44
23 50 45
23 50 46
23 50 45
23 50 45
23 50 45
23 50 45
23 50 45
22 49 44
23 49 45
23 50 45
23 49 45
23 51 46
23 50 45
23 49 44
23 51 46
23 50 45
23 50 45
22 49 44
23 50 45
22 49 44
21 45 42
20 45 41
20 45 41
20 45 42
21 46 42
20 45 41
21 46 42
20 45 42
21 46 42
21 47 43
21 47 43
21 46 42
20 45 41
21 46 42
21 46 42
21 46 42
21 47 43
21 47 43
21 46 42
21 47 43
21 46 42
21 47 43
21 47 43
21 46 42
21 47 43
21 47 43
21 47 43
21 47 43
21 46 42
21 46 42
22 48 43
21 47 42
21 47 43
22 47 43
21 47 43
22 48 43
22 48 44
22 48 44
21 47 43
22 48 43
21 47 43
21 47 43
22 48 43
22 48 44
22 48 44
21 47 43
22 47 43
22 48 44
22 47 43
21 47 43
22 48 43
21 47 43
22 47 43
23 50 45
22 48 44
22 49 44
22 48 43
22 47 43
22 49 45
22 49 44
22 49 44
22 48 44
23 49 45
22 47 43
22 49 44
22 49 44
22 48 43
23 50 45
22 49 44
23 49 45
22 48 44
22 49 44
22 49 45
23 50 45
22 49 44
23 50 45
22 48 43
23 49 45
23 51 46
22 48 43
22 48 44
22 49 44
23 49 45
22 49 44
22 49 44
23 51 46
23 51 46
23 50 46
22 49 44
23 50 45
22 48 44
22 49 44
23 50 45
23 49 45
23 50 45
23 50 45
22 49 44
23 50 45
23 50 46
23 50 45
23 50 45
22 49 44
23 50 45
22 49 44
24 51 46
22 49 44
23 50 45
23 49 45
23 49 44
23 49 45
23 51 46
24 51 46
23 50 45
23 50 45
23 50 45
23 50 45
23 51 46
22 49 44
23 51 46
22 48 44
21 45 42
20 45 41
21 47 43
21 46 42
20 45 41
21 45 42
20 45 41
21 46 42
21 46 42
21 46 42
20 44 41
21 46 42
20 45 41
21 47 43
21 46 42
20 45 41
21 47 43
21 46 42
21 47 43
21 46 42
21 47 43
22 48 44
20 45 41
21 46 42
21 47 43
21 47 43
22 47 43
21 46 42
21 46 42
21 47 42
21 47 43
22 48 44
22 47 43
21 47 43
22 47 43
22 48 44
21 47 43
21 47 43
22 48 43
21 47 43
22 48 43
21 47 43
22 48 43
21 47 43
22 48 44
22 48 44
21 47 43
22 48 44
22 48 43
22 48 44
22 48 43
22 49 44
22 48 44
22 48 44
22 49 44
22 48 43
22 48 44
23 50 45
22 48 44
22 49 45
22 48 44
23 50 45
22 49 44
22 48 44
22 49 44
22 49 44
22 48 44
23 50 45
22 49 45
22 49 44
23 50 45
23 49 45
22 48 44
23 50 45
23 50 45
23 50 45
22 49 44
22 48 44
23 50 46
22 48 44
23 50 45
23 50 45
23 50 45
23 50 45
23 50 45
23 50 45
23 50 45
23 50 45
23 49 45
23 50 45
23 50 45
23 51 46
23 50 45
23 50 45
23 50 46
23 49 45
23 50 45
23 50 45
23 50 45
23 51 46
23 49 45
23 51 46
23 50 45
23 50 45
23 49 45
23 50 45
23 50 45
23 49 45
22 49 44
22 49 44
23 50 45
23 50 45
23 49 45
23 50 45
23 49 44
23 50 45
23 50 46
22 49 44
23 50 45
23 50 45
21 46 42
21 46 42
21 46 42
21 46 42
21 46 42
21 45 42
21 46 42
21 46 42
21 46 42
21 46 42
21 46 42
21 45 41
21 47 43
21 47 43
21 46 42
21 46 42
21 46 42
21 45 41
21 47 43
21 46 42
21 47 43
21 46 42
21 46 42
22 47 43
21 46 42
21 47 43
21 47 42
22 48 44
22 49 44
22 48 44
22 47 43
22 48 43
22 48 43
22 49 44
21 47 43
21 47 42
21 47 43
21 47 43
21 47 43
22 48 44
22 48 44
21 47 43
23 50 45
22 48 44
33 53 48
122 115 107
172 128 115
192 91 76
165 65 50
33 48 44
22 49 44
22 48 43
22 48 43
23 50 45
22 48 43
22 48 44
22 48 44
22 49 44
22 49 44
23 49 45
22 48 44
22 48 43
22 49 44
22 48 44
22 49 45
22 49 44
22 49 44
22 48 43
22 49 44
22 49 44
22 48 44
22 49 44
22 49 44
23 50 45
23 49 45
23 50 45
22 48 44
23 49 45
22 49 44
23 50 45
23 50 45
22 49 44
23 51 46
23 49 44
23 50 45
23 49 45
23 50 45
23 49 45
23 50 45
23 49 44
23 50 45
23 50 45
23 51 46
23 50 45
23 50 45
23 49 44
22 49 44
23 50 45
23 50 45
23 50 45
23 51 46
23 50 45
23 50 45
23 50 45
23 50 45
23 50 45
23 49 44
23 51 46
23 51 46
23 50 45
23 51 46
23 51 46
23 51 46
23 50 46
23 50 45
23 50 45
23 50 45
23 50 45
23 50 45
23 51 46
21 46 42
21 46 42
21 46 42
20 45 41
21 46 42
21 46 42
21 47 43
21 46 42
21 46 42
21 46 42
21 46 42
21 47 43
21 46 42
21 46 42
21 47 43
21 47 43
21 46 42
21 46 42
21 47 43
21 47 43
21 46 42
21 47 43
21 46 42
21 47 43
22 48 44
22 48 43
21 46 42
21 47 43
22 48 43
21 47 42
21 46 42
21 47 43
22 48 44
21 46 42
22 48 44
22 48 44
21 47 43
22 48 44
21 47 43
21 47 43
22 48 43
22 47 43
21 47 42
27 50 46
134 121 114
194 112 100
205 69 51
221 78 58
255 127 101
202 74 56
39 48 43
22 49 44
22 48 44
22 48 43
22 48 44
22 48 43
22 49 44
22 48 43
22 48 43
23 50 45
22 49 44
22 49 44
22 49 44
22 49 44
23 50 45
23 50 45
23 50 45
23 50 46
23 50 45
23 50 45
23 51 46
22 49 44
23 49 44
23 50 45
22 49 45
22 48 43
23 50 45
23 50 45
23 50 45
23 50 45
22 49 44
23 50 45
28 51 46
85 63 50
136 77 54
82 61 48
23 50 45
23 49 45
23 50 45
23 51 46
22 49 44
23 51 46
23 51 46
22 49 44
23 51 46
23 50 45
23 49 44
23 49 44
23 50 45
23 51 46
23 50 45
23 50 45
23 50 45
23 50 45
23 50 45
24 51 46
23 50 45
23 50 45
23 49 45
23 50 45
23 50 45
23 50 45
23 50 45
23 50 45
23 49 45
22 49 44
23 51 46
23 50 46
23 50 45
23 50 45
21 46 42
21 46 42
21 46 42
20 44 41
22 48 43
21 46 42
20 45 41
21 46 42
21 46 42
22 48 44
21 46 42
21 46 42
21 47 43
22 47 43
21 47 42
21 46 42
21 46 42
20 45 41
21 47 43
21 46 42
21 47 43
21 47 42
21 47 43
21 46 42
21 47 43
21 47 43
21 47 43
21 47 43
21 46 42
21 47 43
21 46 42
22 47 43
22 49 44
22 48 43
22 48 43
21 47 43
22 48 44
22 48 43
22 48 43
21 47 43
22 48 44
22 48 44
22 48 44
72 76 70
160 91 82
175 60 44
189 64 47
201 67 49
222 88 67
222 85 65
144 64 52
21 47 43
22 48 44
22 49 44
22 48 43
22 49 44
23 50 45
22 48 43
22 48 44
22 47 43
113 109 101
179 163 151
201 182 168
186 168 153
114 108 98
22 48 43
22 48 44
23 50 45
23 49 45
22 49 45
23 50 45
22 49 44
23 50 45
22 49 44
23 50 45
23 49 45
23 49 45
23 49 45
23 50 45
23 50 46
23 50 45
56 66 61
171 147 133
232 113 69
249 131 87
255 148 103
199 108 75
56 67 61
23 50 45
23 50 45
23 51 46
23 50 45
23 51 46
23 50 45
23 50 45
23 49 45
24 52 47
23 50 45
23 50 45
23 50 45
23 51 46
24 52 47
23 50 45
23 50 45
24 51 46
23 50 45
23 50 45
24 52 47
24 51 46
23 50 45
23 49 44
23 50 45
23 50 45
22 49 44
23 51 46
23 51 46
23 50 45
23 51 46
23 51 46
22 49 44
21 47 43
21 46 42
21 46 42
21 46 42
21 47 43
21 46 42
21 46 42
21 45 41
21 46 42
21 47 43
21 47 43
21 47 43
21 46 42
21 46 42
21 47 43
21 46 42
21 46 42
21 46 42
21 47 42
21 47 43
22 48 43
21 47 43
22 47 43
21 47 43
21 47 43
21 47 42
21 47 43
21 47 43
21 46 42
21 47 43
22 48 43
22 48 44
22 48 43
22 48 43
22 48 43
22 47 43
22 48 43
22 48 44
22 48 43
22 48 43
22 48 44
22 48 43
22 48 43
99 75 69
123 109 101
150 75 65
156 53 39
167 70 57
176 129 117
191 161 145
168 143 126
22 49 44
22 49 44
22 48 44
22 47 43
22 49 44
22 48 43
22 49 44
22 49 45
120 114 106
191 175 164
198 182 170
209 190 177
245 222 201
238 212 192
105 100 92
23 50 45
23 50 45
22 49 44
23 51 46
22 49 44
22 49 44
23 50 45
22 49 44
23 50 45
23 50 45
23 50 45
23 49 45
23 51 46
23 50 45
26 51 46
160 147 137
196 152 136
211 103 63
217 107 66
232 120 77
230 151 124
174 157 142
23 49 45
23 50 45
23 50 45
23 49 44
22 49 44
23 50 45
24 52 47
23 51 46
23 50 45
23 50 45
24 52 47
23 51 46
23 50 45
23 50 45
23 51 46
23 51 46
23 50 45
23 50 45
23 49 44
23 51 46
23 50 45
23 50 45
23 50 45
23 50 45
23 51 46
23 51 46
23 50 45
23 50 45
23 51 46
23 51 46
23 50 45
24 52 46
22 48 44
20 45 41
21 45 41
21 46 42
21 46 42
21 46 42
21 46 42
21 46 42
20 45 41
21 47 43
21 47 43
21 47 43
21 46 42
21 46 42
21 47 43
21 46 42
21 47 42
21 47 43
22 48 43
21 47 43
21 46 42
21 46 42
21 46 42
22 47 43
21 46 42
21 46 42
21 47 43
21 46 42
22 49 44
21 46 42
22 48 43
21 46 42
21 47 43
22 47 43
21 47 43
22 48 43
22 48 44
22 47 43
22 47 43
22 49 44
21 47 43
22 48 44
22 49 44
76 57 51
102 94 88
113 82 74
129 64 54
131 115 106
133 120 111
135 120 108
136 122 108
22 48 44
22 47 43
22 48 43
22 48 44
23 50 45
22 48 43
22 49 44
35 50 50
116 104 107
141 128 128
140 126 129
135 118 124
134 114 123
127 103 118
89 62 92
27 49 47
22 49 44
23 49 45
22 48 43
22 49 44
22 49 44
23 49 45
22 49 44
22 49 44
22 48 43
22 48 44
22 49 44
23 49 45
22 49 44
70 75 70
147 136 129
167 112 94
175 96 69
181 97 67
195 95 57
187 142 125
188 167 152
60 69 63
23 50 45
23 50 45
23 50 45
23 50 45
23 49 44
23 50 45
23 50 45
23 49 45
22 49 44
23 50 45
23 49 45
63 72 65
75 79 72
22 49 44
23 51 46
23 50 45
23 49 45
23 50 45
23 50 45
23 50 45
23 50 45
23 51 46
23 51 46
24 52 47
23 50 45
23 50 45
23 51 46
23 51 46
24 52 47
23 50 45
23 51 46
21 46 42
21 46 42
21 47 43
21 45 41
21 46 42
21 46 42
21 47 43
21 47 43
21 46 42
21 46 42
21 47 42
21 47 43
21 47 43
21 47 43
21 46 42
22 48 43
21 46 42
21 46 42
21 46 42
21 47 42
22 48 44
21 46 42
21 46 42
21 46 42
22 47 43
21 47 43
21 46 42
21 47 43
21 46 42
21 47 43
21 47 42
21 47 42
22 49 44
22 47 43
21 47 43
21 47 43
22 47 43
21 47 42
21 47 43
22 48 43
22 48 44
21 47 42
22 48 43
49 47 42
62 53 48
84 56 49
89 80 72
94 88 80
95 89 81
79 73 63
77 76 67
22 48 44
22 49 44
22 48 43
22 47 43
22 48 43
22 48 44
23 49 45
38 45 52
58 40 67
65 45 75
64 44 73
67 46 77
71 48 80
71 47 77
76 50 80
42 51 56
23 49 45
22 49 44
22 48 44
23 49 45
23 50 46
22 49 44
22 48 43
22 48 43
22 49 44
22 49 44
23 50 45
23 50 46
23 49 45
78 77 71
137 124 116
143 91 74
125 114 106
137 125 117
148 91 72
150 127 116
144 130 118
73 77 70
23 49 44
23 49 44
23 50 45
23 50 45
23 50 45
22 49 44
23 50 45
23 50 45
24 51 46
40 50 48
175 159 148
226 205 188
245 221 201
205 185 169
102 100 90
23 49 45
23 51 46
24 51 46
22 49 44
22 49 44
23 49 45
23 51 46
23 50 45
23 50 46
24 51 46
23 50 45
23 50 45
23 51 46
23 51 46
23 49 44
23 51 46
21 46 42
21 46 42
21 46 42
21 46 42
21 47 43
20 45 41
21 46 42
21 46 42
21 47 43
21 46 42
21 47 43
21 47 43
21 46 42
21 46 42
21 47 43
21 47 43
21 46 42
21 46 42
21 47 43
21 46 42
21 46 42
21 46 42
21 47 42
22 47 43
22 47 43
21 46 42
22 48 44
21 46 42
22 48 43
21 46 42
22 48 43
22 48 43
21 47 43
22 47 43
22 49 44
22 48 43
22 47 43
21 47 42
22 48 43
22 49 44
21 47 43
21 46 42
22 47 42
21 47 42
31 34 30
27 22 18
20 30 24
36 40 33
41 43 33
39 45 36
21 45 41
21 46 42
22 47 43
22 48 43
22 48 44
22 47 43
22 48 44
22 47 43
35 43 48
52 35 59
49 34 56
52 36 60
51 35 58
55 37 62
55 38 62
60 40 64
32 47 47
23 49 45
22 48 44
22 48 43
22 49 44
23 49 44
23 49 44
22 49 44
22 49 44
23 50 45
23 49 45
22 49 44
22 49 44
23 51 46
55 63 57
99 89 81
103 75 63
90 84 77
85 80 73
100 77 67
111 101 93
101 95 86
33 52 47
22 49 44
23 50 45
23 49 44
23 50 45
23 50 45
23 49 45
23 50 45
23 51 46
28 41 40
128 118 112
194 178 167
196 180 169
202 184 172
207 188 175
201 181 167
88 89 80
23 50 45
24 51 46
22 48 44
23 50 45
23 51 46
23 50 45
23 50 45
22 49 44
23 50 45
23 50 45
23 50 45
23 51 46
23 50 45
23 50 45
22 49 44
21 46 42
21 46 42
21 46 42
21 47 42
21 46 42
21 46 42
21 47 42
21 46 42
21 46 42
21 47 43
21 47 43
21 46 42
21 46 42
21 47 42
21 47 43
21 46 42
21 46 42
21 46 42
21 46 42
21 46 42
21 47 42
22 48 43
21 47 43
21 47 42
21 46 42
21 46 42
21 47 43
21 47 42
21 46 42
22 48 44
21 46 42
22 47 43
22 48 44
22 48 43
21 47 43
22 48 44
21 46 42
22 47 43
21 47 43
20 45 41
19 42 39
16 37 34
15 34 32
13 30 28
12 27 26
9 20 18
7 14 12
9 17 14
21 26 20
20 40 35
21 45 40
21 45 40
21 46 42
22 48 43
21 46 42
22 48 43
22 49 44
22 48 44
27 44 43
37 27 42
34 24 38
40 28 45
38 27 43
41 28 46
39 27 44
45 38 47
24 47 44
23 49 45
22 49 44
21 47 42
22 49 44
22 48 44
22 48 43
22 48 43
23 50 45
22 49 44
22 49 44
23 49 45
22 47 43
23 50 45
26 51 46
63 59 52
62 34 21
60 54 47
70 60 52
62 46 36
70 67 58
62 65 57
23 50 45
23 49 44
23 49 44
22 49 44
23 51 46
23 50 45
23 50 45
23 50 45
24 47 43
25 29 32
135 125 119
166 154 146
172 160 152
175 162 153
178 163 153
182 165 154
137 127 116
23 50 45
23 50 45
23 49 44
23 50 45
23 51 46
23 51 46
23 49 45
23 49 45
23 50 46
23 51 46
23 50 45
23 50 45
23 50 45
22 48 44
23 50 45
21 46 42
21 46 42
21 46 42
21 46 42
21 48 43
21 46 42
21 46 42
21 46 42
21 47 43
21 46 42
21 47 43
20 45 41
21 47 43
21 47 43
21 46 42
21 46 42
21 46 42
21 47 43
21 47 42
21 46 42
21 46 42
21 46 42
22 48 44
21 47 43
22 47 43
21 47 43
21 46 42
21 46 42
21 46 42
22 48 43
22 47 43
21 46 42
21 47 43
22 48 44
22 47 43
21 47 43
21 47 42
21 47 42
22 47 43
21 46 42
20 44 40
18 41 38
18 41 38
18 40 37
18 39 36
17 38 35
18 41 37
19 41 37
20 44 39
21 46 41
21 46 41
21 47 42
22 48 43
22 47 43
22 48 43
22 48 43
22 47 43
22 47 43
21 47 42
26 37 36
25 25 28
20 23 25
19 26 24
44 45 40
50 50 41
35 48 42
22 48 43
22 47 42
22 48 43
22 48 44
23 50 45
22 49 44
22 48 43
22 48 43
22 48 44
23 50 45
23 49 45
22 48 43
22 47 42
22 47 42
21 46 41
19 39 35
14 17 13
14 13 6
15 14 7
20 23 17
29 39 33
22 46 41
22 49 44
22 47 43
22 48 43
23 49 44
23 50 45
23 49 45
23 49 44
22 49 44
23 40 38
23 26 29
107 99 94
152 141 133
147 137 129
154 142 134
146 136 128
150 138 130
141 131 121
23 49 44
23 50 45
23 51 46
22 49 44
23 50 45
23 50 45
23 50 45
22 48 44
23 51 46
23 49 45
23 50 45
22 49 44
23 50 45
22 48 44
23 49 45
21 46 42
20 45 41
21 45 42
21 46 42
21 46 42
20 45 41
21 46 42
21 46 42
21 47 43
21 47 43
21 46 42
21 46 42
21 46 42
21 45 41
21 46 42
22 48 44
21 47 42
21 47 43
21 47 43
22 47 43
21 46 42
21 47 43
21 47 43
21 45 42
21 46 42
21 46 42
21 46 42
22 48 44
21 47 43
22 47 43
22 48 44
21 46 42
21 47 43
21 47 43
22 48 43
21 47 43
21 47 43
21 47 43
22 47 43
21 46 42
22 48 44
21 47 43
22 48 44
22 48 44
21 47 43
21 47 43
21 47 42
21 46 42
21 46 42
21 45 41
21 46 42
21 47 42
22 47 43
22 49 44
21 46 41
21 46 42
19 43 39
18 39 36
15 35 32
15 33 30
10 22 20
9 18 14
10 18 14
14 21 16
22 36 30
20 44 39
20 44 39
21 47 42
22 47 43
22 49 44
22 48 43
22 48 43
22 49 44
22 48 43
22 48 43
22 48 43
22 47 42
22 48 43
21 45 40
17 39 36
13 31 30
12 26 25
10 23 22
9 18 17
9 18 16
9 19 17
13 30 27
20 42 37
21 46 40
22 48 43
22 47 42
22 47 42
22 49 44
22 48 44
22 48 43
23 50 45
20 39 36
19 21 24
46 44 42
120 111 103
122 114 106
129 119 111
124 115 106
117 109 101
92 89 82
22 48 44
23 50 45
23 50 46
22 49 44
23 49 45
23 49 45
23 51 46
22 49 44
23 51 46
23 50 45
23 51 46
23 50 45
23 50 45
23 50 45
22 49 44
20 44 41
21 47 43
21 46 42
21 46 42
20 45 41
21 47 43
21 47 43
20 45 41
21 47 43
22 48 44
21 46 42
21 46 42
21 46 42
21 47 42
21 47 43
21 46 42
21 46 42
21 47 43
21 47 43
21 47 42
21 47 43
21 47 43
22 48 44
22 48 44
21 46 42
21 46 42
21 47 43
21 47 43
21 47 42
21 46 42
22 48 43
22 48 44
21 47 43
21 47 43
21 47 43
21 47 42
22 48 43
21 47 43
21 46 42
21 47 43
21 47 43
21 47 43
21 47 43
22 48 44
22 48 44
22 48 44
21 47 43
22 48 43
22 48 44
22 47 43
22 47 43
21 46 42
22 48 44
22 48 44
21 45 41
20 45 41
17 39 37
16 36 34
14 31 30
13 31 29
13 29 28
13 29 27
14 32 30
15 32 29
18 40 36
20 44 40
22 48 43
21 47 42
21 47 42
21 46 42
21 46 41
22 48 43
22 47 43
23 50 45
22 48 44
22 48 44
22 49 44
22 49 44
22 48 43
21 46 42
21 46 41
19 42 39
19 43 39
18 40 36
19 43 39
20 44 40
21 45 40
22 48 43
22 48 43
22 47 42
22 49 44
22 48 43
22 49 44
22 47 43
22 48 43
22 49 44
21 44 40
15 17 18
15 17 18
50 47 44
89 83 75
101 95 86
99 93 85
94 89 81
59 64 58
22 49 44
22 49 44
22 48 44
23 50 45
22 49 44
23 50 45
22 49 44
23 50 45
22 49 44
23 50 45
23 50 45
23 51 46
23 49 45
22 49 44
23 50 45
20 45 41
20 45 41
21 46 42
21 46 42
21 46 42
21 46 42
21 47 43
21 46 42
21 46 42
20 44 41
21 47 43
21 46 42
21 46 42
21 46 42
21 47 43
22 48 44
21 47 43
21 46 42
21 47 43
21 46 42
21 46 42
21 46 42
21 46 42
21 47 43
21 47 43
21 47 42
22 48 44
22 48 44
21 47 43
21 46 42
21 47 42
21 47 43
22 48 43
21 47 43
21 47 43
22 47 43
22 49 44
21 46 42
21 47 43
22 49 45
21 47 42
22 48 43
21 47 43
22 48 44
22 48 43
22 48 44
21 47 43
22 47 43
22 47 43
21 46 42
21 47 43
22 48 43
22 48 43
22 47 43
22 48 44
21 45 41
22 48 43
21 46 42
21 46 42
21 45 41
21 46 42
21 46 42
22 48 43
22 48 43
21 47 42
22 48 43
22 47 43
22 48 43
22 48 43
21 47 42
22 48 43
22 48 44
22 47 43
22 48 43
22 49 44
22 49 44
22 47 43
22 48 43
22 48 43
22 49 44
22 48 43
22 48 43
22 48 43
22 49 44
22 48 44
22 48 44
22 48 44
22 48 43
21 47 42
22 48 44
22 49 44
22 48 43
22 48 43
23 50 45
23 49 44
22 48 44
22 48 43
17 34 31
9 11 11
6 8 8
20 20 18
44 42 38
28 31 27
34 37 33
20 44 39
22 48 43
22 47 43
23 51 46
22 49 44
23 49 44
22 49 44
23 49 45
22 49 44
23 50 45
22 49 44
23 49 45
23 50 45
23 49 45
23 50 45
23 50 45
21 46 42
21 46 42
21 45 42
21 46 42
20 45 41
21 46 42
21 45 41
21 46 42
20 45 41
21 47 43
21 47 43
21 46 42
21 47 43
21 47 43
21 47 43
21 47 42
21 46 42
21 47 43
21 47 43
20 45 41
21 47 42
21 47 43
21 47 43
21 46 42
21 47 43
21 46 42
21 47 43
21 47 43
22 47 43
22 48 44
21 47 42
22 48 43
21 47 43
21 47 42
21 46 42
21 46 42
21 47 43
22 48 44
21 47 43
21 47 42
21 46 42
22 48 44
22 47 43
22 47 43
21 47 43
21 47 42
21 47 43
22 47 43
22 47 43
21 46 42
22 49 44
21 47 43
22 48 43
22 49 44
22 48 43
22 48 44
22 47 43
22 48 44
22 48 43
22 48 44
22 48 44
22 48 44
22 48 43
21 47 43
22 48 44
22 48 44
22 48 43
22 48 43
22 48 43
22 48 43
22 48 44
22 48 43
22 49 45
22 49 45
22 48 43
22 48 44
22 48 43
22 48 43
22 49 44
22 49 44
22 48 43
23 49 45
22 48 44
22 48 44
22 48 43
22 48 44
22 48 44
23 49 45
23 50 45
22 48 43
22 48 43
22 48 43
21 46 42
22 47 42
22 47 43
21 45 40
19 41 37
16 34 31
9 20 18
2 6 6
2 4 4
2 5 5
8 17 15
19 42 37
21 45 40
21 46 41
22 47 42
22 48 44
22 47 42
22 47 43
23 49 44
22 48 43
22 49 44
23 51 46
22 49 45
22 49 44
22 49 44
22 47 43
22 49 44
22 49 44
21 46 42
21 47 43
21 46 42
21 46 42
21 46 42
20 45 41
21 46 42
21 47 43
21 46 42
21 47 42
21 46 42
20 45 41
21 46 42
21 47 43
21 46 42
22 48 43
21 45 41
21 46 42
21 47 43
21 46 42
21 47 43
22 48 44
21 47 43
21 47 42
21 47 43
21 47 43
21 47 43
21 47 43
21 47 43
21 46 42
21 47 43
21 47 43
21 47 43
21 47 43
21 46 42
22 48 44
21 46 42
21 47 42
21 47 43
21 47 43
21 47 43
22 48 43
21 47 43
22 47 43
21 46 42
21 47 43
21 47 43
22 48 43
21 47 43
22 48 44
22 48 43
21 47 43
22 48 43
21 47 42
22 47 43
22 49 44
21 47 43
22 48 43
22 48 43
22 48 44
22 48 44
22 47 43
21 47 43
21 47 42
22 48 44
22 48 44
22 48 44
22 47 43
22 48 44
21 47 42
22 48 43
22 49 44
22 48 44
22 49 44
21 47 42
22 49 44
22 48 43
22 49 45
22 48 43
22 48 43
22 48 43
22 48 43
22 48 44
22 47 43
22 48 43
22 48 43
22 49 45
22 47 43
22 48 43
22 48 43
22 48 44
22 48 43
22 48 43
21 47 42
22 48 44
19 41 38
15 34 32
12 29 28
11 27 25
10 25 24
10 23 22
10 24 23
11 25 24
14 31 29
19 41 37
22 48 43
21 46 41
22 48 44
22 47 43
22 48 43
22 48 43
22 48 43
22 49 44
22 48 43
22 49 44
23 50 45
22 49 44
22 49 44
22 48 44
22 49 44
21 46 42
21 46 42
21 46 42
20 45 41
21 46 42
20 45 41
21 47 43
21 46 42
21 46 42
21 46 42
21 47 43
21 46 42
21 45 42
21 47 42
22 48 44
21 46 42
21 46 42
21 46 42
21 47 43
21 47 43
21 46 42
21 46 42
21 47 42
21 46 42
21 46 42
21 47 43
21 47 43
21 47 43
21 47 43
21 47 42
21 47 43
21 47 43
22 48 44
21 46 42
21 47 43
21 46 42
21 47 42
22 48 44
21 47 43
21 47 43
22 48 43
22 48 44
21 47 43
21 47 43
21 47 42
21 47 43
22 49 44
22 47 43
22 48 43
21 47 43
22 49 44
22 48 43
21 47 43
22 47 43
22 48 43
21 47 43
22 48 44
21 47 43
21 47 43
22 48 43
22 49 44
22 48 43
22 49 45
22 48 44
22 48 44
22 47 43
21 47 43
22 48 44
22 47 43
21 47 43
21 47 43
22 48 44
22 48 43
22 49 44
22 48 44
22 48 43
22 48 44
23 49 45
21 47 43
22 49 44
22 48 44
22 48 43
23 50 45
22 48 44
22 49 44
22 48 44
22 49 45
22 48 43
22 49 44
22 48 43
22 49 44
22 48 43
23 50 45
23 49 44
21 47 42
22 48 43
21 47 43
20 45 40
20 43 39
19 43 39
19 42 38
19 42 38
20 44 41
21 45 41
21 47 42
22 49 44
22 48 44
22 48 43
22 49 45
22 48 43
22 49 44
23 49 45
22 48 43
22 47 43
22 48 43
22 48 44
23 50 45
22 48 44
22 49 44
22 48 44
21 46 42
20 45 41
21 47 43
21 46 42
21 46 42
20 45 41
21 47 43
20 45 41
21 46 42
21 46 42
21 47 43
20 45 41
21 46 42
21 46 42
21 46 42
21 46 42
21 46 42
21 47 43
21 46 42
22 48 44
21 46 42
20 45 41
21 46 42
21 46 42
21 46 42
21 47 42
21 46 42
21 47 43
22 48 44
21 46 42
21 47 43
21 46 42
22 48 43
21 46 42
21 46 42
21 47 43
21 47 43
22 48 44
21 47 43
21 47 43
21 46 42
22 48 43
21 47 43
21 47 43
21 46 42
22 48 44
22 48 43
21 47 43
22 48 43
21 47 43
21 47 43
21 47 43
20 45 41
22 48 43
22 47 43
22 49 45
22 48 44
21 47 43
22 48 44
21 47 43
21 46 42
21 47 43
21 47 43
21 47 43
22 48 43
22 48 43
22 49 44
22 48 43
22 48 43
21 47 43
22 49 45
22 48 44
22 48 44
22 48 43
21 47 43
22 48 43
21 47 43
22 48 43
21 47 43
22 48 44
22 48 44
22 47 43
22 48 44
22 48 44
22 48 44
22 49 44
22 48 43
22 48 44
22 47 43
22 49 44
22 49 44
22 49 44
21 47 43
22 49 45
21 47 43
22 49 44
22 49 44
22 48 44
22 48 44
22 48 44
22 49 44
22 47 43
22 49 44
22 47 43
22 48 44
22 48 43
22 48 43
22 49 44
23 49 45
21 47 42
22 48 43
22 48 43
22 48 43
23 49 45
22 48 44
22 47 43
22 49 45
23 50 45
22 48 44
22 48 44
21 45 42
20 45 41
20 45 41
21 46 42
20 44 40
21 46 42
21 46 42
21 46 42
21 47 43
20 45 42
21 46 42
21 46 42
21 46 42
21 47 43
21 46 42
21 46 42
21 47 43
21 46 42
21 46 42
21 46 42
21 46 42
21 47 43
21 46 42
21 46 42
21 47 43
21 47 43
21 47 43
22 47 43
21 47 43
21 47 43
21 46 42
21 47 43
22 48 44
21 46 42
21 46 42
21 46 42
21 47 43
21 47 43
22 48 44
22 48 44
21 47 43
22 48 43
21 47 43
21 47 42
22 47 43
22 48 44
21 46 42
22 48 44
21 47 43
21 47 43
21 47 43
21 46 41
22 48 43
21 47 43
22 48 44
21 47 43
22 48 43
21 47 42
22 48 44
21 47 43
21 47 42
21 47 43
22 47 43
21 47 43
21 47 43
22 48 44
21 47 42
22 48 44
22 47 43
22 48 44
22 48 44
21 47 43
22 48 44
22 48 43
22 48 43
22 48 43
22 48 44
22 48 44
22 48 44
22 49 45
22 48 44
22 48 44
22 48 43
22 49 45
22 49 44
22 48 43
22 48 44
22 48 44
21 47 42
22 48 44
22 47 43
22 48 44
22 48 44
21 47 42
22 48 44
22 48 44
22 49 44
22 48 44
22 48 43
22 48 44
22 48 44
22 49 44
22 49 44
22 48 44
22 48 44
22 49 44
22 48 43
22 48 43
22 49 44
21 46 42
22 48 44
22 49 44
22 49 44
22 48 44
22 48 43
22 48 43
22 48 44
22 48 44
22 48 44
23 50 45
21 47 43
20 45 41
21 46 43
21 46 42
21 46 42
20 45 41
21 46 42
21 46 42
21 46 42
21 46 42
21 47 43
21 45 42
21 46 42
21 46 42
21 46 42
21 46 42
21 47 43
21 46 42
21 47 43
21 45 42
21 47 43
21 46 42
21 47 43
21 46 42
21 46 42
21 46 42
21 46 42
21 47 43
21 47 43
21 46 42
21 47 43
21 47 42
21 46 42
21 46 42
21 46 42
21 47 43
21 47 43
21 47 43
21 47 43
22 47 43
21 46 42
21 47 43
22 48 43
21 47 43
22 48 44
21 46 42
21 47 43
21 46 42
21 47 43
21 47 43
22 48 43
21 47 43
21 46 42
22 48 44
21 47 43
22 48 43
21 46 42
21 47 43
21 47 43
21 47 42
21 47 43
22 48 44
22 48 43
21 47 43
22 48 43
22 48 44
22 48 44
21 47 43
21 47 43
22 48 43
22 48 44
21 47 43
22 48 44
22 48 43
22 47 43
22 48 43
22 48 44
22 49 44
21 47 43
22 48 44
22 48 43
22 48 43
22 48 44
22 49 44
22 48 44
22 48 44
22 47 43
22 49 45
22 48 44
22 48 44
22 49 44
22 48 44
22 49 45
22 49 44
22 48 43
22 47 43
22 48 43
21 47 43
21 47 42
22 48 44
22 47 43
22 48 44
22 48 43
22 48 43
22 47 43
22 48 44
22 48 43
22 48 44
21 47 42
22 48 44
22 49 44
22 48 44
22 48 44
22 48 44
22 47 43
22 49 44
22 48 44
22 48 44
22 49 44
22 47 43
21 46 42
20 45 41
21 46 43
20 45 42
21 47 43
21 45 41
21 46 42
21 47 43
21 46 42
20 45 41
21 45 41
21 46 42
21 47 43
20 45 41
21 46 42
21 46 42
21 46 42
21 46 42
21 47 43
21 47 42
21 47 42
21 46 42
21 47 43
21 46 42
21 47 43
20 45 41
21 45 41
21 47 43
21 46 42
21 47 43
21 46 42
21 47 43
21 46 42
21 47 43
21 47 43
22 48 44
21 46 42
21 46 42
21 47 43
21 47 43
22 48 43
21 47 43
21 47 43
21 46 42
21 46 42
22 47 43
21 47 43
21 47 43
21 46 42
21 46 42
21 47 43
22 48 44
21 47 42
22 48 43
22 48 44
21 46 42
21 47 43
21 46 42
21 47 43
22 48 44
21 47 43
21 46 42
22 47 43
21 46 42
22 49 44
21 46 42
21 46 42
21 47 43
22 48 43
22 48 43
22 48 44
21 46 42
21 47 42
21 47 43
22 47 43
22 47 43
22 48 44
21 46 42
21 47 43
22 48 44
21 47 43
21 47 43
22 48 44
21 47 43
21 47 43
22 48 43
22 48 44
21 47 43
22 48 44
22 48 44
22 48 44
22 48 44
22 48 44
22 49 45
22 48 44
22 47 43
21 47 43
22 48 44
21 47 43
22 47 43
22 48 44
23 49 45
21 47 43
22 47 43
22 48 44
22 48 43
22 48 44
23 50 45
22 48 44
22 48 44
22 48 44
22 48 44
22 49 44
22 48 44
22 48 43
22 48 44
22 49 44
22 49 44
22 48 44
22 49 44
21 46 42
21 46 42
21 46 42
20 45 41
22 48 44
21 46 43
21 45 42
20 44 41
21 46 42
21 45 42
21 47 43
21 47 43
20 45 41
21 46 42
21 47 42
21 47 43
21 46 42
21 45 41
20 45 41
21 46 42
20 45 41
21 46 42
21 47 43
21 46 42
21 46 42
20 45 41
21 47 43
21 46 42
20 45 41
21 47 43
21 46 42
20 45 41
21 47 43
21 46 42
21 46 42
21 46 42
21 47 43
21 46 42
21 46 42
21 46 42
21 46 42
21 46 42
21 47 43
21 47 43
22 49 44
21 45 41
21 46 42
21 47 43
21 47 43
22 48 44
22 48 43
21 47 43
21 46 42
21 47 42
22 47 43
22 47 43
22 48 43
21 47 42
21 47 43
21 47 43
22 48 44
22 47 43
22 47 43
21 47 43
21 47 43
21 46 42
22 48 44
21 46 42
21 47 43
22 48 44
21 46 42
22 48 44
22 48 44
22 48 43
21 47 42
21 46 42
22 49 45
22 49 44
21 47 42
22 49 45
22 48 43
22 48 44
22 48 44
22 48 44
22 48 43
22 49 45
21 47 43
22 48 43
22 49 44
22 47 43
21 47 42
22 49 44
22 47 43
22 48 43
22 48 44
22 48 44
22 48 43
22 48 44
22 48 44
22 48 44
21 47 43
23 49 45
22 49 44
22 49 45
22 49 44
22 49 45
22 48 43
22 48 44
22 48 44
22 47 43
22 48 44
22 48 44
22 48 44
21 47 43
22 48 43
22 48 44
22 48 44
22 47 43
22 48 43
22 48 43
20 44 41
20 45 41
20 45 41
21 46 42
21 46 42
21 47 43
21 46 42
21 46 42
20 45 42
21 46 42
21 46 43
21 46 42
21 46 42
20 45 41
21 46 42
22 48 44
21 46 42
21 46 42
21 46 42
21 45 41
21 47 43
21 46 42
21 46 42
21 46 42
21 47 43
21 46 42
21 47 43
21 47 43
21 46 42
20 45 41
20 45 41
21 47 43
22 48 43
21 47 43
21 47 43
22 48 43
21 47 43
21 46 42
21 47 43
21 47 43
21 47 43
20 44 41
21 47 43
21 47 42
21 47 43
21 47 42
21 47 43
21 46 42
22 47 43
21 46 42
21 47 43
21 47 43
22 48 43
21 47 43
21 47 43
21 47 42
21 45 41
21 47 43
21 46 42
22 48 44
22 48 44
22 48 43
21 46 42
21 47 43
21 46 42
22 48 44
21 47 43
21 47 42
21 47 43
21 47 43
22 48 43
21 47 43
21 47 42
22 48 44
22 48 44
22 47 43
21 47 43
22 49 44
22 48 44
22 48 44
22 47 43
22 47 43
22 48 44
22 48 44
22 48 44
22 49 45
22 48 43
22 48 43
21 46 42
22 48 43
22 47 43
22 48 43
21 47 43
23 50 45
22 48 44
22 47 43
22 47 43
22 49 45
22 48 44
21 47 43
22 48 43
23 50 45
22 48 44
22 49 44
22 49 44
23 50 45
22 48 44
22 49 44
22 49 44
22 48 43
22 49 44
22 48 43
22 48 43
22 48 43
22 48 44
22 48 44
22 48 44
22 47 43
22 48 44
22 48 44
20 45 42
20 45 41
21 46 42
20 45 41
21 46 42
21 46 42
21 46 42
21 46 42
21 46 42
21 46 42
21 47 43
20 45 41
20 45 41
21 47 43
21 47 43
21 45 42
20 45 41
21 45 42
21 46 42
21 46 42
21 47 43
21 46 42
20 45 41
21 46 42
21 46 42
21 46 42
21 47 43
21 46 42
21 46 42
21 46 42
21 47 43
21 47 43
22 48 44
21 46 42
21 47 43
21 46 42
22 48 44
21 47 43
21 47 43
21 47 43
22 48 43
21 46 42
21 47 43
21 46 42
22 48 43
21 46 42
21 47 43
21 47 43
21 47 43
21 47 43
21 47 43
21 46 42
21 47 43
21 47 43
21 47 43
21 46 42
21 46 42
22 48 44
21 47 43
21 46 42
22 47 43
21 46 42
21 47 43
22 48 43
21 47 43
21 47 43
21 47 43
22 48 43
22 48 44
21 47 42
21 46 42
21 47 43
21 47 43
21 47 43
21 47 43
21 46 42
22 48 44
21 46 42
22 48 44
22 47 43
22 47 43
21 46 42
21 47 43
22 48 43
21 47 42
22 48 44
22 47 43
21 47 43
21 47 43
22 48 44
21 47 43
22 48 43
22 48 44
22 48 44
21 47 43
21 47 42
21 46 42
22 48 43
22 48 43
21 47 43
21 47 43
22 47 43
21 47 43
22 48 44
22 47 43
22 48 43
21 47 43
22 48 44
22 47 43
22 48 43
22 48 43
22 49 44
22 48 44
22 48 44
22 48 44
22 49 44
23 50 45
22 48 43
22 48 43
22 48 43
21 46 42
20 44 40
21 46 42
20 45 41
21 46 42
21 46 42
20 45 41
20 45 41
21 46 42
21 46 42
21 46 42
21 47 43
21 46 42
21 46 42
21 47 43
20 45 41
21 46 42
21 47 43
21 46 42
21 46 42
21 47 43
21 46 42
21 46 42
20 45 41
21 45 41
21 46 42
21 46 42
21 47 43
21 45 42
21 47 42
21 46 42
21 46 42
22 48 44
21 47 43
21 46 42
21 46 42
21 45 41
21 47 43
21 46 42
21 46 42
20 45 41
21 46 42
21 46 42
21 46 42
21 47 43
21 46 42
21 46 42
21 45 41
21 45 41
21 47 42
21 46 42
21 47 43
21 46 42
22 48 43
21 46 42
21 45 42
22 48 44
22 48 44
21 46 42
21 47 43
21 46 42
21 47 43
21 47 43
21 47 43
21 47 43
21 47 43
21 46 42
21 47 43
22 49 44
22 47 43
22 48 43
21 46 42
21 46 42
21 47 43
21 47 43
22 47 43
21 46 42
21 47 42
22 47 43
21 47 43
21 47 43
21 46 42
22 48 44
22 47 43
22 48 44
21 47 43
22 48 44
21 47 43
21 47 43
21 47 43
22 47 43
21 46 42
22 48 44
21 47 43
21 46 42
22 48 43
22 49 44
21 47 43
21 47 42
22 47 43
21 47 43
21 47 43
22 48 44
22 47 43
22 48 44
21 47 43
21 47 43
22 48 44
21 47 43
22 48 43
22 48 44
22 47 43
21 47 43
22 49 44
21 47 43
21 47 43
21 47 42
21 47 43
22 48 43
22 47 43
21 47 43
20 45 41
20 44 41
20 45 41
21 46 42
21 46 43
21 45 42
21 46 42
21 46 42
21 46 42
21 47 43
21 47 43
21 47 43
20 45 41
21 47 43
21 46 42
21 46 42
21 46 42
21 46 42
21 46 42
20 45 42
20 45 41
20 45 41
21 45 41
21 46 42
21 47 43
21 46 42
21 46 42
21 47 43
21 46 42
21 46 42
21 45 41
21 47 43
21 46 42
21 46 42
20 45 41
20 45 41
21 47 43
21 47 43
21 46 42
21 46 42
22 48 43
21 46 42
21 46 42
21 46 42
21 46 42
21 46 42
21 47 42
21 47 42
21 47 43
21 46 42
21 46 42
21 46 42
21 46 42
21 47 42
21 47 42
21 47 43
21 46 42
21 47 43
21 46 42
22 48 43
21 47 43
21 47 43
21 46 42
21 47 43
21 46 42
21 47 43
21 47 43
21 47 43
21 46 42
21 46 42
21 47 43
21 46 42
22 48 44
21 47 42
21 46 42
22 48 44
21 47 43
21 47 43
21 46 42
21 47 43
21 46 42
21 46 42
21 46 42
21 46 42
22 48 44
21 47 43
21 47 43
22 47 43
21 47 43
22 48 43
22 47 43
21 47 43
22 48 43
21 47 43
22 48 43
22 48 43
22 47 43
21 47 43
22 48 44
21 47 42
21 47 42
21 47 43
22 48 43
22 47 43
22 49 44
21 47 42
21 47 42
21 47 42
22 47 43
22 48 43
22 47 43
22 49 45
22 48 43
21 47 43
21 47 43
21 47 43
21 47 43
22 48 43
21 47 43
20 45 42
20 45 41
20 44 40
21 46 42
21 46 42
21 46 42
20 45 41
21 45 42
21 46 42
20 45 42
21 46 42
21 46 42
21 46 42
21 46 43
21 46 42
20 45 41
20 45 41
20 45 41
21 47 43
21 46 43
20 45 41
20 45 41
21 46 42
21 47 43
20 45 41
21 46 42
21 46 42
21 46 42
21 46 42
21 46 42
21 47 43
20 45 41
21 46 42
21 46 42
21 46 42
21 46 42
21 45 41
21 46 42
21 46 42
21 46 42
22 48 44
21 47 43
21 46 42
21 47 43
22 48 44
21 47 43
21 47 43
21 46 42
21 46 42
21 46 42
21 46 42
21 46 42
21 47 43
21 46 42
21 47 43
21 46 42
22 48 44
22 48 44
21 47 43
22 48 43
21 47 43
21 47 43
21 47 43
22 47 43
21 47 43
22 48 44
21 46 42
22 49 44
21 47 43
21 47 43
21 47 43
21 47 43
21 45 41
22 48 43
22 48 44
21 46 42
22 47 43
21 47 43
22 48 44
21 47 43
21 47 42
21 47 43
22 48 43
21 46 42
22 48 44
21 47 43
22 48 44
21 47 43
21 47 43
21 46 42
21 47 43
21 47 43
21 47 43
21 47 43
22 47 43
21 47 43
21 47 43
22 48 44
21 47 42
22 48 44
21 47 43
21 47 43
21 47 42
21 46 42
21 47 43
22 48 44
21 47 43
21 46 42
21 47 43
21 46 42
22 48 43
21 47 42
21 47 43
22 48 44
22 48 43
22 48 43
22 47 43
22 48 44
22 48 43
21 47 43
20 45 41
21 46 42
21 46 42
20 45 42
20 45 41
21 46 42
20 45 42
20 44 41
20 45 41
21 46 42
21 46 42
20 45 41
20 45 41
20 45 41
20 45 42
21 46 42
20 45 41
21 46 42
21 46 42
21 47 43
20 45 41
21 47 43
21 47 43
21 46 42
20 45 41
21 47 43
21 46 42
21 46 42
21 46 42
21 47 43
21 46 42
21 46 42
21 46 42
21 46 42
21 47 43
21 46 42
20 45 41
21 47 43
21 46 42
21 46 43
21 46 42
21 46 42
21 46 42
21 46 42
21 46 42
21 46 42
21 47 43
21 46 42
21 47 43
21 46 42
21 46 42
22 48 44
21 46 42
21 47 43
22 48 44
21 46 42
21 47 43
21 46 42
21 47 43
21 47 43
21 47 42
21 46 42
20 44 41
21 47 43
21 47 42
21 46 42
21 45 41
21 46 42
22 48 43
21 46 42
21 47 43
21 47 43
21 46 42
21 47 43
21 46 42
22 48 44
21 47 43
21 46 42
21 47 43
22 48 43
22 47 43
22 47 43
21 46 42
21 46 42
22 48 43
21 47 43
21 47 43
21 47 43
21 47 43
22 48 43
22 48 43
22 48 43
21 47 43
22 47 43
22 48 44
22 48 44
22 47 43
21 46 42
21 47 43
21 46 42
21 47 43
22 48 44
22 47 43
22 47 43
21 47 43
21 46 42
22 48 43
21 47 43
22 48 43
22 48 44
22 48 43
21 46 42
21 47 43
21 47 42
22 47 43
22 48 44
22 48 44
22 48 44
22 48 44
21 47 42
20 45 41
21 46 42
20 44 41
21 46 42
20 45 41
20 45 41
20 45 41
20 45 41
21 46 42
21 46 42
20 45 41
20 44 41
20 45 41
21 46 42
20 45 41
21 46 42
20 45 41
21 46 42
21 46 42
20 45 41
21 45 42
20 45 41
20 45 41
21 47 43
21 47 43
21 46 42
21 46 42
21 46 42
21 46 42
20 45 41
21 46 42
21 45 41
21 46 42
20 45 41
21 47 43
20 45 42
21 47 43
21 46 42
20 45 41
21 46 42
21 47 43
21 47 43
21 47 43
21 47 42
21 46 42
21 46 42
20 45 41
21 46 42
21 46 42
21 47 43
21 47 43
21 46 42
20 45 41
21 47 43
22 48 43
21 46 42
21 46 42
21 46 42
21 47 43
21 46 42
21 46 42
21 47 43
21 45 41
22 48 44
21 46 42
21 47 43
21 45 42
22 48 44
21 46 42
21 47 43
21 47 43
21 46 42
21 47 43
21 46 42
21 47 43
21 47 43
21 46 42
21 47 43
21 46 42
21 47 43
21 45 41
21 46 42
21 47 43
21 46 42
21 46 42
21 47 43
22 48 44
22 48 44
21 47 43
21 47 43
21 46 42
22 47 43
21 45 41
21 46 42
22 48 43
21 46 42
21 46 42
21 46 42
22 47 43
21 47 43
21 46 42
21 47 43
22 48 44
22 48 44
22 48 43
22 49 44
22 48 44
22 47 43
22 48 44
21 46 42
21 47 43
21 46 42
21 47 43
22 47 43
21 47 42
21 47 43
21 47 43
22 48 44
22 47 43
22 48 43
21 46 42
20 45 41
20 45 41
20 45 41
21 46 42
20 45 41
21 46 42
20 45 41
21 47 43
20 45 42
20 45 41
20 44 40
21 46 42
20 45 41
20 45 42
21 46 42
21 46 42
20 45 41
20 44 40
21 46 42
21 46 42
21 46 42
20 45 41
20 45 41
21 46 42
20 44 40
21 46 42
20 45 41
21 47 43
21 47 43
20 45 41
21 47 43
21 46 42
21 46 42
21 46 42
21 46 42
21 46 42
21 46 42
21 46 42
21 46 42
21 46 42
21 46 42
21 46 42
21 46 42
20 44 41
21 46 42
21 46 42
21 46 42
20 45 41
21 46 42
21 47 43
21 46 42
21 46 42
21 47 43
21 46 42
21 47 43
21 47 43
21 46 42
21 47 43
21 46 42
21 47 43
22 48 44
22 48 44
21 46 42
21 46 42
21 46 42
21 47 43
21 46 42
21 47 43
21 47 42
22 48 44
21 47 43
21 46 42
21 47 43
21 47 43
21 47 42
21 47 43
22 48 43
21 47 42
21 47 43
21 46 42
21 47 42
21 46 42
21 46 42
22 48 44
22 47 43
22 48 44
21 47 43
22 47 43
21 47 43
21 46 42
22 47 43
21 46 42
22 47 43
22 48 44
21 47 43
21 46 42
21 46 42
21 46 42
22 47 43
22 48 44
22 48 44
22 47 43
21 46 42
21 47 43
21 46 42
22 47 43
22 47 43
22 48 43
22 48 43
22 47 43
22 47 43
22 48 44
22 47 43
22 48 43
21 47 42
22 48 44
22 47 43
21 47 43
22 48 44
20 45 41
20 45 41
20 45 41
20 45 42
20 44 41
20 45 41
21 45 42
20 45 42
21 46 42
20 45 41
20 45 41
20 45 41
20 45 41
20 45 41
21 46 42
21 46 43
20 45 41
21 46 42
20 45 41
20 45 41
21 47 43
20 45 41
21 46 42
21 46 42
20 45 41
21 46 42
21 46 42
20 45 42
21 46 42
21 46 42
21 46 42
20 45 41
21 45 42
20 45 41
21 46 42
21 47 43
21 46 42
21 47 43
21 45 42
21 46 42
21 46 42
21 46 42
21 46 42
21 46 42
21 47 43
20 45 41
21 46 42
20 45 41
21 46 42
21 46 42
21 46 42
21 46 42
21 46 42
21 47 43
21 46 42
21 46 42
21 46 42
21 46 42
21 46 42
21 46 42
21 45 41
21 47 43
21 47 43
21 47 42
21 47 43
21 47 43
21 46 42
21 47 43
21 46 42
21 46 42
21 46 42
22 48 44
21 46 42
21 47 43
21 46 42
21 46 42
21 46 42
21 46 42
21 47 43
22 47 43
21 47 43
21 46 42
21 46 42
21 47 43
22 47 43
21 46 42
22 48 43
22 47 43
21 46 42
21 46 42
22 47 43
21 47 42
22 47 43
22 48 43
22 47 43
22 47 43
21 47 42
22 49 44
22 49 44
22 47 43
22 47 43
22 47 43
22 47 43
22 47 43
22 47 43
22 47 43
21 46 42
22 47 43
22 47 43
22 47 43
22 47 42
21 45 41
22 47 43
22 47 43
22 47 43
22 47 43
22 48 43
21 47 42
22 48 44
21 47 43
21 46 42
20 45 41
21 47 43
20 45 42
20 45 42
21 46 42
21 46 42
20 45 41
21 46 42
20 45 41
21 46 42
21 46 42
20 44 40
20 44 41
20 45 42
21 46 42
20 45 41
20 45 41
21 46 42
21 46 42
21 47 43
21 46 42
21 46 42
21 45 42
21 46 42
20 45 41
21 46 42
20 45 41
21 46 42
20 45 41
21 46 42
21 46 42
21 46 42
21 46 42
21 47 43
21 46 42
21 46 42
21 46 42
21 45 42
21 45 42
20 45 41
20 45 41
21 46 42
21 46 42
21 46 42
21 47 43
21 46 42
21 46 42
21 46 42
21 46 42
21 47 43
21 46 42
21 46 42
21 46 42
21 47 43
21 47 43
21 46 42
21 46 43
21 47 43
21 47 42
21 46 42
22 48 44
21 46 42
20 45 41
21 47 43
21 46 42
21 47 43
21 46 42
21 47 43
21 47 43
21 46 42
22 48 44
21 46 42
22 48 43
21 46 42
21 47 43
21 46 42
21 46 42
21 46 42
21 47 42
21 46 42
22 47 43
21 47 43
21 46 42
21 47 42
22 47 43
21 47 43
22 47 43
21 45 41
22 48 43
21 45 41
22 47 43
22 47 43
22 46 42
22 48 43
22 48 44
21 46 42
22 47 43
21 46 42
21 45 41
22 47 43
22 47 43
22 48 44
22 47 43
22 47 42
22 48 43
22 47 43
22 47 42
22 47 43
22 46 42
21 46 42
22 47 43
22 48 43
22 46 42
22 47 43
22 48 43
22 47 43
22 47 43
22 48 44
22 47 43
20 45 41
20 43 40
20 45 42
21 46 42
20 44 40
20 45 41
20 45 42
20 45 42
21 46 42
20 45 41
20 45 41
21 45 42
21 46 42
20 45 41
20 45 42
20 45 41
21 47 43
21 46 42
20 45 42
21 46 42
21 47 43
20 45 42
20 45 42
20 45 42
20 44 40
20 45 41
20 44 40
21 46 42
21 46 42
20 45 41
21 46 42
20 45 41
20 45 41
21 46 42
20 45 41
21 46 42
21 46 42
20 45 41
20 45 41
20 45 42
21 46 42
21 47 43
21 46 42
21 46 42
21 46 42
21 46 42
21 46 42
21 46 42
21 46 42
20 45 41
21 46 42
21 46 42
21 46 42
21 45 42
21 46 42
21 45 42
21 47 43
21 47 43
21 46 42
21 46 42
21 47 43
21 46 42
21 47 43
21 46 42
21 47 43
21 46 42
21 46 42
21 45 41
21 46 42
21 47 43
21 46 42
21 45 42
21 47 43
21 45 41
21 47 43
21 47 43
21 46 42
21 46 42
22 48 44
21 47 43
21 47 43
21 46 42
21 46 42
21 46 42
21 46 42
22 47 43
21 46 42
22 47 42
21 46 42
22 47 43
22 46 42
22 46 42
23 48 44
22 47 43
22 48 43
23 48 44
22 46 42
22 47 43
22 47 43
22 46 42
22 47 43
22 47 43
23 48 43
23 48 44
22 46 42
22 47 43
22 47 43
22 47 43
22 48 43
22 46 42
22 47 43
22 47 43
22 46 42
22 46 42
22 47 43
22 46 42
22 47 43
22 48 43
22 48 44
22 47 43
20 45 41
20 44 40
20 45 41
21 46 42
21 46 42
21 46 42
21 46 42
21 46 42
20 45 42
20 45 41
21 46 42
20 45 41
21 46 42
20 44 40
20 45 41
21 46 42
21 46 42
20 45 41
20 45 41
20 45 41
21 46 42
21 46 42
20 45 41
20 45 41
21 46 42
21 47 43
21 46 42
21 47 43
21 46 42
21 47 43
20 45 41
21 46 43
21 46 42
20 45 41
20 45 41
21 46 42
21 46 42
20 45 41
20 44 41
20 45 41
20 45 41
21 47 43
21 46 42
21 46 42
20 45 42
20 45 41
21 47 43
21 46 42
21 46 42
20 45 42
21 46 42
21 46 42
20 45 41
21 46 42
21 45 42
21 47 43
21 47 43
21 47 43
21 46 42
20 45 41
21 46 42
21 46 42
21 47 43
21 46 42
21 47 43
21 47 43
21 46 42
21 46 42
21 46 42
21 45 41
21 46 42
21 46 42
21 46 42
22 47 43
21 46 42
21 46 42
21 46 42
22 47 43
21 46 42
22 47 43
22 46 42
22 47 43
22 47 43
22 47 43
22 47 43
22 46 42
22 46 42
22 46 42
22 47 43
23 48 43
22 46 42
22 46 42
22 47 43
22 47 43
23 47 43
23 47 43
23 47 43
23 49 44
22 47 42
23 48 43
23 47 43
23 48 44
23 48 43
23 47 42
23 49 44
23 47 43
22 46 42
23 47 43
23 48 43
23 47 43
23 47 43
23 48 44
23 47 43
22 47 43
23 47 43
22 47 43
22 46 42
22 47 43
22 46 42
22 48 43
20 45 41
20 44 41
20 44 41
20 45 41
20 45 42
20 45 41
20 45 41
20 44 41
20 45 42
21 46 42
21 46 42
20 45 41
21 46 42
20 45 41
20 44 40
21 46 42
20 45 41
20 45 41
21 46 42
20 45 41
21 46 42
20 45 42
21 45 42
20 45 41
20 45 41
21 46 42
21 45 42
21 46 42
20 45 41
21 47 43
20 45 41
21 46 42
20 45 41
20 45 41
21 46 42
21 47 44
20 45 41
21 46 43
20 44 40
20 45 42
21 47 43
20 45 41
20 45 41
21 46 42
20 45 41
21 46 42
21 47 43
21 46 42
21 46 42
20 45 41
21 46 42
21 46 42
20 45 41
21 47 43
21 46 42
21 46 42
21 46 42
20 45 41
21 47 43
21 46 42
21 45 42
22 48 44
21 46 42
21 46 42
21 47 43
21 46 42
21 47 43
21 47 43
21 46 42
21 46 42
21 46 42
21 47 43
22 47 43
21 47 43
21 47 42
21 46 42
22 47 43
22 47 43
22 47 43
21 45 41
22 47 43
22 47 43
22 47 43
23 48 44
22 47 43
22 46 42
22 47 43
22 45 41
23 48 43
22 46 42
23 47 43
23 47 43
23 48 44
22 46 42
23 47 43
23 48 43
23 48 44
23 47 43
23 47 43
23 47 43
23 47 42
23 47 43
24 48 44
24 48 43
24 48 43
23 47 43
24 48 43
24 48 44
23 47 42
24 48 44
23 47 43
24 48 44
24 48 44
23 47 43
23 47 43
24 48 44
23 48 44
23 47 43
23 48 44
22 47 42
20 44 41
20 44 41
20 44 41
20 45 41
20 44 40
20 45 41
21 46 42
21 46 42
20 45 42
20 45 41
20 45 41
21 46 43
20 45 41
20 45 42
19 43 40
21 46 42
20 45 42
21 46 42
21 46 43
21 46 42
21 46 42
21 46 42
20 45 41
20 45 41
20 45 41
20 44 41
20 45 42
21 47 43
20 45 41
21 46 42
21 46 42
20 45 42
21 46 42
20 45 41
21 46 42
20 45 42
20 45 41
21 46 42
21 46 42
21 46 42
20 45 41
21 46 42
21 46 42
21 46 42
20 45 41
21 46 42
21 46 42
21 46 42
20 45 41
21 46 42
21 46 42
21 47 43
22 48 44
21 46 42
21 45 42
21 46 42
21 46 42
20 45 41
20 45 41
21 47 43
21 46 42
20 45 41
21 46 42
21 46 42
21 47 43
21 46 43
21 46 42
21 46 42
21 45 42
21 45 41
21 46 42
22 47 43
22 47 43
22 48 44
22 47 43
22 46 42
21 46 42
22 47 43
22 46 42
22 47 43
22 47 43
22 47 43
22 47 43
22 47 42
23 47 43
23 47 42
23 47 43
23 47 43
23 47 43
23 47 43
23 47 43
24 48 43
23 47 43
24 47 43
24 48 44
24 46 42
24 49 44
24 48 44
24 48 43
25 48 44
24 47 43
24 46 42
24 48 43
25 48 44
24 46 42
24 48 44
24 47 43
24 47 43
24 46 42
25 49 45
25 48 44
23 46 42
24 48 43
24 48 43
24 47 43
23 47 42
24 48 44
24 48 44
24 48 44
23 48 44
20 45 41
20 44 41
20 45 41
20 45 41
21 46 42
20 43 40
21 46 42
20 45 41
20 45 41
20 45 41
20 45 41
21 46 42
20 45 41
20 44 41
20 45 42
20 44 40
20 45 41
20 45 41
20 45 41
21 46 42
20 45 41
21 46 43
20 45 41
20 44 40
20 45 41
21 46 42
20 44 41
20 45 41
20 44 41
21 46 42
20 45 41
20 45 41
20 45 41
21 45 42
20 45 41
21 46 43
21 47 43
20 45 41
21 46 42
20 45 41
20 45 41
20 44 40
21 46 42
20 45 41
21 47 43
20 45 41
22 48 43
20 45 41
21 46 42
20 45 42
21 46 42
21 46 42
20 45 41
20 45 41
21 47 43
21 46 42
21 46 42
21 45 41
20 45 41
21 46 42
21 46 42
21 46 42
20 45 41
21 45 41
21 45 41
21 46 42
21 45 41
21 45 41
22 47 43
22 47 43
21 45 41
21 46 42
21 45 41
22 48 43
22 47 43
22 46 42
22 47 43
22 46 42
22 47 43
22 46 42
23 47 43
23 47 42
23 47 43
23 47 43
23 48 43
23 47 43
24 49 44
24 48 43
24 47 43
24 46 42
24 48 44
24 47 43
24 46 42
24 47 43
25 48 44
25 47 43
25 48 44
25 48 44
25 48 43
25 47 43
25 47 43
25 48 44
26 49 44
26 50 45
25 48 43
25 47 43
26 48 44
25 48 44
25 48 44
25 48 44
25 48 44
25 48 44
25 47 43
25 48 44
25 47 43
25 48 44
25 48 44
25 49 45
24 48 43
24 48 43
20 45 41
20 44 41
20 44 41
21 46 42
20 45 41
20 45 42
20 45 41
20 44 41
20 45 41
20 45 42
20 45 41
20 45 41
20 45 41
20 45 41
20 45 41
20 45 41
20 45 41
20 44 41
20 45 41
20 44 41
20 44 41
20 44 41
20 45 41
20 45 41
21 46 42
20 45 41
20 45 41
21 46 43
20 45 41
20 45 41
21 46 42
20 45 41
20 45 41
21 46 42
20 45 41
21 46 42
21 46 42
20 45 41
20 45 41
21 46 42
20 45 42
20 45 42
20 45 41
21 46 42
21 46 42
20 45 41
20 45 41
21 46 42
20 45 41
21 46 42
20 45 41
21 46 42
21 46 42
21 46 43
21 46 42
21 46 42
20 44 40
20 45 41
21 45 42
20 45 41
21 46 42
21 46 42
21 47 43
21 46 42
21 47 43
21 45 41
21 45 41
22 47 43
21 45 41
21 46 42
21 46 42
22 47 43
21 45 41
23 48 44
23 48 44
22 46 42
23 47 43
23 48 43
23 47 43
23 47 43
23 46 42
24 48 43
23 46 42
23 46 42
24 47 43
24 47 43
24 46 42
25 48 43
25 47 43
25 48 44
25 48 43
25 48 43
26 48 44
26 48 44
26 47 43
27 49 45
27 49 45
26 48 44
27 49 45
27 49 44
27 50 45
27 50 45
27 48 44
27 48 43
27 48 44
27 49 45
27 48 44
27 49 44
27 48 44
27 48 44
27 50 45
26 48 44
26 47 43
26 47 43
26 48 44
26 49 44
26 49 44
25 48 43
26 48 44
25 48 44
20 45 42
20 45 42
20 44 40
21 46 42
21 46 42
20 44 40
20 45 41
20 45 42
20 45 41
20 45 41
20 45 42
20 44 41
20 45 41
20 44 41
20 45 41
21 46 43
21 46 42
20 45 42
21 46 42
20 45 41
21 46 42
20 45 41
21 46 42
20 44 40
20 45 41
20 44 40
20 45 42
20 45 41
20 45 41
20 45 41
20 44 41
20 45 41
20 43 40
20 44 40
20 45 41
20 45 41
20 45 42
20 45 41
20 45 41
20 45 41
21 46 42
20 44 41
21 46 42
21 46 42
21 46 42
21 46 42
20 44 41
21 46 42
21 46 42
21 46 42
21 46 42
21 45 41
20 45 41
21 47 43
21 46 42
20 44 40
20 45 41
21 47 43
21 45 41
21 45 41
21 46 42
21 45 41
21 46 42
21 45 42
21 46 42
22 48 44
21 46 42
21 45 41
22 46 42
22 46 42
22 46 42
22 45 41
22 47 43
23 47 43
23 47 43
23 46 42
23 47 43
23 47 43
23 46 42
24 47 43
25 48 44
24 47 43
25 48 44
25 48 43
25 48 43
25 47 43
25 47 43
26 48 44
26 48 44
26 48 44
27 49 45
27 49 45
27 48 44
27 49 44
27 48 44
28 48 44
28 49 45
29 50 46
28 49 45
28 49 45
29 50 46
29 49 44
29 50 45
29 51 46
29 51 46
28 49 44
29 49 44
29 50 45
29 50 45
28 49 44
29 50 45
28 49 44
28 50 45
28 50 45
28 49 45
27 48 44
27 48 43
27 49 44
27 50 45
26 48 44
20 44 41
21 46 42
21 47 43
20 45 41
21 46 43
20 44 41
20 45 41
20 44 40
20 45 41
20 44 40
20 43 40
20 45 41
21 46 42
20 45 41
20 44 41
20 44 41
20 44 40
20 45 41
21 46 42
20 45 42
20 45 41
20 45 41
20 45 41
20 44 40
20 45 41
21 46 42
20 44 41
20 45 41
20 45 41
20 45 41
20 45 42
21 46 43
20 44 41
20 45 41
21 46 42
20 44 41
21 46 42
21 45 42
20 45 41
20 45 42
21 45 42
20 44 41
20 44 41
20 45 41
20 44 41
21 46 42
21 46 42
21 46 42
20 45 41
21 45 42
21 46 42
21 46 42
20 45 41
20 44 41
21 47 43
21 46 42
21 45 41
22 47 43
21 46 42
21 46 42
21 46 42
21 46 42
21 46 42
21 46 42
21 46 42
22 47 43
21 45 41
22 46 42
22 46 42
22 46 42
22 46 42
23 47 42
23 47 43
23 47 43
23 47 43
24 48 43
23 46 42
24 47 43
24 47 42
24 47 43
25 48 44
25 48 44
26 48 43
26 48 44
27 49 45
27 50 45
27 49 44
27 49 44
28 49 45
28 49 44
28 49 44
29 50 45
29 50 45
29 50 45
30 50 45
29 49 44
30 50 45
30 50 45
30 51 46
30 49 45
30 50 45
31 50 45
31 51 46
30 50 45
31 50 45
31 51 46
31 51 46
31 51 46
30 49 44
31 52 47
31 51 46
30 50 45
30 50 45
30 50 46
30 50 45
29 49 45
29 50 45
29 50 45
29 50 45
28 49 44
20 44 40
20 44 41
20 45 41
20 44 40
20 45 42
21 46 42
20 45 42
20 45 41
20 45 41
20 44 40
20 45 41
20 45 42
21 46 42
20 45 42
21 46 42
20 44 40
20 44 41
20 45 42
20 45 41
20 45 41
20 45 41
20 44 41
20 44 40
20 45 41
20 45 42
21 47 43
20 45 42
20 45 42
21 46 42
20 45 41
20 45 41
21 46 42
20 45 42
20 45 41
20 44 41
21 46 42
21 46 42
21 46 42
20 45 41
21 46 42
21 46 42
20 44 41
20 44 40
20 45 41
20 45 42
20 45 41
21 45 42
21 46 42
20 45 41
20 45 41
20 45 41
21 46 42
21 45 42
21 46 42
21 46 42
21 46 42
20 45 41
22 47 43
21 46 42
22 47 43
21 45 41
21 46 42
22 46 42
21 45 41
22 47 43
22 47 43
22 47 43
22 46 42
23 47 43
22 46 42
23 47 43
23 47 43
24 48 43
24 48 43
24 47 43
24 47 43
25 47 43
25 47 43
26 49 45
26 48 44
26 47 43
27 48 44
26 47 43
27 48 43
27 47 43
28 48 44
29 50 45
29 49 44
29 49 45
30 49 45
30 50 45
30 49 45
31 51 46
31 51 46
31 50 45
32 51 46
32 51 46
32 51 46
32 51 46
32 51 46
33 52 47
33 51 46
33 52 47
33 52 47
33 51 46
33 52 47
33 52 46
33 51 46
33 52 47
33 51 46
33 51 46
33 52 47
32 51 46
32 52 46
32 51 46
31 50 45
31 50 45
31 51 46
30 50 46
30 51 46
20 44 40
20 44 41
20 44 40
20 45 41
20 45 42
21 46 43
20 45 41
20 45 41
20 44 40
20 45 42
20 45 42
20 45 41
20 45 42
20 45 42
20 44 41
20 45 41
20 44 41
21 46 42
20 45 41
20 45 42
20 44 40
20 44 41
20 45 41
20 44 41
21 46 42
20 45 41
20 45 41
20 45 41
21 45 42
21 46 42
21 46 42
21 46 43
21 46 42
21 46 42
21 46 42
20 44 40
21 46 42
20 44 41
20 45 41
20 45 41
20 45 41
20 44 41
21 46 42
20 45 42
20 45 42
20 45 41
21 46 42
20 45 41
21 45 42
20 45 41
20 44 41
21 45 41
20 44 40
21 46 42
21 46 42
22 48 43
21 46 42
22 47 43
21 46 42
22 46 42
21 46 42
21 45 41
21 45 41
22 46 42
22 46 42
22 46 42
23 47 43
23 47 43
23 46 42
23 46 42
24 47 43
24 47 43
24 47 42
25 48 43
25 47 42
25 47 42
26 48 43
26 48 44
26 48 43
27 48 43
28 49 45
28 49 44
28 49 45
29 49 44
29 49 45
30 49 44
30 50 45
31 50 45
32 51 46
32 51 46
32 51 46
33 51 46
33 50 45
33 51 46
34 53 47
34 52 46
35 53 48
35 53 48
35 53 48
36 54 48
36 53 48
36 53 48
36 53 47
36 53 47
36 53 47
36 55 49
36 53 48
36 53 48
35 52 47
35 53 48
35 53 48
35 53 47
34 52 46
35 54 48
34 52 47
34 53 47
34 52 47
33 52 46
33 52 47
32 50 45
20 45 41
20 45 41
20 45 41
20 45 41
20 43 40
20 45 41
21 46 42
21 46 42
20 44 41
20 45 41
20 44 40
20 44 40
20 45 42
20 45 42
21 46 43
20 45 41
20 45 41
20 45 41
20 45 41
20 45 41
20 45 41
20 45 41
20 45 41
20 44 40
20 44 41
20 45 41
20 45 42
21 46 42
20 44 41
20 44 40
20 45 42
20 45 41
20 45 41
20 44 41
20 44 41
20 45 41
21 46 42
20 45 41
21 46 43
21 47 43
20 45 41
20 45 41
21 46 42
20 45 41
20 45 41
20 45 41
20 44 41
21 45 42
21 47 43
21 46 42
21 46 42
21 46 42
21 46 42
21 45 41
20 44 41
21 46 42
21 46 42
21 46 42
22 47 43
21 45 42
22 46 42
22 46 42
22 46 42
23 47 43
22 46 42
23 46 42
23 46 42
23 47 43
23 47 43
23 46 42
24 47 43
25 47 43
25 47 43
26 48 43
26 48 44
26 48 43
27 49 44
28 49 45
28 48 43
29 49 45
29 50 45
30 50 45
30 50 45
31 50 45
31 50 45
32 52 47
33 52 46
33 51 46
34 52 47
34 52 47
35 52 47
35 53 48
35 52 46
36 53 48
36 53 48
37 54 48
37 54 48
37 54 48
38 55 49
38 54 48
38 55 49
38 54 48
38 55 49
39 55 49
39 55 49
39 55 49
39 55 49
38 53 48
38 55 49
38 55 49
38 54 48
37 54 48
37 54 49
37 54 48
37 55 49
36 54 48
36 52 47
36 53 47
35 53 47
35 52 47
20 45 41
20 44 40
20 45 41
20 44 41
20 45 42
20 44 41
20 45 41
20 45 41
20 45 41
20 44 40
20 44 41
20 45 42
20 45 41
20 45 42
20 45 42
20 45 42
20 45 41
20 44 40
20 44 41
20 45 41
20 45 41
20 44 40
21 46 42
20 44 41
20 45 41
20 45 41
20 45 41
20 45 41
20 45 41
21 46 42
20 45 42
20 45 42
20 43 40
21 46 42
21 46 42
20 45 42
21 46 42
21 46 42
21 46 42
20 45 41
20 45 41
20 44 41
20 45 41
21 46 42
20 45 41
20 45 41
21 45 42
20 45 41
21 45 42
20 45 41
21 45 41
21 46 42
21 45 41
21 46 42
21 44 41
21 46 42
21 46 42
22 46 42
21 45 42
21 45 41
22 46 42
23 47 43
22 44 41
23 46 42
23 46 42
23 47 43
24 47 42
23 46 42
24 46 42
24 46 42
25 47 43
25 47 43
26 48 44
26 47 43
27 48 44
27 47 43
28 48 43
29 49 44
29 49 44
30 51 46
31 50 45
31 50 45
32 51 46
33 51 46
34 53 47
34 52 47
35 52 47
35 53 47
36 52 47
37 54 48
37 55 49
38 54 48
38 54 48
39 56 50
39 54 48
40 55 49
40 55 49
41 56 50
41 57 51
41 57 51
41 56 50
41 56 49
42 57 51
41 56 50
42 57 51
42 56 50
42 56 50
41 56 50
41 56 49
42 58 51
41 57 51
41 56 50
41 57 50
40 55 49
39 55 49
39 55 49
39 54 49
38 54 48
38 55 49
37 54 48
20 45 41
20 46 42
20 45 41
20 45 41
20 44 40
20 44 41
20 44 41
20 44 40
20 45 41
20 45 41
20 44 40
20 45 41
19 43 40
20 45 41
20 45 41
20 45 41
21 46 42
20 45 41
19 43 39
20 44 41
20 43 40
21 46 42
20 45 41
20 45 41
20 44 40
20 45 41
20 45 41
20 45 41
20 45 42
20 45 41
20 44 41
20 44 41
20 45 42
20 44 40
21 46 42
20 45 41
21 46 42
20 45 41
21 46 42
20 44 40
21 46 42
20 45 41
20 45 41
20 45 41
21 45 42
20 44 40
21 46 42
20 44 41
21 46 42
21 46 42
21 46 42
21 46 42
21 45 41
21 45 42
21 45 41
21 44 41
22 46 42
22 46 42
22 45 42
22 46 42
22 46 43
22 45 42
23 47 42
23 47 43
23 45 41
24 46 42
24 46 42
25 47 42
25 48 43
26 48 44
26 48 43
27 49 44
27 48 44
28 48 44
29 49 45
29 49 44
30 49 44
31 51 46
32 51 46
32 51 46
32 50 45
33 50 45
34 52 46
35 51 46
36 53 48
37 54 48
37 53 48
38 55 49
39 54 48
39 55 49
40 56 50
41 56 50
41 55 49
42 57 51
42 57 51
43 58 52
43 57 51
44 58 51
44 57 51
44 59 52
44 59 52
45 59 52
45 58 52
46 60 53
45 58 52
45 59 52
45 59 53
45 59 52
45 59 52
45 59 53
45 59 52
44 58 52
44 58 51
44 58 52
43 58 51
42 57 51
42 56 50
41 56 50
41 56 50
40 57 50
20 45 41
20 45 41
20 45 41
20 45 41
19 43 40
20 45 41
20 45 41
20 45 41
20 45 41
19 43 40
20 44 41
20 45 41
20 44 41
20 44 40
20 45 41
20 45 42
20 44 41
20 44 41
20 45 41
20 44 40
20 44 40
20 44 40
20 44 40
20 44 40
20 44 41
20 45 41
19 43 40
20 45 41
21 46 42
20 44 40
20 44 41
20 45 41
21 46 42
20 45 42
20 45 41
21 46 42
20 45 41
20 44 41
20 45 41
21 45 42
20 45 41
21 46 42
20 44 41
21 45 41
21 47 43
20 45 41
20 45 41
21 45 41
21 45 41
21 46 42
21 46 42
21 45 41
21 46 42
21 45 41
22 46 42
21 45 41
21 45 41
22 46 42
22 46 42
23 46 42
22 45 42
23 46 42
23 46 42
24 46 42
24 47 43
25 47 43
25 47 43
26 47 43
26 48 44
27 48 44
27 48 44
28 48 43
29 50 45
29 49 44
30 50 45
31 50 45
32 50 45
33 51 46
33 52 47
34 53 47
35 53 48
36 53 47
37 54 48
37 53 48
38 54 48
39 56 50
40 55 49
41 55 49
42 57 51
42 57 51
43 57 50
44 58 51
45 59 52
45 58 52
45 58 52
46 60 53
47 60 53
47 60 53
47 60 53
48 60 53
48 61 54
49 61 54
49 61 54
48 61 54
49 62 54
49 61 54
49 62 55
48 61 54
49 61 54
48 61 54
48 61 54
47 60 53
47 60 53
47 60 53
46 59 53
46 59 52
45 59 52
45 58 52
44 59 52
43 58 51
20 44 41
20 44 41
20 45 41
20 45 41
20 44 40
20 45 41
20 46 42
20 44 41
20 44 40
20 44 40
21 46 42
20 44 41
20 44 41
20 44 41
20 44 40
20 44 41
20 44 41
20 44 40
19 43 40
20 45 42
20 45 41
20 44 41
20 45 41
20 45 42
20 45 42
20 45 41
20 45 41
20 44 41
20 45 41
20 44 40
20 45 41
20 45 42
20 45 41
20 44 40
21 46 42
20 45 41
21 45 42
20 45 41
21 46 42
20 45 41
21 45 42
21 45 42
21 46 42
21 47 43
20 44 40
20 45 41
20 45 41
21 45 42
21 45 41
20 44 41
21 45 42
21 45 41
21 45 41
21 45 41
22 46 42
22 46 42
22 45 42
22 46 42
22 46 42
23 47 43
23 46 42
23 45 41
24 47 43
26 49 45
26 48 44
25 47 43
26 48 43
27 48 43
27 48 43
28 48 44
29 49 44
30 50 45
30 50 45
31 51 46
32 50 45
33 51 46
34 53 48
34 51 45
36 53 48
37 55 49
37 53 47
38 54 48
39 55 49
40 56 50
41 57 51
42 57 51
43 57 51
44 58 52
44 58 52
45 58 51
47 60 53
47 60 53
47 60 53
48 61 54
49 62 54
50 63 55
50 63 55
51 63 55
51 63 56
51 62 55
52 64 56
52 64 57
52 64 56
53 64 56
53 64 56
53 64 56
52 64 56
52 63 56
52 64 56
52 64 56
52 63 55
51 63 56
51 63 55
51 63 55
50 62 54
49 62 54
49 61 54
48 59 52
47 60 53
47 60 53
20 44 41
21 46 42
20 44 40
20 45 42
20 45 41
20 44 41
20 45 41
20 45 42
20 45 42
20 45 41
20 44 40
20 44 40
20 44 40
19 43 40
20 44 41
21 46 42
20 44 40
20 44 40
20 44 41
20 45 42
20 44 40
20 45 41
20 45 42
20 44 40
20 44 41
20 45 41
21 46 42
20 44 41
21 46 42
21 46 42
20 45 41
20 45 42
19 43 40
20 45 41
20 45 41
20 44 40
20 45 41
21 46 42
20 44 41
21 46 42
20 45 41
21 45 41
20 44 40
21 45 42
21 46 42
21 46 42
20 44 40
20 44 41
21 45 41
21 46 42
21 44 41
22 46 42
22 46 42
21 45 41
22 46 42
22 46 42
23 46 42
22 45 41
23 47 43
24 47 43
24 47 43
25 47 43
24 46 42
25 47 43
26 47 43
27 48 44
27 49 44
28 49 44
28 48 43
29 48 44
30 50 45
31 50 45
32 50 45
33 50 45
34 52 47
35 51 46
36 53 47
36 52 46
38 53 48
39 54 48
40 55 49
41 56 50
42 56 50
43 58 51
44 58 51
45 59 52
46 60 53
47 59 52
48 61 54
49 61 54
49 61 54
50 62 55
51 63 56
52 63 56
52 63 55
53 63 56
54 64 57
54 64 56
55 66 58
55 66 57
56 67 59
56 67 59
56 66 58
56 66 58
57 67 59
56 66 58
57 67 59
56 66 58
56 66 58
56 66 58
56 66 58
55 65 57
55 66 58
54 65 57
54 65 57
53 64 56
53 64 56
52 64 56
51 63 55
50 62 55
20 44 41
20 44 40
20 45 42
20 45 41
20 45 41
20 44 41
20 45 41
20 45 41
20 45 41
20 45 41
20 45 41
20 44 40
19 43 40
20 44 41
20 45 41
21 46 42
20 45 41
21 46 42
21 46 42
20 44 40
20 45 41
20 44 41
20 44 41
20 44 40
20 44 41
20 45 41
19 43 40
20 45 41
20 45 41
20 44 41
21 46 42
20 44 41
20 45 42
21 45 42
20 44 40
21 46 42
20 44 41
21 46 43
20 44 40
20 44 41
20 44 40
20 45 41
20 44 41
21 45 42
21 46 42
20 43 40
21 46 42
21 45 41
21 46 42
21 44 41
21 45 42
22 46 42
22 47 43
23 47 43
22 45 41
22 45 42
23 46 42
23 46 42
23 45 41
24 47 43
25 47 43
25 47 43
26 48 44
26 47 43
27 47 43
28 48 43
29 50 45
29 49 44
30 50 45
31 50 45
32 51 46
33 51 46
34 53 47
35 52 47
36 53 48
37 53 48
38 53 48
39 54 49
41 57 51
41 56 50
43 57 51
44 58 51
45 58 52
46 59 52
47 59 52
48 61 53
49 61 54
50 61 54
51 63 56
52 63 55
53 64 56
54 65 57
55 66 58
56 66 58
56 66 58
57 67 58
58 67 59
58 68 59
59 68 59
59 68 59
60 69 60
60 70 61
61 70 61
61 70 61
61 69 61
61 69 60
61 70 61
61 70 61
60 70 61
60 69 60
60 70 61
59 68 60
59 68 60
58 68 59
58 68 60
57 66 58
56 67 59
56 66 58
55 65 57
54 65 57
20 45 41
20 45 42
19 43 39
20 44 41
20 44 41
20 45 41
20 44 40
20 44 41
20 44 40
20 45 42
20 44 41
20 45 42
20 45 42
20 44 41
20 45 41
20 44 41
20 45 41
20 44 41
20 44 41
19 43 40
19 43 40
20 44 40
21 46 42
21 46 42
20 44 40
20 45 41
20 44 41
20 44 41
20 44 40
21 46 42
20 45 41
20 45 42
20 44 41
20 44 41
20 45 42
20 45 41
20 45 41
20 44 41
21 47 43
20 44 41
21 46 42
20 45 41
21 45 41
20 44 41
21 46 42
21 45 41
21 45 42
21 45 41
21 45 41
22 46 42
22 46 42
22 46 42
22 45 41
22 45 41
22 45 42
23 47 43
24 47 43
24 46 42
25 48 44
25 46 42
26 48 44
26 48 43
27 48 44
28 50 45
28 49 44
29 49 44
30 49 44
31 50 46
32 50 45
33 51 46
34 52 47
35 53 48
35 52 46
37 53 47
38 55 49
39 55 49
40 56 50
41 55 49
43 57 51
44 58 51
45 59 53
46 59 52
48 60 54
49 62 54
50 62 55
51 63 55
53 64 56
53 64 56
55 66 58
56 67 59
57 67 59
58 68 60
59 68 59
60 68 60
60 69 60
61 70 61
62 70 61
63 71 62
63 72 63
64 72 62
64 71 62
65 73 64
65 72 63
65 72 63
65 72 63
65 72 63
65 72 63
65 73 64
65 74 64
64 72 62
64 72 63
64 72 62
63 72 62
62 71 62
62 71 62
61 70 61
60 69 60
60 69 60
59 68 59
58 67 58
20 44 40
20 45 41
20 45 42
19 43 40
20 45 41
20 45 41
20 44 41
20 44 40
20 45 41
20 45 41
20 45 41
20 44 40
20 45 41
20 45 42
20 44 41
20 45 41
20 45 42
20 45 41
20 44 40
20 45 42
20 43 40
20 44 40
20 45 41
20 45 42
20 45 41
20 44 41
20 45 42
20 44 41
20 45 42
20 44 40
20 44 41
20 44 41
20 45 41
20 45 41
20 45 41
20 45 41
20 45 41
20 45 41
21 46 42
21 46 42
20 44 41
20 44 40
20 44 40
21 45 42
21 44 41
21 46 42
21 45 42
22 46 42
22 45 42
22 45 41
22 45 41
22 45 41
22 45 41
22 44 41
23 46 42
24 47 43
24 47 43
24 46 42
25 46 42
25 46 42
26 47 43
27 48 44
28 49 44
29 49 44
30 50 45
30 50 45
32 52 47
32 49 45
33 51 46
34 51 46
36 54 48
36 52 47
38 53 47
39 54 49
40 55 49
41 55 49
43 57 51
44 58 52
46 59 52
47 60 53
48 61 54
50 61 54
51 62 55
52 64 56
53 64 57
55 65 57
56 66 58
58 68 59
58 67 59
60 69 60
60 69 60
62 70 61
63 71 62
64 72 63
64 72 62
66 73 64
66 73 63
67 74 64
67 74 65
68 75 65
68 75 65
69 75 65
69 76 66
69 76 66
70 77 67
69 77 67
69 76 66
69 76 66
69 76 66
69 76 66
68 75 66
68 75 65
67 74 64
67 74 64
66 74 64
65 73 64
65 73 63
64 72 63
63 71 62
62 70 61
20 44 41
19 43 40
20 44 41
20 44 41
20 44 40
19 43 39
20 45 41
20 44 40
21 46 42
20 45 41
20 45 41
20 44 41
20 45 42
20 44 40
20 44 41
20 45 41
20 44 40
20 45 42
20 45 41
20 45 41
20 44 40
20 45 41
20 44 40
21 46 42
20 45 41
20 45 41
20 44 40
19 43 40
20 44 40
20 45 42
20 44 41
20 44 41
20 45 41
20 45 41
20 44 40
20 45 42
20 43 40
20 45 41
20 44 41
21 45 42
20 44 40
21 45 41
21 45 42
21 45 41
20 44 40
22 46 42
21 45 41
22 47 43
22 46 42
22 45 42
23 46 43
22 45 41
23 46 42
23 47 43
24 47 43
25 47 43
25 46 42
25 47 43
26 47 43
27 48 44
27 47 43
28 49 45
29 48 44
30 50 46
31 49 45
32 50 45
33 51 46
34 53 47
35 52 46
36 52 47
38 54 48
39 55 49
40 54 48
42 57 51
42 56 50
44 57 51
46 59 52
47 60 53
48 61 54
50 62 54
52 64 56
53 63 56
54 64 56
56 66 57
57 67 58
58 67 59
60 68 60
61 69 61
62 71 62
64 72 63
64 72 62
66 74 64
67 74 64
68 75 65
69 75 65
70 76 66
70 77 66
71 78 67
71 77 67
72 78 68
73 79 69
73 79 69
73 79 68
74 79 68
74 81 70
74 79 69
74 79 68
73 79 68
73 79 68
73 80 69
73 79 68
72 79 68
72 78 67
71 77 67
70 76 66
70 76 66
69 76 66
68 74 65
67 75 65
66 73 64
20 45 41
20 44 41
20 45 41
20 43 40
20 44 41
19 43 40
20 44 40
20 44 40
20 44 41
19 43 39
20 44 40
20 44 41
20 44 40
20 44 40
20 44 41
21 46 42
20 45 41
20 45 41
20 45 41
21 46 42
19 43 40
20 44 41
20 44 40
20 45 41
20 44 41
20 45 42
20 44 41
20 45 41
20 44 40
20 43 40
20 44 41
20 45 41
20 44 41
20 45 41
20 45 41
21 46 42
20 45 41
21 46 42
20 45 41
21 45 42
21 45 42
21 45 41
21 46 42
21 45 41
21 45 42
21 45 42
22 45 42
22 45 41
22 45 41
22 44 41
23 46 42
23 45 41
24 47 43
24 47 43
24 47 43
25 47 43
26 47 43
26 47 43
27 47 43
28 49 44
29 49 45
29 48 44
30 50 45
31 49 45
32 50 45
33 51 46
34 52 47
36 52 47
37 53 48
39 55 49
40 55 49
41 55 49
42 57 50
44 58 52
45 59 52
47 59 53
48 61 54
50 61 54
51 63 56
53 64 56
54 65 57
56 65 57
57 67 59
59 68 60
60 68 60
62 69 60
63 72 63
65 72 63
66 74 64
67 75 65
69 76 66
70 76 66
71 77 67
72 79 68
73 79 69
74 79 69
75 81 70
75 81 70
76 81 70
77 82 71
77 83 72
78 82 71
78 83 72
79 84 73
78 83 71
79 84 73
78 83 72
78 83 71
78 83 72
78 82 71
77 82 71
77 82 71
77 82 71
75 80 69
75 82 71
74 79 69
73 79 69
72 78 68
71 77 66
70 77 67
20 44 41
20 45 42
20 44 40
20 44 41
20 45 41
20 44 40
20 45 41
20 44 40
19 43 40
20 45 41
20 44 40
20 44 40
20 44 40
20 44 41
20 45 42
20 46 42
20 44 40
20 44 41
20 45 41
20 44 41
21 46 43
20 44 40
20 44 41
20 44 40
20 43 40
20 45 41
20 45 41
20 45 41
20 45 41
20 45 41
20 44 41
21 45 42
20 44 41
20 44 41
21 46 42
20 45 41
20 45 41
20 44 40
20 45 41
21 46 42
21 45 41
21 45 41
21 45 41
21 46 42
21 45 41
22 46 42
22 45 42
22 45 42
23 46 42
23 46 42
23 46 43
23 45 41
24 46 42
25 47 43
25 47 43
26 47 43
27 50 45
27 48 44
28 48 43
29 48 44
30 49 44
31 51 46
32 50 46
33 50 45
34 52 47
35 53 47
37 54 48
38 53 48
39 55 49
40 56 50
42 56 50
44 58 51
45 58 51
47 60 53
48 61 54
50 62 55
51 62 55
53 64 56
54 65 57
56 65 57
58 67 58
59 68 59
61 69 60
63 71 62
64 72 63
66 73 64
67 74 64
69 76 66
70 76 66
72 78 68
73 78 68
74 80 69
75 80 69
76 82 70
77 82 71
78 83 71
79 84 73
80 84 73
81 85 73
81 85 74
82 86 74
82 86 74
83 86 74
83 87 75
83 87 75
83 87 75
83 88 76
83 87 74
83 86 74
82 86 74
82 87 75
82 86 74
81 85 74
80 85 73
79 84 72
79 83 72
77 82 71
77 82 71
75 80 69
74 80 70
20 44 40
20 45 42
20 45 42
20 45 42
20 44 40
20 44 40
19 43 40
20 45 41
20 45 42
20 44 40
20 45 42
20 44 41
20 45 42
20 44 41
20 44 40
20 44 41
20 44 41
20 44 40
20 45 41
20 44 41
20 44 40
20 45 41
20 44 40
20 44 41
20 44 40
20 45 42
20 43 40
20 44 41
20 45 41
20 44 41
20 44 40
20 44 41
20 45 41
20 45 41
20 44 41
20 45 41
20 45 41
21 45 41
20 44 40
21 45 41
21 44 41
21 45 41
21 44 40
22 46 42
21 45 41
22 45 42
23 47 43
22 45 41
23 46 42
23 46 42
24 47 43
24 46 42
24 46 42
25 46 42
26 48 43
26 47 43
27 47 43
28 49 44
29 50 45
30 50 45
31 49 44
32 50 45
33 51 46
34 51 46
35 52 47
37 52 47
38 53 48
39 53 48
41 56 50
42 56 50
44 57 50
45 58 51
47 60 53
49 62 55
51 62 55
52 63 56
54 65 57
56 66 58
57 66 58
59 68 59
61 69 61
63 71 61
64 72 63
66 74 64
68 74 65
69 76 66
71 76 66
73 78 68
74 80 69
75 81 70
77 82 71
78 82 71
79 83 72
81 85 74
82 86 74
83 87 75
84 87 75
85 88 76
85 89 76
86 89 77
86 89 77
87 90 77
87 91 78
88 91 78
88 91 78
88 91 78
88 91 78
88 91 79
87 90 78
87 91 78
87 90 77
86 90 77
86 89 77
85 89 76
84 88 76
83 86 74
82 86 74
81 85 74
80 85 73
79 83 72
20 44 41
19 43 40
20 44 41
20 46 42
20 44 40
20 44 40
20 44 41
21 46 42
20 45 41
21 46 42
20 44 40
20 44 40
20 45 41
20 44 41
20 44 41
20 44 40
20 45 42
20 44 41
19 43 40
19 43 40
20 45 42
20 44 40
21 46 42
20 44 41
20 44 41
20 45 41
20 44 40
20 44 41
20 44 40
20 44 41
20 44 40
20 45 41
21 45 42
20 45 41
20 44 41
21 46 42
20 45 41
21 45 41
21 45 42
21 45 41
21 44 41
21 45 41
22 46 42
22 46 42
22 45 41
22 45 41
23 46 42
23 47 43
23 47 43
24 48 43
24 46 42
25 46 42
25 47 43
26 48 43
26 47 43
27 48 44
28 48 44
29 48 43
30 49 44
31 50 45
32 50 45
33 51 46
35 52 47
36 52 47
37 52 46
39 54 49
40 56 50
42 56 50
43 57 50
45 58 51
47 60 53
48 60 54
50 61 54
52 63 56
53 63 55
55 65 57
57 66 58
59 68 59
60 68 60
62 71 62
64 72 63
66 73 64
68 75 65
70 76 66
71 78 68
73 78 68
75 80 69
77 82 71
78 83 71
80 85 73
81 85 73
83 87 75
84 87 75
85 89 77
86 89 76
87 90 78
89 92 79
89 92 79
90 92 79
91 93 80
91 93 80
92 94 81
92 95 81
92 94 81
93 95 81
93 95 81
93 95 82
92 95 81
92 95 82
92 95 81
92 94 81
91 93 80
90 93 80
90 92 79
89 92 79
88 91 79
87 90 77
86 90 77
85 88 76
83 87 75
20 44 40
20 44 41
20 44 40
20 44 40
19 43 40
20 44 41
19 43 40
20 44 40
20 45 41
20 44 40
20 45 42
20 44 40
19 43 40
20 44 40
20 45 42
19 43 40
20 45 41
20 45 42
19 43 39
20 44 41
20 44 41
20 45 41
20 44 40
20 45 42
20 45 42
20 45 41
20 44 41
21 46 42
20 45 41
20 45 41
20 44 41
20 44 41
21 45 41
20 44 40
21 46 42
20 44 40
20 43 39
20 44 41
21 45 42
21 45 42
21 45 42
21 45 41
21 44 40
22 45 41
21 44 40
23 47 43
23 46 42
23 47 43
24 47 43
24 46 42
25 47 43
25 47 43
26 46 42
27 49 45
28 48 44
28 48 44
29 47 43
30 50 45
32 51 46
33 52 46
34 51 46
35 52 47
36 52 46
38 54 49
39 55 49
41 56 50
42 57 51
43 56 50
46 59 52
47 60 53
49 61 54
51 63 56
52 63 55
54 64 57
56 66 58
58 67 58
60 69 60
62 70 62
64 72 62
66 73 63
68 74 64
70 77 67
72 78 67
73 79 69
75 80 69
77 82 71
79 83 72
80 84 72
83 87 75
84 87 75
86 90 78
87 89 77
88 91 78
89 92 79
91 93 80
92 94 81
93 95 81
94 95 82
95 97 84
95 97 83
96 98 84
97 98 84
97 99 85
97 98 84
97 99 84
98 99 85
97 98 84
97 99 85
97 98 84
97 98 84
96 98 84
95 97 83
95 96 83
94 96 82
93 96 82
93 95 81
91 93 80
90 92 79
89 92 79
88 90 77
21 46 42
20 45 41
20 44 41
20 44 41
19 43 40
20 45 41
20 44 41
20 44 40
20 45 41
20 45 42
20 45 41
20 44 40
20 44 40
20 45 41
21 46 43
20 44 41
20 44 40
20 45 42
20 44 41
20 44 41
20 45 41
20 44 40
20 44 41
20 45 42
21 46 42
20 43 40
20 44 40
20 45 41
20 44 40
20 44 41
20 44 41
20 44 40
21 45 42
20 45 41
20 44 40
20 44 41
21 45 42
20 44 40
21 46 42
21 44 40
21 44 41
21 45 41
21 44 40
22 46 42
22 45 41
22 45 41
23 47 42
24 47 43
24 46 42
25 46 42
25 47 42
26 48 43
27 48 44
27 47 42
28 48 43
29 48 43
30 50 45
31 49 45
32 50 45
34 52 47
35 51 46
36 51 46
38 53 48
39 55 49
41 55 49
43 57 50
44 58 51
46 59 52
47 59 52
49 61 54
51 63 55
53 63 56
55 64 56
57 68 60
59 67 59
61 69 61
63 71 62
65 73 64
67 74 64
69 75 65
71 77 67
73 79 68
75 81 70
77 83 71
79 83 72
81 85 73
83 87 75
85 88 76
86 89 77
88 90 78
89 92 79
91 93 80
92 94 81
94 96 82
95 97 83
96 98 84
97 99 85
98 99 85
99 100 86
100 101 86
101 101 86
101 103 88
102 102 87
102 103 88
102 102 87
102 103 88
102 103 88
102 102 87
102 102 88
102 102 88
101 102 87
100 101 87
100 101 87
99 100 86
98 98 84
97 98 84
96 98 84
95 97 83
93 95 82
92 94 81
20 45 41
20 44 41
20 45 42
20 44 41
20 44 41
20 45 42
20 44 41
20 45 41
20 44 41
20 45 41
20 45 41
20 44 40
20 44 40
20 45 42
20 45 41
20 44 40
20 44 41
20 45 41
20 45 41
20 45 41
20 44 40
20 44 40
20 44 40
21 46 42
20 45 42
20 45 41
20 44 41
21 46 42
20 44 41
20 45 42
20 45 41
20 44 41
20 44 41
20 45 41
20 44 41
20 44 40
20 44 40
21 45 41
21 45 41
21 44 41
22 45 42
22 46 42
22 46 42
23 46 42
23 45 42
23 45 42
23 45 41
24 46 42
25 46 42
25 47 43
26 46 42
26 47 42
27 47 43
29 49 44
29 49 45
30 50 45
31 50 45
32 50 45
34 51 46
35 53 47
36 52 47
38 53 47
39 54 49
41 56 50
43 58 51
44 57 51
46 59 52
48 61 54
50 61 54
52 63 56
54 65 57
56 66 58
58 67 59
60 69 60
62 70 61
64 72 63
66 74 64
68 75 65
70 77 67
72 79 68
75 80 69
77 81 70
79 83 72
81 85 74
83 86 74
85 88 76
87 90 77
88 91 79
90 93 80
92 94 81
94 96 82
95 96 82
97 98 84
98 100 86
100 100 86
101 102 87
102 102 88
103 103 88
104 105 89
105 104 89
105 105 90
106 106 91
106 106 91
107 107 91
107 107 91
107 107 92
107 107 91
107 107 91
107 107 91
106 106 91
106 106 91
105 106 90
104 105 90
104 104 89
103 103 88
102 102 87
101 101 87
99 100 86
98 100 86
97 98 84
20 45 41
20 44 41
20 44 40
20 44 41
20 44 40
20 45 41
20 45 41
19 43 40
20 45 41
19 43 39
20 45 41
19 43 39
20 44 40
20 44 41
20 44 40
20 44 40
20 44 40
20 44 40
20 45 41
19 42 39
20 45 41
20 44 40
20 45 42
20 43 40
20 44 41
20 44 41
20 45 41
20 45 41
21 46 42
20 44 41
21 45 42
20 44 41
20 44 41
21 46 42
20 44 40
21 46 42
21 44 41
21 45 41
21 45 41
21 44 40
22 45 41
21 44 40
22 44 41
23 46 43
22 44 40
23 46 42
23 45 41
24 46 42
25 46 42
26 46 42
26 46 42
28 49 44
28 48 44
29 48 43
30 49 45
31 50 45
32 50 45
34 51 45
35 51 46
37 53 48
38 53 48
40 55 49
41 55 49
43 57 51
45 58 52
46 59 52
48 60 53
51 63 55
52 63 55
54 64 56
56 66 58
58 68 59
61 70 61
63 71 62
65 72 63
67 74 64
69 76 66
72 78 68
74 79 68
76 81 70
78 82 71
80 84 72
82 86 74
85 89 76
86 90 77
89 91 78
91 93 80
93 95 81
94 96 82
96 98 84
98 99 84
100 100 86
101 102 87
103 103 88
104 104 89
105 106 90
106 106 91
108 108 92
108 108 92
109 108 93
110 110 94
110 109 93
111 110 94
111 110 94
112 111 95
112 112 95
112 111 95
112 110 94
111 110 94
111 110 94
111 109 93
110 109 93
109 109 93
108 108 92
108 107 92
106 106 91
105 106 90
104 104 89
103 104 89
101 102 87
20 44 40
20 44 41
20 44 41
20 45 41
20 44 41
20 45 41
20 44 40
20 44 40
20 45 41
20 45 41
20 44 41
20 45 41
20 45 42
19 43 40
20 45 41
20 44 40
19 43 39
20 44 40
20 45 42
20 44 40
20 45 41
20 45 42
20 44 40
20 44 41
20 44 40
20 45 42
20 44 41
20 44 41
21 46 42
20 44 40
20 44 40
20 45 41
21 46 42
20 44 41
20 43 40
20 44 40
21 45 42
21 44 41
21 45 41
22 45 41
21 44 40
22 45 41
23 46 43
23 45 41
24 46 42
24 47 43
24 45 41
25 47 43
26 46 42
27 48 44
27 47 42
28 48 44
29 48 43
30 50 45
31 50 45
33 51 46
34 51 46
35 52 47
37 53 48
38 53 47
40 54 49
41 55 49
43 57 50
45 58 52
47 59 53
49 61 54
51 62 55
52 63 56
54 64 56
57 66 58
59 68 60
61 70 61
63 71 62
65 72 63
68 75 65
70 75 65
72 78 67
75 80 69
77 82 71
79 84 72
82 86 74
84 88 75
86 89 77
88 90 78
90 93 80
92 94 80
95 96 83
97 98 84
98 100 85
100 101 86
102 103 88
104 105 90
105 105 90
107 107 91
108 107 92
110 109 93
111 110 94
112 112 95
113 112 95
114 112 96
114 113 97
115 114 97
116 115 98
116 115 98
117 115 98
117 115 98
117 114 97
117 115 98
116 115 98
116 114 97
116 114 97
115 113 97
114 112 96
113 112 96
112 112 95
111 110 94
110 109 94
108 108 92
107 107 91
106 105 90
20 44 40
20 44 41
20 44 41
20 46 42
20 45 41
19 43 40
20 45 41
20 44 41
20 44 41
20 44 41
20 44 40
20 45 41
20 45 41
20 44 41
19 43 40
21 46 42
20 44 40
21 46 43
20 44 40
21 46 42
20 45 42
20 45 41
20 45 41
20 45 41
20 44 41
20 44 41
20 44 40
20 44 41
20 43 39
20 44 40
21 45 42
21 45 41
20 43 39
20 44 41
21 45 42
21 46 42
21 44 40
21 45 41
22 46 42
22 46 42
23 47 43
23 47 43
23 46 42
23 46 42
24 46 42
24 46 42
25 47 43
25 46 42
26 47 43
27 48 44
28 48 44
29 49 44
30 49 44
32 51 46
32 50 45
34 50 45
35 52 47
36 52 47
38 53 48
39 54 48
41 56 50
43 56 50
45 58 51
47 59 52
48 60 53
51 62 55
52 63 55
55 65 57
57 66 58
59 68 60
61 70 61
64 71 62
66 73 64
68 74 64
70 77 66
73 78 68
75 80 69
78 82 71
80 84 72
83 87 75
85 89 77
87 89 77
90 92 79
92 94 81
94 96 82
96 98 84
98 99 85
100 101 86
102 103 88
104 105 90
106 106 91
108 108 92
110 109 93
111 110 94
113 111 94
114 113 97
115 113 97
117 115 98
118 116 99
119 117 100
119 118 100
120 117 100
120 118 101
121 119 101
121 119 102
121 119 101
121 119 101
121 119 102
121 118 100
120 118 101
120 118 100
119 117 100
118 116 99
118 116 99
117 116 99
116 114 97
114 113 96
113 112 96
111 110 94
110 109 93
20 45 41
19 43 39
20 44 40
20 45 42
20 44 41
20 45 41
20 45 41
19 43 40
19 43 40
20 45 42
20 44 41
20 44 41
20 44 41
20 44 41
20 45 41
20 45 41
20 44 41
20 44 40
20 44 40
20 44 40
20 44 41
20 45 41
19 43 40
20 44 41
20 44 40
20 44 40
20 43 40
20 45 41
20 43 40
20 44 40
21 45 41
20 44 40
20 44 40
20 44 41
21 44 40
21 44 40
22 46 42
21 44 40
22 45 41
22 46 42
23 46 42
23 47 43
23 45 41
24 47 43
25 47 43
25 46 42
25 46 42
26 48 43
27 47 43
28 48 44
29 48 44
30 49 44
31 50 45
32 50 45
34 51 46
35 51 46
36 53 47
38 53 48
39 54 48
41 56 50
43 57 51
45 58 52
47 59 52
49 60 53
50 61 54
52 62 55
55 65 57
57 66 58
59 68 59
62 70 61
64 71 62
66 74 64
69 75 65
71 77 67
73 79 68
76 81 70
79 83 72
81 86 74
83 87 75
86 89 76
88 91 78
91 93 80
93 95 81
95 97 83
98 98 84
100 101 86
102 103 88
104 104 89
107 107 92
109 108 92
110 110 93
112 112 95
114 113 96
116 115 98
117 115 98
118 116 99
120 118 100
121 119 101
122 120 102
123 121 103
124 121 103
124 121 103
125 122 104
125 122 104
126 123 104
126 123 105
126 123 105
126 123 104
125 123 104
125 122 104
124 122 103
124 121 103
123 121 103
122 120 102
121 119 101
120 118 100
119 117 100
117 115 98
116 114 97
114 113 96
