P3
120 80
255
18 41 38
18 40 38
18 40 37
18 41 38
18 40 38
18 41 39
18 41 38
18 40 38
18 40 38
18 41 38
18 40 38
18 41 39
18 40 37
18 42 39
18 41 38
18 41 39
17 39 37
18 40 37
18 41 38
18 41 38
18 41 38
18 41 38
18 41 38
18 40 37
18 41 38
18 41 38
18 41 38
18 41 38
18 41 38
18 40 37
18 40 37
18 40 38
18 41 38
17 39 37
18 41 38
18 41 39
18 40 37
18 41 39
18 41 38
18 42 39
18 41 39
18 41 38
18 41 38
18 41 38
18 40 38
18 41 39
18 41 38
18 41 39
18 40 38
18 41 38
18 41 39
18 41 39
18 42 39
18 42 39
18 42 39
18 41 38
18 42 39
18 41 38
19 42 39
18 40 38
18 41 38
18 41 39
19 42 39
18 41 38
18 41 39
19 42 39
19 42 39
18 42 39
18 42 39
18 41 38
18 41 38
18 41 38
18 41 38
18 42 39
18 42 39
18 41 38
18 41 38
18 41 38
18 41 38
18 42 39
18 42 39
19 42 39
18 41 39
19 42 39
18 40 37
18 42 39
18 42 39
18 41 38
18 41 38
18 41 38
18 42 39
18 41 39
19 42 39
18 41 39
18 40 38
18 42 39
18 41 38
18 41 39
18 41 38
18 41 38
19 42 39
19 43 40
18 41 38
19 42 40
18 41 38
18 41 39
18 42 39
19 42 39
18 41 38
18 41 39
19 42 39
18 41 38
18 42 39
18 41 38
19 42 39
18 41 38
18 41 38
18 41 39
19 42 39
18 41 39
18 41 39
18 41 38
18 41 38
18 40 37
18 40 38
18 40 38
18 41 38
18 41 39
18 41 38
18 40 38
18 41 39
18 41 38
18 42 39
18 41 38
19 43 40
18 41 38
18 40 37
18 41 38
18 42 39
18 41 39
18 41 38
18 41 38
18 40 38
18 41 38
18 42 39
18 41 39
18 41 38
18 41 39
18 41 39
18 41 38
18 40 37
18 41 38
18 42 39
19 42 39
18 40 38
18 42 39
18 41 39
18 41 38
19 42 39
18 42 39
19 42 39
18 41 38
19 43 40
18 42 39
18 42 39
18 41 38
18 42 39
18 41 38
18 41 39
19 42 39
19 43 40
18 42 39
18 40 37
19 42 39
18 41 38
19 42 40
18 41 39
18 41 38
18 41 38
18 41 38
18 41 38
18 42 39
18 41 38
19 42 39
18 41 38
18 41 38
18 40 38
19 42 39
18 42 39
18 42 39
18 40 38
19 42 40
18 41 38
18 41 38
18 41 39
19 43 40
18 41 39
18 41 38
18 41 39
19 42 39
19 42 39
18 42 39
19 43 40
18 41 39
19 42 39
18 41 38
18 41 38
19 42 39
19 42 39
18 41 38
19 42 39
18 40 38
19 43 40
18 42 39
18 40 37
18 42 39
19 43 40
18 41 38
18 41 38
18 41 39
18 41 38
18 40 38
19 43 40
19 43 40
19 42 39
18 42 39
18 41 39
19 42 39
19 42 39
19 42 39
19 42 39
18 41 38
18 41 38
19 42 39
18 41 38
19 43 40
18 41 38
18 41 39
19 42 39
18 41 39
18 40 38
18 41 38
18 41 38
18 41 38
18 40 37
18 41 38
18 41 39
18 41 38
18 42 39
18 40 38
18 41 38
18 41 38
18 41 38
18 41 38
18 41 39
19 42 39
18 42 39
18 40 38
19 42 39
18 40 37
18 41 39
19 42 39
18 41 38
19 42 39
19 42 39
18 41 39
18 42 39
18 40 38
18 41 38
18 41 39
18 42 39
18 41 38
18 42 39
18 40 37
18 41 38
18 41 38
19 42 39
18 41 39
19 42 39
18 41 39
19 42 39
18 40 38
18 41 38
18 41 38
18 41 38
18 41 38
19 42 39
18 41 38
19 42 40
18 41 38
18 41 38
18 41 39
18 41 38
18 41 38
18 41 38
18 42 39
18 40 38
18 42 39
18 41 39
19 42 39
19 42 39
19 42 39
19 42 39
18 41 39
18 41 38
18 42 39
18 41 39
18 41 38
18 42 39
19 42 39
18 41 39
19 43 40
19 43 40
18 42 39
19 42 39
18 41 38
19 42 39
19 43 40
19 43 40
19 42 40
19 43 40
19 42 39
18 41 38
19 42 39
19 42 39
18 42 39
19 42 39
19 42 39
19 43 40
19 42 39
19 42 39
19 43 40
19 42 39
19 43 40
19 42 39
19 42 39
18 41 38
19 42 39
19 42 39
19 43 40
18 41 38
19 42 39
19 42 39
19 42 39
19 42 39
18 42 39
19 42 39
19 43 40
19 42 39
19 42 39
19 42 39
19 42 39
19 42 39
19 42 39
19 43 40
19 43 40
19 42 39
18 41 38
18 41 38
19 42 39
18 41 38
18 41 38
19 42 39
17 40 37
18 41 38
18 40 38
18 41 38
18 41 38
18 40 38
18 41 38
18 41 39
18 41 38
18 41 38
19 42 39
18 41 38
18 42 39
18 42 39
19 42 39
18 41 39
18 41 38
18 40 38
19 42 39
19 42 39
18 40 38
19 42 39
19 42 39
18 41 38
18 41 39
18 41 38
18 42 39
18 40 37
18 41 38
18 40 37
18 40 37
19 42 39
18 42 39
19 42 39
18 41 38
18 41 38
19 42 39
19 42 39
18 41 38
19 42 39
19 42 39
18 41 38
18 42 39
18 41 39
19 42 39
18 42 39
19 42 39
19 43 40
19 42 39
18 42 39
18 41 38
18 42 39
18 41 38
18 41 38
18 41 38
19 42 39
19 43 40
19 42 39
18 42 39
18 41 38
19 43 40
18 42 39
19 43 40
19 43 40
19 42 39
18 41 38
19 43 40
18 41 39
19 42 39
19 42 39
19 42 39
19 42 39
19 42 39
19 42 39
19 44 40
19 43 40
19 42 39
18 41 38
19 42 39
19 42 39
19 43 40
18 42 39
19 42 39
19 42 39
19 42 39
19 43 40
19 42 39
19 43 40
19 43 40
19 43 40
19 42 39
18 42 39
19 42 39
19 42 39
19 42 39
19 43 40
19 42 39
19 43 40
18 42 39
19 42 39
19 42 39
19 42 39
19 42 39
19 43 40
19 43 40
19 42 39
19 42 39
19 43 39
19 42 39
19 43 40
19 42 39
19 42 39
19 43 40
19 43 40
19 42 39
19 43 40
19 42 39
17 40 37
18 41 38
18 40 38
18 41 38
18 41 39
18 41 38
18 41 38
18 40 38
18 41 38
19 42 39
18 40 38
19 42 39
18 41 38
19 42 39
18 41 38
18 41 38
18 41 38
19 42 39
18 41 38
18 41 38
18 41 38
19 42 39
18 41 38
18 41 38
19 42 39
18 42 39
18 41 38
18 41 38
19 42 39
19 42 39
18 41 38
19 42 39
19 42 39
18 42 39
18 41 38
19 42 39
18 40 38
18 41 38
19 42 39
18 41 38
18 42 39
18 41 38
19 42 39
19 42 39
18 42 39
18 42 39
19 42 39
19 42 39
18 42 39
19 42 39
19 43 40
19 42 39
19 42 39
19 42 39
18 42 39
19 42 39
19 42 39
19 43 40
18 41 38
19 42 39
19 42 39
19 43 40
19 43 39
19 42 39
19 43 40
18 42 39
19 43 40
19 42 39
19 42 39
18 41 38
19 42 39
19 43 40
19 42 39
19 43 40
18 42 38
19 43 40
19 42 39
19 43 40
19 42 39
19 44 41
19 43 40
19 42 39
19 43 40
19 42 39
19 44 41
19 43 40
19 43 39
19 42 39
19 43 40
19 43 39
19 43 39
19 43 40
19 42 39
19 42 39
19 42 39
19 42 39
18 41 38
19 43 40
19 43 40
19 43 39
19 42 39
19 43 40
19 42 39
19 43 40
19 43 40
19 44 40
19 42 39
19 42 39
19 43 40
19 42 39
19 43 39
19 43 40
19 43 40
19 43 40
19 42 38
19 42 39
19 42 39
19 43 40
19 43 40
19 43 40
18 41 38
18 41 38
18 41 38
19 42 39
19 42 39
19 42 39
18 42 39
19 42 39
19 42 39
18 40 38
18 42 39
18 41 38
18 41 38
18 41 39
19 42 39
18 40 37
19 43 40
18 42 39
18 41 38
18 41 38
18 41 39
19 42 39
19 42 39
19 42 39
18 41 38
18 41 39
19 42 39
19 42 39
19 43 40
18 41 38
18 41 38
19 42 39
18 41 38
18 41 38
19 42 39
19 42 40
19 43 40
18 42 39
19 43 40
19 42 39
19 42 39
19 42 39
18 41 38
19 42 39
19 42 39
18 41 38
19 42 39
19 43 40
18 41 38
18 41 38
19 42 39
19 43 40
18 41 39
19 42 39
18 41 38
19 42 39
18 42 39
19 42 39
19 42 39
19 42 39
19 43 40
19 43 40
19 43 40
20 44 41
19 42 39
19 42 39
19 42 39
19 43 39
19 43 40
19 43 40
19 43 40
19 43 39
19 42 39
19 43 40
19 43 40
19 42 39
19 42 39
19 42 39
19 43 40
19 43 39
19 43 40
19 44 40
19 42 39
19 44 40
19 42 39
19 43 40
19 43 40
19 42 39
19 43 40
19 43 40
19 43 40
19 42 39
19 42 39
19 42 39
19 43 40
19 42 39
19 43 39
19 42 39
19 43 40
19 43 40
19 42 39
19 43 40
19 42 39
19 43 40
20 44 40
19 42 39
19 43 40
19 43 40
19 43 40
19 43 40
19 43 39
19 43 39
19 42 39
18 41 38
20 44 40
19 42 39
19 42 39
19 42 39
19 43 40
19 43 40
18 41 38
18 41 38
18 41 38
19 42 39
18 41 39
19 42 39
19 42 39
18 41 38
18 41 38
18 41 38
18 41 38
19 42 39
18 41 38
18 41 38
19 42 39
18 41 38
18 41 38
19 42 39
19 43 40
19 43 40
19 42 39
19 42 39
18 42 39
18 41 39
18 41 39
18 41 39
19 42 39
18 41 38
18 41 38
19 42 39
18 41 38
19 42 39
18 42 39
19 42 39
19 42 39
19 43 40
19 42 39
19 42 39
18 42 39
19 43 40
19 43 40
19 42 39
19 43 40
19 42 39
18 41 38
19 43 40
19 43 40
19 42 39
19 42 39
19 42 39
19 42 39
19 42 39
19 43 39
18 42 39
19 43 40
19 42 39
19 43 40
19 42 39
19 42 39
19 43 40
19 43 40
19 43 40
19 43 40
19 43 40
19 43 40
19 43 40
20 44 41
19 43 39
19 43 40
19 43 40
19 43 40
19 42 39
19 42 39
19 43 40
19 42 39
19 43 40
19 42 39
19 43 40
20 44 41
19 42 39
19 43 40
19 43 40
19 43 40
19 43 40
19 42 39
19 43 40
19 42 39
19 42 39
19 43 39
19 43 40
19 42 39
19 43 40
19 42 38
19 43 40
19 43 40
19 43 40
19 43 40
19 42 39
19 43 40
19 42 39
19 43 40
19 42 39
19 43 40
19 42 39
20 44 40
20 44 40
19 42 39
19 43 40
19 43 40
20 44 41
20 44 41
19 43 40
19 42 39
20 44 41
19 43 40
19 43 40
19 43 40
19 43 40
19 43 40
19 43 40
18 42 39
19 42 39
18 42 39
19 42 39
19 42 39
19 42 39
19 42 39
18 42 39
19 42 39
19 42 39
18 42 39
18 42 39
19 43 40
19 42 39
19 43 40
19 43 40
18 41 38
18 42 39
18 41 38
19 42 39
18 41 38
19 43 40
19 43 40
18 41 38
19 42 39
19 42 39
18 41 39
18 42 39
19 42 39
18 41 38
18 41 39
19 42 39
19 42 39
19 42 39
19 42 39
19 42 39
19 43 40
19 43 40
18 41 38
18 40 37
19 42 39
19 43 39
19 43 40
19 43 40
19 43 40
19 42 39
18 41 38
19 42 39
19 43 40
19 43 39
19 42 39
19 43 40
19 42 39
19 43 40
19 42 39
20 44 41
19 43 39
19 43 40
19 43 40
19 42 39
19 43 39
20 44 40
19 42 39
19 43 39
19 43 40
19 43 40
19 43 40
19 43 40
19 43 40
19 42 39
19 43 40
19 43 40
19 43 40
20 44 41
20 44 40
19 43 40
19 42 39
19 43 40
19 43 40
19 43 40
20 44 41
19 43 40
20 44 41
20 44 40
19 43 40
19 43 39
20 44 41
20 44 41
19 43 40
19 43 40
19 42 39
19 43 40
19 42 39
19 43 40
19 43 40
19 43 40
20 44 40
20 44 41
19 43 39
19 42 39
20 44 40
19 43 40
19 43 40
20 44 40
19 42 39
19 43 40
19 43 40
19 42 39
19 43 40
19 43 39
19 43 40
19 43 40
19 43 40
20 44 41
19 42 39
19 43 40
19 43 40
19 43 40
20 44 40
19 43 40
18 40 37
18 41 39
18 42 39
18 41 39
19 42 39
18 41 38
19 42 39
19 43 40
19 42 39
19 42 39
19 42 39
18 41 38
19 42 39
19 42 39
19 42 39
19 43 40
19 42 39
18 41 38
19 42 39
19 42 39
19 43 40
19 42 39
19 42 40
18 41 38
18 41 38
18 42 39
20 44 41
19 42 39
19 43 40
19 43 39
19 43 39
19 42 39
18 42 39
19 43 40
19 43 40
19 42 39
19 42 39
19 43 40
19 42 39
19 42 39
19 43 40
19 43 40
19 43 40
19 43 40
19 42 39
19 43 40
19 43 40
19 42 39
19 43 40
19 43 40
19 43 40
19 43 39
19 44 40
19 42 39
19 42 39
19 43 39
19 44 40
19 43 40
18 41 38
20 44 41
19 43 40
19 43 40
19 43 40
19 43 40
19 42 39
19 42 39
19 43 40
19 43 40
19 42 39
19 42 39
19 44 40
19 42 38
19 42 39
19 43 40
19 41 38
20 44 40
20 44 40
19 43 40
19 43 40
19 43 40
19 42 39
19 43 40
19 43 40
19 43 40
19 43 39
19 44 40
20 44 41
20 44 40
19 43 40
19 43 40
19 43 40
20 44 40
19 43 40
19 42 39
19 44 40
19 43 40
20 44 40
19 43 40
20 44 41
20 44 40
19 44 40
20 44 41
19 43 40
19 43 40
20 44 40
19 42 39
20 44 40
19 43 40
19 43 40
20 45 41
20 44 41
20 44 41
19 43 39
20 44 40
19 43 40
20 44 40
20 44 41
19 43 40
19 43 40
20 44 40
19 42 39
19 42 39
18 41 38
19 43 40
19 42 39
19 42 39
19 42 39
18 42 39
18 41 39
19 42 39
19 42 39
18 41 38
18 41 38
19 42 39
18 41 38
19 42 39
19 42 39
19 42 39
19 42 39
19 42 39
19 42 39
19 43 40
19 43 40
19 42 39
19 42 39
19 44 40
19 42 39
19 42 39
19 43 40
19 42 39
19 42 39
19 43 40
19 42 39
19 42 39
19 43 40
19 43 39
19 42 39
19 43 40
19 42 39
19 42 39
19 43 39
20 44 40
19 43 40
19 42 39
19 43 39
19 43 40
19 42 39
19 43 40
19 43 40
19 43 40
19 43 40
19 42 39
19 43 40
19 44 40
19 43 39
19 43 40
19 42 39
19 43 40
19 43 40
20 44 41
19 43 40
19 42 39
19 43 39
19 43 40
19 43 40
20 44 40
19 43 40
20 44 40
19 43 40
20 44 41
19 42 39
19 44 40
20 44 40
19 43 40
20 45 41
20 44 40
19 43 40
19 43 39
20 44 41
20 44 41
19 43 40
20 44 40
19 44 40
20 44 40
19 43 40
20 44 40
20 44 41
19 43 40
20 44 40
20 44 40
20 45 42
19 43 40
20 44 40
20 44 41
19 43 40
20 45 41
20 44 40
19 43 40
20 44 41
20 44 41
20 44 40
20 44 41
20 44 40
19 43 40
20 44 41
20 44 40
19 43 39
19 43 40
20 45 41
20 44 41
20 44 41
20 44 41
20 44 40
20 44 40
20 44 41
20 44 41
19 43 39
20 45 41
20 44 41
20 44 40
19 42 39
19 42 39
19 43 40
19 43 40
18 41 38
18 41 38
19 42 39
19 42 39
18 42 39
19 42 39
19 42 39
19 42 39
18 41 38
19 42 39
18 41 38
19 43 40
19 42 39
19 42 39
19 42 39
19 42 39
19 43 40
19 42 39
19 43 39
19 42 39
19 43 40
19 42 39
19 42 39
19 43 40
19 43 40
19 43 40
19 42 39
19 43 40
19 43 40
19 42 39
19 43 40
19 42 39
19 43 40
19 43 39
19 43 40
19 43 40
19 43 39
19 42 39
18 41 38
19 43 40
19 43 39
19 42 39
20 44 41
19 43 40
20 44 41
20 44 40
19 43 40
20 44 41
19 42 39
20 44 40
19 43 39
20 44 41
19 43 40
19 44 40
19 43 39
19 42 39
20 44 41
19 43 40
19 42 39
19 43 40
19 43 40
20 44 41
19 42 39
19 44 40
19 44 40
19 43 40
19 44 40
19 44 40
19 43 40
20 44 41
20 45 41
20 44 40
19 43 40
19 43 40
19 43 40
20 45 42
19 43 40
20 44 41
20 45 41
20 44 40
20 44 40
20 44 40
20 44 41
19 43 39
20 44 40
20 45 41
19 42 39
20 44 41
19 43 40
20 44 41
19 43 39
20 44 40
20 44 40
20 44 41
20 45 42
20 44 40
20 44 40
20 44 40
19 43 40
20 45 41
20 45 41
20 44 41
20 44 40
19 43 40
20 44 41
20 45 41
20 44 40
19 43 39
20 44 41
20 45 42
20 45 42
20 45 41
20 44 41
20 45 41
19 42 39
20 44 40
19 42 39
18 41 38
19 43 40
19 42 39
19 42 39
19 42 39
19 43 40
18 41 38
19 42 39
19 42 39
19 43 40
19 42 39
19 43 40
19 42 39
19 42 39
19 42 39
19 43 40
19 42 39
19 43 40
19 42 39
19 42 39
19 43 40
19 43 40
19 42 39
19 43 40
19 44 40
19 43 40
19 43 40
19 43 40
19 43 40
19 43 40
19 42 39
19 42 39
19 43 39
19 43 40
19 42 39
19 42 39
19 43 40
20 44 41
19 43 39
19 42 39
19 43 40
19 44 40
19 44 40
19 44 40
19 42 39
19 43 40
20 44 41
20 44 41
19 43 40
20 44 40
19 43 39
20 44 41
19 43 40
19 42 39
19 43 40
20 44 41
20 44 40
19 43 40
19 43 40
20 44 40
19 43 40
19 43 40
19 43 39
19 43 40
20 45 41
19 43 40
20 45 41
20 45 41
19 43 40
20 44 41
19 43 39
20 44 40
20 45 41
20 44 41
19 42 39
20 44 40
20 44 40
20 45 41
20 45 41
20 45 41
20 44 40
20 44 40
19 43 40
20 44 41
20 44 40
20 45 42
19 43 39
19 44 40
20 43 40
20 44 41
20 45 41
20 44 41
20 45 41
20 44 40
19 43 40
20 45 42
20 44 41
20 44 41
20 44 41
20 45 41
20 44 40
19 43 40
19 43 40
20 45 41
20 45 41
20 45 41
20 44 41
20 45 41
20 44 40
20 44 41
20 44 40
20 45 41
20 45 41
20 45 42
20 45 42
20 45 41
20 45 42
20 44 40
20 46 42
19 42 39
18 41 39
18 42 39
19 43 40
19 42 39
18 41 38
19 43 40
19 42 39
19 43 39
19 42 39
19 43 40
19 42 39
19 42 39
18 41 38
19 44 40
19 43 40
19 43 40
19 42 39
19 43 40
19 43 39
19 42 39
18 41 38
19 42 39
19 42 39
19 42 38
19 43 40
19 43 40
19 43 40
19 43 39
19 42 39
20 44 41
19 43 39
19 42 39
19 43 40
19 43 40
19 43 40
19 43 39
19 42 39
19 43 40
19 43 40
19 44 40
19 42 39
19 43 40
19 44 40
20 44 40
19 43 40
19 43 40
20 44 41
19 43 40
19 43 40
20 44 40
19 44 40
20 44 40
19 43 40
20 44 41
19 43 40
19 43 40
19 43 39
20 45 41
19 43 40
20 44 40
19 43 40
20 44 41
20 44 41
19 43 40
20 44 40
19 43 40
20 44 40
20 44 41
20 44 40
20 44 40
19 43 39
20 44 41
20 44 41
19 43 40
20 45 41
20 44 41
20 44 41
20 44 41
20 44 41
20 45 41
19 43 40
20 44 41
20 44 40
20 44 40
20 44 41
20 44 41
20 44 41
20 45 41
20 45 41
20 44 40
19 43 40
20 45 41
20 45 41
20 44 41
20 45 41
21 46 42
20 44 40
20 44 40
20 45 41
20 44 41
20 44 40
19 43 40
20 45 42
20 45 41
20 45 41
20 44 40
20 45 41
20 44 41
19 43 40
20 44 41
20 45 41
20 44 40
21 46 42
20 44 41
20 45 41
20 45 41
21 46 42
20 45 42
20 44 41
20 44 41
19 43 40
19 43 40
19 42 39
19 42 39
18 42 39
19 43 40
19 43 39
19 43 40
19 42 39
19 42 39
19 43 40
19 43 40
20 44 40
19 42 39
19 43 40
19 43 40
19 43 40
19 42 39
19 43 40
19 43 39
19 43 40
19 42 39
19 43 39
19 43 40
19 43 40
20 44 41
19 43 39
19 44 40
19 43 40
20 44 41
19 43 40
20 44 41
19 44 40
19 44 40
20 44 41
19 43 40
19 43 40
19 43 40
19 43 40
20 44 41
19 43 40
19 43 39
20 45 41
19 43 40
19 43 40
19 43 40
20 44 41
20 44 40
19 43 40
19 43 40
20 44 41
19 43 40
19 43 40
19 43 40
19 43 40
20 45 41
19 44 40
19 43 40
20 44 41
20 44 41
20 44 41
19 43 40
19 44 40
20 44 41
20 44 41
20 44 40
20 44 40
20 44 41
20 44 41
20 44 40
20 44 41
19 43 40
20 44 40
20 44 41
20 44 40
20 44 41
20 44 40
20 45 42
20 45 41
20 43 40
20 44 41
20 44 40
20 44 41
20 44 41
20 45 41
20 45 41
20 45 41
20 44 40
20 44 41
20 44 41
20 44 40
20 44 41
20 45 41
20 45 41
20 45 42
20 45 41
20 44 41
20 45 41
20 44 41
21 46 42
20 44 41
20 45 41
20 45 42
20 44 41
20 44 41
20 45 42
20 45 41
20 45 41
20 45 42
20 45 41
20 44 40
20 45 41
20 45 41
19 43 40
20 45 41
21 46 42
20 44 41
21 46 42
20 45 41
19 44 40
19 43 39
19 43 40
19 43 40
19 43 40
19 43 39
19 43 40
19 42 39
19 43 40
20 44 41
19 42 39
19 43 40
19 43 39
19 43 40
20 44 41
19 43 40
19 43 40
19 42 39
19 43 40
19 43 39
19 43 40
19 43 40
19 43 40
19 43 40
19 42 39
19 43 39
19 43 39
20 44 41
20 44 40
20 44 41
19 43 40
20 44 41
20 44 41
19 43 40
19 43 40
19 43 40
19 43 40
20 44 41
19 43 40
19 43 40
19 43 40
20 44 40
19 43 40
19 43 40
20 44 40
20 44 40
20 44 40
20 44 41
19 43 40
20 44 40
20 45 41
20 45 41
19 43 39
19 44 40
19 43 40
19 42 39
20 45 41
20 44 40
20 45 41
19 43 40
20 45 42
19 42 39
20 44 40
20 44 41
20 44 41
20 45 41
20 44 40
20 45 41
20 44 41
20 44 41
20 44 40
20 45 41
20 44 41
20 44 41
20 44 41
20 44 40
20 44 40
20 44 40
20 44 41
20 44 41
20 45 41
20 44 41
20 45 41
20 45 41
20 44 41
20 44 41
20 45 42
20 45 41
20 45 42
20 44 40
20 45 41
20 45 41
21 46 42
20 45 41
20 44 40
21 47 43
21 46 42
20 44 41
20 44 40
20 44 40
20 45 41
20 45 42
20 45 41
20 45 41
20 45 41
20 45 41
20 45 41
20 45 41
20 45 42
20 45 41
21 46 42
20 45 41
21 46 42
21 46 42
20 44 40
20 45 41
20 44 41
20 45 41
20 45 41
20 45 41
19 43 40
19 42 39
19 43 40
19 43 40
19 43 40
19 42 39
19 43 40
19 43 39
19 42 39
19 43 40
20 44 41
19 43 40
19 43 40
19 43 40
19 43 40
19 43 39
20 44 40
19 43 40
19 43 40
19 43 40
19 42 39
19 44 40
19 43 40
20 44 40
20 45 41
19 43 40
19 42 39
20 44 41
19 43 39
20 44 40
19 44 40
19 43 40
19 43 40
19 43 40
19 43 40
19 43 40
20 44 41
20 44 41
19 43 40
19 43 40
19 43 39
20 44 41
19 43 40
19 43 40
20 44 40
20 44 40
19 43 40
19 43 40
20 45 41
19 43 39
20 44 41
20 44 40
20 44 41
19 43 40
20 44 40
20 44 40
20 45 41
20 45 41
20 45 41
20 44 40
20 45 41
20 45 41
20 44 41
20 44 40
20 44 40
20 44 41
21 46 42
20 45 41
20 46 42
20 45 42
20 44 41
20 44 40
20 44 41
20 45 41
20 44 41
20 45 42
19 43 40
20 44 40
20 45 41
20 45 41
20 45 41
20 45 42
20 45 41
19 43 39
20 45 42
20 44 40
20 45 41
20 45 41
20 44 40
20 45 41
20 44 41
20 45 41
21 46 42
20 45 42
21 46 42
20 45 41
21 46 42
20 45 41
20 45 41
21 46 42
20 45 41
21 46 42
20 45 41
20 45 41
21 46 42
20 44 40
21 45 42
20 45 41
20 45 41
20 45 41
21 46 42
20 44 41
20 45 41
21 46 42
21 46 42
20 45 42
20 45 41
21 46 42
21 46 42
21 46 42
19 43 40
19 43 40
19 43 40
19 43 40
19 43 40
19 43 39
19 43 40
19 43 40
19 42 39
19 44 40
19 43 40
19 43 40
20 44 41
19 43 40
19 44 40
20 44 41
19 43 39
19 44 40
20 44 41
20 44 40
20 44 41
19 43 40
20 44 40
19 42 39
19 43 40
19 43 39
19 43 39
20 44 41
20 44 40
19 43 40
20 44 41
20 45 41
20 44 40
19 43 40
19 43 40
20 44 40
20 44 40
19 43 40
20 44 40
19 43 40
20 44 41
20 44 41
20 44 41
20 44 41
20 44 41
20 44 40
20 45 41
20 44 40
19 43 40
20 45 42
21 46 42
20 44 40
20 45 41
20 45 41
20 44 40
20 44 41
20 45 41
20 44 41
20 45 42
20 45 41
20 44 40
20 44 40
20 44 41
20 45 42
20 45 41
20 44 40
20 45 41
20 44 41
20 44 40
20 45 42
20 45 41
20 44 41
21 46 42
20 45 41
20 45 41
20 45 42
20 44 40
20 44 41
20 46 42
20 45 41
20 45 41
21 46 42
20 45 41
20 45 41
21 46 42
20 45 42
20 44 40
20 45 41
20 44 41
21 46 42
21 46 42
20 45 41
20 45 41
20 45 41
20 45 42
20 45 42
20 45 41
20 45 41
20 45 41
20 45 42
21 46 42
20 44 40
21 46 42
21 46 42
21 46 42
20 45 41
21 46 42
21 46 42
20 45 41
21 47 43
21 46 42
20 45 41
20 45 41
20 44 41
21 46 42
21 46 42
21 46 42
20 45 41
21 46 42
21 47 43
20 44 40
19 43 39
19 43 40
20 44 40
19 43 40
20 44 40
20 44 41
20 44 41
19 43 40
19 43 40
19 42 39
19 43 40
19 43 40
19 42 39
19 43 40
19 43 40
19 43 40
19 43 40
20 45 41
19 42 39
20 45 42
19 43 39
19 44 40
19 43 40
19 43 40
20 45 41
20 44 40
19 43 40
19 43 39
20 44 41
20 44 40
20 44 40
20 44 40
20 44 41
20 44 41
20 44 40
20 44 40
20 44 41
20 44 40
20 44 41
20 44 40
20 44 40
20 44 40
20 44 41
20 44 41
20 43 40
19 44 40
20 44 40
20 45 41
19 43 40
20 45 41
20 44 41
19 43 40
20 44 41
20 45 41
19 43 40
20 44 41
20 43 40
20 45 42
20 44 41
20 44 40
20 44 41
20 44 40
20 45 41
19 43 40
20 44 41
19 43 39
20 45 41
20 45 41
20 45 41
20 44 41
20 44 41
20 44 40
20 44 40
20 45 42
20 45 41
20 45 41
20 45 41
20 45 41
21 46 43
21 47 43
20 44 41
20 45 41
21 46 43
20 45 41
21 46 42
20 45 41
20 45 41
21 47 43
21 46 42
20 45 41
21 46 42
20 44 41
21 46 42
20 45 41
20 45 42
21 46 42
20 45 41
21 46 42
20 45 41
20 45 41
20 45 41
21 46 42
21 46 42
21 46 42
20 44 41
21 46 42
21 46 42
21 46 42
20 45 41
20 45 41
20 45 41
20 45 41
20 45 42
21 46 42
21 46 42
21 46 42
21 45 42
21 46 42
21 47 43
19 43 40
19 43 40
20 44 40
19 43 40
19 43 40
20 44 41
19 42 39
19 43 39
19 43 39
20 44 41
20 44 41
20 44 40
19 43 40
19 43 40
19 43 40
19 43 40
20 44 40
20 44 41
20 44 41
19 43 40
20 44 41
20 44 41
20 44 41
19 43 40
20 44 40
20 44 41
20 45 41
19 43 40
20 44 41
20 45 41
19 43 40
20 44 41
20 44 41
19 43 40
19 43 40
20 44 40
20 44 40
20 44 41
20 45 41
21 46 42
20 44 41
19 44 40
20 44 41
20 45 41
20 44 40
20 44 41
20 44 40
19 43 40
19 43 40
20 45 41
20 44 41
20 44 40
20 44 40
20 45 41
20 44 40
20 44 41
20 45 41
20 44 40
20 44 40
20 45 41
21 46 42
20 44 41
20 44 41
20 44 40
20 44 40
20 44 41
20 45 42
20 45 41
20 45 41
20 45 41
21 46 42
20 45 41
20 45 41
20 45 41
20 45 41
20 45 41
20 46 42
21 46 42
20 44 41
20 46 42
20 45 41
21 46 42
21 46 43
21 46 42
21 46 42
20 45 41
21 46 42
21 46 42
21 46 42
20 45 41
21 47 43
20 45 41
20 44 41
20 45 41
21 45 42
20 45 41
21 46 42
21 46 42
21 46 42
20 45 41
20 45 41
21 46 42
20 45 41
20 45 41
21 47 43
21 46 42
21 46 42
21 47 43
20 45 41
21 46 42
21 47 43
21 46 42
21 45 41
21 47 43
21 46 42
21 46 42
21 45 41
21 46 42
21 45 42
21 46 42
20 44 41
19 43 40
20 44 41
19 43 40
20 44 41
20 44 40
19 43 40
20 44 40
19 44 40
20 44 40
20 44 40
19 43 39
20 44 40
19 43 40
19 43 39
20 44 41
20 44 41
19 43 40
20 44 40
20 45 41
19 43 40
19 43 40
20 44 40
20 44 40
20 44 40
19 43 40
19 43 40
20 46 42
20 44 41
20 44 40
20 44 41
20 44 41
19 43 40
19 43 40
20 45 41
20 45 42
20 45 41
20 44 41
21 46 42
20 44 40
20 45 41
20 45 41
20 44 41
20 45 41
19 43 40
20 44 41
20 44 41
20 44 41
20 45 41
20 45 42
20 45 41
20 45 41
20 44 40
20 44 40
20 45 41
20 44 41
20 45 42
20 44 41
21 46 42
20 44 40
20 45 41
20 45 41
20 45 41
20 45 41
20 45 41
20 44 41
20 45 41
20 45 41
20 45 42
20 45 42
20 45 42
20 44 41
20 45 41
21 46 42
21 46 42
20 45 41
20 45 42
20 45 41
21 46 42
20 45 41
21 46 42
21 46 42
20 45 42
20 45 41
20 45 41
20 45 41
20 45 41
21 46 42
21 46 42
21 46 42
21 46 42
21 46 42
20 45 41
20 44 40
21 46 42
20 45 41
21 46 42
21 46 42
21 46 42
20 44 41
21 46 42
21 46 42
21 46 42
21 45 41
21 46 42
21 46 42
20 45 41
21 45 41
21 46 42
21 46 42
21 46 42
22 48 44
20 45 41
21 45 42
21 47 43
21 45 42
21 46 42
21 47 43
21 47 42
21 47 43
19 42 39
20 44 40
19 43 39
19 44 40
20 44 40
19 43 40
19 43 40
19 43 40
19 43 40
19 43 40
19 43 40
19 43 39
20 44 40
19 43 39
19 43 40
20 45 41
19 43 40
20 44 41
19 43 40
20 44 41
20 45 41
19 43 39
19 42 39
19 43 40
20 44 41
19 43 40
20 44 40
19 43 40
20 44 41
20 44 41
20 44 40
20 44 41
20 44 41
20 44 41
20 44 41
20 44 41
20 44 40
20 44 40
20 45 41
20 45 41
21 46 42
20 45 41
20 45 41
20 44 41
19 43 40
20 45 42
21 46 42
20 45 41
20 45 41
20 44 41
20 45 41
20 44 40
20 44 41
20 45 41
20 44 40
20 45 41
20 45 41
20 45 41
20 45 41
20 44 40
20 45 41
20 45 41
20 45 42
20 44 40
21 46 42
20 45 42
20 44 41
21 46 42
20 45 41
20 44 41
20 45 42
20 45 41
21 46 42
20 45 42
20 45 42
20 44 40
21 46 42
21 46 42
20 45 41
21 46 42
21 47 43
21 46 42
21 47 43
21 46 42
21 46 42
21 46 42
21 47 43
21 47 43
21 46 42
21 47 43
21 46 43
20 45 41
21 46 42
20 45 41
21 46 42
21 46 42
21 47 43
21 46 42
20 45 41
21 46 42
21 46 42
21 46 42
21 47 43
21 46 42
21 46 42
21 46 42
21 46 42
21 46 42
21 46 42
21 45 42
21 46 42
22 48 43
21 46 42
21 46 42
22 48 43
21 46 42
21 47 43
21 45 41
20 45 41
20 45 41
19 43 40
19 43 39
19 43 39
19 43 40
19 43 39
20 44 40
19 43 40
19 43 40
19 44 40
19 43 40
20 44 40
20 44 40
20 44 40
19 43 40
19 43 39
20 44 40
19 43 40
19 43 40
20 44 41
19 43 40
20 44 41
20 44 41
20 44 40
19 43 40
20 45 41
20 44 40
19 43 40
20 44 40
20 44 41
20 44 41
20 44 41
20 44 40
20 45 41
20 44 40
19 42 39
20 45 41
20 44 40
20 44 40
20 44 40
20 45 42
20 44 40
20 46 42
20 45 41
19 43 40
20 44 41
21 46 42
20 44 41
20 45 41
20 45 41
21 46 42
20 44 41
20 44 41
20 45 41
20 45 42
20 44 40
20 45 41
20 44 41
20 44 40
20 45 41
20 45 41
21 45 42
21 46 42
20 45 41
21 46 42
20 45 41
20 45 41
20 45 42
20 45 41
21 46 42
21 46 42
20 45 41
21 46 42
20 45 42
20 45 41
20 45 41
21 46 42
21 46 42
20 45 41
21 46 42
21 46 42
21 46 42
21 46 42
21 46 42
21 46 42
20 44 41
21 46 42
20 45 41
21 47 43
20 45 42
20 45 41
21 47 43
21 46 42
21 47 43
20 45 41
21 46 42
21 45 41
20 45 41
21 46 42
21 46 42
21 46 42
21 47 43
21 47 43
21 47 43
21 45 41
21 47 43
21 47 43
21 46 42
22 47 43
21 47 43
21 46 42
21 46 42
21 47 43
21 46 42
21 47 43
21 47 43
21 46 42
21 47 43
21 46 42
21 47 43
21 47 43
19 43 40
19 43 40
19 43 40
20 44 41
19 43 40
19 43 40
19 43 40
20 45 41
20 44 40
20 45 41
20 44 40
20 45 41
19 43 40
20 44 40
20 44 41
19 43 40
19 43 40
20 44 41
20 44 41
20 44 40
20 44 40
19 43 39
20 44 40
19 44 40
20 44 41
20 44 41
19 43 40
20 44 41
20 45 42
20 45 41
19 43 40
20 45 41
20 44 40
20 44 40
20 45 41
20 44 40
20 46 42
20 44 41
20 44 41
20 44 41
20 44 40
20 45 41
20 45 41
20 45 42
20 44 40
20 44 41
20 44 41
20 45 41
20 44 40
20 45 42
21 46 42
21 46 42
20 44 40
20 45 42
20 45 41
21 46 42
20 45 41
20 45 41
21 46 42
21 46 42
20 45 41
21 47 43
20 45 41
20 45 41
20 44 40
20 45 41
20 44 41
20 45 41
20 45 41
20 44 41
20 45 41
20 45 41
21 46 42
21 47 43
20 45 42
20 45 41
20 45 42
21 46 42
21 46 42
21 48 43
21 46 42
21 46 42
21 46 42
20 45 41
20 45 41
21 46 42
20 45 41
21 47 43
21 46 42
21 47 43
21 46 42
20 45 41
21 46 42
21 47 43
20 45 41
21 46 42
21 46 42
21 46 42
21 46 42
21 47 43
21 46 42
21 46 42
21 48 43
21 47 43
21 47 43
21 46 42
21 46 42
21 47 43
21 46 42
21 47 43
21 47 43
21 46 42
21 46 42
21 46 42
21 47 43
22 48 44
21 46 42
21 46 42
21 46 42
21 47 43
20 44 40
20 44 41
19 43 40
19 43 39
20 44 41
20 44 41
20 44 41
19 43 40
20 44 41
20 44 40
20 44 40
19 42 39
20 44 41
20 44 40
20 44 40
20 44 41
20 44 41
20 45 41
20 44 40
20 44 40
20 44 41
20 44 41
20 44 40
20 45 41
20 45 41
20 44 40
20 45 41
20 44 40
20 44 40
20 44 40
20 44 40
19 43 40
20 44 41
20 44 41
20 45 42
20 44 40
21 46 42
20 45 41
20 44 41
20 44 40
20 45 41
20 44 41
20 45 41
20 45 41
20 45 42
20 45 41
20 45 41
20 45 42
20 45 41
20 45 41
20 45 41
20 45 41
20 45 41
21 46 42
20 45 41
20 44 41
20 45 41
20 45 41
20 45 41
21 46 42
20 45 41
21 47 43
20 45 41
20 45 41
21 46 42
20 45 41
21 46 42
21 46 42
21 45 42
20 45 41
21 46 42
20 45 42
20 44 41
21 46 42
21 46 42
20 45 41
20 45 41
21 46 42
21 47 43
20 45 41
21 46 42
20 45 42
20 45 41
21 46 42
21 47 43
21 45 42
21 46 42
20 45 41
20 45 41
21 47 43
21 46 42
21 46 42
21 45 42
21 46 42
21 46 42
21 46 42
21 45 41
21 46 42
21 46 42
21 46 42
21 46 42
21 46 42
21 47 43
21 46 42
21 46 42
21 46 42
21 46 42
21 46 42
21 47 43
22 48 44
21 47 43
21 47 43
21 47 43
21 47 43
21 47 43
22 48 43
21 47 43
21 46 42
21 47 43
21 47 43
20 44 41
19 43 40
20 44 40
19 43 40
19 43 40
20 44 41
20 44 41
20 44 41
20 44 40
19 43 40
19 43 40
20 44 40
20 44 41
20 44 40
20 44 40
20 44 41
20 45 41
20 44 40
19 43 40
19 43 39
20 44 40
20 44 41
19 43 40
20 44 41
20 44 40
20 45 41
20 44 40
20 45 42
20 45 42
20 44 41
20 44 41
20 45 42
20 44 40
20 45 41
20 45 41
20 45 41
20 44 41
20 45 41
21 46 42
20 45 41
20 45 41
20 45 41
20 44 40
20 45 41
20 44 41
21 46 42
20 45 41
20 44 41
20 45 41
21 46 42
20 45 42
20 45 42
20 44 40
20 45 41
21 47 43
21 46 42
21 46 42
20 45 41
21 47 43
20 45 41
21 46 42
20 45 41
20 45 41
21 46 42
20 45 41
21 46 42
21 46 42
21 46 42
21 46 42
20 45 41
21 45 42
20 45 42
21 47 43
21 46 42
21 46 42
21 46 42
21 46 42
21 45 42
21 46 42
21 46 42
20 45 41
20 45 41
21 46 42
20 45 41
21 47 43
20 45 41
21 45 42
21 47 43
21 46 42
21 46 42
21 46 42
21 46 42
21 46 42
21 47 43
22 47 43
21 46 42
21 46 42
21 47 43
21 46 42
21 46 42
21 47 43
21 47 43
21 47 43
21 46 42
21 47 43
21 47 43
21 47 42
21 46 42
21 46 42
20 45 41
21 47 43
21 46 42
22 48 44
21 46 42
22 47 43
21 46 42
22 47 43
22 48 44
21 46 42
112 51 42
20 44 41
20 44 40
19 43 40
20 44 41
20 45 41
19 43 40
20 44 40
20 44 40
20 45 41
20 44 40
19 44 40
19 43 40
20 45 42
20 45 41
20 44 40
20 45 41
20 44 41
20 45 41
20 44 41
20 44 41
20 44 40
20 45 41
21 46 42
19 43 40
20 44 40
20 45 42
20 45 41
20 44 41
20 45 41
20 45 42
20 45 41
20 44 40
20 45 41
20 45 41
20 44 40
20 45 42
20 44 41
20 45 41
20 45 41
20 45 41
20 45 41
20 45 42
20 46 42
20 45 41
20 45 41
20 44 41
20 45 41
20 45 41
20 45 41
20 45 42
20 44 40
20 45 41
20 45 41
20 45 42
20 45 41
20 45 41
21 46 42
20 45 41
21 46 42
20 45 41
20 45 42
20 45 41
20 44 41
21 46 42
20 45 41
21 46 42
21 46 42
21 46 42
20 45 41
21 47 43
21 46 42
21 47 43
21 47 43
21 46 42
21 47 43
21 46 42
20 45 41
21 46 42
22 48 44
21 46 42
20 45 41
21 46 42
21 47 43
21 46 42
21 47 43
21 47 43
21 47 43
21 47 43
21 47 43
21 47 42
21 47 43
21 47 42
21 47 42
21 45 41
21 47 43
22 48 44
21 47 42
21 46 42
21 46 42
21 47 43
21 46 42
21 47 43
22 47 43
21 47 43
22 48 43
21 47 43
21 46 42
21 47 43
21 47 43
22 48 43
21 46 42
21 46 42
22 48 44
21 47 43
21 46 42
21 47 43
21 46 42
21 47 43
57 51 46
167 58 42
20 44 41
20 44 41
20 44 41
19 43 40
19 44 40
19 43 40
20 44 41
19 44 40
20 44 40
20 44 40
20 45 42
20 45 41
20 44 40
20 44 40
20 44 40
20 45 41
20 44 41
19 43 39
19 43 40
20 44 41
20 44 41
20 45 41
20 44 41
20 44 40
20 44 41
20 44 40
20 44 40
20 45 41
19 43 40
20 45 41
20 44 41
20 45 41
20 44 40
20 44 41
20 45 41
20 44 41
20 45 41
21 46 42
20 44 40
20 44 41
20 44 41
20 44 41
21 47 43
21 46 42
21 46 42
21 46 42
20 44 41
20 45 41
20 44 41
20 45 42
21 46 42
21 46 42
21 46 42
20 45 41
21 46 42
21 46 42
21 46 42
20 44 41
21 46 42
21 46 42
21 46 42
21 46 42
21 46 42
21 47 43
21 45 42
21 47 43
21 47 43
20 45 41
21 46 42
21 46 42
21 46 42
21 46 42
20 45 41
21 45 42
21 47 42
21 46 42
21 46 42
21 46 42
21 47 43
21 47 43
20 45 41
20 45 41
21 46 42
21 47 43
21 46 42
21 47 42
21 46 42
21 46 42
21 46 42
21 47 43
21 47 43
21 47 43
21 47 43
22 48 43
21 47 42
21 46 42
21 46 42
22 48 43
21 47 43
21 46 42
21 46 42
21 47 43
21 46 41
21 47 43
22 48 44
21 47 43
22 48 43
21 47 43
21 46 42
21 46 42
22 47 43
21 47 43
22 48 44
21 46 42
22 47 43
21 47 43
21 47 43
21 47 43
90 63 56
159 54 40
20 44 40
20 45 41
20 44 41
20 44 41
20 44 40
20 44 40
19 43 40
20 44 40
20 45 41
20 45 41
20 44 40
20 44 40
20 44 41
19 43 40
20 45 41
20 44 40
20 45 42
20 44 40
20 45 41
20 44 41
20 44 40
20 45 41
20 44 41
20 45 41
20 45 42
20 45 41
20 45 42
20 45 41
20 44 41
19 43 40
20 44 41
20 44 40
20 45 42
21 46 42
21 46 42
20 45 42
20 45 41
20 44 41
20 44 40
21 46 42
20 45 41
20 44 40
20 45 41
20 45 42
20 46 42
20 45 41
20 45 41
21 46 42
20 45 41
20 45 41
21 46 42
20 45 42
21 46 42
21 47 43
21 45 42
21 46 43
20 45 41
20 45 42
21 45 41
21 46 42
21 46 42
21 46 42
20 45 41
21 47 43
22 48 44
21 45 42
21 47 43
21 46 42
21 46 42
20 45 41
21 47 43
21 46 42
21 47 43
21 46 42
21 46 42
21 46 42
21 46 42
20 45 41
21 46 42
21 46 42
21 46 42
22 48 44
21 45 42
21 47 43
22 48 43
21 46 42
21 47 43
21 47 43
21 47 43
21 47 43
21 46 42
21 47 43
21 47 43
21 47 43
21 47 43
21 46 42
22 48 43
21 47 43
21 46 42
22 47 43
22 48 44
22 49 45
22 47 43
21 47 42
21 47 43
22 48 44
21 47 43
21 47 42
21 47 43
22 47 43
22 48 43
21 47 43
22 48 44
22 48 43
22 48 43
21 47 43
21 47 43
21 47 43
86 56 49
128 95 87
19 43 40
20 44 40
19 43 40
20 44 40
20 45 41
20 45 41
20 44 40
19 43 40
20 45 41
20 44 41
20 45 41
19 43 40
20 45 42
20 43 40
20 44 40
20 44 41
19 43 40
20 45 41
20 45 41
20 44 41
20 44 41
20 44 41
20 44 41
21 46 42
20 45 41
21 46 42
20 44 41
20 45 41
19 43 40
20 44 41
21 46 42
20 44 41
20 45 41
20 45 41
20 44 40
20 44 41
20 45 41
20 45 41
19 43 40
21 46 43
20 45 41
21 46 42
20 45 42
20 45 41
20 45 41
20 45 41
20 45 41
21 46 42
21 46 42
21 46 42
20 45 41
21 46 42
20 44 40
21 46 42
21 46 42
21 46 42
21 45 42
21 46 42
20 45 41
21 46 42
21 46 42
21 46 42
21 45 42
21 46 42
20 45 41
21 46 42
21 46 42
21 46 42
21 46 42
20 45 41
21 46 42
21 47 43
21 46 42
21 46 42
21 46 42
21 46 42
21 47 43
22 47 43
21 45 41
21 46 42
21 46 42
21 47 43
21 46 42
21 46 42
22 48 44
21 47 43
21 46 42
21 46 42
21 46 42
21 46 42
21 46 42
22 48 43
21 47 43
21 46 42
21 47 43
21 47 43
21 47 43
21 47 43
21 46 42
21 46 42
21 47 43
21 47 43
21 46 42
22 48 44
21 47 42
22 48 44
22 47 43
22 48 43
22 47 43
21 47 42
22 48 43
21 46 42
21 46 42
21 46 42
21 47 43
21 46 42
21 47 43
22 47 43
71 59 53
105 98 89
20 44 40
20 44 41
20 44 41
19 43 40
20 44 41
20 44 41
20 44 40
20 44 41
20 44 40
20 44 41
20 44 40
19 43 39
20 45 41
20 44 41
20 44 41
20 45 42
19 43 40
20 44 40
20 44 41
20 45 41
19 43 40
20 44 40
20 44 41
20 45 41
20 44 41
20 45 41
20 44 40
20 45 41
20 44 40
20 45 42
20 45 41
20 45 41
20 44 41
20 44 40
21 46 42
20 44 40
20 45 41
20 45 41
20 45 41
21 46 42
20 45 42
20 45 41
20 44 41
21 46 42
21 46 42
21 46 42
20 44 40
21 46 42
20 45 41
20 45 41
20 45 41
20 45 41
21 46 42
20 44 41
20 45 41
20 45 41
21 46 42
21 46 42
21 46 42
21 47 43
21 46 42
21 46 42
21 47 43
21 45 42
21 46 42
21 46 42
21 46 42
21 46 42
21 46 42
21 46 42
21 46 42
21 47 43
21 46 42
21 47 43
21 47 43
21 47 43
21 45 42
21 47 43
21 46 42
21 45 41
21 47 43
21 46 42
21 46 42
21 47 43
21 46 42
21 47 43
21 46 42
21 46 42
21 47 43
21 46 42
21 46 42
21 46 42
22 48 44
21 47 43
21 47 43
21 46 42
22 48 44
22 48 43
22 48 43
21 47 42
21 47 43
22 48 43
21 47 43
21 47 43
22 48 43
22 48 43
21 46 42
22 48 43
21 47 42
22 48 44
21 47 42
21 47 42
22 48 44
21 47 43
21 46 42
20 44 40
19 43 40
20 44 40
29 44 41
59 58 51
20 44 41
20 44 41
20 44 41
20 44 40
20 44 41
20 44 40
20 45 41
20 45 41
20 44 41
20 44 41
20 44 41
20 45 41
19 43 40
20 45 41
21 46 42
20 44 40
20 45 41
20 45 41
20 44 41
20 45 41
21 46 42
20 44 41
20 45 42
20 44 41
21 46 42
20 45 42
21 46 42
20 45 42
20 45 41
20 44 40
20 46 42
20 45 42
20 45 41
20 44 41
20 44 41
20 44 40
20 45 41
20 45 41
21 46 42
20 45 42
21 46 42
20 45 41
20 45 41
21 46 43
21 46 42
20 45 41
20 45 41
21 46 43
20 45 41
21 46 42
21 46 42
20 45 41
21 45 42
21 46 42
21 46 42
21 46 42
21 46 43
21 46 42
20 45 41
21 46 42
21 46 42
21 46 42
21 46 43
21 47 43
21 46 42
21 45 42
20 45 41
21 46 42
21 46 42
21 47 43
21 46 42
21 46 42
20 45 41
21 46 42
21 46 42
21 47 42
21 46 42
21 47 42
21 46 42
22 48 43
21 47 43
21 47 43
21 46 42
20 45 41
21 46 42
21 47 43
22 48 44
21 46 42
22 48 44
21 47 43
21 47 42
21 47 43
22 47 43
21 47 43
21 46 42
21 47 43
22 49 44
21 47 43
21 47 42
21 47 43
21 47 42
22 48 43
21 47 43
22 48 43
21 47 43
21 46 42
22 49 44
21 47 43
21 46 42
21 46 42
21 46 42
21 47 43
21 46 42
21 46 41
19 41 38
16 37 35
15 34 32
13 29 28
13 29 28
23 31 29
20 45 41
20 45 41
20 44 41
20 43 40
20 44 41
20 44 40
19 43 40
20 45 41
20 45 41
20 44 41
20 44 40
20 44 41
20 44 40
20 44 41
20 44 40
20 44 41
20 45 41
20 45 41
20 44 41
20 44 41
20 45 41
20 44 40
20 45 41
20 44 41
21 46 42
20 44 40
20 45 41
21 46 42
20 45 41
20 45 41
21 46 42
20 45 41
20 45 41
20 44 41
20 45 41
20 45 41
20 45 41
20 45 41
20 45 42
20 45 41
20 45 41
21 46 42
20 44 41
20 45 41
21 46 42
20 44 41
20 45 41
20 45 41
21 46 42
20 45 42
21 46 42
21 46 42
20 45 41
21 46 42
21 45 42
21 46 42
20 45 41
20 44 41
21 46 43
21 46 42
21 46 42
21 45 41
21 46 42
21 45 41
21 46 42
21 47 43
21 46 42
21 46 42
21 47 43
21 46 42
21 47 43
21 46 42
21 46 42
21 46 42
21 47 43
21 46 42
21 47 43
21 46 42
21 47 43
21 46 42
21 46 42
21 46 42
21 47 43
21 46 42
21 46 42
21 47 43
21 47 43
21 47 43
21 46 42
22 48 44
22 48 44
22 48 44
21 47 43
21 47 43
21 47 43
21 46 42
21 47 43
21 47 42
21 47 43
21 47 43
21 46 42
21 47 43
21 46 42
22 48 43
21 46 42
22 47 43
21 47 43
22 48 43
22 48 44
22 49 44
22 48 43
21 46 42
22 47 43
21 47 42
21 46 42
20 44 40
19 42 38
17 37 34
15 33 31
29 31 39
20 44 41
20 45 41
20 44 41
20 44 41
21 46 42
20 45 41
20 44 40
20 44 41
20 45 41
20 45 41
20 44 41
20 44 41
20 44 41
20 45 41
20 45 41
20 46 42
20 45 41
20 45 41
20 45 41
20 44 40
20 44 40
20 44 41
20 45 41
20 45 42
20 44 41
20 45 41
20 44 41
20 44 40
20 45 41
20 45 41
21 46 42
20 45 41
20 44 40
20 45 42
20 45 41
20 45 41
20 45 41
20 45 41
21 46 42
20 45 41
21 46 43
20 45 42
20 45 42
21 46 42
20 45 41
21 46 42
21 46 42
20 44 40
20 45 41
20 45 41
21 46 42
20 45 41
21 45 42
20 45 42
20 45 41
21 47 43
21 46 42
21 47 43
21 45 42
21 47 43
21 47 43
21 46 42
21 47 43
21 45 41
21 45 41
21 46 42
21 46 42
21 47 43
21 46 42
21 47 43
21 47 42
21 47 43
21 46 42
21 47 43
21 47 43
22 48 43
21 46 42
21 47 43
22 47 43
22 47 43
21 47 43
21 46 42
21 47 42
21 46 42
21 47 43
21 46 42
21 46 42
21 47 43
21 47 43
21 46 42
22 48 43
21 47 43
21 47 43
21 46 42
21 47 43
22 48 44
21 46 42
21 47 43
21 46 42
21 47 43
22 48 43
21 47 43
21 47 42
21 47 43
22 47 43
22 48 43
21 46 42
21 46 42
21 47 42
21 47 43
22 48 44
22 48 44
21 47 42
21 47 43
21 46 42
22 47 43
21 45 41
21 46 42
21 46 41
37 41 48
20 44 40
20 44 40
20 45 41
20 44 41
20 44 41
20 44 41
20 44 41
20 45 41
20 45 41
20 44 41
20 44 41
19 43 40
20 45 41
21 46 42
20 45 41
20 45 41
20 44 40
20 45 42
20 45 41
20 46 42
21 46 42
20 45 41
20 45 42
20 44 41
20 45 41
20 45 41
20 45 41
20 45 41
20 45 41
21 46 43
21 46 42
20 45 42
21 46 42
21 45 42
20 45 41
21 46 42
20 45 41
20 45 41
21 46 42
21 46 42
21 46 42
20 45 41
20 45 41
21 46 42
21 46 42
21 46 42
21 46 42
21 47 43
21 46 42
21 46 42
21 47 43
20 45 41
21 46 42
21 46 42
21 46 42
21 47 43
20 45 41
21 46 42
21 46 42
21 46 42
21 46 42
21 46 43
20 45 41
21 46 42
21 47 42
21 47 43
21 47 42
20 45 41
21 47 43
21 47 43
22 48 44
21 47 43
21 46 42
21 47 43
21 46 42
21 47 43
21 47 43
21 46 42
22 48 43
21 46 42
21 47 43
22 48 44
22 47 43
22 48 43
21 47 43
21 47 42
21 47 43
22 48 43
21 46 42
21 46 42
21 47 43
21 47 43
22 48 44
21 46 42
21 47 43
22 48 43
22 47 43
21 47 43
21 47 43
21 47 43
21 47 42
22 48 43
22 48 44
21 46 42
22 47 43
21 47 43
22 48 44
22 48 44
21 47 42
21 47 42
22 48 43
22 49 44
21 47 43
21 47 43
22 48 43
22 48 43
22 48 43
22 48 43
21 47 42
32 42 45
20 44 41
20 44 41
20 44 41
20 44 41
20 44 40
20 44 40
20 44 41
20 45 41
20 45 42
20 45 42
20 45 42
20 45 41
20 44 41
20 45 42
20 44 41
20 45 41
20 45 41
21 45 42
20 45 41
21 46 42
20 45 41
20 44 40
20 45 41
20 44 41
20 45 41
21 45 42
20 44 40
21 46 42
20 45 41
21 46 42
20 45 42
21 46 42
20 46 42
21 46 42
20 45 41
21 46 42
21 46 42
21 46 42
20 45 41
21 46 42
20 45 41
20 44 41
20 45 41
21 46 42
20 45 41
21 46 42
20 45 42
21 45 42
20 45 41
20 45 41
20 45 41
21 46 42
21 47 43
21 46 42
20 45 41
21 46 42
21 46 42
21 47 43
21 47 43
21 46 42
22 48 43
21 46 42
21 47 43
21 47 43
21 46 42
21 46 42
21 47 43
21 46 42
21 47 43
20 45 41
21 47 42
21 46 42
20 45 41
21 46 42
22 48 44
22 48 44
21 46 42
21 47 43
21 47 43
21 47 43
21 46 42
21 46 42
21 47 43
21 47 43
21 47 43
21 47 43
22 47 43
21 47 43
22 48 44
21 47 43
21 47 43
21 47 43
22 48 43
21 46 42
22 47 43
22 47 43
21 47 42
22 47 43
21 47 43
21 46 42
22 48 43
21 47 42
22 48 43
21 46 42
21 46 42
22 48 43
21 47 42
21 47 42
22 49 44
22 48 44
21 47 42
21 46 42
21 47 43
22 48 43
21 47 43
22 48 43
22 48 43
21 47 42
21 46 42
26 45 44
20 45 41
20 44 41
20 44 41
20 45 41
20 44 41
21 46 42
20 44 40
20 45 42
20 44 41
20 44 41
19 43 40
20 44 41
20 44 40
20 45 41
21 46 42
20 45 41
20 45 41
20 45 41
20 45 41
20 44 40
20 45 41
20 45 41
21 46 42
20 45 41
20 45 41
20 45 42
20 45 41
20 45 41
20 45 41
21 46 42
20 45 41
20 45 41
21 46 43
20 44 41
21 46 42
21 46 42
21 46 42
21 46 42
20 45 42
21 46 42
20 45 41
21 46 42
21 46 42
21 46 42
21 46 42
21 46 42
21 46 42
21 46 42
21 46 42
21 46 42
21 46 42
21 46 42
21 46 42
20 45 41
21 46 42
21 46 42
21 46 42
21 47 42
21 47 43
21 46 42
21 46 42
21 47 43
21 46 42
21 46 42
21 47 43
21 46 42
21 46 42
21 46 42
22 48 43
21 47 43
21 47 43
21 47 43
21 47 43
21 46 42
21 47 43
22 48 44
21 46 42
21 46 42
20 45 41
21 47 43
22 47 43
21 47 43
21 47 42
21 47 43
21 46 42
22 49 44
21 47 42
21 47 43
21 46 42
21 47 43
22 48 44
22 48 44
22 47 43
21 47 43
21 46 42
22 49 44
22 48 44
22 48 44
21 47 43
22 48 44
22 49 44
22 48 43
21 46 42
22 48 43
21 47 42
21 47 43
21 47 43
22 48 44
22 48 43
21 47 43
22 48 43
22 48 43
22 48 44
21 47 43
21 46 42
20 43 40
18 41 38
17 38 36
16 36 34
17 38 35
20 44 41
20 45 41
20 45 42
20 44 40
19 43 39
20 44 41
20 44 41
20 44 41
20 45 42
20 45 42
20 45 41
20 45 41
21 46 42
20 44 41
20 45 41
20 45 41
21 46 42
20 45 41
20 43 40
20 45 41
20 45 41
21 46 42
21 46 42
20 45 41
20 44 41
20 44 40
20 45 41
20 45 41
20 45 41
21 46 42
20 45 42
20 45 41
20 45 41
21 46 42
21 46 42
20 45 41
21 46 42
20 45 41
21 45 42
21 47 43
20 45 41
21 47 43
21 46 42
21 46 43
21 45 42
21 46 42
21 46 42
21 46 42
20 45 41
20 45 41
21 45 42
21 46 43
21 46 42
21 46 42
21 46 42
21 46 42
21 46 42
21 45 42
21 46 42
21 45 42
21 47 43
21 46 42
21 46 42
21 47 43
21 47 42
21 46 42
21 47 43
21 46 42
22 48 43
21 46 42
21 47 43
22 47 43
21 47 43
21 46 42
21 46 42
22 48 44
21 46 42
21 46 42
21 47 43
22 48 44
21 46 42
22 47 43
21 47 43
21 47 43
21 47 43
21 46 42
21 45 41
22 48 44
22 48 44
22 47 43
22 48 44
21 47 43
21 47 42
21 47 43
22 48 43
21 47 42
22 47 43
22 48 44
21 47 43
21 47 42
22 47 43
22 48 44
22 48 43
21 47 43
22 48 44
22 48 43
21 47 43
22 49 45
22 48 44
21 47 43
22 48 43
22 48 44
22 48 44
21 47 43
20 45 41
19 43 40
17 38 35
14 32 31
13 31 30
12 28 27
20 44 40
20 45 42
20 44 41
20 44 41
20 45 41
20 45 41
20 45 41
20 45 41
20 45 41
20 44 41
20 44 41
20 45 42
20 45 41
20 45 41
21 47 43
20 44 41
20 45 41
20 44 41
20 45 42
20 44 40
21 46 42
20 45 42
21 45 42
20 45 41
20 45 41
20 44 41
20 45 41
20 45 41
21 46 42
20 45 42
21 46 42
21 46 42
21 46 42
20 45 41
21 46 42
20 45 41
20 45 41
21 46 42
20 45 42
21 46 42
21 46 42
20 45 42
21 47 43
20 45 41
21 47 43
21 47 43
21 46 43
21 47 43
20 45 41
21 46 42
21 46 42
21 46 42
20 45 41
21 46 42
21 46 42
21 46 42
21 47 43
21 46 42
21 47 43
21 46 42
21 46 42
21 46 42
21 46 42
21 46 42
21 46 42
21 46 42
21 47 42
21 46 42
21 47 43
21 46 42
21 46 42
21 46 42
21 46 42
22 48 44
21 47 43
21 47 42
21 47 42
21 45 41
21 47 43
21 47 43
20 45 41
21 47 43
21 47 43
21 47 43
22 47 43
22 48 44
21 47 43
21 47 43
21 47 43
22 48 44
21 46 42
22 48 43
22 48 43
21 47 43
21 47 43
22 48 43
22 48 43
22 48 44
21 47 43
22 48 44
21 47 43
22 48 44
22 48 44
22 49 44
22 48 43
22 48 44
22 48 43
22 48 44
22 48 43
22 48 43
22 47 43
22 48 44
21 47 42
22 48 44
22 47 43
22 47 43
21 47 42
19 42 38
18 39 36
15 34 32
20 45 41
20 44 41
20 45 42
20 44 40
20 45 42
20 45 41
20 45 42
20 44 40
20 45 41
20 44 41
20 45 41
20 45 41
20 44 41
20 44 40
20 45 41
20 45 41
20 45 41
20 44 41
21 46 42
20 44 41
21 46 42
20 45 41
20 45 41
20 44 41
21 46 42
20 45 41
20 45 41
21 46 42
20 44 40
20 44 41
21 46 42
20 45 41
20 45 41
20 45 41
20 45 41
21 45 42
20 44 40
20 45 42
21 47 43
20 44 41
21 46 42
21 47 43
21 46 42
21 46 42
21 46 42
20 45 41
20 45 41
20 45 41
21 47 43
20 45 41
20 45 41
21 46 42
21 47 43
21 46 42
22 48 44
21 47 43
21 46 42
20 45 41
21 46 42
21 46 42
21 46 42
22 48 44
21 47 43
21 46 42
21 46 42
21 46 42
21 47 43
22 47 43
21 46 42
21 47 43
21 47 43
21 47 43
21 47 43
22 48 43
21 47 42
22 48 43
21 47 43
21 47 43
22 48 43
22 48 44
21 46 42
21 47 43
21 47 42
21 47 43
21 47 43
22 47 43
21 47 43
22 47 43
21 47 43
22 48 44
22 48 44
22 47 43
22 48 44
22 48 44
22 48 44
21 47 43
22 48 43
22 48 44
21 47 43
22 48 44
22 47 43
21 47 43
21 47 42
22 48 43
22 48 44
22 48 43
21 47 42
22 48 43
22 48 43
22 48 43
22 48 44
22 49 45
22 48 43
22 48 43
22 48 44
21 47 42
22 47 43
22 49 44
22 47 43
21 46 42
20 44 41
20 45 41
20 46 42
20 44 41
20 45 41
20 44 41
20 45 41
20 44 41
20 44 40
20 45 41
20 44 41
20 44 40
20 45 41
21 46 42
20 44 41
20 45 41
20 45 41
20 45 41
20 45 41
20 45 42
21 46 42
20 44 40
20 45 41
20 45 41
21 46 42
21 46 42
21 46 42
21 46 42
21 46 42
20 45 41
21 46 42
20 44 41
21 46 42
20 45 41
20 44 40
21 47 43
21 46 42
21 47 43
21 46 42
20 45 41
21 46 42
21 47 43
21 46 42
21 46 42
20 44 41
21 46 42
21 47 43
21 46 42
21 46 42
21 47 43
21 46 42
21 45 42
21 46 42
21 47 43
21 46 42
21 46 42
21 47 43
21 45 42
21 47 42
21 46 42
21 46 42
21 46 42
22 48 44
20 45 41
21 47 43
21 47 43
21 46 42
21 46 42
22 49 44
21 47 43
21 46 42
21 46 42
22 49 44
21 46 42
21 46 42
21 47 43
21 47 43
21 47 43
21 47 43
21 47 43
21 46 42
21 47 43
22 48 44
22 47 43
22 48 43
21 47 43
22 47 43
21 47 42
22 47 43
22 48 44
22 48 44
21 46 42
21 47 43
21 47 42
21 46 42
22 47 43
22 48 44
21 46 42
22 48 44
22 48 44
21 46 42
21 47 43
22 48 43
22 48 44
22 48 44
22 48 44
22 48 43
22 48 44
21 47 43
22 48 44
22 48 43
22 47 43
22 49 44
22 48 44
22 47 43
22 48 44
22 48 43
22 48 44
22 48 43
22 48 43
20 44 40
21 46 42
21 46 42
20 45 41
20 45 41
20 45 41
20 45 41
20 44 40
20 44 41
20 44 41
21 46 42
20 45 42
20 45 41
20 45 41
20 45 41
20 45 41
20 45 42
21 46 42
21 46 42
21 46 42
20 45 42
20 45 41
19 43 39
20 45 42
20 44 41
21 46 43
20 45 42
20 45 42
20 45 41
20 45 42
21 46 42
20 45 41
20 45 41
20 45 41
21 46 42
21 46 42
21 46 42
20 45 41
21 46 42
20 45 41
21 46 42
20 45 41
21 46 42
21 46 42
21 46 42
21 47 43
21 46 42
21 46 42
21 45 41
21 47 43
21 46 42
21 47 43
21 46 42
21 47 43
21 46 42
21 47 43
21 46 42
21 46 42
21 47 43
21 46 42
21 47 43
21 46 42
21 47 43
21 46 42
21 47 43
21 47 43
21 46 42
21 47 43
21 47 43
21 47 43
21 46 42
21 47 43
21 46 42
21 46 42
21 47 43
22 48 43
21 47 43
22 48 44
21 47 43
21 46 42
21 46 41
21 47 43
22 48 44
22 48 44
22 47 43
21 46 42
22 48 44
22 48 43
21 47 43
22 47 43
22 48 44
21 46 42
22 48 43
22 48 44
22 48 44
21 47 43
21 47 43
21 47 43
22 47 43
22 49 44
21 47 42
22 48 43
22 48 43
22 48 43
22 47 43
21 47 42
22 48 43
21 47 42
22 49 44
21 47 43
22 49 44
22 48 43
22 49 44
22 48 44
22 48 43
22 47 43
22 48 44
22 48 44
22 48 43
22 48 43
20 44 40
21 46 43
21 46 42
20 44 41
20 45 41
20 45 41
20 44 41
20 45 42
21 46 42
20 44 41
20 45 42
20 44 40
20 45 42
20 45 42
21 46 42
21 46 43
21 46 42
21 46 42
21 46 42
21 46 43
20 45 41
20 45 41
20 44 41
20 44 40
21 46 42
20 45 41
21 45 42
20 45 41
21 47 43
20 45 41
20 45 41
21 46 42
21 46 42
21 46 42
20 44 40
20 45 41
21 46 42
21 45 42
21 46 43
20 45 41
21 46 42
21 46 42
21 46 42
21 46 42
21 48 43
20 45 41
21 47 43
20 45 41
21 46 42
20 45 41
22 48 44
21 46 42
21 46 42
21 47 43
20 45 41
21 46 42
21 46 42
21 47 43
21 46 42
21 46 41
21 46 42
21 46 42
21 46 42
21 47 43
21 47 43
21 45 41
21 46 42
21 46 42
21 47 43
21 47 43
20 45 41
22 48 43
20 45 41
21 47 43
21 47 43
22 48 43
22 48 43
21 46 42
21 46 42
21 47 43
21 46 42
21 46 42
21 47 43
21 46 42
21 47 43
22 48 44
21 47 43
21 47 43
22 47 43
22 48 44
21 47 43
21 47 43
21 46 42
22 48 44
21 47 43
21 47 43
22 48 43
21 47 43
23 50 45
22 47 43
22 48 44
22 47 43
22 47 43
22 49 44
22 48 43
22 47 43
22 48 44
22 47 43
22 48 43
22 48 44
21 47 42
21 47 43
22 48 43
22 47 43
22 49 45
22 49 44
22 48 44
22 48 44
22 48 43
21 47 43
20 44 40
20 45 41
20 44 41
20 45 41
20 46 42
20 45 41
20 44 41
20 44 41
20 45 41
20 45 42
20 44 41
21 46 42
20 44 41
20 45 41
20 45 41
21 46 42
20 45 41
20 46 42
20 44 40
20 44 41
20 44 40
20 45 41
21 46 42
20 45 41
21 46 42
20 45 42
20 45 41
20 45 41
21 46 42
20 45 41
20 45 41
20 45 41
20 45 41
20 45 41
20 44 41
21 46 42
21 45 41
20 45 41
21 46 42
21 46 42
21 45 42
21 46 42
22 48 43
20 45 41
20 45 41
21 46 43
21 47 43
21 47 43
20 45 41
21 46 42
21 46 42
20 45 41
21 46 42
20 45 41
21 46 42
22 48 44
21 47 43
21 46 42
21 47 43
22 48 44
22 48 43
21 47 43
20 44 40
21 47 43
22 47 43
21 46 42
21 46 42
21 47 43
21 47 43
21 47 43
21 47 43
22 48 43
21 47 43
21 47 42
21 47 43
22 47 43
22 48 43
21 47 43
22 48 44
21 47 43
21 47 42
21 47 43
21 47 43
21 47 43
22 48 43
22 48 43
21 47 43
22 48 44
22 49 44
22 49 44
21 47 43
22 48 43
22 47 43
22 48 44
22 47 43
21 47 43
22 47 43
22 48 43
21 47 43
22 48 44
22 49 44
22 48 44
21 46 42
21 47 43
22 49 44
22 49 44
21 47 43
22 48 43
21 47 43
21 47 43
22 47 43
22 49 45
22 48 44
22 47 43
22 49 44
22 48 44
22 49 45
22 49 44
22 49 44
22 48 44
20 44 41
20 44 40
20 45 41
20 44 40
20 45 41
20 44 40
20 44 41
20 44 41
20 44 41
21 46 42
20 45 41
20 46 42
20 45 41
20 45 41
21 46 42
20 44 41
20 45 41
20 45 41
21 46 42
20 45 41
20 44 40
20 45 41
20 45 41
20 45 41
20 45 41
21 47 43
20 45 41
21 46 42
20 45 41
20 45 41
21 46 42
20 44 41
21 47 43
21 46 42
21 46 42
21 46 42
20 45 41
21 46 42
21 46 42
21 46 42
21 46 42
21 46 42
21 46 42
21 46 42
21 47 43
21 46 42
21 46 42
21 47 43
21 46 42
21 46 42
21 46 42
21 46 42
21 47 43
21 47 43
21 46 42
21 46 42
20 45 41
21 47 43
21 47 43
21 46 42
21 46 42
21 47 43
21 46 42
21 47 43
21 46 42
21 46 42
20 45 41
21 47 42
21 46 42
22 48 43
21 47 43
22 48 44
21 46 42
21 46 42
21 47 43
21 46 42
21 46 42
21 47 43
22 48 44
22 48 43
21 46 42
21 47 43
21 47 43
21 47 43
21 47 43
22 48 43
21 46 42
21 46 42
22 48 43
21 47 43
22 48 43
22 48 43
22 48 43
22 49 44
21 47 43
22 48 43
21 47 43
22 49 44
22 48 43
22 48 44
22 48 44
22 48 43
22 48 44
22 48 44
22 47 43
22 48 44
22 48 44
21 47 43
22 48 44
22 49 44
22 48 44
22 48 43
22 47 43
22 48 43
22 48 44
22 48 44
22 48 43
22 49 45
22 48 43
22 49 44
20 45 41
21 46 42
20 44 41
20 45 41
20 44 41
21 46 42
20 45 42
21 46 43
20 45 41
20 45 41
21 46 42
20 44 41
20 45 41
20 45 41
20 45 41
21 46 42
20 45 41
21 46 42
20 45 41
20 45 41
20 45 41
21 46 42
21 46 42
20 45 42
21 46 42
20 45 41
20 44 40
20 45 41
21 46 42
20 45 42
21 47 43
21 46 42
21 47 43
20 45 41
20 45 42
21 46 42
21 47 43
20 45 41
21 45 42
21 46 42
21 46 42
21 46 42
21 46 42
21 46 42
20 45 42
21 46 42
21 47 43
21 46 42
20 45 42
21 46 42
21 46 42
20 45 41
21 47 43
21 46 42
21 46 42
20 45 41
20 45 41
21 47 43
21 47 42
21 46 42
21 47 43
21 46 42
21 46 42
21 47 43
21 46 42
21 47 43
21 46 42
21 47 43
21 47 43
21 47 43
21 47 43
21 46 42
21 46 42
21 46 42
21 47 43
22 48 44
21 46 42
21 47 43
21 47 42
21 47 43
21 47 43
22 48 43
22 48 44
21 46 42
22 48 43
22 48 44
22 48 43
21 47 43
22 47 43
22 48 44
21 47 43
21 47 42
22 48 44
22 48 44
22 47 43
22 48 44
22 48 43
22 48 43
22 48 43
22 48 44
22 48 43
22 48 44
22 48 44
22 49 44
22 48 44
22 48 44
22 48 44
22 48 43
22 48 44
22 47 43
22 47 43
22 48 44
22 49 44
22 48 44
22 47 43
22 48 44
22 49 44
22 47 43
22 49 44
22 48 43
20 44 41
20 45 42
21 46 42
20 45 41
20 44 40
20 45 41
19 43 40
20 45 41
20 45 41
20 45 41
20 45 41
20 45 41
20 45 41
20 45 42
20 45 42
20 45 41
21 46 42
20 45 41
20 45 41
21 45 42
20 45 41
20 45 41
20 44 41
21 46 42
21 46 43
21 46 42
21 46 42
21 46 42
21 46 42
21 46 42
21 46 42
20 45 41
21 46 42
20 45 41
21 46 42
21 46 42
20 45 41
21 46 42
21 46 42
21 47 43
21 47 43
21 47 43
20 45 41
20 45 42
22 48 43
21 47 43
20 45 41
22 48 43
21 46 42
21 46 42
21 46 42
21 47 43
21 45 42
21 46 42
21 46 42
21 46 42
21 46 42
21 46 42
21 47 43
21 47 43
20 45 41
21 46 42
21 47 43
20 45 41
21 47 43
21 47 43
21 47 43
21 46 42
21 46 42
21 46 42
22 48 43
21 47 43
21 46 42
21 47 43
21 47 42
22 48 44
21 47 43
20 45 41
21 46 42
21 47 42
21 46 42
21 46 42
22 48 43
22 49 44
21 46 42
21 47 42
21 47 43
22 48 44
21 47 42
22 49 44
22 48 44
22 48 43
21 47 43
21 46 42
22 48 43
21 47 42
21 47 43
22 48 43
21 47 43
22 48 43
22 49 44
23 49 45
22 49 44
21 46 42
21 47 43
21 47 42
22 49 45
22 48 44
22 48 44
22 49 44
22 48 44
22 49 44
22 49 44
21 47 43
22 48 43
21 46 42
22 48 44
22 48 44
22 49 44
22 49 44
20 44 40
20 45 41
20 44 41
20 45 41
20 45 41
20 45 42
21 46 42
20 45 41
21 46 42
20 45 41
20 44 41
20 44 41
20 44 40
20 45 41
20 45 41
20 45 41
21 46 42
20 45 41
21 46 42
21 46 42
20 45 41
20 45 42
20 45 42
20 45 41
20 45 41
21 47 43
20 45 41
21 46 42
21 46 42
21 46 42
21 46 42
21 46 42
20 45 41
20 45 41
21 46 42
20 45 41
21 47 43
21 46 42
21 46 42
21 47 43
20 45 41
21 46 42
20 45 41
20 45 41
21 46 42
21 46 42
20 45 41
21 46 42
21 47 43
20 45 41
20 45 41
21 46 42
20 45 41
21 46 43
21 47 43
21 46 42
21 47 43
21 46 42
21 47 43
21 47 43
21 47 43
21 47 43
21 47 43
22 48 44
21 46 42
21 47 43
21 47 43
22 48 43
21 47 43
21 47 42
21 47 43
21 47 43
22 48 44
21 47 42
21 47 43
21 47 43
21 47 43
21 47 43
21 46 42
21 47 42
21 47 43
22 48 43
21 47 43
21 46 42
21 46 42
22 48 44
21 47 43
22 48 44
21 47 42
22 48 44
21 46 42
21 47 42
21 47 43
22 48 43
22 48 44
21 47 43
22 48 44
21 46 42
21 47 43
23 49 45
22 49 44
22 48 43
22 48 44
22 48 43
21 47 43
21 47 43
22 47 43
23 51 46
22 49 45
21 47 43
22 48 43
22 49 44
22 49 44
21 47 43
22 48 43
22 48 44
22 48 44
23 50 45
22 47 43
22 48 43
20 44 40
20 44 41
20 45 41
20 44 41
21 46 42
20 45 42
20 44 41
21 47 43
21 46 42
21 46 43
20 45 42
20 45 42
21 46 42
20 45 41
20 45 42
20 45 41
21 46 42
20 45 41
20 45 41
20 45 41
21 46 42
20 44 41
20 45 41
20 45 41
20 45 41
21 46 42
21 47 43
21 47 43
21 46 42
21 46 42
21 47 43
21 47 43
20 45 41
20 45 41
20 45 41
20 45 41
21 46 42
21 46 42
21 47 43
20 45 41
21 46 43
21 46 42
20 45 41
20 45 41
21 46 42
21 47 43
21 46 42
21 46 42
21 46 42
20 45 41
21 47 43
21 46 42
21 46 42
21 47 43
21 47 43
21 47 43
21 45 42
21 47 42
21 47 42
21 46 42
21 47 43
21 46 42
22 48 44
21 46 42
21 47 43
21 46 42
21 47 42
22 48 44
21 47 42
21 47 43
22 48 43
21 46 42
21 46 42
21 47 43
21 47 43
21 47 43
21 46 42
21 47 43
21 47 43
22 49 44
21 47 43
21 46 42
22 48 43
21 47 43
22 48 44
21 47 43
22 47 43
21 47 43
21 47 43
21 47 43
22 48 44
22 48 44
21 47 43
22 48 44
22 48 44
21 47 43
22 47 43
22 48 43
22 49 44
22 48 44
22 49 44
22 49 45
22 49 44
21 47 43
22 48 43
22 48 43
21 46 42
22 49 45
22 48 44
22 48 43
22 48 44
22 49 44
22 47 43
22 48 43
22 49 44
22 49 44
22 48 44
22 48 43
22 49 45
21 47 43
20 45 41
20 44 41
20 44 41
20 45 41
20 44 40
19 43 40
20 44 41
21 46 42
20 44 40
21 46 42
20 44 41
20 45 41
20 45 41
20 44 41
20 45 41
20 45 42
20 45 41
20 45 42
20 45 41
20 45 41
20 45 41
20 45 41
21 46 42
21 46 42
21 45 42
20 45 41
21 46 42
21 46 42
21 46 42
20 45 42
20 45 41
21 46 42
21 46 42
21 46 42
21 46 42
21 46 42
20 45 42
21 47 43
20 45 41
21 46 42
20 45 41
21 46 42
21 47 43
21 46 42
21 46 42
21 46 42
21 46 42
21 46 42
21 47 43
21 47 43
21 47 43
21 46 42
21 46 42
21 46 42
21 46 42
21 46 42
22 48 44
21 47 43
21 46 42
21 46 42
21 47 43
21 46 42
21 46 42
21 47 43
20 45 41
21 45 41
21 47 43
21 46 42
21 46 42
21 46 42
21 47 43
21 47 43
21 47 43
21 47 43
21 47 43
21 47 43
21 46 42
22 49 45
21 47 43
22 48 43
21 46 42
21 46 42
22 48 44
21 47 42
21 47 43
22 48 44
21 47 43
21 47 42
22 48 44
21 47 43
22 47 43
22 48 44
22 48 44
22 48 43
21 47 42
21 47 42
21 47 43
21 47 43
21 47 43
21 47 43
22 49 44
22 48 44
21 47 43
22 48 44
22 48 43
22 48 44
21 47 43
22 48 44
22 48 43
22 48 43
22 47 43
22 48 43
22 48 44
22 48 44
22 48 43
21 47 43
22 47 43
22 49 45
22 48 44
22 49 44
21 46 42
20 44 41
20 45 41
20 44 41
20 45 42
20 45 41
20 45 41
20 44 41
20 44 40
20 45 41
20 44 40
20 45 41
20 45 41
21 47 43
20 45 41
20 45 41
20 44 41
20 45 42
20 44 41
20 44 40
21 46 42
20 45 42
20 44 41
21 46 42
20 45 41
21 47 43
21 47 43
20 45 41
20 45 41
21 45 42
21 46 42
21 46 42
21 46 42
21 47 43
21 45 42
20 45 41
21 46 42
21 46 42
21 46 42
20 45 41
22 48 43
21 47 43
21 46 42
21 47 43
21 47 43
21 46 42
20 45 41
21 47 43
21 47 43
21 46 43
21 46 42
21 46 42
21 47 43
21 47 43
21 46 42
21 46 42
21 45 41
21 46 42
21 46 42
22 47 43
21 46 42
21 46 42
21 46 42
21 46 42
21 47 43
21 46 42
21 47 43
21 47 43
21 47 42
21 46 42
22 48 43
21 46 42
21 47 43
21 47 43
21 46 42
21 47 42
21 47 43
21 47 43
22 48 44
21 47 43
21 47 43
21 47 43
21 47 42
21 47 43
22 48 43
22 49 45
22 48 44
22 48 44
21 47 43
22 47 43
21 47 42
22 48 44
21 47 42
22 48 44
21 47 42
21 46 42
21 47 43
22 47 43
22 49 44
22 48 43
22 48 44
22 48 43
21 47 43
22 48 44
22 48 44
22 48 44
22 48 44
22 48 43
22 48 44
22 48 44
22 49 45
22 49 44
22 49 44
22 48 44
21 47 43
21 47 42
22 48 44
22 49 45
22 48 43
23 50 45
20 45 41
20 45 42
20 45 41
20 45 41
20 45 41
20 45 41
20 45 42
21 46 42
20 44 41
20 45 41
21 46 42
20 45 42
20 45 41
20 45 41
21 46 42
20 44 41
21 46 42
20 45 41
21 46 42
20 45 41
20 44 40
21 46 42
21 46 42
20 45 41
21 46 42
21 46 42
21 46 42
21 47 43
21 47 43
20 45 41
20 45 41
21 47 43
20 45 41
21 46 42
21 46 42
21 46 42
21 46 42
20 45 41
20 45 41
21 46 42
20 45 41
21 46 42
21 46 42
21 45 42
21 47 43
21 46 42
20 45 41
21 46 42
20 45 41
21 46 42
21 46 42
21 46 42
21 47 43
21 46 42
21 46 42
21 46 42
20 45 41
21 47 43
21 46 42
22 48 44
21 47 43
21 46 42
21 47 43
22 48 44
21 46 42
21 47 43
22 48 43
21 47 43
22 48 43
21 47 43
21 47 43
22 48 44
21 47 43
21 47 43
21 46 42
21 46 42
21 47 43
21 46 42
21 47 43
22 48 43
22 48 44
21 47 43
21 46 42
21 47 43
21 47 43
21 47 43
22 49 44
21 46 42
22 48 43
21 47 42
22 49 44
21 46 42
22 48 44
22 48 44
22 48 44
21 47 42
22 49 44
22 48 44
22 48 43
21 47 43
21 47 43
21 47 42
21 47 43
22 48 44
22 47 43
22 47 43
22 48 44
22 48 44
22 48 43
22 47 43
22 48 43
22 49 45
22 48 44
21 47 43
22 49 44
22 48 44
22 49 44
22 49 44
22 49 44
22 48 44
20 45 41
20 45 41
20 44 40
20 45 42
20 45 42
20 45 41
20 44 41
20 45 42
20 45 41
21 46 42
21 47 43
20 45 41
21 46 42
21 46 42
20 45 41
20 45 42
20 44 41
20 44 41
20 45 41
20 45 41
20 45 41
20 45 41
21 46 42
20 44 41
21 46 42
20 45 42
20 45 41
21 46 42
20 45 41
20 45 41
20 45 41
21 46 42
21 46 42
20 44 41
20 45 41
20 45 41
21 46 42
21 46 42
21 47 42
20 45 41
21 46 42
20 45 41
21 46 42
21 46 42
21 46 42
21 47 43
21 46 42
21 46 42
21 46 42
21 46 42
21 46 42
21 46 42
20 45 41
21 45 41
20 45 41
21 47 43
21 46 42
21 46 42
21 46 42
21 47 43
20 45 41
21 46 42
21 47 43
22 48 44
21 47 43
21 46 42
21 46 42
21 46 42
21 46 42
21 47 42
21 46 42
21 47 43
21 47 43
22 48 44
21 46 42
21 46 42
22 48 44
21 47 43
21 47 43
21 47 43
21 47 43
21 47 43
21 47 43
21 47 43
21 46 42
21 46 42
21 46 42
21 46 42
22 48 43
22 48 44
21 47 43
21 47 43
21 47 43
22 48 44
21 47 43
21 46 42
22 47 43
22 48 44
22 48 43
22 48 44
22 48 43
22 48 43
21 47 43
22 47 43
22 47 43
22 49 44
22 48 43
22 48 44
22 48 43
22 49 44
22 49 44
22 48 44
22 48 44
22 48 43
21 47 42
22 47 43
21 47 42
22 48 43
22 49 44
22 48 44
20 45 41
20 45 41
20 44 41
20 45 41
20 45 41
20 45 41
20 45 41
20 45 41
20 45 41
20 45 41
20 45 41
20 45 41
20 45 41
20 44 40
21 46 42
20 45 41
21 46 42
20 45 41
20 45 41
20 44 41
21 47 43
21 46 42
20 45 41
21 46 42
20 45 41
21 46 42
21 46 42
20 45 42
20 44 41
20 45 41
20 45 41
21 46 42
20 45 41
21 47 43
20 45 41
20 45 42
21 46 42
21 47 43
21 46 42
21 46 42
21 46 42
21 47 43
21 46 42
20 45 41
21 47 43
21 46 42
20 45 41
21 46 42
21 47 43
21 45 42
21 45 42
21 47 43
20 45 41
20 44 41
21 47 43
21 47 43
21 47 42
21 46 42
21 46 42
22 48 44
21 47 43
21 46 42
21 46 42
21 47 43
21 47 43
21 45 41
21 46 42
21 46 42
21 47 43
21 47 43
21 46 42
21 47 43
22 48 43
22 48 44
21 47 43
22 48 44
21 47 43
21 47 43
22 49 44
20 45 41
21 46 42
21 46 42
22 47 43
21 47 42
21 47 43
21 47 43
21 47 43
21 46 42
22 48 44
21 47 43
22 49 45
22 49 44
22 48 43
22 49 44
22 48 44
22 48 44
22 48 44
22 48 43
22 48 43
21 47 42
22 48 44
21 47 42
22 48 43
22 48 44
22 48 44
22 48 44
22 48 43
22 49 44
22 49 45
22 48 43
22 48 43
23 50 45
21 47 42
22 49 44
21 47 42
22 48 44
22 49 44
22 49 44
22 49 44
22 48 44
20 45 41
20 44 41
20 45 41
21 46 42
21 46 42
20 45 42
21 46 42
20 45 42
20 45 42
20 44 41
21 47 43
21 46 42
21 46 42
20 44 41
20 45 41
20 44 41
20 45 41
21 46 42
21 46 42
20 45 42
20 45 41
21 46 42
20 44 40
20 45 41
20 45 41
21 46 42
21 46 42
21 46 42
21 45 42
20 45 42
21 47 43
21 46 42
21 46 42
20 45 42
21 46 42
21 45 41
22 48 44
20 45 41
21 47 43
21 47 43
20 45 41
21 46 42
21 46 42
20 45 41
21 46 42
21 47 43
21 46 42
21 46 42
21 46 42
21 46 42
20 45 41
21 45 41
21 46 42
20 45 41
21 46 42
21 45 41
21 46 42
21 46 42
21 47 43
21 47 42
21 46 42
22 48 44
21 46 42
21 47 43
22 48 44
21 46 41
22 49 44
21 47 42
21 47 43
21 46 42
21 46 42
21 45 41
22 48 44
22 47 43
21 47 43
21 47 43
21 46 42
21 46 42
21 47 43
22 48 43
22 48 44
22 48 44
21 47 42
21 47 43
21 47 43
21 46 42
21 47 43
21 47 43
22 48 44
21 47 42
21 47 43
21 47 43
22 48 43
21 47 43
20 45 41
22 49 45
22 48 44
22 47 43
21 47 42
21 47 43
22 49 45
22 49 44
21 47 43
21 47 43
22 48 44
22 48 44
22 49 44
22 48 43
22 47 43
22 48 44
22 48 43
21 47 42
22 48 44
22 49 45
22 49 45
22 48 44
23 50 45
22 49 44
21 47 42
22 49 44
20 45 42
20 44 40
20 45 41
21 46 43
20 45 41
21 46 42
20 44 40
20 44 41
20 45 42
21 46 42
21 46 42
20 45 42
20 45 41
21 46 42
20 45 41
20 45 41
20 45 41
20 45 42
21 47 43
21 46 42
20 45 41
21 46 42
21 46 42
20 44 40
20 45 41
19 43 40
21 45 42
21 46 42
21 46 42
21 46 42
20 45 41
21 46 42
21 46 43
21 46 42
21 47 43
20 45 42
20 45 41
21 47 43
21 47 43
21 46 42
21 46 42
21 46 42
21 45 41
21 47 43
21 46 42
21 46 42
21 46 42
21 46 42
21 46 42
21 47 43
21 47 43
21 47 43
21 46 42
21 46 42
21 47 43
21 47 42
21 46 42
20 45 41
21 46 42
21 46 42
20 45 41
21 47 43
21 47 43
21 47 43
21 47 43
21 47 43
21 47 43
21 47 42
22 48 44
21 47 43
21 46 42
21 47 43
21 46 42
21 47 43
21 47 43
20 45 41
22 48 43
22 48 44
22 48 44
22 47 43
21 47 42
22 47 43
21 47 43
22 48 44
21 47 43
22 48 43
21 46 42
22 48 43
22 48 44
22 48 43
21 47 43
21 47 43
21 46 42
21 47 43
21 46 42
22 48 43
22 48 43
22 48 44
21 47 43
22 48 43
22 49 45
22 47 43
21 47 42
22 48 44
22 48 44
22 47 43
22 49 45
22 48 44
22 49 44
22 48 44
22 48 44
22 48 44
22 49 44
22 49 44
21 47 43
22 49 45
22 48 44
22 49 45
22 49 45
22 48 44
20 44 40
20 45 41
20 45 42
20 45 41
21 46 42
20 46 42
20 45 41
21 46 42
20 45 41
21 46 42
21 46 42
20 45 42
21 46 42
21 46 42
20 44 41
20 45 41
21 46 42
20 45 41
20 45 41
20 45 41
21 46 42
20 45 41
20 44 41
21 46 42
21 46 42
21 46 42
20 44 40
21 47 43
20 45 41
20 45 41
21 46 42
21 46 42
21 47 43
21 46 42
21 46 42
21 46 42
21 47 43
20 45 42
21 46 42
21 46 42
21 47 43
20 45 41
21 46 42
20 45 41
21 45 42
21 46 42
21 46 42
21 46 42
21 46 42
21 46 42
21 46 42
21 46 42
21 46 42
21 45 41
21 46 42
21 46 42
21 47 43
22 48 44
22 48 43
22 48 44
21 46 42
21 46 42
21 47 43
21 46 42
21 47 43
22 48 43
22 48 44
22 47 43
22 48 44
21 47 42
22 47 43
21 47 43
21 47 43
21 47 42
21 47 42
22 48 43
21 46 42
22 48 43
21 47 43
21 47 43
21 46 42
21 47 43
22 48 43
21 46 42
21 47 42
21 47 43
21 47 43
21 47 43
22 47 43
21 46 42
21 47 43
21 47 43
22 48 44
22 48 44
22 48 43
22 47 43
21 47 42
22 49 45
21 47 43
22 48 44
22 48 44
22 48 44
22 49 44
22 48 44
22 48 44
22 48 44
22 48 44
22 49 44
22 48 44
22 49 45
22 48 44
22 49 44
22 48 44
23 49 45
22 48 44
22 48 44
22 49 44
22 48 43
22 47 43
21 46 42
20 45 41
21 47 43
20 45 42
20 45 41
21 46 42
21 46 42
20 45 41
21 46 42
21 46 42
20 45 42
21 46 42
20 45 41
20 44 41
20 45 41
21 46 42
20 44 41
20 45 41
20 45 41
21 46 42
21 46 42
21 46 42
20 45 41
21 47 43
21 47 43
21 46 42
21 46 42
21 45 42
20 45 41
20 45 42
21 46 42
21 46 42
20 45 41
20 45 42
21 45 42
21 47 43
21 46 42
21 46 43
21 46 42
21 46 42
21 46 42
21 46 42
21 46 42
21 47 43
21 46 42
21 46 42
21 46 42
21 46 42
20 45 41
21 47 43
21 46 42
21 45 42
21 47 43
21 46 42
20 45 41
21 47 43
21 46 42
21 47 43
21 47 43
21 46 42
21 47 43
21 47 43
22 48 44
21 46 42
21 46 42
21 46 42
21 47 43
21 47 42
21 46 42
22 48 44
22 47 43
21 46 42
21 46 42
21 47 43
22 48 44
21 47 43
21 46 42
21 45 41
22 48 44
22 48 44
21 47 43
21 47 43
22 48 44
21 47 43
22 48 44
21 47 42
22 49 45
21 47 43
21 46 42
21 46 42
21 46 41
21 46 42
22 48 44
21 47 43
22 49 45
22 47 43
21 47 43
22 48 43
21 47 43
22 48 43
22 47 43
22 47 43
21 46 42
22 48 43
21 47 43
22 48 44
22 48 44
22 48 43
22 49 44
22 48 44
21 47 43
22 48 44
22 48 44
21 46 42
21 47 43
23 49 45
22 48 44
22 48 44
22 48 44
22 47 43
22 49 44
20 44 41
20 45 42
20 44 41
21 46 42
20 45 41
20 45 41
21 46 42
20 43 40
20 45 41
21 46 43
20 44 41
20 45 41
20 45 41
20 45 42
20 44 41
20 45 41
20 45 41
20 45 41
20 45 41
20 45 41
21 46 42
20 44 41
20 45 42
20 45 41
20 45 41
21 47 43
21 47 43
20 45 41
21 46 42
20 44 41
20 45 41
20 45 41
21 45 42
22 48 44
21 47 43
21 46 42
21 46 42
20 45 41
20 45 41
20 45 41
21 46 42
21 47 43
21 47 43
21 47 43
21 45 41
21 45 42
21 47 43
20 45 41
21 47 43
21 46 42
21 46 42
20 45 41
21 46 43
21 47 43
21 47 43
21 46 42
21 47 43
21 46 42
21 46 42
21 46 42
21 47 43
21 46 42
22 48 43
21 47 43
21 47 43
21 47 43
21 46 42
21 46 42
21 47 42
21 47 43
21 47 43
21 47 42
21 46 42
21 47 43
21 47 42
21 46 42
21 47 42
21 47 43
21 47 43
21 47 43
22 48 43
21 47 43
21 47 43
21 46 42
22 47 43
21 47 43
21 47 43
22 48 44
22 48 44
22 48 44
21 47 43
21 47 43
21 47 43
21 47 43
21 47 42
21 47 43
21 47 43
22 48 43
22 48 44
22 48 44
22 48 43
21 47 43
21 47 42
21 46 42
22 48 43
22 48 44
21 47 42
21 47 43
21 47 43
22 49 44
22 48 43
21 47 43
22 48 43
21 47 43
22 49 44
22 47 43
21 47 42
22 48 44
22 49 44
21 46 42
21 46 42
20 44 41
20 44 41
20 44 41
20 45 41
20 45 41
20 44 41
20 45 41
20 45 42
20 45 42
21 46 42
20 44 40
21 46 42
20 45 41
21 46 42
21 47 43
20 45 41
21 47 43
21 46 42
20 45 41
20 45 41
20 45 41
21 47 43
20 45 41
21 46 42
20 45 41
21 47 43
21 47 43
20 45 42
20 45 41
21 46 42
21 47 43
21 46 42
21 47 43
21 46 42
22 47 43
21 46 42
21 47 43
21 46 42
21 47 43
20 45 41
21 46 42
21 46 42
21 46 42
20 45 41
21 47 43
21 46 42
22 48 44
20 45 41
21 46 42
21 47 43
21 47 43
21 46 42
21 47 43
21 46 42
21 47 43
21 47 43
20 45 41
21 45 41
21 46 42
21 46 42
21 47 43
21 46 42
21 46 42
21 47 43
21 46 42
22 48 44
21 47 43
21 46 42
22 48 44
21 46 42
21 47 43
22 47 43
22 47 43
21 47 43
21 47 43
22 48 43
21 46 42
21 47 43
21 47 43
21 46 42
22 49 44
22 48 44
22 49 44
21 46 42
21 47 43
22 48 43
22 48 43
22 47 43
22 49 44
22 49 44
22 48 44
22 47 43
22 48 43
21 46 42
21 47 43
22 48 44
21 47 43
22 48 44
22 48 43
22 48 44
22 48 43
21 47 42
22 48 44
22 48 44
22 49 44
22 48 44
21 46 42
22 48 43
22 48 44
22 49 44
22 48 43
22 48 43
22 47 43
22 48 44
22 48 44
22 49 44
22 49 44
23 50 45
22 49 44
21 46 42
20 45 41
20 44 40
20 45 42
21 46 42
20 44 40
20 45 41
21 46 42
21 46 42
21 46 42
20 45 42
21 46 42
20 45 42
20 44 41
21 46 42
21 46 42
20 45 41
20 45 41
21 47 43
21 46 42
21 46 42
21 46 42
20 45 42
21 46 42
20 44 41
20 44 41
20 45 41
21 46 42
20 45 41
21 47 43
20 45 41
21 46 42
20 45 41
21 46 42
21 46 42
20 44 41
21 47 43
21 46 42
21 46 42
21 47 42
21 45 42
21 46 42
20 45 41
20 45 41
22 48 44
21 46 42
21 46 42
21 46 42
21 45 42
21 46 42
21 45 41
21 46 42
21 46 42
21 46 42
21 46 42
22 48 43
21 47 43
21 46 42
21 47 43
21 47 43
21 46 41
20 45 41
21 47 43
22 47 43
21 47 43
21 46 42
21 47 43
21 46 42
21 45 41
21 47 43
21 46 42
21 46 42
21 46 42
22 47 43
22 48 44
21 46 42
21 47 43
21 47 43
21 46 42
21 46 42
21 47 43
21 47 43
21 47 43
21 47 43
22 48 44
22 48 44
21 46 42
21 46 42
21 47 43
21 47 43
22 47 43
22 48 43
21 47 43
22 48 43
21 47 42
22 48 44
22 48 44
21 47 43
22 47 43
22 48 44
22 48 44
22 48 44
22 48 44
22 48 43
21 47 43
21 46 42
21 46 42
22 48 43
21 47 43
21 46 42
22 48 44
21 47 43
22 48 44
22 48 44
21 47 43
22 48 44
22 48 44
22 48 43
22 48 44
23 50 46
20 44 40
20 44 40
20 45 41
21 46 42
20 45 41
21 46 42
21 46 42
20 45 41
21 46 43
20 44 41
20 45 41
20 45 41
20 45 41
21 46 42
20 45 41
20 45 42
20 45 41
21 46 42
20 45 41
20 45 41
21 47 43
20 45 41
21 46 42
21 46 42
21 47 43
21 46 42
21 46 42
21 47 43
21 47 43
20 45 41
21 46 42
20 45 41
21 46 42
21 46 42
21 46 42
21 46 42
21 46 42
21 46 42
21 46 43
20 45 41
20 45 41
20 45 41
22 48 44
21 47 43
21 47 43
21 47 43
21 46 42
21 46 42
21 46 42
20 45 41
21 46 42
21 47 43
21 47 43
21 46 42
21 47 43
21 47 43
20 45 41
21 47 43
21 46 42
21 46 42
21 47 43
21 46 42
21 45 41
21 47 43
21 46 42
21 47 43
21 46 42
21 46 42
21 46 42
21 46 42
21 47 43
21 47 43
22 48 44
21 46 42
21 47 43
22 48 43
21 47 43
21 47 43
21 47 43
22 48 44
22 48 44
22 48 44
21 47 43
22 48 44
22 47 43
22 48 43
21 47 43
21 47 42
21 47 42
22 48 43
22 47 43
21 47 43
22 48 43
22 47 43
21 47 43
21 47 43
22 49 45
21 47 43
22 48 44
21 47 43
22 49 45
21 47 43
21 47 43
21 47 43
22 48 44
22 47 43
22 48 44
22 48 44
21 47 42
22 48 44
22 48 44
22 48 43
21 47 43
21 47 43
22 48 44
22 47 43
22 49 44
22 48 44
22 47 43
22 48 43
20 44 41
20 44 41
21 46 42
21 46 42
20 45 42
21 46 42
21 46 42
20 45 41
20 44 40
20 45 41
20 46 42
20 44 40
20 44 41
20 45 42
20 45 42
20 45 41
21 47 43
20 45 41
20 44 40
20 45 41
20 45 41
21 46 42
21 47 43
21 46 42
21 46 42
21 46 42
20 45 41
20 45 42
20 45 41
21 46 42
20 45 41
21 46 42
21 46 43
20 44 41
21 45 42
21 46 42
21 46 42
21 45 42
20 45 41
21 46 42
20 45 41
20 45 41
21 47 43
21 47 43
20 45 41
21 46 42
21 46 42
21 46 42
20 45 41
20 45 41
21 47 43
20 45 41
21 46 42
21 46 42
21 47 43
21 47 43
21 46 42
21 45 41
21 46 42
21 47 43
21 46 42
21 47 43
21 46 42
21 47 43
20 45 41
21 46 42
21 45 41
21 47 43
22 48 43
21 46 42
21 46 42
21 46 42
21 46 42
21 47 43
21 47 43
21 47 43
21 46 42
21 47 43
21 46 42
21 47 43
21 47 43
21 46 42
21 47 43
22 48 43
21 47 43
21 46 42
21 46 42
21 46 42
22 48 44
21 47 43
22 48 44
22 47 43
22 48 44
20 45 41
21 47 42
22 47 43
22 48 44
22 48 44
21 47 43
21 47 43
22 47 43
22 47 43
22 48 43
22 48 43
22 48 44
22 48 44
21 47 43
22 48 43
22 48 44
22 48 43
22 49 44
22 48 44
22 49 44
22 47 43
21 47 43
22 49 44
21 47 43
22 47 43
23 50 46
22 47 43
20 45 41
20 44 40
21 46 42
20 45 41
20 45 41
20 44 41
20 45 41
20 45 42
21 46 42
20 45 42
20 45 41
20 44 40
20 45 41
20 45 41
20 44 41
20 45 41
21 46 42
20 45 42
20 44 41
21 46 42
21 46 42
20 45 41
20 45 41
21 46 42
21 46 42
21 45 42
21 46 42
21 45 41
21 46 42
20 45 41
20 44 41
21 46 42
21 47 43
21 46 42
21 46 42
21 46 42
21 46 42
21 46 42
21 47 43
20 45 42
21 47 43
21 46 42
21 46 42
21 46 42
21 46 42
21 46 42
21 47 43
20 44 41
21 46 42
21 47 43
21 47 43
21 46 42
21 46 42
20 45 41
21 47 43
21 47 43
21 46 42
21 45 42
21 46 42
21 46 42
21 47 43
21 47 43
21 46 42
21 47 43
21 47 42
21 47 43
21 47 43
21 46 42
21 47 43
21 47 43
21 46 42
20 45 41
21 46 42
21 47 43
21 46 42
21 47 43
21 47 43
22 48 44
21 47 43
22 47 43
21 47 42
21 46 42
21 46 42
22 48 43
21 47 43
21 46 42
22 47 43
21 46 42
22 47 43
22 48 43
21 47 43
21 47 43
22 48 43
21 47 43
22 48 44
21 47 43
22 48 43
22 47 43
22 49 44
22 49 44
22 48 44
21 47 43
22 48 44
22 48 44
21 47 43
21 47 43
22 49 44
22 48 43
21 46 42
21 47 43
21 47 43
22 49 44
21 47 43
22 48 44
21 47 43
22 47 43
22 49 44
22 48 43
22 48 44
22 48 43
20 46 42
20 44 41
20 45 42
20 45 42
20 45 42
21 46 42
20 44 41
20 45 41
20 44 40
20 44 40
20 45 42
20 45 41
20 45 41
21 46 42
20 44 41
20 44 40
20 45 41
21 46 42
20 44 40
21 46 42
21 46 42
21 46 42
20 45 41
21 46 42
21 47 43
21 46 42
21 46 42
21 47 43
20 44 41
21 46 42
20 44 40
21 46 42
21 46 42
20 45 41
21 47 43
21 46 42
20 45 41
20 45 41
21 46 42
20 45 41
20 45 41
21 47 43
20 44 41
21 46 42
21 46 42
21 46 42
20 45 41
21 46 42
21 46 42
21 47 43
21 46 42
21 46 42
21 46 42
21 46 42
21 47 43
21 47 43
21 46 42
21 46 42
21 47 43
21 46 42
21 46 42
20 45 41
21 46 42
21 46 42
21 46 42
21 47 43
21 47 42
21 47 43
21 46 42
21 47 43
21 46 42
21 47 43
21 47 43
21 47 43
21 47 42
22 48 43
21 46 42
21 47 43
21 46 42
22 48 44
21 46 42
21 47 43
22 48 43
21 46 42
21 46 42
21 47 43
21 47 42
21 46 42
21 46 42
21 46 42
21 46 42
21 46 42
21 47 43
22 48 44
21 47 42
21 47 43
22 49 44
22 48 44
21 45 41
21 46 42
22 48 43
22 48 43
22 48 44
22 48 43
22 48 43
22 48 43
21 47 43
21 47 43
22 47 43
21 47 43
21 46 42
21 47 43
22 48 43
22 47 43
22 49 44
21 47 43
21 47 43
22 49 44
22 48 44
22 48 44
20 45 41
20 43 40
21 46 42
21 47 43
21 46 42
20 45 41
20 45 41
20 45 41
20 45 41
21 46 42
20 45 42
21 47 43
20 45 41
20 44 40
20 45 41
21 47 43
20 45 41
21 46 42
20 45 41
21 46 42
20 45 41
20 45 42
21 46 42
20 45 41
20 45 41
21 46 42
20 44 40
20 45 41
21 46 42
21 46 42
20 44 40
21 46 42
20 45 41
21 46 42
21 47 43
20 45 42
21 46 42
21 46 42
21 46 42
21 47 43
21 46 42
21 47 43
21 47 43
21 47 43
21 46 42
21 46 42
20 45 41
21 46 42
21 46 42
21 47 43
21 46 42
21 46 42
21 46 42
22 47 43
21 47 43
21 47 43
21 46 42
20 45 41
21 47 43
21 46 42
21 47 43
20 45 41
21 47 43
21 46 42
22 47 43
21 45 41
21 46 42
21 45 41
21 46 42
21 46 42
21 47 43
21 46 42
21 47 43
21 46 42
21 46 42
21 47 43
21 46 42
21 46 42
22 48 44
22 47 43
21 47 43
22 47 43
21 46 42
21 47 43
21 47 42
21 47 43
21 46 42
21 46 42
22 47 43
21 47 43
21 47 43
21 47 43
22 48 44
22 48 43
22 47 43
21 46 42
22 48 44
21 47 43
21 47 43
21 47 43
22 48 43
22 48 43
21 47 43
22 47 43
22 48 43
22 49 44
21 47 43
22 49 45
22 48 43
21 47 42
22 48 44
22 48 43
21 47 43
21 47 43
22 48 44
22 48 44
22 48 44
22 48 44
22 48 43
22 49 45
20 44 40
21 46 42
21 46 42
21 46 42
21 46 42
20 45 42
20 45 42
21 47 43
20 45 41
20 44 40
20 45 41
20 45 41
20 44 41
20 45 41
20 45 41
20 45 41
20 45 41
20 44 41
20 45 41
21 46 42
21 46 42
21 46 43
21 46 42
20 45 41
21 46 42
21 46 42
20 45 41
20 45 41
21 46 42
21 46 42
21 46 42
20 45 41
21 45 42
21 46 42
21 47 43
20 45 41
21 45 42
21 46 42
20 45 41
21 46 42
20 45 41
20 45 41
21 46 42
20 45 41
21 47 43
20 45 41
21 47 43
21 46 42
20 45 41
21 46 42
20 45 41
21 46 42
20 45 41
21 47 42
22 48 44
21 47 43
21 46 42
21 47 43
21 46 42
21 47 43
21 47 42
21 47 43
21 47 43
21 47 43
21 46 42
21 47 43
21 46 42
21 47 43
21 46 42
21 46 42
21 47 43
21 47 43
21 47 42
22 48 44
21 47 43
22 48 43
21 47 42
21 47 43
21 46 42
21 46 42
22 48 43
21 47 43
21 47 43
21 47 42
21 46 42
21 46 42
21 47 43
21 46 42
21 47 43
21 46 42
21 47 43
22 48 43
21 46 42
21 47 43
21 47 43
21 47 43
22 48 44
21 46 42
22 48 43
23 50 45
21 47 43
22 48 43
21 46 42
22 48 43
21 47 42
22 48 43
22 48 43
21 45 41
22 48 43
21 47 43
22 48 43
22 48 43
22 49 44
22 49 45
22 48 43
22 49 44
21 47 43
22 47 43
22 48 44
22 48 44
20 45 41
20 45 42
20 45 42
20 45 41
20 46 42
21 47 43
20 45 41
20 44 40
20 44 41
20 45 41
20 44 41
20 44 40
21 47 43
20 45 41
20 45 42
20 45 41
20 45 41
20 44 41
20 45 41
20 45 41
21 46 42
21 46 42
21 45 42
21 46 42
20 44 41
21 47 43
21 46 42
21 46 42
21 46 42
20 45 41
21 46 42
20 45 41
20 45 41
21 46 42
20 45 41
21 47 43
21 46 42
20 44 41
21 46 42
21 46 42
21 46 42
21 46 42
22 49 45
21 46 42
21 46 42
21 46 42
21 45 42
20 45 41
21 46 42
21 47 43
20 45 41
21 46 42
21 45 42
20 45 41
21 47 43
20 45 41
21 46 42
21 46 42
21 47 43
21 47 43
21 46 42
21 46 42
22 48 44
21 46 42
22 48 44
22 49 45
21 46 42
21 47 43
22 48 44
21 47 43
21 46 42
21 45 41
21 46 42
22 48 44
22 47 43
21 47 43
21 47 43
21 46 42
21 47 43
21 47 43
20 45 41
21 46 42
21 47 43
21 47 43
21 46 42
21 47 43
21 46 42
22 48 44
22 48 43
22 48 44
21 46 42
21 47 43
21 47 43
22 49 44
21 46 42
22 47 43
21 47 43
21 46 42
22 48 43
22 48 44
21 47 42
22 48 44
21 47 42
22 48 43
23 50 45
22 48 44
22 48 44
22 49 44
22 48 44
22 48 44
21 47 43
21 47 43
22 48 44
22 47 43
23 50 45
22 49 44
21 47 43
22 48 44
22 48 43
21 47 43
21 46 42
20 45 41
21 46 43
20 45 42
20 44 41
20 45 41
21 46 42
21 46 42
21 46 43
21 46 42
21 46 42
20 44 41
21 46 42
20 45 41
21 46 42
21 47 43
20 45 41
20 45 41
20 44 41
21 46 42
20 45 41
20 45 42
20 45 41
20 45 41
21 46 42
21 45 42
21 46 43
21 46 42
21 47 43
21 46 43
20 45 42
21 46 42
21 46 42
21 46 43
21 46 42
20 45 41
21 46 42
21 47 43
20 45 41
20 45 41
21 46 42
21 47 43
21 47 43
20 45 41
21 47 43
21 46 42
21 46 42
21 47 43
21 47 43
21 46 42
21 46 42
21 46 42
21 46 42
21 46 42
21 47 43
21 47 43
21 47 43
21 47 43
21 46 42
21 46 42
21 45 41
21 46 42
21 46 42
21 46 42
21 47 43
21 47 43
22 48 43
21 47 43
21 46 42
21 45 41
21 47 43
21 47 43
21 46 42
21 47 43
21 47 43
22 48 44
22 49 44
21 46 42
21 46 42
21 46 42
21 47 43
22 48 43
22 48 43
21 47 43
21 47 43
22 48 44
22 49 44
22 48 44
22 49 44
22 48 43
22 48 44
21 47 43
22 47 43
21 47 43
21 47 42
22 48 44
22 48 43
22 49 44
21 46 42
21 46 42
22 47 43
22 48 43
22 48 44
22 48 43
22 49 44
21 47 43
22 48 44
22 48 43
22 48 44
22 48 44
22 48 44
22 47 43
22 48 44
21 47 42
22 48 44
23 50 45
22 49 44
22 48 44
21 47 43
22 48 44
20 45 42
20 44 40
21 46 42
20 45 41
20 44 40
20 44 41
21 46 42
20 45 41
20 45 41
21 46 42
20 45 42
20 45 41
21 47 43
21 46 42
21 46 42
21 46 42
21 46 42
20 45 41
21 46 42
21 46 42
21 46 42
20 45 41
21 47 43
21 47 43
21 46 42
21 46 42
21 46 42
21 45 42
21 45 41
21 47 43
21 47 43
20 45 41
21 46 42
20 45 41
21 46 42
21 47 43
21 46 42
20 45 41
21 46 42
20 44 40
21 46 42
20 45 41
21 47 43
21 45 42
21 46 42
21 45 42
20 45 41
21 47 43
21 46 42
21 46 42
21 46 42
21 47 43
21 46 42
21 47 43
21 46 42
21 47 43
21 46 42
21 46 42
21 46 42
21 46 42
21 47 43
20 44 40
21 47 43
21 47 43
21 46 42
21 46 42
22 48 44
21 45 41
21 47 43
21 47 43
22 48 44
21 46 42
21 47 43
21 47 43
21 47 43
21 47 43
21 47 42
21 47 43
21 47 43
22 48 43
21 47 43
21 47 43
22 47 43
21 46 42
21 47 42
21 46 42
21 46 42
21 47 43
21 46 42
22 48 43
21 47 43
21 47 43
22 49 44
22 48 44
22 48 43
21 46 42
21 47 43
21 47 43
22 48 43
21 47 43
21 47 43
22 48 43
21 47 42
21 47 43
21 47 43
22 48 44
22 48 44
22 48 44
21 47 42
21 47 42
22 48 43
22 49 45
22 48 43
21 47 43
22 48 44
21 47 43
22 48 44
22 48 44
22 49 45
21 47 43
21 46 42
21 45 42
20 45 42
21 47 43
20 44 41
20 45 42
20 44 40
21 45 42
20 45 41
20 45 41
20 45 41
19 43 40
20 45 41
20 45 41
20 45 41
20 45 41
20 45 42
20 45 41
20 45 42
21 46 42
20 45 42
21 46 42
21 46 42
20 45 41
20 45 41
21 45 42
21 46 42
21 46 42
21 46 42
21 46 42
21 46 42
21 47 43
21 47 43
20 45 41
21 46 42
20 45 41
20 45 41
21 46 42
21 46 42
21 46 42
21 46 42
21 47 43
20 45 41
21 46 42
21 46 42
21 46 42
20 45 41
21 46 42
21 46 42
20 45 41
21 47 43
21 46 42
21 46 42
21 45 42
22 48 44
21 47 43
21 47 43
21 47 43
21 46 42
21 47 43
21 45 41
22 48 43
20 45 41
21 47 43
21 46 42
21 46 42
21 47 43
21 46 42
21 46 42
21 46 42
21 47 43
21 46 42
22 48 44
22 48 43
21 47 43
21 45 41
21 47 43
20 45 41
21 47 42
22 48 43
21 47 43
23 50 45
21 47 43
21 46 42
21 47 43
21 47 43
21 47 43
21 46 42
21 47 43
21 47 43
21 47 43
22 48 44
21 46 42
21 46 42
21 47 43
22 48 44
22 48 43
21 47 43
21 47 43
22 48 43
22 48 43
22 48 43
22 47 43
22 48 44
21 47 43
21 47 43
22 48 43
22 48 44
22 48 44
21 47 43
22 48 44
22 47 43
22 48 44
22 48 44
22 48 43
22 48 43
22 48 43
21 47 42
21 46 42
22 47 43
21 46 42
21 46 42
21 46 42
20 45 41
20 45 41
21 47 43
21 46 42
20 45 41
20 44 40
20 44 41
21 46 42
20 44 40
21 46 42
20 45 42
21 46 42
21 45 42
20 44 41
20 45 41
20 45 41
20 45 41
20 45 41
21 46 42
20 44 41
20 44 40
21 46 42
20 45 41
20 45 41
21 46 42
21 46 42
20 45 41
21 46 42
21 45 42
21 45 42
21 46 42
20 45 41
21 46 42
20 44 41
21 47 43
21 47 43
20 45 41
21 46 42
21 46 42
21 46 42
21 45 42
20 45 41
20 45 41
21 47 43
21 47 43
21 45 41
20 45 41
21 46 42
20 44 41
21 46 42
21 45 41
20 45 41
21 47 43
21 46 42
21 47 43
21 47 42
21 46 42
21 46 42
21 46 42
21 46 42
20 45 41
21 46 42
21 47 43
21 46 42
21 46 42
21 46 42
21 47 43
22 48 44
22 48 44
21 47 43
21 47 43
21 47 43
21 47 43
22 47 43
21 47 43
21 47 43
21 46 42
22 48 44
21 46 42
21 47 43
22 48 44
22 48 43
22 48 43
21 46 42
22 48 44
22 48 44
21 47 43
21 47 43
21 47 43
21 46 42
21 47 42
21 47 42
21 47 42
22 48 44
22 48 43
21 47 43
22 48 43
22 47 43
22 48 43
22 47 43
21 47 43
21 46 42
21 46 42
22 48 44
21 46 42
22 48 44
22 48 44
22 47 43
22 48 43
21 47 43
22 48 43
21 47 43
22 49 44
22 48 44
22 48 43
21 47 43
22 49 45
20 45 42
19 43 40
21 46 42
20 45 41
20 44 40
20 46 42
21 46 42
21 46 42
20 45 41
20 44 41
21 46 42
20 45 41
20 44 41
20 45 41
21 47 43
20 45 41
20 45 41
20 45 42
21 46 42
21 45 42
21 47 43
21 46 42
20 45 41
21 47 43
20 45 41
20 45 41
20 45 41
20 45 42
20 44 41
21 46 42
21 45 41
21 46 43
21 45 42
21 46 42
21 46 42
21 47 43
21 47 43
20 45 41
21 46 42
21 46 42
21 46 42
21 46 42
20 45 41
20 45 42
21 46 42
21 46 42
21 46 42
21 46 42
21 46 42
21 46 42
21 46 42
21 46 42
21 47 43
21 47 43
21 46 42
21 46 42
20 45 41
21 46 42
21 46 42
21 46 42
21 47 43
21 47 43
21 47 43
21 47 43
21 46 42
21 47 43
21 46 42
21 46 42
21 46 42
21 46 42
22 48 44
22 48 44
21 46 42
21 47 43
22 48 44
21 46 42
21 47 43
21 47 43
21 47 43
21 47 42
21 46 42
21 47 43
21 47 42
21 47 43
21 47 42
22 48 43
21 47 43
21 47 42
21 47 42
21 46 42
22 48 44
21 46 42
21 46 42
21 47 43
22 47 43
22 48 44
21 46 41
21 47 43
21 47 43
21 47 43
22 49 44
21 46 42
21 46 42
21 47 43
22 48 44
22 48 44
22 47 43
22 48 44
22 48 44
21 47 43
21 46 42
21 46 42
21 47 43
22 49 44
22 48 44
22 48 44
22 48 44
22 47 43
22 49 44
21 47 43
20 44 41
21 46 42
21 46 42
20 45 41
20 44 40
20 45 41
20 45 42
20 45 41
20 44 40
20 44 41
21 47 43
20 46 42
20 44 40
20 45 41
20 45 41
20 44 41
21 46 42
21 46 42
20 45 41
21 46 42
20 45 41
20 45 41
20 45 41
21 46 42
20 45 42
21 46 42
20 45 41
20 44 41
20 45 41
21 47 43
21 46 42
21 47 43
21 46 42
21 46 42
21 46 42
21 47 43
21 46 42
21 46 42
20 45 41
21 47 43
21 46 42
21 47 43
20 45 41
20 45 42
21 46 42
21 46 42
21 45 41
20 45 41
21 45 41
21 47 43
21 46 42
20 45 41
21 46 42
21 47 43
21 46 42
21 46 42
21 47 43
21 46 42
21 47 43
21 46 42
21 46 42
21 46 42
21 47 43
22 48 44
21 47 43
21 47 43
21 47 42
20 45 41
21 46 42
21 46 42
21 46 42
21 47 43
21 47 43
22 48 44
21 47 43
21 46 42
21 46 42
21 46 42
21 47 42
21 47 43
21 46 42
21 46 42
21 47 43
22 48 43
21 47 43
21 46 42
21 47 43
22 48 43
21 46 42
22 48 44
22 48 43
21 47 43
21 47 42
21 47 43
22 48 44
22 49 44
21 47 43
21 47 42
21 47 43
21 47 42
21 47 43
22 48 43
22 47 43
22 48 44
21 46 42
22 47 43
22 48 43
22 48 43
22 47 43
21 47 43
21 47 43
22 49 44
22 48 44
22 47 43
22 48 44
22 49 44
22 48 43
21 46 42
21 46 42
22 48 44
20 45 41
21 46 42
22 48 44
21 46 42
21 46 42
21 46 42
20 45 41
20 45 42
21 46 42
20 45 42
20 45 41
20 45 41
20 45 41
20 44 41
20 45 42
20 45 42
20 45 41
21 46 43
20 45 41
21 46 42
21 46 42
20 45 42
20 44 41
21 47 43
20 45 42
21 46 42
21 46 42
20 45 41
20 45 41
20 45 42
20 45 41
20 44 40
21 46 42
21 47 43
21 46 42
21 46 42
21 46 42
21 46 42
21 46 42
21 46 42
20 45 41
20 45 41
21 46 42
21 46 42
21 47 43
21 46 42
21 46 42
21 46 42
21 46 42
20 45 41
21 46 42
21 47 43
21 46 42
21 46 42
21 46 42
21 46 42
21 47 43
21 45 41
20 45 41
21 47 43
21 47 43
21 46 42
21 47 43
21 47 42
22 48 44
21 47 43
21 46 42
21 46 42
21 47 42
21 47 43
21 46 42
22 48 44
21 46 42
21 47 43
21 47 42
22 49 44
22 48 44
21 47 43
21 46 42
21 46 42
21 46 42
22 48 44
21 46 42
21 46 42
21 46 42
21 47 43
21 47 43
23 50 46
21 47 43
22 48 44
22 47 43
21 46 42
21 47 43
22 47 43
22 48 43
21 46 42
22 48 44
22 48 44
22 48 44
22 47 43
21 46 42
21 47 43
21 46 42
22 49 44
21 47 43
22 49 45
21 47 43
22 47 43
21 47 43
21 46 42
21 47 43
21 46 42
22 48 43
22 49 44
22 48 44
21 47 43
21 47 43
22 47 43
22 49 44
22 49 45
20 45 42
20 44 41
20 44 40
21 46 42
20 45 41
21 46 42
20 44 41
20 45 41
20 45 42
20 45 41
20 45 41
20 45 41
20 45 41
21 46 42
21 46 42
20 45 41
21 46 42
21 46 42
20 45 41
20 45 42
20 45 41
21 46 43
20 45 42
20 45 41
21 46 42
20 45 41
20 45 41
20 44 40
20 45 41
20 45 41
20 45 41
21 46 42
20 45 41
21 47 43
21 46 42
21 46 42
21 45 42
21 46 42
21 46 42
20 44 41
21 47 43
21 46 42
21 46 42
21 46 42
21 47 43
21 45 42
21 46 42
21 46 42
21 45 41
21 46 42
21 46 42
21 46 42
20 45 41
21 46 42
21 46 42
21 46 42
20 45 41
22 48 44
20 45 41
21 46 42
21 46 42
21 46 42
20 45 41
21 46 42
21 46 42
21 46 42
21 47 43
21 46 42
21 46 42
21 47 43
21 47 42
21 46 42
21 46 42
21 46 42
21 46 42
21 47 43
21 47 43
22 48 44
22 48 43
22 48 44
21 46 42
20 45 41
21 46 42
21 46 42
22 48 44
21 46 42
21 47 43
21 47 43
21 46 42
21 45 41
21 47 43
22 48 44
21 45 41
23 50 45
22 48 44
21 47 43
21 46 42
21 47 42
21 47 43
21 46 42
22 48 43
21 47 43
21 47 43
22 48 43
21 46 42
21 47 43
21 47 43
21 47 43
21 47 43
21 46 42
21 47 43
21 47 43
22 47 43
21 47 42
22 48 43
22 48 43
22 48 43
21 46 42
22 48 43
22 48 44
21 46 42
19 43 39
21 46 42
21 45 42
20 45 42
20 44 40
20 45 41
21 46 43
20 45 41
20 43 40
21 47 43
21 46 43
21 46 42
21 46 42
20 45 41
20 45 42
20 44 41
20 45 41
21 46 42
21 45 42
21 46 42
21 46 42
21 46 42
21 46 42
21 46 42
20 44 41
21 45 42
21 45 42
20 44 41
21 46 42
20 45 41
20 45 41
21 46 42
20 45 41
21 46 42
21 46 42
21 46 42
21 46 42
21 46 42
20 45 41
21 46 42
21 47 43
21 46 42
21 47 43
21 45 42
21 46 42
20 45 41
21 46 42
21 46 42
21 45 42
22 48 43
21 47 43
20 45 41
21 47 43
21 46 42
21 47 43
21 45 41
21 46 42
21 46 42
21 47 43
21 47 43
21 47 43
22 48 43
21 47 43
21 46 42
21 47 43
21 45 42
21 47 43
21 46 42
21 46 42
22 48 44
21 47 43
21 46 42
21 47 43
21 46 42
21 46 42
21 46 42
21 47 43
21 46 42
21 46 42
21 47 43
21 47 43
21 47 43
21 47 43
21 46 42
21 47 43
21 47 43
22 47 43
22 48 43
21 47 43
21 47 43
21 47 43
21 47 43
21 47 42
22 48 44
21 45 41
22 48 43
22 48 44
21 47 43
22 48 43
21 47 43
22 47 43
21 47 43
21 47 43
21 46 42
21 47 43
21 47 43
22 48 43
21 47 43
21 46 42
21 47 43
21 47 43
21 47 43
22 48 43
22 49 44
22 47 43
22 47 43
21 47 43
21 47 43
21 46 42
20 45 42
21 46 43
20 44 40
20 45 42
20 44 41
20 45 42
20 45 41
20 45 42
21 46 42
20 45 41
20 45 41
20 45 41
20 44 40
20 44 40
21 46 42
21 46 42
20 45 41
20 44 40
20 45 41
20 45 42
21 46 42
20 45 41
21 46 42
20 45 41
21 46 42
21 46 42
20 45 41
21 47 43
20 44 41
20 45 41
21 46 42
21 47 43
20 44 41
20 45 41
21 47 43
21 47 43
20 45 41
20 44 41
21 45 42
21 45 42
22 48 44
21 46 42
20 45 42
21 46 42
21 47 43
21 46 42
21 47 43
20 44 40
21 47 43
21 46 42
21 46 42
21 47 43
20 45 41
21 46 42
20 45 41
21 46 42
21 46 42
20 45 41
21 47 43
21 47 43
21 47 42
21 46 42
20 45 41
21 46 42
20 45 41
21 46 42
21 45 41
22 48 44
21 46 42
21 46 42
21 46 42
21 46 42
21 47 43
21 46 42
21 47 43
21 47 43
21 47 43
21 45 41
21 47 43
21 47 43
21 47 43
21 47 43
22 48 44
22 48 43
22 48 44
22 48 44
21 46 42
22 48 43
22 48 44
21 47 43
21 47 42
21 45 41
21 47 43
21 47 43
21 47 43
22 49 45
21 47 42
21 47 43
22 48 44
21 47 43
21 46 42
22 48 44
21 46 42
22 48 44
21 47 43
21 46 42
22 48 44
21 46 42
21 46 42
22 48 43
22 48 43
22 49 44
22 49 44
21 46 42
22 47 43
22 48 44
21 47 43
22 48 44
22 49 44
22 47 43
20 44 40
20 45 41
20 44 41
20 45 41
20 45 42
20 45 42
20 44 40
20 45 41
20 45 42
21 46 43
21 46 42
20 45 41
20 45 41
20 45 41
21 46 42
21 46 43
21 46 42
21 45 42
20 45 41
20 45 41
21 47 43
20 45 41
21 46 42
21 46 42
21 47 43
20 45 42
21 46 42
20 45 42
21 46 42
21 46 42
20 44 41
21 47 43
20 45 42
21 46 42
21 46 42
21 46 42
20 45 41
21 47 43
21 46 42
21 47 43
20 45 41
21 46 42
20 45 42
20 45 41
21 46 42
21 46 42
20 45 41
20 44 40
21 46 42
21 47 43
21 46 42
21 46 42
21 46 42
22 48 43
22 48 43
20 45 41
21 45 42
21 46 42
21 47 43
21 47 43
21 46 42
21 46 42
21 47 43
21 46 42
21 47 43
21 46 42
20 45 41
20 45 41
22 48 43
21 47 43
22 48 44
21 47 43
22 49 44
22 48 44
21 46 42
21 46 42
20 45 41
21 47 43
21 46 42
21 47 43
21 47 43
21 47 43
21 47 42
21 47 43
21 47 43
21 47 42
21 46 42
22 48 44
21 46 42
21 46 42
22 48 44
21 46 42
21 46 42
21 47 43
21 46 42
21 46 42
22 47 43
22 49 44
21 47 43
21 47 43
21 47 43
22 47 43
21 47 43
22 48 43
22 48 44
21 47 43
21 46 42
21 47 43
21 47 43
21 47 43
22 48 43
21 46 42
22 48 44
22 48 44
21 47 43
22 48 44
22 49 44
22 48 43
22 47 43
22 48 43
20 44 41
20 45 41
20 45 41
20 45 41
20 44 41
20 45 41
21 46 42
20 44 40
20 45 41
20 45 41
20 45 41
21 46 42
21 47 43
21 47 43
20 45 41
20 44 41
21 46 42
21 46 42
20 45 42
20 45 42
20 45 41
21 46 42
20 45 41
21 47 43
20 45 41
21 45 42
21 46 43
21 45 42
20 45 41
21 46 42
21 46 43
20 44 41
20 44 40
21 46 42
20 45 41
21 46 42
21 46 42
21 46 42
21 45 42
21 46 42
20 45 41
21 47 43
20 44 41
21 46 42
21 46 42
20 44 41
21 46 42
21 45 42
21 46 42
21 46 42
21 46 42
21 47 43
21 46 42
21 46 42
21 47 43
20 45 41
21 47 43
21 46 42
21 47 43
21 46 42
21 46 42
21 47 42
21 47 43
21 46 42
21 46 42
21 47 43
21 46 42
21 46 42
20 45 41
21 46 42
21 46 42
21 46 42
21 47 43
21 46 42
21 47 43
21 47 43
21 46 42
21 46 42
21 47 42
21 46 42
22 48 44
22 48 44
21 47 43
21 46 42
22 48 44
22 47 43
21 46 42
21 47 43
21 47 43
21 45 41
21 46 42
21 46 42
21 47 42
21 46 42
21 47 43
22 48 44
21 46 42
22 48 44
22 48 43
21 47 43
21 46 42
21 47 43
21 47 43
21 47 43
22 47 43
21 47 43
23 50 45
21 46 42
22 49 45
22 48 43
22 48 43
21 47 43
22 48 43
21 46 42
21 46 42
22 49 44
21 47 43
21 47 43
21 47 43
22 49 44
20 44 41
20 45 42
20 45 41
20 45 41
20 44 41
20 45 41
20 45 41
20 43 40
20 44 40
21 46 42
21 46 42
20 45 42
20 45 42
20 45 41
20 45 41
21 46 42
20 45 41
21 46 42
20 45 41
20 45 42
21 46 42
21 47 43
21 47 43
21 45 42
20 45 41
20 45 41
20 45 41
21 46 42
21 47 43
21 46 42
21 45 42
21 47 43
21 46 42
20 45 42
20 45 41
20 44 41
20 45 41
21 46 42
21 47 43
21 46 42
20 45 41
21 46 42
21 46 42
20 45 41
21 46 42
20 45 41
21 46 42
21 46 42
21 46 42
20 45 41
20 45 41
21 46 42
20 45 41
21 45 41
21 46 42
21 46 42
21 46 42
21 46 42
21 46 42
20 45 41
21 47 43
21 46 42
20 45 41
21 46 42
20 45 41
21 46 42
21 47 43
22 50 45
21 46 42
21 46 42
21 47 43
21 47 43
21 47 43
21 47 43
21 47 43
21 46 42
22 48 43
21 45 42
20 45 41
21 47 43
21 46 42
21 47 42
21 47 43
22 49 44
21 47 42
21 46 42
21 46 42
21 47 43
21 46 42
21 47 43
21 46 42
22 48 44
21 46 42
20 45 41
21 46 42
21 47 43
21 46 42
20 45 41
21 46 41
21 47 43
22 48 43
21 47 43
22 47 43
21 47 43
21 46 42
21 47 43
22 48 44
21 47 43
22 48 44
21 47 42
21 47 43
22 49 44
22 48 43
21 47 43
22 48 43
21 47 43
21 47 43
21 46 42
22 47 43
22 48 43
