P3
120 80
255
16 36 35
16 37 35
15 35 34
15 36 35
16 37 36
16 36 35
16 37 36
16 37 35
16 37 35
15 36 35
16 38 36
16 36 35
16 36 35
15 35 34
15 36 34
15 36 35
16 37 35
16 37 35
16 36 35
16 37 35
16 37 35
16 38 36
16 36 35
16 36 35
16 37 36
16 36 35
16 37 36
16 37 36
16 37 36
16 37 35
16 37 36
16 37 35
16 36 35
16 36 35
16 37 35
16 37 35
16 37 35
15 36 34
15 36 34
16 37 36
15 36 35
16 36 35
16 36 35
16 37 35
15 35 34
16 36 35
16 37 35
16 37 35
16 37 35
16 36 35
16 37 35
15 36 35
16 36 35
16 37 35
15 36 35
16 36 35
16 37 35
15 36 35
16 37 35
16 36 35
16 37 35
16 37 35
16 36 35
16 37 35
15 36 35
16 37 35
16 37 35
15 36 34
15 36 34
16 37 35
15 36 35
16 37 35
16 36 35
16 37 35
16 36 35
16 36 35
16 36 35
16 37 35
16 37 35
16 36 35
16 37 35
16 36 35
16 37 35
16 37 35
15 36 35
16 36 35
16 37 35
16 37 35
16 36 35
16 37 35
16 36 35
16 37 35
16 37 36
15 36 35
15 35 34
15 36 35
15 36 34
16 37 35
15 36 35
16 36 35
16 37 35
16 37 35
15 36 35
15 36 34
16 37 35
15 36 34
16 36 35
16 37 36
16 36 35
16 37 35
16 37 35
16 37 35
16 36 35
16 36 35
16 37 35
15 36 34
15 36 34
16 37 35
15 36 34
16 37 35
15 36 35
16 37 35
16 37 36
16 36 35
16 36 35
16 37 35
16 37 35
16 37 35
16 36 35
16 37 35
16 37 35
16 37 35
15 36 34
15 36 34
16 37 35
16 36 34
16 36 35
15 36 35
16 37 35
16 37 35
16 36 35
16 36 35
15 36 34
16 36 35
16 38 36
16 36 35
16 36 35
16 36 35
16 37 36
16 37 36
16 38 36
16 37 35
16 36 35
16 37 35
16 37 35
16 37 35
16 37 35
16 37 35
16 37 35
16 36 35
16 36 35
16 37 35
16 37 36
16 37 35
15 36 35
16 36 35
16 36 35
15 35 33
15 36 35
16 37 35
15 36 35
16 37 35
16 37 36
16 36 35
16 36 35
16 37 35
16 37 36
16 37 35
16 37 35
16 36 35
15 36 35
16 36 35
16 37 35
16 37 35
15 36 35
16 37 36
16 36 35
16 38 36
16 37 35
16 36 35
16 37 35
16 36 35
16 37 35
16 37 35
15 36 34
16 37 35
16 36 35
16 37 35
16 37 36
16 37 35
16 37 35
16 36 35
16 37 35
16 36 35
16 37 36
16 37 36
16 37 35
16 37 36
16 37 35
16 37 35
15 36 34
15 36 34
16 36 35
16 37 35
15 36 34
16 37 35
16 37 35
15 36 35
16 37 35
16 37 35
16 37 35
16 37 35
16 36 35
16 37 35
16 36 35
16 37 35
16 37 36
16 37 35
16 36 35
16 36 35
16 37 36
16 37 35
16 38 36
16 37 35
16 36 35
16 37 35
16 37 35
16 36 35
16 37 36
16 36 35
16 36 35
16 36 35
16 37 35
16 36 34
17 39 37
16 37 36
16 37 35
16 37 35
16 37 35
16 37 36
16 37 35
16 37 35
16 37 36
16 38 36
16 37 35
16 37 35
16 37 35
16 37 36
16 37 36
16 36 34
16 36 34
16 37 35
16 37 35
16 37 35
16 37 36
16 36 35
16 36 35
16 36 35
16 37 35
16 38 36
16 37 35
16 37 35
16 37 35
16 36 35
16 37 36
15 36 34
16 37 36
16 37 35
16 36 35
16 37 35
16 37 35
16 36 34
16 37 35
15 36 34
16 36 35
16 36 35
16 37 35
16 37 35
16 37 35
16 38 36
16 37 35
16 37 35
16 36 35
16 37 35
16 37 35
16 36 35
16 38 36
16 38 36
16 37 35
16 37 36
16 37 36
17 38 37
16 37 35
16 38 36
16 37 35
16 37 35
15 36 34
16 37 35
15 36 34
16 37 35
16 37 35
16 37 35
16 36 35
16 36 35
16 37 35
16 36 35
16 37 35
16 37 36
16 37 36
16 37 35
16 36 34
16 38 36
16 37 35
16 37 35
16 36 35
16 37 35
16 37 36
16 37 36
16 37 36
16 37 35
16 37 35
16 37 35
16 37 36
16 37 35
16 37 36
16 37 35
16 38 36
16 37 35
16 37 35
16 36 35
16 36 35
16 38 36
16 36 35
16 38 36
16 37 35
16 37 35
15 36 34
16 37 36
16 36 35
16 38 36
16 37 35
16 38 36
16 38 36
16 37 35
16 37 35
15 36 34
16 36 35
16 37 35
16 38 36
16 38 36
16 38 36
16 36 35
16 37 35
16 38 36
16 37 35
16 37 35
16 37 35
16 38 36
16 37 35
16 38 36
16 37 35
16 37 35
16 37 35
16 37 35
16 37 35
16 37 36
16 37 35
16 37 35
16 37 35
16 37 35
16 38 36
16 37 35
16 37 35
16 37 35
16 37 36
16 38 36
16 38 36
16 37 36
16 37 36
16 38 36
16 37 35
16 37 36
16 38 36
16 38 36
16 37 36
16 37 35
16 37 36
16 37 36
16 37 35
16 37 35
16 38 36
16 37 35
16 37 35
16 37 35
16 37 35
16 38 36
16 37 36
16 37 36
16 38 36
16 37 36
16 38 36
16 36 35
16 36 35
16 36 35
16 37 35
16 36 35
16 37 35
16 37 35
16 37 35
16 37 35
16 37 35
16 38 36
16 36 34
16 38 36
15 36 34
16 37 35
16 37 35
16 36 35
16 37 35
16 36 35
16 37 36
16 38 36
16 37 35
16 37 36
16 37 35
16 36 35
16 36 35
16 37 35
16 37 35
16 38 36
16 37 35
16 37 35
17 38 37
16 36 35
16 37 35
16 38 36
16 37 35
16 38 36
16 37 35
16 37 35
16 38 36
16 37 35
16 37 36
15 35 34
16 37 36
16 37 35
16 37 36
17 38 37
16 37 36
16 37 35
16 37 36
16 37 35
16 37 35
16 36 35
16 37 35
16 36 35
16 37 35
15 36 35
16 37 35
16 37 35
16 37 35
16 38 36
16 36 35
16 37 36
16 36 35
16 37 35
16 37 35
16 37 36
16 37 35
16 37 35
16 38 36
16 38 36
16 37 35
16 37 36
16 37 35
16 38 36
16 37 35
16 38 36
16 37 35
16 37 35
16 37 35
16 37 35
16 38 36
16 38 36
16 37 35
16 37 35
16 38 36
16 38 36
16 37 35
16 38 36
16 38 36
16 37 35
16 37 35
16 37 35
16 38 36
16 38 36
16 38 36
16 38 36
16 37 35
16 37 35
16 38 36
16 38 36
16 38 36
17 39 37
16 38 36
16 38 36
16 38 36
16 38 36
16 38 36
16 37 36
16 38 36
16 37 35
16 38 36
16 37 35
16 37 35
16 37 35
16 38 36
16 37 35
16 37 35
16 37 36
16 37 35
16 37 36
16 37 35
16 37 35
16 37 36
16 37 36
16 38 36
16 38 36
16 37 35
16 38 36
16 37 36
16 38 36
16 37 35
16 38 36
16 37 36
16 37 35
16 36 35
16 38 36
16 37 35
16 37 35
16 37 35
16 38 36
16 38 36
16 37 35
16 37 35
16 37 35
16 37 35
16 37 35
16 38 36
16 38 36
16 37 35
16 36 35
16 38 36
16 37 35
16 38 36
16 37 35
16 37 35
16 37 35
16 37 35
16 37 35
16 38 36
16 37 36
16 37 36
16 36 34
16 37 35
16 38 36
16 37 36
16 37 35
16 37 36
16 37 35
16 37 35
16 37 35
16 37 35
16 36 35
16 37 35
16 37 35
16 38 36
16 37 35
16 38 36
16 36 35
17 39 37
16 37 36
16 37 35
16 37 36
16 37 36
16 37 35
16 37 35
16 37 36
16 36 34
16 38 36
16 37 35
16 37 35
16 37 35
16 38 36
16 38 36
16 38 36
16 37 35
16 37 35
16 38 36
16 37 35
16 37 36
16 37 35
16 38 36
16 37 35
16 37 35
17 39 37
16 36 35
16 38 36
16 38 36
16 38 36
16 37 36
16 38 36
16 38 36
16 37 35
16 37 36
16 37 35
17 38 37
16 37 35
16 37 35
16 38 36
16 38 36
16 38 36
16 38 36
16 38 36
16 38 36
16 38 36
16 38 36
16 37 35
16 37 35
16 37 35
16 37 36
16 37 36
16 37 35
16 38 36
16 37 35
17 38 36
17 38 37
16 38 36
16 37 36
17 38 37
16 38 36
16 38 36
17 38 36
16 37 36
16 37 36
16 37 36
16 37 36
16 37 36
16 38 36
16 38 36
16 38 36
16 36 35
17 38 36
16 37 35
17 38 36
16 37 35
16 37 35
16 37 36
16 37 36
16 38 36
16 38 36
16 37 36
16 37 35
16 37 35
16 38 36
17 38 36
16 38 36
16 38 36
16 38 36
16 37 35
17 38 36
16 38 36
16 38 36
16 37 35
16 38 36
17 38 36
16 37 35
16 38 36
16 37 36
16 38 36
16 37 36
17 38 36
16 37 36
16 38 36
16 37 35
16 37 35
16 37 35
16 37 36
16 37 35
17 38 36
16 38 36
16 37 36
17 39 37
16 38 36
17 38 36
17 38 37
16 37 36
16 37 35
16 37 35
16 37 36
16 37 35
16 37 36
16 38 36
16 38 36
16 37 36
16 37 35
17 38 37
16 37 36
16 36 35
16 38 36
16 37 36
16 37 35
16 37 35
17 39 37
16 37 36
16 37 35
16 37 35
16 37 35
16 37 35
17 39 37
16 37 35
17 38 36
16 37 35
16 37 35
17 38 36
16 38 36
16 37 35
16 37 35
16 37 35
16 38 36
16 37 36
17 39 37
16 37 36
17 38 37
17 39 37
17 38 36
17 38 37
16 38 36
16 37 35
16 38 36
17 38 36
16 37 36
17 38 36
16 38 36
17 38 36
16 38 36
17 39 37
16 38 36
17 39 37
17 38 37
16 38 36
16 38 36
16 38 36
16 37 36
16 37 35
16 37 36
16 38 36
16 37 35
16 38 36
16 38 36
16 37 35
16 36 35
16 38 36
16 38 36
17 39 37
17 38 36
16 37 36
16 37 35
16 38 36
16 38 36
17 39 37
17 38 36
16 38 36
16 37 35
16 37 35
16 37 36
16 37 35
16 37 36
17 38 36
17 39 37
17 39 37
16 37 35
16 37 36
16 38 36
16 37 35
16 37 35
16 37 36
16 37 35
16 37 36
16 38 36
16 38 36
17 38 37
16 38 36
16 37 35
16 37 35
16 37 36
16 38 36
16 38 36
16 38 36
17 39 37
16 37 35
16 38 36
16 37 35
16 37 35
17 38 36
16 38 36
16 37 35
17 38 36
16 37 36
16 37 36
16 38 36
16 38 36
16 36 35
16 37 35
16 37 36
17 38 36
16 38 36
16 37 35
17 38 36
16 38 36
16 38 36
16 38 36
16 37 35
16 38 36
16 38 36
16 38 36
16 37 36
16 38 36
16 38 36
16 38 36
16 37 36
16 37 35
16 37 35
16 37 36
16 37 35
16 38 36
17 38 36
16 37 35
16 37 35
16 37 35
16 38 36
16 37 36
16 37 35
16 38 36
17 38 36
16 38 36
17 39 37
17 39 37
16 38 36
17 39 37
16 38 36
16 37 36
16 37 36
17 38 36
16 38 36
16 37 35
16 37 36
17 38 36
16 37 36
16 38 36
17 38 36
16 38 36
17 39 37
16 38 36
16 37 35
17 38 36
16 37 35
17 38 37
16 38 36
16 38 36
17 38 36
17 38 36
16 38 36
17 39 37
16 37 35
16 37 35
16 38 36
17 39 37
17 38 36
16 38 36
17 38 36
17 39 37
17 39 37
16 38 36
16 37 35
16 38 36
17 38 36
16 38 36
16 38 36
16 37 35
16 38 36
17 38 36
16 38 36
16 38 36
16 38 36
16 38 36
16 38 36
17 38 36
16 38 36
17 38 37
17 38 37
16 38 36
16 37 35
16 38 36
17 39 37
16 38 36
16 38 36
16 38 36
16 37 35
16 37 35
16 38 36
16 37 35
16 37 35
16 38 36
16 38 36
17 39 37
16 38 36
16 38 36
17 39 37
16 38 36
16 38 36
17 38 36
17 38 36
16 38 36
16 38 36
16 37 36
16 38 36
17 38 36
17 38 36
16 37 36
17 38 37
17 38 36
17 38 36
16 37 35
16 38 36
16 37 35
16 36 34
16 37 35
16 37 35
17 38 36
16 37 36
16 38 36
16 38 36
17 38 36
16 37 36
16 38 36
17 39 37
16 37 35
16 38 36
16 38 36
16 38 36
17 38 36
17 39 37
16 37 35
16 38 36
17 38 36
17 38 36
16 38 36
17 38 36
16 37 36
16 38 36
16 38 36
16 38 36
17 38 36
16 38 36
17 38 36
17 39 37
17 38 36
17 38 36
16 37 36
16 38 36
17 38 36
17 38 36
17 38 36
17 39 37
16 38 36
17 39 37
17 38 37
16 38 36
17 39 37
16 38 36
16 38 36
17 38 36
16 37 35
16 38 36
17 39 37
17 38 36
16 37 35
17 38 36
17 39 37
17 38 36
16 37 35
17 38 36
16 38 36
17 38 36
16 38 36
17 39 37
17 38 36
17 40 38
16 38 36
17 38 36
16 37 36
16 37 35
17 38 36
17 38 36
17 39 37
17 38 36
16 37 35
17 38 36
17 39 37
17 38 36
17 38 36
17 38 36
17 38 36
17 38 36
17 38 36
16 38 36
16 38 36
16 38 36
17 38 36
17 39 37
17 38 36
16 37 36
17 39 37
16 38 36
16 38 36
16 38 36
17 38 36
17 38 36
17 38 36
17 38 36
17 38 36
17 38 36
17 38 36
17 39 37
17 38 36
16 37 35
16 37 35
17 38 37
16 38 36
16 38 36
17 39 37
17 38 36
17 39 37
16 38 36
16 38 36
17 38 36
16 38 36
17 38 36
16 37 35
16 38 36
16 38 36
17 39 37
17 38 36
17 39 37
17 38 36
17 39 37
16 38 36
16 38 36
17 38 36
16 38 36
17 39 37
17 38 37
17 38 36
17 38 36
17 39 37
17 39 37
17 38 36
17 38 36
16 38 36
17 38 36
16 37 35
17 39 37
16 38 36
16 37 36
16 38 36
17 38 36
17 38 36
17 38 36
17 38 36
17 39 37
16 38 36
16 37 35
17 39 37
17 39 36
17 39 37
17 38 36
17 39 37
16 38 36
16 38 36
17 38 36
16 38 36
17 38 36
17 39 37
17 39 37
17 39 37
17 38 36
16 38 36
17 39 37
16 38 36
17 39 37
17 39 36
17 39 37
17 38 36
17 38 36
17 38 36
17 39 37
17 39 37
16 37 35
17 38 36
17 39 37
16 38 36
16 38 36
17 39 37
16 38 36
17 38 36
17 39 37
17 39 37
16 38 36
17 39 37
17 39 37
17 38 36
16 38 36
17 38 36
17 38 36
17 40 38
17 40 37
17 39 37
16 38 36
17 38 36
17 39 37
17 38 36
16 38 36
17 39 37
16 38 36
16 38 36
17 39 37
16 38 36
17 38 36
17 39 37
17 38 36
17 39 37
17 38 36
17 39 36
17 39 37
16 38 36
17 39 37
17 39 37
17 39 37
17 39 37
16 38 36
17 39 37
17 38 36
17 38 36
17 38 36
17 39 37
17 39 37
17 38 36
16 38 36
17 39 37
17 38 36
16 38 36
17 38 36
17 38 36
16 38 36
17 40 38
17 39 37
17 39 37
17 40 37
17 38 36
17 39 37
17 39 37
17 38 36
17 38 36
17 39 37
17 38 37
16 38 36
17 38 36
17 38 36
17 39 37
17 39 37
17 38 36
16 38 36
17 39 37
17 38 36
17 38 36
16 38 36
17 38 36
17 38 36
17 39 37
17 38 36
16 37 35
17 38 36
16 38 36
17 38 36
17 39 37
17 38 36
17 39 36
17 38 36
17 39 37
17 38 36
17 38 36
17 38 36
17 38 36
17 39 37
17 38 36
17 39 36
17 38 36
17 39 36
17 38 36
17 38 36
17 38 36
16 38 36
17 38 36
17 38 36
17 38 36
17 39 37
17 38 36
17 38 36
17 38 36
17 39 37
17 39 37
17 39 37
17 39 37
17 40 37
17 38 36
16 38 36
17 39 37
17 39 37
17 38 36
17 38 36
17 38 36
17 39 37
17 38 36
17 38 36
17 38 36
17 39 37
17 39 37
16 38 35
16 38 36
17 38 36
17 38 36
17 38 36
17 39 36
17 39 36
17 39 37
17 39 37
16 38 36
17 40 38
17 39 37
16 38 35
17 39 37
17 39 37
17 38 36
17 38 36
17 39 37
17 39 37
16 38 36
17 39 37
17 39 37
17 38 36
16 38 36
17 39 37
17 40 38
17 39 37
17 39 37
17 39 37
17 39 37
17 38 36
17 38 36
17 38 36
17 39 37
17 39 37
17 38 36
17 39 37
17 38 36
17 39 36
16 38 36
16 38 36
17 39 37
17 40 37
17 38 36
16 38 36
17 39 36
17 38 36
17 39 37
17 39 36
17 39 37
17 40 37
17 38 36
17 39 36
17 38 36
17 39 37
17 39 37
17 38 36
17 39 37
17 38 36
17 38 36
17 38 36
17 38 36
17 38 36
16 37 35
17 38 36
17 39 37
17 39 36
17 38 36
17 39 37
17 39 37
17 39 36
17 38 36
17 38 36
17 39 37
17 39 37
17 39 37
17 38 36
17 38 36
16 37 35
17 38 36
17 39 36
17 38 36
17 39 37
17 39 37
17 39 37
17 39 37
17 39 36
17 38 36
17 39 37
17 38 36
17 40 37
17 39 37
17 38 36
17 39 37
17 38 36
17 39 37
17 39 37
17 38 36
17 38 36
17 39 37
17 39 37
17 38 36
17 39 37
17 39 37
17 39 37
17 39 37
17 38 36
17 39 37
17 38 36
17 38 36
16 38 36
17 39 37
17 39 37
17 39 37
17 39 37
17 39 37
17 39 36
17 39 37
17 39 37
17 38 36
17 38 36
17 39 37
17 39 37
16 37 35
17 39 37
17 39 36
17 39 37
17 39 37
17 39 37
17 39 37
17 40 37
17 40 38
17 38 36
17 40 37
17 39 36
17 39 37
17 39 37
17 39 37
17 39 37
17 39 37
17 38 36
17 38 36
17 39 37
17 39 37
17 39 37
17 39 36
16 38 35
17 39 37
17 40 38
17 40 37
17 39 37
17 38 36
17 40 37
17 39 37
17 39 37
17 38 36
17 39 37
17 38 36
17 40 37
17 39 37
17 39 37
17 39 37
17 39 37
17 39 37
17 39 37
17 39 37
17 39 37
17 39 36
17 39 37
17 39 37
17 39 37
17 38 36
17 39 37
17 39 37
17 39 37
17 39 37
17 39 37
17 38 36
17 39 37
17 39 37
17 39 37
17 39 37
17 39 37
17 39 37
17 39 37
17 39 37
17 39 37
17 39 37
17 40 37
17 39 37
17 39 37
17 39 37
17 39 37
17 38 36
17 39 37
17 38 36
17 39 37
17 39 37
17 39 37
17 38 36
17 38 36
17 38 36
17 39 36
17 39 36
17 39 36
17 39 37
17 39 37
17 39 37
17 38 36
17 40 37
17 40 38
17 39 37
17 39 37
17 39 37
17 38 36
17 39 36
17 39 37
17 39 37
17 39 37
17 39 37
17 39 37
17 39 37
17 39 37
17 40 38
16 38 36
17 39 37
17 39 37
17 40 38
17 39 37
17 39 37
17 39 37
17 39 37
17 38 36
17 39 36
17 40 38
17 40 38
17 40 37
17 39 36
17 39 37
17 38 36
17 39 37
18 40 38
17 39 37
17 40 37
16 38 36
17 39 37
17 40 38
17 40 38
17 39 37
17 39 37
17 40 37
17 39 37
17 39 37
17 40 37
16 38 36
18 40 38
17 39 37
17 39 37
17 39 37
17 39 37
17 39 37
18 40 38
17 39 36
17 39 37
17 39 36
17 39 37
18 40 38
17 38 36
17 39 37
17 39 37
17 40 37
17 38 36
17 39 37
17 39 37
18 40 38
17 39 37
17 38 36
17 40 37
17 39 37
17 40 38
17 39 37
17 40 38
17 39 36
18 40 38
16 38 36
17 39 37
17 39 37
17 39 37
17 40 37
17 39 37
17 39 37
17 40 37
17 38 36
17 40 37
17 40 38
17 39 37
17 39 37
17 39 37
17 39 37
17 39 37
17 39 37
17 40 38
17 40 37
17 39 37
17 40 38
17 39 37
17 39 37
17 38 36
17 39 37
17 39 37
17 39 37
17 38 36
17 38 36
17 39 37
17 39 37
17 39 37
17 38 36
17 40 38
17 39 37
17 40 37
17 40 37
17 39 37
17 39 37
17 39 37
17 40 38
17 39 37
17 39 37
17 40 38
17 39 37
17 39 37
17 39 37
17 38 36
17 38 36
17 38 36
17 39 37
17 39 37
17 39 37
17 38 36
17 39 37
17 39 37
17 40 37
17 39 37
17 39 37
17 39 37
17 38 36
17 40 37
17 39 37
17 40 37
18 40 38
17 39 37
17 40 37
17 40 37
17 39 37
17 39 37
18 40 38
17 40 37
17 39 37
17 39 36
17 39 37
17 39 36
17 39 37
17 39 37
17 40 38
17 39 37
17 40 37
17 39 37
17 39 37
17 40 37
17 39 37
17 39 37
17 39 37
17 38 36
17 40 37
17 39 37
17 40 38
17 39 37
18 40 38
17 39 37
17 39 37
17 40 38
18 40 38
17 40 37
17 39 37
17 40 38
17 40 37
17 39 37
17 39 36
17 39 37
17 39 37
17 39 37
17 40 37
17 40 37
17 40 37
17 39 37
17 40 37
18 40 38
18 40 38
17 40 37
17 39 37
17 39 37
17 39 36
18 40 38
17 39 37
17 40 37
17 39 36
17 39 37
17 38 36
18 40 38
18 40 38
17 39 37
17 39 37
18 40 38
17 40 37
17 38 36
17 39 37
17 39 36
17 38 36
17 40 37
17 39 37
17 40 37
17 39 37
17 40 37
17 40 37
17 39 37
17 39 37
18 40 38
18 40 38
18 40 38
17 39 37
17 40 37
17 40 37
17 40 38
17 39 37
17 40 37
17 39 37
17 39 36
17 40 37
17 39 37
17 39 37
17 39 37
17 40 37
17 39 37
17 40 37
17 40 37
17 39 37
17 38 36
17 39 36
17 40 37
18 40 38
17 38 36
17 40 37
17 39 37
17 39 37
17 38 36
17 39 37
17 39 37
18 40 37
17 39 37
17 39 37
17 39 37
17 40 37
17 39 37
17 40 37
17 39 37
17 40 37
17 39 37
17 39 37
17 39 37
17 39 37
17 40 37
17 39 37
17 39 37
17 39 37
17 40 37
17 39 37
18 40 38
17 39 37
18 40 38
18 40 38
17 39 36
17 40 37
17 39 37
17 39 37
17 39 37
17 39 37
18 40 38
17 39 36
17 39 37
17 39 37
17 40 37
17 40 37
17 39 37
17 40 37
17 39 37
17 40 37
17 40 37
17 39 37
17 39 37
18 40 38
17 39 37
17 39 37
18 41 38
17 39 37
17 40 38
18 40 38
18 40 38
18 40 38
18 40 38
17 40 37
17 40 37
17 39 37
18 40 38
17 39 37
17 39 36
17 39 37
17 39 37
18 41 38
17 39 37
18 40 38
17 39 37
17 39 37
18 40 38
17 39 37
17 39 37
17 40 37
17 39 37
17 40 37
17 40 37
18 40 38
17 40 37
17 40 37
18 40 38
17 40 37
17 39 37
17 39 37
17 40 37
17 39 37
18 40 38
17 40 37
17 40 37
18 40 38
18 40 37
17 39 36
17 39 36
17 40 38
18 40 38
17 39 37
18 40 38
18 40 38
17 39 37
17 40 37
17 40 38
17 40 37
17 39 37
17 40 37
18 40 38
17 40 38
17 40 37
17 39 37
18 40 38
17 39 37
17 40 37
18 40 38
18 40 38
18 40 38
17 40 37
17 40 37
18 40 37
18 40 38
17 39 37
17 39 37
18 40 38
17 40 38
18 40 38
18 40 38
17 40 38
18 41 38
17 39 37
17 39 37
17 39 37
18 40 38
17 39 37
18 40 38
18 40 38
18 40 38
17 39 37
17 40 37
18 41 38
18 40 38
18 41 39
17 39 37
18 41 38
17 39 36
17 39 36
18 40 38
18 40 38
18 40 38
17 38 36
17 39 37
17 39 36
18 41 38
18 40 38
18 40 38
17 39 37
18 40 38
17 39 37
17 39 37
18 41 38
18 40 38
18 41 38
18 40 38
18 40 38
18 40 38
18 40 38
18 41 38
18 41 38
17 40 37
17 40 37
17 39 36
18 40 38
18 40 38
18 41 38
17 39 37
18 40 38
18 40 38
17 40 37
18 40 38
18 40 38
17 39 37
17 40 37
18 40 37
17 39 37
17 39 37
18 40 38
17 39 37
18 40 38
18 40 38
18 40 38
17 40 37
17 40 38
17 40 37
18 40 38
18 40 38
17 39 37
17 40 37
18 41 38
18 40 38
17 40 37
17 39 37
18 41 39
18 40 38
18 40 38
18 40 38
18 40 38
18 40 38
17 39 37
18 40 38
18 40 37
17 39 37
17 39 36
18 40 38
17 40 37
18 40 38
17 40 37
17 39 36
17 40 37
18 41 38
18 41 38
17 40 37
17 39 37
17 40 37
17 40 37
18 40 38
17 39 36
17 39 37
17 39 37
17 40 37
17 39 37
17 40 37
18 40 38
18 40 38
18 40 38
17 40 37
18 40 38
18 40 38
17 39 37
17 39 37
17 39 36
17 40 37
18 41 38
17 39 37
18 40 38
18 41 39
18 40 38
18 40 38
18 40 38
18 40 38
18 41 38
17 39 37
18 41 38
17 39 37
18 41 38
18 40 38
18 41 38
17 40 37
18 41 38
17 40 37
17 39 37
18 41 38
18 40 38
18 40 38
18 40 38
18 40 38
18 40 38
18 40 38
18 41 38
18 40 38
18 41 38
17 40 37
18 41 38
18 41 38
17 40 37
17 40 37
18 40 38
18 40 38
17 40 37
17 40 37
17 40 37
17 40 37
17 40 37
18 41 38
18 40 38
17 40 37
18 41 38
18 40 38
18 41 38
17 40 37
18 40 38
17 39 37
18 41 39
18 40 38
18 40 38
17 40 37
18 41 39
18 40 38
18 40 38
17 39 36
18 40 38
18 40 38
18 41 38
18 40 37
18 40 38
17 40 37
18 41 38
18 41 38
18 40 38
17 39 36
18 40 37
18 40 38
18 41 38
18 40 37
18 40 38
18 41 38
17 39 37
17 39 37
17 39 37
18 40 37
17 40 37
18 40 38
17 40 37
18 40 37
18 40 38
17 40 37
18 40 38
18 40 38
18 41 38
18 40 38
18 41 38
17 40 37
18 41 39
17 39 37
18 41 39
18 41 38
18 41 38
17 39 37
18 42 39
18 40 38
18 41 39
18 40 38
18 41 38
17 40 37
18 41 38
18 40 38
18 40 38
17 40 37
17 39 36
17 39 37
17 39 37
17 39 37
17 39 37
18 40 37
18 41 38
18 40 37
18 41 39
18 40 38
17 40 37
18 40 38
18 40 38
17 39 37
18 40 38
17 39 37
18 40 38
17 40 37
17 39 36
18 41 38
17 39 36
17 39 36
18 40 38
18 40 38
18 40 38
18 40 38
18 40 38
18 41 38
18 40 38
17 40 37
18 40 38
18 40 38
18 41 38
18 40 38
18 40 38
18 41 38
18 40 38
18 40 38
18 40 38
18 41 38
17 40 37
18 40 37
18 41 38
18 41 38
18 41 38
17 39 37
18 40 38
18 41 39
18 40 38
18 40 38
18 41 38
18 41 38
18 41 38
17 40 37
17 40 37
18 41 38
18 40 37
18 40 38
17 40 37
18 40 38
18 40 37
18 40 38
18 41 38
18 40 38
18 42 39
17 39 36
18 40 38
18 40 38
18 41 38
18 42 39
17 40 37
18 40 38
18 40 37
18 40 38
18 40 38
18 41 39
18 41 38
18 41 38
18 41 39
18 41 38
18 40 37
18 41 38
18 41 38
18 41 38
19 42 39
18 41 38
18 40 38
18 40 38
18 40 38
18 41 38
18 41 38
17 39 37
18 41 39
18 40 38
18 41 38
18 41 38
18 41 38
18 40 38
18 40 38
18 41 38
18 40 38
18 40 38
18 40 38
18 41 38
18 40 38
18 41 38
18 40 38
18 41 38
18 41 39
18 41 38
18 40 38
18 40 38
18 41 38
18 40 38
18 41 39
18 40 37
18 41 38
17 39 37
17 39 37
17 40 37
18 40 38
17 40 38
18 41 38
18 40 37
17 40 37
18 40 37
17 39 37
18 40 38
18 40 38
18 41 39
17 39 37
18 40 37
18 41 39
18 41 39
18 41 38
18 40 37
18 40 37
18 41 38
17 40 37
17 40 37
18 40 38
18 41 38
18 41 38
17 39 37
19 42 39
18 41 38
18 41 38
18 40 38
18 42 39
18 41 38
18 41 38
18 40 38
18 40 37
18 41 38
18 41 38
18 41 38
18 41 38
18 40 38
18 41 38
18 40 38
18 40 37
18 40 38
18 41 38
18 40 38
18 40 38
18 41 38
18 41 38
18 40 38
18 40 38
18 40 38
17 40 37
18 41 39
18 41 38
18 40 37
18 41 38
18 41 38
18 40 37
18 40 38
18 41 38
18 41 38
18 40 38
18 40 38
18 40 37
18 41 38
18 41 39
18 41 39
18 41 38
18 41 38
18 41 38
18 41 39
18 41 38
18 41 38
18 40 38
18 41 38
18 40 38
18 41 38
18 41 39
18 40 38
18 40 38
18 40 38
18 41 39
18 40 38
18 41 38
18 41 38
18 40 38
18 41 38
18 40 37
18 41 38
18 41 39
18 41 38
18 41 38
18 40 37
18 41 38
18 40 38
18 41 38
18 41 38
18 41 39
18 40 37
18 40 37
18 41 38
18 41 39
18 41 38
18 41 38
18 41 38
19 42 39
18 40 37
18 41 38
18 40 38
18 41 38
17 40 37
18 41 39
18 41 38
18 41 38
18 41 38
18 41 38
18 40 37
18 41 38
18 41 39
18 40 37
18 41 38
18 41 38
18 40 38
18 40 38
18 41 38
18 40 38
18 40 38
18 40 38
18 40 37
18 40 38
18 41 38
18 41 38
18 40 38
18 40 38
18 40 38
18 41 38
18 41 38
18 40 37
18 41 39
18 41 38
17 40 37
18 41 38
18 41 38
18 41 38
18 41 38
18 40 38
18 40 38
18 40 37
18 40 38
18 40 38
18 41 38
18 41 38
18 40 38
18 41 38
18 41 38
17 40 37
18 41 38
18 41 38
18 40 38
18 41 38
18 42 39
18 42 39
18 40 37
18 40 38
18 42 39
18 40 38
18 41 38
18 41 39
18 42 39
18 40 38
18 41 38
18 42 39
18 41 38
18 41 39
18 41 39
18 41 38
18 40 37
18 41 39
18 41 38
18 41 38
18 41 39
18 41 38
18 40 37
18 41 38
18 41 39
18 41 38
18 40 37
18 41 39
18 42 39
18 41 38
18 41 38
18 40 37
18 41 38
18 41 38
18 40 38
18 41 39
18 40 38
18 42 39
18 40 37
18 41 38
18 41 38
18 41 38
18 41 38
18 41 38
18 42 39
18 40 37
18 40 37
18 40 38
18 41 38
19 42 39
18 40 38
18 41 38
18 41 38
18 42 39
18 41 38
18 41 38
17 40 37
18 41 39
18 41 38
18 41 38
18 42 39
18 41 38
18 41 39
18 40 38
18 41 38
18 41 38
18 41 39
18 42 39
18 41 39
18 41 38
18 42 39
18 41 39
18 41 38
18 41 38
18 41 39
18 42 39
18 40 38
18 41 38
18 42 39
18 40 38
18 40 37
18 40 38
18 40 37
18 41 38
18 41 38
18 41 38
18 41 38
18 40 38
18 40 38
18 40 38
18 41 38
18 40 38
18 40 38
18 40 38
18 42 39
18 41 38
18 40 37
18 41 38
18 41 38
18 41 38
18 41 39
18 41 38
18 41 38
18 40 37
18 41 39
18 41 38
18 42 39
18 41 38
18 41 38
18 41 39
18 41 38
18 41 38
18 41 38
18 41 39
18 40 38
18 42 39
18 41 38
18 41 38
18 42 39
19 42 40
18 41 38
18 42 39
18 42 39
18 41 39
18 41 39
18 41 38
18 42 39
18 40 38
18 41 39
18 42 39
18 41 38
18 41 38
18 42 39
18 41 38
18 41 38
19 43 40
18 41 38
18 40 38
19 43 40
19 42 39
19 42 39
18 41 38
18 41 38
18 41 39
18 41 38
18 41 38
18 42 39
18 41 39
19 43 40
18 41 38
18 41 38
18 41 39
19 42 39
19 43 40
18 41 39
18 41 38
18 41 38
19 42 39
19 42 39
18 41 38
18 41 38
18 40 37
18 41 38
18 40 38
18 41 39
19 42 39
18 41 38
18 41 39
19 42 39
18 42 39
18 42 39
18 41 39
18 41 39
19 42 39
19 42 39
18 41 38
19 42 39
19 42 39
18 41 38
18 41 38
18 41 38
18 40 38
19 42 40
18 40 37
18 41 38
18 41 38
18 41 38
18 41 38
18 42 39
19 42 39
18 40 38
18 42 39
18 41 38
19 42 39
18 41 38
18 41 39
18 42 39
18 42 39
18 40 37
18 41 38
18 40 38
18 41 38
18 41 38
18 41 39
18 42 39
18 41 39
18 41 38
18 41 38
18 41 38
18 42 39
18 41 39
18 41 38
18 41 38
18 41 38
18 41 38
18 41 39
18 41 39
18 40 37
18 41 38
18 41 39
18 41 38
18 42 39
18 41 38
18 40 37
19 42 39
19 42 39
18 41 39
18 41 38
18 41 38
18 41 38
18 41 38
18 41 39
19 42 39
18 41 38
18 42 39
18 41 38
18 41 38
19 42 39
18 41 39
18 42 39
18 40 38
18 41 39
18 41 38
18 41 39
18 41 38
19 43 40
18 42 39
19 42 39
19 42 39
18 41 38
19 42 39
18 42 39
19 42 39
18 42 39
18 41 39
19 42 39
19 42 39
19 42 39
19 42 39
18 41 39
18 41 38
19 42 39
19 42 39
19 42 39
18 41 39
18 42 39
18 42 39
19 42 39
18 41 38
19 43 40
18 41 39
19 42 39
19 42 39
18 42 39
19 44 41
18 40 37
19 43 40
18 42 39
18 41 38
18 40 37
19 43 40
18 41 38
18 41 38
18 41 38
18 41 38
18 42 39
19 42 39
19 43 40
18 42 39
18 41 38
19 42 40
18 42 39
19 42 39
19 42 39
18 41 38
19 42 39
18 41 38
19 42 39
19 42 39
19 43 40
19 42 40
19 43 40
18 41 38
19 42 39
18 42 39
18 41 38
18 41 38
19 43 40
18 41 38
18 41 38
19 43 40
18 42 39
18 41 38
18 41 38
19 42 40
19 42 39
18 42 39
19 42 39
18 41 38
18 41 38
18 42 39
18 41 38
18 41 39
18 41 38
18 41 38
18 41 38
18 41 38
18 41 38
18 40 38
18 41 38
18 41 38
18 40 38
18 41 39
18 42 39
18 41 38
18 40 38
18 41 38
18 41 39
19 42 39
18 41 38
18 40 38
19 42 39
18 41 38
18 41 39
18 41 38
19 42 39
18 42 39
18 41 38
18 41 39
19 42 39
18 42 39
18 41 38
18 41 38
19 42 39
18 41 38
19 42 39
18 41 38
19 42 39
19 42 39
19 43 40
18 42 39
18 41 38
18 42 39
19 42 39
19 42 39
19 42 39
19 43 40
19 42 39
19 42 39
18 41 39
19 42 39
18 41 38
19 42 39
18 42 39
19 42 39
19 42 39
19 42 39
19 42 39
18 41 38
18 41 38
18 41 39
19 42 39
18 41 38
19 42 39
19 43 40
19 42 39
18 41 38
18 42 39
19 42 39
18 41 38
19 43 40
19 43 40
19 42 39
19 42 39
18 41 39
19 42 39
19 42 39
19 42 39
19 42 39
18 42 39
18 41 38
18 41 38
19 43 40
19 42 39
19 42 39
19 43 40
19 42 39
19 42 39
19 42 39
18 41 39
19 42 39
19 42 39
18 41 38
19 42 39
19 42 39
19 42 40
19 42 39
19 42 39
19 42 39
19 42 39
19 42 39
19 43 39
18 42 39
19 42 39
19 42 39
19 43 40
18 41 38
19 42 39
19 43 40
18 41 38
19 42 39
19 43 40
19 43 39
19 42 39
19 42 39
19 42 39
19 42 39
19 42 40
18 41 39
19 42 40
18 41 38
18 41 38
18 42 39
18 41 39
18 41 38
19 42 39
18 42 39
19 42 39
18 42 39
18 41 38
18 42 39
18 41 38
19 43 40
19 42 39
19 43 40
19 42 39
18 42 39
19 42 39
18 41 39
18 41 38
18 40 37
18 41 38
18 41 38
19 42 39
18 41 38
18 40 38
18 41 38
19 42 39
19 42 39
19 42 39
19 42 39
19 42 39
19 42 39
19 42 39
19 42 39
19 42 39
19 42 39
18 41 38
19 43 40
18 41 39
18 41 38
19 42 39
19 42 39
19 43 40
19 42 39
19 43 40
18 42 39
19 42 39
18 42 39
19 44 41
18 41 39
18 41 38
18 41 38
18 41 38
19 43 40
19 43 40
19 43 40
19 42 39
19 42 39
18 41 38
19 43 40
18 42 39
19 43 40
18 42 39
19 42 39
19 43 40
19 42 39
19 43 40
19 42 39
19 42 39
19 42 39
19 42 39
19 43 40
19 42 39
19 42 39
19 43 40
19 42 39
19 43 40
19 42 39
19 42 39
19 43 39
18 41 38
19 43 40
19 43 40
19 42 39
19 42 39
19 43 40
19 43 40
19 42 39
19 42 39
19 42 39
19 43 40
19 43 40
19 42 39
19 43 40
19 43 40
19 42 39
19 43 40
19 42 39
19 43 40
19 43 40
19 43 40
19 42 39
19 42 39
19 42 39
19 43 40
18 41 38
19 42 39
19 43 40
19 43 40
19 42 39
19 44 40
19 42 39
19 43 40
18 42 39
19 43 40
19 43 40
19 43 40
18 41 39
18 41 38
19 42 39
18 42 39
18 41 38
18 41 39
18 41 39
18 41 38
18 41 38
19 43 40
18 42 39
19 42 39
19 43 40
19 42 39
19 42 39
19 44 40
19 43 40
19 42 39
18 42 39
19 42 39
19 42 39
18 41 38
18 41 38
18 41 38
18 41 38
19 43 40
19 42 39
19 42 39
18 41 38
18 42 39
18 41 38
18 41 38
19 42 39
19 43 40
19 42 39
18 41 39
19 42 39
18 41 38
19 42 39
19 43 40
19 43 40
19 43 40
19 43 40
19 42 39
19 42 40
19 42 39
19 42 39
20 44 41
19 42 40
19 43 40
19 43 40
19 42 39
19 42 39
19 43 40
19 43 40
19 43 40
19 44 41
19 43 40
19 42 39
19 42 39
19 42 39
19 42 39
19 43 40
19 43 40
19 42 39
19 43 40
19 42 39
19 43 40
19 42 39
19 43 40
19 42 39
19 43 39
19 43 40
19 43 39
19 43 40
19 42 39
19 43 40
19 42 39
19 42 39
18 41 38
19 43 40
19 43 40
19 44 40
19 42 39
19 42 39
20 44 41
19 43 40
19 43 40
20 44 41
19 43 39
19 42 39
19 43 40
19 43 40
19 43 40
19 43 40
19 43 39
19 43 40
19 44 40
19 42 39
19 42 39
19 44 40
19 43 40
19 43 40
19 42 39
19 42 39
19 43 40
19 43 40
19 43 40
19 42 39
19 43 40
19 43 39
19 42 39
19 42 39
19 43 40
19 43 40
19 42 39
20 44 40
19 43 40
19 44 40
20 44 41
19 42 39
18 41 38
19 42 39
18 41 38
19 42 39
18 42 39
18 41 39
19 42 39
19 42 39
18 41 38
18 41 38
18 42 39
19 42 39
18 41 39
19 42 39
19 43 40
19 42 39
18 41 38
19 42 39
18 41 38
18 41 38
19 43 40
19 43 39
19 43 40
18 41 39
19 43 40
19 42 39
19 42 39
19 43 40
19 42 39
19 42 39
18 41 38
19 43 40
19 43 40
18 41 38
18 42 39
19 43 40
19 43 39
19 42 39
19 43 40
19 44 40
18 41 38
19 43 40
19 42 39
19 43 40
19 43 40
19 43 40
19 42 39
19 42 39
19 43 40
18 41 38
19 42 39
19 42 39
19 43 40
19 42 39
19 43 40
18 42 39
19 43 40
19 42 39
19 44 40
19 43 40
18 42 39
20 44 41
19 43 40
19 42 39
19 43 40
19 43 40
19 43 39
20 44 40
19 42 39
19 42 39
19 43 39
20 44 41
19 43 40
19 43 40
19 43 39
19 43 40
19 43 40
19 42 38
20 44 40
19 43 40
19 43 40
19 44 40
19 44 40
19 43 40
19 43 40
19 43 40
19 42 39
19 44 40
19 43 39
19 43 39
19 43 40
19 42 38
19 42 39
19 43 40
19 43 40
19 43 40
19 43 40
19 43 39
19 43 40
19 43 40
19 43 40
20 44 41
20 44 41
19 43 40
19 42 39
19 43 39
20 44 41
19 42 39
20 44 41
19 42 39
20 44 41
19 43 39
19 42 39
19 43 40
19 43 40
19 43 40
19 43 40
19 43 40
19 43 40
19 43 40
19 42 39
19 42 39
19 42 39
19 42 39
19 43 40
18 41 38
19 43 40
19 42 39
19 42 39
19 42 39
19 42 39
19 43 40
19 43 40
18 41 38
19 43 40
19 42 39
19 43 40
19 42 39
19 42 39
19 42 39
19 42 39
19 43 39
19 42 39
18 41 38
19 42 39
19 42 39
19 43 40
19 43 40
19 42 39
19 42 39
19 43 39
19 43 40
19 43 40
19 44 40
19 43 40
19 42 39
19 43 40
19 44 40
19 42 39
20 44 41
19 42 39
19 42 39
19 43 40
19 43 40
19 43 40
19 42 39
20 44 40
19 43 40
20 44 41
19 43 40
19 42 39
19 43 40
20 44 41
19 43 40
19 44 40
19 43 40
19 43 40
19 43 40
19 43 40
19 42 39
19 43 40
19 43 40
19 42 39
19 42 39
19 43 40
19 43 40
19 43 40
19 43 40
19 43 40
19 43 40
20 44 41
19 43 40
19 43 40
19 43 40
19 43 40
19 43 40
19 42 39
19 43 40
19 43 39
20 44 41
19 42 39
19 43 40
20 44 40
20 44 41
19 43 39
19 43 40
19 43 40
20 44 41
20 44 40
19 42 39
19 44 40
20 44 40
19 43 39
20 44 41
19 43 39
19 43 40
19 44 40
19 43 40
20 44 40
19 43 40
19 43 40
20 44 40
19 43 40
20 44 41
19 43 40
19 44 40
20 44 41
19 43 40
19 43 40
19 43 40
19 43 40
20 45 42
19 43 40
19 44 40
19 43 40
19 43 40
19 43 40
20 44 41
20 44 41
19 42 39
18 41 38
18 42 39
19 42 39
18 41 38
19 43 40
19 43 40
19 43 39
19 43 40
19 43 40
19 43 39
19 43 40
19 43 40
19 42 39
19 43 40
19 43 40
19 42 39
19 43 40
19 43 40
18 41 38
18 41 39
19 42 39
19 42 39
19 42 39
19 43 40
19 43 40
19 44 40
19 42 39
19 42 39
19 43 40
19 43 39
19 43 40
19 42 39
19 43 40
18 41 38
19 43 40
19 43 40
19 43 40
19 44 40
19 43 40
19 43 40
19 43 40
19 43 40
19 43 40
19 43 40
19 43 40
19 43 40
19 43 40
19 42 39
19 44 40
19 43 40
20 45 41
19 43 40
19 44 40
19 43 40
20 44 41
19 44 40
19 43 40
20 44 40
20 44 41
19 42 39
19 43 40
19 44 40
19 42 39
20 43 40
20 44 41
20 44 40
19 43 40
19 43 40
20 44 41
20 44 41
20 44 41
20 44 41
19 43 39
19 43 40
19 43 40
20 44 40
20 44 41
19 43 40
20 44 41
20 44 41
19 43 40
20 44 40
20 44 40
19 43 40
19 43 39
20 44 40
20 44 41
20 44 40
19 43 40
20 44 40
20 44 40
20 45 41
19 43 40
19 43 40
20 44 41
20 44 40
20 44 41
19 44 40
20 45 41
19 43 40
20 44 40
19 44 40
19 43 40
20 44 41
20 44 41
19 42 39
20 44 40
20 44 40
19 43 40
19 43 40
20 44 41
19 43 39
20 44 40
20 44 40
20 44 40
19 44 40
20 44 41
19 43 40
20 44 40
19 44 40
19 42 39
19 43 39
19 42 39
19 43 40
18 41 38
19 43 40
19 42 39
19 43 40
19 43 40
19 42 39
19 43 39
19 42 38
19 42 39
19 43 39
19 42 39
19 43 39
19 43 40
19 42 39
19 43 40
19 42 39
19 43 39
19 43 40
19 43 40
19 43 40
19 43 40
20 45 41
19 42 39
19 43 40
19 43 40
19 42 39
19 43 40
20 45 41
19 44 40
19 42 39
19 43 40
19 44 40
19 42 39
19 43 40
19 43 40
19 43 40
19 43 40
19 43 40
19 43 39
20 45 41
19 43 40
19 43 39
20 44 40
19 43 40
20 44 40
20 44 41
20 44 41
19 43 40
20 44 41
20 44 41
20 44 41
19 44 40
20 45 41
20 44 41
19 43 40
19 43 40
20 44 40
20 44 40
19 43 40
20 44 40
20 44 41
19 43 40
20 44 40
20 44 40
20 44 41
20 44 41
19 43 40
20 44 40
20 44 41
19 43 40
20 44 40
20 45 41
20 44 41
20 44 41
20 44 40
20 44 41
20 44 40
20 44 41
19 43 40
20 44 40
20 44 40
19 43 40
19 44 40
20 44 41
20 44 40
20 44 41
20 44 40
20 44 41
20 45 42
20 45 41
19 43 40
20 44 41
20 45 41
20 44 41
19 43 40
20 44 41
20 44 40
20 45 41
20 44 41
19 43 39
20 44 41
20 45 41
19 43 40
20 44 41
20 44 41
20 45 41
20 44 40
20 44 41
20 44 41
20 45 41
20 45 41
20 45 41
19 43 40
20 44 40
19 43 40
19 43 40
19 43 39
19 42 39
19 44 40
19 42 39
19 44 40
19 42 39
19 43 40
19 43 40
19 43 40
19 42 39
19 43 40
19 43 39
19 42 39
19 43 40
19 43 40
20 44 41
19 43 40
19 43 40
19 43 40
19 43 39
19 43 40
19 42 39
20 44 40
19 43 39
19 44 40
19 43 40
19 43 40
19 43 39
19 43 40
20 44 41
20 44 41
19 43 40
20 45 41
19 44 40
19 43 39
19 44 40
19 43 40
19 43 40
19 43 40
20 45 41
19 42 39
19 43 39
20 44 41
20 44 41
19 43 40
20 44 41
20 44 41
20 44 40
19 43 40
20 44 40
20 44 40
19 43 40
19 43 40
20 44 40
19 43 40
20 44 41
20 44 40
19 42 39
20 44 40
20 44 41
20 44 40
20 44 40
20 44 41
19 43 40
21 46 42
20 44 41
20 45 41
20 44 40
20 44 41
20 45 41
20 44 41
20 44 40
20 44 41
20 45 42
20 45 41
20 44 40
20 45 41
20 45 41
21 46 42
20 44 40
19 43 39
20 44 41
20 45 41
20 44 41
20 44 40
20 44 40
20 44 40
20 45 42
20 44 41
20 44 40
20 45 42
20 45 41
20 44 41
20 44 41
20 44 40
20 45 42
20 44 40
20 45 41
20 45 41
20 44 41
20 45 41
20 44 41
20 44 41
20 44 40
20 45 42
20 44 41
20 45 41
20 44 40
20 44 40
20 44 40
20 45 41
20 45 41
20 44 41
20 45 42
20 45 41
20 45 42
20 45 42
20 45 42
19 43 40
18 41 38
19 44 41
20 44 40
19 42 39
19 43 39
19 43 39
18 41 38
19 43 40
19 43 40
19 43 40
19 43 40
19 43 39
19 44 40
19 43 40
20 44 41
20 44 41
19 43 39
19 43 40
19 43 40
19 43 40
19 43 39
19 43 40
20 45 41
20 45 42
19 42 39
19 44 40
20 44 40
19 43 40
19 43 40
20 46 42
19 43 40
19 43 40
19 44 40
19 43 39
20 44 40
19 43 40
20 45 41
19 43 40
19 43 40
20 44 40
19 43 40
20 44 41
20 44 40
20 44 40
20 45 41
20 45 41
20 44 41
20 45 41
20 44 41
19 43 39
20 45 41
20 44 41
20 44 41
20 45 41
20 44 41
20 44 41
20 44 40
20 44 41
19 43 40
20 45 41
20 44 40
20 45 41
19 43 40
20 44 40
20 45 41
20 45 41
20 45 41
20 45 41
21 46 42
20 45 42
20 44 40
20 45 41
20 45 42
20 45 42
20 44 41
20 45 41
20 44 41
20 44 41
20 45 42
20 44 41
20 45 42
21 46 42
20 44 41
20 44 41
20 44 40
20 46 42
20 45 41
20 44 40
20 45 41
20 45 41
20 45 41
21 46 42
20 45 41
20 44 40
20 45 41
20 45 41
20 45 42
20 45 41
20 45 42
20 45 42
20 45 41
20 45 41
20 45 41
20 44 41
20 45 42
20 45 41
21 46 42
20 44 40
20 46 42
20 44 41
20 45 41
20 45 42
20 44 41
20 45 41
20 45 41
20 44 41
21 46 42
20 44 41
20 45 42
20 44 41
19 43 40
19 42 39
19 43 40
19 43 40
19 44 40
19 43 40
19 43 40
19 42 39
19 43 40
19 43 40
20 44 41
19 43 39
19 44 40
19 43 40
20 45 41
20 44 40
20 45 41
19 43 40
19 43 40
20 44 41
19 43 40
20 44 41
20 44 41
20 44 41
20 44 41
20 44 41
20 44 41
20 44 41
20 44 40
20 44 40
19 43 40
20 44 40
19 43 40
20 44 41
20 44 40
20 44 40
20 44 41
19 43 40
20 44 41
20 44 40
20 44 41
20 44 40
20 44 41
21 46 42
20 45 41
20 44 41
20 44 40
20 44 40
20 44 41
21 46 42
20 45 41
20 44 40
20 45 42
20 45 41
21 46 42
20 45 41
20 44 41
20 45 41
20 45 42
20 45 42
20 44 41
20 45 42
20 44 41
20 45 41
20 45 41
21 46 42
20 44 41
20 45 41
20 45 42
20 45 42
21 46 42
20 44 41
20 45 41
20 44 40
20 45 41
20 44 41
21 46 42
20 45 41
20 44 40
20 45 41
21 46 42
21 46 42
20 45 42
20 44 40
20 44 40
20 45 41
20 44 41
21 46 42
20 45 41
21 47 43
20 45 41
20 45 41
21 46 42
20 45 42
21 46 42
20 45 41
20 45 42
21 46 42
20 45 41
20 45 41
20 45 41
20 45 41
21 46 42
21 46 42
20 45 41
21 46 42
20 45 42
20 44 41
20 44 41
20 45 42
20 44 40
21 46 42
20 45 41
21 46 42
21 46 42
20 45 41
20 44 40
20 45 41
20 46 42
21 46 42
19 43 40
19 43 39
19 43 39
19 43 40
19 43 40
20 44 40
20 44 41
19 43 39
20 44 41
19 43 40
19 42 39
20 44 40
19 43 39
20 44 40
19 43 40
19 43 40
19 43 40
19 44 40
20 44 41
19 43 40
20 44 40
20 44 40
19 43 40
20 44 40
20 44 40
20 44 41
20 44 41
20 44 41
20 44 41
20 45 41
20 45 41
19 42 39
20 44 41
20 44 41
20 44 40
20 44 41
19 43 40
20 45 41
20 45 41
20 45 41
20 45 42
20 44 41
20 44 41
20 45 41
20 45 41
20 45 41
20 45 41
20 44 40
20 44 40
20 45 41
20 45 41
21 46 43
20 44 40
20 44 40
20 45 41
21 46 42
20 45 42
20 44 41
20 45 41
20 45 41
21 46 42
20 45 41
20 45 42
20 45 41
20 44 41
20 44 41
20 45 41
20 45 41
20 45 41
20 45 41
20 45 41
20 44 40
21 46 42
20 45 41
20 45 42
20 45 42
21 46 42
20 45 41
20 45 41
20 45 41
20 45 41
20 45 41
20 45 42
20 45 42
21 46 42
20 45 41
21 46 42
21 46 42
21 46 42
20 45 41
21 46 42
20 45 41
21 47 43
20 44 40
20 45 42
21 47 43
21 46 42
21 46 42
20 45 41
21 46 42
20 45 41
21 45 42
21 46 42
20 45 42
21 46 42
21 46 42
21 46 42
21 46 42
21 47 43
20 44 41
21 46 42
21 46 42
21 47 43
21 46 42
20 45 41
20 45 42
21 46 43
21 46 42
21 46 43
21 45 42
19 43 40
20 44 41
20 44 41
19 43 40
19 42 39
19 43 39
19 43 40
20 45 42
20 44 40
19 43 40
20 45 41
20 44 40
19 43 40
19 43 40
20 44 41
19 43 40
19 43 40
20 44 40
20 44 41
20 44 40
20 44 40
19 43 39
20 44 40
20 44 41
20 44 41
20 44 41
20 44 41
20 44 41
20 44 41
20 44 41
20 44 41
20 45 42
20 45 42
20 45 41
20 44 40
20 44 40
20 44 41
20 45 42
19 43 40
20 44 41
20 45 41
20 44 41
20 45 41
20 45 42
20 44 40
20 45 41
20 44 40
20 44 40
21 46 42
20 44 40
21 46 42
20 45 41
20 45 41
20 45 41
21 46 42
20 45 41
20 45 41
21 46 42
20 45 41
20 44 40
21 46 42
20 45 41
20 44 40
20 44 41
21 46 42
20 45 41
20 44 41
21 46 42
20 44 41
20 45 41
20 45 41
20 45 41
21 46 42
20 45 41
20 45 42
21 46 42
20 45 41
20 45 41
21 46 43
20 45 41
21 46 42
21 46 43
21 46 42
21 47 43
20 45 41
21 46 42
21 46 42
21 46 42
21 46 42
21 46 42
20 45 42
20 45 41
21 46 42
21 46 42
20 45 41
21 46 42
20 45 41
21 46 42
21 46 42
21 47 43
21 46 42
21 46 42
21 46 42
21 46 42
21 47 43
21 47 42
21 47 43
21 46 42
21 47 43
21 46 42
20 45 41
21 46 42
21 47 43
21 46 42
20 45 41
21 46 42
21 47 43
21 47 43
20 45 41
21 46 42
19 43 40
19 43 40
19 43 39
19 43 40
20 44 40
19 43 40
20 44 40
20 46 42
20 44 40
20 45 42
20 44 40
20 44 41
20 44 41
19 44 40
19 43 40
19 43 40
20 44 40
20 44 41
20 44 40
20 46 42
20 44 40
20 44 41
19 43 39
20 44 41
20 44 40
20 44 40
19 43 40
20 44 41
20 44 41
20 44 40
20 44 41
20 44 40
20 44 41
21 46 42
20 44 41
20 45 42
20 45 42
20 44 41
20 44 41
20 45 42
21 46 42
20 44 40
20 44 41
21 46 42
20 45 41
20 45 41
21 46 42
20 45 41
21 46 42
20 45 41
20 45 41
20 45 41
20 45 41
21 46 42
21 46 43
20 45 41
20 45 41
20 45 41
20 45 41
20 45 42
21 46 42
21 46 42
21 47 43
21 46 42
21 46 43
21 46 42
21 45 42
21 46 42
20 44 41
20 45 42
21 46 42
20 45 41
21 46 42
20 45 41
25 46 44
20 45 41
21 46 42
21 46 42
21 46 42
20 45 41
21 46 42
21 46 42
21 45 42
20 45 41
21 46 42
21 47 43
21 46 42
20 45 41
21 46 42
21 45 42
21 46 42
20 45 41
21 47 43
21 46 42
20 45 41
21 47 43
21 47 43
21 46 42
21 47 43
21 46 42
21 47 43
21 46 42
21 47 43
21 47 43
21 46 42
20 45 41
21 46 42
21 46 42
21 47 43
21 46 42
21 47 43
21 45 42
20 45 41
21 47 43
21 47 43
21 46 42
21 47 43
21 46 42
21 47 43
21 45 42
20 44 41
19 43 40
20 44 41
20 45 42
20 45 42
19 43 40
20 44 40
19 43 40
20 44 41
19 43 40
19 43 40
20 44 41
19 43 40
19 43 40
19 44 40
20 44 41
20 44 40
20 45 41
20 45 41
20 45 42
20 44 41
20 44 41
20 44 41
20 45 42
20 44 40
20 44 41
21 46 42
20 44 41
20 44 41
20 44 41
20 45 41
20 45 41
20 45 42
21 46 42
20 45 41
20 44 40
20 45 41
20 45 41
20 45 42
20 45 41
20 45 41
20 45 41
20 45 41
20 44 40
21 45 42
21 46 42
21 46 42
21 46 42
20 45 41
21 45 42
21 46 42
21 46 42
21 46 42
20 44 40
21 46 42
21 46 42
21 46 42
20 45 41
21 46 42
21 46 42
21 46 42
21 46 42
21 46 42
21 46 42
21 46 42
21 46 42
21 46 42
21 46 42
20 45 42
21 46 42
21 46 42
21 46 42
68 69 70
172 154 147
210 186 175
184 161 155
92 85 86
21 46 42
21 46 42
21 47 43
21 47 43
21 46 42
21 47 43
21 47 43
21 46 42
22 48 44
21 45 41
21 46 42
21 46 42
21 47 43
21 46 42
21 47 43
21 46 42
21 47 43
21 46 42
21 46 42
20 45 41
21 47 42
21 46 42
21 46 42
21 47 42
21 47 43
20 45 41
21 47 43
20 45 41
21 47 43
21 46 42
21 47 42
21 46 42
21 47 43
89 52 44
165 75 62
192 103 88
167 88 74
46 48 43
21 46 42
22 48 44
21 47 43
21 47 43
21 47 43
20 44 40
19 43 40
20 44 40
20 44 41
19 43 40
20 44 41
19 43 40
20 44 40
20 44 41
19 43 40
20 44 41
19 43 40
20 44 40
20 44 41
19 43 40
20 44 41
20 44 41
20 45 41
20 44 40
20 44 40
20 44 41
20 45 41
21 46 42
21 46 42
20 45 41
20 45 41
20 45 41
20 45 41
20 45 41
20 44 41
20 45 41
20 44 41
20 45 42
21 46 42
21 46 42
21 46 43
21 46 42
20 45 42
21 46 42
21 46 42
20 44 41
20 45 41
21 46 42
20 45 42
20 45 42
20 45 41
21 46 42
21 47 43
20 45 41
21 46 42
21 47 43
20 44 40
21 46 42
21 46 42
21 46 42
21 46 42
21 46 42
21 46 42
21 47 43
21 46 42
20 45 41
21 46 42
20 45 41
20 45 41
21 46 42
21 46 42
20 45 41
21 45 42
21 47 43
21 46 42
21 47 43
38 52 51
171 153 145
224 200 183
240 213 193
255 228 205
222 193 178
62 58 68
21 46 42
21 46 42
21 46 42
21 47 43
21 47 43
22 48 44
21 46 42
21 47 43
22 48 43
21 46 42
21 47 43
21 46 42
21 47 43
21 47 43
21 46 42
22 48 43
21 47 43
21 47 43
21 46 42
22 48 44
22 49 44
21 47 43
22 48 44
21 47 43
21 47 43
21 46 42
22 48 43
21 46 42
21 46 42
21 47 42
21 47 43
80 50 43
213 126 111
238 203 184
249 220 199
248 211 190
209 136 120
27 47 43
21 47 43
22 47 43
21 47 43
22 47 43
20 45 41
20 45 42
20 44 41
20 44 41
19 42 39
20 44 41
20 44 41
20 45 41
20 44 40
20 45 41
21 46 42
20 45 42
20 44 41
20 45 41
21 46 42
20 45 41
20 45 42
20 44 40
20 45 41
20 45 41
20 44 40
20 45 41
21 46 42
20 45 42
21 46 42
20 45 42
20 45 42
20 45 41
20 45 41
20 45 41
20 45 41
20 44 41
21 46 42
20 44 40
20 45 42
20 45 42
21 46 42
21 47 43
20 45 42
20 45 41
21 46 42
21 46 42
20 45 41
21 46 42
21 47 43
21 46 42
20 45 42
20 45 41
21 46 42
20 45 42
20 45 41
20 45 41
21 46 42
21 46 42
21 47 43
21 46 42
21 46 42
21 46 42
21 46 42
21 46 42
21 46 42
21 47 43
21 46 42
21 46 42
21 47 43
21 47 43
21 46 42
22 48 43
21 45 42
21 46 42
21 47 43
65 65 68
174 157 144
205 183 166
225 199 179
242 214 190
227 199 177
137 119 112
21 47 43
21 46 42
21 46 42
21 47 43
21 47 43
22 48 44
21 47 43
21 47 43
21 46 42
22 48 43
21 46 42
21 47 43
21 47 43
21 47 43
21 47 43
22 48 43
21 47 43
22 49 44
22 49 45
22 48 43
21 47 43
21 46 42
21 46 42
21 46 42
21 46 42
22 47 43
22 49 44
21 47 42
22 48 44
21 47 43
25 47 43
147 67 56
210 182 164
228 201 182
254 225 200
243 215 192
231 201 180
117 73 63
21 46 42
22 48 44
22 47 43
21 46 42
20 44 40
20 45 41
20 44 40
20 45 41
20 44 40
20 44 41
20 44 40
20 44 40
20 45 41
20 44 41
20 44 41
21 46 42
20 45 41
20 45 41
20 44 41
20 44 40
20 44 40
20 45 42
20 44 41
20 45 42
19 43 39
20 45 41
20 45 41
20 45 41
21 46 42
20 45 42
20 45 42
20 45 41
20 45 41
20 45 41
20 45 41
21 46 42
21 46 42
20 44 41
21 46 42
21 47 43
20 45 41
21 46 42
21 46 42
21 46 42
21 46 42
20 45 41
21 46 42
21 46 42
21 46 42
20 45 41
21 46 42
21 46 42
21 46 42
21 47 43
21 45 42
21 46 42
21 46 42
21 46 42
21 46 42
21 46 42
21 46 42
21 47 43
21 46 42
21 47 43
21 47 43
21 47 43
21 46 42
22 48 44
21 47 43
21 47 43
21 47 43
22 48 43
20 45 41
21 46 42
21 47 42
43 49 51
128 117 107
159 142 127
179 157 139
194 169 148
195 170 150
117 103 96
21 47 42
20 45 41
21 46 42
21 47 43
21 46 42
22 48 44
22 48 44
21 47 43
21 47 42
21 46 42
21 47 43
21 47 43
21 47 43
21 47 42
21 47 43
22 48 44
22 48 43
21 47 43
21 47 43
22 49 44
21 47 43
21 47 43
21 47 42
22 47 43
21 47 43
22 48 44
22 49 44
21 47 43
21 46 42
21 47 42
22 48 43
119 70 61
179 158 142
198 173 154
208 180 160
204 178 157
200 175 156
131 106 94
21 47 42
21 47 43
21 47 43
22 48 44
20 44 40
20 44 40
20 44 40
20 45 41
20 44 40
20 45 41
20 44 41
20 44 41
20 44 41
21 46 42
21 46 42
21 46 42
20 44 40
21 46 42
20 45 41
20 45 41
20 45 41
21 46 42
21 46 42
20 45 41
20 45 41
20 45 41
21 46 42
21 46 42
20 45 41
20 45 41
20 45 41
21 46 42
20 45 41
20 45 42
20 45 41
20 44 41
21 46 42
20 45 41
21 46 42
21 46 42
21 46 42
21 46 42
21 45 42
20 45 41
21 46 42
21 46 42
20 45 41
21 46 42
21 47 43
21 46 42
21 46 43
20 45 41
21 47 42
21 47 43
21 47 43
21 47 43
21 47 43
21 46 42
21 47 43
21 47 43
21 47 43
20 45 41
20 45 41
21 47 43
21 47 43
21 47 42
21 47 43
21 47 43
21 47 43
20 45 41
21 47 43
21 46 42
21 47 43
21 47 43
20 45 41
24 42 41
70 65 62
94 86 76
112 99 83
134 116 99
119 102 91
40 49 48
21 46 42
21 47 42
21 47 43
21 46 42
21 46 42
22 48 44
22 48 43
21 46 42
21 47 43
22 48 44
22 49 44
21 47 42
22 49 44
21 47 42
22 47 43
21 47 43
22 48 43
22 49 44
22 47 43
22 48 44
22 49 45
21 47 42
22 48 44
22 48 44
22 47 43
22 48 43
21 47 42
22 48 43
21 47 43
22 48 44
22 48 43
79 50 44
117 105 94
143 127 112
152 133 115
161 142 124
146 127 111
77 66 59
22 49 44
22 48 44
22 49 45
22 48 44
20 44 41
20 44 41
20 44 40
21 46 42
21 46 42
20 44 40
20 45 41
20 44 41
20 45 41
20 44 40
20 45 41
20 45 41
21 46 42
20 45 41
21 46 42
20 45 41
20 45 41
20 45 41
20 45 42
20 45 41
21 46 42
20 44 41
20 45 41
20 44 41
20 44 41
20 45 41
20 45 41
21 46 42
21 46 42
21 46 42
21 47 43
21 46 42
21 46 42
21 47 43
21 46 42
21 47 43
21 46 42
21 46 42
21 46 42
21 47 43
21 46 42
21 46 42
21 46 42
21 46 42
21 47 43
21 47 43
21 47 43
20 45 41
21 46 42
21 47 43
21 47 43
21 47 43
21 47 43
21 47 43
21 46 42
22 48 43
21 47 43
21 47 43
21 46 43
21 46 42
21 47 43
21 47 43
21 47 42
21 47 43
21 46 42
21 46 42
21 46 42
21 46 41
20 45 41
18 41 38
15 36 34
14 33 31
13 23 24
20 22 19
38 37 29
44 39 32
24 33 33
20 44 40
21 45 41
21 46 42
21 47 42
22 47 43
21 47 42
21 47 42
22 49 44
21 47 43
21 47 43
21 47 43
22 48 43
21 47 42
22 48 44
22 48 44
22 48 44
22 47 43
22 48 44
22 48 44
22 49 45
27 48 43
105 72 57
164 96 72
155 88 63
61 55 46
22 48 43
22 48 43
22 48 44
22 48 44
22 47 43
22 48 43
19 41 38
25 35 32
48 40 33
64 59 48
73 67 55
81 73 61
63 53 44
24 46 41
21 47 42
22 47 43
21 46 42
22 48 43
20 44 41
20 44 40
20 44 40
20 45 41
21 46 42
20 45 41
20 45 41
20 44 41
20 45 42
20 44 40
20 44 40
20 45 41
21 46 42
20 45 41
20 45 41
20 44 41
20 45 41
21 46 42
20 45 41
21 46 42
20 45 41
20 45 41
21 46 42
21 46 42
21 46 42
21 46 42
20 45 41
20 45 41
21 46 42
21 46 42
20 45 41
21 46 42
21 46 42
21 47 43
21 47 43
21 47 43
21 46 42
21 46 42
21 47 43
21 46 42
21 47 43
21 47 43
21 46 42
21 46 42
21 46 42
21 46 42
21 46 42
21 46 42
21 45 41
21 46 42
21 46 42
21 46 42
21 46 42
21 47 43
21 47 43
21 47 43
21 47 43
21 47 43
21 47 43
21 47 43
21 47 43
21 47 42
21 47 43
22 48 44
21 47 43
21 47 43
21 47 43
21 46 42
21 46 42
21 46 42
20 43 40
18 40 36
17 37 33
15 34 30
15 33 30
16 35 31
20 42 38
20 44 40
21 45 41
21 47 42
21 46 42
22 47 43
21 47 43
22 48 43
22 48 44
21 47 43
22 48 44
22 48 44
22 48 43
22 48 44
22 48 43
21 47 43
22 49 44
22 48 44
22 48 44
22 49 45
46 51 45
172 127 110
230 196 178
239 211 192
248 214 194
243 165 137
116 69 51
21 47 42
21 47 43
22 48 43
22 47 43
21 46 41
19 41 37
16 35 32
15 28 26
22 25 21
35 32 24
29 25 21
17 37 33
21 46 41
21 45 40
21 47 42
22 48 43
22 49 44
20 44 41
20 46 42
20 45 41
20 45 41
20 44 41
21 46 42
20 45 41
20 45 42
21 46 42
21 47 43
20 43 40
20 44 41
20 44 41
21 46 42
21 46 42
20 44 40
20 45 41
21 46 42
21 46 42
20 45 41
20 45 41
20 44 41
21 46 42
21 46 42
21 46 42
21 46 42
21 46 42
21 46 42
21 46 42
21 46 42
21 47 43
21 46 42
20 45 41
21 46 42
21 47 43
21 46 42
21 47 43
21 47 43
21 47 43
21 46 42
21 46 42
21 47 43
21 46 42
21 47 43
21 46 42
21 46 42
21 46 42
21 46 42
21 46 42
21 46 42
21 47 43
21 47 43
21 47 43
21 46 42
21 47 43
21 47 43
22 47 43
21 47 43
21 47 43
22 48 43
21 47 43
21 47 42
21 47 43
22 48 43
22 48 44
21 47 42
22 48 43
21 46 42
22 48 43
21 47 43
22 47 43
21 46 41
22 47 43
21 47 42
21 47 42
21 47 42
21 46 42
22 47 43
21 46 42
22 48 43
111 106 97
150 137 125
81 81 75
23 48 44
22 48 43
22 48 43
22 48 44
22 49 44
22 48 44
22 48 44
22 48 43
22 49 44
21 46 42
22 49 44
22 48 44
22 48 43
138 98 83
204 180 164
220 197 180
234 208 190
255 236 211
241 212 192
225 145 116
33 49 44
23 49 45
22 47 43
22 48 43
22 48 43
22 48 43
21 46 42
21 46 41
21 46 41
21 46 41
22 46 42
21 46 41
22 48 43
22 47 42
22 47 42
21 46 42
22 49 44
20 45 41
20 45 41
20 44 40
20 45 41
21 46 42
20 45 41
20 45 42
20 45 41
20 45 41
20 45 41
20 45 41
20 45 42
20 45 42
21 45 42
20 45 42
21 46 42
20 45 41
20 45 41
20 46 42
21 46 42
21 47 43
21 46 42
21 46 42
21 46 42
21 46 42
20 45 41
20 45 41
21 46 42
21 46 42
21 47 43
21 46 42
20 45 41
21 46 42
21 46 42
21 47 43
21 46 42
21 46 42
21 46 42
21 46 42
21 47 43
21 46 42
21 47 43
22 48 44
21 47 42
21 46 42
21 47 43
21 47 43
21 47 43
21 46 42
21 47 43
21 46 42
22 48 43
22 48 43
22 48 44
21 47 43
22 48 44
21 47 43
21 46 42
21 47 43
21 47 43
22 48 43
21 47 43
21 47 43
22 48 44
21 47 43
21 47 43
22 48 44
22 48 44
21 47 43
22 47 43
22 48 43
21 47 43
22 48 43
21 47 42
21 46 42
22 48 44
22 47 43
21 47 43
47 60 55
176 160 148
223 200 184
234 210 192
159 143 132
38 45 47
24 48 44
22 49 44
22 48 43
21 47 42
22 49 44
22 48 44
22 48 44
22 49 45
22 48 43
22 49 44
22 48 43
22 48 44
132 109 98
173 156 143
197 176 161
208 185 167
214 189 171
219 193 173
216 162 139
82 80 71
22 48 43
22 49 44
22 49 45
22 48 44
22 49 44
22 47 43
22 49 44
22 49 44
22 47 43
23 49 45
22 49 44
22 48 43
22 48 43
22 49 44
22 49 44
22 49 44
21 46 42
20 45 41
20 45 42
21 46 42
20 45 41
20 44 40
21 46 42
21 47 43
21 46 42
21 47 43
20 45 42
21 46 42
20 45 41
21 45 42
20 45 41
20 45 41
20 45 41
21 47 43
20 45 41
21 46 42
21 46 42
20 45 41
21 46 42
21 46 42
21 46 42
21 46 42
21 46 42
21 46 42
20 45 41
21 47 43
21 47 43
21 47 43
21 46 42
21 46 42
21 46 42
21 46 42
21 46 42
21 46 42
21 47 43
21 46 42
21 47 43
21 46 42
21 46 42
21 47 43
21 47 43
21 47 43
21 46 42
21 47 43
22 48 44
22 47 43
21 47 43
21 47 42
21 47 43
21 47 42
22 48 43
22 47 43
22 48 44
22 48 44
21 47 43
22 49 45
22 48 43
21 47 43
22 48 43
22 49 44
22 48 43
22 47 43
21 47 43
22 48 44
22 48 44
22 48 44
22 49 44
22 48 44
22 48 43
22 48 44
22 49 44
22 48 43
22 49 44
22 48 44
129 121 113
199 181 168
215 193 178
224 200 183
155 143 126
54 54 54
37 42 44
22 47 43
22 48 44
22 49 44
22 49 44
22 48 44
22 48 44
22 49 44
22 47 43
22 48 44
22 48 44
22 47 43
97 79 69
119 109 100
149 134 122
171 152 137
172 152 136
181 160 142
180 142 123
73 75 67
22 48 43
23 50 45
22 49 44
22 49 44
22 49 44
22 49 44
22 48 44
22 49 44
22 49 44
22 49 44
22 48 44
22 49 44
22 48 43
22 49 45
22 49 44
22 48 44
20 45 41
20 45 42
20 44 40
20 44 41
20 45 41
20 45 41
20 45 41
20 45 41
20 45 41
20 45 41
20 45 41
20 45 41
20 45 41
21 46 42
21 46 42
20 44 41
21 46 42
20 45 41
20 44 41
20 44 41
21 45 41
21 46 42
21 46 42
21 46 42
21 46 42
21 46 42
21 46 42
21 47 43
20 45 41
21 46 43
22 48 44
21 47 43
21 46 42
21 46 42
22 48 44
21 47 43
21 46 42
21 47 43
21 47 42
21 46 42
22 47 43
21 47 43
22 48 44
21 47 43
21 46 42
21 46 42
21 46 42
21 46 42
21 46 42
21 47 43
21 46 42
22 48 43
21 47 43
22 49 45
21 46 42
22 48 43
21 46 42
22 48 43
21 47 43
22 47 43
22 47 43
22 48 44
22 48 43
21 47 43
22 48 44
22 48 44
22 47 43
22 47 43
22 48 44
22 48 43
22 48 44
22 48 43
22 48 44
22 48 44
22 49 44
22 48 44
22 48 44
41 57 52
144 133 124
174 157 146
194 174 159
158 142 130
96 87 81
82 75 70
40 42 43
52 62 56
22 49 45
22 47 43
22 48 43
22 49 44
21 47 42
22 49 44
22 48 44
23 49 44
22 49 44
21 47 42
66 54 45
85 80 72
97 90 80
104 96 86
106 96 83
129 115 102
119 77 59
29 50 45
23 50 45
22 48 44
22 48 43
22 48 43
22 49 44
23 49 45
22 49 44
22 49 44
23 50 45
23 50 45
22 49 44
23 49 45
22 49 44
22 49 44
22 48 44
23 50 45
21 47 43
20 45 41
20 45 41
20 45 42
21 46 42
20 44 41
20 45 41
20 45 42
21 46 42
20 45 42
21 47 43
21 46 42
20 45 41
21 45 42
21 46 42
20 45 41
21 47 43
21 46 42
21 46 42
21 46 42
20 45 41
21 46 42
21 46 42
21 47 43
20 45 41
21 46 42
22 48 44
21 46 42
21 47 43
21 46 42
21 46 42
21 47 43
21 47 43
21 47 43
21 46 42
21 47 43
21 47 43
21 47 43
21 47 43
22 47 43
21 47 43
21 47 43
21 47 43
21 47 43
22 48 44
22 48 43
21 47 43
21 46 42
22 47 43
22 49 44
22 48 43
21 46 42
22 48 44
21 47 42
21 46 42
21 47 43
21 47 43
21 46 42
21 47 43
22 48 44
21 47 43
21 47 43
22 49 44
22 48 44
22 48 44
22 48 43
22 48 43
22 48 43
22 48 43
23 50 45
22 48 43
22 48 43
22 49 44
21 47 43
22 49 45
22 49 44
23 49 45
35 54 49
120 112 105
133 123 114
135 123 113
113 101 92
163 144 130
164 145 130
76 69 63
83 82 72
22 48 43
23 50 46
21 47 43
22 48 43
22 48 43
23 49 45
22 47 43
21 46 42
21 45 41
18 40 37
16 34 32
34 33 27
45 45 36
46 47 36
57 54 44
50 37 26
48 45 37
23 49 44
22 49 44
23 49 44
23 49 45
22 49 44
23 50 45
23 50 45
23 49 45
22 49 44
23 51 46
23 50 45
22 49 44
22 49 44
22 49 44
22 49 44
22 49 44
23 50 45
20 45 41
20 44 41
21 46 42
21 46 42
20 45 42
21 46 42
21 46 42
21 46 42
21 46 42
21 46 42
21 46 42
21 46 42
21 47 43
21 46 42
20 45 41
20 45 41
21 46 42
22 48 44
21 46 42
21 47 43
21 46 42
21 47 43
21 46 42
21 47 43
21 46 42
21 47 43
21 47 43
21 47 43
21 47 43
21 46 42
22 47 43
21 46 42
21 47 42
21 47 43
21 47 42
21 47 43
21 47 43
21 47 43
21 46 42
22 48 44
21 46 42
22 48 43
21 46 42
21 46 42
22 48 43
21 47 43
22 48 44
22 48 44
21 47 43
21 46 42
22 48 43
21 47 43
22 48 43
21 47 43
21 46 42
22 49 44
21 47 43
21 47 43
22 48 43
21 47 42
22 48 44
21 46 42
22 48 43
22 47 43
22 48 43
22 48 43
22 49 45
22 49 44
22 47 43
22 48 44
23 49 45
22 49 44
22 48 44
22 49 44
22 47 43
22 49 44
22 47 43
25 49 45
90 85 78
80 75 69
30 29 29
88 80 72
109 98 87
113 100 89
102 90 79
42 57 51
22 47 43
22 48 43
22 49 44
22 47 43
23 49 44
22 48 43
22 49 44
22 47 42
20 44 40
17 37 35
14 32 29
10 21 20
11 16 13
19 19 14
27 21 15
14 27 24
19 41 36
22 47 42
22 48 43
23 49 43
22 47 43
22 49 44
22 49 44
22 48 44
22 49 44
23 50 45
23 50 45
22 49 44
23 50 45
23 49 45
22 48 44
23 50 45
22 49 44
23 50 45
21 46 42
21 46 42
20 45 41
21 45 42
20 45 41
21 47 43
20 45 41
20 45 41
20 44 41
21 47 43
21 46 42
21 46 42
21 46 42
21 46 42
21 46 42
21 46 42
21 46 42
21 46 42
21 46 42
20 45 41
21 46 42
21 46 42
21 47 43
21 47 42
21 46 42
21 47 43
21 46 42
21 46 42
22 48 44
21 47 43
21 47 42
21 46 42
21 47 43
21 47 43
22 48 43
21 47 43
22 48 43
21 47 43
22 48 44
22 48 44
22 48 43
21 46 42
22 48 43
21 47 43
22 49 44
22 48 44
22 47 43
21 47 43
22 49 44
22 47 43
22 48 43
22 49 44
21 47 43
22 48 43
22 49 44
22 48 43
21 46 42
22 48 43
22 48 43
22 48 44
21 46 42
22 48 43
22 48 43
22 48 43
22 48 43
22 49 45
22 48 44
21 47 43
22 48 43
22 48 43
22 48 43
22 48 44
22 48 44
22 49 44
21 46 42
21 46 42
21 45 41
20 44 40
15 32 30
8 11 11
10 12 12
21 21 20
36 35 31
52 49 40
55 58 50
22 47 43
22 49 44
22 48 43
22 48 44
22 48 44
22 49 44
22 48 44
22 47 43
22 48 43
22 49 44
21 46 41
22 48 43
22 47 41
22 47 42
20 43 38
21 45 40
22 48 43
22 48 42
22 48 43
23 49 44
22 48 43
22 48 43
23 50 45
23 49 45
22 49 44
22 48 44
22 49 44
22 47 43
23 50 45
23 50 45
23 50 45
23 49 44
23 50 45
23 49 45
23 49 45
21 46 42
20 45 41
21 46 42
21 47 43
21 46 42
21 46 42
21 46 42
21 47 43
21 46 42
21 46 42
21 46 42
21 46 42
21 47 43
21 47 43
21 46 42
21 46 42
20 45 42
21 46 42
21 46 42
21 47 43
21 46 42
21 46 42
21 47 43
21 47 43
21 46 42
21 47 42
21 46 42
21 47 43
21 46 42
21 46 42
21 46 42
21 47 43
21 47 43
21 46 42
21 47 43
21 47 43
22 48 43
21 47 43
22 47 43
21 47 43
21 47 43
21 46 42
22 48 43
21 47 43
22 48 43
22 48 44
22 49 44
21 45 41
21 47 43
22 49 45
22 48 44
21 46 42
22 48 44
22 48 44
22 48 44
22 49 44
23 49 45
21 47 43
22 49 44
22 48 44
21 46 42
22 48 44
22 48 44
22 48 44
22 48 44
21 47 43
22 48 43
22 49 45
22 48 43
22 49 44
22 48 43
22 47 43
22 47 43
22 47 43
21 46 42
18 41 38
15 35 33
13 31 30
12 28 27
8 18 17
4 8 8
9 9 7
18 21 15
31 37 30
21 45 40
21 46 41
22 48 43
22 47 43
22 49 44
22 47 42
22 49 44
22 49 44
23 50 45
22 49 44
22 48 44
22 49 44
22 49 44
22 49 44
22 48 43
22 48 43
23 49 44
22 48 44
22 49 44
23 49 44
23 49 44
23 50 45
23 50 45
23 50 45
23 49 44
22 49 44
24 51 46
23 50 45
23 49 45
23 50 45
22 49 44
23 50 45
22 49 44
23 50 45
23 50 45
23 50 45
21 46 42
21 46 42
21 47 43
21 46 42
20 45 41
21 47 43
20 45 41
20 45 41
21 46 42
21 46 42
21 46 42
21 46 42
21 47 43
22 48 44
21 46 42
21 47 43
20 45 41
21 46 42
21 47 43
21 46 42
22 48 43
21 46 42
21 47 43
21 46 42
21 47 43
21 46 42
21 46 42
21 47 43
22 48 43
22 48 43
21 47 42
21 46 42
21 47 43
22 47 43
21 47 43
22 49 44
22 48 43
20 45 41
21 47 43
22 48 44
21 47 42
22 49 44
22 48 43
22 48 44
21 46 42
22 47 43
21 46 42
22 48 43
22 48 43
22 48 44
22 48 44
21 47 43
22 48 43
22 47 43
21 47 43
21 47 42
22 48 44
21 47 42
21 47 43
21 47 42
22 48 44
22 49 44
22 48 44
22 49 45
22 47 43
22 49 44
21 47 43
22 48 43
22 49 44
22 49 44
22 47 43
22 48 43
22 48 43
22 48 44
22 48 43
22 48 43
20 45 41
19 42 38
17 39 35
16 35 32
15 32 29
15 33 30
16 35 32
19 41 36
21 45 40
21 45 40
22 47 42
22 48 43
22 49 44
23 50 45
22 48 43
22 49 44
22 48 44
23 49 44
23 50 45
22 49 44
23 49 45
23 50 45
22 48 44
23 49 45
22 49 44
23 50 45
22 49 44
22 49 44
23 50 45
23 50 45
23 50 45
23 49 45
23 51 46
22 49 44
23 51 46
23 50 45
23 50 45
23 51 46
23 50 45
23 50 46
23 51 46
22 49 44
23 50 45
23 49 44
20 45 41
20 45 42
21 46 42
21 46 42
21 46 42
21 46 42
21 47 43
21 46 42
21 46 42
21 46 42
21 46 42
21 46 42
21 46 42
21 47 43
21 47 43
21 46 42
21 46 42
21 46 42
21 47 43
22 48 44
20 45 41
21 47 43
21 46 42
21 47 43
21 47 43
21 47 43
21 47 43
21 46 42
21 46 42
21 47 43
22 48 43
21 46 42
21 46 42
21 46 42
22 48 43
22 48 44
22 48 44
22 48 44
22 48 43
22 47 43
22 47 43
22 48 43
22 48 43
21 46 42
22 48 43
21 47 42
21 47 43
22 48 43
21 47 43
22 47 43
22 47 43
21 47 43
21 47 43
22 48 43
21 47 43
22 48 43
22 49 45
22 48 43
22 48 44
22 47 43
22 48 43
22 48 44
22 48 44
22 48 44
22 48 43
22 47 43
22 49 45
22 48 44
22 49 44
22 49 44
22 48 43
22 49 44
22 49 45
22 48 43
22 49 44
22 49 44
22 48 44
21 47 42
22 49 44
23 49 45
22 47 42
22 47 42
21 46 42
22 47 43
22 48 43
22 48 43
23 49 45
22 47 43
22 48 43
22 49 44
22 48 43
22 48 44
23 50 45
23 50 45
22 49 44
23 49 44
22 49 45
23 51 46
22 49 44
23 49 45
22 49 44
23 50 45
23 51 45
22 49 44
23 51 46
23 50 45
23 51 46
23 50 45
23 50 45
22 49 44
22 49 44
23 50 45
22 48 44
23 51 46
23 50 45
23 51 46
23 50 45
22 49 44
23 51 46
23 50 45
21 46 42
21 47 43
21 46 42
21 46 42
21 47 43
21 47 43
20 45 41
21 47 43
21 46 42
21 46 43
21 47 43
21 47 43
21 46 42
20 45 41
21 46 42
21 47 42
21 47 43
21 46 42
21 46 42
21 47 43
21 47 43
21 47 43
21 46 42
21 46 42
21 46 42
21 46 42
21 47 43
21 46 42
21 46 42
21 47 43
21 47 43
21 47 42
21 47 43
22 48 44
21 46 42
21 47 43
22 47 43
21 47 43
22 47 43
21 47 43
22 48 44
22 48 43
22 48 43
22 47 43
22 47 43
22 48 43
21 47 43
21 47 42
22 48 43
21 46 42
22 48 44
22 48 44
21 47 43
21 47 43
22 47 43
22 48 44
22 47 43
22 49 44
22 48 43
22 48 43
21 47 43
22 48 43
22 48 44
22 49 45
22 47 43
22 49 44
22 49 44
22 48 43
22 49 44
22 48 43
22 49 44
22 48 43
21 47 43
23 50 45
22 49 44
22 48 43
23 50 45
23 50 45
22 49 44
22 49 45
22 49 44
22 49 44
23 49 45
22 47 43
23 49 45
22 48 44
23 50 45
23 50 45
23 49 45
23 49 45
22 49 44
22 48 44
22 49 44
22 49 44
22 49 44
22 49 44
23 49 45
22 49 44
22 49 44
22 49 44
22 49 44
23 50 45
23 49 45
22 49 44
23 50 45
23 51 46
23 51 46
23 51 46
23 50 45
23 49 44
22 49 44
23 49 44
22 48 44
23 50 46
23 50 45
23 51 46
23 51 46
22 49 44
23 51 46
22 49 44
21 46 43
21 46 42
21 47 43
21 46 42
21 46 42
21 47 43
21 46 42
21 45 42
21 47 43
20 45 41
21 46 42
21 47 43
21 46 42
21 46 42
21 46 43
21 46 42
21 47 43
21 46 42
20 45 41
22 48 44
22 48 43
21 47 43
21 47 43
21 47 43
21 47 43
21 46 42
21 47 43
21 46 42
21 46 42
21 46 42
21 47 43
21 47 43
22 47 43
22 48 43
21 47 43
21 47 43
22 48 44
22 48 44
21 47 43
22 49 44
22 47 43
21 47 43
22 48 44
22 48 43
22 48 43
21 47 43
21 46 42
22 48 44
22 48 44
22 48 44
22 49 44
22 49 44
22 47 43
22 49 44
21 46 42
22 48 43
22 48 44
22 49 44
22 48 44
22 48 44
22 48 43
22 49 44
22 48 44
22 48 44
22 48 43
22 47 43
23 50 45
23 49 45
22 49 44
22 49 44
22 49 44
22 48 43
22 47 43
22 49 44
22 49 45
23 49 45
22 48 44
22 49 44
22 49 45
22 49 44
22 49 44
22 49 44
23 50 45
22 48 44
23 50 45
22 49 44
23 49 45
23 49 45
22 49 44
22 49 44
23 49 45
23 50 45
23 49 45
23 50 46
23 50 45
23 50 45
22 49 44
23 50 45
22 49 44
22 49 44
23 50 45
23 50 45
23 50 45
23 50 45
24 51 46
23 50 45
23 50 45
22 49 44
23 50 45
23 50 45
23 50 45
23 49 45
23 50 45
23 50 45
23 50 45
22 49 44
23 51 46
22 49 44
23 50 45
23 50 45
20 45 41
21 46 42
20 45 41
21 46 42
20 45 41
21 46 42
21 46 42
21 45 42
21 46 42
20 45 41
21 47 43
21 46 42
21 46 42
21 47 43
21 46 42
20 45 41
21 46 42
21 46 42
21 46 42
21 47 43
21 46 42
21 47 43
22 47 43
21 46 42
21 46 42
22 48 43
21 47 43
21 46 42
22 48 44
22 47 43
21 47 43
21 47 43
22 48 43
21 47 42
21 46 42
22 48 44
21 46 42
21 47 43
21 47 43
22 48 44
22 48 43
21 47 42
21 45 41
22 49 44
21 47 43
22 49 44
22 47 43
22 48 44
22 49 44
21 47 43
22 47 43
22 49 45
21 46 42
22 48 43
22 48 44
22 49 45
21 47 43
22 49 45
22 49 44
22 48 43
21 47 42
22 48 43
21 47 43
22 48 43
22 49 44
22 48 44
22 47 43
22 48 43
22 48 44
22 49 44
22 48 43
22 48 44
22 48 43
22 49 45
22 49 44
23 50 45
22 48 44
23 50 46
22 49 44
23 49 45
22 48 44
22 47 43
23 50 45
23 51 46
22 48 44
23 50 45
23 50 45
22 48 44
22 49 44
22 49 44
22 49 44
23 50 45
22 49 44
23 50 45
23 50 45
22 49 44
23 50 45
22 49 44
23 49 45
23 50 45
23 49 45
23 50 46
23 49 45
22 49 44
23 50 45
24 52 47
23 50 45
23 50 45
23 51 46
24 51 46
23 50 45
23 50 45
23 51 46
23 51 46
23 50 45
23 50 45
23 50 45
23 50 45
23 51 46
23 50 45
21 46 42
21 46 42
21 46 43
21 46 42
21 47 43
20 45 41
22 48 44
21 47 43
21 46 42
21 46 42
21 46 42
21 47 43
20 45 41
21 46 42
21 46 42
21 46 42
21 46 42
21 47 43
21 47 43
21 46 42
21 45 41
21 47 43
22 48 43
21 46 42
21 47 43
21 47 43
21 46 42
21 46 42
21 46 42
22 48 43
21 47 43
21 47 43
21 47 43
21 47 42
21 46 42
22 48 44
22 47 43
21 46 42
21 47 42
22 48 43
22 48 44
21 46 42
22 48 43
22 48 44
22 48 43
22 47 43
22 48 44
22 48 44
21 47 43
21 46 42
21 46 42
22 49 44
21 47 43
22 48 43
22 48 43
22 48 44
22 47 43
22 47 43
22 48 44
21 46 42
22 49 44
22 49 44
22 49 45
21 47 42
22 48 43
22 49 44
22 48 44
22 49 44
22 48 44
22 49 44
22 48 43
23 50 45
22 49 44
22 49 45
22 49 44
23 50 45
22 48 44
23 49 45
23 50 45
22 48 44
22 49 44
23 50 45
22 49 44
23 49 45
22 49 44
22 49 44
23 50 46
22 49 44
23 50 45
23 51 46
23 50 45
22 49 44
23 50 45
22 49 44
22 49 44
23 49 45
23 51 46
22 49 44
23 49 44
23 50 45
23 50 45
23 50 46
23 50 45
23 50 45
23 49 44
23 50 46
23 50 45
23 50 45
23 50 45
23 50 45
23 50 45
23 51 46
23 49 45
23 50 45
22 49 44
23 50 45
22 49 44
23 49 45
24 51 46
23 51 46
21 46 42
21 46 42
21 46 42
21 46 42
21 47 43
21 47 43
21 46 42
21 47 43
20 45 41
22 48 43
21 47 43
21 46 42
21 47 43
21 47 43
21 47 43
21 47 43
20 45 41
21 46 42
21 47 43
21 46 42
21 46 42
21 46 42
21 47 43
21 47 43
21 47 43
21 46 42
21 47 43
21 47 42
21 47 43
21 47 43
21 47 43
21 47 43
21 47 43
21 47 43
21 47 43
21 46 42
22 48 43
21 47 43
21 47 43
22 47 43
21 47 42
22 49 44
22 48 44
22 49 45
22 49 44
22 48 44
22 48 44
22 48 43
21 47 42
22 48 44
22 49 44
22 48 44
22 49 44
22 48 44
22 48 44
21 47 42
22 48 44
22 47 43
23 50 45
22 48 44
22 48 43
22 49 44
22 48 43
22 48 44
22 48 43
23 50 46
23 49 45
22 48 44
22 48 44
22 49 45
22 49 44
22 48 43
22 49 44
22 49 44
22 48 43
22 48 44
22 48 44
23 50 45
22 49 45
22 48 44
23 50 45
23 50 45
22 49 45
23 50 45
23 50 45
23 51 46
23 51 46
23 50 45
23 49 45
23 50 45
23 50 45
23 50 45
23 49 45
23 50 45
22 48 43
23 50 45
22 49 44
23 50 46
23 50 45
23 50 45
22 49 44
23 50 45
23 50 45
23 50 45
23 50 45
23 51 46
23 50 45
23 51 46
23 50 46
23 50 45
23 51 46
23 51 46
23 50 45
23 49 45
22 49 44
23 51 46
23 50 45
23 51 46
23 50 45
23 51 46
21 46 42
21 46 42
21 46 42
21 46 42
21 46 42
21 46 42
21 47 43
20 45 41
21 46 42
21 47 43
20 45 41
21 46 42
21 47 43
21 47 43
22 47 43
21 47 43
21 47 43
21 46 42
21 46 42
21 47 43
21 47 43
21 47 43
21 47 43
21 46 42
21 47 43
21 47 42
21 46 42
21 46 42
21 47 43
21 47 43
21 47 43
22 48 43
21 47 43
21 47 43
22 48 44
21 47 43
21 46 42
21 47 43
21 46 42
21 47 43
21 47 43
22 48 43
21 46 42
21 46 42
21 47 42
22 48 43
22 48 43
21 47 43
22 48 44
22 49 45
22 49 44
22 48 43
21 47 43
22 48 43
22 48 44
22 48 44
22 47 43
22 47 43
22 48 44
22 48 44
22 49 44
22 48 44
22 48 44
22 49 44
22 48 43
22 49 44
23 49 45
22 49 44
22 48 43
22 49 44
23 49 45
22 47 43
22 49 44
22 48 43
23 50 45
23 50 45
22 49 44
23 50 45
22 49 44
22 49 44
22 49 44
22 48 44
23 49 45
22 49 44
22 49 44
23 50 45
22 49 44
23 50 45
22 49 44
23 50 45
23 49 45
23 49 45
23 49 45
22 49 44
23 49 44
23 50 45
22 49 44
23 50 45
22 48 44
23 50 45
23 50 45
23 51 46
23 51 46
23 50 45
22 49 44
23 50 45
23 50 45
23 51 46
23 50 45
22 49 44
23 50 45
23 50 45
23 50 45
23 50 45
22 49 44
23 50 45
23 50 45
23 51 46
23 50 45
23 51 46
21 46 42
21 47 43
21 47 43
21 46 42
21 47 43
21 46 42
21 47 43
21 46 42
21 46 42
21 47 43
21 46 42
21 46 42
21 46 42
21 47 43
21 46 42
21 46 42
21 46 42
22 48 44
21 47 43
22 48 43
22 48 44
21 46 42
21 47 43
21 47 43
21 46 42
21 46 42
21 47 43
22 48 43
21 47 43
21 46 42
22 48 43
21 46 42
21 47 42
22 48 44
21 47 43
21 47 43
22 49 44
22 48 44
21 47 42
21 47 43
21 47 42
22 47 43
21 46 42
21 47 42
22 48 44
22 48 44
22 48 44
22 49 45
22 48 44
22 48 44
22 47 43
22 48 44
21 47 43
22 48 43
22 47 43
22 48 43
22 49 44
21 47 43
22 49 44
22 48 44
22 48 44
22 48 43
22 48 43
22 49 44
22 48 44
22 48 44
22 48 44
22 48 44
22 49 44
22 49 44
22 49 44
22 49 44
21 47 43
23 49 45
22 48 44
23 49 45
22 49 44
23 49 45
22 49 45
22 48 44
22 48 44
22 49 44
22 49 44
22 49 44
22 49 44
23 50 45
23 49 45
23 50 45
23 50 45
22 48 44
22 49 45
23 51 46
22 48 43
22 49 44
23 50 46
23 50 46
23 51 46
23 50 45
22 49 44
23 50 45
23 50 45
23 50 45
23 50 45
23 50 45
23 50 46
23 50 45
23 50 45
23 50 45
23 50 45
23 50 45
23 51 46
22 49 44
23 49 45
23 50 46
23 50 45
23 51 46
23 50 46
23 50 45
23 51 46
23 50 45
21 47 43
21 46 42
20 45 41
21 46 42
21 47 43
21 46 42
21 47 43
21 46 42
21 46 42
21 46 42
21 47 43
21 46 42
21 46 42
21 46 42
21 46 42
21 46 42
21 46 42
22 48 44
21 47 43
21 47 43
21 47 43
21 47 42
22 48 44
21 47 43
22 48 44
21 47 43
21 47 42
21 47 43
21 47 43
22 48 43
21 46 42
21 47 43
22 48 43
21 47 43
21 47 43
21 47 43
21 47 43
22 48 43
21 47 42
21 46 42
22 49 44
22 48 43
22 48 44
22 48 44
22 49 44
22 49 44
22 49 44
21 47 43
21 46 42
22 48 43
22 49 45
21 47 43
22 48 44
22 47 43
21 47 43
22 49 44
22 48 44
22 48 43
21 47 43
22 47 43
22 48 44
22 47 43
22 49 44
22 48 44
22 49 44
22 49 44
22 49 45
22 49 44
22 49 44
22 48 44
22 49 44
22 48 43
22 48 44
22 49 44
22 49 44
22 48 44
23 50 45
22 49 44
22 49 44
23 50 45
22 48 43
22 49 44
23 50 45
23 50 45
23 50 45
23 50 45
23 50 45
22 48 44
23 50 45
22 49 44
23 50 45
23 50 45
23 49 45
23 49 44
22 49 44
22 49 44
22 49 44
23 50 45
23 50 45
23 50 45
23 50 45
23 50 45
23 50 45
23 50 45
23 50 45
23 51 46
23 49 45
23 51 46
22 49 44
23 50 45
23 50 45
23 49 45
23 50 45
23 50 45
23 51 46
22 49 44
24 52 47
23 50 45
23 50 45
23 51 46
21 48 43
21 46 42
21 46 42
21 46 42
21 46 42
21 46 42
21 46 42
21 46 42
21 46 42
21 47 43
21 46 42
21 47 43
21 47 43
21 46 42
20 45 41
21 47 43
21 47 42
22 48 43
21 46 42
21 46 42
21 47 43
21 47 43
21 46 42
21 46 42
22 48 44
21 46 42
21 46 42
21 46 42
21 47 43
21 46 42
22 48 44
22 48 44
22 48 44
21 47 43
21 47 43
21 47 43
22 47 43
22 47 43
21 47 43
22 48 43
21 47 43
22 47 43
22 48 44
22 49 44
21 47 43
22 48 44
22 49 45
22 48 43
22 48 44
22 48 43
22 48 44
22 47 43
21 47 43
22 48 44
22 47 43
22 48 44
22 48 44
22 49 44
22 47 43
22 48 43
22 48 44
22 48 44
23 50 45
22 47 43
22 48 44
22 48 43
22 47 43
23 49 45
22 49 44
23 49 45
22 49 44
22 47 43
22 48 44
22 49 45
23 50 45
23 50 45
23 50 45
22 49 44
22 49 45
22 49 44
23 49 45
22 48 44
23 51 46
23 49 45
23 49 45
22 49 44
22 48 43
22 49 44
23 50 45
23 50 45
23 50 45
22 49 44
23 50 45
22 49 44
23 50 45
22 49 45
23 50 45
23 50 45
22 49 44
23 50 45
22 48 43
22 49 44
22 48 44
23 49 45
22 49 44
23 50 45
23 49 45
23 50 46
23 50 45
23 49 45
22 49 44
23 49 45
23 49 44
23 50 45
23 50 45
23 50 45
23 49 45
23 51 46
24 52 47
23 50 45
21 46 42
21 47 43
21 46 42
21 46 42
21 46 42
21 46 42
21 46 42
21 47 43
21 47 42
21 45 41
21 47 43
21 46 42
21 47 43
21 45 42
21 46 42
21 46 42
21 47 43
22 48 43
21 47 43
21 46 42
21 46 42
21 46 42
21 47 43
21 47 43
22 48 44
21 47 42
21 46 42
21 47 43
21 47 43
22 48 44
22 48 44
21 47 43
21 47 43
21 47 43
22 48 44
21 46 42
22 48 43
21 47 43
21 47 43
22 48 44
21 47 43
22 48 44
22 47 43
22 48 43
22 49 44
21 47 43
22 48 43
22 48 44
22 48 44
22 48 44
22 48 44
22 48 44
22 48 43
22 49 44
22 48 43
22 48 44
22 48 43
22 48 43
22 48 44
22 48 44
22 49 44
22 48 44
22 49 44
22 49 44
22 48 44
22 49 44
22 49 44
22 49 44
22 49 45
23 50 45
22 48 43
22 49 44
22 49 44
23 50 45
23 50 45
22 48 44
23 50 45
22 47 43
22 48 44
23 50 45
22 48 43
22 49 44
22 49 45
22 48 44
23 50 45
22 49 45
22 49 44
23 49 45
22 49 44
22 49 44
23 49 45
23 50 45
22 49 44
23 49 45
22 49 44
23 50 46
22 48 44
22 49 44
23 50 45
23 50 45
23 50 45
24 52 47
22 49 44
23 50 46
22 49 44
23 50 45
23 50 45
22 49 44
23 50 45
23 50 45
23 51 46
22 48 43
23 50 45
23 50 45
23 50 45
23 49 45
23 51 46
23 51 46
23 49 45
23 50 45
21 46 42
21 46 42
21 46 42
21 46 42
21 47 43
21 47 43
21 46 42
21 47 43
21 46 42
21 46 42
20 45 41
21 47 43
21 46 42
20 45 41
21 47 43
21 47 43
21 46 42
21 46 42
21 47 43
21 47 42
21 46 42
22 47 43
21 46 42
21 46 42
21 46 42
21 46 42
21 47 42
22 48 43
21 47 43
21 46 42
21 46 42
21 47 43
22 49 44
21 47 43
21 46 42
21 46 42
22 48 43
21 47 43
21 47 43
22 48 44
22 49 45
21 47 43
22 48 44
22 48 44
22 47 43
22 48 43
21 46 42
22 47 43
22 47 43
22 48 44
22 48 44
21 47 43
22 48 44
22 47 43
22 48 44
22 48 43
21 47 42
22 48 43
22 48 43
22 49 45
22 48 43
22 48 43
22 49 44
23 49 45
22 49 45
22 49 44
22 49 44
22 49 44
22 49 45
22 49 44
22 49 44
23 50 45
22 48 44
22 49 44
23 50 45
23 50 45
23 49 45
22 49 44
22 49 44
22 49 44
22 49 44
22 49 44
22 48 43
23 50 45
22 49 45
23 50 45
23 50 46
22 49 44
23 50 46
23 49 45
23 49 45
22 49 45
22 49 44
22 49 44
22 49 44
23 50 45
22 48 43
22 49 44
23 50 45
23 49 45
22 49 45
23 51 46
23 51 46
23 51 46
23 49 45
23 50 46
23 51 46
23 49 44
23 50 45
23 50 45
23 51 46
22 49 44
23 50 45
23 50 45
23 50 45
22 49 44
23 51 46
23 50 45
23 50 45
23 51 46
21 46 42
21 45 41
21 47 43
21 47 43
21 46 42
21 46 42
21 46 42
21 46 42
21 47 43
21 46 42
21 46 42
21 47 43
21 47 42
20 45 41
21 46 42
21 46 42
21 46 42
22 48 44
21 46 42
21 46 42
21 47 43
21 46 42
21 46 42
21 47 43
21 47 43
21 46 42
21 47 43
21 47 43
21 46 42
22 48 43
22 48 44
21 47 43
21 47 43
21 47 42
21 47 43
22 48 44
22 49 44
22 48 44
22 48 44
21 47 43
21 47 42
22 49 45
21 47 43
22 48 43
21 47 43
22 48 43
21 46 42
22 48 44
22 49 44
22 48 43
21 46 42
22 49 45
22 48 43
22 48 44
21 47 43
21 47 43
22 49 45
22 48 44
22 48 44
22 48 44
22 48 43
22 48 44
22 48 44
22 49 45
22 48 44
22 49 44
22 48 44
22 49 44
22 49 45
22 49 44
22 48 44
23 49 45
23 49 45
22 48 43
22 48 44
23 49 45
23 49 45
22 47 43
22 49 44
22 49 44
22 49 44
22 48 44
22 49 44
22 49 44
22 49 44
22 48 44
23 50 45
22 49 44
22 49 44
22 49 44
23 49 45
23 50 45
23 50 45
22 49 44
22 49 44
23 50 45
23 50 45
22 48 44
23 49 45
23 49 45
23 49 45
23 49 45
22 49 44
23 50 45
23 50 45
23 50 45
23 50 45
23 50 45
23 51 46
23 51 46
22 48 44
23 50 45
23 50 46
22 49 44
23 50 45
23 50 45
23 50 45
23 50 45
23 49 45
23 50 45
21 46 42
21 46 43
21 46 42
21 47 43
20 45 41
20 45 41
21 46 42
21 46 42
21 46 42
21 46 42
21 47 43
21 46 42
22 48 44
21 46 42
21 47 43
21 46 42
21 47 43
21 46 42
21 46 42
21 47 43
21 47 43
21 47 43
22 48 44
22 48 44
22 48 43
22 48 44
21 47 42
21 46 42
21 46 42
21 46 42
22 48 43
22 48 44
22 48 44
22 48 44
21 46 42
22 48 43
21 47 43
21 46 42
21 47 43
21 47 42
22 48 44
21 47 43
22 48 44
21 46 42
22 48 44
21 47 43
21 47 42
22 49 45
22 49 44
22 48 43
21 47 43
22 49 44
22 48 43
21 47 43
22 48 43
21 47 43
22 48 44
22 48 44
21 47 42
21 46 42
22 48 44
22 49 45
21 47 43
22 49 44
22 49 44
23 50 45
22 48 43
23 50 45
22 49 44
22 48 44
22 49 44
22 49 44
21 47 43
22 48 43
22 48 44
22 48 43
22 48 43
23 50 45
22 48 44
23 49 45
23 49 45
22 48 44
22 49 44
22 48 44
22 49 44
22 48 44
22 49 44
21 46 42
22 49 44
22 49 45
22 48 44
22 48 43
22 49 44
22 49 44
23 50 45
22 48 44
23 50 45
22 48 44
23 50 45
22 49 44
23 50 46
23 51 46
23 51 46
23 50 45
23 50 45
23 51 46
23 50 45
23 50 45
23 50 45
23 50 46
23 50 45
23 51 46
22 48 43
23 50 45
22 48 44
23 50 45
23 50 45
23 50 45
22 49 44
23 50 45
20 45 41
21 47 43
21 47 43
21 47 43
21 46 42
21 46 42
21 47 43
20 45 42
21 46 42
21 46 42
21 47 43
21 47 43
21 45 41
21 47 43
22 48 44
21 47 43
21 46 42
21 46 42
21 47 42
21 47 43
21 46 42
21 47 43
21 47 43
22 48 43
21 47 42
21 47 43
21 46 42
21 47 43
22 47 43
22 47 43
22 47 43
21 47 43
21 46 42
21 47 43
22 48 43
21 47 42
21 47 43
22 47 43
22 47 43
21 46 42
21 47 43
22 48 44
21 46 42
21 47 42
22 47 43
21 46 42
22 48 44
21 47 43
22 48 43
22 48 44
22 48 44
22 48 43
22 47 43
22 48 44
22 48 44
22 48 44
22 48 44
21 47 43
22 48 44
21 47 42
21 46 42
22 49 44
21 47 43
23 50 45
22 48 43
22 48 43
22 48 44
22 48 44
22 49 44
22 48 43
22 48 43
23 50 45
22 49 45
22 49 44
23 50 45
22 48 43
22 48 44
22 49 44
22 49 45
22 47 43
22 48 43
22 49 45
22 48 43
23 50 45
22 48 44
22 48 44
23 50 45
22 48 43
23 49 45
22 49 44
22 48 43
23 50 45
22 49 44
22 49 44
23 50 45
22 49 44
22 48 44
22 49 44
22 49 45
22 48 44
23 50 45
22 48 43
22 48 44
23 51 46
22 49 44
23 51 46
23 50 45
23 50 46
22 48 44
23 50 46
22 49 44
23 50 45
22 49 44
22 49 44
23 50 45
23 50 46
23 50 45
23 50 45
23 51 46
23 51 46
21 47 43
21 46 42
21 47 43
21 46 42
21 47 43
20 45 41
21 46 42
21 47 43
21 47 43
21 46 42
21 46 42
21 46 42
21 46 42
21 46 42
21 46 42
21 46 42
21 47 42
22 47 43
21 47 43
21 47 43
21 46 42
22 48 44
21 46 42
21 46 42
21 47 42
22 47 43
22 47 43
21 47 43
22 48 43
21 47 43
22 48 44
21 47 43
21 47 43
21 47 43
21 47 43
22 48 43
22 48 43
21 47 43
22 48 44
22 47 43
22 47 43
21 46 42
21 47 42
21 47 43
22 48 44
22 48 43
21 47 43
22 48 44
21 47 43
22 48 44
22 48 44
22 48 44
21 47 43
22 48 44
22 48 44
22 48 44
22 48 44
22 47 43
22 49 44
22 48 44
22 47 43
22 49 44
21 47 43
22 48 44
22 48 44
22 48 44
22 48 43
22 49 44
22 49 44
22 48 43
23 50 45
22 49 44
22 48 44
22 47 43
22 49 44
22 49 44
22 48 43
22 49 44
22 48 43
23 50 45
22 48 44
22 49 44
22 48 43
22 47 43
22 49 44
23 50 45
23 49 45
22 49 44
23 49 45
22 48 43
23 49 45
22 49 44
23 50 45
23 50 46
22 49 45
23 49 45
23 51 46
23 49 45
23 50 45
22 49 44
23 49 45
23 49 45
23 49 44
22 49 44
23 49 45
22 49 44
22 49 44
23 50 45
23 50 45
23 49 45
23 49 45
23 50 45
22 48 44
22 49 44
23 50 45
23 50 45
23 50 45
23 50 45
24 52 47
23 50 45
21 47 43
20 45 41
21 47 43
21 47 43
21 47 43
21 46 42
21 46 42
21 47 43
21 46 42
21 47 43
21 45 42
21 46 42
21 47 43
21 46 42
21 46 42
21 47 43
21 46 42
21 47 43
21 46 42
21 47 43
21 47 43
21 47 43
22 48 44
21 46 42
21 46 42
21 47 43
21 47 43
21 47 43
21 47 43
21 47 43
20 45 41
21 47 43
22 48 44
21 47 43
21 46 42
22 48 43
21 46 42
21 47 43
22 48 44
21 47 43
22 48 43
21 46 42
22 47 43
22 48 43
21 47 43
21 46 42
22 47 43
21 47 43
22 48 43
22 47 43
21 47 43
22 48 44
22 47 43
22 48 43
21 47 42
22 49 44
22 48 44
22 48 43
22 48 44
21 47 43
22 48 43
22 48 43
22 48 43
22 48 44
22 48 43
22 48 44
22 48 44
23 50 45
22 48 43
22 48 44
22 49 45
22 49 44
22 49 44
22 48 43
23 50 45
21 47 42
22 49 44
22 49 44
22 49 44
23 50 45
23 50 45
22 47 43
23 50 45
23 50 45
23 50 46
22 48 44
22 49 44
22 49 45
22 49 44
22 48 44
23 50 45
23 50 45
23 50 46
22 49 44
23 49 45
22 49 44
22 49 44
23 50 45
23 49 45
22 49 44
22 49 44
23 50 45
23 50 45
23 49 45
23 49 45
23 49 45
22 49 44
23 50 45
22 49 44
23 50 45
23 51 46
23 50 45
22 49 44
23 50 45
22 49 44
23 50 45
23 50 46
23 51 46
22 49 44
23 51 46
21 46 42
21 46 42
20 45 41
21 46 42
21 46 42
21 47 43
21 46 42
21 47 43
21 46 42
21 46 42
20 45 41
21 46 42
20 45 41
21 46 42
21 46 42
22 48 44
21 47 43
22 48 43
21 46 42
21 47 43
21 47 43
21 47 42
21 47 43
21 46 42
22 48 43
21 46 42
21 47 43
22 48 44
22 47 43
21 47 43
21 47 43
21 47 42
21 46 42
21 47 42
22 49 44
21 47 43
22 47 43
21 47 43
21 47 43
21 47 43
21 47 43
22 48 43
21 47 43
22 48 44
21 47 42
22 48 43
22 48 44
22 49 44
22 48 44
22 47 43
22 48 43
21 47 43
21 47 43
22 49 44
22 48 43
22 48 44
22 48 44
22 49 45
22 48 44
22 48 43
22 48 44
22 48 43
22 49 44
22 47 43
21 46 42
22 49 44
22 48 43
22 49 45
21 47 43
22 48 44
22 49 44
22 48 44
22 49 44
22 48 43
22 48 44
22 48 44
22 48 44
22 47 43
22 47 43
22 48 43
23 50 45
22 49 45
22 48 44
22 48 44
22 48 44
22 48 44
22 48 43
23 50 45
23 50 45
22 48 44
22 49 45
22 49 44
22 49 44
23 49 45
23 50 46
22 48 43
22 48 44
22 49 45
22 49 44
22 49 45
22 48 44
23 51 46
22 49 44
23 51 46
22 48 44
23 50 45
22 48 44
22 49 44
22 49 44
23 50 45
22 48 44
23 50 45
23 50 45
23 50 45
23 49 45
23 49 45
22 49 44
23 50 45
23 50 45
22 49 44
21 45 42
21 45 42
21 46 42
21 46 42
21 46 42
21 46 42
21 47 43
21 46 42
21 47 43
21 47 43
21 46 42
21 47 43
21 47 43
21 46 43
21 47 43
21 47 43
21 46 42
20 45 41
21 46 42
21 46 42
21 46 42
21 47 42
21 46 42
21 47 43
22 48 44
21 46 42
22 47 43
21 47 43
22 48 43
22 48 44
21 47 43
21 46 42
21 47 43
22 49 44
21 46 42
22 47 43
21 47 43
21 47 42
21 47 43
22 48 44
22 48 43
22 48 43
22 49 45
22 48 44
21 46 42
21 47 43
22 48 43
21 47 43
22 48 43
22 48 43
22 48 43
21 47 43
22 48 44
21 47 43
22 49 44
22 49 45
22 48 43
22 47 43
22 49 44
22 49 44
22 48 43
22 48 44
21 47 42
22 48 43
22 49 44
22 49 44
21 47 43
22 49 44
23 49 45
22 48 43
22 49 44
23 49 45
22 49 44
22 49 44
22 48 43
22 48 44
22 48 44
22 49 44
22 49 45
22 48 43
23 50 45
22 48 44
22 48 44
22 49 44
22 48 44
22 49 44
22 49 45
22 49 44
23 49 45
22 49 44
22 49 44
23 50 45
23 50 45
22 49 45
22 49 44
22 48 44
22 48 44
23 50 45
22 49 44
23 49 45
23 50 45
23 50 45
22 48 44
22 49 45
23 50 46
22 49 44
22 48 43
23 51 46
22 48 43
23 50 45
23 50 45
23 49 45
22 49 44
22 49 44
23 50 45
22 49 45
22 49 44
22 49 45
22 49 44
22 49 44
21 46 42
21 47 43
21 46 42
20 45 41
21 47 43
21 46 42
21 46 42
21 47 43
21 47 43
21 46 42
21 47 43
21 47 43
21 46 42
21 47 43
21 47 43
21 46 42
21 47 43
21 46 42
21 45 41
21 46 42
21 46 42
22 48 44
21 46 42
21 47 43
21 47 43
21 47 43
21 47 43
21 46 41
21 47 43
22 48 43
21 47 43
21 47 43
22 48 43
21 47 43
22 47 43
21 47 43
22 48 43
22 48 44
22 48 44
22 48 43
22 49 45
21 47 43
21 47 43
22 48 43
22 48 43
21 47 43
22 48 44
22 47 43
22 48 43
21 46 42
22 48 44
21 46 42
23 49 45
22 49 44
21 47 43
22 48 43
22 48 44
21 47 43
22 48 43
21 47 43
22 48 43
22 48 44
22 48 43
22 47 43
22 48 44
22 49 44
22 48 44
22 48 43
22 48 43
22 48 44
22 48 43
22 49 44
22 48 43
22 47 43
22 48 44
22 48 44
22 48 44
22 49 44
22 49 44
22 48 44
22 49 45
22 48 44
22 49 44
22 49 44
22 48 44
22 49 44
23 50 46
21 46 42
22 48 43
23 49 45
22 48 43
23 50 45
22 49 44
22 49 44
23 50 46
22 49 44
23 49 45
22 49 44
22 48 43
22 49 44
22 48 44
22 49 44
22 49 45
22 49 44
23 49 45
23 50 45
22 49 44
23 50 45
22 49 45
23 49 45
22 49 44
23 51 46
22 49 44
22 48 44
23 50 45
23 50 45
22 49 44
23 49 45
23 50 46
22 48 43
21 47 43
20 45 41
20 45 42
21 46 42
20 45 41
21 47 43
21 46 42
21 46 42
21 47 43
21 46 42
21 46 42
20 45 41
21 46 42
21 47 43
21 47 43
21 47 43
21 46 42
21 46 42
20 45 41
21 46 42
21 47 43
21 47 43
21 47 43
22 48 43
21 47 43
21 46 42
22 48 44
21 47 43
21 46 42
21 46 42
21 47 43
21 47 43
22 48 44
21 47 43
21 47 43
21 47 43
21 47 42
21 46 42
22 48 44
21 47 42
22 48 44
21 47 43
21 47 43
21 47 43
22 48 43
22 48 43
21 47 43
22 49 44
22 48 44
22 48 43
21 47 43
21 47 43
21 47 42
21 47 43
22 49 44
22 48 43
21 47 43
22 47 43
21 47 43
22 49 45
22 48 44
22 49 44
22 47 43
21 47 43
21 47 43
21 46 42
22 48 43
22 48 44
21 47 43
22 48 43
22 47 43
22 48 43
22 49 45
21 47 43
22 49 44
21 47 43
22 49 44
22 47 43
22 48 43
22 48 43
22 49 44
23 50 45
22 49 44
22 49 44
23 50 45
22 47 43
22 48 44
22 49 44
22 48 43
23 50 45
23 49 45
23 50 46
22 49 44
22 49 45
22 49 44
22 49 45
22 49 44
22 49 44
22 48 43
23 49 45
22 49 45
23 50 45
23 50 45
23 50 45
23 49 44
22 49 44
23 50 45
22 49 44
22 49 44
22 49 44
22 49 44
23 50 45
22 49 45
23 50 45
23 51 46
23 49 45
22 48 44
23 49 45
22 49 44
22 49 44
21 46 42
21 46 42
21 46 42
21 45 42
21 47 43
21 47 43
21 46 42
21 46 42
21 46 42
21 46 42
22 48 44
21 47 43
21 46 42
21 47 43
21 46 42
21 47 43
21 46 42
21 47 43
21 47 43
21 45 41
21 47 42
21 46 42
21 46 42
21 46 42
21 47 43
21 47 43
21 47 43
21 46 42
21 46 42
21 47 42
21 47 43
21 47 43
22 48 43
21 47 42
21 47 43
21 47 43
21 46 42
21 47 43
21 47 43
21 47 43
21 47 43
22 48 44
22 47 43
21 47 43
21 47 43
22 47 43
21 46 42
21 47 43
22 48 44
22 48 43
21 47 43
22 48 44
22 48 43
22 48 43
22 47 43
22 47 43
22 48 43
22 48 44
22 48 43
22 48 43
21 46 42
22 49 44
21 46 42
21 47 43
22 48 43
22 48 44
22 47 43
22 48 44
21 47 43
22 49 44
22 49 44
22 48 44
22 49 44
22 48 44
22 49 44
22 49 44
22 49 44
22 48 43
22 48 44
22 48 44
22 49 44
22 49 44
23 51 46
22 49 44
22 48 44
22 49 44
21 47 43
22 48 43
22 48 44
23 50 45
22 49 44
22 48 44
22 48 44
22 48 44
23 50 45
22 48 44
22 49 44
22 49 44
22 49 44
23 50 45
22 49 44
22 48 43
22 48 44
22 48 44
22 49 44
22 48 44
23 49 45
22 49 44
23 50 45
22 49 45
23 50 45
23 51 46
22 49 44
23 50 45
23 50 45
23 49 45
22 49 44
22 49 45
22 48 43
23 49 45
20 45 41
21 46 42
20 45 41
21 46 42
21 47 43
21 47 43
21 47 43
21 47 43
21 47 43
21 47 43
22 48 44
21 47 43
21 47 43
22 49 44
21 47 43
21 46 42
21 47 43
21 47 43
21 46 42
21 46 42
21 46 42
21 46 42
21 47 42
21 46 42
21 46 42
21 46 42
21 46 42
21 46 42
21 47 43
21 47 43
22 48 43
21 46 42
21 47 43
21 47 43
21 47 43
21 47 43
21 47 43
21 46 42
21 47 43
21 47 43
21 47 43
22 48 43
21 47 43
22 48 44
21 46 42
21 47 43
21 46 42
21 47 43
21 47 43
21 46 41
21 47 43
22 48 43
22 48 44
22 48 43
22 48 44
22 48 44
22 48 43
22 48 44
22 48 44
22 48 43
22 48 43
22 49 45
22 48 43
22 48 44
21 47 42
22 49 44
21 47 43
22 47 43
21 47 43
22 49 44
21 47 43
22 49 45
22 49 44
22 48 44
22 49 45
22 48 44
22 48 43
22 48 43
22 49 44
22 48 44
22 48 44
22 48 44
22 48 44
22 47 43
22 48 44
22 49 44
22 48 43
22 48 44
22 49 44
22 48 43
22 49 45
22 48 43
22 48 43
22 48 44
22 48 44
22 48 43
22 48 44
22 48 44
22 49 44
22 49 44
22 49 44
22 48 44
22 49 44
22 49 44
23 49 45
22 49 44
22 47 43
22 48 44
22 48 43
22 49 44
23 51 46
23 49 45
22 49 44
22 49 44
23 50 45
22 49 44
22 48 43
22 48 44
22 48 43
23 51 46
20 45 41
21 46 42
20 45 41
21 46 42
20 45 41
21 46 42
21 47 43
20 45 41
21 46 42
21 46 42
21 47 43
21 46 42
20 45 41
21 46 42
21 47 43
21 47 43
21 47 43
21 46 42
21 46 42
21 46 42
21 46 42
21 47 43
21 46 42
21 46 42
21 46 42
21 47 43
21 47 43
21 46 42
21 47 43
21 46 42
21 46 42
22 48 43
21 47 43
22 48 44
21 46 42
22 47 43
22 48 44
21 47 43
21 47 43
22 48 43
21 47 43
21 47 43
22 47 43
21 47 43
22 48 43
21 47 42
21 46 42
22 48 43
22 48 44
22 48 43
21 47 43
21 47 43
22 48 44
21 47 43
22 49 45
23 50 46
22 48 44
22 48 43
22 48 43
21 47 43
21 47 42
22 48 43
22 48 43
22 48 43
22 48 44
22 48 43
22 48 44
21 47 43
22 48 44
22 48 44
22 48 43
21 47 43
22 48 43
22 49 44
22 49 44
22 49 44
22 48 44
22 49 44
22 48 44
22 49 44
22 49 44
22 49 44
22 48 43
22 49 45
22 49 45
22 49 44
22 49 44
22 49 44
22 49 44
22 49 45
23 50 45
22 49 45
22 47 43
22 49 45
23 49 45
22 49 44
22 48 44
22 48 43
22 48 44
22 48 44
23 50 45
22 48 44
22 49 45
22 48 44
22 49 44
22 49 44
22 49 44
22 49 44
22 48 43
23 50 45
23 50 45
22 48 43
23 50 45
22 49 44
23 50 45
22 49 45
22 49 44
23 50 45
22 49 45
23 51 46
21 47 43
21 46 42
21 47 43
21 46 42
21 46 42
21 46 42
21 46 42
21 47 43
20 45 42
21 46 43
21 46 42
21 47 43
21 46 42
22 48 44
21 45 42
21 47 43
21 46 42
21 47 43
21 46 42
21 46 42
21 47 43
21 46 42
21 47 43
21 47 43
21 46 42
21 46 42
21 47 43
21 47 43
22 47 43
21 47 43
21 46 42
21 47 43
21 46 42
21 47 43
21 46 42
21 47 43
22 48 44
21 46 42
21 46 42
22 48 43
22 48 43
22 47 43
21 47 43
21 46 42
21 47 43
21 47 42
21 47 42
22 48 43
21 47 43
22 47 43
21 47 43
21 47 43
21 47 42
21 46 42
21 46 41
22 48 44
21 47 43
22 49 45
21 47 43
22 48 43
21 47 43
22 48 44
22 49 44
21 47 43
21 47 43
22 48 44
22 47 43
22 48 43
21 47 42
22 49 44
21 47 43
22 48 43
22 49 44
22 48 44
22 49 44
22 48 44
22 48 44
22 49 44
21 47 42
22 48 43
22 47 43
22 49 45
22 49 44
23 50 45
22 48 43
22 49 45
22 49 44
22 48 44
22 48 44
22 48 43
22 48 44
22 48 44
22 48 43
22 49 44
22 49 45
22 48 44
22 49 45
22 48 44
22 47 43
22 48 44
23 50 45
22 48 44
22 48 44
22 48 44
22 48 43
23 50 45
22 48 44
22 49 45
22 48 44
23 50 45
22 49 45
22 49 44
23 51 46
23 50 46
22 48 44
22 48 43
22 49 44
22 49 44
22 48 44
22 48 43
21 47 43
20 45 41
21 46 42
21 47 43
21 46 42
21 46 42
21 47 43
21 46 42
21 46 42
21 47 43
22 48 43
21 46 42
21 45 41
20 45 41
21 46 42
21 47 43
20 45 41
21 47 43
21 46 42
21 47 43
21 47 43
21 45 41
21 47 43
21 46 42
21 47 43
21 46 42
21 46 42
21 47 43
20 45 41
21 46 42
22 48 43
21 46 42
22 48 43
21 47 42
21 46 42
21 46 42
21 47 43
21 47 43
21 47 43
21 46 42
21 47 43
21 47 43
21 47 43
21 47 43
21 45 41
21 46 42
21 46 42
22 48 44
22 48 44
22 48 44
22 48 44
21 47 43
22 48 44
22 48 44
22 49 44
21 46 42
22 48 44
22 49 44
21 47 42
22 47 43
22 48 44
22 48 44
22 49 44
21 46 42
22 47 43
21 47 42
22 48 44
21 46 42
21 47 43
22 49 44
22 48 44
21 47 43
22 48 43
22 49 44
22 48 44
22 48 44
22 48 44
22 48 44
22 48 43
22 49 44
22 48 43
22 48 44
22 48 43
22 49 44
22 48 44
22 49 44
22 49 44
22 48 44
22 48 44
22 48 44
22 48 44
22 49 44
22 49 44
22 47 43
22 49 45
22 48 44
22 48 44
22 48 44
21 47 42
22 49 44
22 49 44
22 48 43
22 48 44
22 49 44
22 48 43
22 49 44
23 49 45
23 50 45
23 50 45
22 48 44
22 49 44
22 49 44
23 49 45
22 49 44
22 48 44
23 50 46
23 50 45
22 49 44
22 49 44
22 48 44
21 47 43
21 46 42
21 46 42
21 47 43
21 46 42
20 45 41
21 46 42
21 46 42
21 46 42
21 46 42
21 46 42
21 46 42
21 46 42
21 47 43
21 45 41
21 47 43
21 47 43
21 46 43
22 49 44
22 48 44
21 47 43
21 47 43
22 49 44
21 47 43
21 46 42
21 46 42
21 47 42
21 47 43
21 47 42
21 46 41
21 45 41
21 47 43
21 46 42
21 47 43
21 47 43
21 47 43
21 47 43
21 47 43
22 48 43
21 47 43
21 47 43
22 48 43
22 48 44
21 46 42
21 46 42
22 48 43
21 47 43
22 49 45
22 48 44
22 48 43
21 47 42
22 48 44
21 47 43
22 47 43
22 49 45
21 47 43
21 46 42
22 48 43
21 47 43
21 47 43
22 48 44
22 49 45
22 48 43
22 48 44
22 48 44
21 47 42
22 48 44
21 47 43
22 48 43
22 48 44
22 48 43
22 48 43
22 48 44
22 48 43
22 48 44
21 46 42
22 48 43
22 48 44
22 49 45
21 47 43
21 47 43
22 48 43
22 48 43
22 48 44
22 48 44
22 49 44
22 48 43
22 49 44
22 49 44
22 48 44
22 48 43
22 49 45
22 49 44
22 48 43
22 49 44
22 48 44
22 48 44
22 48 43
22 47 43
23 49 45
22 48 44
23 49 45
22 47 43
22 48 43
23 49 45
23 50 45
22 49 44
22 48 44
22 48 44
22 49 45
22 49 45
22 47 43
22 48 44
22 48 44
23 50 45
22 49 44
22 48 44
22 48 43
22 48 44
22 48 44
21 46 42
21 46 42
21 46 42
21 46 42
21 46 42
21 46 42
21 46 42
21 46 42
21 46 42
21 47 43
21 46 42
21 46 42
21 46 42
21 46 42
21 46 42
21 47 43
21 47 43
22 48 44
21 47 43
21 46 42
21 46 42
21 46 42
21 47 43
22 48 43
21 45 41
21 47 43
21 47 42
21 46 42
21 46 42
21 47 43
21 47 43
21 47 43
21 46 42
21 47 43
21 47 42
21 47 43
21 47 43
21 47 43
20 45 41
21 46 42
22 49 45
21 46 42
21 46 42
22 47 43
22 48 43
21 46 42
21 47 43
21 47 43
21 47 43
21 47 42
21 47 43
22 48 44
21 47 43
21 47 42
22 48 43
21 47 43
21 47 43
21 47 43
21 47 43
22 47 43
22 49 44
21 47 43
21 47 43
21 46 42
21 47 43
22 48 44
21 47 42
22 48 44
22 48 43
22 48 44
21 47 43
22 48 43
22 48 44
22 48 43
21 47 43
22 49 44
22 49 44
22 49 44
22 49 44
22 48 44
22 47 43
22 47 43
22 48 44
21 47 43
22 49 44
22 48 44
22 47 43
23 49 45
22 48 44
22 48 43
22 48 44
22 49 44
22 48 43
23 49 45
22 48 44
22 48 44
22 49 44
22 49 45
22 48 44
22 49 45
22 49 44
23 49 45
22 48 44
22 49 44
22 48 43
22 49 45
23 49 45
22 48 44
22 49 44
23 50 45
21 47 43
23 50 45
22 48 44
22 48 43
23 50 45
22 49 45
23 49 45
23 50 45
22 48 43
22 49 44
21 46 42
21 47 43
20 45 41
21 47 43
21 47 43
21 46 42
21 47 43
21 47 43
21 46 42
21 47 43
21 46 42
20 45 41
21 45 42
21 47 43
21 46 42
21 47 43
21 47 43
22 48 44
21 47 43
21 46 42
21 47 43
22 48 43
21 46 42
22 47 43
21 46 42
21 47 43
21 45 41
21 47 43
21 47 43
21 47 43
21 47 43
21 46 42
22 48 43
21 47 43
21 46 42
21 46 42
22 47 43
21 47 43
21 47 43
22 49 44
21 47 42
22 49 44
21 47 43
21 46 42
21 46 42
20 45 41
22 48 43
21 45 41
22 48 44
22 48 43
22 48 43
22 48 43
22 48 44
21 47 42
21 47 43
22 48 44
22 49 44
21 47 43
21 47 43
22 48 44
21 46 42
21 47 42
22 49 44
22 49 44
21 46 42
21 47 43
22 49 44
22 48 43
21 47 43
22 49 45
22 48 44
22 49 44
22 48 43
21 47 43
21 47 43
22 48 44
22 48 43
22 47 43
22 48 43
22 48 44
21 47 43
22 48 44
22 48 44
21 47 43
22 49 44
22 49 44
22 49 44
22 48 43
23 50 45
22 48 44
23 50 45
22 48 43
22 49 44
23 50 45
22 49 44
22 48 44
22 49 44
22 49 44
22 49 44
22 48 44
22 49 44
22 48 44
22 48 44
22 49 44
22 49 45
22 49 45
22 49 44
22 49 45
23 50 45
22 48 44
22 48 43
22 48 43
22 49 44
23 50 45
22 48 43
22 48 44
22 48 43
23 49 45
23 50 45
22 48 44
