P3
120 80
255
18 41 38
18 40 37
18 40 37
18 40 38
18 40 38
18 40 38
18 40 37
17 40 37
18 41 38
18 41 38
18 41 39
17 40 37
18 41 38
18 41 38
18 41 38
18 41 38
18 41 38
18 41 38
18 41 38
18 42 39
18 41 38
18 40 38
18 40 37
18 41 39
18 40 38
18 41 39
18 41 38
18 40 38
18 41 38
18 40 37
18 41 38
18 40 37
18 41 39
18 41 38
18 41 38
19 42 39
18 41 39
19 43 40
18 41 38
18 41 38
18 42 39
18 41 38
18 41 38
18 40 37
18 41 39
19 42 39
18 40 38
18 41 38
18 40 38
18 40 38
18 41 38
19 43 40
18 41 39
18 41 38
18 41 38
18 42 39
18 41 38
18 41 38
18 41 38
18 41 39
18 41 38
18 41 38
18 41 38
19 42 40
18 41 38
18 41 38
18 41 39
18 42 39
19 42 39
18 41 38
18 42 39
18 40 38
18 41 38
19 42 39
19 42 39
18 41 38
18 42 39
18 41 38
18 41 38
18 41 38
18 40 38
18 41 38
18 42 39
19 43 40
18 41 38
18 41 38
18 41 38
19 43 40
18 41 39
18 41 38
19 42 39
18 41 38
19 42 39
18 41 39
18 41 39
18 41 38
19 42 39
19 42 39
19 42 39
18 41 38
19 42 39
18 42 39
19 42 39
19 42 39
18 41 39
18 41 38
18 41 39
18 42 39
19 42 39
19 42 39
19 42 39
18 41 38
18 41 38
19 42 39
19 43 40
19 42 39
19 42 39
19 43 40
19 42 39
19 42 39
18 41 38
18 40 38
18 41 38
18 41 39
18 41 38
18 40 37
18 40 38
18 41 38
18 41 39
18 41 38
18 41 38
18 41 38
18 41 38
18 41 39
18 41 39
18 41 38
18 41 39
18 41 38
18 41 39
18 41 38
18 41 38
18 40 37
18 41 38
18 41 38
18 41 38
18 40 37
18 41 39
18 41 39
18 41 38
19 42 39
18 40 37
18 40 38
19 42 39
18 42 39
18 41 38
19 42 39
18 41 38
18 40 37
18 41 38
18 41 38
18 42 39
18 42 39
18 41 38
19 42 39
18 41 38
18 40 38
19 42 39
19 42 39
19 42 39
18 41 38
19 42 39
18 41 38
19 42 39
18 41 38
18 42 39
18 41 38
18 42 39
19 42 39
18 42 39
18 41 38
19 43 40
18 42 39
18 42 39
18 41 38
19 42 39
18 41 38
18 42 39
19 42 39
18 41 38
19 43 40
18 42 39
18 42 39
18 41 38
18 41 39
19 42 39
19 42 39
18 41 38
18 42 39
19 42 39
19 42 39
19 42 39
18 42 39
19 42 39
18 41 38
19 42 39
18 41 39
19 42 39
19 42 39
18 42 39
19 42 39
19 42 39
19 42 39
19 42 39
19 42 39
18 41 39
19 42 39
19 43 40
19 42 39
18 41 38
18 41 38
18 41 38
19 42 39
18 42 39
19 43 40
19 43 40
18 41 39
18 41 38
19 42 39
19 42 39
19 42 39
19 42 39
19 42 39
18 42 39
18 41 38
18 41 38
18 41 38
19 43 40
19 42 39
19 42 39
19 43 40
18 41 38
18 40 37
19 43 40
18 41 38
18 41 38
18 41 38
18 41 38
18 41 38
18 41 38
18 41 39
18 41 38
18 42 39
18 41 39
18 41 38
18 41 38
18 41 38
18 42 39
18 41 38
18 41 38
18 41 38
18 40 38
18 42 39
18 41 39
18 42 39
18 41 38
18 40 37
18 41 38
18 41 38
19 42 39
19 42 39
18 41 38
18 41 38
18 41 38
19 42 39
19 42 39
19 42 40
18 42 39
18 40 38
18 42 39
19 42 39
18 41 38
19 42 39
19 42 39
18 42 39
18 41 38
18 41 38
18 42 39
19 42 39
19 42 39
19 42 39
18 41 38
19 42 39
18 41 38
18 41 38
18 42 39
19 42 39
18 42 39
18 41 38
19 42 39
19 42 39
19 43 40
19 42 39
18 41 38
19 42 39
18 41 38
19 42 39
19 42 39
19 42 39
19 42 39
18 41 38
19 42 39
18 41 38
19 42 39
19 42 39
19 42 39
18 41 38
19 42 39
19 43 40
19 42 39
18 41 38
19 42 39
19 42 39
19 42 39
19 42 39
19 42 39
19 42 39
19 42 39
19 43 39
19 42 39
18 41 38
19 43 40
18 41 38
19 42 39
19 43 40
19 42 39
19 42 39
18 41 38
19 42 39
19 42 39
19 42 39
19 43 40
19 42 39
19 42 39
19 42 39
19 42 39
19 43 40
18 41 38
19 42 39
19 43 40
19 43 40
19 42 39
19 42 39
19 43 40
19 43 40
18 40 38
18 41 38
19 43 40
19 42 39
19 43 40
18 42 39
18 42 39
18 41 38
18 42 39
18 42 39
18 40 38
18 41 38
18 41 38
18 40 38
18 41 38
19 43 40
18 41 39
18 41 38
18 40 38
18 42 39
19 42 40
18 41 39
18 41 39
18 41 38
18 41 39
19 42 39
18 41 39
18 41 38
18 41 38
18 41 38
19 42 39
19 43 40
18 40 38
18 41 39
19 43 40
18 42 39
19 43 40
18 42 39
19 42 39
19 42 39
18 42 39
18 41 38
18 41 38
18 41 38
18 42 39
19 42 39
19 42 39
19 42 39
19 42 39
19 43 40
19 42 39
19 43 40
19 43 40
18 41 38
18 41 39
19 43 40
18 41 38
19 43 40
19 42 39
18 41 38
18 42 39
19 42 39
19 42 39
18 42 39
19 42 39
19 42 39
19 42 39
19 42 39
19 43 40
18 42 39
19 43 40
19 42 39
18 41 38
19 42 39
19 43 40
18 42 39
19 42 39
19 42 39
19 42 39
19 42 39
19 43 40
19 43 40
19 42 39
18 41 38
19 42 39
19 42 39
19 43 40
19 43 39
19 43 40
19 42 39
19 42 39
19 43 40
19 42 39
19 43 40
19 42 39
19 43 40
19 42 39
18 41 38
19 43 40
19 43 40
19 43 40
19 43 40
18 42 39
19 42 39
19 43 40
19 42 39
19 43 40
19 42 39
18 42 39
19 43 39
19 43 40
19 42 39
19 43 40
19 43 40
19 42 39
19 42 39
19 43 40
19 43 40
19 42 39
19 42 39
19 42 39
19 43 39
19 43 40
19 43 40
19 42 39
19 43 40
18 41 38
18 41 39
18 42 39
18 41 38
18 41 38
18 42 39
19 42 39
18 41 38
18 41 39
19 42 39
19 42 39
18 41 39
18 41 38
19 42 39
18 41 38
18 41 38
18 41 39
19 42 39
19 42 39
18 41 39
19 42 39
19 42 39
19 42 39
18 41 38
19 42 39
18 41 38
19 42 39
19 42 39
18 42 39
18 42 39
18 41 38
19 42 39
19 42 39
19 42 39
19 42 39
18 41 38
18 41 39
19 42 39
19 43 40
18 41 38
19 42 39
19 42 39
19 42 39
19 43 40
18 41 38
18 41 38
19 42 39
19 42 39
19 42 39
19 43 40
19 42 39
19 42 39
19 42 39
19 42 39
19 44 40
19 43 40
19 42 39
19 42 39
19 43 40
19 42 39
19 42 39
19 42 39
19 42 39
18 41 38
19 42 39
19 42 39
19 42 39
19 42 39
19 42 39
19 43 40
19 43 40
19 43 40
18 41 38
19 43 40
19 42 39
19 42 39
19 42 39
19 42 39
19 44 41
19 42 39
19 42 39
19 42 39
19 43 40
19 42 39
19 43 40
19 43 40
19 42 39
19 42 39
20 44 40
19 44 40
19 42 39
19 43 40
19 42 39
19 43 40
19 43 40
19 42 39
19 43 39
19 43 40
19 43 40
19 43 40
19 43 40
19 43 40
19 43 40
19 43 39
19 43 40
19 42 39
19 43 40
19 43 40
19 42 39
19 42 39
20 44 40
19 43 39
19 43 39
19 43 40
19 43 40
20 44 41
19 42 39
19 42 39
19 44 40
19 43 40
18 41 38
19 42 39
18 42 39
19 42 39
19 42 39
18 41 38
18 41 38
19 42 39
18 42 39
18 40 38
19 42 39
18 42 39
18 42 39
18 41 39
19 43 40
18 42 39
19 42 39
19 42 39
18 42 39
19 42 39
18 41 38
18 41 38
18 42 39
19 42 39
19 42 39
19 42 39
18 42 39
18 41 38
19 42 39
18 41 38
19 42 39
19 42 39
18 41 38
19 42 39
18 42 39
18 41 38
19 43 40
19 43 40
19 42 39
19 42 39
19 42 39
19 43 40
19 42 39
19 42 39
19 42 39
19 42 39
19 42 39
19 42 39
18 41 38
19 43 40
19 43 40
19 43 40
19 42 39
19 42 39
19 43 40
19 42 39
19 43 40
19 43 40
18 42 39
19 42 39
19 42 39
19 42 39
19 42 39
19 43 40
19 43 39
19 42 39
19 42 39
19 43 40
19 42 39
19 42 39
19 43 40
19 42 39
19 42 39
18 41 38
20 44 41
19 43 39
19 43 40
19 43 40
19 43 39
19 42 39
19 42 39
19 43 40
19 43 39
19 43 40
19 42 39
19 43 40
19 43 39
19 42 39
19 43 40
19 44 40
19 43 40
20 44 40
19 43 40
19 43 40
19 43 40
19 43 39
20 44 40
19 43 40
19 42 39
19 43 39
19 42 39
20 44 41
19 43 40
19 43 40
19 42 39
19 43 40
19 43 40
19 43 40
19 43 40
19 42 39
19 43 40
19 43 40
19 44 40
19 42 39
19 43 39
20 45 41
19 43 39
19 43 40
19 42 39
19 43 40
19 42 39
18 41 38
19 42 39
18 41 38
18 41 38
18 41 38
19 42 39
19 42 39
19 42 39
19 43 40
18 40 38
18 41 38
19 42 39
19 42 39
18 42 39
18 41 38
18 42 39
18 41 38
19 42 39
18 41 38
19 43 40
18 41 38
18 41 38
18 41 38
19 42 39
18 41 38
18 41 38
19 42 39
19 43 40
19 42 39
19 42 39
18 41 39
19 43 40
19 42 39
19 42 39
19 42 39
19 43 40
18 41 38
18 41 38
19 42 39
18 42 39
19 43 40
19 42 39
19 42 39
19 43 40
18 41 38
19 43 40
19 43 40
19 42 39
19 42 39
19 42 39
19 42 39
19 44 40
19 44 40
19 43 39
19 43 40
19 43 40
19 42 39
19 43 40
19 43 40
19 42 39
19 43 39
19 43 40
19 42 39
19 43 40
19 43 40
19 42 39
19 42 39
19 42 39
19 43 40
19 43 40
19 43 40
19 42 39
19 42 39
19 42 39
19 43 40
19 42 39
19 43 40
19 42 39
19 42 39
20 44 40
19 43 40
19 42 39
19 44 40
20 44 41
19 43 40
19 43 40
19 43 40
20 44 41
19 43 40
19 43 39
19 44 40
20 44 41
19 42 39
19 42 39
19 43 40
20 44 41
19 43 40
19 43 40
19 43 40
19 43 40
20 44 41
19 43 39
19 43 40
20 45 41
19 43 40
19 43 40
19 44 40
19 42 39
20 45 41
19 43 39
19 43 40
19 43 40
19 43 40
20 44 41
20 44 40
20 44 41
19 43 40
20 44 41
19 43 40
18 41 38
18 41 38
19 42 39
19 42 39
19 42 39
18 42 39
19 42 39
18 42 39
19 42 39
19 43 40
19 42 39
19 42 39
18 41 38
19 42 39
19 42 39
18 42 39
19 42 39
19 42 39
18 41 38
18 41 38
19 42 39
18 41 38
19 43 39
19 43 39
18 41 38
19 42 39
19 42 39
19 43 40
19 43 40
19 43 40
19 42 39
19 42 39
19 42 39
19 42 39
19 43 39
19 43 40
19 42 39
19 42 39
19 43 40
19 42 39
19 42 39
19 42 39
19 42 39
19 42 39
19 42 39
19 42 39
19 43 39
19 42 39
19 43 40
19 42 39
19 43 40
19 42 39
19 42 39
19 43 40
19 42 39
19 43 39
19 43 39
19 43 39
19 42 39
19 42 39
20 44 41
19 43 40
19 42 39
19 43 40
19 43 40
19 43 40
19 43 40
19 43 39
19 43 40
19 43 40
19 42 39
20 44 41
19 42 39
19 44 40
20 44 41
19 43 40
19 43 40
19 43 40
19 44 40
20 44 40
19 43 40
19 43 40
19 43 40
19 43 40
19 43 39
20 44 40
19 43 40
19 43 40
20 44 41
19 43 40
20 44 41
19 43 40
20 44 40
19 43 40
19 43 40
19 43 40
19 43 40
20 44 40
19 43 40
20 44 41
20 44 40
19 43 39
20 44 40
19 43 40
19 43 40
19 43 40
20 44 40
19 43 40
19 43 40
20 44 40
20 44 40
19 43 40
19 43 40
19 43 40
20 44 41
19 43 40
20 44 40
19 43 40
20 45 41
20 45 41
19 42 39
19 42 39
19 42 39
19 43 40
19 42 39
19 42 39
19 42 39
19 42 39
19 42 39
19 42 39
19 43 40
19 43 40
18 42 39
19 43 40
19 43 40
19 43 40
19 42 39
19 42 39
19 42 39
19 42 39
19 43 40
19 42 39
19 42 39
19 42 39
19 43 40
19 42 39
19 42 39
19 42 39
19 43 40
19 43 40
19 42 39
19 42 39
19 42 39
19 43 40
19 43 39
19 43 40
19 42 39
19 43 40
19 43 39
19 43 40
19 43 40
19 43 40
20 44 41
19 43 40
19 43 40
19 42 39
19 42 39
19 42 39
19 42 39
19 42 39
19 43 40
19 43 39
19 43 40
19 43 40
19 43 39
19 44 40
19 43 40
19 43 40
19 44 40
19 42 39
19 43 40
19 43 40
19 43 40
19 43 40
19 43 40
19 43 39
19 43 40
19 43 40
20 44 40
19 43 39
20 45 41
19 42 38
20 44 41
19 43 40
19 43 40
19 43 40
19 43 40
19 43 40
20 44 40
19 43 40
19 44 40
19 43 40
19 43 40
19 44 40
20 44 41
20 44 41
20 44 41
19 43 40
19 43 40
20 44 40
19 43 40
20 44 41
20 44 41
20 44 41
19 44 40
20 44 40
20 44 40
20 44 41
20 44 40
20 45 42
20 44 41
19 43 40
20 44 41
20 44 41
20 45 41
19 43 40
20 44 40
20 44 40
20 45 42
20 45 41
20 44 41
20 44 40
20 44 40
20 44 41
19 43 40
20 44 41
20 45 41
20 44 40
20 44 41
19 43 40
18 41 38
19 43 40
18 42 39
18 41 38
19 42 39
19 43 40
19 42 39
18 41 39
19 42 39
19 42 39
19 42 39
19 43 40
18 41 38
19 43 40
19 42 39
19 43 40
19 42 39
19 42 39
19 42 39
19 42 39
19 43 40
19 42 39
19 42 39
19 43 40
18 41 38
19 43 40
19 43 39
19 42 39
19 43 40
19 42 39
19 43 40
19 42 39
19 44 40
19 44 41
19 42 39
19 43 40
19 42 39
19 43 39
20 44 40
19 44 41
19 43 40
19 43 40
19 42 39
19 43 40
19 42 39
19 42 39
19 42 39
19 43 40
19 43 40
19 43 40
19 42 39
20 44 41
19 43 40
19 43 40
20 44 41
19 43 40
19 43 40
19 43 40
20 44 41
19 43 39
19 42 39
19 43 39
19 43 40
19 44 40
20 44 41
19 43 40
20 44 41
19 43 40
19 43 40
20 44 40
19 43 40
20 44 41
19 43 40
20 44 40
20 44 41
19 43 39
19 43 40
19 43 39
20 44 40
20 45 41
20 44 41
20 44 41
20 44 40
19 43 40
19 43 40
19 43 40
19 43 40
19 43 39
20 44 40
20 44 40
20 44 41
20 45 41
19 43 40
19 44 40
20 44 41
20 45 41
20 44 41
20 44 41
20 45 41
20 44 41
20 44 41
20 45 41
20 45 41
20 44 40
20 44 41
20 44 40
20 44 40
20 45 42
20 44 40
20 45 41
20 44 41
19 43 40
20 45 41
19 43 40
20 44 41
20 44 40
20 44 41
20 44 41
20 44 41
20 44 40
19 42 39
19 42 39
19 42 39
18 42 39
19 42 39
18 41 38
19 43 40
19 43 40
18 41 38
18 42 39
19 43 39
19 42 39
19 42 39
19 42 39
19 43 40
19 43 39
19 43 40
19 43 40
19 43 40
19 43 40
19 44 41
19 42 39
19 43 40
19 43 39
19 43 40
19 43 40
19 43 40
19 43 40
19 43 39
19 42 39
19 42 39
19 43 40
19 43 40
19 42 39
19 42 39
19 42 39
20 44 40
19 43 39
19 42 39
19 43 40
19 43 40
19 42 39
19 43 40
19 43 40
19 43 39
19 43 40
20 44 41
19 43 40
20 44 41
19 43 39
20 44 40
19 43 40
19 43 40
20 44 41
19 43 40
19 42 39
20 44 41
19 43 40
20 44 41
19 43 39
19 43 40
19 43 40
19 43 40
19 43 40
19 44 40
20 44 41
20 44 41
20 44 41
20 44 41
19 43 40
20 45 41
19 43 40
20 44 41
20 45 41
20 44 41
19 43 40
19 43 40
19 43 40
20 44 41
20 44 41
20 45 42
19 43 39
20 44 40
20 44 40
20 44 41
20 44 40
20 44 41
20 45 41
20 45 41
19 43 40
20 44 40
20 45 41
20 44 40
20 45 41
20 44 40
20 44 40
19 43 39
20 44 40
19 43 40
20 44 40
20 45 42
20 44 41
20 44 40
20 44 41
20 44 41
20 44 40
20 44 41
20 45 42
20 45 42
21 46 42
20 45 41
20 43 40
20 45 41
20 44 41
20 44 41
20 45 41
20 45 42
20 45 41
20 44 41
20 45 41
19 42 39
18 41 38
19 42 39
19 42 39
19 42 39
19 43 40
19 43 40
19 42 39
19 42 39
19 42 39
19 42 39
19 43 40
19 42 39
19 43 39
19 43 40
19 43 39
19 43 39
19 43 39
19 43 40
19 42 39
19 43 40
19 43 40
20 44 40
19 43 39
19 44 40
19 43 40
19 43 40
20 44 41
19 43 40
19 43 40
19 43 40
19 43 40
19 43 40
19 43 40
20 44 41
20 44 40
19 43 40
19 42 39
19 43 39
19 43 40
20 44 40
19 42 39
19 43 40
19 42 39
19 43 39
19 42 39
19 43 40
20 44 41
19 43 40
19 43 40
20 44 41
19 43 40
19 43 40
19 42 39
20 44 40
20 44 40
19 43 39
19 43 39
20 44 40
20 44 41
19 43 40
20 44 41
20 44 41
20 44 41
20 44 40
19 43 39
20 44 41
20 44 41
20 44 41
20 44 41
20 44 40
20 45 41
19 43 40
19 43 40
20 44 40
19 43 40
20 44 40
19 43 40
20 44 40
20 44 41
19 43 40
20 44 40
20 44 40
20 45 41
20 44 40
20 44 40
20 44 41
20 44 41
20 45 41
19 43 40
20 44 40
20 45 41
20 44 41
19 43 39
20 44 41
20 45 41
20 44 41
19 43 40
20 44 40
20 45 41
20 45 41
20 45 42
20 44 41
20 44 41
21 46 42
20 44 41
21 46 42
20 44 40
20 44 41
20 44 40
20 44 41
20 45 42
20 45 41
20 44 40
20 45 41
21 46 42
20 45 42
20 45 42
21 46 42
20 45 42
19 43 40
19 42 39
19 43 39
19 43 40
19 42 39
19 42 39
19 43 40
19 44 40
19 42 39
19 43 39
19 42 39
19 42 39
19 42 39
19 43 40
19 42 39
19 43 40
19 43 40
20 44 41
19 43 40
19 43 40
20 44 40
19 43 39
19 43 40
18 41 38
18 41 38
20 44 41
20 44 41
19 42 39
20 45 42
19 42 39
19 43 40
19 42 39
20 44 41
19 43 40
19 43 40
19 43 40
19 43 40
19 43 40
19 44 40
20 44 41
20 44 40
19 43 40
19 43 40
19 42 39
19 43 40
20 44 41
19 44 40
19 42 39
20 44 40
20 44 40
19 44 40
20 44 41
19 43 40
20 44 41
20 44 41
19 43 40
20 44 41
20 44 41
19 43 40
19 43 39
20 46 42
20 44 41
20 44 40
20 44 41
20 44 41
20 45 41
20 45 42
20 44 41
20 44 40
20 44 41
20 45 41
20 44 41
19 43 40
20 44 41
20 45 42
20 44 40
19 43 40
20 45 41
20 44 40
20 45 41
20 45 42
20 44 40
20 44 41
20 44 40
20 44 40
20 44 41
20 44 41
20 44 40
20 44 40
20 45 41
20 45 41
20 45 41
20 44 41
20 45 42
20 45 42
20 44 40
20 45 41
20 44 40
20 45 41
20 45 41
20 44 41
20 44 40
20 44 41
20 45 41
20 45 41
20 44 41
20 45 41
20 45 41
20 45 42
20 44 41
20 45 41
20 44 41
20 44 41
20 44 40
20 45 41
20 45 41
21 46 43
20 45 41
20 45 41
20 45 41
19 43 40
19 43 40
19 43 39
20 44 41
19 43 40
19 42 39
19 43 39
19 44 40
19 43 40
19 43 39
18 41 38
19 42 39
19 42 39
19 43 40
19 43 40
19 43 39
19 42 39
19 43 39
19 42 39
19 43 40
20 45 41
19 44 40
19 43 40
19 43 40
19 43 39
19 44 40
19 43 40
19 43 40
19 42 39
19 43 40
19 43 40
19 43 40
20 44 41
20 44 41
20 44 41
20 44 40
19 43 40
20 44 41
19 43 39
19 43 40
20 44 41
20 44 40
19 43 40
19 43 40
20 44 41
19 43 40
20 44 41
19 43 40
20 44 40
20 44 40
20 44 41
20 44 41
20 44 41
20 44 41
20 44 41
20 44 40
20 44 41
20 44 41
20 44 40
20 45 41
20 44 41
20 44 40
20 44 40
20 45 41
19 43 40
20 44 40
19 43 40
20 44 41
20 45 42
21 46 42
20 44 41
20 44 40
20 44 41
20 44 41
20 44 41
20 44 41
21 46 42
20 44 41
20 44 41
20 44 41
20 44 41
20 44 41
20 46 42
20 45 42
20 45 41
20 45 41
20 45 41
20 45 42
20 45 41
20 44 41
20 45 42
20 45 41
21 46 42
20 46 42
20 45 41
20 45 42
20 44 41
20 44 41
20 45 42
20 44 41
20 45 41
20 45 42
20 45 41
21 46 42
20 45 41
20 45 41
20 45 41
20 44 41
20 45 41
20 44 40
20 45 42
21 46 42
21 46 42
20 45 42
20 45 42
20 45 41
20 45 42
20 45 41
20 45 41
20 45 41
19 43 40
19 43 40
19 43 39
19 43 39
19 43 40
19 43 40
19 42 39
19 43 40
19 43 40
19 43 40
19 42 39
19 43 40
19 43 40
19 42 39
19 43 40
19 43 39
19 43 40
19 43 40
19 42 39
19 43 40
19 43 39
20 44 41
20 44 41
20 44 40
20 44 41
19 43 40
20 45 41
20 44 41
20 44 40
19 43 40
20 44 41
20 44 40
19 43 40
20 44 41
19 44 40
20 44 41
19 43 40
20 44 40
20 44 41
20 44 41
19 42 39
19 43 40
20 45 41
19 43 40
20 44 40
20 44 41
20 44 41
20 44 40
20 44 40
19 43 40
20 44 41
20 45 41
20 45 42
20 45 41
20 44 41
20 45 42
20 45 41
20 44 41
20 44 41
19 43 40
20 44 41
20 45 41
20 44 41
20 45 41
19 43 40
20 45 41
20 45 41
20 45 41
20 44 40
20 44 41
20 45 41
20 44 40
20 44 40
20 45 42
20 44 40
20 45 41
20 44 41
20 45 42
20 45 41
20 45 41
20 45 41
20 44 41
20 45 42
20 45 41
20 45 41
20 45 41
20 44 41
21 47 43
21 46 43
20 45 41
20 45 42
20 45 41
20 45 41
20 45 41
20 45 42
20 44 41
21 46 42
20 45 41
20 44 41
20 45 41
20 44 40
20 45 42
20 45 42
20 45 42
20 45 41
20 45 42
20 45 41
21 46 42
20 45 41
20 45 41
20 45 41
20 44 41
20 45 41
20 45 41
20 45 42
20 45 42
21 47 43
20 45 41
20 44 40
21 46 42
19 43 40
19 43 40
19 43 40
19 43 40
19 42 39
19 43 40
19 42 39
19 43 40
19 42 39
19 42 39
19 42 39
19 43 40
20 44 40
20 44 40
19 43 40
19 43 40
19 42 39
19 43 39
19 43 40
19 43 40
19 43 40
20 45 41
19 44 40
19 42 39
20 44 41
20 44 40
19 42 39
20 44 40
19 43 40
20 44 41
20 44 41
20 44 41
19 44 40
20 44 41
20 44 41
20 45 41
19 43 40
19 43 40
20 44 41
19 43 40
20 44 41
20 44 40
20 44 40
20 45 42
20 44 41
20 44 41
19 44 40
20 45 41
20 45 41
20 44 41
20 44 41
20 44 40
20 45 41
20 44 40
20 45 41
20 44 40
20 44 41
20 44 41
20 44 41
20 44 40
20 45 41
20 45 41
20 45 41
20 44 40
19 43 40
20 45 41
20 45 42
21 46 42
20 45 41
20 44 40
20 45 41
20 45 41
20 44 40
20 45 41
20 45 42
20 45 41
20 44 41
21 46 42
20 44 41
20 45 41
20 45 41
20 44 41
20 45 41
20 45 42
20 44 40
20 45 41
20 45 42
21 46 42
21 46 42
20 45 41
21 47 43
20 45 41
20 44 40
20 44 41
21 46 42
21 46 42
20 45 41
21 46 42
21 46 42
21 46 42
20 45 41
20 45 42
20 45 41
20 44 41
21 46 42
20 45 41
20 45 42
20 45 42
20 45 41
21 45 41
21 46 42
21 46 42
20 45 41
21 46 42
21 46 42
21 46 42
20 45 42
21 46 42
20 45 41
21 46 42
19 44 40
19 43 39
19 43 40
19 43 39
19 43 40
19 43 40
19 42 39
19 43 40
19 43 40
19 43 40
19 43 40
19 43 40
19 43 40
19 43 40
19 44 40
19 43 40
20 45 41
19 43 39
19 43 40
19 42 39
19 42 39
19 43 40
20 44 41
19 43 40
20 45 41
19 42 39
20 44 40
20 44 40
20 44 41
20 44 40
19 43 40
19 42 39
20 44 41
20 44 40
20 44 41
20 44 40
20 44 41
20 44 40
20 44 40
20 44 40
19 43 40
20 45 41
20 44 40
20 44 41
19 43 40
19 43 40
20 44 40
19 43 40
20 44 41
20 45 41
20 44 41
20 44 41
20 45 41
19 43 40
20 45 41
20 44 41
20 45 41
20 44 41
21 46 42
20 45 41
20 45 42
20 44 40
21 46 42
20 45 41
20 44 41
20 45 42
20 45 41
20 45 41
20 45 41
20 45 41
20 45 41
20 45 42
20 44 40
20 44 41
20 44 40
20 45 42
20 45 41
20 45 41
20 45 42
20 45 42
20 45 42
20 44 41
21 46 42
20 45 42
21 46 42
20 45 41
20 44 40
20 45 41
21 46 42
20 44 41
21 46 42
20 45 41
21 46 42
20 45 41
21 46 42
21 47 43
21 47 43
21 46 42
20 44 40
20 45 41
21 47 43
21 46 42
20 45 41
21 46 42
20 45 42
20 45 41
21 46 42
21 46 42
21 46 42
21 46 42
20 45 41
21 46 42
21 46 42
20 45 41
21 46 42
21 46 42
21 46 42
21 46 42
21 46 42
21 47 43
19 42 39
19 43 40
18 41 38
20 44 40
19 42 39
19 43 40
20 44 40
20 44 40
20 44 41
19 43 40
19 43 40
19 43 40
20 44 41
19 43 39
20 44 41
19 43 39
19 43 40
20 45 41
19 42 39
20 44 40
19 43 40
20 44 41
20 44 41
19 44 40
20 44 40
20 44 40
20 44 41
20 44 41
20 44 40
19 42 39
20 44 40
19 43 40
20 45 41
19 44 40
20 44 41
20 44 41
20 44 40
19 43 39
20 45 42
20 44 41
20 44 40
20 44 41
20 45 41
20 44 40
20 44 41
20 43 40
19 43 40
20 44 41
20 44 41
21 46 42
20 45 41
20 44 41
20 45 41
20 44 40
20 44 40
20 43 40
20 45 42
20 45 41
21 46 42
20 45 41
20 45 41
20 44 41
20 44 41
20 45 41
20 45 42
20 45 41
20 44 41
20 45 42
20 44 41
20 45 41
20 45 41
20 45 42
20 45 41
21 46 42
21 46 42
19 43 40
20 44 41
21 46 42
20 43 40
20 45 41
20 45 42
20 45 41
20 45 41
20 45 41
20 45 41
20 44 41
21 46 42
21 46 42
21 46 42
21 46 42
20 45 41
21 46 42
21 47 43
21 46 42
21 46 42
21 46 42
21 46 42
20 45 41
20 45 41
21 46 42
20 45 41
21 46 42
20 45 41
21 46 42
21 46 42
21 46 42
21 47 43
21 46 42
21 46 42
21 46 42
21 46 42
20 45 41
21 46 42
21 47 43
20 45 41
20 45 41
21 46 42
21 47 43
21 47 43
21 46 42
19 43 40
19 43 40
19 43 40
20 44 40
20 44 41
19 42 39
19 43 40
19 43 40
20 44 40
19 43 40
19 43 40
19 43 40
19 43 39
20 44 40
20 44 40
19 44 40
19 43 40
20 45 42
20 44 41
20 44 41
19 43 40
19 43 39
20 44 40
20 44 40
20 44 40
19 43 39
19 43 40
20 44 40
20 44 40
20 44 41
20 44 41
20 44 40
19 43 40
20 44 40
20 44 40
20 45 42
20 44 41
20 45 41
20 44 41
20 43 40
20 45 41
20 45 41
20 45 42
20 45 41
20 44 41
20 44 41
20 44 41
20 45 41
20 44 40
20 44 41
20 44 41
20 44 41
20 45 41
20 45 41
20 45 41
19 43 40
20 44 41
20 45 42
20 45 41
20 45 42
20 44 40
20 44 40
20 44 40
21 46 42
20 45 41
21 46 42
20 44 41
21 46 42
20 45 41
20 44 41
20 45 41
20 45 41
20 44 41
20 45 41
20 44 41
20 45 42
21 46 42
21 46 42
21 46 42
20 45 41
20 45 41
20 45 41
21 47 43
20 45 41
21 45 42
20 45 41
21 46 42
21 46 42
21 46 42
21 46 42
21 46 42
20 45 41
21 45 42
21 46 42
21 46 42
20 44 40
21 46 42
21 46 42
21 47 43
21 46 42
21 47 43
21 47 43
21 46 42
21 46 42
21 46 42
21 46 42
21 46 42
21 46 42
20 45 41
21 47 43
21 46 42
21 46 42
21 47 43
21 47 43
21 46 42
21 46 42
21 46 42
21 46 42
21 47 43
21 46 42
19 43 40
19 43 40
20 44 40
19 43 39
19 43 39
19 42 39
20 44 40
19 43 40
20 44 41
19 43 40
19 43 39
20 44 40
20 44 40
20 44 41
19 43 40
19 43 40
20 44 41
19 43 40
20 44 40
19 43 40
20 44 41
20 44 41
20 45 41
20 44 41
19 43 40
20 44 40
19 43 40
20 45 41
20 44 40
20 44 40
20 44 40
20 44 41
19 43 39
20 45 42
20 44 40
20 44 41
19 43 40
19 43 40
21 46 42
20 44 41
20 45 42
20 44 41
20 44 41
20 44 40
20 44 41
20 44 40
20 44 40
20 45 41
19 43 40
20 44 41
20 44 41
20 45 41
20 44 41
20 45 41
20 45 41
20 44 40
20 45 41
20 45 42
20 45 41
20 45 41
21 46 42
20 44 41
20 45 41
21 46 42
21 46 42
20 45 41
20 45 41
20 45 41
20 45 41
20 45 42
21 47 43
20 45 41
20 45 41
20 45 41
20 45 41
21 46 42
20 45 41
21 46 42
21 46 42
20 44 40
21 46 42
21 46 42
21 46 42
21 47 43
21 46 42
20 45 41
21 46 42
20 45 42
21 46 42
21 47 43
21 47 43
21 47 43
21 46 42
21 46 42
21 46 42
21 47 43
21 46 42
21 47 43
20 45 41
21 46 42
21 45 42
21 46 42
21 46 42
21 46 42
21 46 42
22 49 45
21 46 42
21 46 42
21 46 42
21 46 42
21 45 41
21 46 42
21 46 42
22 48 44
21 47 43
22 48 44
21 46 42
20 45 41
21 47 43
21 46 42
19 42 39
19 43 40
20 44 40
19 43 40
19 43 39
20 44 40
19 44 40
20 44 40
20 44 41
19 43 40
19 43 40
19 43 40
19 43 40
20 44 41
19 43 40
19 43 40
19 43 40
19 44 40
19 43 40
20 45 41
20 45 41
20 44 40
20 44 41
20 44 41
20 44 41
20 44 40
19 44 40
20 45 41
20 44 41
20 45 41
20 45 41
20 44 41
20 44 41
20 45 42
20 44 41
20 45 41
20 45 41
20 44 40
20 44 40
20 45 41
21 46 42
20 44 40
20 44 41
20 45 41
20 45 41
20 44 40
20 44 41
20 45 41
19 43 40
20 45 41
20 44 41
20 45 41
20 45 41
20 45 41
20 45 41
20 45 41
20 45 41
20 45 41
20 45 41
21 46 42
21 46 42
20 45 41
20 44 41
21 46 42
20 45 41
21 46 42
20 45 42
21 46 42
21 46 42
20 45 41
20 45 41
20 45 41
20 45 41
20 45 41
21 46 42
21 45 42
21 46 42
21 46 42
21 46 42
21 46 42
21 46 42
21 46 42
21 46 42
21 46 42
21 46 42
21 46 42
20 45 41
21 45 42
21 47 43
20 45 41
21 46 42
21 46 42
20 45 41
21 46 42
20 45 41
21 46 42
21 45 41
21 46 42
20 45 41
21 46 42
21 46 42
21 46 42
21 46 42
21 47 43
21 46 42
21 47 43
21 47 42
21 46 42
21 45 42
21 46 42
21 47 42
21 47 43
21 46 42
22 48 44
21 46 42
21 47 43
21 46 42
21 46 42
21 47 43
21 46 42
19 43 40
19 43 40
19 43 40
20 44 41
20 44 40
19 43 40
20 44 40
19 43 40
20 44 40
20 44 40
20 45 41
20 44 40
20 44 41
20 44 41
20 44 41
19 43 40
20 44 41
20 44 40
20 44 40
20 44 41
20 44 41
20 44 40
20 45 41
20 45 41
20 44 40
20 44 41
20 43 40
19 43 40
19 43 40
20 45 41
20 44 40
19 43 40
19 43 40
21 46 42
20 45 41
20 44 41
20 44 41
20 45 42
20 45 42
20 45 41
20 45 42
20 44 41
20 45 42
20 45 41
20 45 41
20 44 41
20 45 41
20 45 41
21 46 42
21 46 42
21 46 42
20 45 41
21 46 43
20 44 41
20 45 42
20 45 41
20 45 42
20 45 42
21 46 43
21 47 43
20 45 41
20 45 42
20 45 41
21 46 42
20 45 41
20 45 41
21 46 42
21 46 42
20 45 41
20 44 41
20 45 41
20 45 41
21 46 42
21 46 42
20 45 41
21 46 42
20 45 41
21 45 42
20 45 41
21 46 42
20 45 41
21 46 42
21 46 42
21 45 42
21 47 43
21 46 42
21 46 42
21 46 42
21 46 42
20 45 41
20 45 41
21 46 42
21 46 42
21 47 43
21 46 42
21 47 43
21 46 42
21 47 43
21 46 42
21 46 42
22 48 43
21 47 43
21 46 42
21 47 43
21 47 43
21 47 43
21 47 43
22 48 43
21 47 43
22 47 43
21 47 42
21 47 43
21 46 42
22 49 45
21 46 42
21 47 42
22 47 43
21 47 43
21 47 43
22 48 43
19 44 40
20 44 40
19 43 40
19 43 40
20 44 41
19 43 40
20 44 41
20 44 41
20 44 40
20 45 41
20 44 41
19 43 40
19 43 40
19 43 40
20 45 41
20 44 41
20 45 41
20 44 40
20 44 40
19 43 40
20 44 41
20 45 41
19 43 40
20 45 41
20 44 40
20 44 41
20 44 41
20 44 40
20 44 40
20 45 41
20 44 41
20 44 40
20 45 41
20 44 41
20 44 41
20 45 41
20 44 41
20 45 42
20 44 41
19 43 40
20 45 42
20 44 40
20 45 41
20 44 41
20 44 41
21 46 42
20 44 41
20 45 41
21 46 42
20 45 42
21 46 42
20 45 41
20 45 41
21 46 42
20 45 42
20 45 42
20 45 41
20 45 42
20 45 41
20 44 40
20 45 41
21 46 42
21 46 42
21 46 42
21 46 42
21 46 42
21 46 42
21 46 42
21 46 42
21 46 42
21 46 42
21 46 42
21 46 42
21 46 42
21 47 43
21 46 42
21 47 43
21 46 42
21 47 43
21 46 42
21 46 42
20 45 41
21 46 42
21 47 43
21 46 42
21 46 42
20 45 41
20 45 41
21 47 43
21 46 42
21 47 43
21 46 42
21 46 42
21 46 41
21 45 41
21 47 43
21 47 43
21 47 43
21 46 42
21 47 43
21 47 43
21 47 43
21 47 43
21 47 43
22 48 44
21 47 43
21 47 43
21 47 43
21 47 43
22 48 44
21 45 41
21 46 42
21 47 43
22 48 43
21 47 43
74 62 56
168 102 90
200 119 104
197 116 101
143 94 82
20 44 41
20 44 40
19 43 40
19 43 39
20 44 41
20 44 41
20 44 40
20 44 41
20 44 41
19 43 40
20 44 40
20 46 42
19 43 40
20 44 40
20 44 40
19 43 40
20 44 41
20 44 41
20 45 41
19 43 40
20 44 41
20 44 41
20 44 41
20 45 41
20 45 41
20 44 40
20 45 41
20 44 40
20 45 41
20 44 41
20 45 41
20 45 41
20 44 40
20 45 41
20 44 40
20 45 41
20 45 41
20 45 41
20 45 41
20 44 40
20 45 41
20 45 41
21 46 42
20 45 41
20 45 41
20 44 41
20 44 41
20 45 41
21 46 42
20 45 41
21 47 43
20 45 41
21 46 42
20 45 41
20 45 41
20 44 40
21 46 42
21 46 42
20 45 42
20 45 41
21 46 42
21 46 42
20 45 41
21 46 42
21 46 42
21 46 42
21 46 42
20 44 41
21 46 42
21 47 43
21 46 42
21 46 42
21 46 42
21 47 43
21 46 42
20 45 41
21 46 42
20 44 41
21 47 43
21 46 42
21 46 41
21 47 43
20 45 41
22 48 44
21 46 42
21 46 42
21 45 41
21 47 43
21 46 42
21 47 43
21 46 42
21 46 42
21 46 42
21 47 43
21 47 42
21 46 42
21 46 42
21 46 42
21 46 42
21 46 42
21 47 43
21 46 42
21 47 43
22 47 43
21 47 43
21 47 43
21 46 42
21 47 42
21 46 42
22 48 44
21 47 43
21 46 42
21 47 43
21 47 43
106 53 45
198 71 54
220 73 53
232 77 55
242 82 59
250 85 61
19 43 40
19 43 40
19 43 40
20 44 40
19 43 40
19 43 40
20 45 41
20 44 41
20 44 40
20 45 41
20 44 41
19 43 40
20 45 41
20 44 41
20 44 41
20 45 42
20 44 40
20 44 41
20 44 40
20 44 41
20 45 41
20 44 41
20 45 41
20 44 40
20 45 41
20 44 40
20 45 41
19 43 40
20 44 41
20 44 40
20 45 41
20 45 41
20 45 42
20 45 41
20 45 41
20 44 41
20 45 41
20 44 40
20 45 41
20 45 41
20 45 41
20 43 40
20 44 41
20 45 41
20 45 42
20 44 41
21 46 42
20 44 40
21 46 43
20 45 41
20 45 41
20 45 42
20 45 41
21 46 42
20 44 41
21 46 42
20 45 41
21 47 43
20 45 42
20 44 41
21 46 42
21 46 42
21 46 43
20 45 42
20 45 41
21 45 42
21 45 42
21 46 43
21 45 41
21 46 42
20 45 41
21 45 42
21 46 42
21 46 42
21 45 41
21 46 42
21 47 43
21 45 42
21 46 42
21 46 42
21 46 42
21 47 43
21 46 42
21 46 42
21 46 42
22 48 44
21 47 42
22 48 44
21 47 43
21 47 43
20 45 41
21 47 43
21 46 42
21 47 43
22 48 44
21 46 42
21 47 43
21 46 42
21 47 43
21 47 43
21 46 42
21 47 43
21 47 43
21 47 43
21 47 43
22 48 44
21 47 43
21 47 43
22 48 44
21 46 42
22 48 44
21 47 43
21 47 43
46 49 45
156 55 41
199 67 48
216 72 51
228 75 54
255 117 92
255 117 91
19 43 40
20 44 40
19 43 39
19 43 39
20 44 40
20 44 40
20 44 40
20 45 41
20 44 41
20 45 41
19 43 40
19 43 40
20 43 40
20 44 41
20 44 40
20 45 41
20 44 41
20 44 41
20 44 41
20 45 42
20 45 42
20 44 41
20 44 41
20 44 40
20 45 41
20 45 41
20 44 41
20 45 42
20 45 42
20 45 41
20 45 41
21 46 42
20 44 41
20 45 41
20 45 42
20 45 41
21 46 42
20 45 41
21 46 42
21 46 43
20 45 41
20 45 41
20 44 41
20 45 42
20 45 41
20 44 41
20 45 41
20 45 41
20 45 41
20 45 41
20 45 41
20 45 41
21 46 42
20 45 41
20 44 41
21 46 42
20 45 41
20 45 41
20 45 42
21 46 42
21 45 42
20 45 41
21 46 42
21 47 43
21 46 42
21 47 43
21 46 42
21 46 42
21 46 42
20 45 41
21 47 43
21 45 42
20 45 41
21 47 43
21 47 43
20 45 41
21 47 43
20 45 41
21 46 42
21 47 43
21 46 42
21 46 42
21 47 43
21 46 42
21 46 42
21 46 42
21 45 41
21 47 43
21 47 43
21 47 43
21 46 42
21 46 42
21 46 42
21 45 41
21 47 43
22 48 44
22 47 43
21 46 42
21 47 42
22 47 43
22 48 44
22 48 44
21 47 42
21 46 42
22 48 44
21 47 43
21 47 43
22 48 44
22 48 44
22 48 44
22 49 45
22 47 43
22 48 44
85 73 67
148 51 37
173 72 59
198 109 95
209 122 105
222 124 106
231 91 70
20 44 41
19 43 39
19 43 39
20 44 41
20 44 40
19 44 40
20 44 41
20 44 41
19 43 40
20 45 41
20 43 40
19 43 40
20 44 41
20 45 41
21 46 42
20 45 41
20 44 41
20 44 40
20 45 41
20 45 41
20 45 42
20 44 41
20 46 42
19 43 40
20 43 40
19 43 40
20 44 41
20 44 40
20 45 41
20 44 40
20 45 42
20 45 41
20 45 41
20 44 41
20 45 41
20 44 40
20 45 42
21 46 42
20 45 41
21 47 43
20 45 41
21 46 42
21 46 42
20 45 42
20 45 41
21 46 42
20 45 41
21 46 42
20 45 41
20 45 41
21 46 42
20 45 41
21 46 42
20 45 42
21 46 42
21 46 42
21 46 42
21 46 42
20 45 41
20 44 41
21 47 43
21 46 42
21 46 42
20 45 42
21 46 42
21 47 43
20 45 41
21 45 42
21 46 42
21 46 42
21 47 43
21 46 42
21 46 42
21 46 42
21 46 42
21 47 42
21 46 42
21 46 42
21 46 42
21 47 43
21 46 42
21 46 42
21 46 42
21 46 42
21 47 43
21 47 43
21 46 42
21 47 43
20 45 41
21 47 43
21 46 42
21 47 43
21 46 42
21 46 42
21 46 42
21 47 43
21 47 42
22 48 43
21 47 43
21 47 43
21 47 43
22 48 44
21 47 43
21 47 43
21 46 42
22 48 43
21 47 43
22 48 43
22 48 44
21 47 43
22 48 44
21 47 43
21 47 42
74 62 56
127 78 69
136 124 115
148 133 121
173 153 137
193 169 152
197 168 149
19 43 40
20 44 40
20 44 40
20 44 40
19 43 40
20 44 40
20 44 41
20 45 41
20 44 40
20 44 41
20 44 41
20 44 40
20 44 40
20 44 41
20 45 41
21 46 42
20 44 40
20 44 41
20 45 41
20 45 42
20 44 41
19 43 40
20 45 42
20 45 41
20 45 41
20 45 42
20 44 41
20 45 41
20 44 41
20 44 41
20 45 41
20 44 41
20 45 42
20 46 42
20 44 40
20 45 41
20 44 40
20 45 41
21 46 43
20 45 41
21 46 42
21 46 42
20 45 41
20 45 41
21 46 42
21 46 42
21 46 42
21 47 43
20 44 41
21 46 42
20 45 41
21 46 42
21 46 42
20 45 41
21 46 42
21 47 43
20 45 41
20 45 41
21 46 42
21 46 43
21 46 42
21 46 42
20 45 41
21 46 42
21 47 43
21 46 42
21 47 43
22 48 43
21 47 43
21 46 42
21 46 42
20 45 41
21 46 42
21 46 42
21 46 42
21 46 42
21 46 42
21 46 42
21 47 43
21 47 43
21 47 43
21 46 42
21 47 43
21 47 43
22 48 44
21 47 43
21 47 43
21 47 43
21 46 42
21 47 43
21 46 42
22 48 44
22 48 44
21 46 42
21 46 42
22 48 44
21 47 43
22 48 43
21 46 42
21 47 43
22 49 44
21 46 42
21 47 43
22 48 44
21 47 43
22 48 44
21 46 42
22 48 43
22 47 43
21 47 43
22 47 43
21 46 42
22 48 43
48 49 44
95 87 79
107 100 91
102 93 84
132 118 106
173 153 138
210 188 173
20 44 41
20 45 41
20 44 40
20 45 41
20 44 41
20 44 41
20 44 41
20 44 41
20 43 40
20 44 40
20 44 40
20 45 41
20 44 41
20 44 40
20 44 41
20 44 41
20 45 41
21 46 42
20 44 40
20 44 41
20 44 41
20 45 41
20 45 41
21 46 42
20 45 41
20 44 41
20 45 41
20 45 41
20 44 40
20 45 41
21 46 42
20 44 41
20 44 41
20 45 41
20 45 41
21 46 42
21 46 42
21 46 42
20 45 41
21 46 42
20 45 41
20 44 41
21 46 42
21 45 42
21 46 42
20 45 41
20 44 40
20 45 41
20 45 41
20 44 40
20 44 41
21 46 42
20 45 42
21 46 43
21 47 43
21 46 42
21 46 42
21 45 42
21 46 42
20 45 41
21 46 42
21 46 42
21 46 42
21 46 42
20 45 41
20 45 41
21 46 42
21 46 42
21 47 43
21 47 43
21 45 41
21 45 42
20 45 41
21 46 42
21 46 42
21 46 42
21 46 42
21 46 42
21 46 42
21 46 42
22 48 44
21 47 43
21 45 41
21 47 43
21 46 42
21 47 43
21 47 43
21 46 42
21 47 43
21 47 42
21 47 43
22 47 43
21 46 42
21 47 42
21 47 43
21 47 43
22 48 43
21 46 42
22 47 43
22 47 43
21 47 43
22 47 43
22 48 44
21 46 42
21 47 43
21 47 43
21 47 43
21 46 42
21 47 43
20 45 41
20 44 40
19 41 38
19 41 38
22 42 38
54 54 48
51 54 46
55 55 48
149 137 128
203 184 171
214 194 179
20 44 40
20 44 40
20 45 41
20 45 41
20 44 41
20 45 41
19 43 40
20 44 40
20 44 40
20 44 41
20 45 41
20 44 41
20 44 40
20 44 41
20 45 41
19 43 40
20 45 41
20 44 40
20 45 41
20 44 40
20 45 41
20 45 41
20 44 40
20 44 40
20 45 41
20 44 40
20 45 41
20 45 41
21 46 42
20 43 40
20 46 42
20 45 41
20 45 41
21 46 42
21 46 42
20 45 41
20 44 41
21 46 42
20 45 42
21 46 42
20 44 41
20 45 42
21 46 42
21 46 42
21 47 43
21 46 42
21 46 42
20 45 41
20 45 41
21 46 42
20 45 41
21 45 42
21 47 43
20 44 41
21 46 42
20 45 41
21 46 42
21 46 42
21 45 42
20 45 41
20 45 41
21 47 43
21 47 43
21 46 42
21 46 42
21 46 42
21 45 42
21 46 42
21 46 42
21 47 43
21 46 42
21 46 42
21 47 43
21 47 43
21 46 42
21 47 42
21 47 43
20 45 41
21 47 42
21 46 42
21 47 43
21 47 43
22 48 44
21 47 43
21 46 42
21 47 43
21 46 42
21 46 42
21 47 43
22 48 44
21 46 42
21 47 43
22 48 44
22 47 43
22 47 43
21 47 43
22 48 44
21 47 43
21 46 42
22 48 44
21 47 43
22 48 44
21 47 43
21 47 43
22 48 44
22 47 43
22 47 43
21 47 43
21 46 42
20 43 40
17 38 35
14 32 31
13 30 29
13 29 28
12 27 26
13 23 18
48 39 50
99 84 97
134 115 123
163 142 143
20 44 40
19 43 39
20 44 41
20 44 40
20 44 41
20 44 41
20 44 41
20 44 40
20 44 41
20 45 41
20 44 41
20 45 42
19 43 40
20 44 40
20 45 41
20 44 40
20 45 41
20 45 41
20 44 41
20 45 41
20 44 40
20 45 41
21 46 42
20 44 40
20 45 41
20 44 41
20 45 41
20 44 40
20 44 40
20 45 41
20 45 42
20 45 42
20 45 41
21 46 42
20 45 41
21 46 42
20 45 41
20 45 42
20 45 41
21 47 43
21 46 42
20 45 41
21 46 42
20 44 41
21 46 42
20 45 42
20 45 41
21 46 42
21 46 42
20 44 41
21 46 42
21 46 42
20 45 41
21 46 42
21 45 42
20 45 41
21 45 42
21 47 43
20 45 41
21 46 42
21 46 42
20 45 41
21 47 43
21 47 43
21 46 42
21 46 42
21 46 42
21 47 43
21 47 43
21 47 43
21 47 43
21 46 42
20 45 41
21 47 43
21 46 42
21 47 43
21 47 43
21 47 43
21 46 42
21 47 43
21 47 43
21 46 42
21 46 42
21 46 42
21 47 43
21 46 42
21 47 43
22 49 44
21 47 43
22 48 44
22 48 44
21 47 43
21 46 42
22 49 44
22 48 44
21 47 43
21 45 41
21 47 43
22 48 43
21 47 43
21 47 42
22 48 43
21 47 42
21 46 42
21 46 42
22 48 44
22 48 44
21 46 42
21 46 42
21 46 42
21 45 41
20 44 40
19 42 38
16 36 33
14 32 30
13 28 26
51 37 59
65 44 74
71 48 79
79 53 87
20 45 41
20 44 40
20 45 41
19 43 39
20 44 40
20 44 41
20 45 41
20 46 42
20 45 41
20 44 41
20 45 41
20 45 41
20 45 41
20 45 41
20 45 42
20 45 42
20 44 40
21 46 42
20 45 42
20 44 40
20 44 41
20 45 41
20 46 42
20 44 41
20 45 41
21 47 43
21 47 43
20 45 41
20 45 41
20 45 41
20 45 41
20 45 41
20 45 41
20 45 41
21 46 42
20 44 40
20 46 42
20 45 41
21 46 42
21 46 42
21 47 43
20 45 42
21 46 42
21 46 42
20 45 41
21 47 43
21 46 42
20 45 41
21 46 42
21 46 42
20 45 42
20 45 41
21 46 42
21 46 42
21 46 42
21 46 42
20 45 41
21 46 42
21 47 43
21 46 42
21 46 42
21 46 42
22 48 44
21 47 43
21 47 43
21 46 42
21 46 42
21 46 42
21 47 43
21 46 42
21 46 42
21 47 42
21 47 43
21 46 42
21 45 42
21 46 42
22 48 44
21 47 43
20 45 41
21 47 43
22 48 44
21 47 43
22 48 44
21 47 43
21 46 42
21 46 42
22 48 44
22 47 43
22 49 44
22 48 44
21 47 43
21 47 43
22 48 44
21 47 43
21 46 42
21 47 43
22 48 43
22 48 44
21 47 42
22 48 43
22 48 43
22 48 44
22 48 44
22 48 44
21 47 43
21 47 43
22 48 44
21 46 42
22 48 44
22 47 43
21 46 42
21 46 42
21 45 41
21 46 41
20 45 40
21 47 42
48 36 56
53 37 60
61 42 69
66 44 73
20 44 41
20 44 41
20 44 40
19 43 40
20 45 41
20 44 40
20 44 41
20 45 41
20 44 41
20 43 40
20 44 40
20 45 41
20 44 41
21 46 42
20 45 41
20 45 41
21 46 42
20 45 41
20 45 41
20 44 40
20 45 42
20 45 42
20 45 41
20 45 41
20 45 41
21 46 42
20 45 42
20 45 41
21 46 42
21 46 42
21 46 42
20 45 41
20 45 42
20 45 41
20 45 41
20 45 41
20 45 41
20 45 41
20 45 41
21 46 42
21 45 42
21 45 42
20 45 42
21 46 42
20 45 41
20 45 41
21 46 42
21 46 42
20 45 41
21 46 42
21 46 42
21 46 42
21 46 42
21 46 42
21 46 42
21 46 42
21 46 42
20 45 41
21 46 42
21 45 41
21 47 43
20 45 41
21 46 42
21 45 41
21 47 43
21 47 43
21 46 42
21 47 43
21 46 42
21 47 43
21 47 43
22 48 43
21 47 43
21 47 43
21 46 42
21 46 42
21 47 43
21 47 43
22 48 43
21 46 42
21 47 43
22 48 43
21 46 42
21 46 42
21 47 43
21 47 43
22 48 43
22 48 43
21 46 42
22 47 43
22 47 43
21 46 42
22 48 44
21 46 42
22 48 43
22 48 44
21 46 42
21 47 43
22 48 43
21 47 43
22 48 43
22 47 43
21 47 43
22 48 44
22 47 43
21 47 43
21 47 43
21 47 42
22 47 43
21 47 42
22 48 44
22 47 43
21 47 42
22 47 43
22 48 44
22 48 43
34 33 42
49 33 55
50 34 56
51 35 58
20 45 41
20 45 41
20 44 40
20 45 41
20 44 41
20 45 41
20 44 41
20 44 41
19 43 40
20 44 40
20 44 41
20 45 41
21 46 42
20 45 41
20 45 41
20 44 41
20 45 41
20 45 42
20 45 41
21 46 42
20 44 41
20 44 40
20 45 42
20 45 41
21 46 42
20 45 42
21 46 42
21 46 42
20 45 41
21 46 42
20 45 41
20 45 41
21 47 43
20 45 41
20 45 41
20 45 42
20 45 42
21 46 42
20 45 41
20 45 41
20 45 41
21 46 42
20 45 41
20 45 41
21 46 42
20 45 42
20 45 41
21 47 43
21 46 42
21 47 43
21 46 42
21 46 42
21 45 41
20 45 42
20 45 41
21 46 42
21 46 42
21 45 42
21 46 42
21 47 43
21 46 42
21 46 42
21 46 42
21 47 42
21 47 43
21 46 42
21 46 42
21 46 42
21 47 43
21 47 42
21 47 43
22 48 44
22 48 43
21 46 42
21 45 42
21 47 43
21 47 43
21 47 43
21 46 42
21 46 42
22 47 43
21 47 43
21 47 43
22 48 43
21 46 42
21 47 43
21 47 43
21 47 42
21 47 43
21 47 43
21 46 42
21 46 41
22 49 44
22 48 44
21 46 42
21 47 43
22 48 44
22 49 44
22 48 44
21 46 42
22 48 44
22 48 43
22 48 43
21 47 43
22 47 43
22 48 43
22 47 43
21 47 42
21 47 43
22 48 43
21 46 42
21 47 43
21 47 43
21 47 43
21 46 42
20 45 40
28 41 41
40 34 41
38 30 41
38 28 42
20 45 41
20 44 40
20 46 42
19 43 40
20 45 41
20 44 40
20 44 40
20 45 41
20 45 41
20 45 42
21 46 42
20 44 41
20 44 40
20 44 40
20 43 40
20 45 41
20 45 41
21 46 42
20 45 41
20 45 42
20 44 41
21 46 42
20 44 40
21 45 42
21 46 42
20 44 41
21 46 42
20 44 40
21 45 42
20 45 41
21 46 42
21 46 42
20 46 42
20 44 40
21 46 42
21 46 42
20 45 41
21 46 42
21 45 42
21 46 42
20 45 42
21 45 42
21 47 43
21 46 42
21 46 42
21 46 42
21 46 42
20 45 42
20 44 41
21 46 42
20 45 41
21 46 42
21 46 42
20 45 41
21 46 42
21 46 42
21 48 44
20 45 41
21 46 42
21 46 42
21 46 42
21 46 42
21 46 42
20 45 41
21 46 42
21 47 43
21 46 42
21 46 42
21 46 42
21 46 42
21 47 43
21 47 43
21 46 42
21 46 42
21 46 42
21 46 42
21 46 42
21 46 42
21 47 42
21 47 43
21 46 42
21 46 42
21 47 43
22 48 43
22 48 43
22 48 43
22 48 43
21 46 42
21 46 42
22 48 44
21 47 43
21 47 43
22 48 43
22 48 44
21 47 43
22 47 43
21 47 43
22 47 43
22 48 44
21 47 43
21 46 42
22 48 44
21 47 43
21 47 42
22 48 43
22 48 43
22 49 44
21 47 43
21 47 42
21 47 43
21 45 41
20 44 40
18 40 37
17 38 35
15 34 33
14 33 31
14 32 31
37 41 37
36 39 33
28 35 28
20 45 41
20 45 41
20 45 41
20 44 41
20 46 42
20 44 41
21 46 42
20 45 41
20 45 41
20 45 41
20 45 41
20 45 41
20 45 41
20 45 41
20 45 41
20 44 41
20 46 42
20 45 41
21 46 42
20 45 42
20 45 41
21 46 42
20 45 41
20 44 40
20 45 41
20 45 41
20 45 42
21 46 42
21 46 42
21 46 42
20 44 41
21 46 42
20 45 41
20 45 41
20 45 41
20 45 41
20 45 41
20 45 41
21 48 44
21 46 42
21 46 42
21 46 42
21 46 42
21 47 43
21 45 42
21 47 43
21 46 42
21 46 42
21 46 42
21 46 42
21 46 42
21 46 42
21 46 42
21 47 43
21 47 43
21 46 42
21 47 43
20 45 41
21 47 43
21 46 42
21 46 42
21 46 42
21 47 43
21 45 41
21 47 43
21 47 43
21 47 43
21 47 43
21 47 43
21 46 42
21 46 42
21 47 43
21 47 43
21 47 43
21 47 43
21 46 42
21 47 43
21 47 43
21 47 42
21 46 42
21 47 43
21 47 43
21 47 43
21 47 43
21 47 43
21 47 43
21 46 42
21 47 43
21 47 43
22 48 44
22 48 43
21 46 42
22 48 44
22 48 43
21 47 43
21 47 42
22 48 44
22 48 43
22 47 43
22 47 43
22 48 43
22 47 43
22 49 44
21 47 42
22 47 43
22 48 44
22 48 43
22 47 43
22 48 44
22 47 43
21 47 42
21 46 42
19 42 38
17 38 35
15 33 32
13 30 29
12 28 26
11 25 23
8 18 16
12 19 15
20 45 41
20 45 41
20 45 42
20 45 42
20 45 41
20 45 41
19 43 40
20 44 40
20 45 41
20 45 41
20 45 42
20 45 42
20 45 41
20 44 41
20 45 41
20 46 42
20 45 41
21 46 42
21 46 42
19 43 40
20 45 42
20 45 41
21 46 42
20 44 41
20 45 41
21 47 43
21 46 42
20 45 42
20 45 42
21 46 42
20 44 41
20 45 41
20 45 41
20 45 41
20 45 41
21 46 42
21 47 43
20 45 41
20 45 41
21 46 42
21 46 43
21 46 42
20 45 41
20 45 41
21 46 42
21 46 42
21 46 42
21 46 42
21 46 42
21 46 42
21 46 42
21 46 42
20 45 41
21 46 42
20 45 41
21 46 42
20 45 41
21 46 42
21 47 43
21 46 42
21 47 43
21 46 42
21 46 42
21 46 42
21 47 43
21 46 42
21 46 42
22 48 44
22 48 43
21 46 42
20 45 41
22 48 44
21 47 43
21 46 42
21 46 42
21 47 43
22 48 44
22 48 43
21 46 42
21 46 42
21 46 42
22 47 43
22 48 44
22 47 43
21 46 42
21 47 43
22 48 44
21 46 42
22 49 45
22 48 43
21 47 43
21 47 42
21 47 43
21 47 43
21 47 43
21 47 43
21 47 43
22 47 43
22 48 44
21 47 42
22 48 43
21 47 42
21 46 42
22 48 44
21 47 43
22 47 43
21 47 42
22 48 44
22 48 43
22 48 44
22 47 42
21 47 42
22 48 44
21 46 42
21 45 41
20 43 39
18 40 36
16 36 33
17 37 33
15 33 30
20 44 40
20 44 41
20 44 41
20 45 41
20 45 41
20 45 42
20 45 42
20 45 42
20 45 42
20 45 42
20 45 42
20 45 41
20 45 41
20 45 42
20 44 41
20 45 41
21 46 42
20 44 41
20 45 41
20 45 41
21 46 42
20 45 41
20 45 42
20 45 41
21 46 42
20 45 41
20 45 41
20 44 41
20 44 41
20 45 41
20 45 41
20 45 41
20 45 41
20 44 41
21 46 42
20 45 41
20 45 41
20 45 41
20 45 41
20 45 41
21 46 42
21 46 42
21 46 42
20 45 41
21 46 42
21 47 43
21 45 42
21 47 43
21 46 42
21 46 42
21 47 43
21 46 42
20 45 41
21 46 42
21 46 42
21 46 42
21 47 43
21 47 42
21 46 41
21 46 42
21 46 42
21 46 42
21 47 43
21 46 42
21 46 42
21 47 43
21 46 42
22 48 44
21 46 42
21 47 43
21 47 43
21 47 43
21 47 43
21 46 42
21 46 42
21 45 41
21 46 42
21 47 43
21 47 43
21 47 43
22 48 43
22 48 43
21 47 43
21 46 42
21 46 42
21 46 42
22 48 44
21 47 43
21 47 43
21 47 43
22 47 43
22 48 43
22 48 43
22 48 44
22 49 44
21 46 42
21 47 43
21 46 42
21 47 43
22 48 44
21 47 43
22 48 44
22 47 43
22 48 44
22 48 44
22 48 44
21 47 43
22 48 44
21 47 43
22 48 43
21 47 42
22 47 43
22 48 43
21 47 42
22 48 43
22 47 43
21 47 43
21 46 42
22 47 43
22 47 42
20 44 40
20 45 42
20 43 40
20 45 41
20 44 40
20 45 41
20 45 41
20 44 40
20 44 41
21 46 42
20 45 42
20 44 41
20 44 40
20 44 41
20 45 41
21 46 42
20 45 42
20 45 41
20 44 41
20 45 41
21 46 42
21 46 42
20 45 42
20 45 41
21 46 42
21 46 42
21 46 42
20 45 41
20 45 41
20 45 41
21 46 42
21 46 42
20 45 41
20 45 42
20 45 41
20 45 41
21 46 42
21 46 42
21 46 42
21 46 42
21 46 42
21 46 42
21 46 42
20 45 41
20 45 42
21 47 43
20 45 41
21 47 43
21 46 42
20 45 41
20 45 41
21 46 42
21 46 42
20 45 41
20 45 41
21 46 42
21 47 43
21 46 42
21 47 43
21 47 43
21 47 43
21 47 43
21 45 41
21 46 42
21 47 43
21 47 43
21 47 43
21 47 43
21 46 42
21 47 43
21 46 42
22 48 44
21 47 42
21 46 42
21 47 42
21 47 43
21 46 42
21 46 42
21 47 42
22 48 43
22 48 44
21 46 42
22 48 43
22 47 43
21 46 42
22 47 43
22 48 44
22 48 43
22 49 44
21 46 41
21 46 42
21 47 43
22 48 43
21 47 43
22 48 44
22 48 44
22 47 43
22 49 44
22 48 44
22 48 44
22 47 43
22 49 44
22 47 43
23 50 45
21 47 43
22 48 44
22 48 43
22 49 44
22 48 43
21 47 43
22 48 44
21 47 43
23 49 45
22 48 44
22 48 44
22 47 43
22 48 44
22 48 44
22 47 43
22 48 43
20 44 41
20 45 41
20 44 40
20 44 41
21 46 42
20 44 40
21 46 42
20 44 41
21 46 42
20 45 42
20 45 41
20 44 40
20 44 41
20 44 40
21 46 42
20 44 41
20 45 41
20 45 42
20 45 41
20 45 41
20 45 41
20 45 41
21 46 42
20 44 41
20 45 41
20 45 41
20 44 40
20 45 41
21 47 43
20 45 41
20 45 41
21 46 42
20 45 41
20 45 41
21 46 42
21 45 42
21 45 42
20 45 41
21 46 42
20 45 41
21 46 42
21 46 42
20 45 41
21 46 42
20 45 42
21 47 43
21 46 42
21 46 42
21 46 42
21 47 43
21 46 42
20 45 41
21 46 42
20 45 41
21 47 43
21 47 43
21 47 43
21 46 42
21 47 43
21 47 43
21 46 42
21 47 43
21 45 42
21 47 43
21 46 42
21 46 42
21 47 43
21 46 42
21 46 42
21 47 43
22 48 44
21 46 42
21 47 43
21 47 43
21 47 43
21 47 43
21 47 43
21 46 42
21 47 43
21 47 43
21 46 42
21 47 43
21 47 43
21 46 42
21 46 42
21 46 42
21 47 43
22 48 43
22 48 44
22 48 44
21 47 43
22 48 43
21 47 42
21 47 43
22 48 44
22 48 43
22 48 44
22 48 43
21 46 42
22 49 44
22 48 44
22 47 43
22 48 44
22 48 44
22 48 44
22 48 43
22 48 43
22 48 43
22 49 45
22 49 45
22 48 43
22 49 44
22 48 44
22 48 43
22 48 44
23 50 45
22 49 44
22 48 43
22 48 44
21 47 42
20 44 41
20 45 41
20 44 40
20 44 41
19 43 40
20 44 41
20 44 41
20 44 40
20 45 41
21 46 42
21 46 43
21 46 42
20 44 41
20 44 41
21 45 42
20 44 40
20 45 42
20 45 41
20 45 41
21 46 42
20 44 41
20 45 41
20 45 41
20 45 42
20 45 41
20 45 41
21 45 42
20 45 41
20 45 41
20 45 42
21 47 43
21 45 42
21 46 42
20 45 42
20 45 41
21 46 42
20 45 41
21 46 42
20 45 41
20 45 41
20 45 41
20 45 41
20 44 40
21 46 43
21 47 43
21 47 43
21 46 43
21 47 43
21 47 43
21 46 42
21 45 41
21 46 42
21 47 43
21 46 42
21 46 42
21 46 42
21 46 42
21 47 43
21 46 42
21 46 42
21 46 42
21 46 42
21 46 42
21 46 42
21 47 43
20 45 41
21 46 42
21 47 43
22 47 43
22 48 44
21 46 42
21 46 42
21 47 43
22 48 44
21 47 43
22 48 43
21 47 43
21 47 43
21 46 42
22 48 44
21 47 43
22 48 43
22 48 44
21 46 42
21 47 43
22 48 44
21 47 43
22 47 43
22 47 43
22 48 44
22 49 44
22 48 44
22 48 43
22 47 43
22 49 44
22 48 43
22 48 43
21 47 43
22 48 43
22 48 44
22 48 44
22 48 43
22 48 43
22 48 43
21 47 42
22 48 44
22 48 43
22 48 44
22 48 43
22 47 43
22 47 43
22 48 43
22 48 44
21 47 43
22 48 43
22 48 44
21 47 43
22 48 44
22 48 43
22 48 44
20 45 41
20 45 41
20 44 41
20 44 41
20 44 40
20 44 41
19 43 40
20 44 41
20 45 41
20 45 41
20 44 40
20 44 40
20 45 41
20 45 41
20 45 42
21 46 42
20 45 41
20 45 41
20 45 42
20 45 41
20 44 41
20 44 40
20 45 41
21 46 42
21 46 42
21 46 42
20 45 41
21 46 42
20 45 41
21 46 42
21 46 42
20 45 41
21 46 42
21 46 42
20 45 41
21 46 42
20 45 41
20 45 41
20 45 41
20 45 42
21 47 43
21 47 43
21 46 42
21 46 42
21 47 43
21 46 42
21 46 42
21 47 43
21 45 42
21 46 42
21 46 42
21 46 42
21 46 42
21 46 42
21 47 43
21 46 42
21 46 42
21 47 43
21 46 43
21 47 43
21 47 43
21 46 42
22 48 43
21 47 42
21 45 41
21 47 43
22 48 44
21 47 42
21 47 43
21 47 43
21 47 43
21 47 43
21 46 42
21 47 43
21 47 43
21 47 43
21 47 43
21 45 41
21 47 43
21 46 42
21 47 43
22 48 43
21 46 42
22 47 43
21 47 43
21 47 43
22 48 43
22 48 43
21 46 42
22 47 43
21 46 42
21 46 42
21 47 43
21 47 43
21 47 43
21 47 43
21 47 43
22 48 44
22 48 43
22 49 44
22 47 43
22 48 44
22 49 44
22 49 45
22 48 44
22 49 44
22 47 43
22 48 43
21 47 42
22 49 44
22 48 44
22 49 44
22 49 44
22 48 43
22 49 44
22 48 44
22 49 44
22 49 44
22 48 43
22 48 44
20 45 41
20 44 41
21 46 42
20 44 40
20 45 41
20 44 40
20 45 41
20 45 41
20 44 40
21 46 42
20 45 41
21 46 42
20 44 41
20 45 41
20 45 41
20 45 41
21 46 42
20 45 41
20 44 40
20 45 41
20 44 41
21 46 42
20 45 41
20 44 40
20 45 41
20 45 41
20 45 41
20 45 41
21 46 42
20 45 41
21 46 42
20 45 42
21 46 42
21 46 42
21 46 42
21 46 42
21 46 42
21 46 42
21 47 43
21 46 42
21 46 42
20 45 41
20 45 41
20 45 41
21 46 42
21 46 42
21 46 43
21 45 42
21 46 42
21 46 42
21 46 42
21 46 42
20 45 41
21 46 42
21 47 43
21 47 43
21 46 42
21 46 42
21 46 42
21 46 42
21 47 43
21 47 42
21 47 43
21 46 42
21 46 42
21 46 42
21 46 42
21 47 43
21 46 42
21 47 43
21 46 42
21 47 43
21 47 43
21 47 43
21 46 42
22 48 43
22 47 43
21 46 42
21 46 42
21 46 42
21 46 42
21 47 43
21 47 43
22 48 43
22 48 44
22 47 43
22 47 43
22 47 43
22 49 44
21 47 43
22 48 43
22 47 43
22 47 43
22 48 44
22 49 44
22 47 43
22 48 44
21 47 43
22 48 44
22 48 43
21 46 42
22 48 43
22 47 43
21 47 43
22 48 43
22 49 45
22 49 45
22 48 44
22 48 43
22 48 44
22 47 43
22 49 44
22 48 43
22 47 43
23 50 45
21 47 43
22 48 44
22 47 43
22 49 44
22 48 44
20 45 41
19 43 40
20 44 41
21 46 42
20 45 41
20 45 42
20 44 41
20 44 41
20 45 42
21 47 43
20 45 42
20 45 41
20 45 41
20 44 41
21 46 42
20 45 41
20 45 41
20 45 41
20 45 41
20 45 41
21 46 42
21 46 42
20 44 41
20 45 41
21 47 43
21 46 42
20 44 41
20 45 42
21 46 42
21 46 42
21 47 43
20 45 41
21 46 42
20 45 41
20 45 41
20 45 41
21 47 43
21 46 43
21 46 42
21 46 42
21 46 42
20 44 41
21 46 42
21 46 42
21 46 42
21 46 42
21 46 42
20 45 41
21 45 42
21 45 42
21 46 42
21 46 42
21 46 42
21 45 42
21 46 42
21 47 43
21 47 43
20 45 41
21 46 42
21 47 43
22 48 44
21 47 43
21 46 42
21 47 43
21 46 42
21 46 42
21 47 43
21 46 42
21 47 43
21 46 42
21 47 42
21 47 43
21 47 43
21 47 43
21 46 42
21 47 43
22 48 44
21 46 42
21 47 43
21 47 42
21 47 43
21 46 42
21 47 43
21 47 43
21 47 43
21 47 43
21 46 42
21 47 43
21 47 43
21 47 43
21 47 43
22 48 43
22 48 43
21 47 43
22 48 44
21 47 43
22 47 43
22 47 43
22 48 44
22 48 43
21 47 43
21 47 43
22 48 44
22 48 44
22 48 44
22 49 45
22 48 43
22 48 43
22 48 43
22 48 44
22 49 44
22 48 43
22 49 45
22 48 44
22 48 43
22 49 44
22 49 44
22 48 44
22 49 44
22 49 44
20 44 41
20 44 41
20 44 41
20 44 41
21 46 42
20 45 42
20 44 41
20 45 41
20 44 41
20 45 41
20 45 41
20 45 41
20 45 41
20 45 42
20 45 41
20 45 42
21 46 43
20 44 40
20 44 40
20 44 40
20 45 41
20 44 41
20 44 40
21 45 42
21 45 41
20 45 42
21 46 42
20 45 41
20 45 41
20 45 41
20 45 41
21 46 42
21 46 43
21 46 42
21 46 42
21 46 42
20 45 41
20 45 41
21 46 42
21 46 42
21 47 43
21 47 43
21 46 42
21 46 42
20 45 41
21 46 42
21 46 42
21 47 43
21 46 42
21 46 42
21 46 42
21 47 43
21 46 42
21 47 43
21 46 42
21 47 43
21 46 42
20 45 41
21 47 43
21 46 42
21 46 42
21 46 42
21 47 42
21 46 42
21 47 43
21 47 43
21 46 42
21 47 43
21 47 43
21 46 42
21 47 43
21 47 43
21 47 43
21 47 43
21 47 43
21 47 43
21 47 43
21 47 43
21 46 42
20 45 41
21 46 42
21 46 42
21 47 43
22 48 43
22 48 44
21 47 43
21 47 43
22 48 44
21 47 43
22 49 44
22 48 43
22 48 43
21 47 43
21 47 43
22 48 43
22 48 43
21 47 43
22 48 44
22 47 43
22 48 44
22 48 44
22 49 44
22 48 43
21 46 42
22 48 44
23 50 45
22 48 43
22 48 43
22 48 44
22 47 43
21 47 43
22 48 44
22 48 44
22 48 44
22 48 43
22 47 43
22 48 43
22 48 44
21 47 43
21 47 42
20 44 41
21 46 42
20 45 42
20 45 41
21 46 42
20 44 40
20 45 42
20 45 42
21 46 42
21 46 42
20 45 41
20 44 40
20 44 41
21 46 42
20 45 42
21 46 42
20 45 42
21 46 43
20 45 41
21 46 42
20 45 42
20 45 41
21 46 42
21 46 42
20 44 41
21 46 42
20 45 42
21 46 42
20 45 41
20 45 41
21 46 42
21 46 42
21 45 42
21 47 43
21 47 43
21 47 43
20 45 41
21 46 42
21 46 42
21 46 42
21 46 42
21 46 42
21 47 43
21 47 43
20 45 41
20 45 41
20 45 41
21 46 42
21 47 43
21 45 41
21 46 42
21 47 43
21 46 42
21 46 42
21 47 43
21 47 43
21 47 43
21 45 41
21 46 42
21 47 43
21 45 41
21 46 42
21 46 42
21 45 41
21 47 43
21 47 43
21 47 43
21 47 42
21 47 43
21 46 42
22 48 43
21 47 43
21 46 42
21 47 43
21 46 42
22 48 44
21 47 42
22 48 43
21 47 43
21 47 43
22 49 44
21 47 43
21 46 42
21 46 42
21 47 43
21 47 43
21 47 42
22 48 44
21 46 42
22 48 44
21 47 43
22 49 44
22 48 44
22 48 44
22 48 43
21 47 42
22 48 44
21 47 43
21 47 43
22 48 44
22 48 43
22 48 44
22 49 44
22 49 45
22 47 43
22 48 44
22 48 44
22 47 43
21 46 42
22 48 44
22 48 44
22 47 43
22 48 44
22 47 43
22 48 43
21 47 43
23 50 45
22 48 43
22 49 44
23 50 45
20 45 41
20 45 41
20 45 41
20 44 41
20 45 42
20 44 41
20 45 42
20 45 41
21 46 42
20 45 41
20 44 40
21 46 42
20 45 42
21 45 42
20 45 41
20 45 42
20 44 41
20 43 40
21 46 42
20 45 41
21 45 42
21 46 42
20 44 41
20 44 40
20 45 41
21 46 42
20 45 41
21 46 42
20 45 41
21 46 42
20 45 42
20 44 40
21 46 42
20 45 41
20 45 41
21 46 42
21 45 42
21 47 43
21 47 43
21 46 42
21 46 42
20 45 41
21 46 42
20 45 41
20 45 41
21 46 42
21 46 42
21 46 43
21 45 42
21 45 42
21 46 42
21 46 42
20 44 41
22 48 44
21 46 42
21 47 43
21 46 42
21 46 42
22 48 44
21 47 43
21 47 43
21 46 42
21 47 42
21 46 42
21 46 42
21 46 42
21 47 43
21 46 42
22 49 44
21 45 41
22 48 43
21 47 43
21 46 42
21 46 42
21 46 42
21 46 42
21 46 42
21 47 43
22 47 43
22 48 44
22 48 44
21 46 42
22 49 44
21 47 42
21 46 42
22 48 43
22 48 44
21 47 43
21 47 43
21 47 43
22 48 44
22 48 44
22 48 43
21 47 43
22 48 44
22 48 43
21 47 43
21 47 43
22 47 43
21 47 43
21 46 42
22 48 43
22 48 43
22 48 43
22 49 45
21 47 43
22 49 44
21 46 42
22 48 44
22 48 44
22 48 43
22 49 45
22 48 43
22 49 44
22 48 44
22 49 44
22 48 44
22 48 43
22 48 43
22 48 43
20 45 41
20 45 41
20 45 41
21 46 42
20 45 41
21 46 42
20 46 42
20 44 41
21 46 43
20 44 40
20 45 41
20 44 40
20 45 41
20 45 41
20 44 41
20 45 41
20 45 42
21 46 42
21 46 42
20 44 41
21 45 42
20 45 41
21 46 42
21 45 42
21 46 42
20 45 41
20 45 41
20 45 41
20 45 41
20 45 41
21 46 42
20 44 41
20 45 41
20 45 41
20 45 41
20 45 41
22 48 44
21 47 43
21 47 43
21 46 42
21 46 42
21 46 42
21 46 42
20 45 41
21 46 42
21 46 42
20 45 41
21 46 42
21 46 42
21 47 43
21 46 42
21 46 42
21 47 43
21 46 42
21 46 42
21 47 43
21 46 42
21 47 43
21 47 43
21 47 43
21 46 42
21 46 42
21 47 43
21 47 43
22 48 43
21 46 42
21 47 43
20 45 41
21 46 42
22 48 44
21 47 43
21 47 43
21 47 43
21 47 43
21 47 43
21 47 43
21 45 41
21 46 42
21 47 43
21 47 43
22 48 43
21 47 43
21 46 42
22 48 44
21 47 43
22 47 43
21 47 42
22 48 43
22 48 44
21 47 43
22 49 44
22 48 43
21 46 42
22 49 45
21 47 43
21 47 43
21 47 42
21 47 43
21 47 42
21 47 43
22 48 44
22 47 43
21 47 43
22 47 43
22 48 44
22 47 43
22 49 44
21 47 42
22 48 43
22 48 43
22 49 45
22 48 44
21 47 43
22 48 43
22 49 44
22 49 44
22 48 44
22 49 44
22 48 44
22 49 44
20 45 41
20 45 41
20 45 41
20 45 41
21 46 42
20 44 41
20 45 42
21 46 42
20 45 41
20 45 41
20 45 41
20 45 42
21 46 42
20 45 42
20 44 41
20 45 41
21 46 42
20 45 41
20 45 42
20 45 41
20 45 42
20 45 41
21 46 42
20 45 41
20 45 42
21 46 42
20 44 40
21 46 42
20 45 41
21 46 42
21 46 42
21 46 42
21 46 42
21 46 42
21 46 42
21 46 42
21 46 42
21 47 43
21 47 43
21 46 42
21 47 43
21 46 42
21 46 42
21 47 43
21 46 42
21 46 42
20 45 41
21 46 42
21 47 43
22 49 45
21 45 41
21 46 42
21 46 42
21 47 43
21 46 42
21 47 43
21 46 42
21 47 43
21 47 43
21 47 43
21 47 43
21 47 43
21 47 42
21 46 42
21 47 43
21 47 43
21 46 42
21 46 42
21 46 42
21 47 42
21 47 42
21 46 42
21 46 42
21 46 42
21 46 42
21 46 42
22 47 43
21 47 43
21 46 42
21 47 43
22 48 43
21 47 43
21 47 42
21 46 42
21 47 43
21 47 43
22 48 44
21 46 42
21 47 43
22 48 44
21 47 43
21 47 43
21 47 42
21 47 43
22 48 43
22 48 43
21 47 43
22 47 43
21 47 43
23 50 45
22 48 43
22 47 43
22 48 43
22 48 44
22 48 43
21 47 42
22 48 44
22 48 43
22 48 43
22 49 44
21 47 42
21 47 42
22 48 43
22 48 44
21 47 43
21 47 42
22 49 44
22 48 43
22 49 45
22 49 45
20 45 41
21 46 42
21 46 42
20 45 41
21 46 42
20 45 42
20 45 42
21 46 42
20 45 42
20 45 42
20 45 41
21 46 42
20 44 41
21 46 42
20 45 41
21 46 42
20 45 41
20 45 41
21 46 42
20 45 41
21 46 42
20 45 41
20 45 42
20 45 42
21 46 42
20 45 41
20 44 40
21 46 42
20 45 41
21 46 42
20 44 41
21 47 43
20 45 41
21 47 43
21 46 42
21 47 43
21 46 42
21 46 43
20 45 42
21 45 42
20 45 41
20 45 41
21 46 42
20 45 41
21 46 42
21 46 42
21 47 43
21 46 42
21 47 43
21 46 42
21 46 42
20 45 41
21 47 43
21 47 43
21 46 42
21 47 43
20 45 41
21 45 42
21 46 42
21 46 42
21 46 42
22 48 44
21 47 43
21 47 43
21 47 43
21 46 42
21 47 43
21 47 43
21 46 42
21 46 42
21 47 43
21 47 43
21 47 43
21 46 41
21 46 42
22 48 43
21 47 43
21 46 42
21 47 43
21 47 43
21 47 43
21 46 42
21 47 43
21 47 43
21 46 42
21 46 42
21 47 43
22 48 44
22 48 44
21 46 42
22 47 43
22 47 43
22 48 43
22 49 44
22 48 44
21 47 43
21 47 43
22 49 45
22 49 44
22 48 43
21 46 42
22 48 43
22 47 43
21 47 43
22 48 44
22 48 44
21 47 43
22 48 43
22 48 43
22 48 43
22 48 43
21 47 43
23 49 45
22 48 44
21 47 43
22 48 43
22 48 44
22 48 44
21 47 43
21 47 43
20 44 41
20 44 41
20 45 41
20 44 41
20 45 41
20 43 40
21 46 42
20 45 41
20 44 40
20 45 41
20 44 40
21 46 42
21 46 42
20 45 41
21 46 42
20 44 40
20 45 41
20 45 41
20 44 40
20 45 41
20 45 42
21 46 42
21 46 42
20 46 42
20 44 40
20 45 41
20 45 41
21 47 43
20 45 41
20 45 41
21 46 42
21 46 42
20 45 41
21 46 42
21 46 42
21 45 42
20 45 41
21 46 42
21 46 42
21 47 43
21 46 42
21 46 42
20 45 41
21 47 42
21 47 42
21 46 42
21 46 42
20 44 41
20 45 41
20 45 41
21 46 42
21 46 42
21 46 42
21 46 42
21 46 42
21 47 43
21 46 42
21 47 43
21 46 42
21 45 41
21 45 42
21 47 43
21 47 43
21 47 43
20 45 41
21 46 42
21 47 43
21 46 42
22 47 43
21 47 43
21 47 42
21 47 42
21 46 42
21 47 42
21 45 41
21 47 43
22 47 43
21 46 42
21 46 42
21 46 42
22 47 43
21 47 43
21 47 43
21 47 43
22 47 43
21 47 43
21 46 42
21 47 43
21 45 41
21 47 43
22 48 43
21 47 42
21 47 43
21 47 42
22 47 43
21 47 42
22 48 44
22 48 43
22 47 43
22 48 43
21 47 42
22 47 43
22 48 44
22 48 44
21 47 42
22 48 44
21 47 42
22 48 44
22 48 44
22 49 45
22 48 44
21 47 43
22 49 44
22 48 44
22 48 43
22 48 44
21 47 43
22 48 44
22 48 43
22 49 44
20 44 41
20 45 41
20 45 41
20 45 41
20 45 42
20 45 41
20 45 41
20 45 41
20 45 41
20 45 42
20 45 42
20 45 41
21 46 42
21 46 42
20 45 41
20 44 40
20 45 41
20 44 41
20 45 41
20 45 41
20 45 41
20 45 41
21 46 42
20 46 42
20 45 41
20 44 41
20 45 41
21 46 42
21 45 42
21 46 42
20 45 41
21 46 42
21 46 42
21 46 42
20 45 42
21 46 42
21 46 42
20 45 41
20 44 41
21 46 42
21 46 42
21 46 42
21 46 42
21 46 42
20 45 42
21 46 42
21 47 43
21 47 43
21 46 42
21 46 42
20 45 41
21 47 43
21 46 42
21 46 42
21 46 42
20 44 40
21 46 42
21 46 42
21 46 42
21 47 43
21 46 42
21 46 42
21 46 42
22 48 44
21 46 42
21 46 42
21 47 42
21 46 42
21 46 42
21 47 43
22 47 43
21 46 42
22 48 44
21 47 42
21 46 42
21 47 43
22 47 43
22 48 44
21 47 43
22 49 45
21 46 42
21 47 43
21 46 42
22 47 43
21 47 43
21 47 43
21 47 42
21 46 42
21 47 43
22 47 43
22 48 44
22 48 43
22 48 44
21 46 42
22 48 43
22 48 43
21 47 43
22 48 44
22 49 44
21 47 43
22 47 43
21 47 43
22 49 45
21 47 42
22 47 43
21 47 43
22 49 44
21 47 43
22 48 44
22 48 43
22 49 44
22 48 43
22 48 43
22 48 44
23 50 45
22 48 44
22 48 44
22 49 44
21 47 43
22 48 44
20 45 41
20 44 40
20 45 42
20 45 41
20 44 41
21 46 42
20 45 41
20 45 41
20 45 41
20 45 42
21 46 42
21 46 42
20 44 41
21 47 43
20 45 41
20 44 40
20 44 41
20 44 41
21 46 42
20 45 41
20 45 41
20 44 41
21 46 42
20 45 41
20 45 42
20 45 41
20 45 41
21 46 42
20 45 41
21 47 43
20 45 41
20 45 41
21 46 42
20 45 41
20 45 41
21 46 42
21 46 42
20 45 41
21 46 42
21 46 42
21 46 42
21 47 43
21 45 41
21 46 42
21 46 42
21 47 43
21 47 43
20 44 41
21 45 42
20 45 41
21 46 42
21 46 42
21 46 42
22 48 44
21 47 43
21 47 43
21 47 43
21 46 42
21 47 43
21 46 42
21 47 43
21 46 42
21 46 42
22 48 43
22 47 43
21 46 42
21 46 42
21 46 42
21 47 42
22 48 43
21 46 42
21 47 43
21 46 42
21 47 43
21 47 43
21 46 42
21 46 42
21 47 43
22 49 44
21 47 43
21 47 43
22 47 43
22 48 44
21 47 43
22 48 44
21 46 42
22 48 43
22 48 43
21 47 43
21 46 42
21 47 43
22 47 43
22 48 44
21 46 42
21 47 42
22 47 43
21 47 43
22 48 44
21 46 42
22 48 44
22 49 44
21 47 43
23 50 45
22 48 44
22 47 43
22 47 43
22 47 43
22 48 44
22 49 44
22 48 43
22 48 44
22 48 43
21 47 43
21 47 43
21 47 43
22 48 43
23 50 45
22 49 44
22 48 44
22 48 44
20 45 41
20 44 40
20 45 41
20 45 42
20 45 42
20 45 41
20 43 40
21 46 42
21 46 42
20 44 41
20 45 42
21 46 42
21 46 42
20 44 41
21 45 42
20 44 41
20 44 41
21 46 42
21 46 42
20 45 41
21 46 42
20 45 42
21 46 42
21 46 43
21 46 42
20 45 41
21 46 42
21 46 42
20 45 41
20 45 41
21 46 42
21 46 42
21 46 42
20 44 40
21 46 42
21 46 42
21 46 42
20 45 41
21 47 43
21 46 42
21 46 42
21 47 43
21 47 43
21 46 42
21 46 42
21 46 42
22 48 44
21 46 42
21 46 43
20 45 41
21 46 42
21 46 42
21 46 42
21 46 42
21 46 42
21 46 42
21 46 42
21 46 42
21 47 43
21 46 42
21 46 42
21 45 41
20 45 41
22 48 43
21 45 41
21 46 42
22 49 45
21 47 43
21 47 43
21 47 43
21 47 43
20 45 41
21 47 43
21 47 42
22 48 43
22 49 44
21 47 43
21 47 43
21 45 41
21 47 43
21 47 43
21 47 43
21 47 42
21 46 42
21 47 43
22 48 43
22 48 43
21 47 43
21 47 43
21 46 42
21 47 43
22 47 43
22 48 43
21 46 42
21 47 42
21 46 42
21 47 43
22 48 44
22 47 43
21 47 42
22 48 43
22 48 43
22 48 43
21 47 43
22 48 44
22 48 44
22 48 44
21 46 42
21 47 43
22 49 44
22 49 45
22 48 43
22 49 44
22 48 44
22 49 44
22 49 44
21 47 43
22 48 44
22 48 43
22 49 44
21 46 42
20 46 42
20 45 41
21 46 42
20 45 41
20 45 41
20 45 42
21 46 42
20 45 41
20 45 42
20 45 41
20 45 41
21 45 42
21 46 42
20 45 41
20 45 41
20 45 41
20 45 41
20 44 41
21 45 42
21 46 42
20 45 41
21 46 42
20 45 41
20 45 41
20 45 41
20 44 41
21 46 43
20 44 41
20 45 41
20 45 41
21 46 42
21 47 43
22 48 44
21 46 42
21 47 43
21 46 42
21 46 42
20 45 41
21 47 43
21 47 43
20 45 41
21 46 42
21 46 42
20 45 41
21 47 43
21 46 42
21 46 42
20 45 41
21 46 42
21 46 42
21 47 43
21 47 43
21 46 42
21 46 42
21 46 42
21 47 43
20 45 41
21 46 42
21 46 42
20 45 41
21 46 42
21 47 43
21 47 43
21 46 42
21 46 42
22 48 44
22 47 43
22 48 43
21 46 42
21 46 42
22 48 43
21 46 42
21 47 43
22 48 44
21 46 42
21 47 43
21 46 42
21 46 42
21 46 42
21 47 43
22 48 43
21 47 43
22 48 44
22 47 43
22 48 44
21 47 43
21 46 42
21 47 42
21 47 43
21 47 43
21 47 43
21 47 43
22 47 43
23 50 45
22 48 44
23 50 45
21 46 42
22 48 43
22 48 43
21 47 43
21 47 43
21 47 43
22 48 44
22 48 43
22 48 44
21 47 43
22 48 43
22 48 44
21 47 42
22 48 44
21 47 42
21 47 43
22 48 44
22 49 45
22 49 44
22 47 43
22 48 44
23 50 45
22 48 43
20 45 41
20 45 42
20 45 42
21 46 42
20 45 42
21 47 43
21 46 42
20 45 41
20 44 41
20 45 41
20 44 41
21 46 42
20 45 41
20 45 41
21 46 42
20 45 42
21 46 42
20 45 41
21 46 42
20 45 41
21 46 42
20 45 42
20 44 40
21 46 42
21 46 42
20 45 41
20 45 41
20 45 41
21 45 42
21 46 42
20 44 41
20 45 42
20 45 41
21 46 42
21 46 42
20 45 41
21 46 42
21 46 42
21 46 42
21 46 42
21 46 42
21 46 42
21 46 43
21 46 42
22 48 44
21 46 42
21 45 42
21 46 42
21 46 42
20 45 41
20 45 41
22 48 43
21 45 41
21 46 42
21 47 43
21 46 42
21 46 42
21 46 42
21 46 42
21 46 42
21 47 43
21 47 43
22 48 44
21 47 43
21 47 43
21 47 43
21 46 42
22 47 43
22 48 43
21 47 43
21 46 42
22 47 43
22 48 44
21 47 43
22 48 44
20 45 41
22 48 44
21 47 43
21 47 43
21 47 43
22 48 44
22 48 44
22 48 44
21 47 43
21 46 42
21 47 43
21 47 43
22 48 44
21 47 43
21 47 43
21 47 43
21 46 42
22 48 44
22 48 44
22 47 43
22 49 44
21 47 43
21 46 42
22 48 43
22 48 44
22 47 43
21 47 43
22 48 43
21 47 43
21 45 41
21 47 42
22 48 44
22 49 44
22 48 44
22 49 45
22 48 44
22 48 43
21 47 43
22 48 43
22 49 44
22 49 44
22 48 44
21 47 43
21 47 42
22 48 43
20 45 41
20 45 42
20 45 41
21 46 42
20 45 41
21 46 42
21 46 42
20 45 41
20 45 41
21 46 42
20 44 41
20 45 42
21 46 42
20 44 40
20 45 41
20 45 41
20 44 40
21 47 43
21 47 43
20 45 41
20 45 41
21 46 42
20 45 41
20 45 41
20 45 41
21 47 43
21 46 42
21 46 42
20 45 41
21 46 42
21 45 42
21 46 42
20 45 42
21 47 43
21 46 42
21 46 42
21 46 43
20 45 41
20 45 42
21 46 42
21 47 43
21 46 42
21 45 41
21 46 42
21 47 43
21 47 43
21 46 42
21 46 42
21 46 42
21 46 42
20 44 40
21 46 42
21 45 41
21 47 43
21 47 43
21 46 42
20 44 41
21 46 42
20 45 41
20 45 41
21 46 42
21 47 43
21 45 42
22 48 43
21 47 43
21 47 43
21 46 42
22 48 44
21 46 42
21 46 42
21 47 43
21 47 43
21 47 42
22 48 44
21 47 43
22 48 43
21 46 42
21 46 42
21 47 43
22 48 43
21 47 42
21 47 43
22 48 43
21 47 43
22 49 44
21 45 41
21 46 42
21 47 43
21 47 43
21 47 43
21 47 43
22 48 43
21 47 43
22 48 44
21 47 42
21 46 42
21 47 43
22 47 43
22 48 44
22 48 44
22 49 44
22 47 43
22 48 43
22 48 44
21 47 42
22 48 44
22 48 43
21 47 42
22 49 45
22 48 44
22 48 44
23 50 45
21 46 42
22 48 43
22 48 43
21 46 41
22 48 44
22 48 43
22 48 44
21 46 42
20 44 41
21 46 42
20 45 42
20 45 41
21 46 42
21 46 42
20 45 41
20 45 42
20 45 41
21 46 42
21 46 42
20 45 42
21 47 43
20 45 42
20 44 40
20 45 41
20 44 40
20 44 41
21 46 42
20 45 41
20 44 40
20 45 41
21 46 42
21 46 42
20 45 41
20 44 41
21 46 42
20 45 41
21 46 42
21 46 42
20 45 42
20 45 41
21 46 42
21 46 42
20 45 41
20 45 41
21 46 42
21 47 43
21 47 43
21 46 43
21 46 42
21 46 42
21 46 42
21 46 42
20 45 41
21 45 41
21 46 42
21 46 42
20 45 41
20 45 41
20 44 41
21 46 42
21 46 42
21 47 43
21 46 42
21 47 43
21 47 43
21 46 42
21 46 42
21 47 43
20 45 41
21 47 43
21 46 42
21 47 43
21 46 42
21 47 43
21 47 43
21 47 43
21 47 43
21 46 42
21 46 42
21 46 42
22 48 44
21 47 43
21 47 43
21 47 43
21 46 42
22 48 44
21 47 42
22 48 44
21 45 41
21 47 43
21 45 41
21 47 43
21 46 42
22 49 45
21 47 43
21 47 43
21 47 43
21 47 43
21 46 42
22 48 43
22 48 44
21 47 43
21 47 43
22 47 43
22 48 44
21 46 42
22 47 43
22 48 44
22 48 43
22 48 44
22 47 43
22 47 43
21 47 43
21 47 43
22 47 43
22 48 43
22 48 44
22 47 43
21 47 43
22 49 44
21 47 43
22 49 45
22 49 45
22 49 45
22 47 43
22 48 43
22 49 44
22 49 45
21 47 43
21 46 42
20 44 41
21 46 42
20 44 41
20 45 41
20 45 42
20 44 41
20 45 42
20 44 41
21 47 43
20 45 41
20 45 41
20 46 42
21 46 42
21 46 42
21 46 42
20 44 41
20 45 41
20 45 41
20 45 41
21 46 42
20 45 41
20 45 41
20 44 41
20 45 41
20 45 41
21 46 42
21 47 43
21 46 42
20 45 41
20 45 41
21 46 42
20 45 41
20 45 42
20 45 41
21 46 43
21 46 42
21 45 42
20 45 41
20 45 41
21 47 43
21 46 42
21 47 43
21 46 42
21 46 43
21 46 42
21 46 42
21 46 42
21 46 42
21 46 42
21 46 42
22 48 44
21 47 43
21 46 42
21 47 43
21 46 42
21 47 43
21 47 43
21 46 42
21 46 42
21 47 43
21 47 43
21 46 42
21 46 42
21 47 43
21 47 43
21 47 42
21 47 42
21 46 42
22 48 44
21 46 42
21 45 42
21 47 43
21 47 43
21 46 42
21 47 43
21 47 43
21 46 42
21 47 43
21 46 42
21 47 43
21 47 43
21 47 43
21 46 42
21 46 42
22 47 43
22 48 43
22 48 43
21 47 43
21 47 42
22 47 43
22 48 44
21 47 43
21 46 42
22 48 44
21 46 42
22 48 43
21 47 42
21 47 43
22 48 43
22 48 44
22 48 43
22 49 44
21 47 42
21 47 43
21 47 43
22 49 44
22 48 43
22 48 44
22 49 44
22 49 44
22 47 43
21 47 43
22 47 43
22 48 44
22 48 44
22 49 45
22 48 44
22 49 45
20 45 41
20 45 41
20 45 42
20 44 40
20 45 41
20 45 41
20 44 40
20 45 41
21 46 42
21 46 42
20 45 41
20 45 42
20 45 41
21 46 42
20 45 42
21 46 42
20 46 42
20 45 41
21 46 42
21 46 42
21 46 42
20 45 41
20 44 41
20 45 41
20 45 41
20 45 41
20 45 41
21 46 43
20 45 41
21 47 43
21 46 42
21 46 42
20 45 42
21 47 43
21 47 43
21 45 42
21 46 42
21 47 43
20 45 41
22 48 44
21 47 43
21 45 41
20 45 41
21 46 42
21 46 42
20 45 41
21 45 41
21 45 42
21 47 43
21 46 42
21 46 42
21 46 43
20 45 41
21 45 41
21 45 42
21 46 42
20 45 41
21 46 42
21 46 42
22 48 44
21 47 43
21 46 42
21 46 42
21 46 42
20 45 41
21 46 42
21 46 42
21 46 42
21 47 43
22 48 44
22 48 43
21 46 42
21 46 42
20 45 41
21 47 43
21 46 42
21 46 42
21 47 43
21 47 43
22 48 44
21 46 42
21 47 42
21 47 43
22 47 43
22 48 43
21 47 43
21 47 43
22 48 43
21 46 42
22 48 44
22 48 43
21 46 42
21 47 43
22 48 43
21 47 43
22 47 43
22 48 44
21 47 42
22 48 44
22 48 43
22 49 44
22 48 43
22 48 44
21 47 43
21 47 42
21 47 42
22 48 43
22 47 43
22 48 43
21 47 43
22 48 43
22 49 44
22 48 43
22 48 44
22 48 43
22 48 43
21 47 43
22 48 43
22 48 44
21 47 43
21 46 42
20 45 42
21 46 42
21 46 42
20 45 42
20 45 41
20 45 41
20 44 41
20 45 41
20 44 41
20 45 41
20 44 41
20 45 42
21 46 42
21 46 42
20 45 41
20 45 41
21 46 42
21 46 42
21 46 42
20 45 41
20 45 41
21 46 42
20 45 42
20 45 41
21 46 42
21 46 42
20 44 40
21 46 42
20 45 41
21 47 43
20 45 41
21 46 42
21 46 42
21 47 43
20 45 41
21 46 42
21 46 42
20 45 41
20 45 42
21 46 42
21 46 42
21 46 42
20 45 41
21 46 42
20 45 41
20 45 42
21 46 42
20 45 41
21 46 42
21 46 42
21 46 42
21 47 43
20 45 41
21 46 42
21 47 43
21 47 43
21 46 42
21 46 42
21 47 43
21 47 43
21 47 43
21 45 42
21 47 43
21 46 42
21 46 42
21 47 43
20 45 41
21 45 42
21 47 43
21 46 42
21 47 43
22 48 44
21 47 43
21 47 43
21 46 42
22 48 44
21 47 43
21 47 43
22 48 43
21 46 42
21 47 43
21 46 42
21 46 42
22 48 44
22 48 43
22 47 43
22 48 44
22 48 43
21 47 43
21 46 42
22 48 44
22 47 43
22 49 44
21 47 43
22 49 45
21 47 43
21 47 43
22 48 44
22 48 44
21 47 43
21 46 42
22 48 44
22 48 43
22 48 44
21 47 42
22 48 44
22 48 43
23 50 45
22 49 44
22 49 44
22 48 43
22 48 43
21 46 42
22 49 44
22 48 44
22 48 43
22 48 43
22 47 43
22 48 43
20 44 41
20 44 41
20 45 41
21 47 43
20 45 41
20 44 40
20 45 42
20 44 40
21 46 42
20 45 41
20 45 42
20 44 41
20 45 41
20 45 41
20 45 41
21 46 42
20 45 41
20 44 41
21 47 43
20 45 41
21 46 42
21 46 42
21 47 43
20 44 41
20 45 42
21 46 42
20 45 41
21 46 42
20 45 42
20 45 42
20 44 40
20 45 41
21 46 42
20 44 40
20 45 41
21 46 42
20 45 41
20 44 40
21 47 43
21 46 42
21 46 42
21 46 43
21 46 42
21 47 43
21 45 42
21 46 42
21 47 43
21 46 42
21 47 43
21 46 42
21 46 42
20 45 41
21 45 42
21 46 42
20 44 40
21 45 41
21 47 43
21 46 42
22 48 44
21 47 43
21 46 42
21 46 42
22 48 44
21 47 43
21 47 43
21 46 42
21 46 42
21 46 42
21 46 42
21 47 43
21 46 42
21 45 41
21 47 43
21 47 43
21 46 42
22 48 43
21 46 42
21 47 42
20 45 41
21 47 43
21 47 43
21 45 41
22 47 43
21 47 43
21 46 42
21 47 43
22 48 43
21 46 42
21 47 43
22 48 43
21 45 41
21 46 42
21 47 43
22 48 43
22 48 43
21 45 41
21 47 43
21 47 43
22 49 44
21 47 42
22 48 44
21 47 43
21 47 42
21 47 43
22 48 44
21 47 43
21 47 43
23 50 45
22 48 44
22 48 44
22 48 44
21 47 43
22 48 44
22 48 44
22 48 44
22 48 43
21 47 43
22 49 44
21 47 42
22 47 43
20 44 40
20 44 40
21 46 42
20 44 40
20 44 41
20 45 41
20 45 41
20 45 41
21 47 43
21 47 43
21 46 42
20 45 42
21 47 43
21 46 42
21 46 42
20 45 42
20 45 42
21 46 42
21 46 42
21 46 42
21 46 42
21 46 42
20 45 41
20 44 40
21 46 42
21 46 42
20 45 41
21 46 42
21 46 42
20 45 41
20 45 41
20 45 41
21 46 42
21 47 43
21 46 42
20 45 41
21 46 42
21 47 43
20 45 41
21 46 42
21 46 42
21 46 42
21 46 42
21 46 42
21 47 43
21 46 42
21 46 42
21 46 42
21 47 43
21 47 43
21 46 42
20 45 41
21 45 42
21 46 42
21 46 42
21 46 42
21 46 42
21 47 43
21 47 43
21 47 43
22 48 44
21 46 42
21 47 43
21 47 42
21 47 43
21 46 42
21 46 42
21 46 42
21 47 43
22 48 44
22 48 43
21 46 42
21 46 42
21 46 42
22 48 44
22 48 43
21 47 42
21 47 43
22 48 44
21 47 43
21 46 42
21 46 42
21 47 42
21 47 43
22 48 44
21 46 42
21 47 43
22 48 44
21 46 42
21 46 42
21 47 43
21 46 42
21 47 43
21 47 43
22 48 44
21 46 42
22 48 43
21 47 43
22 48 43
21 45 41
22 48 43
21 47 43
21 45 41
21 47 42
22 47 43
22 49 44
21 47 43
22 48 43
21 46 42
21 47 43
21 46 42
22 48 43
22 48 43
22 48 43
21 47 42
22 49 44
21 47 43
22 47 43
22 48 44
22 48 44
20 45 41
20 45 42
21 46 42
20 44 41
20 45 41
21 46 42
20 44 41
20 45 41
20 45 41
20 45 41
20 45 41
20 45 41
20 45 41
20 44 41
20 45 41
19 43 39
21 46 42
20 44 41
21 46 42
21 46 42
21 46 42
21 46 42
21 46 42
20 45 41
21 47 43
21 46 42
21 46 42
20 44 41
20 45 42
20 45 41
21 47 43
21 47 42
21 47 43
21 46 42
20 45 41
21 46 42
21 47 43
21 46 42
20 45 41
21 46 42
21 46 42
21 46 42
21 47 43
21 45 41
21 46 42
20 45 41
21 47 43
20 45 41
21 46 42
21 47 43
20 45 41
20 45 41
21 45 42
21 46 42
21 45 41
21 47 43
21 47 43
21 46 42
21 45 41
21 47 43
21 46 42
21 46 42
21 47 43
21 46 42
21 46 42
21 45 42
21 46 41
21 46 42
21 47 43
21 45 41
21 47 43
21 47 43
21 46 42
21 46 42
21 46 42
21 46 42
21 46 42
21 47 43
21 46 42
21 47 43
22 48 44
21 47 43
21 46 42
21 47 43
21 46 42
21 47 43
22 49 44
22 48 44
21 46 42
22 48 43
21 46 41
21 47 43
21 47 43
22 48 44
22 48 43
21 47 43
21 47 43
22 48 44
22 48 44
22 48 44
21 47 42
21 46 42
22 48 43
22 48 44
21 47 42
22 47 43
21 47 42
21 47 42
21 47 43
22 49 44
21 47 42
22 49 44
22 47 43
21 46 42
21 46 42
21 47 42
22 48 44
22 48 43
22 48 44
22 48 43
20 45 42
20 44 40
20 45 41
21 46 42
20 45 41
20 45 42
20 45 41
20 45 41
20 45 41
21 46 42
20 44 41
21 46 42
20 44 40
20 45 41
20 45 41
20 45 41
21 46 42
21 46 42
21 46 42
20 44 40
20 45 41
20 45 42
20 45 41
21 46 42
20 44 41
20 45 41
20 45 42
20 44 40
20 45 41
21 46 42
21 46 42
21 47 43
21 46 42
21 46 42
20 45 41
20 45 41
21 46 42
20 45 42
21 47 43
21 45 42
21 47 43
20 45 42
21 46 42
21 46 42
21 46 42
20 45 42
21 46 43
21 47 43
21 46 42
21 46 42
21 46 42
21 46 42
21 46 42
21 46 42
21 46 42
21 46 42
21 47 43
20 44 40
21 46 42
21 46 42
21 45 42
21 47 43
21 47 43
21 46 42
21 46 42
21 46 42
21 46 42
21 45 42
21 46 42
21 46 42
21 46 42
21 47 43
21 47 43
21 47 43
21 46 42
21 47 43
22 48 44
21 45 41
22 48 43
21 47 43
22 48 43
21 46 42
22 48 44
21 47 43
21 46 42
21 47 43
22 48 44
21 47 43
21 47 43
21 46 42
21 47 42
22 48 44
21 46 42
21 47 43
22 48 44
21 47 43
22 48 44
21 47 43
21 47 43
21 47 43
21 46 42
22 47 43
21 45 41
21 47 42
22 48 44
22 47 43
22 48 44
22 48 44
22 48 43
22 48 44
21 47 43
23 50 45
22 47 43
22 49 44
22 48 44
22 47 43
22 49 44
21 47 42
22 48 44
22 48 43
21 47 43
21 46 42
21 46 42
20 44 41
20 44 40
20 45 41
21 46 42
21 46 42
20 45 42
21 47 43
20 45 41
20 45 41
20 44 41
20 45 41
20 45 41
21 46 42
21 46 42
20 44 40
20 45 42
20 45 41
20 45 41
21 47 43
20 44 40
21 46 42
20 44 40
21 47 43
20 45 41
21 46 42
21 46 42
20 45 41
21 46 42
20 45 41
21 46 42
20 45 42
20 45 41
21 46 42
21 46 42
20 44 41
20 45 41
21 46 42
20 45 41
21 47 43
21 46 43
21 46 42
21 47 43
20 44 41
21 47 43
21 47 43
21 46 42
21 47 43
20 45 41
21 46 42
21 46 42
20 45 41
21 47 43
21 46 42
21 47 43
20 45 41
21 47 43
21 47 43
21 46 42
22 48 43
21 46 42
21 46 42
21 46 42
21 47 43
21 47 42
21 46 42
21 46 42
21 46 42
21 45 42
21 47 43
21 46 42
21 46 42
21 46 42
21 47 43
22 48 44
21 46 42
22 49 44
21 46 42
21 47 43
21 46 42
21 46 42
21 47 43
21 46 42
21 45 41
21 47 42
22 47 43
22 49 44
21 46 42
22 48 44
21 46 42
21 46 42
21 47 43
21 47 43
21 46 42
21 47 43
22 48 44
22 48 44
22 48 43
22 48 44
22 48 44
21 47 43
21 46 42
22 49 44
21 47 43
22 48 43
22 47 43
21 47 42
22 48 44
22 47 43
21 47 43
22 48 44
21 47 42
22 48 44
22 48 44
22 48 43
21 47 42
22 48 44
22 49 44
20 45 41
20 45 41
20 44 41
21 46 42
20 45 41
20 45 41
21 46 42
21 46 42
21 46 42
20 45 41
20 45 41
20 44 40
20 45 41
20 44 40
20 45 42
20 45 41
20 44 40
20 44 41
20 45 42
20 45 41
21 47 43
21 47 43
21 47 43
21 46 42
21 46 42
21 46 42
21 46 42
20 45 42
20 45 41
21 46 43
20 45 41
20 45 41
20 45 41
20 45 41
20 44 41
20 45 41
21 46 42
21 46 42
20 45 41
20 45 41
21 47 43
21 46 42
21 46 42
21 45 42
21 46 42
20 45 41
21 46 42
21 46 42
21 47 43
22 48 44
21 45 41
21 46 42
21 46 42
21 46 42
21 47 43
21 46 43
21 46 42
20 45 41
21 46 42
21 46 42
21 46 42
21 46 42
21 46 42
21 47 42
21 46 42
21 47 43
21 46 42
21 47 43
21 46 42
21 46 42
21 47 43
21 47 43
21 47 43
22 49 44
21 46 42
21 47 43
21 47 43
21 46 42
21 47 43
22 47 43
21 47 43
21 47 43
21 47 43
22 49 45
20 45 41
22 47 43
22 49 45
21 47 42
22 48 43
21 47 43
22 48 44
21 47 43
21 46 42
21 47 42
22 48 44
22 48 44
21 47 43
21 47 43
22 49 45
21 47 43
22 48 43
21 47 43
21 47 43
21 47 43
21 47 43
21 47 43
22 49 45
21 47 43
22 49 44
22 48 43
21 46 42
21 47 43
21 47 43
21 47 43
22 48 44
22 48 44
22 49 44
22 47 43
21 47 43
22 47 43
21 47 43
21 46 42
21 46 43
20 45 41
20 44 40
21 45 42
20 45 41
20 45 42
21 46 42
20 45 41
20 45 41
21 46 42
21 47 43
20 44 41
21 46 42
20 45 41
21 47 43
21 46 42
20 45 41
21 46 42
20 45 41
21 47 43
20 45 41
20 45 41
21 46 42
20 44 41
20 45 41
21 47 43
20 45 41
20 45 42
21 46 42
21 46 42
20 45 41
21 46 42
20 45 41
20 45 41
20 45 42
20 45 41
21 46 42
20 45 41
21 47 43
20 45 41
21 46 42
21 46 42
20 45 41
20 45 41
21 46 42
20 45 41
21 47 43
20 45 41
20 45 41
21 46 42
21 47 43
21 47 43
22 48 44
20 45 41
21 46 42
21 46 42
21 46 42
21 47 43
20 45 41
21 46 42
22 48 43
20 45 41
20 45 41
21 46 42
21 46 42
21 46 42
21 47 43
21 46 42
21 46 42
21 46 42
22 48 44
21 46 42
21 47 43
21 47 43
22 48 44
21 47 43
21 46 42
22 47 43
21 46 42
21 46 42
21 46 42
21 46 42
21 46 42
21 47 43
21 47 43
21 46 42
22 48 43
22 47 43
21 46 42
21 46 42
21 46 41
21 46 42
21 47 43
21 47 43
22 48 43
21 46 42
21 47 43
21 47 43
21 46 42
21 47 43
21 47 43
21 47 43
21 47 43
21 47 43
22 48 43
21 47 43
21 46 42
22 48 44
21 47 43
21 46 42
22 48 44
22 48 44
22 48 44
21 47 43
22 48 44
22 48 44
22 47 43
21 47 43
21 46 42
20 44 41
21 46 42
20 45 41
20 45 41
19 43 40
20 44 41
21 46 42
20 45 41
20 45 41
20 45 42
20 45 41
20 45 41
21 46 42
21 46 42
20 45 41
20 43 40
21 46 42
20 45 41
21 45 42
21 46 42
21 46 42
21 46 42
21 46 42
20 45 41
21 46 42
20 45 41
21 46 42
21 46 42
21 46 42
21 46 42
20 45 42
21 47 43
21 46 42
21 46 42
21 46 42
21 46 42
20 44 40
20 45 41
21 46 42
21 46 42
21 47 43
20 45 42
20 45 41
20 45 41
21 46 42
20 45 41
21 46 42
21 46 42
21 45 41
20 45 41
21 46 42
21 46 42
21 47 43
20 45 41
21 47 43
21 45 41
21 46 42
21 47 43
21 47 43
21 46 42
21 46 42
21 47 43
21 46 42
21 46 42
21 47 43
21 47 43
21 46 42
21 46 42
21 46 42
21 47 43
21 46 42
21 47 43
21 47 43
21 47 43
22 47 43
21 47 43
21 46 42
21 47 43
21 46 42
22 48 43
22 48 44
21 47 43
21 47 43
21 47 43
21 47 43
22 48 44
21 47 43
22 48 44
21 47 43
22 48 44
22 48 43
21 47 43
21 46 42
22 48 44
21 47 43
21 46 42
22 48 43
21 47 42
21 46 42
21 47 42
21 47 43
21 47 42
22 48 44
22 48 44
22 49 44
21 46 42
21 47 43
21 47 43
22 48 44
22 47 43
22 47 43
22 48 43
21 47 42
21 47 43
22 49 44
22 48 44
22 48 44
21 47 43
22 48 43
20 45 42
20 45 41
20 45 41
20 45 41
20 45 41
21 46 42
20 45 41
20 45 41
20 44 40
21 47 43
20 45 42
20 45 42
20 45 41
21 46 42
21 47 43
20 45 42
20 45 41
21 46 42
20 45 41
20 45 41
21 46 42
21 46 42
20 44 41
20 44 41
21 46 42
21 46 42
20 45 41
21 46 42
21 46 42
21 47 43
20 45 41
21 46 42
21 46 42
20 44 40
21 46 42
21 47 43
21 46 42
21 46 42
21 46 42
21 46 42
21 47 43
21 46 42
21 46 42
21 46 42
21 46 42
20 45 41
21 46 42
20 45 41
21 47 43
20 45 41
21 46 42
21 46 42
21 46 42
21 46 42
21 46 42
21 46 42
21 46 42
21 45 42
20 45 41
20 45 41
21 46 42
21 46 42
21 47 43
21 47 43
21 45 41
21 46 42
21 47 42
21 46 42
21 46 42
22 48 44
21 46 42
21 47 43
22 48 44
21 47 43
21 46 42
21 47 43
21 46 42
21 46 42
21 46 42
21 47 43
21 47 43
21 47 43
21 47 42
21 46 42
21 47 43
21 46 42
21 46 42
21 47 43
22 47 43
21 47 43
21 46 42
21 47 42
21 47 42
21 46 42
21 47 43
21 46 42
22 48 44
22 48 44
21 47 43
21 47 43
21 46 42
21 47 42
21 46 42
22 48 43
21 47 43
22 48 44
22 47 43
22 47 43
21 46 42
22 48 44
21 47 43
22 49 45
22 48 44
21 47 43
21 47 43
21 47 43
21 47 42
21 47 43
22 49 44
22 48 44
20 44 41
20 45 41
20 45 41
20 45 41
20 45 41
20 44 41
20 45 41
21 46 42
19 43 40
20 45 41
19 43 40
21 46 42
21 46 42
20 44 40
21 46 42
20 45 41
20 44 41
20 45 41
20 45 41
20 45 41
20 45 42
20 45 42
21 46 42
20 45 42
20 45 41
21 46 42
20 45 41
20 45 41
20 45 41
21 47 43
20 45 41
21 47 43
21 46 42
21 46 42
21 47 43
20 45 41
20 45 42
20 45 41
21 46 43
20 45 41
20 45 41
21 46 42
20 45 41
20 45 41
21 47 43
21 47 43
21 47 43
21 47 43
21 47 43
21 46 42
22 48 44
20 45 41
20 45 41
21 47 43
20 45 41
21 47 43
21 47 43
21 46 42
21 46 42
20 45 41
21 47 43
21 47 43
21 47 43
21 46 42
21 46 42
21 46 42
21 45 41
21 47 43
21 45 41
21 46 42
21 47 43
21 46 42
21 46 42
21 45 41
21 46 42
21 46 42
21 46 42
22 48 43
21 47 42
21 46 42
21 47 43
22 48 44
21 47 43
20 45 41
21 46 42
21 45 41
21 46 42
21 46 42
22 48 43
22 48 43
21 47 42
21 45 41
21 46 42
21 45 41
21 47 43
22 48 43
21 46 42
21 47 43
22 48 43
21 47 43
21 47 43
21 47 42
21 47 43
21 46 42
21 46 42
21 45 41
22 49 45
21 46 42
22 48 44
22 48 43
21 47 43
22 48 43
21 47 43
22 49 44
21 47 43
22 48 44
21 47 43
22 48 43
22 48 44
22 48 43
20 45 41
20 44 41
20 44 41
20 45 42
21 46 42
21 47 43
20 45 41
20 44 41
21 47 43
20 45 41
20 45 41
20 44 41
20 45 42
20 44 41
21 46 42
20 44 41
20 45 41
20 45 41
21 46 42
20 45 41
21 46 42
21 46 42
21 46 43
20 45 41
20 45 41
20 45 42
20 44 41
20 44 41
21 46 42
20 45 41
21 46 42
21 46 42
20 45 41
21 47 43
21 47 43
20 45 41
21 47 43
21 46 42
20 44 41
21 47 43
21 46 42
20 45 41
21 46 42
21 47 43
20 45 41
20 45 41
20 45 41
21 46 42
21 47 43
21 46 42
21 47 42
21 47 43
21 46 42
20 45 41
21 47 43
21 46 42
20 45 41
20 45 42
21 46 42
21 46 42
22 48 44
21 46 42
21 46 42
21 46 42
20 45 41
21 47 43
21 46 42
21 47 43
20 45 41
21 46 42
21 47 43
21 46 42
21 47 43
21 46 42
21 45 42
21 46 42
21 45 41
21 46 42
21 47 43
21 47 43
21 46 42
21 46 42
21 47 43
21 47 43
21 46 42
21 46 42
21 47 42
21 47 43
21 47 43
21 46 42
21 47 43
21 46 42
21 46 42
22 48 44
21 47 42
21 47 43
22 48 44
21 46 42
21 47 43
22 48 43
21 47 42
21 46 42
22 49 44
22 47 43
21 47 43
21 47 43
21 47 43
21 47 43
22 47 43
21 47 43
22 48 43
21 46 42
22 47 43
21 47 43
21 47 43
21 47 42
22 47 43
21 47 43
21 47 43
22 48 44
20 44 40
20 45 41
20 44 40
21 46 42
20 45 41
21 46 42
20 45 41
21 46 43
21 45 42
20 45 41
20 45 41
21 48 43
20 45 41
21 46 42
20 44 41
20 45 41
20 45 41
20 44 41
21 45 42
21 46 42
21 46 42
20 44 41
20 44 41
20 45 41
21 46 42
20 45 41
20 45 41
21 46 42
20 45 41
21 46 42
21 47 43
20 45 41
21 46 42
21 46 42
20 45 41
21 46 42
21 45 42
21 46 42
21 46 42
20 45 41
20 45 42
20 45 41
20 45 41
21 47 43
21 46 42
21 46 42
21 46 42
22 48 44
21 46 42
20 45 41
21 46 42
21 46 42
21 46 42
21 46 42
21 46 42
21 46 42
21 46 42
21 46 42
21 46 42
21 46 42
22 49 44
20 45 41
21 46 42
21 47 43
21 47 43
21 47 43
21 46 42
21 47 43
21 47 43
21 46 42
22 48 43
21 46 42
22 48 44
21 46 42
21 46 42
21 47 43
21 45 41
21 47 43
21 47 43
21 47 43
22 48 44
21 47 43
21 47 42
21 47 43
21 46 42
21 46 42
21 47 43
21 46 42
21 47 43
22 48 43
21 47 43
21 47 43
21 46 42
22 47 43
22 47 43
21 47 43
21 47 43
21 47 43
21 45 41
21 47 43
21 46 42
22 48 44
21 47 43
21 47 42
22 47 43
21 46 42
21 46 42
22 48 43
21 47 43
21 47 43
22 48 43
21 46 42
22 48 44
21 46 42
22 48 44
21 46 42
21 47 43
21 46 42
22 48 43
22 48 43
21 46 42
20 45 41
20 45 41
20 44 41
20 45 41
20 45 41
20 45 41
20 45 42
21 46 42
20 45 41
20 45 41
20 45 41
20 45 42
20 45 41
20 44 40
20 45 41
21 46 42
20 45 42
21 46 42
20 44 41
20 45 41
19 43 40
20 45 41
20 45 41
20 45 41
21 47 43
20 45 41
21 47 43
21 46 42
21 45 42
20 45 41
20 45 41
20 45 41
21 46 42
20 44 40
20 45 41
21 46 42
20 45 41
21 46 42
21 47 43
20 45 42
21 46 42
20 45 41
21 46 42
21 46 42
20 44 40
21 46 42
20 45 41
21 46 42
20 45 41
20 45 41
21 47 42
21 47 43
21 45 42
21 46 42
21 46 42
21 46 42
21 46 42
21 47 43
21 46 42
21 45 41
21 46 42
21 46 42
21 46 42
21 47 43
21 46 42
21 47 43
21 46 42
21 46 42
21 47 43
21 47 43
21 47 43
22 47 43
21 47 43
20 45 41
21 46 42
21 47 43
20 44 40
21 46 42
21 46 42
21 46 42
21 47 43
21 46 42
22 47 43
22 49 45
21 47 43
21 46 42
21 47 42
21 47 42
21 47 43
21 47 43
21 47 43
21 46 42
21 47 43
22 48 44
21 47 43
21 46 42
21 46 42
21 46 42
21 47 43
21 47 43
21 47 43
22 48 44
22 48 43
21 46 42
22 47 43
22 48 44
22 48 44
22 48 44
22 47 43
21 47 43
21 47 43
22 49 45
22 48 43
22 47 43
22 47 43
22 47 43
22 49 44
21 47 43
21 47 43
20 45 41
20 44 41
20 44 40
20 45 42
20 45 41
21 46 42
20 45 41
21 46 42
20 45 41
20 45 41
20 44 41
20 45 41
20 45 41
20 45 41
21 46 42
21 45 42
20 45 41
21 46 43
20 45 41
20 45 41
21 46 42
20 44 40
20 45 41
20 45 42
21 46 42
20 45 42
20 45 41
20 45 41
21 46 42
21 45 42
20 45 41
21 45 42
20 44 41
21 48 43
21 46 42
20 45 42
20 45 41
21 46 42
21 46 42
21 46 42
21 46 42
21 46 43
20 45 42
21 46 42
21 46 42
20 45 41
21 46 42
20 45 41
21 46 42
21 46 42
20 45 41
21 46 42
21 45 41
20 45 41
20 45 41
21 47 43
21 46 42
21 47 43
21 46 42
21 46 42
20 45 41
21 46 42
21 45 42
21 47 43
20 45 41
21 46 42
21 45 41
21 46 42
21 46 42
21 46 42
21 47 42
21 46 42
21 47 43
21 46 42
21 46 42
21 46 42
20 45 41
21 47 43
21 47 43
20 45 41
21 47 43
21 46 42
21 47 43
21 47 43
21 46 42
21 47 42
21 46 42
21 46 42
21 47 43
21 46 42
21 47 43
22 48 44
21 46 42
22 48 44
21 47 43
22 48 44
21 46 42
22 48 43
21 47 43
21 46 42
21 46 42
21 47 42
22 48 44
21 46 42
22 47 43
22 48 44
22 48 43
21 47 42
21 47 43
22 48 43
23 50 46
21 47 43
22 48 43
22 47 43
21 47 43
21 46 42
21 46 42
22 47 43
22 48 43
22 49 44
21 46 42
20 44 40
20 45 41
20 45 41
20 45 41
21 46 42
20 44 41
21 46 42
21 46 42
21 47 43
20 45 41
20 45 41
20 45 41
20 44 41
21 46 42
20 45 41
21 46 42
20 45 41
21 46 42
21 47 43
20 45 41
21 46 42
20 45 42
20 44 40
21 47 43
20 44 41
20 45 42
21 46 42
21 46 42
21 47 43
20 45 41
20 45 41
20 45 41
20 45 41
21 46 42
20 44 40
21 45 42
21 46 43
21 47 43
20 45 41
21 46 42
21 47 43
21 47 43
21 46 42
20 45 41
21 47 43
21 46 42
20 45 41
21 47 43
21 46 42
21 46 42
21 46 42
21 46 42
20 45 41
21 46 42
21 46 42
20 45 41
20 45 41
21 47 43
21 46 42
21 46 42
21 46 42
21 47 43
21 47 43
21 46 42
21 47 43
21 46 42
21 47 42
21 46 42
21 46 42
21 47 43
21 47 43
22 49 44
21 46 42
21 47 43
21 47 43
21 45 41
21 45 41
21 46 42
21 47 43
21 47 42
20 45 42
21 47 43
22 49 45
21 46 42
21 46 42
21 47 42
21 47 43
20 45 41
21 45 41
21 46 42
22 48 44
21 46 42
21 47 43
21 46 42
21 47 43
21 47 43
22 48 44
21 46 42
20 45 41
21 47 43
21 47 42
21 47 43
21 47 43
21 47 43
22 48 44
22 48 44
21 46 42
21 46 42
22 48 44
22 47 43
22 47 43
21 46 42
22 48 44
21 46 42
21 47 42
21 47 43
21 47 43
21 47 43
22 48 44
20 45 41
20 45 41
20 44 40
20 45 41
20 45 41
20 45 41
20 45 41
21 46 42
21 46 42
20 43 40
20 45 41
20 45 41
20 45 41
20 44 40
20 44 41
20 45 41
20 45 41
20 45 41
21 46 42
21 46 42
20 44 41
21 45 42
20 45 42
20 44 40
21 47 43
20 45 41
20 45 41
20 45 42
21 46 42
20 45 41
20 45 41
21 45 42
20 45 41
21 46 42
20 45 41
20 45 42
20 45 41
21 46 42
20 45 41
20 45 41
21 46 42
21 46 42
21 46 42
20 45 42
20 45 41
20 45 41
20 45 41
21 46 42
21 47 43
21 47 43
21 46 42
21 47 43
21 46 42
21 46 42
21 46 42
21 47 43
21 47 43
21 46 42
21 47 43
22 47 43
21 46 42
21 46 42
21 47 43
21 46 42
21 46 42
20 45 41
21 47 43
21 46 42
21 46 42
21 46 42
21 46 42
21 47 43
21 46 42
21 46 42
21 46 42
21 47 43
21 47 43
21 46 42
22 47 43
21 46 42
21 47 43
21 47 43
21 47 43
21 47 43
21 46 42
21 47 43
21 46 42
21 47 43
21 47 43
22 48 44
21 47 43
22 48 44
22 48 44
21 46 42
22 48 44
21 47 42
21 47 43
21 46 42
21 47 43
21 45 41
21 47 43
21 47 42
21 46 42
22 48 43
21 47 43
22 48 44
21 47 43
21 47 43
21 47 43
22 48 44
22 49 44
21 47 43
21 47 43
21 47 43
22 48 44
21 47 42
22 47 43
21 46 42
21 46 42
22 48 43
20 44 40
20 45 42
21 46 42
20 44 41
20 45 41
20 46 42
20 45 41
20 45 41
20 44 41
20 45 41
21 46 42
20 45 41
20 45 41
20 45 42
21 46 42
21 46 42
20 44 41
21 46 42
21 45 42
20 45 41
20 45 41
20 45 41
21 46 42
20 44 41
20 45 41
21 46 42
21 46 42
21 46 43
21 46 42
20 44 41
20 45 41
21 46 42
20 45 41
21 46 42
21 46 42
20 45 41
20 45 41
20 44 40
20 44 40
20 45 41
21 46 42
20 45 41
20 45 41
21 46 42
21 46 42
21 46 42
21 45 42
21 46 42
20 45 41
20 45 41
21 46 42
20 44 41
20 45 41
21 46 42
21 47 43
20 45 41
20 45 41
21 47 43
21 47 43
21 47 43
20 45 41
22 48 44
21 47 43
21 46 42
21 45 41
21 46 42
21 47 43
22 48 44
21 46 42
21 46 42
21 47 43
21 46 42
21 46 42
21 47 43
21 46 42
21 47 43
21 46 42
21 46 42
21 47 43
22 48 44
21 47 43
21 46 42
21 47 43
21 47 42
21 46 42
20 45 41
21 46 42
21 46 42
21 46 42
20 45 41
21 46 42
20 45 41
21 47 42
21 46 42
21 47 43
21 46 42
21 47 43
21 47 43
21 46 42
21 47 42
21 47 43
21 46 42
22 48 44
22 48 44
21 47 43
20 45 41
21 46 42
21 47 43
21 47 43
21 47 43
21 47 43
22 47 43
21 46 42
21 46 42
21 47 43
21 47 43
21 47 43
21 46 42
22 48 44
22 48 43
20 44 41
20 44 41
21 46 42
21 47 44
21 46 42
20 45 41
20 45 41
20 45 42
21 47 43
20 45 41
21 46 42
20 44 40
21 46 42
20 44 40
21 46 42
21 46 42
20 45 41
21 45 42
21 46 42
20 44 40
20 45 42
21 46 42
21 47 43
20 45 41
20 45 41
21 46 42
20 45 41
20 45 41
21 46 42
21 46 42
20 44 41
21 47 43
21 46 42
20 45 41
21 46 42
20 45 41
21 46 42
21 46 42
20 45 41
20 45 41
20 45 41
21 45 42
21 46 42
20 45 41
20 45 42
21 46 42
21 46 42
21 46 42
21 47 43
21 47 43
21 47 43
21 47 43
20 45 41
20 45 41
20 45 41
21 46 42
20 45 41
20 45 41
21 45 42
21 46 42
22 48 44
21 46 42
21 47 43
21 46 42
21 47 43
21 47 43
21 47 43
21 46 42
20 45 41
21 45 41
21 47 43
21 46 42
21 46 42
21 46 42
21 47 43
21 46 42
21 47 43
21 46 42
21 47 43
21 46 42
21 47 42
22 48 43
21 47 43
21 47 43
21 47 43
22 48 43
21 47 43
21 47 43
21 46 42
20 45 41
22 48 44
22 48 44
21 47 43
21 46 42
21 47 43
21 47 43
21 47 43
21 46 42
21 46 42
21 47 43
21 46 42
21 46 42
22 48 43
21 46 42
22 48 43
21 47 42
21 46 42
22 48 43
22 47 43
21 47 43
21 47 42
21 47 43
21 47 43
22 48 44
21 45 41
21 46 42
21 47 43
22 49 44
21 46 42
22 48 43
20 44 41
20 44 40
20 45 41
21 46 42
21 46 42
20 45 41
20 45 41
20 44 41
21 46 42
20 45 41
20 45 41
20 44 40
20 45 41
20 45 41
20 45 42
20 44 40
21 47 43
20 45 41
21 46 42
21 46 42
20 44 40
21 47 43
21 46 42
21 46 42
21 46 43
20 45 42
20 45 42
21 45 42
20 44 41
21 46 42
20 44 41
20 45 41
20 44 41
21 46 42
21 46 42
21 46 42
21 45 42
20 45 41
20 45 42
20 45 41
20 44 40
21 45 41
21 46 42
21 46 42
20 44 40
21 47 43
20 45 41
20 45 41
20 45 41
21 46 42
20 45 41
21 45 42
21 46 42
21 45 41
21 46 42
21 46 42
20 45 41
21 46 42
21 46 42
21 46 42
21 46 42
20 45 41
20 45 41
21 45 41
21 46 42
21 46 42
21 46 42
21 46 42
21 46 42
21 47 43
21 46 42
21 46 42
21 47 43
21 46 42
21 46 42
21 47 43
21 46 42
21 46 42
21 46 42
21 45 41
21 46 42
21 46 42
20 45 41
21 46 42
21 45 42
21 46 42
21 45 41
21 46 42
21 47 43
21 46 42
21 46 42
21 46 42
22 48 43
21 46 42
22 48 44
22 48 44
22 48 44
21 46 42
20 45 41
21 47 43
21 46 42
21 47 43
21 47 43
22 48 44
21 47 43
21 47 43
21 47 42
21 47 43
21 47 43
21 47 43
22 48 44
21 46 42
21 47 42
21 47 43
22 49 44
21 47 43
21 46 42
21 47 42
22 48 43
21 47 43
