P3
600 400
255
79 113 92
79 113 92
79 113 92
79 113 92
79 113 92
79 113 92
79 113 92
79 113 92
79 113 92
79 113 92
79 113 92
79 113 92
79 113 92
79 113 92
79 113 92
79 113 92
79 113 92
79 113 92
79 113 92
79 113 92
79 113 92
79 113 92
79 113 92
79 113 92
79 113 92
79 113 92
79 113 92
79 113 92
79 113 92
79 113 93
79 113 93
79 113 93
79 113 93
79 113 93
79 113 93
78 112 92
79 113 93
79 113 93
79 113 93
79 113 93
79 113 93
79 113 93
79 113 93
79 113 93
79 113 93
79 113 93
79 113 93
79 113 93
79 113 93
79 113 93
79 113 93
79 113 93
79 113 93
79 113 93
79 113 93
79 113 93
79 113 93
79 113 93
79 113 93
79 113 93
79 113 93
79 113 92
79 113 93
79 113 93
79 113 93
79 113 93
79 113 93
79 113 93
79 113 93
79 113 93
79 113 93
79 113 93
79 113 93
79 113 93
79 113 93
79 113 93
79 113 93
79 113 93
79 113 93
79 113 93
79 113 93
79 113 93
79 113 93
79 113 93
79 113 93
79 113 93
79 113 93
79 113 93
79 113 92
79 113 93
79 113 92
79 113 92
79 113 93
79 113 93
79 113 93
79 113 93
79 113 93
79 113 93
79 113 93
79 113 92
79 113 92
79 113 93
79 113 93
79 113 93
79 113 93
79 113 93
79 113 93
79 113 93
79 113 93
79 113 93
79 113 93
79 113 93
79 113 92
79 113 93
79 113 93
79 113 92
79 113 93
79 113 93
79 113 93
79 113 93
79 113 92
79 113 93
79 113 93
79 113 93
79 113 93
79 113 93
79 113 93
79 113 92
79 113 93
79 113 92
79 113 93
79 113 93
79 113 93
79 113 92
79 113 93
79 113 93
79 113 92
79 113 93
79 113 93
79 113 93
79 113 93
79 113 93
79 113 93
79 113 93
79 113 93
79 113 93
79 113 93
79 113 93
79 113 93
79 113 93
79 113 93
79 113 93
79 113 93
80 113 93
79 113 93
79 113 93
79 113 93
79 113 92
79 113 93
79 113 93
79 113 93
79 113 93
79 113 93
79 113 92
79 113 93
79 113 93
79 113 93
79 113 93
79 113 93
79 113 93
79 113 93
79 113 93
79 113 93
79 113 93
79 113 93
79 113 93
79 113 93
79 113 93
79 113 93
79 113 93
79 113 93
79 113 93
79 113 93
79 113 93
79 113 93
79 113 93
79 113 92
79 113 93
79 113 93
79 113 93
79 113 93
79 113 93
79 113 93
79 113 93
79 113 93
79 113 92
79 113 93
79 113 93
79 113 93
79 113 93
79 113 93
79 113 93
79 113 93
79 113 93
79 113 93
79 113 93
79 113 93
79 113 93
79 113 93
79 113 93
79 113 93
79 113 93
79 113 93
79 113 93
79 113 93
79 113 93
79 113 92
79 113 93
79 113 93
79 113 93
79 113 92
79 113 93
79 113 92
79 113 92
79 113 92
79 113 92
79 113 92
79 113 92
79 113 92
79 113 92
79 113 92
79 113 92
79 113 92
79 113 92
79 113 92
79 113 92
79 113 92
79 113 92
79 113 92
79 113 92
79 113 92
79 113 92
79 113 92
79 112 92
79 113 92
79 113 92
79 113 92
79 113 92
78 112 92
79 113 92
79 113 92
79 113 92
79 113 92
79 113 92
79 113 92
79 113 92
79 113 92
79 113 92
79 113 92
79 113 92
79 112 92
79 113 92
79 113 92
79 112 92
79 113 92
79 113 92
79 112 92
79 113 92
79 113 92
79 113 92
79 113 92
79 113 92
79 113 92
79 113 92
79 113 92
79 113 92
79 113 92
79 113 92
79 113 92
79 113 92
79 113 92
79 113 92
79 113 92
79 113 92
78 112 92
79 112 92
79 113 92
79 113 92
79 113 92
79 113 92
79 113 92
79 112 92
79 113 92
79 112 92
78 112 92
79 112 92
79 113 92
79 113 92
79 112 92
79 113 92
79 112 92
79 113 92
79 113 92
79 113 92
78 112 92
79 113 92
79 112 92
79 112 92
79 113 92
79 113 92
79 113 92
78 112 92
79 113 92
79 112 92
79 113 92
79 112 92
79 113 92
78 112 92
78 112 92
78 112 92
79 112 92
79 113 92
79 113 92
79 112 92
79 113 92
79 112 92
79 113 92
78 112 92
79 113 92
79 112 92
79 112 92
79 112 92
79 112 92
78 112 92
79 112 92
79 112 92
79 112 92
79 113 92
79 113 92
78 112 92
79 112 92
79 112 92
79 112 92
79 112 92
79 112 92
79 113 92
79 112 92
78 112 92
78 112 92
79 112 92
78 112 92
78 112 92
78 112 92
78 112 92
78 112 92
79 112 92
78 112 92
79 112 92
78 112 92
79 112 92
78 112 92
78 112 92
78 112 92
78 112 92
78 112 92
78 112 92
78 112 92
78 112 92
78 112 92
78 112 92
79 112 92
78 112 92
78 112 92
78 112 92
79 112 92
78 112 92
78 112 92
78 112 92
78 112 92
78 112 92
78 112 92
78 112 92
79 112 92
78 112 92
78 112 92
79 112 92
78 112 92
78 112 92
78 112 92
78 112 92
79 112 92
78 112 92
79 112 92
78 112 92
79 112 92
78 112 92
78 112 92
78 112 92
78 112 92
78 112 92
78 112 92
78 112 92
78 112 92
78 112 92
78 112 92
78 112 92
78 112 92
79 112 92
78 112 92
78 112 92
78 112 92
79 112 92
78 112 92
78 112 92
78 112 92
78 112 92
78 112 92
78 112 92
78 112 92
78 112 92
78 112 92
78 112 92
78 112 92
78 112 92
78 112 92
78 112 92
78 112 92
78 112 92
78 112 92
78 112 92
78 112 92
78 112 92
78 112 92
78 112 92
78 112 92
78 112 92
78 112 92
78 112 92
78 112 92
78 111 92
78 112 92
78 112 92
78 112 92
78 112 92
78 112 92
78 112 92
78 112 92
78 111 92
78 111 91
78 112 92
78 112 92
78 112 92
78 111 91
78 111 92
78 112 92
78 111 92
78 112 92
78 111 92
78 112 92
78 112 92
78 112 92
78 111 92
78 112 92
78 111 92
78 112 92
78 111 92
77 111 92
78 112 92
78 112 92
78 112 92
78 111 92
78 111 92
78 111 92
78 112 92
78 112 92
78 111 92
78 111 92
78 111 92
78 111 92
78 111 92
78 112 91
78 111 92
78 111 92
78 111 91
78 111 92
78 111 92
77 111 91
78 111 92
78 111 92
78 111 91
78 111 91
78 111 91
78 111 91
78 111 91
77 111 91
78 111 91
77 111 91
77 111 91
78 111 91
77 111 91
78 111 91
78 111 91
78 111 91
78 111 91
77 111 91
78 111 91
78 111 91
77 111 91
78 111 91
77 111 91
78 111 91
77 111 91
77 111 91
78 111 91
78 111 91
78 111 91
78 111 91
77 111 91
78 111 91
78 111 91
77 111 91
78 111 91
77 111 91
78 111 91
77 111 91
78 111 91
77 111 91
77 111 91
77 111 91
78 111 91
77 111 91
78 111 91
78 111 91
77 111 91
77 111 91
77 111 91
77 111 91
77 111 91
77 111 91
77 111 91
77 111 91
77 111 91
77 111 91
77 111 91
77 111 91
77 111 91
77 111 91
77 111 91
77 111 91
77 111 91
77 111 91
77 111 91
77 111 91
77 111 91
77 111 91
78 111 91
77 111 91
78 111 91
77 111 91
77 111 91
77 111 91
77 111 91
77 111 91
77 111 91
77 111 91
77 111 91
77 111 91
77 111 91
77 111 91
77 111 91
77 111 91
77 110 91
77 111 91
77 111 91
77 111 91
77 111 91
77 110 91
77 111 91
77 111 91
77 111 91
77 111 91
77 111 91
77 110 91
77 110 91
77 111 91
77 110 91
77 111 91
77 110 91
77 111 91
77 110 91
77 111 91
77 111 91
77 111 91
77 110 91
77 110 91
77 111 91
77 110 91
77 110 91
77 110 91
77 110 91
79 113 93
79 113 92
79 113 93
79 113 93
79 113 93
79 113 92
79 113 93
79 113 93
79 113 93
79 113 93
79 113 93
79 113 92
79 113 93
79 113 93
79 113 93
79 113 93
79 113 93
79 113 93
79 113 93
79 113 93
79 113 93
79 113 93
79 113 93
79 113 93
79 113 93
79 113 93
79 113 93
79 113 93
79 113 93
79 113 93
79 113 93
79 113 93
79 113 93
80 113 93
79 113 93
79 113 93
80 113 93
79 113 93
79 113 93
79 113 93
79 113 93
79 113 93
79 113 93
79 113 93
79 113 93
79 113 93
79 113 93
79 113 93
79 113 93
79 113 92
79 113 93
79 113 93
79 113 93
79 113 93
79 113 93
79 113 93
79 113 93
79 113 93
79 113 92
79 113 93
79 113 93
79 113 93
79 113 93
79 113 93
79 113 92
79 113 93
79 113 93
79 113 93
79 113 93
79 113 93
79 113 93
79 113 93
79 113 93
79 113 93
79 113 93
79 113 93
79 113 92
79 113 92
79 113 93
79 113 93
79 113 92
79 113 93
79 113 93
79 113 93
79 113 93
79 113 93
79 113 93
79 113 93
79 113 93
79 113 93
79 113 93
79 113 93
79 113 93
79 113 93
79 113 93
79 113 93
79 113 93
79 113 93
79 113 93
79 113 93
79 113 93
79 113 93
79 113 93
79 113 93
79 113 93
79 113 93
79 113 93
79 113 93
79 113 93
79 113 93
79 113 93
79 113 93
79 113 92
79 113 93
79 113 93
79 113 93
79 113 93
79 113 93
79 113 93
79 113 93
79 113 93
79 113 93
79 113 93
79 113 93
79 113 93
79 113 93
79 113 93
79 113 93
80 113 93
79 113 93
79 113 93
79 113 93
79 113 93
79 113 93
79 113 92
79 113 93
79 113 93
79 113 93
79 113 93
79 113 93
79 113 93
79 113 93
79 113 93
79 113 93
79 113 93
79 113 92
79 113 92
79 113 93
79 113 93
79 113 93
79 113 93
79 113 93
79 113 93
79 113 93
79 113 93
79 113 93
79 113 93
79 113 93
79 113 92
79 113 93
79 113 93
79 113 93
79 113 93
79 113 92
79 113 92
79 113 93
79 113 93
79 113 93
79 113 93
79 113 93
79 113 93
79 113 93
79 113 93
79 113 93
79 113 93
79 113 93
79 113 92
79 113 92
79 113 93
79 113 93
79 113 93
79 113 93
79 113 93
79 113 93
79 113 93
79 113 93
79 113 93
79 113 93
79 113 93
79 113 93
79 113 93
79 113 93
79 113 93
79 113 93
79 113 93
79 113 93
79 113 93
79 113 93
79 113 92
79 113 93
79 113 93
79 113 93
79 113 93
79 113 93
79 113 93
79 113 93
79 113 93
79 113 93
79 113 93
79 113 93
79 113 93
79 113 93
79 113 92
79 113 93
79 113 93
79 113 93
79 113 93
79 113 93
79 113 93
79 113 92
79 113 93
79 113 93
79 113 93
79 113 93
79 113 93
79 113 93
79 113 92
79 113 93
79 113 93
79 113 92
79 113 92
79 113 93
79 113 93
79 113 93
79 113 93
79 113 93
79 113 93
79 113 93
79 113 93
79 113 93
79 113 93
79 112 92
79 113 93
79 113 93
79 113 93
79 113 93
79 113 92
79 113 92
79 113 93
79 113 92
79 113 92
79 113 92
78 112 92
79 113 92
79 113 92
79 113 92
79 113 92
79 113 92
79 113 92
79 113 92
79 113 92
79 113 92
79 113 92
79 113 92
79 113 92
79 113 92
79 113 92
79 113 92
79 112 92
79 113 92
79 113 92
79 112 92
79 113 92
79 113 92
79 113 92
79 113 92
79 112 92
79 113 92
79 112 92
79 113 92
79 112 92
79 113 92
79 113 92
79 113 92
78 112 92
79 113 92
79 113 92
79 113 92
79 113 92
79 113 92
79 113 92
79 113 92
79 112 92
78 112 92
79 113 92
79 113 92
79 112 92
79 113 92
79 113 92
79 113 92
79 113 92
79 113 92
79 113 92
79 113 92
79 112 92
79 113 92
79 113 92
79 113 92
79 113 92
79 112 92
79 113 92
79 113 92
79 113 92
79 112 92
79 113 92
79 112 92
78 112 92
79 112 92
79 112 92
79 113 92
79 112 92
79 112 92
79 112 92
79 112 92
79 113 92
79 113 92
79 112 92
79 112 92
79 112 92
79 113 92
79 112 92
79 113 92
79 112 92
79 112 92
79 112 92
78 112 92
79 112 92
78 112 92
79 112 92
78 112 92
78 112 92
78 112 92
79 113 92
79 112 92
79 112 92
79 112 92
78 112 92
79 112 92
78 112 92
78 112 92
79 112 92
79 112 92
78 112 92
78 112 92
78 112 92
78 112 92
78 112 92
78 112 92
78 112 92
79 112 92
79 112 92
78 112 92
79 112 92
78 112 92
79 112 92
79 112 92
79 112 92
79 112 92
79 112 92
78 112 92
79 112 92
78 112 92
78 112 92
79 112 92
79 112 92
78 112 92
79 112 92
79 112 92
78 112 92
78 112 92
78 112 92
79 112 92
78 112 92
78 112 92
78 112 92
78 112 92
79 112 92
79 112 92
78 112 92
78 112 92
78 112 92
78 112 92
78 112 92
78 112 92
78 112 92
78 112 92
78 112 92
78 112 92
78 112 92
78 112 92
78 112 92
78 112 92
78 112 92
78 112 92
79 112 92
78 112 92
78 112 92
78 112 92
78 112 92
78 112 92
78 112 92
78 112 92
78 112 92
78 112 92
78 112 92
78 112 92
78 112 92
78 112 92
78 112 92
78 112 92
78 112 92
78 112 92
78 112 92
78 112 92
78 112 92
78 112 92
78 112 92
78 112 92
78 112 92
78 112 92
78 112 92
78 112 92
78 112 92
78 112 92
78 112 92
78 112 92
78 112 92
78 112 92
78 112 92
78 112 92
78 112 92
78 112 92
78 112 92
78 111 92
78 112 92
78 112 92
78 112 92
78 112 92
78 112 92
78 112 92
78 112 92
78 112 92
78 112 92
78 112 92
78 112 92
78 112 92
78 112 92
78 112 92
78 112 92
78 112 92
78 112 92
78 112 92
78 112 92
78 112 92
78 111 91
78 111 92
78 112 92
78 112 92
78 112 92
78 112 92
78 112 92
78 112 92
78 111 92
78 111 92
78 112 92
78 112 92
77 111 92
78 112 92
78 112 92
78 112 92
78 112 92
78 112 92
78 111 92
77 111 92
78 111 92
78 111 92
78 111 92
77 111 92
78 111 92
78 111 92
78 111 92
78 111 92
78 111 92
78 112 92
78 111 92
78 111 92
78 111 92
78 111 92
78 111 92
77 111 91
78 111 91
77 111 91
78 111 91
78 112 91
78 111 91
78 111 91
77 111 91
78 111 91
77 111 91
78 111 91
77 111 91
78 111 91
78 111 91
77 111 91
77 111 91
77 111 91
77 111 91
78 111 91
78 111 91
78 111 91
78 111 91
78 111 91
77 111 91
77 111 91
78 111 91
78 111 91
77 111 91
77 111 91
77 111 91
78 111 91
77 111 91
77 111 91
78 111 91
77 111 91
77 111 91
77 111 91
77 111 91
77 111 91
77 111 91
78 111 91
78 111 91
77 111 91
77 111 91
78 111 91
78 111 91
78 111 91
77 111 91
77 111 91
77 111 91
77 111 91
77 111 91
77 111 91
77 111 91
77 111 91
77 111 91
77 111 91
77 111 91
77 111 91
78 111 91
77 111 91
77 111 91
77 111 91
78 111 91
77 111 91
77 111 91
77 111 91
77 111 91
77 111 91
77 111 91
77 111 91
77 111 91
77 111 91
77 111 91
77 111 91
77 111 91
77 111 91
77 111 91
77 111 91
77 111 91
77 110 91
77 111 91
77 111 91
77 111 91
77 111 91
77 111 91
77 111 91
77 111 91
77 111 91
77 111 91
77 111 91
77 110 91
77 111 91
77 110 91
77 111 91
77 111 91
77 110 91
77 110 91
77 111 91
77 110 91
77 111 91
79 113 93
79 113 92
79 113 93
79 113 93
79 113 93
79 113 93
79 113 93
79 113 92
79 113 93
79 113 93
79 113 93
79 113 93
79 113 93
79 113 93
79 113 93
79 113 93
79 113 93
79 113 93
79 113 93
79 113 93
79 113 93
79 113 92
79 113 92
79 113 93
79 113 93
79 113 92
79 113 93
79 113 93
79 113 93
79 113 93
79 113 93
79 113 93
79 113 93
79 113 93
79 113 93
79 113 93
79 113 93
79 113 92
79 113 93
79 113 93
79 113 93
79 113 93
79 113 93
79 113 93
79 113 93
79 113 93
79 113 93
79 113 93
79 113 93
79 113 93
79 113 93
79 113 93
79 113 93
79 113 93
79 113 93
79 113 93
79 113 93
79 113 93
79 113 93
79 113 93
79 113 93
79 113 93
79 113 93
79 113 93
79 113 93
79 113 93
79 113 93
79 113 93
79 113 93
79 113 93
79 113 93
79 113 93
79 113 93
79 113 93
79 113 93
79 113 93
79 113 93
79 113 93
79 113 93
79 113 93
79 113 93
79 113 93
79 113 93
79 113 93
79 113 93
79 113 93
79 113 93
79 113 93
79 113 93
79 113 93
79 113 93
79 113 93
79 113 93
79 113 93
79 113 93
79 113 93
79 113 93
79 113 93
79 113 93
79 113 93
79 113 93
79 113 93
79 113 93
79 113 93
79 113 93
79 113 93
79 113 93
79 113 93
79 113 93
79 113 93
79 113 93
79 113 93
79 113 93
79 113 93
79 113 93
79 113 93
79 113 93
79 113 93
79 113 93
79 113 93
79 113 93
79 113 93
79 113 93
79 113 93
79 113 93
79 113 93
79 113 93
79 113 93
79 113 93
79 113 93
79 113 93
79 113 92
79 113 93
79 113 93
79 113 93
79 113 93
79 113 93
79 113 93
79 113 93
79 113 93
79 113 93
79 113 93
79 113 93
79 113 93
79 113 93
79 113 93
79 113 93
79 113 93
79 113 93
79 113 93
79 113 93
79 113 93
79 113 93
80 113 93
79 113 93
79 113 93
79 113 93
79 113 93
79 113 93
79 113 93
79 113 93
79 113 93
79 113 93
79 113 93
79 113 93
79 113 93
80 113 93
79 113 93
79 113 93
79 113 93
79 113 93
79 113 93
79 113 93
79 113 93
79 113 93
79 113 93
80 113 93
79 113 93
79 113 93
79 113 93
79 113 93
79 113 93
79 113 93
79 113 93
79 113 93
79 113 93
79 113 93
79 113 93
79 113 93
79 113 92
79 113 93
79 113 93
79 113 93
79 113 93
79 113 93
79 113 93
79 113 93
79 113 93
79 113 92
79 113 93
79 113 93
79 113 93
79 113 93
79 113 93
79 113 93
79 113 93
79 113 93
79 113 93
79 113 93
79 113 93
79 113 93
79 113 93
79 113 93
79 113 93
79 113 93
79 113 92
79 113 93
79 113 93
79 113 93
79 113 93
79 113 93
79 113 92
79 113 93
79 113 93
79 113 93
79 113 93
79 113 92
79 113 92
79 113 93
79 113 93
79 113 93
79 113 93
79 113 92
79 113 93
79 113 93
79 113 93
79 113 92
79 113 93
79 113 93
79 113 93
79 113 93
79 113 93
79 113 93
79 113 93
79 113 92
80 113 93
79 113 92
79 113 93
79 113 93
79 113 93
79 113 93
79 113 93
79 113 93
79 113 92
79 113 93
79 113 93
79 113 92
79 113 92
79 113 93
79 113 93
79 113 93
79 113 93
79 113 93
79 113 93
79 113 93
79 113 93
79 113 93
79 113 93
79 113 93
79 113 93
79 113 93
79 113 92
79 113 92
79 113 92
79 113 92
79 113 92
79 113 92
79 113 92
79 113 92
79 113 92
79 113 92
79 113 92
79 113 92
79 113 92
79 113 92
79 113 92
79 113 92
79 113 92
79 113 92
79 113 92
79 113 92
79 113 92
79 113 92
79 113 92
79 113 92
79 113 92
79 113 92
79 113 92
79 113 92
79 113 92
79 113 92
79 113 92
79 113 92
79 113 92
79 113 92
79 113 92
79 112 92
79 113 92
79 112 92
79 113 92
79 113 92
79 113 92
79 113 92
79 112 92
79 113 92
79 113 92
79 112 92
79 113 92
79 113 92
79 113 92
79 112 92
79 112 92
79 112 92
79 113 92
79 113 92
79 112 92
79 113 92
79 113 92
79 112 92
79 112 92
78 112 92
79 112 92
79 113 92
79 112 92
79 113 92
79 112 92
79 113 92
78 112 92
79 113 92
79 112 92
79 112 92
79 113 92
79 112 92
79 112 92
78 112 92
79 113 92
79 112 92
78 112 92
78 112 92
78 112 92
78 112 92
78 112 92
79 113 92
79 112 92
79 112 92
79 112 92
78 112 92
79 113 92
79 112 92
79 112 92
78 112 92
79 112 92
79 113 92
79 112 92
79 112 92
79 112 92
78 112 92
78 112 92
79 112 92
79 112 92
79 112 92
79 112 92
79 112 92
79 112 92
78 112 92
79 112 92
79 112 92
78 112 92
79 112 92
79 112 92
79 112 92
78 112 92
78 112 92
79 112 92
79 112 92
79 112 92
79 112 92
79 112 92
78 112 92
78 112 92
78 112 92
79 112 92
78 112 92
78 112 92
78 112 92
79 112 92
78 112 92
78 112 92
78 112 92
78 112 92
78 112 92
78 112 92
78 112 92
78 112 92
78 112 92
78 112 92
78 112 92
79 112 92
78 112 92
78 112 92
78 112 92
78 112 92
78 112 92
78 112 92
78 112 92
78 112 92
78 112 92
78 112 92
78 112 92
78 112 92
78 112 92
78 112 92
78 112 92
78 112 92
79 112 92
78 112 92
78 112 92
78 112 92
78 112 92
78 112 92
78 112 92
78 112 92
78 112 92
78 112 92
78 112 92
78 112 92
78 112 92
78 112 92
78 112 92
78 112 92
78 112 92
78 112 92
78 112 92
78 112 92
78 112 92
78 112 92
78 112 92
78 112 92
78 112 92
78 112 92
78 112 92
78 112 92
78 112 92
78 112 92
78 112 92
78 112 92
78 112 92
78 112 92
78 112 92
78 112 92
78 112 92
78 112 92
78 112 92
78 112 92
78 112 92
78 112 92
78 111 92
78 112 92
78 112 92
78 112 92
78 112 92
78 112 92
78 111 92
78 112 92
78 112 92
78 112 92
78 111 92
78 111 92
78 112 92
78 111 92
78 111 92
78 112 92
78 111 92
78 112 92
78 111 92
78 111 92
78 112 92
78 111 92
78 111 92
78 111 92
78 112 92
78 111 91
77 111 92
78 111 92
78 111 92
78 112 92
78 112 92
78 111 92
78 111 92
78 111 92
78 111 92
78 111 92
78 111 92
77 111 92
78 111 92
78 111 92
78 111 92
78 111 91
78 112 91
78 111 91
78 111 91
78 112 91
77 111 91
78 111 91
78 111 91
78 111 91
77 111 91
78 111 91
78 111 91
77 111 91
78 111 91
78 111 91
78 111 91
78 111 91
77 111 91
78 111 91
78 111 91
78 111 91
77 111 91
78 111 91
77 111 91
78 111 91
78 111 91
77 111 91
78 111 91
77 111 91
78 111 91
78 111 91
77 111 91
78 111 91
78 111 91
77 111 91
78 111 91
78 111 91
77 111 91
78 111 91
77 111 91
78 111 91
77 111 91
78 111 91
77 111 91
77 111 91
77 111 91
77 111 91
77 111 91
77 111 91
77 111 91
78 111 91
77 111 91
77 111 91
77 111 91
77 111 91
78 111 91
77 111 91
77 111 91
77 111 91
77 111 91
77 111 91
78 111 91
77 111 91
77 111 91
77 111 91
77 111 91
77 111 91
77 111 91
77 110 91
77 111 91
77 111 91
77 111 91
77 111 91
77 111 91
77 111 91
77 111 91
77 111 91
77 111 91
77 111 91
77 111 91
77 111 91
77 111 91
77 111 91
77 110 91
77 110 91
77 111 91
77 111 91
77 110 91
77 111 91
77 111 91
77 110 91
77 111 91
77 111 91
79 113 93
79 113 92
79 113 93
79 113 92
79 113 92
79 113 93
79 113 93
79 113 93
79 113 93
79 113 93
79 113 93
79 113 93
79 113 93
79 113 93
79 113 92
79 113 93
79 113 93
79 113 93
79 113 93
79 113 93
79 113 93
79 113 93
79 113 93
79 113 93
79 113 93
79 113 93
79 113 93
79 113 93
79 113 93
79 113 93
79 113 93
79 113 93
79 113 93
79 113 93
79 113 93
79 113 93
79 113 93
79 113 93
79 113 93
79 113 93
79 113 93
79 113 93
79 113 93
80 113 93
79 113 93
79 113 93
79 113 93
80 113 93
79 113 93
79 113 93
79 113 93
79 113 93
79 113 93
79 113 93
79 113 93
79 113 93
79 113 93
79 113 93
79 113 93
79 113 93
79 113 93
79 113 93
79 113 93
79 113 93
79 113 93
79 113 93
79 113 93
79 113 93
79 113 93
79 113 93
79 113 93
79 113 93
79 113 93
79 113 93
79 113 93
80 114 93
79 113 93
79 113 93
79 113 93
79 113 93
79 113 93
79 113 93
80 113 93
79 113 93
79 113 93
79 113 93
80 113 93
79 113 93
79 113 93
79 113 93
79 113 93
79 113 93
79 113 93
79 113 93
79 113 93
79 113 93
79 113 93
79 113 93
79 113 93
79 113 93
79 113 93
79 113 93
79 113 93
79 113 93
79 113 93
79 113 93
79 113 93
79 113 93
79 113 93
79 113 93
79 113 93
79 113 93
79 113 93
79 113 93
79 113 93
79 113 93
80 113 93
79 113 93
79 113 93
80 113 93
79 113 93
79 113 93
79 113 93
79 113 93
79 113 93
79 113 93
79 113 93
79 113 93
79 113 93
79 113 93
79 113 93
79 113 93
79 113 93
79 113 93
79 113 93
79 113 93
79 113 93
79 113 93
79 113 93
79 113 93
79 113 93
79 113 93
79 113 93
79 113 93
79 113 93
79 113 93
79 113 93
79 113 93
80 113 93
79 113 93
80 114 93
79 113 93
79 113 93
79 113 93
79 113 93
79 113 93
80 113 93
79 113 93
79 113 93
79 113 93
79 113 93
79 113 93
79 113 93
79 113 93
79 113 92
79 113 93
79 113 93
79 113 93
79 113 93
79 113 93
80 113 93
79 113 93
79 113 93
80 113 93
79 113 93
79 113 93
79 113 93
79 113 93
79 113 92
79 113 93
80 113 93
79 113 93
79 113 93
79 113 93
79 113 93
79 113 93
79 113 93
79 113 93
79 113 93
79 113 93
79 113 93
79 113 93
79 113 93
79 113 93
79 113 93
79 113 93
79 113 93
79 113 93
79 113 93
79 113 93
79 113 93
79 113 93
79 113 93
79 113 93
79 113 93
79 113 93
79 113 93
79 113 93
79 113 93
79 113 93
79 113 93
79 113 93
79 113 93
79 113 93
79 113 93
80 113 93
79 113 93
79 113 93
79 113 93
79 113 93
79 113 93
79 113 93
79 113 93
79 113 92
79 113 93
79 113 93
79 113 93
79 113 93
79 113 93
79 113 93
79 113 93
79 113 93
79 113 93
79 113 93
79 113 92
79 113 93
79 113 93
79 113 93
79 113 93
79 113 93
79 113 93
79 113 93
79 113 93
79 113 92
79 113 93
79 113 93
79 113 93
79 113 93
79 113 93
79 113 93
79 113 93
79 113 93
79 113 93
79 113 93
79 113 93
79 113 93
79 113 93
79 113 93
79 113 93
79 113 93
79 113 92
79 113 93
79 113 93
79 113 93
79 113 93
79 113 93
79 113 92
79 113 93
79 113 93
79 113 93
79 113 93
79 113 93
79 113 93
79 113 93
79 113 93
79 113 92
79 113 93
79 112 92
79 113 93
79 113 93
79 113 93
79 113 93
79 113 93
79 113 93
79 113 93
79 113 93
79 113 93
79 113 92
79 113 93
79 113 93
79 113 93
79 113 92
79 113 92
79 113 92
79 113 92
79 113 92
79 113 92
79 113 92
79 113 92
79 113 92
79 113 92
79 113 92
79 113 92
79 113 92
79 113 92
79 113 92
79 113 92
79 113 92
79 113 92
79 113 92
79 113 92
79 113 92
79 113 92
79 113 92
79 113 92
79 113 92
79 113 92
79 113 92
79 113 92
79 113 92
79 113 92
79 113 92
79 113 92
79 113 92
79 113 92
79 113 92
79 113 92
79 113 92
79 113 92
79 113 92
79 113 92
79 113 92
79 113 92
79 113 92
79 113 92
79 113 92
78 112 92
78 112 92
79 113 92
79 113 92
79 113 92
79 113 92
78 112 92
79 112 92
79 112 92
78 112 92
79 112 92
79 113 92
79 113 92
79 113 92
79 113 92
78 112 92
79 113 92
79 112 92
79 112 92
79 113 92
79 112 92
79 112 92
78 112 92
78 112 92
78 112 92
79 113 92
78 112 92
79 113 92
78 112 92
79 113 92
79 112 92
79 112 92
78 112 92
79 112 92
79 112 92
78 112 92
79 112 92
78 112 92
78 112 92
79 112 92
78 112 92
78 112 92
79 113 92
78 112 92
78 112 92
78 112 92
79 112 92
79 112 92
79 112 92
78 112 92
78 112 92
79 112 92
79 112 92
78 112 92
79 112 92
78 112 92
79 112 92
79 112 92
78 112 92
78 112 92
79 112 92
78 112 92
78 112 92
78 112 92
78 112 92
79 112 92
78 112 92
78 112 92
78 112 92
78 112 92
78 112 92
78 112 92
78 112 92
78 112 92
78 112 92
78 112 92
78 112 92
78 112 92
78 112 92
78 112 92
78 112 92
78 112 92
78 112 92
78 112 92
78 112 92
78 112 92
78 112 92
78 112 92
78 112 92
78 112 92
78 112 92
78 112 92
79 112 92
78 112 92
78 112 92
78 112 92
78 112 92
78 112 92
78 112 92
78 112 92
78 112 92
78 112 92
78 112 92
78 112 92
78 112 92
78 112 92
78 112 92
78 112 92
78 112 92
78 112 92
78 112 92
78 112 92
78 112 92
78 112 92
78 112 92
78 112 92
78 111 92
78 112 92
78 112 92
78 112 92
78 112 91
78 112 92
78 112 92
78 112 92
78 111 92
78 112 92
78 112 92
78 112 92
78 112 92
78 112 92
78 111 92
78 112 92
78 112 92
78 112 92
78 112 92
78 111 92
78 112 92
78 112 92
78 112 92
78 112 92
77 111 92
78 112 92
78 111 92
78 111 92
78 112 92
78 112 92
78 112 92
78 112 92
78 112 92
78 112 92
78 112 92
78 111 92
78 112 92
78 111 92
78 112 92
78 112 92
78 112 92
78 111 91
78 111 92
78 112 92
78 112 92
78 111 92
78 112 92
78 112 92
78 111 92
78 111 92
78 111 92
78 111 91
78 111 92
78 111 92
78 111 92
78 111 92
78 111 92
78 111 92
78 111 92
78 111 92
78 111 92
78 111 92
78 111 91
78 111 92
78 111 91
78 112 91
78 111 91
78 111 91
78 111 91
78 111 91
78 111 91
78 112 91
78 111 91
78 111 91
78 111 91
77 111 91
78 111 91
77 111 91
77 111 91
77 111 91
77 111 91
77 111 91
78 111 91
77 111 91
78 111 91
78 111 91
78 111 91
78 111 91
78 111 91
78 111 91
78 111 91
77 111 91
77 111 91
78 111 91
77 111 91
78 111 91
77 111 91
77 111 91
77 111 91
77 111 91
78 111 91
77 111 91
77 111 91
77 111 91
77 111 91
77 111 91
77 111 91
78 111 91
77 111 91
77 111 91
78 111 91
77 111 91
77 111 91
77 111 91
77 111 91
77 111 91
77 111 91
77 111 91
77 111 91
77 111 91
77 111 91
77 111 91
77 111 91
77 111 91
77 111 91
77 111 91
77 111 91
77 111 91
77 111 91
77 111 91
77 111 91
78 111 91
77 111 91
77 111 91
77 111 91
77 111 91
77 111 91
77 111 91
77 111 91
77 111 91
77 111 91
77 111 91
77 111 91
78 111 91
77 111 91
77 111 91
77 111 91
77 111 91
79 113 93
79 113 93
79 113 93
79 113 93
79 113 93
79 113 93
79 113 93
79 113 93
79 113 93
79 113 93
79 113 93
79 113 93
79 113 93
79 113 93
79 113 93
79 113 93
79 113 93
79 113 93
79 113 93
79 113 93
79 113 93
79 113 93
79 113 93
79 113 93
79 113 93
79 113 93
79 113 93
79 113 93
79 113 93
79 113 93
79 113 93
79 113 93
79 113 93
79 113 93
79 113 93
79 113 93
79 113 93
79 113 93
79 113 93
79 113 93
79 113 93
79 113 93
79 113 93
79 113 93
79 113 93
79 113 93
79 113 93
79 113 93
80 113 93
79 113 93
79 113 93
80 113 93
80 113 93
79 113 93
79 113 93
80 113 93
79 113 93
79 113 93
79 113 93
79 113 93
79 113 93
79 113 93
79 113 93
79 113 93
79 113 93
79 113 93
79 113 93
79 113 93
79 113 93
79 113 93
79 113 93
79 113 93
79 113 93
79 113 93
79 113 93
79 113 93
79 113 93
79 113 93
79 113 93
79 113 93
79 113 93
79 113 93
79 113 93
79 113 93
79 113 93
80 113 93
79 113 93
79 113 93
79 113 93
79 113 93
79 113 93
79 113 93
79 113 93
80 114 93
79 113 93
79 113 93
79 113 93
79 113 93
79 113 93
79 113 93
79 113 93
79 113 93
79 113 93
79 113 93
79 113 93
79 113 93
79 113 93
79 113 93
79 113 93
79 113 93
79 113 93
79 113 93
80 114 93
79 113 93
80 113 93
80 113 93
79 113 93
79 113 93
79 113 93
79 113 93
79 113 93
79 113 93
79 113 93
79 113 93
79 113 93
79 113 93
79 113 93
79 113 93
79 113 93
79 113 93
79 113 93
79 113 93
79 113 93
79 113 93
79 113 93
79 113 93
80 114 93
79 113 93
79 113 93
79 113 93
79 113 93
79 113 93
79 113 93
79 113 93
79 113 93
79 113 93
79 113 93
79 113 93
79 113 93
79 113 93
80 113 93
79 113 93
79 113 93
79 113 93
80 114 93
79 113 93
79 113 93
79 113 93
79 113 93
79 113 93
79 113 93
79 113 93
79 113 93
79 113 93
79 113 93
79 113 93
79 113 92
79 113 93
79 113 93
79 113 93
79 113 93
79 113 93
79 113 93
79 113 93
79 113 93
79 113 93
80 113 93
79 113 93
79 113 93
79 113 93
80 113 93
79 113 93
79 113 93
79 113 93
79 113 93
79 113 93
79 113 93
79 113 93
79 113 93
79 113 93
79 113 93
79 113 93
79 113 93
79 113 93
79 113 93
79 113 93
79 113 93
79 113 93
79 113 93
79 113 93
79 113 93
79 113 93
79 113 93
79 113 93
79 113 93
79 113 93
79 113 93
80 113 93
79 113 93
79 113 93
79 113 93
79 113 93
79 113 93
79 113 93
79 113 93
79 113 93
79 113 93
79 113 93
79 113 93
80 113 93
79 113 93
79 113 93
79 113 93
79 113 93
79 113 93
79 113 93
79 113 93
79 113 93
79 113 93
79 113 93
79 113 93
79 113 93
79 113 93
79 113 93
79 113 93
79 113 93
79 113 93
79 113 93
79 113 93
79 113 93
79 113 93
79 113 93
79 113 93
79 113 93
80 113 93
79 113 93
79 113 93
79 113 93
79 113 93
79 113 93
79 113 93
79 113 93
79 113 93
79 113 93
79 113 93
79 113 93
79 113 93
79 113 93
79 113 93
79 113 93
79 113 93
79 113 93
79 113 93
79 113 93
79 113 93
79 113 93
79 113 93
79 113 93
79 113 93
79 113 93
80 113 93
79 113 93
79 113 93
79 113 93
79 113 93
79 113 93
79 113 93
79 113 93
79 113 93
79 113 93
79 113 93
79 113 93
79 113 93
79 113 92
79 113 93
79 113 93
78 112 93
79 113 93
79 113 93
79 113 93
79 113 93
79 113 93
79 113 93
79 113 93
79 113 93
79 113 93
79 113 93
79 113 93
79 113 93
79 113 92
79 113 93
79 113 93
79 113 93
79 113 93
79 113 93
79 113 93
79 113 93
79 113 92
79 113 92
79 113 92
79 113 92
79 113 92
79 113 92
79 113 92
79 113 92
79 113 92
79 113 92
79 113 92
79 113 92
79 113 92
79 113 92
79 113 92
79 113 92
79 113 92
79 113 92
79 113 92
79 113 92
79 113 92
79 113 92
79 113 92
79 113 92
79 113 92
79 113 92
79 113 92
79 113 92
78 112 92
79 113 92
79 113 92
79 113 92
79 113 92
79 113 92
79 113 92
79 112 92
79 113 92
79 113 92
79 113 92
78 112 92
79 113 92
79 113 92
79 112 92
79 113 92
79 113 92
79 112 92
79 113 92
79 112 92
79 113 92
79 112 92
79 112 92
78 112 92
79 112 92
79 113 92
79 112 92
79 113 92
79 113 92
79 113 92
78 112 92
79 113 92
78 112 92
79 112 92
78 112 92
79 113 92
79 113 92
79 112 92
79 112 92
79 112 92
78 112 92
79 112 92
79 112 92
79 112 92
78 112 92
78 112 92
79 112 92
78 112 92
79 113 92
79 112 92
79 112 92
79 112 92
79 112 92
79 112 92
79 113 92
78 112 92
79 112 92
78 112 92
79 112 92
79 112 92
79 112 92
79 112 92
79 112 92
79 112 92
78 112 92
79 113 92
79 112 92
78 112 92
79 112 92
79 112 92
78 112 92
78 112 92
78 112 92
78 112 92
78 112 92
78 112 92
78 112 92
78 112 92
78 112 92
78 112 92
78 112 92
78 112 92
78 112 92
78 112 92
78 112 92
78 112 92
79 112 92
78 112 92
78 112 92
78 112 92
79 112 92
78 112 92
78 112 92
78 112 92
78 112 92
79 112 92
78 112 92
78 112 92
79 112 92
78 112 92
78 112 92
78 112 92
78 112 92
78 112 92
78 112 92
79 112 92
78 112 92
78 112 92
78 112 92
78 112 92
78 112 92
78 112 92
78 112 92
78 112 92
78 112 92
78 112 92
78 112 92
78 112 92
78 112 92
78 112 92
78 112 92
78 112 92
78 112 92
78 112 92
79 112 92
78 112 92
78 112 92
78 112 92
78 111 92
78 111 92
78 112 92
78 112 92
78 112 92
78 112 92
78 112 92
78 112 92
78 112 92
78 112 92
78 112 92
78 112 92
78 112 92
78 112 92
78 112 92
78 112 92
78 112 92
78 111 92
78 112 92
78 112 92
78 112 92
78 112 92
78 112 92
78 111 92
78 112 92
78 112 92
78 112 92
78 112 92
78 111 92
78 112 92
78 112 92
78 112 92
77 111 92
78 112 92
78 112 92
78 111 91
78 111 92
78 112 92
78 111 92
78 112 92
78 111 92
78 111 92
78 112 92
78 111 92
78 111 92
78 111 92
78 111 92
78 111 92
78 111 92
78 111 92
78 112 92
78 111 91
78 112 92
78 111 92
78 111 92
78 111 92
78 112 92
78 111 92
78 111 92
78 111 92
78 111 92
77 111 92
78 111 91
78 111 91
78 111 91
78 111 91
77 111 91
78 111 91
78 111 91
77 111 91
78 111 91
78 111 91
78 111 91
78 111 91
77 111 91
78 111 91
78 111 91
78 111 91
78 111 91
78 111 91
78 111 91
77 111 91
77 111 91
77 111 91
78 111 91
78 111 91
77 111 91
77 111 91
78 111 91
77 111 91
78 111 91
77 111 91
77 111 91
77 111 91
77 111 91
78 111 91
78 111 91
78 111 91
78 111 91
77 111 91
78 111 91
78 111 91
77 111 91
77 111 91
77 111 91
77 111 91
78 111 91
77 111 91
78 111 91
77 111 91
78 111 91
78 111 91
77 111 91
77 111 91
77 111 91
77 111 91
78 111 91
77 111 91
78 111 91
78 111 91
77 111 91
77 111 91
77 111 91
77 111 91
77 111 91
77 111 91
77 111 91
77 111 91
77 111 91
77 111 91
77 111 91
77 110 91
77 111 91
77 111 91
77 111 91
77 111 91
77 111 91
79 113 93
79 113 92
79 113 93
79 113 93
79 113 93
79 113 93
79 113 93
79 113 93
79 113 93
79 113 93
79 113 93
79 113 93
80 113 93
79 113 93
79 113 93
79 113 93
79 113 93
79 113 93
79 113 93
79 113 93
79 113 93
79 113 93
79 113 93
79 113 93
79 113 93
79 113 93
79 113 93
79 113 93
79 113 93
79 113 93
79 113 93
79 113 93
79 113 93
80 114 93
79 113 93
79 113 93
79 113 93
79 113 93
79 113 93
80 113 93
79 113 93
80 114 93
80 113 93
79 113 93
79 113 93
79 113 93
79 113 93
79 113 93
79 113 93
79 113 93
79 113 93
79 113 93
79 113 93
79 113 93
80 113 93
79 113 93
79 113 93
79 113 93
79 113 93
80 114 93
79 113 93
79 113 93
79 113 93
79 113 93
80 114 93
80 114 93
80 113 93
79 113 93
80 113 93
79 113 93
79 113 93
79 113 93
79 113 93
79 113 93
79 113 93
79 113 93
79 113 93
80 114 93
80 113 93
80 114 93
79 113 93
79 113 93
79 113 93
80 113 93
79 113 93
79 113 93
79 113 93
79 113 93
80 114 93
79 113 93
79 113 93
80 114 93
79 113 93
79 113 93
80 113 93
80 114 93
79 113 93
79 113 93
79 113 93
79 113 93
79 113 93
79 113 93
79 113 93
80 114 93
79 113 93
79 113 93
80 114 93
79 113 93
79 113 93
79 113 93
80 113 93
80 114 93
80 114 93
79 113 93
79 113 93
79 113 93
79 113 93
80 114 93
80 114 93
79 113 93
79 113 93
79 113 93
79 113 93
80 113 93
79 113 93
80 113 93
79 113 93
80 114 93
79 113 93
79 113 93
79 113 93
79 113 93
79 113 93
80 114 93
79 113 93
79 113 93
79 113 93
79 113 93
79 113 93
79 113 93
79 113 93
79 113 93
79 113 93
79 113 93
79 113 93
80 113 93
79 113 93
79 113 93
79 113 93
79 113 93
79 113 93
79 113 93
80 113 93
79 113 93
79 113 93
79 113 93
79 113 93
79 113 93
79 113 93
79 113 93
79 113 93
80 113 93
79 113 93
79 113 93
80 113 93
79 113 93
79 113 93
79 113 93
79 113 93
79 113 93
79 113 93
79 113 93
79 113 93
79 113 93
79 113 93
79 113 93
79 113 93
79 113 93
79 113 93
79 113 93
80 114 93
79 113 93
79 113 93
79 113 93
79 113 93
80 113 93
79 113 93
79 113 93
79 113 93
80 113 93
79 113 93
79 113 93
80 113 93
79 113 93
79 113 93
80 113 93
79 113 93
79 113 93
79 113 93
79 113 93
79 113 93
79 113 93
79 113 93
79 113 93
79 113 93
79 113 93
79 113 92
79 113 93
79 113 93
79 113 93
79 113 93
79 113 93
79 113 93
79 113 93
79 113 93
79 113 93
80 113 93
79 113 93
79 113 93
79 113 93
79 113 93
79 113 93
79 113 93
79 113 93
79 113 93
79 113 93
79 113 93
79 113 93
79 113 93
79 113 93
79 113 93
79 113 93
79 113 93
79 113 92
79 113 93
79 113 93
79 113 93
79 113 93
79 113 93
79 113 93
79 113 93
79 113 93
79 113 93
79 113 93
79 113 93
79 113 93
79 113 93
79 113 93
79 113 93
79 113 93
79 113 93
79 113 93
79 113 93
79 113 93
79 113 93
79 113 93
79 113 93
79 113 93
79 113 93
79 113 93
79 113 93
80 113 93
79 113 93
79 113 93
79 113 93
79 113 93
79 113 93
79 113 93
79 113 93
79 113 93
79 113 93
79 113 93
79 113 93
79 113 93
79 113 93
79 113 93
79 113 93
79 113 93
79 113 92
79 113 92
79 113 93
79 113 93
79 113 93
79 113 92
79 113 93
79 113 93
79 113 93
79 113 93
79 113 93
79 113 93
79 113 93
79 113 93
79 113 93
79 113 93
79 113 93
79 113 93
79 113 93
79 113 93
79 113 93
79 113 93
79 113 93
79 113 93
79 113 93
79 113 93
79 113 93
79 113 93
79 113 93
79 113 93
79 113 93
79 113 93
79 113 92
79 113 93
79 113 93
79 113 93
79 113 93
79 113 93
79 113 93
79 113 93
79 113 93
79 113 93
79 113 93
79 113 93
79 113 93
79 113 92
79 113 92
79 113 92
79 113 92
79 113 92
79 113 92
79 113 92
79 113 92
79 113 92
79 113 92
79 113 92
79 113 92
79 113 92
79 113 92
79 113 92
79 113 92
79 113 92
79 113 92
79 113 92
79 113 92
78 112 92
79 113 92
79 113 92
79 113 92
79 113 92
79 113 92
79 113 92
79 113 92
79 113 92
79 112 92
79 113 92
79 113 92
79 113 92
79 113 92
79 113 92
79 113 92
79 112 92
79 112 92
79 112 92
79 113 92
78 112 92
79 112 92
79 112 92
79 113 92
79 113 92
79 113 92
79 113 92
79 113 92
78 112 92
79 112 92
79 113 92
79 112 92
78 112 92
79 113 92
79 112 92
79 113 92
79 112 92
79 112 92
79 112 92
79 113 92
79 112 92
79 112 92
79 112 92
78 112 92
79 113 92
79 112 92
79 113 92
79 113 92
79 113 92
79 112 92
78 112 92
79 112 92
79 112 92
78 112 92
78 112 92
78 112 92
79 112 92
78 112 92
79 112 92
79 112 92
78 112 92
78 112 92
78 112 92
79 112 92
79 112 92
79 112 92
78 112 92
79 112 92
79 112 92
79 112 92
78 112 92
79 112 92
79 112 92
78 112 92
79 112 92
78 112 92
79 112 92
78 112 92
79 112 92
78 112 92
78 112 92
78 112 92
78 112 92
78 112 92
78 112 92
79 112 92
78 112 92
78 112 92
78 112 92
78 112 92
78 112 92
78 112 92
78 112 92
78 112 92
79 112 92
78 112 92
78 112 92
78 112 92
78 112 92
78 112 92
78 112 92
78 112 92
78 112 92
78 112 92
78 112 92
78 112 92
78 112 92
78 112 92
78 112 92
78 112 92
78 112 92
78 112 92
78 112 92
78 112 92
78 112 92
78 112 92
78 112 92
78 112 92
78 112 92
78 112 92
78 112 92
78 112 92
78 112 92
78 112 92
78 112 92
78 112 92
78 112 92
78 112 92
78 112 92
78 112 92
78 112 92
78 112 92
78 112 92
78 112 92
78 112 92
78 112 92
78 112 92
78 112 92
78 112 92
78 112 92
78 112 92
78 112 92
78 111 92
78 112 92
78 112 92
78 112 92
78 112 92
78 112 92
78 112 92
78 112 92
78 112 92
78 112 92
78 112 92
78 112 92
78 112 92
78 112 92
78 111 92
78 111 92
78 112 92
78 112 92
78 112 92
78 111 92
78 111 92
78 112 92
78 112 92
78 111 92
77 111 92
78 112 92
78 112 92
78 111 92
78 112 92
78 112 92
78 112 92
78 111 92
78 111 92
78 112 92
78 111 92
78 111 92
78 111 92
78 112 92
78 111 92
78 112 92
77 111 92
78 112 92
78 111 92
78 111 92
78 111 91
78 111 92
78 111 92
78 111 92
78 111 91
78 111 91
78 111 91
78 111 91
78 111 91
78 111 91
78 111 91
78 111 91
78 111 91
78 111 91
77 111 91
78 111 91
78 111 91
77 111 91
77 111 91
77 111 91
77 111 91
78 111 91
78 111 91
78 111 91
78 111 91
78 111 91
78 111 91
78 111 91
78 111 91
77 111 91
77 111 91
77 111 91
77 111 91
77 111 91
77 111 91
77 111 91
78 111 91
77 111 91
77 111 91
77 111 91
78 111 91
78 111 91
77 111 91
77 111 91
78 111 91
77 111 91
77 111 91
77 111 91
77 111 91
78 111 91
77 111 91
77 111 91
77 111 91
78 111 91
77 111 91
77 111 91
77 111 91
77 111 91
77 111 91
77 111 91
77 111 91
77 111 91
77 111 91
77 111 91
77 111 91
77 111 91
77 111 91
77 111 91
77 111 91
77 111 91
77 111 91
79 113 93
79 113 93
79 113 93
80 113 93
79 113 93
79 113 93
79 113 93
79 113 93
79 113 93
79 113 93
79 113 93
79 113 93
79 113 93
79 113 93
79 113 93
79 113 93
79 113 93
80 114 93
79 113 93
79 113 93
79 113 93
79 113 93
79 113 93
79 113 93
79 113 93
80 113 93
79 113 93
79 113 93
79 113 93
80 113 93
79 113 93
79 113 93
79 113 93
79 113 93
80 114 93
79 113 93
79 113 93
79 113 93
79 113 93
79 113 93
79 113 93
80 113 93
79 113 93
80 114 93
79 113 93
79 113 93
79 113 93
79 113 93
79 113 93
79 113 93
79 113 93
79 113 93
79 113 93
79 113 93
80 113 93
80 114 93
79 113 93
79 113 93
79 113 93
79 113 93
79 113 93
79 113 93
79 113 93
80 114 93
80 114 93
79 113 93
80 113 93
80 113 93
79 113 93
79 113 93
79 113 93
79 113 93
79 113 93
80 114 93
80 114 93
79 113 93
80 113 93
79 113 93
79 113 93
79 113 93
79 113 93
79 113 93
80 114 93
80 114 93
79 113 93
80 114 93
80 114 93
79 113 93
80 113 93
80 113 93
80 114 93
79 113 93
79 113 93
80 114 93
80 113 93
79 113 93
79 113 93
79 113 93
79 113 93
80 114 93
79 113 93
79 113 93
79 113 93
80 114 93
80 114 93
80 113 93
79 113 93
79 113 93
79 113 93
79 113 93
79 113 93
79 113 93
80 114 93
79 113 93
79 113 93
79 113 93
79 113 93
80 114 93
80 113 93
79 113 93
79 113 93
79 113 93
80 114 93
79 113 93
80 114 93
80 114 93
79 113 93
79 113 93
79 113 93
80 113 93
79 113 93
79 113 93
79 113 93
79 113 93
80 114 93
80 114 93
79 113 93
79 113 93
80 114 93
79 113 93
80 114 93
80 114 93
79 113 93
80 114 93
79 113 93
79 113 93
80 114 93
80 113 93
80 114 93
79 113 93
79 113 93
79 113 93
79 113 93
80 114 93
79 113 93
79 113 93
79 113 93
80 113 93
80 113 93
79 113 93
79 113 93
79 113 93
80 113 93
79 113 93
80 113 93
79 113 93
79 113 93
79 113 93
79 113 93
79 113 93
79 113 93
79 113 93
79 113 93
79 113 93
79 113 93
79 113 93
80 114 93
80 113 93
79 113 93
79 113 93
79 113 93
79 113 93
80 114 93
79 113 93
79 113 93
80 113 93
80 114 93
80 113 93
80 114 93
80 114 93
79 113 93
79 113 93
80 114 93
79 113 93
79 113 93
79 113 93
79 113 93
80 114 93
79 113 93
79 113 93
79 113 93
79 113 93
79 113 93
79 113 93
79 113 93
79 113 93
80 113 93
80 113 93
80 114 93
80 114 93
80 114 93
80 113 93
79 113 93
80 114 93
79 113 93
80 114 93
79 113 93
79 113 93
79 113 93
79 113 93
79 113 93
79 113 93
79 113 93
79 113 93
79 113 93
80 114 93
79 113 93
79 113 93
79 113 93
79 113 93
79 113 93
79 113 93
79 113 93
80 113 93
79 113 93
79 113 93
79 113 93
80 113 93
79 113 93
79 113 93
80 114 93
79 113 93
79 113 93
79 113 93
79 113 93
79 113 93
79 113 93
79 113 93
79 113 93
79 113 93
79 113 93
79 113 93
79 113 93
79 113 93
79 113 93
79 113 93
79 113 93
79 113 93
79 113 93
80 113 93
79 113 93
79 113 93
79 113 93
79 113 93
79 113 93
79 113 93
79 113 93
79 113 93
79 113 93
80 113 93
79 113 93
79 113 93
79 113 93
79 113 93
79 113 92
79 113 93
79 113 93
79 113 93
79 113 93
79 113 93
79 113 93
79 113 93
79 113 93
79 113 93
79 113 93
79 113 93
79 113 93
79 113 93
79 113 93
79 113 92
79 113 93
79 113 93
79 113 93
79 113 93
79 113 93
79 113 93
79 113 93
79 113 93
79 113 93
79 113 93
79 113 93
79 113 93
79 113 93
79 113 93
79 113 93
79 113 93
79 113 93
79 113 92
79 113 93
79 113 93
79 113 93
79 113 93
79 113 93
79 113 93
79 113 93
79 113 93
79 113 93
79 113 93
79 113 93
79 113 93
79 113 92
79 113 93
79 113 93
79 113 93
79 113 93
79 113 93
79 113 93
79 113 93
79 113 92
79 113 93
79 113 93
79 113 92
79 113 93
79 113 93
79 113 93
79 113 92
79 113 93
79 113 93
79 112 92
79 113 92
79 113 92
79 113 92
79 113 92
79 113 92
79 113 92
79 113 92
79 113 92
79 113 92
79 113 92
79 113 92
79 113 92
79 113 92
79 113 92
79 113 92
79 113 92
79 113 92
79 113 92
79 113 92
79 113 92
79 113 92
79 113 92
79 113 92
79 113 92
79 113 92
79 113 92
78 112 92
79 112 92
79 113 92
79 113 92
79 113 92
79 113 92
79 113 92
79 113 92
79 113 92
79 113 92
79 113 92
79 113 92
79 113 92
79 112 92
79 113 92
78 112 92
79 113 92
79 113 92
79 113 92
78 112 92
79 112 92
79 113 92
79 113 92
79 112 92
79 113 92
79 113 92
79 112 92
79 112 92
79 112 92
79 112 92
79 112 92
78 112 92
79 112 92
79 113 92
79 113 92
79 112 92
79 112 92
78 112 92
78 112 92
79 113 92
79 112 92
78 112 92
79 113 92
78 112 92
78 112 92
78 112 92
78 112 92
78 112 92
78 112 92
78 112 92
79 112 92
78 112 92
78 112 92
79 112 92
78 112 92
79 112 92
78 112 92
79 113 92
79 112 92
78 112 92
78 112 92
79 112 92
78 112 92
78 112 92
79 112 92
78 112 92
78 112 92
78 112 92
79 112 92
79 112 92
78 112 92
79 112 92
78 112 92
78 112 92
79 112 92
79 112 92
78 112 92
78 112 92
78 112 92
78 112 92
78 112 92
78 112 92
78 112 92
78 112 92
79 112 92
78 112 92
79 112 92
78 112 92
78 112 92
78 112 92
78 112 92
78 112 92
78 112 92
78 112 92
78 112 92
78 112 92
78 112 92
78 112 92
78 112 92
78 112 92
78 112 92
78 112 92
78 112 92
78 112 92
78 112 92
78 112 92
78 112 92
78 112 92
78 112 92
78 112 92
78 112 92
78 112 92
78 112 92
78 112 92
78 112 92
78 112 92
78 112 92
78 112 92
78 112 92
78 112 92
78 112 92
78 112 92
78 112 92
78 112 92
78 112 92
78 112 92
78 112 92
78 112 92
78 112 92
78 112 92
78 112 92
78 112 92
78 112 92
78 112 92
78 112 92
78 112 92
78 112 92
78 111 92
78 112 92
78 112 92
78 112 92
78 112 92
78 112 92
78 112 92
78 112 92
78 112 92
78 111 92
78 112 92
78 112 92
78 112 92
78 111 92
78 112 92
78 112 92
78 112 92
78 111 92
78 112 92
78 112 92
78 111 92
78 111 92
78 112 92
78 111 92
78 112 91
78 112 92
78 111 92
78 112 92
78 111 92
77 111 92
78 112 92
78 111 92
78 111 92
78 111 92
78 112 92
78 111 92
77 111 91
78 111 91
77 111 92
77 111 91
78 111 91
78 111 91
78 111 91
78 111 91
77 111 91
77 111 91
78 111 91
78 111 91
78 111 91
78 111 91
78 111 91
78 111 91
78 111 91
77 111 91
77 111 91
78 111 91
78 111 91
78 111 91
78 111 91
78 111 91
78 111 91
78 111 91
78 111 91
77 111 91
78 111 91
78 111 91
78 111 91
78 111 91
78 111 91
77 111 91
77 111 91
77 111 91
78 111 91
77 111 91
78 111 91
78 111 91
78 111 91
78 111 91
77 111 91
77 111 91
77 111 91
77 111 91
77 111 91
77 111 91
77 111 91
78 111 91
77 111 91
77 111 91
77 111 91
77 111 91
77 111 91
77 111 91
77 111 91
77 111 91
77 111 91
77 111 91
77 111 91
77 111 91
79 113 93
79 113 93
79 113 93
79 113 93
79 113 93
79 113 93
79 113 93
79 113 93
80 113 93
79 113 93
79 113 93
79 113 93
79 113 93
79 113 93
79 113 93
79 113 93
80 113 93
80 113 93
80 113 93
79 113 93
79 113 93
79 113 93
80 113 93
79 113 93
79 113 93
79 113 93
79 113 93
79 113 93
79 113 93
80 114 93
79 113 93
79 113 93
79 113 93
79 113 93
79 113 93
80 114 93
80 114 93
79 113 93
79 113 93
79 113 93
79 113 93
80 113 93
79 113 93
79 113 93
80 114 93
79 113 93
80 114 93
80 114 93
79 113 93
79 113 93
79 113 93
80 114 93
79 113 93
80 114 93
79 113 93
79 113 93
79 113 93
80 114 93
80 114 93
79 113 93
80 114 93
80 114 93
80 114 93
79 113 93
79 113 93
79 113 93
79 113 93
80 114 93
79 113 93
79 113 93
79 113 93
79 113 93
79 113 93
79 113 93
80 114 93
80 114 93
79 113 93
80 114 93
79 113 93
79 113 93
80 114 93
80 114 93
80 114 93
80 114 93
80 114 93
80 114 93
80 114 93
79 113 93
79 113 93
80 114 93
79 113 93
79 113 93
80 114 93
80 114 93
80 113 93
80 114 93
79 113 93
80 114 93
79 113 93
79 113 93
80 114 93
79 113 93
80 114 93
80 114 93
79 113 93
79 113 93
79 113 93
79 113 93
80 114 93
79 113 93
80 114 93
80 114 93
80 114 93
79 114 93
80 113 93
80 114 93
79 113 93
79 113 93
79 113 93
79 113 93
79 114 93
80 114 93
80 114 93
79 113 93
79 113 93
79 113 93
79 113 93
80 114 93
80 114 93
80 114 93
79 113 93
79 114 93
79 113 93
79 113 93
79 113 93
80 114 93
80 114 93
80 114 93
80 114 93
79 114 93
80 114 93
80 114 93
79 114 93
79 113 93
80 114 93
79 114 93
80 114 93
80 114 93
79 113 93
79 113 93
79 113 93
79 113 93
80 114 93
80 114 93
80 114 93
79 114 93
80 114 93
79 113 93
79 113 93
80 114 93
79 113 93
80 114 93
79 113 93
79 113 93
80 114 93
80 114 93
80 114 93
79 113 93
79 113 93
79 113 93
79 113 93
80 114 93
79 113 93
79 113 93
80 113 93
80 114 93
79 113 93
79 113 93
79 113 93
79 113 93
80 114 93
80 114 93
79 113 93
80 114 93
79 113 93
80 113 93
79 113 93
79 113 93
79 113 93
79 113 93
79 113 93
80 113 93
79 113 93
79 113 93
79 113 93
79 113 93
80 114 93
80 113 93
79 113 93
79 113 93
79 113 93
79 113 93
79 113 93
80 114 93
79 113 93
79 113 93
79 113 93
79 113 93
79 113 93
79 113 93
80 114 93
80 113 93
79 113 93
79 113 93
79 113 93
79 113 93
79 113 93
79 113 93
80 113 93
79 113 93
80 113 93
79 113 93
79 113 93
79 113 93
79 113 93
80 114 93
79 113 93
79 113 93
79 113 93
80 113 93
79 113 93
79 113 93
79 113 93
80 114 93
79 113 93
80 114 93
79 113 93
79 113 93
79 113 93
80 114 93
79 113 93
79 113 93
80 113 93
80 113 93
79 113 93
79 113 93
80 114 93
79 113 93
80 114 93
79 113 93
79 113 93
79 113 93
79 113 93
79 113 93
79 113 93
79 113 93
79 113 93
79 113 93
79 113 93
79 113 93
79 113 93
79 113 93
79 113 93
79 113 93
79 113 93
79 113 93
79 113 93
79 113 93
79 113 93
79 113 93
79 113 93
79 113 93
79 113 93
79 113 92
79 113 93
79 113 93
79 113 93
79 113 93
79 113 93
79 113 93
79 113 93
79 113 93
79 113 93
80 113 93
79 113 93
79 113 93
79 113 93
79 113 93
79 113 93
79 113 93
79 113 93
79 113 93
79 113 93
79 113 93
79 113 93
79 113 93
79 113 93
79 113 93
79 113 93
79 113 93
79 113 93
79 113 93
79 113 93
79 113 93
79 113 93
79 113 93
79 113 93
79 113 93
79 113 93
79 113 93
79 113 93
79 113 93
79 113 93
79 113 93
79 113 93
79 113 93
79 113 93
79 113 93
79 113 92
79 113 93
79 113 93
79 113 93
79 113 93
79 112 92
79 113 93
79 113 93
79 113 93
79 113 93
79 113 93
79 113 93
79 113 93
79 113 93
79 113 93
79 113 93
79 113 93
79 113 93
79 113 93
79 113 93
79 113 93
79 113 93
79 113 93
79 113 93
79 113 93
79 113 93
79 113 93
79 113 93
79 113 93
79 113 93
79 112 92
79 113 93
79 113 93
79 113 92
79 113 92
79 113 92
79 113 92
79 113 92
79 113 92
79 113 92
79 113 92
79 113 92
79 113 92
79 113 92
79 113 92
79 113 92
79 113 92
79 113 92
79 113 92
79 113 92
79 113 92
79 113 92
78 112 92
79 113 92
79 113 92
79 113 92
79 113 92
79 113 92
78 112 92
79 113 92
79 112 92
79 113 92
79 113 92
79 113 92
79 113 92
79 113 92
79 113 92
79 113 92
79 113 92
79 113 92
79 113 92
79 113 92
79 113 92
79 112 92
79 112 92
79 113 92
79 112 92
79 113 92
78 112 92
79 113 92
78 112 92
79 112 92
79 112 92
79 112 92
79 112 92
78 112 92
79 113 92
79 112 92
79 112 92
79 112 92
79 113 92
78 112 92
79 112 92
79 112 92
78 112 92
79 112 92
79 112 92
79 112 92
79 112 92
79 112 92
78 112 92
78 112 92
79 113 92
78 112 92
79 113 92
78 112 92
78 112 92
79 113 92
79 113 92
78 112 92
78 112 92
79 112 92
79 112 92
79 112 92
78 112 92
78 112 92
79 112 92
78 112 92
79 112 92
78 112 92
79 112 92
79 112 92
78 112 92
78 112 92
78 112 92
79 112 92
78 112 92
78 112 92
78 112 92
79 112 92
78 112 92
78 112 92
78 112 92
78 112 92
78 112 92
78 112 92
78 112 92
79 112 92
78 112 92
78 112 92
78 112 92
78 112 92
79 112 92
78 112 92
78 112 92
78 112 92
78 112 92
78 112 92
78 112 92
78 112 92
78 112 92
78 112 92
78 112 92
78 112 92
78 112 92
78 112 92
78 112 92
78 112 92
78 112 92
78 112 92
78 112 92
78 112 92
78 112 92
78 112 92
78 112 92
78 112 92
78 112 92
78 112 92
78 112 92
78 112 92
78 112 92
78 112 92
78 112 92
78 112 92
78 112 92
78 112 92
78 112 92
78 112 92
78 111 92
78 112 92
78 112 92
78 112 92
78 112 92
78 112 92
79 112 92
78 112 92
78 112 92
78 112 92
78 112 92
78 112 92
78 112 92
78 112 92
78 112 92
78 112 92
78 112 92
78 112 92
78 112 92
78 112 92
78 112 92
78 112 92
78 111 92
78 112 92
78 112 92
78 111 92
78 111 92
78 111 92
78 112 92
78 112 92
78 112 92
78 112 92
78 112 92
78 111 92
78 111 92
78 111 92
78 111 92
78 112 92
77 111 92
78 111 92
77 111 92
78 111 92
78 111 92
78 111 92
78 111 92
78 111 92
78 111 92
77 111 92
78 111 92
78 111 92
78 111 92
78 111 92
78 111 92
77 111 91
78 111 91
77 111 91
78 111 91
77 111 91
78 111 91
78 111 91
77 111 91
78 112 91
78 111 91
77 111 91
78 111 91
78 111 91
77 111 91
78 111 91
78 111 91
78 111 91
78 111 91
77 111 91
78 111 91
77 111 91
78 111 91
78 111 91
77 111 91
78 111 91
77 111 91
77 111 91
78 111 91
77 111 91
77 111 91
78 111 91
78 111 91
77 111 91
77 111 91
78 111 91
77 111 91
78 111 91
77 111 91
78 111 91
77 111 91
77 111 91
78 111 91
77 111 91
77 111 91
77 111 91
77 111 91
78 111 91
77 111 91
77 111 91
77 111 91
77 111 91
80 113 93
80 114 93
79 113 93
79 113 93
79 113 93
80 113 93
80 114 93
79 113 93
79 113 93
79 113 93
80 114 93
80 114 93
80 114 93
80 114 93
80 114 93
79 113 93
79 113 93
79 113 93
79 113 93
79 113 93
79 113 93
79 113 93
79 113 93
79 113 93
79 113 93
79 113 93
79 113 93
79 113 93
79 113 93
80 114 93
79 113 93
80 114 93
79 113 93
79 113 93
79 113 93
79 113 93
80 114 93
80 114 93
80 114 93
80 114 93
80 114 93
80 114 93
80 113 93
79 113 93
80 114 93
79 113 93
79 113 93
79 113 93
79 113 93
79 113 93
80 114 93
79 113 93
80 114 93
79 113 93
80 114 93
80 114 93
80 114 93
80 114 93
79 114 93
80 114 93
80 114 93
80 114 93
79 114 93
79 113 93
80 114 93
79 113 93
80 114 93
80 114 93
80 114 93
80 114 93
79 113 93
80 114 93
80 114 93
79 113 93
80 114 93
80 114 93
80 114 93
80 114 93
79 113 93
79 114 93
80 114 93
79 113 93
80 114 93
80 114 93
79 113 93
79 113 93
80 114 93
80 114 93
80 114 93
80 114 93
80 114 93
80 114 93
80 114 93
79 113 93
79 113 93
79 113 93
79 113 93
79 114 93
80 114 93
80 114 93
80 114 93
79 114 93
80 114 93
79 113 93
79 113 93
79 114 93
79 114 93
80 114 93
80 114 93
80 113 93
80 114 93
80 114 93
79 113 93
80 114 93
80 114 93
80 114 93
80 114 93
79 113 93
80 114 93
80 114 93
80 114 93
80 114 93
79 113 93
80 114 93
80 114 93
80 114 93
79 114 93
80 114 93
80 114 93
79 114 93
80 114 93
80 114 93
79 113 93
80 114 93
80 114 93
79 113 93
80 114 93
80 114 93
80 114 93
80 114 93
80 114 93
80 114 93
79 113 93
79 114 93
80 114 93
79 113 93
80 114 93
80 114 93
80 114 93
80 114 93
79 113 93
79 113 93
79 114 93
80 113 93
79 113 93
79 113 93
80 114 93
80 114 93
79 114 93
80 114 93
79 113 93
80 114 93
80 114 93
79 114 93
80 114 93
79 114 93
80 114 93
80 114 93
80 114 93
80 114 93
79 113 93
80 114 93
80 114 93
80 114 93
80 114 93
80 114 93
80 114 93
80 114 93
80 114 93
80 114 93
79 113 93
79 113 93
79 113 93
79 114 93
80 114 93
80 114 93
80 114 93
80 114 93
80 114 93
79 113 93
79 113 93
80 114 93
79 113 93
80 114 93
79 113 93
79 113 93
79 113 93
80 114 93
79 113 93
79 113 93
79 113 93
80 114 93
79 113 93
79 113 93
80 114 93
79 113 93
79 113 93
80 114 93
80 114 93
80 114 93
80 114 93
79 113 93
79 113 93
80 114 93
79 113 93
80 114 93
79 113 93
79 113 93
79 113 93
80 114 93
79 113 93
79 113 93
79 113 93
80 113 93
80 113 93
79 113 93
79 113 93
79 113 93
79 113 93
79 113 93
79 113 93
79 113 93
79 113 93
80 113 93
79 113 93
79 113 93
79 113 93
79 113 93
79 113 93
79 113 93
79 113 93
79 113 93
79 113 93
79 113 93
79 113 93
79 113 93
79 113 93
79 113 93
79 113 93
79 113 93
79 113 93
79 113 93
79 113 93
79 113 93
80 114 93
80 113 93
79 113 93
79 113 93
79 113 93
79 113 93
79 113 93
80 113 93
80 113 93
79 113 93
79 113 93
79 113 93
79 113 93
79 113 93
79 113 93
79 113 93
79 113 93
79 113 93
79 113 93
79 113 93
79 113 93
79 113 93
79 113 93
79 113 93
79 113 93
79 113 93
79 113 93
79 113 93
79 113 93
79 113 93
79 113 93
79 113 93
79 113 93
79 113 93
80 113 93
79 113 93
79 113 93
79 113 93
79 113 93
79 113 93
79 113 93
79 113 93
79 113 93
79 113 93
79 113 93
79 113 93
79 113 93
79 113 93
79 113 93
79 113 93
79 113 93
79 113 93
79 113 93
79 113 93
79 113 93
79 113 93
79 113 93
79 113 93
79 113 93
79 113 93
79 113 93
79 113 93
79 113 93
79 113 93
79 113 93
79 113 93
79 113 93
79 113 93
79 113 93
79 113 93
79 113 93
79 113 92
79 113 93
79 113 93
79 113 93
79 113 93
79 113 93
79 113 93
79 113 93
79 113 93
79 113 93
79 113 92
79 113 93
79 113 93
79 113 92
79 113 92
79 113 93
79 113 92
79 113 92
79 113 93
79 113 93
79 113 93
79 113 92
79 113 93
79 113 93
79 113 93
79 113 93
79 113 93
79 113 92
79 113 93
79 113 93
79 113 93
79 113 93
79 113 92
79 113 93
79 113 93
79 113 93
79 113 92
79 113 93
79 113 93
79 113 92
79 113 92
79 113 92
79 113 92
79 113 92
79 113 92
79 113 92
79 113 92
79 113 92
79 113 92
79 113 92
79 113 92
79 113 92
79 113 92
79 113 92
79 113 92
79 113 92
79 113 92
79 113 92
79 113 92
79 113 92
78 112 92
79 113 92
79 113 92
79 113 92
78 112 92
79 113 92
79 113 92
79 112 92
79 113 92
79 113 92
79 113 92
79 113 92
79 112 92
79 113 92
79 113 92
79 112 92
79 112 92
78 112 92
78 112 92
79 113 92
79 113 92
79 113 92
79 113 92
79 113 92
79 113 92
79 112 92
79 113 92
78 112 92
79 113 92
79 113 92
78 112 92
79 113 92
78 112 92
79 112 92
79 112 92
79 112 92
78 112 92
79 113 92
78 112 92
79 112 92
78 112 92
78 112 92
78 112 92
78 112 92
79 112 92
79 112 92
79 112 92
78 112 92
79 112 92
79 112 92
78 112 92
79 112 92
78 112 92
79 112 92
79 112 92
79 113 92
78 112 92
79 112 92
79 112 92
79 112 92
79 112 92
79 112 92
78 112 92
79 112 92
78 112 92
78 112 92
78 112 92
78 112 92
78 112 92
78 112 92
78 112 92
79 112 92
78 112 92
78 112 92
78 112 92
79 112 92
79 112 92
78 112 92
78 112 92
78 112 92
79 112 92
78 112 92
78 112 92
78 112 92
78 112 92
78 112 92
78 112 92
78 112 92
78 112 92
78 112 92
78 112 92
78 112 92
78 112 92
78 112 92
78 112 92
78 112 92
78 112 92
78 112 92
78 112 92
78 112 92
78 112 92
78 112 92
78 112 92
78 112 92
78 112 92
78 112 92
78 112 92
78 112 92
78 112 92
78 112 92
78 112 92
78 112 92
78 112 92
78 112 92
78 112 92
78 111 92
78 112 92
78 112 92
78 112 92
78 112 92
78 112 92
78 112 92
78 112 92
78 112 92
78 112 92
78 111 92
78 112 92
78 112 92
78 112 92
78 111 92
78 112 92
78 112 92
78 112 92
78 111 92
78 112 92
78 112 92
78 112 92
78 112 92
78 112 92
78 111 92
78 112 92
78 112 92
78 111 91
78 112 92
78 111 92
78 112 92
78 112 92
78 112 92
78 112 92
78 112 92
78 111 92
78 111 91
78 111 92
78 111 92
78 111 92
78 112 92
78 111 92
78 111 92
78 111 92
78 112 92
78 112 92
78 112 92
78 111 91
78 111 92
77 111 92
78 111 92
78 111 92
78 111 92
78 111 92
78 111 92
78 111 92
78 111 91
78 111 91
78 111 91
78 111 91
77 111 91
78 111 91
77 111 91
78 111 91
78 111 91
78 111 91
78 111 91
77 111 91
78 111 91
78 111 91
78 111 91
77 111 91
78 111 91
78 111 91
77 111 91
77 111 91
78 111 91
78 111 91
78 111 91
78 111 91
78 111 91
77 111 91
77 111 91
78 111 91
78 111 91
77 111 91
78 111 91
77 111 91
78 111 91
78 111 91
77 111 91
77 111 91
77 111 91
77 111 91
77 111 91
77 111 91
78 111 91
78 111 91
77 111 91
77 111 91
79 113 93
79 113 93
80 114 93
79 113 93
80 114 93
79 113 93
80 114 93
79 113 93
80 114 93
80 114 93
79 113 93
80 114 93
80 114 93
80 114 93
80 114 93
80 114 93
79 113 93
79 113 93
80 114 93
80 114 93
79 114 93
79 113 93
80 114 93
80 114 93
80 114 93
80 113 93
80 114 93
80 114 93
80 114 93
80 114 93
79 113 93
80 114 93
80 114 93
80 113 93
79 113 93
80 114 93
80 114 93
79 113 93
80 114 93
80 114 93
80 114 93
79 114 93
79 113 93
80 114 93
79 113 93
80 114 93
79 113 93
79 114 93
79 114 93
79 113 93
79 113 93
80 114 93
79 113 93
80 114 93
80 114 93
79 113 93
80 114 93
80 114 93
80 114 93
79 114 93
80 114 93
80 114 93
80 114 93
80 114 93
80 114 93
80 114 93
79 113 93
80 114 93
80 114 93
80 114 93
80 114 93
80 114 93
79 113 93
80 114 93
79 113 93
79 114 93
79 114 93
79 113 93
79 113 93
80 114 93
80 114 93
79 113 93
80 114 93
80 114 93
80 114 93
80 114 93
80 114 93
80 114 93
80 114 93
80 114 93
80 114 93
80 114 93
80 114 93
80 114 93
80 114 93
80 114 93
79 113 93
80 114 93
80 114 93
80 114 93
80 114 93
80 114 93
80 114 93
80 114 93
80 114 93
80 114 93
79 114 93
80 114 93
80 114 93
80 114 93
80 114 93
80 114 93
79 114 93
80 114 93
80 114 93
80 114 93
79 114 93
80 114 93
79 114 93
80 114 93
80 114 93
80 114 93
80 114 93
80 114 93
80 114 93
80 114 93
80 114 93
80 114 93
80 114 93
80 114 93
80 113 93
80 113 93
80 114 93
79 114 93
80 114 93
80 114 93
80 114 93
80 114 93
80 114 93
80 114 93
80 114 93
80 114 93
80 114 93
79 114 93
80 114 93
80 114 93
80 114 93
80 114 93
80 114 93
80 114 93
80 114 93
79 113 93
80 114 93
80 114 93
79 114 93
79 114 93
80 114 93
80 114 93
79 113 93
80 114 93
80 114 93
80 114 93
80 114 93
80 114 93
80 114 93
80 114 93
80 114 93
80 114 93
79 114 93
79 113 93
80 114 93
80 114 93
80 114 93
79 114 93
80 114 93
80 114 93
80 114 93
80 114 93
80 114 93
80 114 93
80 114 93
80 114 93
80 114 93
79 113 93
80 114 93
79 113 93
80 114 93
80 114 93
80 114 93
80 114 93
79 113 93
79 114 93
80 114 93
80 114 93
79 113 93
79 114 93
80 114 93
80 114 93
79 113 93
80 114 93
79 113 93
80 114 93
79 114 93
80 114 93
80 114 93
80 114 93
79 113 93
80 114 93
80 114 93
80 114 93
80 114 93
79 113 93
80 114 93
80 114 93
80 113 93
79 113 93
79 114 93
79 113 93
80 114 93
80 114 93
80 114 93
80 113 93
80 114 93
79 113 93
79 113 93
80 114 93
80 114 93
80 114 93
80 114 93
80 114 93
79 113 93
79 113 93
80 114 93
80 114 93
79 113 93
80 114 93
79 113 93
80 114 93
80 114 93
79 113 93
80 113 93
80 114 93
79 113 93
79 113 93
79 113 93
80 114 93
79 113 93
80 114 93
80 114 93
80 114 93
80 114 93
79 113 93
79 113 93
79 113 93
79 113 93
79 113 93
79 113 93
79 113 93
79 113 93
79 113 93
79 113 93
79 113 93
80 113 93
79 113 93
79 113 93
80 114 93
79 113 93
79 113 93
79 113 93
79 113 93
79 113 93
79 113 93
79 113 93
80 113 93
80 114 93
79 113 93
79 113 93
79 113 93
80 113 93
79 113 93
79 113 93
79 113 93
79 113 93
79 113 93
79 113 93
79 113 93
79 113 93
79 113 93
79 113 93
80 114 93
79 113 93
79 113 93
79 113 93
79 113 93
79 113 93
79 113 93
79 113 93
79 113 93
79 113 93
79 113 93
79 113 93
79 113 92
79 113 93
80 113 93
79 113 92
80 113 93
79 113 93
79 113 93
79 113 93
79 113 93
79 113 93
79 113 93
79 113 93
79 113 93
79 113 93
79 113 93
79 113 93
79 113 93
79 113 93
79 113 93
79 113 93
79 113 93
79 113 93
79 113 93
79 113 93
79 113 93
79 113 93
79 113 93
79 113 93
79 113 93
79 113 93
79 113 93
79 113 93
79 113 93
79 113 93
79 113 93
79 113 93
79 113 93
79 113 93
79 113 93
79 113 93
79 113 93
79 113 93
79 113 93
79 113 93
79 113 93
79 113 93
79 113 93
79 113 92
79 113 93
79 113 93
79 113 93
79 113 93
79 113 93
79 113 93
79 113 93
79 113 93
79 113 93
79 113 93
79 113 93
79 113 92
79 113 93
79 113 92
79 113 93
79 113 93
79 113 93
79 113 93
79 113 93
79 113 93
79 113 93
79 113 93
79 113 93
79 113 93
79 113 93
79 113 93
79 113 92
79 113 92
79 113 92
79 113 92
79 113 92
79 113 92
79 113 92
79 113 92
79 113 92
79 113 92
79 113 92
79 113 92
79 113 92
79 113 92
79 113 92
79 113 92
79 113 92
79 113 92
79 112 92
78 112 92
79 113 92
79 113 92
79 113 92
79 112 92
79 113 92
79 113 92
79 113 92
79 113 92
78 112 92
79 113 92
79 113 92
79 113 92
79 113 92
78 112 92
79 112 92
79 113 92
79 112 92
78 112 92
78 112 92
78 112 92
79 112 92
79 113 92
79 113 92
79 112 92
79 113 92
79 113 92
78 112 92
79 112 92
78 112 92
79 112 92
78 112 92
79 112 92
79 113 92
79 112 92
78 112 92
79 112 92
79 112 92
79 112 92
79 112 92
79 112 92
79 112 92
78 112 92
79 112 92
79 112 92
78 112 92
79 113 92
79 112 92
78 112 92
79 112 92
78 112 92
78 112 92
79 112 92
78 112 92
78 112 92
79 113 92
79 112 92
79 112 92
79 112 92
78 112 92
78 112 92
78 112 92
78 112 92
79 112 92
78 112 92
78 112 92
79 112 92
79 112 92
79 112 92
78 112 92
78 112 92
78 112 92
78 112 92
78 112 92
78 112 92
78 112 92
78 112 92
78 112 92
78 112 92
78 112 92
78 112 92
78 112 92
78 112 92
78 112 92
78 112 92
78 112 92
78 112 92
78 112 92
78 112 92
78 112 92
78 112 92
78 112 92
78 112 92
78 112 92
78 112 92
78 112 92
78 112 92
78 112 92
78 112 92
78 112 92
78 112 92
78 112 92
78 112 92
78 112 92
78 112 92
78 112 92
78 112 92
78 112 92
78 112 92
78 112 92
78 112 92
78 112 92
78 112 92
78 112 92
78 112 92
78 112 92
78 112 92
78 112 92
78 112 92
78 112 92
78 111 92
78 112 92
78 112 92
78 112 92
78 112 92
78 111 92
78 112 92
78 112 92
78 112 92
78 112 92
78 112 92
78 112 92
78 112 92
78 112 92
78 112 92
78 112 92
78 112 92
78 112 92
78 112 92
78 112 92
78 111 92
78 111 92
78 111 92
78 112 92
78 112 92
78 112 92
78 111 91
78 111 92
78 111 92
78 111 92
78 111 92
78 112 92
78 111 92
78 112 92
78 111 92
78 111 91
78 111 92
78 112 92
78 112 92
78 111 92
78 111 92
77 111 92
78 112 92
78 111 92
78 111 92
78 111 92
78 111 92
78 111 92
77 111 92
78 111 92
78 111 91
78 111 91
78 111 91
78 111 91
78 111 91
78 111 91
78 111 91
78 111 91
78 111 91
78 111 91
78 111 91
78 111 91
77 111 91
77 111 91
78 111 91
78 111 91
78 111 91
78 111 91
78 111 91
78 111 91
78 111 91
77 111 91
77 111 91
77 111 91
78 111 91
78 111 91
78 111 91
77 111 91
78 111 91
77 111 91
77 111 91
77 111 91
77 111 91
77 111 91
77 111 91
77 111 91
79 113 93
80 114 93
80 114 93
80 114 93
80 114 93
80 114 93
80 114 93
80 114 93
80 114 93
79 113 93
79 113 93
80 114 93
80 114 93
79 114 93
80 114 93
79 114 93
80 114 93
80 114 93
79 113 93
80 114 93
80 114 93
79 113 93
80 114 93
80 114 93
79 113 93
80 114 93
80 114 93
80 114 93
80 114 93
80 114 93
79 114 93
80 114 93
80 114 93
80 114 93
80 114 93
80 114 93
80 114 93
80 114 93
80 114 93
79 114 93
80 114 93
80 114 93
80 114 93
80 114 93
80 114 93
80 114 93
80 114 93
80 114 93
79 114 93
80 114 93
80 114 93
80 114 93
79 114 93
80 114 93
80 114 93
79 113 93
80 114 93
80 114 93
80 114 93
80 114 93
80 114 93
80 114 93
80 114 93
80 114 93
80 114 93
80 114 93
80 114 93
80 114 93
79 113 93
80 114 93
80 114 93
80 114 93
80 114 93
80 114 93
80 114 93
80 114 93
80 114 93
80 114 93
80 114 93
80 114 93
80 114 93
80 114 93
80 114 93
80 114 93
80 114 93
80 114 93
80 114 93
80 114 93
80 114 93
80 114 93
80 114 93
80 114 93
80 114 93
80 114 93
80 114 93
80 114 93
80 114 93
80 114 93
80 114 93
80 114 93
80 114 93
80 114 93
80 114 93
80 114 93
80 114 93
80 114 93
79 114 93
80 114 93
80 114 93
80 114 93
80 114 93
80 114 93
80 114 93
80 114 93
80 114 93
79 114 93
80 114 93
79 114 93
80 114 93
80 114 93
80 114 93
80 114 93
80 114 93
80 114 93
80 114 93
80 114 93
80 114 93
80 114 93
80 114 93
80 114 93
80 114 93
80 114 93
80 113 93
80 114 93
80 114 93
80 114 93
80 114 93
80 114 93
79 113 93
80 114 93
80 114 93
80 114 93
80 114 93
79 114 93
80 114 93
80 114 93
80 114 93
80 114 93
80 114 93
80 114 93
80 114 93
80 114 93
80 114 93
80 114 93
80 114 93
79 114 93
80 114 93
80 114 93
80 114 93
80 114 93
80 114 93
80 114 93
80 114 93
79 114 93
80 114 93
80 114 93
80 114 93
79 114 93
80 114 93
80 114 93
79 113 93
80 114 93
80 114 93
80 114 93
80 114 93
79 114 93
80 114 93
79 114 93
80 114 93
80 114 93
80 114 93
79 114 93
80 114 93
80 114 93
80 114 93
80 114 93
79 113 93
80 114 93
80 114 93
79 113 93
80 114 93
79 114 93
80 114 93
80 114 93
80 114 93
80 114 93
79 114 93
80 114 93
80 114 93
80 114 93
79 113 93
80 114 93
80 114 93
80 114 93
80 114 93
80 114 93
80 114 93
80 114 93
79 114 93
80 114 93
80 114 93
79 114 93
80 114 93
80 114 93
79 114 93
80 114 93
80 114 93
80 114 93
80 114 93
80 114 93
80 114 93
80 114 93
80 114 93
79 113 93
79 113 93
79 113 93
80 114 93
80 114 93
80 114 93
80 114 93
80 114 93
80 114 93
79 114 93
80 113 93
79 113 93
79 114 93
80 114 93
80 114 93
80 114 93
80 114 93
80 114 93
79 113 93
80 114 93
80 114 93
80 114 93
80 113 93
80 114 93
79 113 93
79 113 93
80 114 93
79 113 93
79 113 93
79 113 93
80 114 93
79 113 93
80 114 93
79 113 93
79 114 93
80 114 93
79 113 93
80 114 93
79 113 93
80 114 93
79 113 93
79 113 93
79 113 93
80 114 93
79 113 93
79 113 93
80 114 93
79 113 93
79 113 93
79 113 93
79 113 93
79 113 93
79 113 93
80 113 93
80 114 93
79 113 93
80 114 93
80 114 93
79 113 93
79 113 93
80 114 93
79 113 93
79 113 93
79 113 93
79 113 93
80 113 93
79 113 93
79 113 93
79 113 93
79 113 93
80 114 93
79 113 93
79 113 93
79 113 93
79 113 93
79 113 93
79 113 93
79 113 93
79 113 93
79 113 93
79 113 93
79 113 93
79 113 93
79 113 93
80 113 93
79 113 93
79 113 93
79 113 93
79 113 93
79 113 93
79 113 93
79 113 93
79 113 92
79 113 93
79 113 93
79 113 93
79 113 93
79 113 93
79 113 93
79 113 93
79 113 93
79 113 93
79 113 93
79 113 93
79 113 93
79 113 93
79 113 93
79 113 93
80 113 93
79 113 93
79 113 93
79 113 93
79 113 93
79 113 93
79 113 93
79 113 93
79 113 93
79 113 93
79 113 93
79 113 93
79 113 93
79 113 93
79 113 93
79 113 93
79 113 93
79 113 93
79 113 93
79 113 93
79 113 93
79 113 92
79 113 93
79 113 93
79 113 92
79 113 92
79 113 93
79 113 93
79 113 92
79 113 93
79 113 93
79 113 93
79 113 93
80 113 92
79 113 93
79 113 92
79 113 93
79 113 92
79 113 93
79 113 93
79 113 92
79 113 93
79 113 93
79 113 93
79 113 93
79 113 93
79 113 93
79 113 93
79 113 93
79 113 93
79 113 93
79 113 92
79 113 92
79 113 93
79 113 93
79 113 93
79 113 93
79 113 92
79 113 92
79 113 92
78 112 92
79 113 92
79 113 92
79 113 92
79 113 92
79 113 92
79 113 92
79 113 92
79 113 92
79 113 92
79 113 92
79 113 92
79 113 92
79 113 92
79 113 92
79 113 92
79 113 92
79 112 92
79 113 92
79 113 92
79 113 92
79 113 92
79 113 92
79 113 92
79 113 92
79 112 92
79 113 92
79 113 92
79 113 92
79 112 92
79 113 92
79 112 92
78 112 92
79 113 92
79 113 92
79 113 92
79 112 92
79 112 92
79 113 92
79 112 92
79 113 92
79 113 92
79 113 92
78 112 92
79 112 92
79 113 92
78 112 92
79 112 92
79 113 92
78 112 92
78 112 92
79 112 92
79 112 92
79 112 92
78 112 92
79 113 92
79 112 92
79 112 92
78 112 92
78 112 92
78 112 92
79 112 92
78 112 92
79 112 92
79 112 92
79 112 92
79 112 92
79 113 92
78 112 92
79 112 92
79 112 92
78 112 92
78 112 92
79 112 92
79 112 92
79 112 92
78 112 92
79 112 92
78 112 92
78 112 92
78 112 92
78 112 92
78 112 92
78 112 92
78 112 92
79 112 92
78 112 92
78 112 92
78 112 92
78 112 92
78 112 92
78 112 92
78 112 92
78 112 92
78 112 92
78 112 92
78 112 92
78 112 92
78 112 92
78 112 92
78 112 92
79 112 92
78 112 92
79 112 92
78 112 92
78 112 92
78 112 92
78 112 92
78 112 92
78 112 92
78 112 92
78 112 92
78 112 92
78 112 92
78 112 92
78 112 92
78 112 92
78 112 92
78 112 92
78 112 92
78 112 92
78 112 92
78 112 92
78 112 92
78 112 92
78 112 92
78 112 92
78 112 92
78 112 92
78 112 92
78 112 92
78 112 92
78 112 92
78 112 92
78 112 92
78 112 92
78 112 92
78 112 92
78 112 92
78 112 92
78 112 92
78 112 92
78 112 92
78 112 92
78 112 92
78 112 92
78 112 92
77 111 92
78 111 92
78 112 92
78 112 92
78 111 92
78 111 92
78 112 92
78 111 91
78 111 92
78 111 92
78 112 92
78 111 92
78 112 92
78 111 91
78 111 92
78 112 92
78 111 92
78 112 92
78 112 92
78 112 92
78 111 91
78 112 92
78 111 91
78 112 92
78 111 92
78 111 92
78 111 92
78 111 92
78 111 91
78 111 92
78 111 92
78 111 92
78 112 92
78 111 91
77 111 91
78 111 91
78 111 91
78 111 91
78 111 91
78 111 91
78 111 91
77 111 91
78 111 91
78 111 91
78 111 91
78 111 91
78 111 91
78 111 91
78 111 91
78 111 91
77 111 91
77 111 91
78 111 91
78 111 91
78 111 91
78 111 91
78 111 91
77 111 91
77 111 91
78 111 91
77 111 91
78 111 91
80 114 93
80 113 93
80 114 93
80 114 93
80 114 93
80 114 93
80 114 93
80 114 93
80 114 93
79 113 93
80 114 93
80 114 93
79 113 93
80 114 93
80 114 93
80 114 93
79 114 93
79 113 93
79 113 93
80 114 93
80 114 93
80 114 93
80 114 93
80 114 93
80 114 93
80 114 93
80 114 93
80 114 93
80 114 93
80 114 93
79 114 93
80 114 93
80 114 93
80 114 93
80 114 93
80 114 93
80 114 93
80 114 93
80 114 93
80 114 93
80 114 93
80 114 93
80 114 93
80 114 93
80 114 93
80 114 93
80 114 93
80 114 93
79 114 93
80 114 93
80 114 93
80 114 93
80 114 93
80 114 93
80 114 93
80 114 93
80 114 93
80 114 93
80 114 93
80 114 93
80 114 93
80 114 93
79 114 93
80 114 93
80 114 93
80 114 93
80 114 93
80 114 93
80 114 93
80 114 93
80 114 93
80 114 93
80 114 93
80 114 93
80 114 93
80 114 93
80 114 93
80 114 93
80 114 93
80 114 93
80 114 93
80 114 93
80 114 93
80 114 93
80 114 93
80 114 93
80 114 93
80 114 93
80 114 93
80 114 93
80 114 93
80 114 93
80 114 93
80 114 93
80 114 93
80 114 93
80 114 93
80 114 93
80 114 93
80 114 93
80 114 93
80 114 93
80 114 93
80 114 93
80 114 93
80 114 93
80 114 93
79 114 93
79 113 93
80 114 93
80 114 93
80 114 93
80 114 93
80 114 93
80 114 93
80 114 93
80 114 93
80 114 93
80 114 93
80 114 93
80 114 93
80 114 93
80 114 93
80 114 93
79 114 93
80 114 93
80 114 93
80 114 93
80 114 93
80 114 93
79 113 93
80 114 93
80 114 93
80 114 93
80 114 93
80 114 93
79 113 93
80 114 93
80 114 93
80 114 93
80 114 93
80 114 93
80 114 93
80 114 93
80 114 93
80 114 93
80 114 93
80 114 93
80 114 93
80 114 93
80 114 93
80 114 93
80 114 93
80 114 93
80 114 93
80 114 93
80 114 93
80 114 93
80 114 93
80 114 93
80 114 93
80 114 93
80 114 93
80 114 93
80 114 93
80 114 93
80 114 93
80 114 93
80 114 93
80 114 93
79 114 93
80 114 93
80 114 93
80 114 93
80 114 93
80 114 93
80 114 93
80 114 93
80 114 93
80 114 93
80 114 93
80 114 93
80 114 93
80 114 93
80 114 93
80 114 93
80 114 93
80 114 93
80 114 93
80 114 93
80 114 93
80 114 93
80 114 93
80 114 93
80 114 93
79 113 93
80 114 93
80 114 93
79 113 93
80 114 93
80 114 93
80 114 93
80 114 93
80 114 93
80 114 93
80 114 93
80 114 93
80 114 93
80 114 93
80 114 93
80 114 93
80 114 93
80 114 93
80 114 93
80 114 93
80 114 93
80 114 93
80 114 93
80 114 93
80 114 93
79 114 93
80 114 93
80 114 93
80 114 93
80 114 93
79 114 93
79 113 93
80 114 93
80 114 93
80 114 93
80 114 93
80 114 93
80 114 93
80 114 93
80 114 93
80 114 93
80 114 93
80 114 93
80 114 93
80 114 93
79 114 93
80 114 93
80 114 93
80 113 93
80 114 93
80 114 93
80 114 93
80 114 93
79 114 93
80 114 93
80 114 93
80 114 93
79 113 93
80 114 93
80 114 93
80 114 93
80 114 93
80 114 93
80 114 93
80 114 93
79 113 93
80 114 93
79 113 93
80 113 93
80 114 93
80 114 93
79 114 93
80 114 93
80 114 93
80 114 93
80 114 93
79 114 93
79 113 93
80 114 93
79 113 93
80 114 93
80 114 93
80 114 93
80 113 93
80 114 93
79 113 93
80 113 93
80 114 93
79 113 93
80 114 93
80 113 93
79 113 93
80 114 93
80 114 93
79 113 93
80 114 93
79 113 93
80 114 93
80 114 93
79 113 93
79 113 93
79 113 93
79 113 93
79 113 93
80 114 93
79 113 93
79 113 93
79 113 93
79 113 93
79 113 93
79 113 93
79 113 93
79 113 93
79 113 93
80 114 93
79 113 93
79 113 93
79 113 93
79 113 93
79 113 93
79 113 93
79 113 93
79 113 93
80 114 93
79 113 93
80 114 93
79 113 93
79 113 93
79 113 93
79 113 93
80 113 93
79 113 93
80 113 93
79 113 93
79 113 93
79 113 93
79 113 93
80 113 93
79 113 93
79 113 93
79 113 93
79 113 93
79 113 93
80 113 93
79 113 93
79 113 93
79 113 93
79 113 93
79 113 93
79 113 93
79 113 93
79 113 93
79 113 93
79 113 93
79 113 93
79 113 93
79 113 93
79 113 93
79 113 93
79 113 93
79 113 93
79 113 93
79 113 93
79 113 93
79 113 93
79 113 93
80 113 93
79 113 93
79 113 93
79 113 93
79 113 93
79 113 93
79 113 93
79 113 93
79 113 93
79 113 93
79 113 92
79 113 93
79 113 93
79 113 93
79 113 92
79 113 93
79 113 93
79 113 93
79 113 93
79 113 93
79 113 93
79 113 93
79 113 93
79 113 93
79 113 93
79 113 93
79 113 92
79 113 93
79 113 93
79 113 93
79 113 93
79 113 93
79 113 93
79 113 93
79 113 93
79 113 93
79 113 93
79 113 92
79 113 92
79 113 92
79 113 92
79 113 92
79 113 92
79 113 92
79 113 92
79 113 92
79 113 92
79 113 92
79 113 92
79 113 92
79 113 92
79 113 92
79 113 92
79 113 92
79 113 92
79 113 92
79 113 92
79 113 92
79 113 92
79 113 92
79 113 92
79 113 92
79 113 92
79 113 92
78 112 92
79 113 92
79 112 92
79 112 92
79 113 92
79 112 92
79 113 92
79 113 92
79 113 92
79 112 92
79 113 92
79 112 92
78 112 92
79 112 92
79 112 92
79 113 92
79 112 92
78 112 92
79 113 92
78 112 92
78 112 92
79 112 92
78 112 92
79 112 92
79 112 92
78 112 92
79 112 92
79 112 92
79 112 92
78 112 92
79 112 92
79 113 92
79 112 92
79 113 92
79 112 92
79 112 92
78 112 92
79 112 92
78 112 92
78 112 92
79 112 92
79 112 92
79 112 92
78 112 92
79 112 92
78 112 92
79 112 92
78 112 92
78 112 92
79 113 92
79 112 92
78 112 92
79 112 92
78 112 92
78 112 92
78 112 92
79 112 92
78 112 92
78 112 92
78 112 92
79 112 92
78 112 92
78 112 92
78 112 92
79 112 92
79 112 92
79 112 92
78 112 92
78 112 92
78 112 92
78 112 92
78 112 92
78 112 92
78 112 92
78 112 92
78 112 92
78 112 92
78 112 92
78 112 92
78 112 92
78 112 92
78 112 92
78 112 92
78 112 92
78 112 92
78 112 92
78 112 92
78 112 92
78 112 92
78 112 92
78 112 92
78 112 92
78 112 92
78 112 92
78 112 92
78 112 92
78 112 92
78 112 92
78 112 92
78 112 92
78 112 92
78 112 92
78 111 92
78 112 92
78 112 92
78 112 92
78 111 92
78 112 92
78 112 92
78 112 92
78 112 92
78 112 92
78 112 92
78 112 92
78 112 92
78 112 92
78 111 92
78 112 92
78 112 92
78 112 92
78 111 92
78 112 92
78 111 92
78 112 92
78 112 92
78 112 92
78 112 92
78 112 92
78 112 92
78 112 92
78 111 92
78 111 92
78 112 92
78 111 92
78 111 92
78 111 92
78 111 92
78 112 92
78 112 92
78 111 92
78 111 92
78 111 92
78 111 92
78 111 92
78 112 92
78 111 92
78 112 92
78 112 92
78 111 91
78 111 92
78 112 92
78 111 92
78 111 92
78 111 91
78 111 91
78 112 91
78 111 91
78 111 91
78 111 91
78 111 91
78 111 91
78 111 91
78 111 91
78 111 91
78 111 91
78 111 91
78 111 91
78 111 91
78 111 91
78 111 91
78 111 91
77 111 91
78 111 91
78 111 91
78 111 91
80 114 93
80 114 93
80 114 93
80 114 93
80 114 93
80 114 93
80 114 93
80 114 93
80 114 93
80 114 93
80 114 93
80 114 93
80 114 93
80 114 93
80 114 93
80 114 93
79 114 93
80 114 93
80 114 93
80 114 93
80 114 93
80 114 93
80 114 93
80 114 93
80 114 93
80 114 93
80 114 93
80 114 93
80 114 93
80 114 93
80 114 93
80 114 93
80 114 93
79 114 93
80 114 93
80 114 93
80 114 93
80 114 93
80 114 93
80 114 93
80 114 93
80 114 93
80 114 93
80 114 93
80 114 93
80 114 93
80 114 93
80 114 93
80 114 93
80 114 93
80 114 93
80 114 93
80 114 93
80 114 93
80 114 93
79 114 93
80 114 93
80 114 93
80 114 93
80 114 93
80 114 93
80 114 93
80 114 93
80 114 93
80 114 93
80 114 93
80 114 93
80 114 93
80 114 93
80 114 93
80 114 93
80 114 93
80 114 93
80 114 93
80 114 93
80 114 93
80 114 93
80 114 93
80 114 93
80 114 93
80 114 93
80 114 93
80 114 93
80 114 93
80 114 93
80 114 93
80 114 93
80 114 93
80 114 93
80 114 93
80 114 93
80 114 93
79 114 93
80 114 93
80 114 93
80 114 93
80 114 93
80 114 93
80 114 93
80 114 93
80 114 93
80 114 93
80 114 93
80 114 93
80 114 93
80 114 93
80 114 93
80 114 93
80 114 93
80 114 93
80 114 93
80 114 93
80 114 93
80 114 93
80 114 93
80 114 93
80 114 93
80 114 93
80 114 93
80 114 93
80 114 93
80 114 93
80 114 93
80 114 93
80 114 93
80 114 93
80 114 93
80 114 93
80 114 93
80 114 93
80 114 93
79 114 93
80 114 93
80 114 93
80 114 93
80 114 93
80 114 93
80 114 93
80 114 93
80 114 93
80 114 93
80 114 93
80 114 93
80 114 93
80 114 93
80 114 93
80 114 93
80 114 93
80 114 93
80 114 93
80 114 93
80 114 93
80 114 93
80 114 93
79 114 93
80 114 93
80 114 93
80 114 93
80 114 93
80 114 93
80 114 93
80 114 93
80 114 93
80 114 93
80 114 93
80 114 93
80 114 93
80 114 93
80 114 93
80 114 93
80 114 93
80 114 93
80 114 93
80 114 93
80 114 93
80 114 93
79 114 93
80 114 93
80 114 93
80 114 93
80 114 93
80 114 93
80 114 93
80 114 93
80 114 93
80 114 93
80 114 93
80 114 93
80 114 93
80 114 93
80 114 93
80 114 93
80 114 93
80 114 93
80 114 93
80 114 93
80 114 93
80 114 93
80 114 93
80 114 93
79 114 93
80 114 93
80 114 93
80 114 93
80 114 93
80 114 93
80 114 93
80 114 93
80 114 93
80 114 93
80 114 93
80 114 93
80 114 93
80 114 93
80 114 93
80 114 93
80 114 93
80 114 93
80 114 93
80 114 93
80 114 93
80 114 93
80 114 93
80 114 93
80 114 93
80 114 93
79 114 93
79 114 93
80 114 93
80 114 93
80 114 93
80 114 93
80 114 93
80 114 93
80 114 93
80 114 93
80 114 93
80 114 93
80 114 93
80 114 93
80 114 93
80 114 93
80 114 93
80 114 93
80 114 93
80 114 93
80 114 93
80 114 93
80 114 93
79 114 93
79 114 93
79 114 93
79 114 93
80 114 93
80 114 93
80 114 93
80 114 93
80 114 93
79 114 93
80 114 93
80 114 93
79 113 93
80 114 93
80 114 93
80 114 93
79 114 93
79 113 93
80 114 93
80 114 93
79 114 93
80 114 93
80 113 93
80 114 93
80 114 93
80 114 93
79 114 93
79 113 93
79 114 93
80 114 93
80 114 93
80 114 93
79 113 93
80 114 93
79 113 93
80 114 93
80 114 93
79 113 93
80 114 93
80 114 93
79 113 93
80 114 93
80 114 93
80 114 93
79 113 93
79 113 93
80 114 93
80 114 93
79 113 93
80 114 93
79 113 93
79 113 93
80 114 93
80 114 93
79 113 93
80 114 93
79 113 93
79 113 93
79 113 93
80 114 93
79 113 93
79 113 93
79 113 93
79 113 93
79 113 93
79 113 93
79 113 93
79 113 93
79 113 93
79 113 93
80 114 93
79 113 93
79 113 93
79 113 93
79 113 93
79 113 93
80 113 93
79 113 93
79 113 93
79 113 93
79 113 93
79 113 93
79 113 93
79 113 93
80 114 93
79 113 93
79 113 93
79 113 93
79 113 93
79 113 93
79 113 93
79 113 93
79 113 93
79 113 93
79 113 93
79 113 93
79 113 93
79 113 93
79 113 93
79 113 93
79 113 93
79 113 93
79 113 93
79 113 93
79 113 93
79 113 93
79 113 93
79 113 93
79 113 93
79 113 93
79 113 93
79 113 93
79 113 93
79 113 93
79 113 93
79 113 93
79 113 93
79 113 93
79 113 93
79 113 93
79 113 93
79 113 93
79 113 93
79 113 93
79 113 93
79 113 93
79 113 93
79 113 93
79 113 93
79 113 93
79 113 92
79 113 93
79 113 93
79 113 92
79 113 93
79 113 93
79 113 93
79 113 93
79 113 93
79 113 93
79 113 93
79 113 92
79 113 93
79 113 93
79 113 93
79 113 93
79 113 93
79 113 93
79 113 93
79 113 93
79 113 93
79 113 93
79 113 93
79 113 92
79 113 92
79 113 93
79 113 93
79 113 93
79 113 93
79 113 92
79 113 92
79 113 92
79 113 92
79 113 92
79 113 92
79 113 92
79 113 92
78 112 92
79 113 92
79 112 92
79 113 92
79 113 92
79 113 92
79 113 92
79 113 92
79 113 92
79 113 92
79 113 92
79 113 92
79 113 92
79 113 92
79 113 92
79 113 92
79 113 92
79 113 92
79 113 92
79 112 92
79 112 92
78 112 92
79 113 92
79 113 92
79 113 92
79 113 92
79 112 92
79 112 92
79 113 92
79 113 92
79 113 92
79 112 92
79 112 92
79 113 92
78 112 92
79 112 92
79 112 92
78 112 92
79 112 92
79 113 92
79 113 92
79 113 92
78 112 92
79 113 92
79 112 92
79 112 92
78 112 92
79 113 92
79 112 92
78 112 92
79 112 92
78 112 92
79 113 92
79 112 92
79 112 92
79 112 92
79 112 92
79 112 92
78 112 92
79 112 92
78 112 92
78 112 92
79 112 92
78 112 92
79 112 92
78 112 92
78 112 92
79 112 92
79 112 92
79 112 92
78 112 92
79 112 92
78 112 92
78 112 92
78 112 92
79 112 92
78 112 92
78 112 92
79 112 92
78 112 92
78 112 92
79 112 92
78 112 92
78 112 92
79 112 92
78 112 92
78 112 92
78 112 92
78 112 92
78 112 92
78 112 92
78 112 92
79 112 92
78 112 92
78 112 92
78 112 92
78 112 92
78 112 92
78 112 92
78 112 92
78 112 92
78 112 92
78 112 92
78 112 92
78 112 92
78 112 92
78 112 92
78 112 92
78 112 92
79 112 92
78 112 92
78 112 92
79 112 92
78 112 92
79 112 92
78 112 92
78 112 92
78 112 92
78 112 92
78 112 92
78 112 92
78 112 92
78 112 92
78 112 92
78 112 92
78 112 92
78 112 92
78 112 92
78 112 92
78 112 92
78 112 92
78 112 92
78 112 92
78 112 92
78 112 92
78 112 92
78 112 92
78 112 92
78 111 92
78 112 92
78 112 92
78 112 92
78 112 92
78 112 92
78 111 92
78 112 92
78 111 92
78 111 92
78 111 92
78 111 92
78 112 92
78 112 92
78 111 92
78 111 92
78 112 92
78 111 92
78 111 92
78 111 92
78 111 92
78 111 91
78 111 92
78 111 92
78 111 92
78 111 92
78 111 92
77 111 92
78 111 92
78 111 92
78 111 92
78 111 92
78 111 91
78 111 91
78 111 91
78 111 91
78 111 91
77 111 91
78 111 91
78 111 91
78 111 91
78 111 91
78 111 91
78 111 91
78 111 91
77 111 91
80 114 93
80 114 93
80 114 93
80 114 93
80 114 93
79 114 93
80 113 93
80 114 93
80 114 93
80 114 93
80 114 93
79 114 93
80 114 93
79 113 93
80 114 93
80 114 93
80 114 93
80 114 93
80 114 93
80 114 93
80 114 93
80 114 93
80 114 93
80 114 93
80 114 93
80 114 93
80 114 93
80 114 93
80 114 93
80 114 93
80 114 93
80 114 93
80 114 93
80 114 93
80 114 93
80 114 93
80 114 93
80 114 93
80 114 93
80 114 93
80 114 93
80 114 93
80 114 93
80 114 93
80 114 93
80 114 93
80 114 93
80 114 93
80 114 93
80 114 93
80 114 93
80 114 93
80 114 93
80 114 93
80 114 93
80 114 93
80 114 93
80 114 93
80 114 93
80 114 93
80 114 93
80 114 93
80 114 93
80 114 93
80 114 93
80 114 93
80 114 93
80 114 93
80 114 93
80 114 93
80 114 93
80 114 93
80 114 93
80 114 93
80 114 93
80 114 93
80 114 93
80 114 93
80 114 93
80 114 93
80 114 93
80 114 93
80 114 93
80 114 93
80 114 93
80 114 93
80 114 93
80 114 93
80 114 93
80 114 93
80 114 93
80 114 93
80 114 93
80 114 93
80 114 93
80 114 93
80 114 93
80 114 93
80 114 93
80 114 93
80 114 93
80 114 93
80 114 93
80 114 93
80 114 93
80 114 93
80 114 93
80 114 93
80 114 93
80 114 93
80 114 93
80 114 93
80 114 93
80 114 93
80 114 93
80 114 93
80 114 93
80 114 93
80 114 93
80 114 93
80 114 93
80 114 93
80 114 93
80 114 93
80 114 93
80 114 93
80 114 93
80 114 93
80 114 93
80 114 93
80 114 93
80 114 93
80 114 93
80 114 93
80 114 93
80 114 93
80 114 93
80 114 93
80 114 93
79 114 93
80 114 93
80 114 93
80 114 93
80 114 93
81 115 93
80 114 93
80 114 93
80 114 93
80 114 93
80 114 93
80 114 93
80 114 93
80 114 93
80 114 93
80 114 93
80 114 93
80 114 93
80 114 93
80 114 93
80 114 93
80 114 93
80 114 93
80 114 93
80 114 93
80 114 93
80 114 93
80 114 93
80 114 93
80 114 93
80 114 93
80 114 93
80 114 93
80 114 93
80 114 93
80 114 93
80 114 93
80 114 93
80 114 93
80 114 93
80 114 93
80 114 93
80 114 93
80 114 93
80 114 93
80 114 93
80 114 93
80 114 93
80 114 93
80 114 93
80 114 93
80 114 93
80 114 93
80 114 93
80 114 93
80 114 93
80 114 93
80 114 93
80 114 93
80 114 93
80 114 93
80 114 93
80 114 93
80 114 93
80 114 93
80 114 93
80 114 93
80 114 93
80 114 93
80 114 93
80 114 93
80 114 93
80 114 93
80 114 93
80 114 93
80 114 93
80 114 93
80 114 93
80 114 93
80 114 93
80 114 93
80 114 93
80 114 93
80 114 93
80 114 93
80 114 93
80 114 93
80 114 93
80 114 93
80 114 93
80 114 93
80 114 93
80 114 93
79 114 93
80 114 93
80 114 93
80 114 93
80 114 93
80 114 93
79 114 93
80 114 93
80 114 93
79 114 93
80 114 93
80 114 93
80 114 93
80 114 93
80 114 93
80 114 93
80 114 93
80 114 93
80 114 93
80 114 93
80 114 93
80 114 93
80 114 93
80 114 93
80 114 93
80 114 93
80 114 93
80 114 93
79 113 93
80 113 93
80 114 93
80 114 93
80 114 93
80 114 93
80 114 93
80 114 93
80 114 93
80 114 93
80 114 93
80 114 93
80 114 93
80 114 93
80 114 93
80 114 93
80 114 93
80 114 93
79 114 93
80 114 93
79 114 93
79 113 93
80 114 93
80 113 93
80 114 93
80 114 93
80 114 93
79 113 93
79 113 93
79 113 93
79 114 93
79 113 93
80 114 93
80 114 93
80 114 93
79 114 93
80 114 93
80 114 93
80 114 93
80 114 93
80 114 93
80 114 93
79 113 93
80 113 93
80 114 93
79 113 93
79 113 93
79 113 93
80 114 93
80 114 93
79 113 93
79 113 93
79 113 93
80 114 93
80 114 93
79 113 93
79 113 93
79 113 93
80 114 93
79 113 93
79 113 93
79 113 93
79 113 93
79 113 93
79 113 93
79 113 93
79 113 93
79 113 93
79 113 93
80 114 93
79 113 93
79 113 93
79 113 93
79 113 93
79 113 93
79 113 93
80 113 93
79 113 93
80 114 93
79 113 93
79 113 93
79 113 93
79 113 93
79 113 93
79 113 93
79 113 93
79 113 93
79 113 93
80 114 93
79 113 93
79 113 93
79 113 93
80 113 93
79 113 93
79 113 93
79 113 93
79 113 93
79 113 93
79 113 93
79 113 93
80 113 93
79 113 93
79 113 92
80 113 93
79 113 93
80 113 93
79 113 93
79 113 93
79 113 93
79 112 92
79 113 93
79 113 93
79 113 93
79 113 93
79 113 93
79 113 93
79 113 93
79 113 93
79 113 93
79 113 93
79 113 93
79 113 93
79 113 93
79 113 93
79 113 93
79 113 92
79 113 92
79 113 93
79 113 93
79 113 92
79 113 93
79 113 93
79 113 93
79 113 92
79 113 93
79 113 93
79 113 93
79 113 93
79 113 93
79 113 93
79 113 93
79 113 93
79 113 92
79 113 93
79 113 93
79 113 93
79 113 93
79 113 93
79 113 93
79 113 93
79 113 93
79 113 93
79 113 93
79 113 93
79 113 93
79 113 93
79 113 92
79 113 93
79 113 92
79 113 92
79 113 92
79 113 92
79 113 92
79 113 92
79 113 92
79 113 92
79 113 92
79 113 92
79 113 92
79 113 92
79 113 92
79 113 92
79 112 92
79 113 92
79 113 92
79 113 92
79 113 92
79 113 92
79 113 92
79 112 92
79 113 92
79 113 92
79 113 92
79 113 92
78 112 92
79 113 92
79 113 92
79 113 92
78 112 92
79 113 92
79 113 92
79 112 92
79 113 92
79 113 92
79 113 92
79 113 92
78 112 92
79 113 92
79 112 92
79 112 92
79 112 92
79 112 92
79 112 92
78 112 92
79 113 92
78 112 92
79 113 92
78 112 92
79 112 92
79 112 92
79 112 92
79 113 92
79 112 92
78 112 92
79 113 92
79 112 92
79 112 92
79 112 92
79 112 92
78 112 92
78 112 92
79 112 92
79 112 92
78 112 92
78 112 92
79 113 92
79 112 92
78 112 92
79 112 92
79 112 92
78 112 92
79 112 92
78 112 92
78 112 92
79 112 92
78 112 92
79 112 92
78 112 92
78 112 92
78 112 92
78 112 92
78 112 92
78 112 92
78 112 92
78 112 92
78 112 92
78 112 92
78 112 92
78 112 92
78 112 92
78 112 92
78 112 92
79 112 92
78 112 92
78 112 92
78 112 92
78 112 92
78 112 92
78 112 92
78 112 92
78 112 92
78 112 92
78 112 92
78 112 92
78 112 92
78 112 92
78 112 92
78 112 92
78 112 92
78 112 92
78 112 92
78 112 92
78 112 92
78 112 92
78 112 92
78 112 92
78 112 92
78 112 92
78 112 92
78 112 92
78 112 92
78 112 92
78 112 92
78 112 92
78 112 92
78 112 92
78 112 92
78 112 92
78 112 92
78 111 92
78 112 92
78 112 92
78 112 92
78 112 92
78 112 92
78 112 92
78 112 92
78 112 92
78 112 92
78 112 92
78 112 92
78 112 92
78 112 92
78 111 92
78 112 92
78 112 92
78 111 92
78 111 92
78 111 92
78 111 91
78 112 92
78 111 92
78 111 92
78 111 92
78 112 92
78 111 92
78 111 92
78 111 91
78 112 92
78 111 92
78 111 92
78 111 92
78 111 92
78 111 91
77 111 92
78 111 92
78 112 92
78 111 92
77 111 92
78 111 92
78 111 92
78 111 92
77 111 92
78 111 91
78 111 91
77 111 91
78 111 91
78 111 91
78 111 91
78 111 91
80 114 93
80 114 93
80 114 93
80 114 93
80 114 93
80 114 93
80 114 93
80 114 93
80 114 93
80 114 93
80 114 93
79 114 93
80 114 93
80 114 93
80 114 93
80 114 93
80 114 93
80 114 93
80 114 93
80 114 93
80 114 93
80 114 93
80 114 93
80 114 93
80 114 93
80 114 93
80 114 93
80 114 93
80 114 93
80 114 93
80 114 93
80 114 93
80 114 93
80 114 93
80 114 93
80 114 93
80 114 93
80 114 93
80 114 93
80 114 93
80 114 93
80 114 93
80 114 93
80 114 93
80 114 93
80 114 93
80 114 93
80 114 93
80 114 93
80 114 93
80 114 93
80 114 93
80 114 93
80 114 93
80 114 93
80 114 93
80 114 93
80 114 93
80 114 93
80 114 93
80 114 93
80 114 93
80 114 93
80 114 93
80 114 93
80 114 93
80 114 93
80 114 93
80 114 93
80 114 93
80 114 93
80 114 93
80 114 93
80 114 93
80 114 93
80 114 93
80 114 93
80 114 93
80 114 93
80 114 93
80 114 93
80 114 93
80 114 93
80 114 93
80 114 93
80 114 93
80 114 93
80 114 93
80 114 93
80 114 93
80 114 93
80 114 93
80 114 93
80 114 93
80 114 93
80 114 93
80 114 93
80 114 93
80 114 93
80 114 93
80 114 93
80 114 93
80 114 93
80 114 93
80 114 93
80 114 93
80 114 93
80 114 93
80 114 93
80 114 93
80 114 93
80 114 93
80 114 93
80 114 93
80 114 93
80 114 93
80 114 93
80 114 93
80 114 93
80 114 93
80 114 93
80 114 93
80 114 93
80 114 93
80 114 93
80 114 93
80 114 93
80 114 93
80 114 93
80 114 93
80 114 93
80 114 93
80 114 93
80 114 93
80 114 93
80 114 93
80 114 93
80 114 93
80 114 93
80 114 93
80 114 93
80 114 93
80 114 93
80 114 93
80 114 93
80 114 93
80 114 93
80 114 93
80 114 93
80 114 93
80 114 93
80 114 93
80 114 93
80 114 93
80 114 93
80 114 93
80 114 93
80 114 93
80 114 93
80 114 93
80 114 93
80 114 93
80 114 93
80 114 93
80 114 93
80 114 93
80 114 93
80 114 93
80 114 93
80 114 93
80 114 93
80 114 93
80 114 93
80 114 93
80 114 93
79 114 93
80 114 93
80 114 93
80 114 93
80 114 93
80 114 93
80 114 93
80 114 93
80 114 93
80 114 93
80 114 93
80 114 93
80 114 93
80 114 93
80 114 93
80 114 93
80 114 93
80 114 93
80 114 93
80 114 93
80 114 93
80 114 93
80 114 93
80 114 93
80 114 93
80 114 93
80 114 93
80 114 93
80 114 93
80 114 93
80 114 93
80 114 93
80 114 93
80 114 93
80 114 93
80 114 93
80 114 93
80 114 93
80 114 93
80 114 93
80 114 93
80 114 93
80 114 93
80 114 93
80 114 93
80 114 93
80 114 93
80 114 93
80 114 93
80 114 93
80 114 93
79 113 93
80 114 93
80 114 93
80 114 93
80 114 93
80 114 93
80 114 93
80 114 93
79 114 93
80 114 93
80 114 93
80 114 93
80 114 93
80 114 93
80 114 93
80 114 93
79 113 93
80 114 93
80 114 93
79 114 93
80 114 93
80 114 93
80 114 93
80 114 93
80 114 93
80 114 93
80 114 93
80 114 93
80 114 93
80 114 93
80 114 93
79 114 93
80 114 93
79 113 93
80 114 93
79 114 93
80 114 93
80 114 93
80 114 93
80 114 93
80 114 93
79 114 93
80 114 93
79 114 93
80 114 93
80 114 93
80 114 93
79 114 93
80 114 93
80 114 93
80 114 93
80 114 93
79 113 93
79 113 93
80 114 93
80 114 93
80 114 93
79 113 93
80 114 93
80 114 93
80 114 93
79 114 93
80 114 93
80 114 93
80 114 93
80 114 93
79 113 93
79 113 93
80 114 93
79 114 93
80 114 93
79 113 93
80 114 93
80 114 93
79 113 93
80 114 93
79 114 93
80 114 93
79 113 93
80 114 93
80 114 93
80 114 93
80 114 93
80 114 93
79 114 93
80 114 93
80 114 93
80 114 93
80 114 93
80 114 93
80 114 93
80 114 93
80 114 93
80 114 93
79 113 93
80 114 93
80 114 93
79 114 93
79 113 93
79 113 93
79 113 93
79 113 93
80 114 93
79 113 93
79 113 93
80 113 93
80 114 93
80 114 93
79 113 93
80 114 93
79 113 93
79 113 93
79 113 93
79 113 93
79 113 93
79 113 93
79 113 93
80 113 93
79 113 93
80 114 93
79 113 93
79 113 93
79 113 93
80 113 93
79 113 93
79 113 93
79 113 93
79 113 93
79 113 93
79 113 93
79 113 93
79 113 93
80 114 93
79 113 93
79 113 93
80 113 93
79 113 93
79 113 93
79 113 93
79 113 93
79 113 93
79 113 93
79 113 93
79 113 93
79 113 93
79 113 93
79 113 93
79 113 93
79 113 93
79 113 93
79 113 93
79 113 92
79 113 93
79 113 93
79 113 93
79 113 93
79 113 93
79 113 93
79 113 93
79 113 93
79 113 93
79 113 93
79 113 92
79 113 93
79 113 93
79 113 93
79 113 93
79 113 93
79 113 93
79 113 93
79 113 93
79 113 93
79 113 93
79 113 93
79 113 93
79 113 92
79 113 93
79 113 92
79 113 92
79 113 93
79 113 93
79 113 93
79 113 93
79 113 93
79 113 93
79 113 93
79 113 93
79 113 93
79 113 93
79 113 93
79 113 92
79 113 92
79 113 93
79 113 93
79 113 93
79 113 93
79 113 92
79 113 93
79 113 92
79 113 92
79 113 93
79 113 93
79 113 92
79 113 92
79 113 92
79 113 92
79 113 92
79 113 92
79 113 92
79 113 92
79 113 92
79 113 92
79 113 92
79 113 92
79 113 92
79 113 92
79 113 92
79 113 92
79 113 92
79 113 92
79 113 92
79 113 92
79 113 92
79 113 92
79 113 92
79 113 92
79 112 92
79 113 92
79 112 92
79 113 92
79 113 92
79 113 92
79 113 92
79 113 92
79 113 92
78 112 92
78 112 92
79 113 92
78 112 92
79 112 92
79 112 92
79 113 92
79 113 92
79 113 92
79 112 92
79 112 92
79 112 92
78 112 92
78 112 92
79 113 92
79 113 92
79 112 92
79 113 92
78 112 92
79 112 92
79 112 92
78 112 92
79 112 92
79 112 92
79 112 92
78 112 92
78 112 92
79 112 92
79 112 92
78 112 92
79 112 92
78 112 92
78 112 92
78 112 92
78 112 92
79 112 92
78 112 92
78 112 92
79 112 92
79 112 92
78 112 92
78 112 92
78 112 92
78 112 92
79 112 92
78 112 92
78 112 92
78 112 92
79 112 92
78 112 92
78 112 92
78 112 92
78 112 92
78 112 92
78 112 92
78 112 92
78 112 92
78 112 92
78 112 92
78 112 92
78 112 92
78 112 92
78 112 92
78 112 92
78 112 92
78 112 92
78 112 92
78 112 92
78 112 92
79 112 92
78 112 92
78 112 92
78 112 92
78 112 92
78 112 92
78 112 92
78 112 92
78 112 92
78 112 92
78 112 92
78 112 92
78 112 92
78 112 92
78 112 92
78 112 92
78 112 92
78 112 92
78 112 92
78 112 92
78 112 92
78 112 92
78 112 92
78 112 92
79 112 92
78 112 92
78 112 92
78 112 92
78 111 92
78 112 92
78 112 92
78 112 92
78 112 92
78 112 92
78 112 92
78 112 92
78 112 92
78 112 92
78 111 92
78 112 92
78 112 92
78 111 92
78 112 92
78 111 92
78 112 92
78 112 92
78 112 92
78 111 92
78 112 92
78 111 92
78 111 92
78 111 92
78 112 92
78 112 92
78 111 92
78 111 92
78 112 92
78 111 92
78 111 92
78 111 92
78 111 92
78 111 92
78 111 92
78 111 92
78 111 92
78 111 92
78 111 92
78 111 91
77 111 92
77 111 91
80 114 93
80 114 93
80 114 93
80 114 93
80 114 93
80 114 93
80 114 93
80 114 93
80 114 93
80 114 93
80 114 93
80 114 93
80 114 93
80 114 93
80 114 93
80 114 93
80 114 93
80 114 93
80 114 93
80 114 93
80 114 93
80 114 93
80 114 93
80 114 93
80 114 93
80 114 93
80 114 93
80 114 93
80 114 93
80 114 93
80 114 93
80 114 93
80 114 93
80 114 93
80 114 93
80 114 93
80 114 93
80 114 93
80 114 93
80 114 93
80 114 93
80 114 93
80 114 93
80 114 93
80 114 93
80 114 93
80 114 93
80 114 93
80 114 93
80 114 93
80 114 93
80 114 93
80 114 93
80 114 93
80 114 93
80 114 93
80 114 93
80 114 93
80 114 93
80 114 93
80 114 93
80 114 93
80 114 93
80 114 93
80 114 93
80 114 93
80 114 93
80 114 93
80 114 93
80 114 93
80 114 93
80 114 93
80 114 93
80 114 93
80 114 93
80 114 93
80 114 93
80 114 93
80 114 93
80 114 93
80 114 93
80 114 93
80 114 93
80 114 93
80 114 93
80 114 93
80 114 93
80 114 93
80 114 93
80 114 93
80 114 93
80 114 93
80 114 93
80 114 93
80 114 93
80 114 93
80 114 93
80 114 93
80 114 93
80 114 93
80 114 93
80 114 93
80 114 93
80 114 93
80 114 93
80 114 93
80 114 93
80 114 93
80 114 93
80 114 93
80 114 93
80 114 93
80 114 93
80 114 93
80 114 93
80 114 93
80 114 93
80 114 93
80 114 93
80 114 93
80 114 93
80 114 93
80 114 93
80 114 93
80 114 93
80 114 93
80 114 93
80 114 93
80 114 93
80 114 93
80 114 93
80 114 93
80 114 93
80 114 93
80 114 93
80 114 93
80 114 93
80 114 93
80 114 93
80 114 93
80 114 93
80 114 93
80 114 93
80 114 93
80 114 93
80 114 93
80 114 93
80 114 93
80 114 93
80 114 93
80 114 93
80 114 93
80 114 93
80 114 93
80 114 93
80 114 93
80 114 93
80 114 93
80 114 93
80 114 93
80 114 93
80 114 93
80 114 93
80 114 93
80 114 93
80 114 93
80 114 93
80 114 93
80 114 93
80 114 93
80 114 93
80 114 93
80 114 93
80 114 93
80 114 93
80 114 93
80 114 93
80 114 93
80 114 93
80 114 93
80 114 93
80 114 93
80 114 93
80 114 93
80 114 93
80 114 93
80 114 93
80 114 93
80 114 93
80 114 93
80 114 93
80 114 93
80 114 93
80 114 93
80 114 93
80 114 93
80 114 93
80 114 93
80 114 93
80 114 93
80 114 93
80 114 93
80 114 93
80 114 93
80 114 93
80 114 93
80 114 93
80 114 93
80 114 93
80 114 93
80 114 93
80 114 93
80 114 93
80 114 93
80 114 93
80 114 93
80 114 93
80 114 93
80 114 93
80 114 93
80 114 93
80 114 93
80 114 93
80 114 93
80 114 93
80 114 93
80 114 93
80 114 93
80 114 93
80 114 93
80 114 93
80 114 93
80 114 93
80 114 93
80 114 93
80 114 93
80 114 93
80 114 93
80 114 93
80 114 93
80 114 93
80 114 93
80 114 93
80 114 93
80 114 93
80 114 93
80 114 93
80 114 93
80 114 93
80 114 93
80 114 93
80 114 93
80 114 93
80 114 93
80 114 93
80 114 93
80 114 93
80 114 93
80 114 93
80 114 93
80 114 93
79 114 93
80 114 93
80 114 93
80 114 93
80 114 93
80 114 93
80 114 93
80 114 93
80 114 93
80 114 93
80 114 93
80 114 93
80 114 93
79 114 93
80 114 93
80 114 93
80 114 93
80 114 93
80 114 93
80 114 93
79 113 93
80 114 93
80 114 93
80 114 93
80 114 93
80 114 93
80 114 93
80 114 93
80 114 93
80 114 93
79 114 93
80 114 93
80 114 93
80 114 93
80 114 93
80 114 93
80 114 93
80 114 93
80 114 93
80 114 93
80 114 93
80 114 93
80 114 93
80 114 93
79 113 93
79 113 93
80 114 93
80 114 93
79 114 93
80 114 93
80 114 93
80 114 93
80 114 93
80 114 93
79 113 93
80 114 93
80 114 93
79 113 93
79 113 93
79 113 93
80 114 93
80 114 93
79 114 93
79 113 93
79 113 93
80 114 93
80 114 93
80 113 93
80 113 93
79 114 93
79 113 93
80 114 93
80 114 93
80 114 93
79 113 93
79 113 93
80 114 93
80 114 93
79 113 93
80 114 93
80 114 93
79 113 93
79 113 93
79 113 93
79 113 93
79 113 93
79 113 93
79 113 93
79 113 93
80 114 93
80 113 93
79 113 93
80 113 93
80 114 93
79 113 93
80 113 93
80 113 93
79 113 93
79 113 93
79 113 93
79 113 93
79 113 93
79 113 93
79 113 93
80 113 93
80 114 93
79 113 93
79 113 93
79 113 93
79 113 93
79 113 93
80 113 93
79 113 93
79 113 93
79 113 93
79 113 93
79 113 93
79 113 93
79 113 93
80 113 93
79 113 93
79 113 93
79 113 93
79 113 93
79 113 93
79 113 93
79 113 93
79 113 93
79 113 93
79 113 93
79 113 93
79 113 93
79 113 93
79 113 93
79 113 93
79 113 93
79 113 93
79 113 93
79 113 93
79 113 93
79 113 93
79 113 93
79 113 93
79 113 93
79 113 92
79 113 93
79 113 93
79 113 93
79 113 93
79 113 93
79 113 93
79 113 93
79 113 93
79 113 93
79 113 92
79 113 93
79 113 93
79 113 93
79 113 92
79 113 93
79 113 92
79 113 93
79 113 93
79 113 92
79 113 93
79 113 93
79 113 93
79 113 92
79 113 93
79 113 93
79 113 93
79 113 93
79 113 93
79 113 93
79 113 93
79 113 92
79 113 92
79 113 92
79 113 92
79 113 92
79 113 92
79 113 92
79 113 92
79 113 92
79 113 92
79 113 92
79 113 92
79 113 92
79 113 92
79 113 92
79 113 92
79 113 92
79 113 92
79 113 92
79 113 92
79 113 92
79 113 92
79 113 92
79 113 92
79 113 92
79 113 92
79 113 92
79 113 92
79 113 92
79 113 92
78 112 92
79 112 92
78 112 92
79 113 92
79 113 92
79 113 92
79 113 92
78 112 92
79 113 92
78 112 92
79 112 92
79 112 92
79 112 92
79 113 92
79 112 92
79 112 92
79 112 92
79 112 92
78 112 92
79 113 92
78 112 92
79 112 92
79 112 92
79 112 92
78 112 92
79 112 92
78 112 92
79 112 92
78 112 92
78 112 92
79 112 92
79 113 92
79 113 92
78 112 92
78 112 92
78 112 92
78 112 92
78 112 92
79 112 92
78 112 92
78 112 92
79 112 92
78 112 92
78 112 92
78 112 92
79 112 92
79 112 92
79 112 92
78 112 92
78 112 92
78 112 92
78 112 92
78 112 92
78 112 92
78 112 92
78 112 92
78 112 92
78 112 92
78 112 92
78 112 92
79 112 92
78 112 92
78 112 92
78 112 92
78 112 92
78 112 92
78 112 92
79 112 92
78 112 92
78 112 92
78 112 92
78 112 92
78 112 92
78 112 92
78 112 92
78 112 92
78 112 92
78 112 92
78 112 92
78 112 92
78 112 92
78 112 92
78 112 92
78 112 92
78 112 92
78 112 92
79 112 92
78 112 92
78 112 92
78 112 92
78 112 92
78 112 92
78 112 92
78 112 92
78 112 92
78 112 92
78 112 92
78 112 92
78 111 92
78 112 92
78 112 92
78 112 92
78 112 92
78 111 92
78 111 92
78 112 92
78 112 92
78 112 92
78 112 92
78 111 92
78 112 92
78 112 92
78 112 92
78 111 92
78 111 92
78 111 92
78 112 92
78 111 92
78 112 92
78 111 91
78 112 92
78 111 91
78 112 92
78 111 91
78 112 92
78 112 92
78 111 92
78 111 92
78 111 92
78 111 92
78 111 92
78 111 92
78 111 92
78 111 92
80 114 93
80 114 93
80 114 93
80 114 93
80 114 93
80 114 93
80 114 93
80 114 93
80 114 93
80 114 93
80 114 93
80 114 93
80 114 93
80 114 93
80 114 93
80 114 93
80 114 93
80 114 93
80 114 93
80 114 93
80 114 93
80 114 93
80 114 93
80 114 93
80 114 93
80 114 93
80 114 93
80 114 93
80 114 93
80 114 93
80 114 93
80 114 93
80 114 93
80 114 93
80 114 93
80 114 93
80 114 93
80 114 93
80 114 93
80 114 93
80 114 93
80 114 93
80 114 93
80 114 93
80 114 93
80 114 93
80 114 93
80 114 93
80 114 93
80 114 93
80 114 93
80 114 93
80 114 93
80 114 93
80 114 93
80 114 93
80 114 93
80 114 93
81 115 93
80 114 93
80 114 93
80 114 93
80 114 93
80 114 93
80 114 93
81 115 93
80 114 93
80 114 93
80 114 93
80 114 93
80 114 93
80 114 93
80 114 93
80 114 93
80 114 93
80 114 93
80 114 93
80 114 93
80 114 93
80 114 93
80 114 93
80 114 93
80 114 93
80 114 93
80 114 93
80 114 93
80 114 93
80 114 93
80 114 93
80 114 93
80 114 93
80 114 93
80 114 93
80 114 93
80 114 93
80 114 93
80 114 93
80 114 93
80 114 93
80 114 93
80 114 93
80 114 93
81 115 93
80 114 93
80 114 93
80 114 93
80 114 93
80 114 93
80 114 93
80 114 93
80 114 93
80 114 93
80 114 93
80 114 93
80 114 93
80 114 93
80 114 93
80 114 93
80 114 93
80 114 93
80 114 93
80 114 93
80 114 93
80 114 93
80 114 93
80 114 93
80 114 93
80 114 93
80 114 93
80 114 93
80 114 93
80 114 93
80 114 93
80 114 93
80 114 93
80 114 93
80 114 93
80 114 93
80 114 93
80 114 93
80 114 93
80 114 93
80 114 93
80 114 93
80 115 93
80 114 93
80 114 93
80 114 93
80 114 93
80 114 93
80 114 93
80 114 93
80 114 93
80 114 93
80 114 93
80 114 93
80 114 93
80 114 93
80 114 93
80 114 93
80 114 93
80 114 93
80 114 93
80 114 93
80 114 93
80 114 93
80 114 93
80 114 93
80 114 93
80 114 93
80 114 93
80 114 93
80 114 93
80 114 93
80 114 93
80 114 93
80 114 93
80 114 93
80 114 93
80 114 93
80 114 93
80 114 93
80 114 93
80 114 93
80 114 93
80 114 93
80 114 93
80 114 93
80 114 93
80 114 93
80 114 93
80 114 93
80 114 93
80 114 93
80 114 93
80 114 93
80 114 93
80 114 93
80 114 93
80 114 93
80 114 93
80 114 93
80 114 93
80 114 93
80 114 93
80 114 93
80 114 93
80 114 93
80 114 93
80 114 93
80 114 93
80 114 93
80 114 93
80 114 93
80 114 93
80 114 93
80 114 93
80 114 93
80 114 93
80 114 93
80 114 93
80 114 93
80 114 93
80 114 93
80 114 93
80 114 93
80 114 93
80 114 93
80 114 93
80 114 93
80 114 93
80 114 93
80 114 93
80 114 93
80 114 93
80 114 93
80 114 93
80 114 93
80 114 93
80 114 93
80 114 93
80 114 93
80 114 93
80 114 93
80 114 93
80 114 93
80 114 93
80 114 93
80 114 93
80 114 93
80 114 93
79 113 93
80 114 93
80 114 93
80 114 93
80 114 93
80 114 93
80 114 93
80 114 93
80 114 93
80 114 93
80 114 93
80 114 93
80 114 93
80 114 93
80 114 93
80 114 93
80 114 93
80 114 93
80 114 93
80 114 93
80 114 93
80 114 93
80 114 93
80 114 93
80 114 93
80 114 93
80 114 93
80 114 93
80 114 93
80 114 93
80 114 93
80 114 93
80 114 93
80 114 93
80 114 93
80 114 93
80 114 93
80 113 93
80 114 93
80 114 93
80 114 93
80 114 93
80 114 93
80 114 93
80 114 93
80 114 93
80 114 93
80 114 93
80 114 93
80 114 93
80 114 93
80 114 93
80 114 93
80 114 93
80 114 93
80 114 93
80 114 93
79 114 93
79 114 93
80 114 93
80 114 93
80 114 93
80 114 93
80 114 93
80 114 93
80 114 93
79 113 93
80 114 93
80 114 93
79 114 93
80 114 93
80 114 93
79 113 93
79 113 93
80 114 93
79 113 93
80 114 93
79 113 93
79 113 93
80 114 93
80 114 93
80 114 93
80 114 93
80 114 93
79 114 93
80 114 93
79 114 93
79 113 93
80 114 93
79 113 93
80 114 93
80 114 93
79 113 93
80 114 93
79 113 93
79 113 93
79 113 93
80 114 93
79 113 93
79 113 93
79 113 93
80 114 93
79 113 93
79 113 93
80 114 93
79 113 93
79 113 93
79 113 93
79 113 93
80 114 93
79 113 93
80 114 93
79 113 93
79 113 93
80 114 93
79 113 93
79 113 93
79 113 93
79 113 93
79 113 93
80 114 93
79 113 93
79 113 93
80 114 93
79 113 93
79 113 93
80 114 93
79 113 93
79 113 93
79 113 93
79 113 93
79 113 93
79 113 93
79 113 93
80 114 93
79 113 93
79 113 93
79 113 93
79 113 93
79 113 93
80 113 93
79 113 93
79 113 93
79 113 93
79 113 93
79 113 93
79 113 93
79 113 93
79 113 93
79 113 93
79 113 93
79 113 93
79 113 93
79 113 93
79 113 93
79 113 93
80 113 93
79 113 93
79 113 93
79 113 93
79 113 93
79 113 93
79 113 93
79 113 92
79 113 92
79 113 93
79 113 93
79 113 93
79 113 93
79 113 93
79 113 93
79 113 93
79 113 93
79 113 93
79 113 93
79 113 93
79 113 92
79 113 93
79 113 93
79 113 93
79 113 93
79 113 93
79 113 93
79 113 93
79 113 93
79 113 93
79 113 93
79 113 93
79 113 93
79 113 92
79 112 92
79 113 93
79 113 93
79 113 93
79 113 93
79 113 93
79 113 92
79 113 92
79 113 92
79 113 92
79 113 92
79 113 92
79 113 92
79 113 92
79 113 92
79 113 92
79 113 92
79 113 92
79 113 92
79 113 92
79 113 92
79 113 92
79 113 92
79 113 92
79 113 92
79 113 92
79 113 92
79 113 92
79 112 92
79 113 92
79 113 92
79 113 92
79 113 92
79 113 92
79 113 92
79 113 92
79 113 92
79 112 92
79 112 92
78 112 92
79 113 92
79 112 92
79 113 92
79 113 92
79 113 92
79 113 92
79 112 92
79 113 92
79 112 92
78 112 92
79 112 92
79 112 92
78 112 92
79 112 92
79 113 92
79 113 92
78 112 92
79 112 92
78 112 92
78 112 92
78 112 92
78 112 92
78 112 92
79 112 92
79 112 92
79 113 92
78 112 92
78 112 92
78 112 92
79 112 92
78 112 92
78 112 92
78 112 92
78 112 92
79 112 92
78 112 92
78 112 92
78 112 92
78 112 92
78 112 92
78 112 92
78 112 92
79 112 92
78 112 92
78 112 92
78 112 92
78 112 92
79 112 92
78 112 92
78 112 92
78 112 92
78 112 92
78 112 92
78 112 92
78 112 92
78 112 92
78 112 92
78 112 92
78 112 92
78 112 92
78 112 92
78 112 92
78 112 92
78 112 92
78 112 92
78 112 92
78 112 92
78 112 92
78 112 92
78 112 92
78 112 92
78 112 92
78 112 92
78 112 92
78 112 92
78 112 92
79 112 92
78 112 92
78 112 92
78 112 92
78 112 92
78 112 92
78 112 92
78 112 92
78 112 92
78 112 92
78 112 92
78 112 92
78 112 92
78 112 92
78 112 92
78 112 92
78 112 92
78 112 92
78 111 92
78 112 92
78 112 92
78 112 92
78 112 92
78 112 92
78 112 92
78 112 92
78 111 92
78 112 92
78 112 92
78 112 92
78 112 92
78 112 92
78 112 92
78 112 92
78 112 92
78 112 92
78 112 92
78 111 92
78 111 92
78 112 92
78 112 91
78 112 92
78 111 92
80 114 93
80 114 93
80 114 93
80 114 93
80 114 93
80 114 93
80 114 93
80 114 93
80 114 93
80 114 93
80 114 93
80 114 93
80 114 93
80 114 93
80 114 93
80 114 93
80 114 93
80 114 93
80 114 93
80 114 93
80 114 93
80 114 93
80 114 93
80 114 93
80 114 93
80 114 93
80 114 93
80 114 93
80 114 93
80 114 93
80 114 93
80 115 93
80 114 93
80 114 93
80 114 93
80 114 93
80 114 93
80 114 93
80 114 93
80 114 93
81 115 93
80 114 93
80 114 93
80 114 93
80 114 93
80 114 93
80 114 94
80 114 94
80 114 94
80 114 94
80 114 94
80 114 94
80 115 94
80 114 94
80 114 94
80 114 94
80 114 94
80 114 94
80 114 94
80 114 94
80 114 94
80 114 94
81 115 94
80 114 93
80 115 94
80 114 93
80 114 94
80 114 94
80 114 94
80 114 93
80 114 94
80 115 94
80 114 94
80 114 94
80 114 94
80 114 94
80 114 94
80 114 94
80 114 94
80 114 93
80 114 94
80 114 94
80 114 94
80 114 94
80 114 93
80 114 94
80 114 94
80 114 93
80 114 94
80 114 94
80 114 94
80 114 94
80 114 94
80 114 94
80 114 93
80 114 94
80 114 94
80 114 94
80 114 94
80 114 93
80 114 94
80 114 94
80 114 94
80 114 94
80 114 94
81 115 94
80 114 93
80 114 94
80 115 94
81 115 94
80 114 94
80 114 94
80 114 93
80 114 93
80 114 94
80 114 94
80 114 94
80 114 94
80 114 94
80 114 94
80 114 94
80 114 94
80 114 94
80 114 94
80 114 94
80 114 94
80 114 94
80 114 93
80 114 94
80 114 94
80 114 94
80 114 94
80 114 94
80 114 94
80 114 94
80 114 94
80 114 94
80 114 94
80 114 94
80 114 94
80 114 94
80 114 94
80 114 94
80 114 93
80 114 94
80 114 94
80 114 94
80 114 94
80 114 94
80 114 94
80 114 94
80 114 94
80 114 94
80 114 94
80 114 94
80 114 94
80 114 94
80 114 94
80 114 93
80 114 94
80 114 94
80 114 94
80 114 93
80 114 94
80 114 94
80 114 93
80 114 93
80 114 94
80 114 94
80 114 93
80 115 94
80 114 94
80 114 94
80 114 94
80 114 94
80 114 93
80 114 93
80 114 94
80 114 94
80 114 94
80 114 93
80 114 94
80 114 94
80 114 93
80 114 93
80 114 93
80 114 93
80 114 93
80 114 93
80 114 93
80 114 93
80 114 93
80 114 93
80 114 93
80 114 93
80 114 93
80 114 93
80 114 93
80 114 93
80 114 93
80 114 93
80 114 93
80 114 93
80 114 93
80 114 93
80 114 93
80 114 93
80 114 93
80 114 93
80 114 93
80 114 93
80 114 93
80 114 93
80 114 93
80 114 93
80 114 93
80 114 93
80 114 93
80 114 93
80 114 93
80 114 93
80 114 93
80 114 93
80 114 93
80 114 93
80 114 93
80 114 93
80 114 93
80 114 93
80 114 93
80 114 93
80 114 93
80 114 93
80 114 93
80 114 93
80 114 93
80 114 93
80 114 93
80 114 93
80 114 93
80 114 93
80 114 93
80 114 93
80 114 93
80 114 93
80 114 93
80 114 93
80 114 93
80 114 93
80 114 93
80 114 93
80 114 93
80 114 93
80 114 93
80 114 93
80 114 93
80 114 93
80 114 93
80 114 93
80 114 93
80 114 93
80 114 93
80 114 93
80 114 93
80 114 93
80 114 93
80 114 93
80 114 93
80 114 93
80 114 93
80 114 93
80 114 93
80 114 93
80 114 93
80 114 93
80 114 93
80 114 93
80 114 93
80 114 93
80 114 93
80 114 93
80 114 93
80 114 93
80 114 93
80 114 93
79 114 93
80 114 93
80 114 93
80 114 93
79 114 93
80 114 93
80 114 93
80 114 93
80 114 93
80 114 93
80 114 93
80 114 93
80 114 93
80 114 93
80 114 93
80 114 93
80 114 93
80 114 93
79 113 93
80 114 93
80 114 93
80 114 93
80 114 93
80 114 93
80 114 93
80 114 93
80 114 93
80 114 93
80 114 93
79 114 93
79 114 93
80 114 93
80 114 93
80 114 93
80 114 93
80 114 93
80 114 93
80 114 93
80 114 93
80 114 93
79 114 93
80 114 93
80 114 93
80 114 93
79 114 93
80 114 93
80 114 93
80 114 93
80 114 93
80 114 93
80 114 93
80 114 93
80 114 93
80 114 93
80 114 93
80 114 93
80 114 93
80 113 93
80 114 93
80 114 93
80 114 93
80 114 93
79 113 93
80 114 93
80 114 93
79 113 93
80 114 93
80 114 93
80 114 93
80 114 93
79 114 93
80 114 93
80 114 93
79 113 93
79 113 93
79 113 93
79 113 93
79 113 93
79 113 93
79 113 93
80 114 93
79 113 93
79 113 93
79 113 93
79 113 93
79 113 93
80 114 93
79 113 93
79 113 93
80 114 93
79 113 93
80 114 93
79 113 93
79 113 93
79 113 93
79 113 93
79 113 93
79 113 93
79 113 93
79 113 93
79 113 93
80 113 93
79 113 93
79 113 93
79 113 93
79 113 93
79 113 93
79 113 93
79 113 93
79 113 93
79 113 93
79 113 93
79 113 93
79 113 93
79 113 93
79 113 93
79 113 93
79 113 93
79 113 93
79 113 93
79 113 93
79 113 93
79 113 93
79 113 93
79 113 92
79 113 93
79 113 93
79 113 93
79 113 93
79 113 93
79 113 93
79 113 93
79 113 93
79 113 93
79 113 93
79 113 93
79 113 93
79 113 93
79 113 93
79 113 93
79 113 93
79 113 93
79 113 93
79 113 93
79 113 93
79 113 93
79 113 93
79 113 93
79 113 93
79 113 92
79 113 93
79 113 93
79 113 93
79 113 93
79 113 93
79 113 93
79 113 92
79 113 93
79 113 92
79 113 93
79 113 93
79 113 93
79 113 93
79 113 92
79 113 93
79 113 93
79 113 93
79 113 93
79 113 93
79 113 93
79 113 92
79 113 92
79 113 92
79 113 92
79 113 92
79 113 92
79 113 92
79 113 92
78 112 92
79 113 92
79 113 92
79 113 92
79 113 92
79 113 92
79 113 92
79 113 92
79 113 92
79 113 92
79 113 92
78 112 92
79 113 92
79 113 92
78 112 92
79 113 92
79 112 92
78 112 92
78 112 92
78 112 92
79 113 92
79 113 92
79 113 92
79 113 92
79 112 92
78 112 92
79 112 92
79 113 92
79 112 92
78 112 92
78 112 92
79 113 92
79 113 92
79 113 92
79 112 92
79 113 92
79 112 92
79 112 92
79 112 92
79 113 92
78 112 92
79 112 92
79 112 92
78 112 92
79 112 92
79 112 92
78 112 92
79 112 92
78 112 92
78 112 92
79 112 92
78 112 92
79 112 92
79 112 92
79 112 92
78 112 92
78 112 92
79 112 92
79 112 92
79 112 92
78 112 92
78 112 92
78 112 92
78 112 92
79 112 92
78 112 92
79 112 92
79 112 92
78 112 92
78 112 92
79 112 92
78 112 92
79 112 92
78 112 92
78 112 92
78 112 92
78 112 92
78 112 92
78 112 92
78 112 92
78 112 92
78 112 92
78 112 92
78 112 92
78 112 92
78 112 92
78 112 92
78 112 92
78 112 92
78 112 92
78 112 92
78 112 92
78 112 92
78 112 92
78 112 92
78 112 92
78 112 92
78 112 92
78 112 92
78 112 92
78 112 92
78 112 92
78 112 92
78 112 92
78 112 92
78 112 92
78 112 92
78 112 92
78 112 92
78 112 92
78 112 92
78 112 92
78 112 92
78 112 92
78 112 92
78 112 92
78 112 92
78 112 92
78 112 92
78 112 92
78 112 92
78 112 92
78 112 92
78 112 92
78 112 92
78 112 92
78 111 92
78 112 92
78 111 92
78 111 92
78 112 92
78 112 92
78 112 92
78 111 92
78 112 92
78 112 92
78 112 92
80 114 93
80 114 93
80 114 93
80 114 93
80 114 93
80 114 93
80 114 93
80 114 93
80 114 93
80 114 93
80 114 93
80 114 93
80 114 93
80 114 93
80 114 94
80 114 94
80 114 94
80 114 94
80 114 93
80 114 94
80 114 93
80 114 94
80 114 93
80 114 94
80 114 94
80 114 94
80 114 94
80 114 94
80 114 94
80 114 94
80 114 94
80 114 94
80 115 94
80 114 94
80 114 94
80 114 93
80 114 94
80 114 94
80 114 94
80 114 94
80 114 93
80 114 94
80 114 94
80 115 94
80 115 94
80 114 94
80 114 94
80 114 94
80 114 94
80 114 94
80 114 94
80 114 93
80 114 94
80 114 94
80 114 94
80 114 94
80 115 94
80 114 94
80 115 94
80 114 94
80 114 94
80 114 94
80 114 94
80 114 94
80 114 94
80 115 94
80 114 94
80 114 94
80 114 94
80 114 93
81 115 94
80 114 94
80 114 93
81 115 94
81 115 94
80 114 94
80 114 94
80 114 93
80 114 94
81 115 94
80 114 93
80 115 94
80 114 94
80 114 94
80 114 93
80 114 94
80 114 93
80 115 94
80 114 94
80 114 93
80 114 94
80 114 94
80 114 93
80 115 94
81 114 93
80 115 94
80 115 94
80 114 93
80 115 94
81 115 94
80 115 94
80 114 94
80 114 94
80 115 94
80 114 93
80 114 94
80 115 94
80 115 94
81 115 94
80 114 94
81 115 94
80 115 94
80 114 94
80 114 94
80 114 94
81 115 94
80 114 94
80 114 93
80 114 94
80 114 93
80 115 94
80 114 94
80 115 94
81 115 94
80 114 94
80 115 94
80 114 94
80 114 94
80 114 93
80 114 94
80 114 94
80 114 94
80 114 94
80 114 94
80 115 94
80 115 94
81 115 93
81 115 94
80 115 94
80 114 93
80 115 94
80 115 94
80 114 94
80 114 94
80 115 94
80 114 94
80 114 94
80 114 93
80 114 94
80 114 93
80 114 94
80 114 93
80 114 94
80 114 94
80 114 94
80 114 94
80 114 93
80 114 94
80 114 94
80 114 94
80 114 94
81 115 94
80 114 94
80 114 94
80 114 94
80 114 94
80 114 94
80 114 93
80 114 94
80 114 93
80 114 94
80 114 93
80 114 94
80 114 94
80 115 94
80 114 94
80 114 93
80 114 94
80 114 94
80 114 94
80 114 94
80 114 94
80 115 94
80 114 94
80 114 94
80 115 94
80 114 94
80 114 94
80 114 94
80 114 94
80 114 93
80 114 94
80 114 94
80 114 94
80 114 94
80 115 94
80 115 94
80 114 93
80 114 93
80 114 94
80 114 94
80 115 94
80 114 94
80 115 94
80 114 94
80 114 94
80 114 94
80 114 94
80 114 93
80 114 93
80 114 94
80 114 94
80 114 93
80 114 93
80 114 94
80 114 93
80 114 93
80 114 93
80 115 93
80 114 93
80 114 93
80 114 93
80 114 93
80 114 93
80 114 93
80 114 93
80 114 93
80 115 93
80 114 93
80 114 93
80 114 93
80 114 93
80 114 93
80 114 93
80 115 93
80 114 93
80 114 93
80 114 93
80 114 93
80 114 93
80 114 93
80 114 93
80 114 93
80 114 93
80 114 93
80 114 93
80 114 93
80 114 93
80 114 93
80 114 93
80 114 93
80 114 93
80 114 93
80 114 93
80 114 93
80 114 93
80 114 93
80 114 93
80 114 93
80 114 93
80 114 93
80 114 93
80 114 93
80 114 93
80 114 93
80 114 93
80 114 93
80 114 93
80 114 93
80 114 93
80 114 93
80 114 93
80 114 93
80 114 93
80 114 93
80 114 93
80 114 93
80 114 93
80 114 93
80 114 93
80 114 93
80 114 93
80 114 93
80 114 93
80 114 93
80 114 93
80 114 93
80 114 93
80 114 93
80 114 93
80 114 93
80 114 93
80 114 93
80 114 93
80 114 93
80 114 93
80 114 93
80 114 93
80 114 93
80 114 93
80 114 93
80 114 93
80 114 93
80 114 93
80 114 93
80 114 93
80 114 93
79 114 93
80 114 93
80 114 93
80 114 93
80 114 93
80 114 93
80 114 93
80 114 93
80 114 93
80 114 93
80 114 93
80 114 93
80 114 93
80 114 93
80 114 93
80 114 93
80 114 93
80 114 93
79 114 93
80 114 93
79 114 93
79 113 93
80 114 93
80 114 93
80 114 93
80 114 93
80 114 93
80 114 93
80 113 93
80 114 93
80 114 93
80 114 93
80 114 93
80 114 93
79 114 93
80 114 93
80 114 93
80 114 93
80 114 93
80 113 93
80 114 93
80 114 93
80 114 93
80 114 93
80 114 93
79 113 93
79 114 93
79 113 93
80 114 93
80 114 93
80 114 93
80 114 93
80 114 93
80 114 93
79 114 93
80 114 93
79 113 93
79 113 93
80 113 93
79 114 93
80 114 93
79 113 93
80 114 93
80 114 93
79 113 93
79 113 93
80 114 93
79 113 93
79 113 93
79 113 93
80 114 93
79 113 93
79 113 93
79 113 93
80 114 93
79 113 93
79 113 93
79 113 93
79 113 93
79 113 93
80 114 93
80 113 93
80 114 93
79 113 93
79 113 93
79 113 93
79 113 93
80 113 93
79 113 93
80 114 93
79 113 93
79 113 93
79 113 93
79 113 93
79 113 93
79 113 93
79 113 93
80 113 93
79 113 93
79 113 93
79 113 93
79 113 93
79 113 93
79 113 93
79 113 93
79 113 93
79 113 93
79 113 93
79 113 93
79 113 93
79 113 93
79 113 93
79 113 93
79 113 93
79 113 93
79 113 93
79 113 93
79 113 93
79 113 93
79 113 93
79 113 92
79 113 93
79 113 93
79 113 93
79 113 93
79 113 93
79 113 92
79 113 93
79 113 93
79 113 92
79 113 92
79 113 93
79 113 93
79 113 93
79 113 93
79 113 93
79 113 93
79 113 93
79 113 93
79 113 92
79 113 93
79 113 93
79 113 93
79 113 93
79 113 93
79 113 93
79 113 93
79 113 93
79 113 93
79 113 92
79 113 93
79 113 93
79 113 93
79 113 93
79 113 92
79 113 92
79 113 93
79 113 92
79 113 92
79 113 92
79 113 92
79 113 92
79 113 92
79 113 92
79 113 92
79 113 92
79 113 92
79 113 92
79 113 92
79 113 92
79 113 92
79 113 92
79 112 92
79 112 92
79 113 92
79 113 92
78 112 92
79 113 92
79 112 92
79 113 92
79 112 92
79 113 92
79 112 92
79 113 92
79 113 92
79 112 92
79 113 92
78 112 92
79 113 92
79 113 92
79 112 92
79 113 92
79 113 92
79 113 92
79 113 92
79 112 92
79 112 92
79 112 92
79 112 92
79 112 92
79 112 92
79 113 92
78 112 92
78 112 92
78 112 92
78 112 92
79 113 92
79 112 92
78 112 92
78 112 92
79 113 92
78 112 92
79 113 92
79 112 92
78 112 92
79 112 92
79 112 92
78 112 92
79 112 92
78 112 92
78 112 92
78 112 92
78 112 92
79 112 92
78 112 92
78 112 92
78 112 92
79 112 92
78 112 92
78 112 92
78 112 92
78 112 92
79 112 92
78 112 92
78 112 92
78 112 92
78 112 92
78 112 92
79 112 92
78 112 92
78 112 92
78 112 92
78 112 92
78 112 92
78 112 92
78 112 92
78 112 92
78 112 92
78 112 92
78 112 92
78 112 92
78 112 92
78 112 92
78 112 92
78 112 92
78 112 92
78 112 92
78 112 92
78 112 92
78 112 92
78 112 92
78 112 92
78 112 92
78 112 92
78 112 92
78 112 92
78 112 92
78 112 92
78 112 92
78 112 92
78 112 92
78 112 92
78 112 92
78 112 92
78 112 92
78 112 92
78 112 92
78 112 92
78 112 92
78 112 92
78 112 92
78 112 92
78 112 92
78 112 92
78 112 92
78 112 92
78 112 92
78 112 92
78 111 92
78 112 92
78 112 92
78 112 92
78 112 92
80 115 94
80 114 94
80 115 94
80 114 94
80 114 94
80 115 94
80 114 94
80 114 94
80 114 93
80 114 94
81 115 94
80 115 94
81 115 94
80 115 94
80 114 94
80 115 94
80 114 94
80 114 94
80 114 93
80 114 94
80 114 94
80 114 94
80 114 94
80 114 93
80 114 94
80 114 94
80 114 93
80 114 93
80 114 94
80 114 94
80 114 93
80 114 94
80 114 94
81 115 94
80 115 94
80 115 94
80 114 94
80 115 94
80 115 94
80 114 93
81 115 94
80 114 94
80 115 94
80 114 94
80 114 94
80 114 93
80 114 94
81 115 94
80 114 94
81 115 94
80 114 94
80 115 94
80 114 94
80 114 94
80 115 94
80 114 94
80 114 94
80 114 93
80 115 94
80 114 93
80 115 94
80 114 94
80 114 94
80 114 94
80 115 94
80 115 94
80 114 93
80 115 94
80 114 94
80 114 94
80 114 94
80 115 94
80 114 94
80 115 94
80 114 94
80 115 94
80 115 94
81 115 94
81 115 94
81 115 93
80 115 94
80 115 94
80 115 94
80 114 94
81 115 94
80 114 94
80 115 94
80 115 94
80 115 94
80 115 94
80 114 94
80 114 93
80 115 94
80 114 94
80 115 94
80 115 94
81 115 94
80 114 93
80 115 94
81 115 94
80 114 94
80 115 94
81 115 93
80 115 94
80 115 94
80 114 94
80 115 94
80 115 94
80 114 94
81 115 94
80 114 94
80 115 94
80 114 93
80 115 94
80 115 94
80 115 94
81 115 94
81 115 94
81 115 94
81 115 94
80 114 93
80 114 94
80 115 94
81 115 94
80 115 94
80 114 93
81 115 94
80 114 93
81 115 93
80 114 94
80 115 94
80 115 94
80 115 94
80 114 93
80 115 94
80 114 94
80 115 94
81 115 94
80 114 94
80 114 94
80 114 94
80 115 93
80 114 94
80 115 94
80 114 93
80 114 93
80 115 94
80 115 94
80 115 94
80 115 94
80 115 94
80 114 94
80 114 94
81 115 94
80 114 94
80 115 94
80 115 94
80 115 94
80 114 93
80 115 94
80 114 93
80 115 94
80 115 94
80 114 94
81 115 94
81 115 94
80 114 94
80 115 94
80 114 94
80 114 94
80 115 94
81 115 94
81 115 94
80 114 94
80 114 94
81 115 94
80 115 94
80 114 94
80 114 94
80 115 94
80 114 94
80 114 94
80 114 93
80 114 93
80 115 94
80 114 94
80 114 94
81 115 94
80 114 93
80 115 94
80 114 94
80 114 94
80 114 94
80 114 94
80 114 93
81 115 93
80 114 94
80 114 93
80 115 94
80 114 94
80 114 94
80 115 94
80 114 94
80 114 93
80 114 93
80 114 93
80 114 93
80 115 94
80 114 94
80 114 94
80 115 94
80 114 94
80 114 94
80 114 94
80 114 93
80 114 94
80 114 94
80 114 93
80 114 93
80 114 94
80 114 94
80 115 94
80 114 94
80 114 94
80 114 94
80 114 94
80 114 94
80 114 94
80 114 94
80 114 94
80 114 94
80 114 93
80 114 93
80 114 94
81 115 94
80 114 94
80 114 94
80 114 93
80 114 94
80 114 93
80 114 93
80 114 93
80 114 93
80 114 93
80 114 93
80 114 93
80 114 93
80 114 93
80 114 93
80 114 93
80 114 93
80 114 93
80 114 93
80 114 93
80 114 93
80 114 93
80 114 93
80 114 93
80 114 93
80 114 93
80 114 93
80 114 93
80 114 93
80 114 93
80 114 93
80 114 93
80 114 93
80 114 93
80 114 93
80 114 93
80 114 93
80 114 93
80 114 93
80 114 93
80 114 93
80 114 93
80 114 93
80 114 93
80 114 93
80 114 93
80 114 93
80 114 93
80 114 93
80 114 93
80 114 93
80 114 93
80 114 93
80 114 93
80 114 93
80 114 93
80 114 93
80 114 93
80 114 93
80 114 93
80 114 93
80 114 93
80 114 93
80 114 93
80 114 93
80 114 93
80 114 93
80 114 93
80 114 93
80 114 93
80 114 93
80 114 93
80 114 93
80 114 93
80 114 93
80 114 93
80 114 93
80 114 93
80 114 93
80 114 93
80 114 93
80 114 93
80 114 93
80 114 93
80 114 93
80 114 93
80 114 93
80 114 93
80 114 93
80 114 93
79 114 93
80 114 93
80 114 93
80 114 93
80 114 93
80 114 93
80 114 93
80 114 93
80 114 93
80 114 93
80 114 93
80 114 93
80 114 93
80 114 93
80 114 93
80 114 93
79 113 93
80 114 93
80 114 93
80 114 93
80 114 93
80 114 93
80 114 93
80 114 93
80 114 93
79 114 93
80 114 93
80 114 93
80 114 93
79 114 93
80 114 93
80 114 93
80 114 93
80 113 93
80 114 93
80 114 93
79 113 93
80 114 93
79 113 93
80 114 93
80 114 93
80 114 93
80 114 93
80 114 93
79 113 93
80 114 93
79 113 93
79 114 93
80 114 93
80 114 93
80 114 93
79 113 93
80 113 93
80 114 93
80 114 93
79 113 93
79 113 93
80 113 93
79 113 93
80 114 93
79 113 93
80 114 93
79 113 93
80 114 93
80 114 93
79 113 93
80 114 93
79 113 93
79 113 93
80 113 93
79 113 93
80 113 93
80 114 93
79 113 93
79 113 93
79 113 93
79 113 93
80 114 93
79 113 93
80 113 93
79 113 93
79 113 93
79 113 93
80 113 93
79 113 93
80 113 93
79 113 93
79 113 93
80 113 93
79 113 93
79 113 93
79 113 93
79 113 93
79 113 93
79 113 93
80 113 93
79 113 93
79 113 93
79 113 93
79 113 93
79 113 93
79 113 93
79 113 93
79 113 93
79 113 93
79 113 93
79 113 93
79 113 93
79 113 93
79 113 93
79 113 93
79 113 93
79 113 93
79 113 93
79 113 93
79 113 93
79 113 93
79 113 93
79 113 93
79 113 93
79 113 92
79 113 93
79 113 93
79 113 93
79 113 93
79 113 92
79 113 93
79 113 93
79 113 93
79 113 93
79 113 92
79 113 93
79 113 93
79 113 93
79 113 93
79 113 93
79 113 93
79 113 93
79 113 93
79 113 93
79 113 93
79 113 93
79 113 92
79 113 93
79 113 92
79 113 93
79 113 93
79 113 93
79 113 92
79 113 92
79 113 92
79 113 92
79 113 92
79 113 92
79 113 92
79 113 92
79 113 92
79 113 92
79 113 92
79 113 92
79 113 92
79 113 92
78 112 92
79 113 92
79 113 92
79 112 92
79 113 92
79 113 92
79 113 92
78 112 92
79 113 92
79 113 92
79 113 92
79 113 92
79 113 92
79 113 92
79 113 92
79 113 92
79 112 92
79 113 92
79 112 92
79 112 92
78 112 92
79 113 92
78 112 92
78 112 92
79 112 92
79 112 92
79 112 92
78 112 92
79 112 92
79 112 92
79 112 92
79 112 92
79 112 92
79 112 92
79 112 92
79 112 92
78 112 92
79 112 92
79 112 92
79 112 92
79 112 92
79 112 92
79 112 92
79 112 92
78 112 92
79 112 92
79 112 92
78 112 92
79 113 92
79 112 92
78 112 92
78 112 92
78 112 92
79 112 92
78 112 92
78 112 92
78 112 92
78 112 92
78 112 92
78 112 92
78 112 92
78 112 92
78 112 92
79 112 92
78 112 92
78 112 92
78 112 92
78 112 92
78 112 92
78 112 92
79 112 92
78 112 92
78 112 92
78 112 92
78 112 92
78 112 92
78 112 92
78 112 92
79 112 92
78 112 92
78 112 92
78 112 92
78 112 92
78 112 92
79 112 92
78 112 92
78 112 92
78 112 92
78 112 92
78 112 92
78 112 92
78 112 92
78 112 92
78 112 92
78 112 92
78 112 92
78 112 92
78 112 92
78 112 92
78 112 92
78 112 92
78 112 92
78 111 92
78 112 92
78 112 92
78 112 92
78 112 92
78 112 92
78 112 92
78 112 92
78 112 92
78 112 92
78 112 92
78 112 92
80 115 94
80 114 94
80 114 94
81 115 94
80 115 94
80 114 93
80 114 94
80 114 94
80 115 94
80 114 94
80 114 94
80 114 93
81 115 94
80 115 94
80 114 93
80 115 94
80 114 94
80 115 94
80 114 94
80 114 94
80 114 94
80 114 94
80 114 94
80 114 93
80 115 94
81 115 94
80 114 94
80 114 94
80 114 93
80 115 94
80 115 94
80 114 94
80 115 94
80 114 94
80 115 94
80 115 94
80 114 94
80 115 94
80 114 93
80 114 94
80 114 94
80 114 94
80 114 94
80 115 94
80 115 94
80 114 94
80 114 94
80 115 94
80 114 94
80 114 94
80 114 94
80 115 94
80 115 94
80 115 94
80 115 94
81 115 94
80 115 94
81 115 94
80 114 94
81 115 94
81 115 94
80 115 94
80 114 94
80 115 94
80 115 94
80 114 94
81 115 94
80 114 94
80 114 94
81 115 94
80 114 94
80 115 94
81 115 94
80 115 94
81 115 94
81 115 94
81 115 94
81 115 94
80 114 94
80 115 94
80 115 94
80 114 94
81 115 94
80 115 94
81 115 94
80 114 94
81 115 94
80 114 94
80 115 94
80 115 94
80 114 94
80 115 94
80 114 94
80 114 94
80 115 94
80 114 94
81 115 94
80 115 94
81 115 94
80 114 94
81 115 94
81 115 94
80 114 94
81 115 94
80 114 94
80 115 94
80 115 94
80 114 94
80 115 94
80 115 94
81 115 94
80 115 94
80 115 94
81 115 94
80 114 94
80 115 94
81 115 94
80 114 93
80 114 94
81 115 94
81 115 94
80 114 94
80 114 94
80 115 94
80 115 94
80 114 94
80 114 94
81 115 94
81 115 94
81 115 94
81 115 94
80 115 94
80 115 94
80 115 94
80 115 94
80 114 94
81 115 94
80 114 93
80 114 94
81 115 94
81 115 94
80 114 94
81 115 94
80 115 94
80 114 94
80 115 94
80 115 94
80 114 94
80 114 94
80 115 94
80 115 94
80 115 94
81 115 94
80 115 94
80 115 94
80 115 94
80 115 94
80 114 94
80 115 94
80 114 94
80 115 94
80 114 94
81 115 94
80 115 94
80 115 94
80 115 94
80 114 94
80 114 94
80 115 94
81 115 94
80 115 94
81 115 94
80 114 94
80 114 94
80 114 94
80 114 94
80 114 94
80 115 94
80 115 94
81 115 94
80 114 94
80 114 94
81 115 94
80 115 94
80 114 93
80 115 94
80 114 93
80 114 94
80 114 94
80 115 93
80 115 94
80 115 94
81 115 94
80 114 94
80 115 94
80 114 94
80 114 94
80 114 94
80 115 94
80 114 94
80 115 94
80 115 94
80 115 94
81 115 94
80 115 94
80 114 94
80 114 94
80 114 93
80 114 94
80 114 94
80 114 94
80 114 94
80 114 94
80 114 94
80 115 94
80 114 94
80 114 94
81 115 94
80 114 94
80 115 94
80 114 94
80 114 93
80 114 94
80 114 94
80 114 94
81 115 94
80 114 94
81 115 94
80 114 93
80 114 93
80 114 94
80 115 94
80 114 93
80 114 94
80 114 94
80 114 94
80 114 94
80 114 93
80 115 94
80 114 94
80 114 94
80 114 94
80 114 94
80 115 94
80 114 94
80 114 94
80 114 94
81 115 94
80 114 94
80 114 94
80 115 94
80 114 94
80 114 94
80 114 93
80 114 93
80 114 93
80 114 93
80 114 94
80 114 94
81 115 93
80 114 93
80 114 93
80 114 93
80 114 93
80 114 93
80 114 93
80 114 93
80 114 93
80 114 93
80 114 93
80 114 93
80 114 93
80 115 93
80 114 93
80 114 93
80 114 93
80 114 93
80 114 93
80 114 93
80 114 93
80 114 93
80 114 93
80 114 93
80 114 93
80 114 93
80 114 93
80 114 93
80 114 93
80 114 93
80 114 93
80 114 93
80 114 93
80 114 93
80 114 93
80 114 93
80 114 93
80 114 93
80 114 93
80 114 93
80 114 93
80 114 93
80 114 93
80 114 93
80 114 93
80 114 93
80 114 93
80 114 93
80 114 93
80 114 93
80 114 93
80 114 93
80 114 93
80 114 93
80 114 93
80 114 93
80 114 93
80 114 93
80 114 93
80 114 93
80 114 93
80 114 93
80 114 93
79 114 93
80 114 93
80 114 93
80 114 93
80 114 93
80 114 93
80 114 93
80 114 93
80 114 93
80 114 93
80 114 93
80 114 93
80 114 93
80 114 93
80 114 93
80 114 93
80 114 93
80 114 93
80 114 93
80 114 93
80 114 93
80 114 93
80 113 93
80 114 93
80 114 93
80 114 93
80 114 93
80 114 93
80 114 93
80 114 93
80 114 93
80 113 93
79 114 93
80 114 93
80 114 93
79 113 93
80 114 93
80 114 93
80 114 93
79 114 93
80 114 93
79 113 93
80 114 93
80 114 93
80 114 93
79 113 93
79 114 93
80 114 93
80 114 93
79 113 93
80 114 93
79 114 93
79 114 93
79 114 93
80 114 93
80 114 93
79 113 93
80 114 93
79 113 93
80 114 93
79 113 93
80 114 93
79 113 93
80 114 93
80 114 93
79 113 93
80 114 93
79 113 93
80 114 93
79 113 93
79 113 93
80 114 93
79 113 93
80 113 93
79 113 93
79 113 93
80 114 93
79 113 93
80 113 93
79 113 93
80 114 93
80 113 93
79 113 93
79 113 93
79 113 93
79 113 93
79 113 93
79 113 93
79 113 93
79 113 93
80 114 93
79 113 93
80 114 93
79 113 93
79 113 93
79 113 93
79 113 93
79 113 93
79 113 93
79 113 93
79 113 93
79 113 93
80 113 93
79 113 93
80 113 93
79 113 93
79 113 93
79 113 93
79 113 93
79 113 93
79 113 93
79 113 93
79 113 93
79 113 93
79 113 93
79 113 93
79 113 93
79 113 93
79 113 93
79 113 93
79 113 93
79 113 93
79 113 93
79 113 93
79 113 93
79 113 93
79 113 93
79 113 93
79 113 93
79 113 93
79 113 93
79 113 93
79 113 93
79 113 93
79 113 92
79 113 93
79 113 93
79 113 93
79 113 92
79 113 93
79 113 92
79 113 93
79 113 93
79 113 93
79 113 93
79 113 93
79 113 92
79 113 93
79 113 93
79 113 93
79 113 93
79 113 93
79 113 93
79 113 93
79 113 92
79 113 93
79 113 92
79 113 93
79 113 92
79 113 92
79 113 92
79 113 92
79 113 92
79 113 92
79 113 92
79 113 92
79 113 92
79 113 92
79 113 92
79 113 92
79 113 92
79 113 92
79 113 92
79 113 92
79 113 92
79 113 92
79 113 92
79 113 92
79 113 92
79 113 92
79 113 92
79 113 92
79 113 92
79 112 92
79 113 92
79 113 92
79 113 92
79 113 92
79 113 92
79 112 92
79 112 92
79 112 92
79 112 92
79 113 92
79 112 92
79 112 92
79 113 92
79 112 92
78 112 92
79 112 92
79 112 92
79 112 92
79 112 92
79 112 92
79 112 92
78 112 92
78 112 92
79 112 92
78 112 92
79 112 92
79 112 92
78 112 92
79 112 92
79 112 92
79 112 92
78 112 92
78 112 92
79 112 92
78 112 92
79 112 92
78 112 92
78 112 92
78 112 92
78 112 92
78 112 92
78 112 92
78 112 92
78 112 92
78 112 92
78 112 92
79 112 92
78 112 92
79 112 92
79 112 92
78 112 92
78 112 92
79 112 92
78 112 92
78 112 92
78 112 92
78 112 92
78 112 92
78 112 92
78 112 92
78 112 92
78 112 92
78 112 92
78 112 92
78 112 92
78 112 92
78 112 92
78 112 92
78 112 92
78 112 92
79 112 92
78 112 92
78 112 92
78 112 92
78 112 92
79 112 92
78 112 92
78 112 92
78 112 92
78 112 92
78 112 92
78 112 92
78 112 92
78 112 92
78 112 92
78 112 92
78 112 92
78 111 92
78 112 92
78 112 92
78 112 92
78 112 92
78 112 92
78 112 92
80 115 94
80 114 94
80 115 94
80 115 94
80 114 93
80 114 94
80 114 94
80 114 93
80 114 94
80 115 94
80 114 94
80 114 94
81 115 94
80 115 94
80 114 94
80 115 94
80 115 94
80 114 94
80 115 94
80 114 94
80 114 94
80 114 94
80 115 94
80 115 94
80 115 94
80 115 94
81 115 94
80 115 94
80 115 94
80 115 94
80 115 94
80 115 94
80 114 93
81 115 94
80 115 94
80 114 94
80 114 94
80 114 94
81 115 94
80 114 93
80 115 94
80 114 94
80 114 94
80 115 94
81 115 94
80 115 94
80 115 94
80 115 94
81 115 94
80 115 94
81 115 94
81 115 94
80 115 94
81 115 94
80 115 94
81 115 94
81 115 94
80 115 94
81 115 94
80 115 94
80 115 94
80 115 94
80 115 94
80 115 94
80 114 94
80 115 94
80 115 94
80 115 94
80 115 94
80 115 94
81 115 94
80 114 94
80 115 94
80 114 94
81 115 94
80 115 94
80 115 94
80 115 94
81 115 94
80 114 94
80 115 94
81 115 94
80 115 94
80 114 94
80 115 94
80 115 94
81 115 94
80 115 94
80 115 94
80 115 94
80 115 94
81 115 94
81 115 94
80 115 94
81 115 94
81 115 94
80 115 94
81 115 94
81 115 94
81 115 94
81 115 94
80 115 94
81 115 94
81 115 94
81 115 94
81 115 94
81 115 94
81 115 94
81 115 94
80 115 94
81 115 94
81 115 94
81 115 94
81 115 94
80 115 94
81 115 94
80 115 94
81 115 94
80 115 94
81 115 94
81 115 94
81 115 94
80 115 94
80 115 94
81 115 94
80 114 94
81 115 94
81 115 94
80 115 94
81 115 94
80 115 94
81 115 94
81 115 94
81 115 94
81 115 94
80 115 94
80 115 94
80 114 94
80 115 94
80 115 94
81 115 94
80 115 94
80 115 94
80 115 94
80 115 94
80 115 94
81 115 94
80 115 94
80 115 94
81 115 94
80 115 94
80 114 94
80 115 94
80 114 94
81 115 94
80 115 94
81 115 94
80 115 94
80 114 94
80 115 94
81 115 94
80 115 94
80 114 94
80 115 94
80 115 94
80 115 94
80 115 94
80 115 94
81 115 94
80 115 94
80 114 94
81 115 94
81 115 94
81 115 94
81 115 94
80 115 94
81 115 94
80 115 94
80 115 94
81 115 94
80 115 94
80 115 94
80 115 94
81 115 94
80 115 94
81 115 94
80 115 94
80 115 94
80 114 94
80 115 94
80 114 94
80 115 94
80 115 94
80 115 94
80 114 94
80 114 93
81 115 94
81 115 94
81 115 94
80 114 94
80 115 94
81 115 94
80 115 94
80 115 94
80 115 94
80 114 94
80 114 94
80 114 94
81 115 94
81 115 94
80 115 94
80 114 94
80 115 94
80 115 94
80 115 94
81 115 94
80 114 94
81 115 94
80 114 94
80 115 94
80 115 94
80 114 94
80 114 94
80 114 93
81 115 94
80 115 94
80 115 94
80 115 94
80 114 94
80 115 94
80 115 94
80 115 94
80 115 94
81 115 94
80 114 93
80 114 94
80 115 94
80 114 94
81 115 94
80 114 94
80 114 94
80 115 94
80 114 93
81 115 94
80 114 93
80 115 94
80 114 93
80 115 94
80 114 94
80 114 94
80 114 94
80 114 93
80 114 94
80 114 93
80 114 94
80 115 94
80 115 94
80 114 94
80 114 93
80 114 94
80 114 94
80 114 94
80 114 94
80 114 93
80 114 94
80 114 93
80 114 94
80 114 93
80 114 94
80 114 94
80 114 93
80 114 94
80 114 93
80 114 94
80 114 94
80 114 94
80 114 94
80 114 93
80 114 93
80 114 93
80 114 93
80 114 93
80 114 93
80 114 93
80 114 93
80 114 93
80 114 93
80 114 93
80 114 93
80 114 93
80 114 93
80 114 93
80 114 93
80 114 93
80 114 93
80 114 93
80 114 93
80 114 93
80 114 93
80 114 93
80 114 93
80 114 93
80 114 93
80 114 93
80 114 93
80 114 93
80 114 93
80 114 93
80 114 93
80 114 93
80 114 93
80 114 93
80 114 93
80 114 93
80 114 93
80 114 93
80 114 93
80 114 93
80 114 93
80 114 93
80 114 93
80 114 93
80 114 93
80 114 93
80 114 93
80 114 93
80 114 93
80 114 93
80 114 93
80 114 93
80 114 93
80 114 93
80 114 93
80 114 93
80 114 93
80 114 93
80 114 93
80 114 93
80 114 93
80 114 93
80 114 93
80 114 93
80 114 93
80 114 93
80 114 93
80 114 93
80 114 93
80 114 93
80 114 93
80 114 93
80 114 93
80 114 93
80 114 93
80 114 93
80 114 93
80 114 93
80 114 93
80 114 93
80 114 93
80 114 93
80 114 93
80 114 93
80 114 93
80 114 93
80 114 93
79 114 93
80 114 93
80 114 93
80 114 93
79 114 93
80 114 93
80 114 93
80 114 93
80 114 93
80 114 93
80 114 93
79 113 93
80 114 93
80 114 93
80 114 93
79 114 93
79 113 93
80 114 93
80 114 93
79 114 93
80 114 93
80 114 93
79 114 93
80 114 93
80 114 93
80 114 93
80 114 93
80 114 93
80 114 93
80 114 93
79 113 93
80 114 93
79 113 93
79 113 93
79 113 93
79 114 93
79 113 93
80 114 93
80 114 93
79 113 93
79 113 93
79 113 93
79 113 93
80 114 93
80 114 93
80 113 93
79 113 93
79 113 93
79 113 93
80 114 93
80 114 93
79 113 93
80 113 93
79 113 93
80 114 93
79 113 93
79 113 93
79 113 93
79 113 93
79 113 93
79 113 93
79 113 93
79 113 93
79 113 93
79 113 93
79 113 93
79 113 93
79 113 93
80 113 93
79 113 93
79 113 93
79 113 93
79 113 93
79 113 93
79 113 93
79 113 93
79 113 93
79 113 93
79 113 93
79 113 93
79 113 93
79 113 93
79 113 93
79 113 93
79 113 93
79 113 93
79 113 93
79 113 93
79 113 93
79 113 93
79 113 93
79 113 93
79 113 93
79 113 93
79 113 93
79 113 93
79 113 93
79 113 92
79 113 93
79 113 93
79 113 93
79 113 93
79 113 93
79 113 93
79 113 93
79 113 92
79 113 93
79 113 93
79 113 93
79 113 92
79 113 93
79 113 93
79 113 93
79 113 93
79 113 93
79 113 93
79 113 93
79 113 93
79 113 93
79 113 93
79 113 93
79 113 93
79 113 93
79 113 93
79 113 92
79 113 92
79 113 92
79 113 92
79 113 92
79 113 92
79 112 92
79 113 92
79 113 92
79 113 92
79 113 92
79 113 92
79 113 92
79 113 92
79 113 92
79 113 92
78 112 92
79 113 92
79 113 92
79 113 92
79 113 92
79 113 92
78 112 92
79 112 92
79 112 92
79 113 92
79 113 92
79 113 92
79 113 92
79 113 92
78 112 92
79 113 92
79 113 92
79 112 92
78 112 92
78 112 92
79 112 92
79 113 92
79 113 92
79 113 92
79 113 92
78 112 92
79 112 92
79 113 92
78 112 92
79 112 92
79 112 92
79 112 92
79 112 92
79 112 92
79 112 92
79 113 92
78 112 92
78 112 92
78 112 92
78 112 92
78 112 92
78 112 92
78 112 92
79 112 92
79 112 92
79 112 92
78 112 92
78 112 92
79 112 92
78 112 92
79 112 92
78 112 92
78 112 92
79 112 92
78 112 92
79 112 92
79 112 92
78 112 92
79 112 92
78 112 92
78 112 92
78 112 92
78 112 92
79 112 92
78 112 92
78 112 92
78 112 92
78 112 92
78 112 92
79 112 92
78 112 92
78 112 92
78 112 92
78 112 92
78 112 92
78 112 92
78 112 92
78 112 92
78 112 92
78 112 92
78 112 92
78 112 92
78 112 92
78 112 92
78 112 92
78 112 92
78 112 92
78 111 92
78 112 92
78 112 92
78 112 92
78 112 92
78 112 92
78 112 92
78 112 92
80 114 94
80 114 94
80 114 94
80 115 94
81 115 94
80 114 94
81 115 94
81 115 94
80 115 94
81 115 94
80 114 94
80 115 94
80 115 94
80 115 94
81 115 94
80 115 94
80 115 94
80 115 94
81 115 94
81 115 94
80 114 94
80 115 94
81 115 94
80 115 94
80 115 94
80 115 94
80 115 94
80 114 94
81 115 94
80 115 94
80 115 94
80 115 94
80 115 94
80 115 94
80 115 94
80 115 94
81 115 94
80 115 94
80 115 94
80 115 94
81 115 94
80 115 94
80 115 94
81 115 94
81 115 94
81 115 94
80 114 94
81 115 94
80 115 94
81 115 94
80 115 94
80 115 94
81 115 94
80 115 94
81 115 94
81 115 94
81 115 94
81 115 94
81 115 94
81 115 94
80 115 94
81 115 94
81 115 94
80 115 94
80 115 94
81 115 94
81 115 94
80 115 94
81 115 94
81 115 94
80 114 94
81 115 94
81 115 94
80 115 94
81 115 94
81 115 94
80 115 94
80 115 94
80 115 94
81 115 94
81 115 94
81 115 94
80 115 94
80 115 94
81 115 94
81 115 94
80 115 94
81 115 94
81 115 94
80 115 94
81 115 94
81 115 94
81 115 94
81 115 94
81 115 94
81 115 94
81 115 94
80 114 94
80 114 94
81 115 94
81 115 94
81 115 94
81 115 94
80 115 94
81 115 94
81 115 94
80 115 94
81 115 94
80 115 94
81 115 94
80 115 94
81 115 94
80 115 94
80 115 94
81 115 94
81 115 94
81 115 94
81 115 94
81 115 94
80 114 94
80 115 94
80 115 94
81 115 94
81 115 94
80 115 94
80 115 94
81 115 94
81 115 94
80 115 94
81 115 94
81 115 94
80 115 94
80 115 94
81 115 94
81 115 94
81 115 94
80 115 94
81 115 94
81 115 94
80 115 94
81 115 94
80 114 94
81 115 94
81 115 94
80 115 94
80 115 94
81 115 94
80 115 94
81 115 94
81 115 94
80 115 94
80 115 94
80 115 94
81 115 94
80 115 94
81 115 94
81 115 94
81 115 94
80 115 94
81 115 94
81 115 94
80 115 94
81 115 94
81 115 94
81 115 94
80 115 94
80 114 93
81 115 94
81 115 94
80 115 94
80 115 94
81 115 94
81 115 94
80 115 94
80 115 94
80 115 94
80 115 94
81 115 94
80 115 94
80 114 94
80 115 94
80 115 94
81 115 94
80 115 94
80 115 94
81 115 94
80 115 94
80 115 94
80 115 94
81 115 94
81 115 94
80 114 94
81 115 94
80 115 94
81 115 94
81 115 94
81 115 94
80 115 94
80 114 94
80 115 94
80 115 94
80 115 94
81 115 94
80 115 94
80 115 94
80 114 94
81 115 94
80 115 94
81 115 94
80 114 94
80 115 94
81 115 94
80 115 94
81 115 94
80 115 94
80 115 94
80 115 94
80 115 94
80 115 94
80 114 93
80 114 94
80 114 94
80 114 94
81 115 94
80 115 94
80 114 94
81 115 94
80 115 94
80 114 94
80 114 94
80 115 94
80 114 94
80 115 94
80 115 94
81 115 94
80 115 94
80 115 94
80 114 94
80 114 94
80 114 94
80 115 94
81 115 94
80 114 94
80 114 94
80 114 94
80 114 94
80 114 94
80 115 94
81 115 94
80 114 94
80 114 93
80 114 93
80 115 94
80 114 94
80 114 93
80 114 94
81 115 94
80 114 94
80 114 93
80 114 94
80 114 94
80 114 94
80 115 94
80 114 94
80 114 93
80 114 93
80 114 94
80 114 94
80 115 94
80 114 94
80 114 93
80 114 94
80 114 94
80 114 93
80 114 94
80 114 94
80 114 94
80 114 94
80 114 94
81 115 94
80 114 94
80 114 94
80 114 93
80 114 94
80 114 94
80 114 93
80 114 94
80 114 94
80 114 94
80 114 94
80 114 94
80 114 94
80 114 93
80 114 93
80 114 93
80 114 93
80 114 93
80 114 93
80 114 93
80 114 93
80 114 93
80 114 93
80 114 93
80 114 93
80 114 93
80 114 93
80 114 93
80 114 93
80 115 93
80 114 93
80 114 93
80 114 93
80 114 93
81 115 93
80 114 93
80 114 93
80 114 93
80 114 93
80 114 93
80 114 93
80 114 93
80 114 93
80 114 93
80 114 93
80 114 93
80 114 93
80 114 93
80 114 93
80 114 93
80 114 93
80 114 93
80 114 93
80 114 93
80 114 93
80 114 93
80 114 93
80 114 93
80 114 93
80 114 93
80 114 93
80 114 93
80 114 93
80 114 93
80 114 93
80 114 93
80 114 93
80 114 93
80 114 93
80 114 93
80 114 93
80 114 93
80 114 93
80 114 93
80 114 93
80 114 93
80 114 93
80 114 93
80 114 93
80 114 93
80 114 93
80 114 93
80 114 93
80 114 93
80 114 93
80 114 93
80 114 93
79 114 93
80 114 93
80 114 93
80 114 93
80 114 93
80 114 93
80 114 93
80 114 93
80 114 93
80 114 93
80 114 93
80 114 93
80 114 93
80 114 93
80 114 93
80 114 93
80 114 93
80 114 93
80 114 93
79 113 93
80 114 93
80 114 93
79 114 93
80 114 93
80 114 93
80 114 93
80 114 93
79 113 93
80 114 93
80 114 93
80 114 93
80 114 93
80 113 93
80 114 93
80 114 93
79 113 93
80 114 93
79 113 93
80 114 93
80 114 93
80 114 93
79 113 93
79 113 93
80 114 93
79 113 93
80 114 93
79 114 93
80 114 93
80 114 93
80 114 93
80 114 93
79 113 93
80 114 93
80 114 93
79 113 93
79 113 93
79 113 93
79 113 93
79 113 93
80 113 93
79 113 93
79 113 93
79 113 93
79 113 93
79 113 93
79 113 93
79 113 93
79 113 93
79 113 93
79 113 93
79 113 93
80 113 93
79 113 93
79 113 93
79 113 93
79 113 93
79 113 93
79 113 93
79 113 93
79 113 93
79 113 93
79 113 92
79 113 93
79 113 93
79 113 93
79 113 93
79 113 93
79 113 93
79 113 93
79 113 93
79 113 93
79 113 93
79 113 93
79 113 93
79 113 93
79 113 93
80 113 93
79 113 93
79 113 93
79 113 93
79 113 93
79 113 93
79 113 93
79 113 93
79 113 93
79 113 93
79 113 93
79 113 93
79 113 93
79 113 93
79 113 93
79 113 93
79 113 93
79 113 93
79 113 93
79 113 93
79 113 93
79 113 93
79 113 92
79 113 93
79 112 92
79 113 93
79 113 93
79 113 93
79 113 93
79 113 93
79 113 93
79 113 92
79 113 93
79 113 93
79 113 92
79 113 92
79 113 92
78 112 92
79 113 92
79 112 92
79 113 92
79 113 92
79 113 92
79 113 92
79 113 92
79 112 92
79 113 92
79 113 92
79 113 92
79 113 92
79 113 92
79 113 92
79 113 92
79 113 92
79 112 92
78 112 92
79 113 92
79 113 92
79 113 92
79 112 92
79 113 92
79 112 92
78 112 92
78 112 92
79 113 92
79 113 92
79 113 92
79 113 92
78 112 92
79 113 92
79 113 92
79 112 92
79 112 92
79 113 92
79 112 92
78 112 92
78 112 92
79 112 92
78 112 92
78 112 92
79 112 92
78 112 92
78 112 92
78 112 92
79 112 92
78 112 92
79 112 92
79 112 92
78 112 92
78 112 92
79 112 92
78 112 92
78 112 92
79 113 92
79 112 92
79 112 92
78 112 92
79 112 92
79 112 92
79 112 92
79 112 92
78 112 92
79 112 92
78 112 92
78 112 92
79 112 92
79 112 92
78 112 92
78 112 92
78 112 92
78 112 92
78 112 92
78 112 92
78 112 92
78 112 92
78 112 92
79 112 92
78 112 92
78 112 92
78 112 92
78 112 92
78 112 92
78 112 92
78 112 92
78 112 92
78 112 92
78 112 92
78 112 92
78 112 92
78 112 92
78 112 92
78 112 92
78 112 92
78 112 92
78 112 92
78 112 92
78 112 92
78 112 92
80 115 94
80 115 94
80 115 94
80 115 94
81 115 94
81 115 94
80 115 94
81 115 94
80 115 94
81 115 94
81 115 94
81 115 94
81 115 94
81 115 94
80 115 94
81 115 94
80 115 94
81 115 94
80 115 94
81 115 94
81 115 94
81 115 94
81 115 94
81 115 94
80 115 94
81 115 94
80 115 94
80 115 94
81 115 94
80 115 94
80 115 94
80 114 94
80 115 94
80 115 94
80 115 94
81 115 94
80 115 94
81 115 94
81 115 94
80 115 94
81 115 94
80 115 94
80 114 94
81 115 94
80 115 94
80 114 94
81 115 94
81 115 94
81 115 94
81 115 94
81 115 94
81 115 94
80 115 94
80 115 94
81 115 94
81 115 94
80 115 94
81 115 94
80 115 94
81 115 94
80 115 94
80 115 94
81 115 94
81 115 94
81 115 94
80 115 94
81 115 94
81 115 94
80 115 94
81 115 94
80 115 94
80 115 94
81 115 94
80 115 94
81 115 94
80 115 94
80 115 94
81 115 94
81 115 94
81 115 94
81 115 94
80 115 94
81 115 94
81 115 94
81 115 94
81 115 94
81 115 94
81 115 94
81 115 94
81 115 94
80 115 94
80 115 94
80 115 94
81 115 94
81 115 94
80 114 94
81 115 94
81 115 94
80 114 94
81 115 94
80 115 94
81 115 94
80 115 94
81 115 94
81 115 94
80 115 94
81 115 94
80 115 94
81 115 94
81 115 94
81 115 94
81 115 94
80 115 94
81 115 94
80 115 94
81 115 94
81 115 94
81 115 94
81 115 94
80 115 94
80 115 94
80 115 94
81 115 94
81 115 94
81 115 94
81 115 94
81 115 94
80 115 94
80 115 94
80 115 94
81 115 94
81 115 94
81 115 94
81 115 94
81 115 94
81 115 94
81 115 94
80 115 94
81 115 94
81 115 94
81 115 94
80 115 94
81 115 94
81 115 94
80 115 94
81 115 94
81 115 94
81 115 94
81 115 94
80 115 94
80 115 94
81 115 94
80 115 94
81 115 94
81 115 94
80 115 94
81 115 94
81 115 94
81 115 94
80 115 94
80 115 94
80 115 94
80 115 94
81 115 94
81 115 94
81 115 94
81 115 94
81 115 94
81 115 94
80 115 94
80 115 94
81 115 94
81 115 94
80 115 94
81 115 94
81 115 94
81 115 94
80 115 94
80 115 94
80 114 94
80 115 94
81 115 94
81 115 94
81 115 94
80 115 94
80 115 94
80 115 94
80 115 94
80 115 94
80 114 94
80 115 94
81 115 94
81 115 94
80 115 94
81 115 94
81 115 94
80 115 94
80 115 94
81 115 94
81 115 94
80 115 94
80 115 94
81 115 94
81 115 94
80 114 94
81 115 94
80 115 94
81 115 94
80 115 94
80 115 94
81 115 94
80 115 94
81 115 94
81 115 94
80 115 94
81 115 94
80 115 94
81 115 94
80 115 94
80 114 94
80 114 94
80 115 94
80 115 94
80 114 94
80 114 94
81 115 94
80 115 94
80 114 94
81 115 94
81 115 94
81 115 94
80 115 94
80 115 94
80 115 94
80 115 94
80 114 94
80 114 93
80 115 94
81 115 94
80 114 93
80 115 94
81 115 94
80 115 94
80 115 94
80 114 94
80 114 94
80 114 93
80 115 94
80 114 94
81 115 94
80 114 94
80 114 94
80 114 94
80 114 94
80 114 94
80 115 94
80 114 94
80 115 94
80 115 94
80 115 94
80 115 94
80 114 94
80 114 93
80 115 94
80 115 94
81 115 93
80 114 94
80 114 94
80 114 94
80 114 94
80 115 94
80 114 94
81 115 94
81 115 94
80 114 94
80 114 94
80 114 94
80 114 93
80 115 94
80 114 94
80 115 94
80 114 93
80 114 94
80 114 94
80 114 94
80 114 94
80 114 94
80 114 93
80 115 94
80 115 94
80 114 94
80 114 93
80 114 94
80 114 94
80 114 94
80 114 94
80 114 94
80 114 94
80 114 94
80 114 94
80 114 93
80 114 93
80 114 94
80 114 94
80 114 94
80 114 94
80 114 93
80 114 93
80 114 93
81 115 93
80 115 93
80 114 93
80 114 93
80 114 93
80 114 93
80 114 93
80 114 93
80 114 93
80 114 93
80 114 93
80 114 93
80 114 93
80 114 93
80 114 93
80 114 93
80 114 93
80 114 93
80 114 93
80 114 93
80 114 93
80 114 93
80 114 93
80 114 93
80 114 93
80 114 93
80 114 93
80 114 93
80 114 93
80 114 93
80 114 93
80 114 93
80 114 93
80 114 93
80 114 93
80 114 93
80 114 93
80 114 93
80 114 93
80 114 93
80 114 93
80 114 93
80 114 93
80 114 93
80 114 93
80 114 93
80 114 93
80 114 93
80 114 93
80 114 93
80 114 93
79 114 93
80 114 93
80 114 93
80 114 93
80 114 93
80 114 93
80 114 93
80 114 93
80 114 93
80 114 93
80 114 93
80 114 93
80 114 93
80 114 93
80 114 93
80 114 93
80 114 93
80 114 93
79 113 93
80 114 93
80 114 93
80 114 93
80 114 93
80 114 93
80 114 93
80 114 93
80 114 93
80 114 93
80 114 93
79 114 93
79 113 93
80 114 93
80 114 93
80 114 93
79 114 93
80 114 93
79 113 93
80 114 93
80 114 93
80 114 93
79 113 93
80 114 93
80 114 93
80 114 93
80 114 93
79 114 93
80 114 93
80 114 93
80 114 93
79 113 93
80 114 93
80 114 93
79 113 93
80 114 93
79 113 93
80 114 93
79 113 93
80 114 93
80 114 93
80 114 93
79 114 93
79 113 93
79 113 93
79 113 93
79 113 93
79 113 93
80 114 93
80 113 93
79 113 93
79 113 93
79 113 93
79 113 93
79 113 93
79 113 93
80 113 93
79 113 93
79 113 93
79 113 93
79 113 93
80 114 93
79 113 93
79 113 93
80 113 93
80 114 93
80 113 93
79 113 93
80 113 93
79 113 93
79 113 93
79 113 93
79 113 93
79 113 93
79 113 93
79 113 93
79 113 93
79 113 93
79 113 93
79 113 93
79 113 93
79 113 93
79 113 93
80 113 93
79 113 93
79 113 93
79 113 93
79 113 93
79 113 93
80 113 93
79 113 93
79 113 93
79 113 93
79 113 93
79 113 93
79 113 93
79 113 93
79 113 93
79 113 93
79 113 93
79 113 93
79 113 92
79 113 93
79 113 93
79 113 93
79 113 93
79 113 93
79 113 93
79 113 92
79 113 92
79 113 93
79 113 93
79 113 93
79 113 93
79 113 92
79 113 92
79 113 93
79 113 93
79 113 93
79 113 93
79 113 93
79 113 93
79 113 93
79 113 93
79 113 93
79 113 93
79 113 92
79 113 92
79 113 92
79 113 92
79 113 92
79 113 92
79 113 92
79 113 92
79 113 92
79 113 92
79 113 92
79 113 92
79 113 92
79 113 92
79 112 92
79 113 92
79 112 92
79 113 92
79 113 92
79 113 92
79 113 92
79 113 92
79 113 92
79 113 92
79 112 92
78 112 92
79 113 92
79 113 92
79 113 92
79 112 92
79 113 92
79 112 92
79 112 92
79 113 92
79 112 92
79 113 92
79 113 92
78 112 92
78 112 92
79 112 92
78 112 92
79 113 92
78 112 92
79 112 92
79 112 92
79 113 92
79 112 92
79 112 92
78 112 92
79 112 92
79 112 92
78 112 92
78 112 92
78 112 92
78 112 92
79 112 92
78 112 92
79 112 92
78 112 92
78 112 92
78 112 92
79 112 92
79 112 92
78 112 92
78 112 92
79 112 92
78 112 92
78 112 92
78 112 92
79 112 92
78 112 92
79 112 92
78 112 92
78 112 92
78 112 92
78 112 92
78 112 92
78 112 92
78 112 92
78 112 92
78 112 92
78 112 92
78 112 92
78 112 92
78 112 92
78 112 92
78 112 92
78 112 92
78 112 92
78 112 92
78 112 92
78 112 92
79 112 92
78 112 92
78 112 92
78 112 92
80 115 94
81 115 94
81 115 94
80 115 94
81 115 94
80 115 94
81 115 94
81 115 94
81 115 94
81 115 94
81 115 94
81 115 94
80 115 94
81 115 94
80 115 94
80 115 94
81 115 94
81 115 94
81 115 94
81 115 94
81 115 94
80 115 94
81 115 94
81 115 94
81 115 94
81 115 94
81 115 94
80 115 94
81 115 94
81 115 94
81 115 94
80 115 94
81 115 94
81 115 94
80 115 94
81 115 94
81 115 94
81 115 94
80 115 94
80 115 94
81 115 94
81 115 94
81 115 94
81 115 94
81 115 94
81 115 94
81 115 94
80 115 94
81 115 94
81 115 94
81 115 94
81 115 94
81 115 94
81 115 94
81 115 94
81 115 94
81 115 94
80 115 94
81 115 94
81 115 94
81 115 94
81 115 94
81 115 94
81 115 94
81 115 94
81 115 94
80 115 94
81 115 94
81 115 94
81 115 94
81 115 94
81 115 94
81 115 94
81 115 94
81 115 94
81 115 94
81 115 94
81 115 94
81 115 94
81 115 94
81 115 94
81 115 94
81 115 94
80 115 94
81 115 94
81 115 94
80 115 94
81 115 94
81 115 94
81 115 94
81 115 94
81 115 94
81 115 94
81 115 94
80 115 94
81 115 94
80 115 94
81 115 94
81 115 94
81 115 94
81 115 94
81 115 94
80 115 94
81 115 94
80 115 94
81 115 94
81 115 94
81 115 94
81 115 94
80 115 94
81 115 94
81 115 94
81 115 94
81 115 94
81 115 94
81 115 94
81 115 94
81 115 94
80 115 94
81 115 94
81 115 94
81 115 94
81 115 94
81 115 94
81 115 94
81 115 94
80 115 94
81 115 94
81 115 94
81 115 94
81 115 94
81 115 94
81 115 94
81 115 94
81 115 94
81 115 94
81 115 94
81 115 94
81 115 94
81 115 94
81 115 94
81 115 94
80 115 94
81 115 94
81 115 94
81 115 94
81 115 94
80 115 94
80 115 94
81 115 94
81 115 94
80 115 94
81 115 94
80 115 94
80 115 94
81 115 94
81 115 94
81 115 94
81 115 94
80 115 94
81 115 94
81 115 94
81 115 94
81 115 94
81 115 94
80 114 94
80 115 94
81 115 94
81 115 94
81 115 94
80 115 94
81 115 94
81 115 94
80 115 94
81 115 94
80 115 94
80 115 94
81 115 94
81 115 94
81 115 94
80 115 94
81 115 94
80 115 94
81 115 94
81 115 94
81 115 94
81 115 94
81 115 94
80 115 94
81 115 94
81 115 94
81 115 94
81 115 94
81 115 94
80 115 94
80 115 94
81 115 94
80 114 94
80 115 94
80 115 94
80 115 94
80 115 94
81 115 94
80 115 94
81 115 94
81 115 94
81 115 94
80 115 94
81 115 94
80 115 94
81 115 94
80 114 94
80 115 94
81 115 94
80 115 94
81 115 94
80 115 94
81 115 94
81 115 94
80 115 94
81 115 94
80 115 94
80 114 94
81 115 94
81 115 94
80 115 94
80 114 94
80 114 94
80 114 94
81 115 94
80 114 94
80 115 94
80 115 94
80 115 94
80 114 94
80 115 94
81 115 94
81 115 94
80 115 94
80 115 94
80 114 94
80 115 94
81 115 94
80 115 94
80 115 94
81 115 94
80 115 94
80 114 93
80 115 94
80 115 94
80 114 94
80 115 94
80 115 94
80 114 94
81 115 94
80 114 94
80 114 94
80 115 94
80 115 94
81 115 94
80 115 94
80 115 94
81 115 94
80 114 94
80 114 94
80 114 94
80 114 94
80 115 94
80 114 94
80 115 94
80 115 94
80 114 94
80 115 94
81 115 94
81 115 94
81 115 94
80 114 94
80 114 94
81 115 94
80 115 94
80 115 94
80 115 94
80 114 94
80 115 94
81 115 94
80 115 94
80 114 93
80 114 94
80 115 94
80 114 94
80 115 94
80 114 94
80 115 94
80 115 94
80 114 94
80 114 94
80 114 94
80 114 94
80 114 94
80 115 94
80 114 94
80 115 94
80 114 93
80 114 93
80 114 93
80 114 94
80 114 93
80 114 93
80 114 94
80 114 94
80 115 94
80 114 94
80 114 94
80 114 94
80 114 94
80 114 94
80 114 94
81 115 94
80 114 94
80 114 94
80 115 93
80 114 93
80 114 93
80 114 93
80 114 93
80 114 93
80 114 93
80 114 93
80 114 93
80 114 93
80 114 93
80 114 93
80 114 93
80 114 93
80 114 93
80 114 93
80 114 93
80 114 93
80 114 93
80 114 93
80 114 93
80 114 93
80 114 93
80 114 93
80 114 93
80 114 93
80 114 93
80 114 93
80 114 93
80 114 93
80 114 93
80 114 93
80 114 93
80 114 93
80 114 93
80 114 93
80 114 93
80 114 93
80 114 93
80 114 93
80 114 93
80 114 93
80 114 93
80 114 93
80 114 93
80 114 93
80 114 93
80 114 93
80 114 93
80 114 93
80 114 93
80 114 93
80 114 93
80 114 93
80 114 93
80 114 93
80 114 93
80 114 93
80 114 93
80 114 93
80 114 93
80 114 93
79 113 93
80 114 93
80 114 93
80 114 93
80 114 93
80 114 93
80 114 93
80 114 93
80 114 93
80 114 93
80 114 93
80 114 93
80 114 93
80 114 93
80 114 93
80 114 93
80 114 93
80 114 93
79 114 93
79 114 93
80 114 93
80 114 93
80 114 93
80 114 93
79 113 93
80 114 93
80 114 93
80 114 93
79 113 93
79 113 93
79 113 93
80 114 93
79 113 93
80 114 93
79 113 93
79 113 93
80 114 93
79 113 93
80 114 93
79 113 93
79 113 93
79 113 93
79 113 93
80 114 93
80 114 93
79 113 93
80 114 93
79 113 93
79 113 93
80 114 93
79 113 93
80 114 93
79 113 93
79 113 93
79 113 93
79 113 93
79 113 93
79 113 93
79 113 93
80 113 93
79 113 93
79 113 93
79 113 93
80 113 93
79 113 93
79 113 93
79 113 93
79 113 93
79 113 93
80 113 93
79 113 93
79 113 93
79 113 93
79 113 93
79 113 93
79 113 93
79 113 93
80 113 93
79 113 93
80 113 93
79 113 93
79 113 93
79 113 93
79 113 93
79 113 93
79 113 93
79 113 93
79 113 93
79 113 93
79 113 93
79 113 93
79 113 93
79 113 93
79 113 93
79 113 93
79 113 93
79 113 93
79 113 93
79 113 93
79 113 93
79 113 93
79 113 93
79 113 93
79 113 93
79 113 93
79 113 93
79 113 93
79 113 93
79 113 92
79 113 93
79 113 93
79 113 93
79 113 93
79 113 93
79 113 93
79 113 93
79 113 93
79 113 93
79 113 93
79 113 93
79 113 93
79 113 93
79 113 93
79 113 93
79 113 93
79 113 92
79 113 93
79 113 93
79 113 92
79 113 92
79 113 92
79 113 92
79 113 92
79 113 92
79 113 92
79 113 92
79 113 92
79 113 92
79 113 92
79 113 92
79 113 92
79 113 92
79 113 92
79 113 92
79 113 92
79 113 92
79 113 92
79 113 92
78 112 92
79 113 92
79 113 92
79 113 92
79 113 92
79 113 92
79 113 92
79 112 92
79 113 92
79 113 92
79 112 92
79 113 92
79 113 92
79 112 92
78 112 92
79 112 92
78 112 92
79 113 92
79 112 92
79 113 92
79 113 92
78 112 92
78 112 92
78 112 92
78 112 92
79 112 92
79 112 92
78 112 92
79 113 92
79 112 92
78 112 92
78 112 92
79 112 92
79 112 92
78 112 92
79 112 92
79 112 92
78 112 92
78 112 92
79 113 92
78 112 92
79 112 92
79 112 92
78 112 92
78 112 92
79 112 92
78 112 92
78 112 92
78 112 92
78 112 92
78 112 92
78 112 92
78 112 92
78 112 92
79 112 92
78 112 92
78 112 92
78 112 92
78 112 92
78 112 92
78 112 92
78 112 92
78 112 92
78 112 92
78 112 92
79 112 92
78 112 92
78 112 92
78 112 92
78 112 92
80 115 94
80 115 94
81 115 94
81 115 94
81 115 94
81 115 94
80 115 94
81 115 94
81 115 94
81 115 94
81 115 94
80 115 94
81 115 94
81 115 94
81 115 94
81 115 94
81 115 94
81 115 94
81 115 94
81 115 94
81 115 94
80 115 94
81 115 94
81 115 94
81 115 94
81 115 94
81 115 94
80 115 94
81 115 94
81 115 94
81 115 94
81 115 94
80 115 94
81 115 94
81 115 94
81 115 94
80 115 94
81 115 94
81 115 94
80 115 94
81 115 94
81 115 94
81 115 94
81 115 94
81 115 94
81 115 94
81 115 94
81 115 94
81 115 94
81 115 94
81 115 94
81 115 94
81 115 94
80 115 94
81 115 94
81 115 94
81 115 94
81 115 94
81 115 94
81 115 94
81 115 94
81 115 94
81 115 94
81 115 94
81 115 94
81 115 94
81 115 94
80 115 94
81 115 94
81 115 94
81 115 94
81 115 94
81 115 94
81 115 94
81 115 94
81 115 94
81 115 94
81 115 94
81 115 94
81 115 94
81 115 94
81 115 94
81 115 94
81 115 94
81 115 94
81 115 94
81 115 94
81 115 94
81 115 94
80 115 94
81 115 94
81 115 94
81 115 94
80 115 94
81 115 94
81 115 94
81 115 94
81 115 94
81 115 94
81 115 94
81 115 94
80 115 94
81 115 94
81 115 94
81 115 94
81 115 94
81 115 94
81 115 94
81 115 94
81 115 94
81 115 94
81 115 94
81 115 94
81 115 94
81 115 94
81 115 94
81 115 94
81 115 94
81 115 94
81 115 94
81 115 94
81 115 94
81 115 94
81 115 94
81 115 94
81 115 94
81 115 94
81 115 94
80 115 94
81 115 94
81 115 94
81 115 94
81 115 94
81 115 94
81 115 94
81 115 94
81 115 94
81 115 94
81 115 94
81 115 94
81 115 94
81 115 94
81 115 94
81 115 94
81 115 94
80 115 94
81 115 94
81 115 94
81 115 94
81 115 94
80 115 94
81 115 94
81 115 94
81 115 94
81 115 94
81 115 94
81 115 94
81 115 94
81 115 94
81 115 94
81 115 94
80 115 94
81 115 94
81 115 94
80 115 94
81 115 94
81 115 94
81 115 94
81 115 94
81 115 94
81 115 94
81 115 94
81 115 94
81 115 94
80 115 94
81 115 94
81 115 94
81 115 94
81 115 94
81 115 94
81 115 94
80 114 94
80 115 94
80 115 94
81 115 94
81 115 94
81 115 94
80 115 94
80 115 94
81 115 94
80 115 94
81 115 94
81 115 94
81 115 94
81 115 94
81 115 94
81 115 94
80 115 94
80 115 94
80 115 94
81 115 94
81 115 94
81 115 94
81 115 94
81 115 94
81 115 94
81 115 94
80 115 94
80 115 94
81 115 94
80 115 94
80 115 94
81 115 94
80 115 94
81 115 94
81 115 94
81 115 94
81 115 94
81 115 94
80 115 94
81 115 94
80 114 93
81 115 94
81 115 94
81 115 94
81 115 94
80 115 94
81 115 94
81 115 94
81 115 94
81 115 94
80 115 94
80 115 94
80 115 94
81 115 94
80 115 94
81 115 94
80 115 94
80 115 94
80 115 94
80 115 94
80 114 94
80 115 94
80 115 94
81 115 94
80 115 94
81 115 94
80 114 94
80 114 94
80 114 94
80 115 94
81 115 94
81 115 94
81 115 94
81 115 94
80 115 94
80 115 94
80 115 94
80 115 94
80 114 94
81 115 94
80 115 94
80 114 94
80 115 94
80 115 94
80 115 94
80 115 94
80 115 94
80 115 94
80 114 94
80 115 94
80 115 94
80 115 94
80 115 94
81 115 94
80 115 94
80 115 94
81 115 94
80 114 94
80 114 94
80 114 94
80 115 94
80 114 94
80 114 94
81 115 94
80 115 94
80 114 94
80 115 94
80 115 94
81 115 94
80 115 94
80 115 94
80 115 94
80 114 93
80 114 94
80 115 94
81 115 94
80 115 94
80 114 94
80 115 94
80 114 94
81 115 94
80 115 94
81 114 93
80 114 94
80 114 94
80 115 94
80 114 94
80 114 94
80 114 94
80 114 93
80 114 94
80 114 93
80 114 94
80 114 94
80 114 93
80 114 94
80 114 94
80 114 94
80 114 94
80 114 94
80 114 93
80 114 93
80 114 94
80 114 93
80 114 93
80 114 94
80 114 94
80 114 94
80 114 94
80 114 94
80 114 93
80 114 93
80 114 93
80 114 93
80 114 93
80 114 93
80 114 93
80 114 93
80 114 93
80 114 93
80 114 93
80 114 93
80 114 93
80 114 93
80 114 93
80 114 93
80 114 93
80 114 93
80 114 93
80 114 93
80 114 93
80 114 93
80 114 93
80 114 93
80 114 93
80 114 93
80 114 93
80 114 93
80 114 93
80 114 93
80 114 93
80 114 93
80 114 93
80 114 93
80 114 93
79 114 93
80 114 93
80 114 93
80 114 93
80 114 93
80 114 93
80 114 93
80 114 93
80 114 93
80 114 93
80 114 93
80 114 93
80 114 93
80 114 93
80 114 93
80 114 93
80 114 93
79 114 93
80 114 93
80 114 93
80 114 93
80 114 93
80 114 93
80 114 93
80 114 93
80 114 93
80 114 93
80 114 93
80 114 93
80 114 93
80 114 93
80 114 93
80 114 93
80 114 93
80 114 93
80 114 93
80 114 93
80 114 93
80 114 93
80 114 93
80 114 93
80 114 93
80 114 93
80 114 93
80 114 93
80 114 93
80 114 93
80 114 93
80 114 93
79 114 93
80 114 93
80 114 93
80 114 93
80 114 93
79 114 93
80 114 93
79 113 93
80 113 93
80 114 93
80 114 93
80 114 93
79 114 93
79 113 93
80 114 93
80 114 93
80 114 93
79 113 93
79 113 93
80 114 93
79 113 93
80 114 93
79 113 93
80 114 93
80 114 93
79 113 93
80 114 93
80 114 93
79 113 93
79 113 93
79 113 93
79 113 93
80 114 93
79 113 93
80 114 93
79 113 93
79 113 93
79 113 93
79 113 93
80 114 93
79 113 93
79 113 93
79 113 93
79 113 93
79 113 93
79 113 93
79 113 93
79 113 93
79 113 93
79 113 93
80 113 93
79 113 93
79 113 93
79 113 93
79 113 93
79 113 93
79 113 93
79 113 93
79 113 93
79 113 93
79 113 93
79 113 93
79 113 93
79 113 93
79 113 93
79 113 93
79 113 93
79 113 93
79 113 93
79 113 93
79 113 93
79 113 93
79 113 93
79 113 93
79 113 93
79 113 93
79 113 93
79 113 92
79 113 93
79 113 93
79 113 93
79 113 92
79 113 93
79 113 93
79 113 93
79 113 93
80 113 93
79 113 93
79 113 93
79 113 92
79 113 93
79 113 93
79 113 93
79 113 93
79 113 93
79 113 93
79 113 93
79 113 93
79 113 93
79 113 93
79 113 92
79 113 93
79 113 93
79 113 92
79 113 92
79 113 92
79 113 92
79 113 92
79 113 92
79 113 92
78 112 92
79 113 92
79 113 92
79 113 92
79 113 92
79 113 92
79 113 92
79 112 92
79 113 92
79 112 92
79 112 92
79 113 92
79 113 92
79 113 92
79 113 92
78 112 92
79 113 92
79 113 92
79 113 92
78 112 92
79 113 92
79 113 92
79 113 92
79 113 92
78 112 92
79 113 92
79 113 92
78 112 92
79 113 92
79 112 92
78 112 92
79 113 92
79 112 92
79 112 92
79 112 92
79 112 92
79 112 92
78 112 92
79 112 92
78 112 92
78 112 92
78 112 92
79 112 92
78 112 92
79 112 92
79 112 92
79 112 92
78 112 92
78 112 92
79 112 92
78 112 92
78 112 92
78 112 92
79 112 92
78 112 92
78 112 92
79 112 92
79 112 92
78 112 92
78 112 92
79 112 92
78 112 92
78 112 92
79 112 92
78 112 92
78 112 92
78 112 92
78 112 92
78 112 92
78 112 92
78 112 92
78 112 92
78 112 92
78 112 92
78 112 92
81 115 94
81 115 94
80 115 94
80 115 94
81 115 94
81 115 94
81 115 94
81 115 94
81 115 94
81 115 94
80 115 94
81 115 94
81 115 94
81 115 94
81 115 94
81 115 94
81 115 94
81 115 94
81 115 94
81 115 94
81 115 94
80 115 94
81 115 94
81 115 94
81 115 94
81 115 94
81 115 94
81 115 94
81 115 94
81 115 94
81 115 94
81 115 94
80 115 94
81 115 94
81 115 94
81 115 94
81 115 94
81 115 94
81 115 94
81 115 94
81 115 94
81 115 94
81 115 94
81 115 94
81 115 94
81 115 94
81 115 94
81 115 94
81 115 94
81 115 94
81 115 94
81 115 94
81 115 94
81 115 94
81 115 94
81 115 94
81 115 94
81 115 94
80 115 94
81 115 94
81 115 94
81 115 94
81 115 94
81 115 94
81 115 94
81 115 94
81 115 94
81 115 94
81 115 94
81 115 94
81 115 94
81 115 94
81 115 94
81 115 94
81 115 94
81 115 94
81 115 94
81 115 94
81 115 94
81 115 94
81 115 94
81 115 94
81 115 94
81 115 94
81 115 94
81 115 94
80 115 94
81 115 94
81 115 94
81 115 94
81 115 94
81 115 94
81 115 94
81 115 94
81 115 94
81 115 94
81 115 94
81 115 94
81 115 94
81 115 94
81 115 94
81 115 94
81 115 94
81 115 94
81 115 94
81 115 94
81 115 94
81 115 94
81 115 94
81 115 94
81 115 94
81 115 94
81 115 94
81 115 94
81 115 94
81 115 94
81 115 94
81 115 94
81 115 94
81 115 94
81 115 94
81 115 94
81 115 94
81 115 94
81 115 94
81 115 94
81 115 94
81 115 94
81 115 94
81 115 94
80 115 94
81 115 94
80 115 94
81 115 94
81 115 94
81 115 94
81 115 94
81 115 94
81 115 94
81 115 94
81 115 94
81 115 94
80 115 94
81 115 94
81 115 94
81 115 94
81 115 94
81 115 94
81 115 94
81 115 94
81 115 94
81 115 94
81 115 94
81 115 94
81 115 94
81 115 94
81 115 94
81 115 94
81 115 94
81 115 94
81 115 94
81 115 94
81 115 94
81 115 94
81 115 94
81 115 94
81 115 94
81 115 94
81 115 94
81 115 94
81 115 94
81 115 94
80 115 94
81 115 94
81 115 94
81 115 94
81 115 94
81 115 94
80 115 94
81 115 94
81 115 94
81 115 94
81 115 94
81 115 94
81 115 94
81 115 94
81 115 94
81 115 94
81 115 94
81 115 94
81 115 94
80 115 94
81 115 94
81 115 94
80 115 94
81 115 94
81 115 94
81 115 94
81 115 94
81 115 94
81 115 94
81 115 94
80 115 94
81 115 94
81 115 94
81 115 94
81 115 94
80 115 94
81 115 94
81 115 94
81 115 94
81 115 94
80 115 94
81 115 94
80 115 94
80 115 94
81 115 94
81 115 94
81 115 94
81 115 94
81 115 94
81 115 94
81 115 94
81 115 94
81 115 94
80 115 94
81 115 94
81 115 94
81 115 94
81 115 94
81 115 94
80 115 94
81 115 94
81 115 94
81 115 94
80 115 94
81 115 94
81 115 94
81 115 94
81 115 94
80 115 94
80 115 94
81 115 94
81 115 94
81 115 94
80 114 94
80 115 94
80 115 94
81 115 94
80 115 94
81 115 94
81 115 94
81 115 94
80 115 94
80 115 94
80 115 94
81 115 94
81 115 94
81 115 94
81 115 94
81 115 94
81 115 94
80 115 94
80 114 94
80 115 94
80 115 94
81 115 94
80 115 94
80 115 94
81 115 94
81 115 94
80 115 94
80 115 94
81 115 94
81 115 94
81 115 94
81 115 94
80 114 94
81 115 94
80 115 94
80 114 94
81 115 94
80 115 94
80 115 94
80 114 94
81 115 94
80 115 94
80 115 94
81 115 94
80 114 94
80 115 94
80 115 94
80 114 94
80 114 93
81 115 94
80 114 94
80 115 94
80 115 94
81 115 94
80 114 93
80 115 94
81 115 94
80 115 94
80 115 94
80 114 93
80 114 94
80 115 94
80 115 94
80 115 94
81 115 94
80 114 93
80 114 93
80 114 94
80 114 94
80 114 93
80 114 94
80 114 94
80 114 94
80 114 94
80 114 94
80 114 93
80 114 94
80 114 94
80 114 94
80 114 93
80 115 94
80 114 93
80 114 94
80 114 94
80 115 94
80 114 94
80 115 94
80 114 94
80 114 94
80 114 94
80 114 93
80 114 94
80 114 94
80 114 94
80 114 94
80 114 93
80 114 94
80 114 94
80 114 94
80 114 93
80 114 93
80 114 93
80 114 93
80 114 93
80 114 93
80 114 93
80 114 93
80 114 93
80 114 93
80 114 93
80 114 93
80 114 93
80 114 93
80 114 93
80 114 93
80 114 93
80 114 93
80 114 93
80 114 93
80 114 93
80 114 93
80 114 93
80 114 93
80 114 93
80 114 93
80 114 93
80 114 93
80 114 93
80 114 93
80 114 93
80 114 93
80 114 93
80 114 93
80 114 93
80 114 93
80 114 93
80 114 93
80 114 93
80 114 93
80 114 93
80 114 93
80 114 93
80 114 93
80 114 93
80 114 93
80 114 93
80 114 93
80 114 93
80 114 93
80 114 93
80 114 93
80 114 93
80 114 93
80 114 93
80 114 93
80 114 93
80 114 93
80 114 93
80 114 93
79 114 93
80 114 93
80 114 93
80 114 93
80 114 93
80 114 93
80 114 93
80 114 93
80 114 93
80 114 93
80 114 93
79 114 93
80 114 93
80 114 93
80 114 93
80 114 93
80 114 93
80 114 93
80 114 93
80 114 93
80 114 93
80 114 93
79 114 93
80 114 93
80 113 93
80 114 93
79 113 93
80 114 93
80 114 93
80 114 93
79 113 93
80 114 93
79 114 93
80 114 93
80 114 93
80 114 93
79 113 93
79 113 93
80 114 93
79 113 93
79 113 93
79 113 93
79 113 93
80 114 93
80 114 93
80 114 93
79 113 93
80 114 93
80 114 93
79 113 93
80 114 93
80 114 93
80 114 93
80 114 93
80 113 93
79 113 93
79 113 93
79 113 93
79 113 93
79 113 93
79 113 93
80 114 93
79 113 93
79 113 93
80 114 93
79 113 93
79 113 93
79 113 93
79 113 93
79 113 93
79 113 93
79 113 93
79 113 93
79 113 93
79 113 93
79 113 93
79 113 93
79 113 93
79 113 93
79 113 93
79 113 93
79 113 93
79 113 93
79 113 93
79 113 93
79 113 93
79 113 93
79 113 93
79 113 93
79 113 93
79 113 93
79 113 93
79 113 93
79 113 93
79 113 93
79 113 92
79 113 93
79 113 93
79 113 93
79 113 93
79 113 93
79 113 93
79 113 93
79 113 93
79 113 93
79 113 93
79 113 93
79 113 93
79 113 92
79 113 93
79 113 93
79 113 93
79 113 93
79 113 93
79 113 93
79 113 93
79 113 92
79 113 92
79 113 93
79 113 93
79 113 93
79 113 92
78 112 92
79 113 92
79 113 92
79 113 92
79 113 92
79 113 92
79 113 92
79 113 92
79 113 92
79 113 92
79 113 92
79 113 92
78 112 92
79 113 92
79 113 92
79 113 92
79 113 92
79 113 92
79 113 92
79 113 92
79 113 92
79 113 92
79 113 92
79 113 92
79 113 92
79 113 92
79 112 92
79 113 92
79 113 92
79 113 92
78 112 92
79 113 92
78 112 92
78 112 92
78 112 92
79 112 92
79 112 92
79 113 92
79 113 92
79 112 92
79 112 92
79 112 92
79 113 92
79 113 92
78 112 92
79 112 92
78 112 92
78 112 92
78 112 92
78 112 92
78 112 92
79 112 92
79 112 92
78 112 92
79 112 92
79 112 92
78 112 92
78 112 92
78 112 92
78 112 92
78 112 92
78 112 92
78 112 92
78 112 92
78 112 92
78 112 92
78 112 92
78 112 92
78 112 92
78 112 92
78 112 92
78 112 92
78 112 92
78 112 92
81 115 94
81 115 94
81 115 94
81 115 94
81 115 94
81 115 94
81 115 94
81 115 94
81 115 94
81 115 94
80 115 94
81 115 94
81 115 94
81 115 94
80 115 94
80 115 94
81 115 94
81 115 94
81 115 94
81 115 94
81 115 94
81 115 94
80 115 94
81 115 94
81 115 94
81 115 94
81 115 94
81 115 94
81 115 94
81 115 94
81 115 94
81 115 94
81 115 94
81 115 94
81 115 94
81 115 94
81 115 94
80 115 94
81 115 94
81 115 94
81 115 94
81 115 94
81 115 94
81 115 94
81 115 94
81 115 94
81 115 94
81 115 94
81 115 94
81 115 94
81 115 94
81 115 94
81 115 94
81 115 94
81 115 94
81 115 94
81 115 94
81 115 94
81 115 94
81 115 94
81 115 94
81 115 94
81 115 94
81 115 94
81 115 94
81 115 94
81 115 94
81 115 94
81 115 94
81 115 94
81 115 94
81 115 94
80 115 94
81 115 94
81 115 94
81 115 94
81 115 94
81 115 94
81 115 94
81 115 94
81 115 94
81 115 94
81 115 94
81 115 94
81 115 94
81 115 94
81 115 94
81 115 94
81 115 94
81 115 94
81 115 94
81 115 94
81 115 94
81 115 94
81 115 94
81 115 94
81 115 94
81 115 94
81 115 94
81 115 94
81 115 94
81 115 94
81 115 94
81 115 94
81 115 94
81 115 94
81 115 94
81 115 94
81 115 94
81 115 94
81 115 94
81 115 94
81 115 94
81 116 94
81 115 94
81 115 94
81 115 94
81 115 94
81 115 94
81 115 94
81 115 94
81 115 94
81 115 94
81 115 94
81 115 94
81 115 94
81 115 94
81 115 94
81 115 94
81 115 94
81 115 94
81 115 94
81 115 94
81 115 94
81 115 94
81 115 94
81 115 94
81 115 94
81 115 94
80 115 94
81 115 94
81 115 94
81 115 94
81 115 94
81 115 94
81 115 94
81 115 94
81 115 94
81 115 94
81 115 94
81 115 94
81 115 94
81 115 94
81 115 94
81 115 94
81 115 94
81 115 94
81 115 94
81 115 94
80 115 94
81 115 94
81 115 94
81 115 94
81 115 94
81 115 94
81 115 94
81 115 94
81 115 94
81 115 94
81 115 94
81 115 94
81 115 94
81 115 94
81 115 94
81 115 94
81 115 94
81 115 94
81 115 94
81 115 94
81 115 94
81 115 94
81 115 94
81 115 94
81 115 94
81 115 94
81 115 94
81 115 94
81 115 94
81 115 94
81 115 94
81 115 94
81 115 94
81 115 94
81 115 94
81 115 94
81 115 94
81 115 94
81 115 94
81 115 94
81 115 94
81 115 94
81 115 94
81 115 94
81 115 94
81 115 94
81 115 94
81 115 94
80 115 94
81 115 94
81 115 94
81 115 94
81 115 94
81 115 94
81 115 94
81 115 94
80 115 94
80 115 94
81 115 94
81 115 94
81 115 94
81 115 94
81 115 94
81 115 94
81 115 94
80 115 94
81 115 94
81 115 94
81 115 94
81 115 94
80 115 94
81 115 94
81 115 94
80 115 94
81 115 94
81 115 94
81 115 94
81 115 94
81 115 94
81 115 94
81 115 94
80 115 94
80 115 94
81 115 94
81 115 94
81 115 94
81 115 94
81 115 94
81 115 94
81 115 94
81 115 94
80 115 94
81 115 94
81 115 94
80 115 94
81 115 94
81 115 94
81 115 94
81 115 94
81 115 94
81 115 94
80 114 93
80 115 94
80 114 94
81 115 94
80 114 94
80 115 94
81 115 94
80 115 94
80 115 94
80 115 94
81 115 94
80 114 93
80 115 94
81 115 94
81 115 94
81 115 94
81 115 94
81 115 94
81 115 94
81 115 94
81 115 94
80 115 94
80 115 94
81 115 94
81 115 94
80 115 94
81 115 94
81 115 94
81 115 94
80 115 94
81 115 94
80 114 94
81 115 94
81 115 94
80 115 94
80 114 94
80 115 94
80 115 94
80 115 94
80 115 94
80 114 94
81 115 94
81 115 94
80 114 94
80 115 94
80 115 94
80 115 94
80 115 94
80 115 94
81 115 94
81 115 94
81 115 94
80 115 94
80 114 94
80 115 94
80 115 94
80 114 94
80 114 93
80 115 94
80 115 94
80 114 94
80 114 94
81 115 94
80 114 94
80 114 94
80 114 93
81 115 94
80 114 94
80 115 94
80 114 93
80 114 93
80 114 94
80 114 94
80 114 93
80 114 93
81 114 93
80 114 94
81 115 94
80 115 94
80 114 94
80 114 94
80 115 94
80 114 94
80 114 93
80 114 94
80 114 93
80 115 94
80 114 94
80 114 94
80 114 94
80 114 93
80 114 93
80 114 94
80 114 93
80 114 94
80 114 94
80 114 93
80 114 93
80 114 93
80 114 93
80 114 93
80 114 93
80 114 93
80 114 93
80 114 93
80 114 93
80 114 93
80 114 93
80 114 93
80 114 93
80 114 93
80 114 93
80 114 93
80 114 93
80 114 93
80 114 93
80 114 93
80 114 93
79 114 93
80 114 93
80 114 93
80 114 93
80 114 93
80 114 93
79 113 93
80 114 93
80 114 93
80 114 93
80 114 93
80 114 93
80 114 93
80 114 93
80 114 93
80 114 93
80 114 93
80 114 93
80 114 93
80 114 93
80 114 93
80 114 93
80 114 93
80 114 93
80 114 93
80 114 93
80 114 93
80 114 93
80 114 93
80 114 93
80 114 93
79 113 93
80 114 93
80 114 93
80 114 93
80 114 93
80 114 93
80 114 93
80 114 93
80 114 93
80 114 93
80 114 93
80 114 93
80 114 93
80 114 93
80 114 93
80 114 93
80 114 93
80 114 93
80 114 93
80 114 93
80 114 93
80 114 93
80 114 93
80 114 93
79 114 93
80 114 93
79 114 93
79 113 93
80 114 93
79 113 93
80 114 93
80 114 93
80 114 93
79 113 93
79 113 93
80 114 93
80 114 93
80 113 93
80 114 93
80 114 93
79 113 93
80 114 93
79 113 93
80 114 93
80 114 93
79 113 93
80 113 93
80 114 93
79 113 93
80 114 93
79 113 93
79 113 93
79 113 93
79 113 93
79 113 93
80 114 93
79 113 93
80 114 93
79 113 93
80 114 93
79 113 93
79 113 93
79 113 93
79 113 93
80 113 93
79 113 93
79 113 93
79 113 93
79 113 93
79 113 93
79 113 93
79 113 93
79 113 93
79 113 93
79 113 93
79 113 93
79 113 93
80 113 93
79 113 93
79 113 93
79 113 93
79 113 93
79 113 93
79 113 93
79 113 93
79 113 93
79 113 93
79 113 93
79 113 93
79 113 93
79 113 93
79 113 93
79 113 93
79 113 93
79 113 93
79 113 93
79 113 93
79 113 93
79 113 93
79 113 93
79 113 93
79 113 93
79 113 93
79 113 92
79 113 93
79 113 93
79 113 93
79 113 93
79 113 92
79 113 93
79 113 93
79 113 93
79 113 93
79 113 93
79 113 92
79 113 93
79 113 93
79 113 93
79 113 93
79 113 93
79 113 92
79 113 93
79 113 93
79 113 93
79 113 92
79 113 92
79 113 92
79 113 92
79 113 92
79 113 92
79 113 92
79 113 92
79 113 92
79 113 92
79 113 92
79 113 92
79 113 92
79 113 92
79 113 92
79 113 92
79 113 92
79 113 92
79 113 92
79 113 92
79 113 92
79 113 92
79 112 92
79 113 92
79 113 92
78 112 92
79 113 92
78 112 92
79 112 92
79 113 92
79 113 92
79 112 92
78 112 92
78 112 92
79 113 92
79 112 92
79 113 92
79 113 92
79 112 92
78 112 92
79 112 92
79 112 92
79 112 92
79 113 92
79 113 92
78 112 92
79 113 92
79 113 92
78 112 92
79 112 92
79 112 92
78 112 92
79 112 92
79 112 92
79 112 92
79 112 92
78 112 92
78 112 92
79 113 92
78 112 92
79 113 92
79 112 92
78 112 92
79 112 92
78 112 92
78 112 92
78 112 92
81 115 94
81 115 94
81 115 94
81 115 94
81 115 94
80 115 94
81 115 94
81 115 94
81 115 94
81 115 94
81 115 94
81 115 94
81 115 94
81 115 94
81 115 94
81 115 94
81 115 94
81 115 94
81 115 94
81 115 94
81 115 94
81 115 94
81 115 94
81 115 94
81 115 94
81 115 94
81 115 94
81 115 94
81 115 94
81 115 94
81 115 94
81 115 94
81 115 94
81 115 94
81 115 94
81 115 94
81 115 94
81 115 94
81 115 94
81 115 94
81 115 94
81 115 94
81 115 94
81 115 94
81 115 94
81 115 94
81 115 94
81 115 94
81 115 94
81 115 94
81 115 94
81 115 94
81 115 94
81 115 94
81 115 94
81 115 94
81 115 94
81 115 94
81 115 94
81 115 94
81 115 94
81 115 94
81 115 94
81 115 94
81 115 94
81 115 94
81 115 94
81 115 94
81 115 94
81 115 94
81 115 94
81 115 94
81 115 94
81 115 94
81 115 94
81 115 94
81 115 94
81 115 94
81 115 94
81 115 94
81 115 94
81 115 94
81 115 94
81 115 94
81 115 94
81 115 94
81 115 94
81 115 94
81 115 94
81 115 94
81 115 94
81 116 94
81 115 94
81 115 94
81 115 94
81 115 94
81 115 94
81 115 94
81 115 94
81 115 94
81 115 94
81 115 94
81 115 94
81 115 94
81 115 94
81 115 94
81 115 94
81 115 94
81 115 94
81 115 94
81 115 94
81 115 94
81 115 94
81 115 94
81 115 94
81 115 94
81 115 94
81 115 94
81 115 94
81 115 94
81 115 94
81 115 94
81 115 94
81 115 94
81 115 94
81 115 94
81 115 94
81 115 94
81 115 94
81 115 94
81 115 94
81 115 94
81 115 94
81 115 94
81 115 94
81 115 94
81 115 94
81 115 94
81 115 94
81 115 94
81 115 94
81 115 94
81 115 94
81 115 94
81 115 94
81 115 94
81 115 94
81 115 94
81 115 94
81 115 94
81 115 94
81 115 94
81 115 94
81 115 94
81 115 94
81 115 94
81 115 94
81 115 94
81 115 94
81 115 94
80 115 94
81 115 94
81 115 94
81 115 94
81 115 94
81 115 94
81 115 94
81 115 94
81 115 94
81 115 94
80 115 94
81 115 94
81 115 94
81 115 94
81 115 94
81 115 94
81 115 94
81 115 94
81 115 94
81 115 94
80 115 94
81 115 94
80 115 94
81 115 94
81 115 94
81 115 94
81 115 94
81 115 94
81 115 94
81 115 94
81 115 94
81 115 94
81 115 94
81 115 94
81 115 94
81 115 94
81 115 94
81 115 94
81 115 94
81 115 94
81 115 94
81 115 94
81 115 94
81 115 94
81 115 94
81 115 94
81 115 94
81 115 94
81 115 94
81 115 94
81 115 94
81 115 94
80 115 94
81 115 94
81 115 94
80 115 94
81 115 94
81 115 94
81 115 94
81 115 94
81 115 94
81 115 94
81 115 94
81 115 94
81 115 94
81 115 94
81 115 94
81 115 94
81 115 94
81 115 94
81 115 94
81 115 94
80 115 94
81 115 94
81 115 94
81 115 94
80 114 94
80 115 94
81 115 94
81 115 94
81 115 94
81 115 94
81 115 94
81 115 94
81 115 94
81 115 94
80 115 94
81 115 94
81 115 94
81 115 94
81 115 94
81 115 94
81 115 94
81 115 94
81 115 94
80 115 94
81 115 94
81 115 94
81 115 94
81 115 94
81 115 94
81 115 94
81 115 94
80 115 94
81 115 94
81 115 94
81 115 94
81 115 94
81 115 94
81 115 94
81 115 94
80 115 94
81 115 94
81 115 94
80 115 94
80 115 94
80 115 94
81 115 94
81 115 94
80 115 94
80 115 94
80 115 94
81 115 94
81 115 94
81 115 94
80 115 94
81 115 94
80 115 94
81 115 94
80 115 94
81 115 94
80 115 94
81 115 94
80 115 94
80 115 94
80 115 94
80 114 94
80 115 94
81 115 94
80 115 94
80 115 94
81 115 94
81 115 94
81 115 94
81 115 94
80 114 94
80 115 94
80 115 94
80 114 94
81 115 94
80 114 94
80 115 94
80 115 94
80 114 93
81 115 94
81 115 94
80 114 94
80 114 94
80 115 94
80 115 94
80 114 94
81 115 94
80 115 94
80 114 94
80 115 94
80 114 94
80 114 94
80 115 94
80 114 94
80 115 94
80 114 94
80 114 94
81 115 94
80 115 94
80 115 94
80 115 94
81 115 93
80 115 94
80 114 93
80 114 93
80 114 93
80 114 94
80 114 93
80 114 93
80 114 94
80 114 94
80 114 94
80 114 93
80 114 94
80 114 94
81 115 94
80 114 94
80 114 94
80 114 93
80 114 94
80 114 93
80 114 94
80 114 94
80 114 94
80 114 94
80 114 94
80 114 94
80 114 94
80 114 94
80 115 94
80 114 93
80 114 93
80 114 93
80 114 93
80 114 93
80 114 93
80 114 93
80 114 93
80 114 93
80 114 93
80 114 93
80 114 93
80 114 93
80 114 93
80 114 93
80 114 93
80 114 93
80 114 93
80 114 93
80 114 93
80 114 93
80 114 93
80 114 93
80 114 93
80 114 93
80 114 93
80 114 93
80 114 93
80 114 93
80 114 93
80 114 93
80 114 93
80 114 93
80 114 93
80 114 93
80 114 93
80 114 93
80 114 93
80 114 93
80 114 93
80 114 93
80 114 93
80 114 93
80 114 93
79 114 93
80 114 93
80 114 93
80 114 93
80 114 93
80 114 93
80 114 93
80 114 93
80 114 93
80 114 93
80 114 93
80 114 93
80 114 93
80 114 93
80 114 93
80 114 93
80 114 93
80 114 93
80 114 93
80 114 93
80 114 93
80 114 93
80 114 93
80 114 93
80 114 93
80 114 93
80 114 93
80 114 93
80 114 93
80 114 93
80 113 93
80 114 93
80 114 93
79 114 93
79 113 93
80 114 93
80 114 93
79 113 93
80 114 93
79 113 93
79 114 93
80 114 93
79 113 93
79 113 92
80 114 93
80 114 93
80 114 93
80 114 93
80 114 93
80 114 93
79 113 93
79 113 93
79 113 93
80 114 93
79 114 93
80 114 93
79 113 93
79 113 93
79 113 93
80 114 93
80 114 93
80 114 93
79 113 93
79 113 93
79 113 93
79 113 93
80 113 93
79 113 93
79 113 93
80 113 93
79 113 93
79 113 93
79 113 93
79 113 93
79 113 93
79 113 93
79 113 93
79 113 93
79 113 93
79 113 93
79 113 93
79 113 93
79 113 93
79 113 93
79 113 93
79 113 93
79 113 93
79 113 93
79 113 93
79 113 93
79 113 93
79 113 93
79 113 93
79 113 93
79 113 93
79 113 93
79 113 93
79 113 93
79 113 93
79 113 93
79 113 93
79 113 93
79 113 93
79 113 93
79 113 93
79 113 93
79 113 93
79 113 93
79 113 93
79 113 92
79 113 93
79 113 93
79 113 93
79 113 93
79 113 93
79 113 93
79 113 93
79 113 93
79 113 93
79 113 93
79 113 93
79 113 93
79 113 93
79 113 93
79 113 93
79 113 92
79 113 93
79 113 93
79 113 93
79 112 92
79 113 93
79 113 92
79 113 92
79 113 92
79 113 92
79 113 92
79 113 92
79 113 92
79 113 92
79 113 92
79 113 92
79 113 92
79 113 92
79 113 92
79 112 92
79 113 92
79 113 92
79 113 92
79 113 92
79 113 92
79 113 92
79 113 92
79 112 92
79 112 92
79 113 92
79 112 92
78 112 92
79 112 92
78 112 92
79 113 92
79 113 92
79 113 92
79 112 92
79 113 92
79 112 92
79 112 92
78 112 92
78 112 92
79 113 92
79 112 92
78 112 92
79 113 92
78 112 92
79 112 92
78 112 92
79 112 92
79 112 92
79 112 92
79 112 92
78 112 92
78 112 92
79 112 92
78 112 92
78 112 92
78 112 92
79 112 92
79 112 92
78 112 92
78 112 92
78 112 92
79 112 92
81 115 94
81 115 94
81 115 94
81 115 94
81 115 94
81 115 94
81 115 94
81 115 94
81 115 94
81 115 94
81 115 94
81 115 94
81 115 94
81 115 94
81 115 94
81 115 94
81 115 94
81 115 94
81 115 94
81 115 94
81 115 94
81 115 94
81 115 94
81 115 94
81 115 94
81 115 94
81 115 94
81 115 94
81 115 94
81 115 94
81 115 94
81 115 94
81 115 94
81 115 94
81 115 94
81 115 94
81 115 94
81 115 94
81 115 94
81 115 94
81 115 94
81 115 94
81 115 94
81 115 94
81 115 94
81 115 94
81 115 94
81 115 94
81 115 94
81 115 94
81 115 94
81 115 94
81 115 94
81 115 94
81 115 94
81 115 94
81 115 94
81 116 94
81 115 94
81 116 94
81 115 94
81 115 94
81 116 94
81 115 94
81 115 94
81 115 94
81 115 94
81 115 94
81 115 94
81 115 94
81 115 94
81 115 94
81 115 94
81 115 94
81 115 94
81 115 94
81 115 94
81 115 94
81 115 94
81 115 94
81 115 94
81 116 94
81 115 94
81 116 94
81 115 94
81 115 94
81 115 94
81 115 94
81 115 94
81 115 94
81 115 94
81 115 94
81 115 94
81 116 94
81 115 94
81 115 94
81 115 94
81 115 94
81 115 94
81 115 94
81 115 94
81 115 94
81 115 94
81 115 94
81 115 94
81 115 94
81 115 94
81 115 94
81 115 94
81 115 94
81 115 94
81 115 94
81 115 94
81 115 94
81 116 94
81 115 94
81 115 94
81 115 94
81 115 94
81 116 94
81 116 94
81 116 94
81 115 94
81 115 94
81 116 94
81 116 94
81 115 94
81 115 94
81 115 94
81 115 94
81 115 94
81 115 94
81 115 94
81 115 94
81 115 94
81 115 94
81 115 94
81 115 94
81 115 94
81 115 94
81 116 94
81 116 94
81 115 94
81 115 94
81 115 94
81 115 94
81 115 94
81 115 94
81 115 94
81 115 94
81 115 94
81 115 94
81 115 94
81 115 94
81 115 94
81 115 94
81 115 94
81 115 94
80 115 94
81 115 94
81 115 94
81 115 94
81 115 94
81 115 94
81 115 94
81 115 94
81 115 94
81 115 94
81 116 94
81 115 94
81 115 94
81 115 94
81 115 94
81 115 94
81 115 94
81 115 94
81 115 94
81 115 94
81 115 94
81 115 94
81 115 94
81 115 94
81 115 94
81 115 94
81 115 94
81 115 94
81 115 94
81 115 94
81 116 94
81 115 94
81 115 94
81 115 94
81 115 94
81 115 94
81 115 94
81 115 94
81 115 94
81 115 94
81 115 94
81 115 94
81 115 94
81 115 94
81 115 94
80 115 94
81 115 94
81 115 94
81 115 94
81 115 94
81 115 94
81 115 94
81 115 94
81 115 94
81 115 94
81 115 94
81 115 94
81 115 94
81 115 94
81 115 94
81 115 94
80 115 94
81 115 94
81 115 94
81 115 94
81 115 94
81 115 94
81 115 94
81 115 94
81 115 94
81 115 94
81 115 94
81 115 94
81 115 94
81 115 94
81 115 94
81 115 94
81 115 94
81 115 94
81 115 94
81 115 94
81 115 94
80 115 94
80 115 94
81 115 94
81 115 94
81 115 94
81 115 94
81 115 94
81 115 94
81 115 94
81 115 94
81 115 94
81 115 94
81 115 94
81 115 94
81 115 94
81 115 94
81 115 94
81 115 94
80 115 94
81 115 94
81 115 94
81 115 94
81 115 94
81 115 94
81 115 94
81 115 94
81 115 94
81 115 94
81 115 94
81 115 94
81 115 94
81 115 94
81 115 94
81 115 94
81 115 94
81 115 94
81 115 94
81 115 94
80 115 94
81 115 94
80 115 94
81 115 94
81 115 94
80 115 94
81 115 94
81 115 94
81 115 94
80 114 94
81 115 94
80 115 94
81 115 94
81 115 94
81 115 94
81 115 94
81 115 94
81 115 94
80 115 94
80 115 94
80 114 94
81 115 94
81 115 94
80 115 94
81 115 94
81 115 94
81 115 94
81 115 94
80 115 94
81 115 94
80 115 94
80 115 94
80 115 94
80 115 94
81 115 94
81 115 94
80 115 94
80 115 94
81 115 94
80 115 94
80 114 94
80 115 94
81 115 94
81 115 94
80 114 93
80 115 94
80 115 94
80 115 94
80 114 93
81 115 94
81 115 94
81 115 94
80 114 94
80 114 94
80 115 94
81 115 94
80 114 94
80 115 94
80 115 94
80 114 94
80 115 94
80 114 94
80 115 94
81 115 94
80 114 93
80 115 94
80 114 93
80 114 94
80 114 94
80 114 93
80 115 94
80 114 94
81 115 94
80 114 93
80 115 94
80 114 94
80 114 94
80 114 93
80 114 94
80 114 93
80 114 94
80 115 94
80 115 94
80 114 94
80 114 94
80 114 94
80 114 94
80 114 93
80 114 94
80 114 94
80 114 93
81 115 94
80 114 94
80 114 94
80 114 94
80 114 94
80 114 94
80 114 93
80 114 93
80 114 93
80 114 93
80 114 93
80 114 93
80 114 93
80 114 93
80 114 93
80 114 93
80 114 93
80 114 93
80 114 93
80 114 93
80 114 93
80 114 93
80 114 93
80 114 93
80 114 93
80 114 93
80 114 93
80 114 93
80 114 93
80 114 93
80 114 93
80 114 93
80 114 93
80 114 93
80 114 93
80 114 93
80 114 93
80 114 93
80 114 93
80 114 93
80 114 93
80 114 93
80 114 93
80 114 93
80 114 93
80 114 93
80 114 93
80 114 93
80 114 93
80 114 93
80 114 93
79 114 93
80 114 93
80 114 93
80 114 93
80 114 93
80 114 93
80 114 93
80 114 93
80 114 93
80 114 93
80 114 93
80 114 93
80 114 93
80 113 93
80 114 93
79 113 93
80 114 93
80 114 93
80 114 93
80 114 93
80 114 93
80 114 93
80 114 93
80 114 93
79 113 93
79 114 93
80 114 93
80 114 93
79 114 93
79 113 93
80 114 93
79 113 93
79 113 93
80 114 93
79 113 93
80 114 93
80 114 93
80 114 93
79 114 93
80 114 93
80 114 93
79 113 93
79 113 93
79 113 93
80 114 93
79 113 93
79 114 93
79 113 93
79 113 93
79 113 93
80 114 93
80 114 93
80 114 93
80 114 93
80 114 93
79 113 93
80 114 93
80 113 93
79 113 93
79 113 93
79 113 93
79 113 93
80 114 93
79 113 93
80 114 93
79 113 93
79 113 93
79 113 93
79 113 93
80 114 93
79 113 93
80 113 93
79 113 93
79 113 93
79 113 93
79 113 93
80 113 93
79 113 93
79 113 93
80 113 93
79 113 93
79 113 93
79 113 93
79 113 93
79 113 93
79 113 93
79 113 93
79 113 93
79 113 93
80 113 93
79 113 93
80 114 93
79 113 92
79 113 93
79 113 92
79 113 93
79 113 92
79 113 93
79 113 93
79 113 93
79 113 93
79 113 93
79 113 93
79 113 93
79 113 92
79 113 93
79 113 93
79 113 93
79 113 93
79 113 93
79 113 92
79 113 93
79 113 93
79 113 93
79 113 93
79 113 93
79 113 93
79 113 93
79 113 93
79 113 93
79 113 93
79 113 93
79 113 93
79 113 93
79 113 93
79 113 93
79 113 92
79 113 92
79 113 92
79 113 92
79 113 92
79 113 92
79 113 92
79 113 92
79 113 92
79 113 92
79 113 92
79 113 92
79 113 92
79 112 92
79 113 92
79 113 92
79 113 92
79 113 92
78 112 92
79 113 92
78 112 92
79 113 92
78 112 92
79 113 92
79 113 92
79 112 92
79 113 92
79 112 92
79 113 92
78 112 92
79 113 92
79 113 92
79 112 92
79 112 92
78 112 92
78 112 92
79 113 92
79 112 92
78 112 92
79 113 92
79 112 92
78 112 92
78 112 92
79 113 92
78 112 92
78 112 92
79 113 92
79 112 92
78 112 92
79 112 92
78 112 92
79 112 92
78 112 92
78 112 92
81 115 94
81 115 94
81 115 94
81 115 94
81 115 94
81 115 94
81 115 94
81 115 94
81 115 94
81 115 94
81 115 94
81 115 94
81 115 94
81 115 94
81 115 94
81 115 94
81 116 94
81 115 94
81 115 94
81 115 94
81 115 94
81 115 94
81 115 94
81 115 94
81 115 94
81 115 94
81 115 94
81 115 94
81 115 94
81 115 94
81 115 94
81 115 94
81 115 94
81 115 94
81 115 94
81 115 94
81 115 94
81 115 94
81 115 94
81 115 94
81 115 94
81 115 94
81 115 94
81 116 94
81 116 94
81 115 94
81 115 94
81 115 94
81 115 94
81 116 94
81 115 94
81 115 94
81 115 94
81 116 94
81 115 94
81 116 94
81 115 94
81 116 94
81 115 94
81 115 94
81 116 94
81 115 94
81 115 94
81 115 94
81 115 94
81 115 94
81 115 94
81 116 94
81 116 94
81 115 94
81 115 94
81 115 94
81 116 94
81 115 94
81 115 94
81 115 94
81 116 94
81 115 94
81 115 94
81 115 94
81 116 94
81 115 94
81 115 94
81 115 94
81 115 94
81 115 94
81 115 94
81 116 94
81 115 94
81 115 94
81 115 94
81 116 94
81 115 94
81 115 94
81 115 94
81 115 94
81 115 94
81 115 94
81 115 94
81 115 94
81 115 94
81 116 94
81 115 94
81 115 94
81 115 94
81 116 94
81 115 94
81 115 94
81 116 94
81 115 94
81 115 94
81 116 94
81 115 94
81 115 94
81 116 94
81 115 94
81 115 94
81 115 94
81 116 94
81 115 94
81 116 94
81 116 94
81 116 94
81 115 94
81 115 94
81 116 94
81 115 94
81 115 94
81 116 94
81 115 94
81 116 94
81 115 94
81 115 94
81 115 94
81 115 94
81 115 94
81 115 94
81 115 94
81 115 94
81 115 94
81 115 94
81 115 94
81 115 94
81 115 94
81 115 94
81 115 94
81 115 94
81 115 94
81 115 94
81 115 94
81 115 94
81 116 94
81 116 94
81 115 94
81 115 94
81 116 94
81 115 94
81 115 94
81 115 94
81 115 94
81 115 94
81 115 94
81 115 94
81 115 94
81 115 94
81 116 94
81 116 94
81 115 94
81 115 94
81 115 94
81 115 94
81 115 94
81 115 94
81 115 94
81 115 94
81 115 94
81 115 94
81 115 94
81 115 94
81 115 94
81 115 94
81 115 94
81 115 94
81 115 94
81 115 94
81 115 94
81 115 94
81 115 94
81 115 94
81 115 94
81 115 94
81 115 94
81 115 94
81 115 94
81 115 94
81 115 94
81 115 94
81 115 94
81 115 94
81 115 94
81 115 94
81 115 94
81 115 94
81 115 94
81 115 94
81 115 94
81 115 94
81 115 94
81 115 94
81 115 94
81 115 94
81 115 94
81 115 94
81 115 94
81 115 94
81 115 94
81 115 94
81 115 94
81 115 94
81 115 94
81 115 94
81 115 94
81 115 94
81 115 94
81 115 94
81 115 94
81 115 94
81 115 94
81 115 94
81 115 94
81 115 94
81 115 94
81 115 94
81 115 94
81 115 94
81 115 94
81 115 94
81 115 94
81 115 94
81 115 94
81 115 94
81 115 94
81 115 94
81 115 94
81 115 94
81 115 94
81 115 94
81 115 94
81 115 94
81 115 94
81 115 94
81 115 94
81 115 94
81 115 94
81 115 94
81 115 94
81 115 94
81 115 94
81 115 94
81 115 94
81 115 94
81 115 94
81 115 94
81 115 94
81 115 94
81 115 94
81 115 94
81 115 94
81 115 94
81 115 94
81 115 94
81 115 94
81 115 94
81 115 94
80 115 94
81 115 94
81 115 94
81 115 94
81 115 94
80 114 93
81 115 94
80 115 94
81 115 94
80 115 94
80 115 94
81 115 94
80 115 94
81 115 94
81 115 94
80 115 94
80 115 94
80 115 94
81 115 94
81 115 94
81 115 94
81 115 94
81 115 94
81 115 94
81 115 94
80 115 94
80 115 94
81 115 94
81 115 94
80 115 94
81 115 94
80 115 94
81 115 94
81 115 94
80 115 94
80 115 94
81 115 94
80 115 94
80 115 94
81 115 94
81 115 94
81 115 94
81 115 94
81 115 94
80 115 94
81 115 94
80 115 94
81 115 94
80 114 93
80 115 94
80 115 94
81 115 94
81 115 94
80 115 94
80 115 94
81 115 94
80 115 94
80 114 94
81 115 94
80 115 94
81 115 94
81 115 94
80 114 94
80 115 94
81 115 94
81 115 94
80 114 94
80 115 94
81 115 94
80 115 94
80 115 94
80 115 94
81 115 94
80 114 94
80 114 94
80 115 94
80 114 94
80 115 94
80 114 94
80 114 94
80 114 94
80 114 93
80 114 94
80 114 94
80 114 93
80 114 94
80 114 93
80 115 94
80 115 94
80 114 94
80 114 94
80 115 94
80 114 94
80 114 93
80 115 94
80 114 93
81 115 93
80 115 94
80 114 94
80 114 93
80 114 94
80 114 93
80 114 93
80 114 94
80 115 94
80 114 94
80 114 94
80 114 94
80 114 93
80 114 94
80 114 93
80 114 94
80 114 93
80 114 93
80 114 93
80 114 93
80 114 93
80 114 93
80 114 93
80 114 93
80 114 93
80 114 93
80 114 93
80 114 93
80 114 93
80 114 93
80 114 93
80 114 93
80 114 93
80 114 93
80 114 93
80 114 93
80 114 93
80 114 93
80 114 93
80 114 93
80 114 93
80 114 93
80 114 93
80 114 93
80 114 93
80 114 93
80 114 93
80 114 93
80 114 93
80 114 93
80 114 93
80 114 93
80 114 93
80 114 93
79 114 93
80 114 93
80 114 93
80 114 93
80 114 93
80 114 93
80 114 93
80 114 93
80 114 93
80 114 93
80 114 93
80 114 93
80 114 93
80 114 93
80 114 93
80 114 93
80 114 93
80 114 93
80 114 93
80 114 93
80 114 93
80 114 93
79 113 93
80 114 93
80 114 93
80 114 93
80 114 93
80 114 93
80 114 93
79 113 93
80 114 93
80 114 93
80 114 93
79 113 93
79 113 93
80 114 93
80 114 93
79 114 93
80 114 93
80 114 93
79 113 93
80 114 93
79 113 93
79 113 93
80 114 93
80 114 93
80 114 93
79 113 93
79 113 93
79 113 93
79 113 93
80 114 93
79 113 93
79 113 93
79 113 93
80 114 93
79 113 93
80 114 93
79 113 93
79 113 93
79 113 93
79 113 93
79 113 93
79 113 93
79 113 93
79 113 93
79 113 93
79 113 93
80 114 93
79 113 93
79 113 93
79 113 93
80 114 93
80 113 93
79 113 93
79 113 93
79 113 93
79 113 93
79 113 93
79 113 93
79 113 93
79 113 93
79 113 93
79 113 93
79 113 93
79 113 93
79 113 93
79 113 93
79 113 93
79 113 93
79 113 93
79 113 93
79 113 93
79 113 93
79 113 93
79 113 93
79 113 93
79 113 93
79 113 93
79 113 93
79 113 93
79 113 93
79 113 93
79 113 93
79 113 93
79 113 92
79 113 93
79 113 93
79 113 92
79 113 93
79 113 93
79 113 93
79 113 93
79 113 93
79 113 93
79 113 93
79 113 93
79 113 93
79 113 93
79 113 92
79 113 93
79 113 93
79 113 93
79 113 93
79 113 93
79 113 93
79 112 92
79 113 93
79 113 92
79 113 92
79 113 92
79 113 92
79 113 92
79 113 92
79 113 92
79 113 92
79 113 92
79 113 92
79 113 92
79 113 92
79 113 92
79 113 92
79 113 92
78 112 92
79 112 92
79 113 92
79 113 92
79 113 92
79 113 92
79 113 92
79 113 92
79 112 92
79 113 92
79 112 92
79 113 92
79 113 92
79 112 92
79 113 92
79 112 92
79 113 92
79 112 92
79 112 92
79 112 92
79 113 92
78 112 92
78 112 92
79 112 92
79 112 92
79 112 92
79 112 92
79 113 92
79 113 92
79 112 92
78 112 92
79 113 92
79 112 92
81 115 94
81 115 94
81 115 94
81 116 94
81 115 94
81 115 94
81 116 94
81 115 94
81 116 94
81 115 94
81 115 94
81 115 94
81 115 94
81 115 94
81 115 94
81 115 94
81 115 94
81 115 94
81 115 94
81 115 94
81 116 94
81 115 94
81 116 94
81 115 94
81 115 94
81 115 94
81 115 94
81 115 94
81 115 94
81 116 94
81 115 94
81 116 94
81 115 94
81 115 94
81 115 94
81 116 94
81 116 94
81 115 94
81 115 94
81 116 94
81 115 94
81 115 94
81 115 94
81 115 94
81 116 94
81 115 94
81 115 94
81 116 94
81 115 94
81 116 94
81 116 94
81 115 94
81 116 94
81 116 94
81 115 94
81 115 94
81 116 94
81 116 94
81 115 94
81 115 94
81 115 94
81 115 94
81 116 94
81 115 94
81 116 94
81 116 94
81 116 94
81 115 94
81 116 94
81 115 94
81 115 94
81 115 94
81 116 94
81 115 94
81 115 94
81 115 94
81 115 94
81 116 94
81 115 94
81 116 94
81 116 94
81 115 94
82 116 94
81 115 94
81 115 94
81 115 94
81 115 94
81 116 94
81 116 94
81 115 94
81 115 94
81 115 94
81 116 94
81 115 94
81 115 94
81 116 94
81 115 94
81 115 94
81 116 94
81 115 94
81 116 94
81 116 94
81 116 94
81 115 94
81 116 94
81 116 94
81 115 94
81 115 94
81 116 94
81 116 94
81 115 94
81 116 94
81 115 94
81 115 94
81 116 94
81 115 94
81 116 94
81 116 94
81 116 94
81 115 94
81 115 94
81 115 94
81 115 94
81 115 94
81 115 94
81 115 94
81 116 94
81 116 94
81 115 94
81 115 94
81 115 94
81 115 94
81 116 94
81 116 94
81 116 94
81 115 94
81 115 94
81 115 94
81 115 94
81 116 94
81 116 94
81 116 94
81 116 94
81 115 94
81 116 94
81 115 94
81 115 94
81 115 94
81 115 94
81 115 94
81 115 94
81 115 94
81 115 94
81 115 94
81 115 94
81 115 94
81 116 94
81 115 94
81 115 94
81 115 94
81 115 94
81 115 94
81 115 94
81 115 94
81 115 94
81 115 94
81 115 94
81 115 94
81 115 94
81 115 94
81 116 94
81 116 94
81 116 94
81 116 94
81 115 94
81 115 94
81 115 94
81 115 94
81 116 94
81 116 94
81 115 94
81 115 94
81 116 94
81 115 94
81 115 94
81 116 94
81 115 94
81 115 94
81 115 94
81 115 94
81 115 94
81 115 94
81 115 94
81 116 94
81 115 94
81 116 94
81 115 94
81 115 94
81 115 94
81 115 94
81 116 94
81 115 94
81 115 94
81 115 94
81 115 94
81 115 94
81 115 94
81 115 94
81 115 94
81 115 94
81 115 94
81 116 94
81 115 94
81 115 94
81 115 94
81 116 94
81 115 94
81 115 94
81 115 94
81 115 94
81 115 94
81 115 94
81 115 94
81 115 94
81 115 94
81 115 94
81 115 94
81 115 94
81 115 94
81 115 94
81 115 94
81 115 94
81 115 94
81 115 94
81 115 94
81 115 94
81 115 94
81 115 94
81 115 94
81 115 94
81 115 94
81 115 94
81 115 94
81 115 94
81 115 94
81 115 94
81 115 94
81 115 94
81 115 94
80 115 94
81 115 94
81 115 94
81 115 94
81 115 94
81 115 94
81 115 94
81 115 94
81 115 94
81 115 94
81 115 94
81 115 94
81 115 94
81 115 94
81 115 94
81 115 94
81 115 94
81 115 94
81 115 94
80 115 94
81 115 94
81 115 94
81 115 94
81 115 94
81 115 94
81 115 94
80 115 94
81 115 94
81 115 94
81 115 94
81 115 94
81 115 94
81 115 94
81 115 94
81 115 94
81 115 94
81 115 94
81 115 94
81 115 94
81 115 94
81 115 94
81 115 94
80 115 94
81 115 94
81 115 94
80 115 94
81 115 94
81 115 94
81 115 94
81 115 94
81 115 94
80 115 94
81 115 94
81 115 94
81 115 94
81 115 94
80 115 94
81 115 94
81 115 94
80 115 94
81 115 94
80 115 94
80 115 94
81 115 94
81 115 94
81 115 94
81 115 94
80 115 94
81 115 94
81 115 94
81 115 94
80 115 94
81 115 94
80 115 94
81 115 94
81 115 94
80 115 94
80 115 94
81 115 94
80 115 94
80 115 94
81 115 94
81 115 94
81 115 94
80 115 94
80 115 94
80 115 94
81 115 94
80 115 94
80 115 94
80 114 94
80 114 94
80 115 94
80 115 94
80 115 94
80 114 94
81 115 94
80 115 94
80 114 94
80 115 94
80 115 94
80 114 94
81 115 94
80 114 94
81 115 94
80 114 94
80 114 94
80 114 94
80 115 94
80 114 93
80 115 94
81 115 94
81 115 94
80 115 94
80 115 94
80 114 93
80 114 94
80 115 94
80 115 94
80 114 93
80 114 94
80 115 94
80 114 93
80 114 93
80 114 94
80 114 93
80 114 94
80 114 94
80 114 94
80 114 94
80 115 94
80 114 94
80 114 93
80 114 94
80 114 94
80 114 94
80 114 94
80 114 94
80 114 94
80 114 94
80 114 93
80 114 93
80 114 93
80 114 93
80 115 94
80 114 94
80 114 93
80 114 93
80 114 93
80 114 93
80 114 93
80 114 93
80 114 93
80 114 93
80 114 93
80 114 93
80 114 93
80 114 93
80 114 93
80 114 93
80 114 93
80 114 93
80 114 93
80 114 93
80 114 93
80 114 93
80 114 93
80 114 93
80 114 93
80 114 93
80 114 93
80 114 93
80 114 93
80 114 93
80 114 93
80 114 93
80 114 93
80 114 93
80 114 93
80 114 93
80 114 93
80 114 93
80 114 93
80 114 93
80 114 93
80 114 93
80 114 93
80 114 93
80 114 93
80 114 93
80 114 93
80 114 93
80 114 93
80 114 93
80 114 93
80 114 93
80 114 93
80 114 93
80 114 93
80 114 93
80 114 93
80 114 93
80 114 93
80 114 93
80 114 93
80 114 93
80 114 93
79 114 93
79 114 93
80 114 93
80 114 93
80 114 93
80 114 93
79 113 93
79 114 93
79 114 93
80 114 93
80 114 93
80 114 93
80 114 93
80 114 93
79 113 93
79 113 93
80 114 93
80 114 93
79 113 93
80 114 93
80 113 93
80 114 93
79 113 93
79 114 93
79 113 93
79 113 93
79 114 93
79 113 93
80 114 93
79 113 93
79 113 93
79 113 93
80 114 93
79 113 93
80 114 93
79 113 93
80 113 93
79 113 93
79 113 93
79 113 93
79 113 93
79 113 93
79 113 93
79 113 93
80 113 93
80 114 93
79 113 93
79 113 93
79 113 93
80 113 93
79 113 93
80 113 93
79 113 93
79 113 93
79 113 93
79 113 93
79 113 93
79 113 93
79 113 93
79 113 93
79 113 93
79 113 93
79 113 93
80 113 93
79 113 93
79 113 93
79 113 93
79 113 93
79 113 93
79 113 93
79 113 93
79 113 93
79 113 93
79 113 93
79 113 93
79 113 93
79 113 93
79 113 93
79 113 93
79 113 93
79 113 93
79 113 93
79 113 93
79 113 93
79 113 93
79 113 93
79 113 93
79 113 92
79 113 93
79 113 93
79 113 93
79 113 93
79 113 93
79 113 93
79 113 93
79 113 93
79 113 92
79 113 93
79 113 93
79 113 93
79 113 93
79 113 92
79 113 92
79 113 93
79 113 92
79 113 92
79 112 92
79 113 92
79 113 92
79 113 92
79 113 92
79 113 92
79 113 92
79 113 92
79 113 92
79 113 92
79 112 92
79 113 92
79 113 92
79 113 92
79 113 92
78 112 92
79 113 92
79 113 92
79 112 92
79 113 92
78 112 92
79 113 92
79 113 92
79 112 92
79 112 92
79 113 92
79 112 92
79 113 92
79 113 92
79 113 92
79 113 92
79 112 92
79 112 92
79 112 92
79 112 92
79 113 92
78 112 92
79 112 92
81 115 94
81 116 94
81 115 94
81 116 94
81 115 94
81 115 94
81 115 94
81 115 94
81 115 94
81 115 94
81 115 94
81 115 94
81 116 94
81 115 94
81 115 94
81 115 94
81 115 94
81 116 94
81 115 94
81 116 94
81 116 94
81 115 94
81 115 94
81 116 94
81 116 94
81 115 94
81 115 94
81 115 94
81 116 94
81 116 94
81 115 94
81 115 94
81 116 94
81 115 94
81 115 94
81 116 94
81 115 94
81 116 94
81 116 94
81 115 94
81 116 94
81 115 94
82 116 94
82 116 94
81 115 94
81 115 94
81 115 94
81 116 94
81 116 94
81 115 94
81 116 94
81 116 94
81 115 94
81 116 94
81 116 94
81 115 94
81 116 94
81 115 94
81 116 94
81 116 94
81 116 94
81 115 94
81 115 94
81 115 94
81 115 94
81 115 94
81 116 94
81 116 94
81 115 94
81 115 94
82 116 94
81 115 94
81 116 94
81 115 94
81 116 94
81 116 94
81 116 94
81 115 94
81 115 94
81 115 94
81 116 94
81 115 94
81 116 94
81 116 94
81 115 94
81 115 94
81 116 94
81 115 94
81 116 94
81 116 94
81 116 94
82 116 94
81 116 94
81 116 94
81 115 94
81 116 94
81 116 94
81 116 94
81 115 94
81 116 94
81 116 94
81 116 94
81 116 94
81 116 94
81 115 94
81 116 94
81 116 94
81 116 94
81 115 94
81 116 94
81 116 94
81 116 94
81 115 94
81 116 94
81 116 94
81 116 94
81 116 94
81 116 94
81 116 94
81 115 94
81 116 94
81 115 94
81 116 94
81 115 94
81 115 94
81 116 94
81 115 94
81 115 94
81 116 94
81 116 94
81 116 94
81 116 94
81 116 94
81 116 94
81 116 94
81 116 94
81 116 94
82 116 94
81 116 94
81 115 94
81 116 94
81 116 94
81 116 94
81 116 94
81 116 94
81 116 94
81 116 94
81 115 94
81 115 94
82 116 94
81 115 94
81 116 94
81 115 94
81 116 94
81 115 94
81 116 94
81 116 94
81 116 94
81 116 94
81 116 94
81 115 94
81 116 94
81 116 94
81 115 94
81 115 94
81 115 94
81 116 94
81 115 94
81 115 94
81 116 94
81 115 94
81 115 94
81 115 94
81 116 94
81 115 94
81 115 94
81 116 94
81 116 94
81 115 94
81 116 94
82 116 94
81 116 94
81 115 94
81 116 94
81 115 94
81 115 94
81 115 94
81 115 94
81 116 94
81 115 94
81 115 94
81 115 94
81 115 94
81 115 94
81 115 94
81 116 94
81 116 94
81 115 94
81 116 94
81 115 94
81 115 94
81 115 94
81 116 94
81 115 94
81 115 94
81 115 94
81 115 94
81 115 94
81 115 94
81 115 94
81 115 94
81 115 94
81 116 94
81 116 94
81 115 94
81 115 94
81 115 94
81 115 94
81 115 94
81 115 94
81 115 94
81 115 94
81 115 94
81 115 94
81 116 94
81 115 94
81 116 94
81 116 94
81 115 94
81 115 94
81 115 94
81 115 94
81 115 94
81 115 94
81 115 94
81 115 94
81 115 94
81 115 94
81 115 94
81 115 94
81 115 94
81 115 94
81 115 94
81 115 94
81 115 94
81 115 94
81 116 94
81 115 94
81 115 94
81 115 94
81 115 94
81 115 94
81 115 94
81 115 94
81 115 94
81 115 94
81 115 94
81 115 94
81 115 94
81 115 94
81 115 94
81 115 94
81 115 94
81 115 94
81 115 94
81 115 94
81 115 94
81 115 94
81 115 94
81 115 94
81 115 94
81 115 94
81 115 94
81 115 94
81 115 94
81 115 94
81 115 94
81 115 94
81 115 94
81 115 94
81 115 94
81 115 94
81 115 94
81 115 94
81 115 94
81 115 94
81 115 94
81 115 94
81 115 94
81 115 94
81 115 94
81 115 94
81 115 94
81 115 94
81 115 94
81 115 94
81 115 94
81 115 94
81 115 94
81 115 94
81 115 94
81 115 94
80 115 94
80 115 94
81 115 94
81 115 94
81 115 94
81 115 94
81 115 94
81 115 94
80 115 94
81 115 94
81 115 94
81 115 94
81 115 94
81 115 94
81 115 94
81 115 94
81 115 94
81 115 94
81 115 94
80 115 94
80 115 94
81 115 94
80 114 94
81 115 94
81 115 94
81 115 94
81 115 94
80 114 94
81 115 94
81 115 94
80 115 94
81 115 94
81 115 94
81 115 94
80 115 94
81 115 94
81 115 94
80 115 94
81 115 94
81 115 94
81 115 94
81 115 94
81 115 94
81 115 94
80 114 94
81 115 94
80 115 94
81 115 94
81 115 94
80 115 94
81 115 94
80 114 94
80 115 94
80 115 94
80 115 94
80 115 94
80 115 94
80 115 94
80 115 94
80 114 94
80 114 94
80 114 94
80 114 94
80 115 94
81 115 94
80 114 94
80 114 94
81 115 94
80 115 94
80 114 94
80 114 94
80 114 94
80 115 94
80 114 94
80 114 94
81 115 94
80 114 93
80 115 94
80 114 94
80 114 93
80 114 94
80 114 94
80 114 93
80 114 94
80 114 94
80 114 94
80 114 93
80 114 94
80 114 94
80 114 93
80 114 94
80 114 94
80 114 94
80 114 93
80 114 94
80 114 93
80 114 93
80 114 94
80 114 94
80 114 94
80 114 93
80 114 94
80 114 93
80 114 93
80 114 93
80 114 93
80 114 93
80 114 93
80 114 93
80 114 93
80 114 93
80 114 93
80 114 93
80 114 93
80 114 93
80 114 93
80 114 93
80 114 93
80 114 93
80 114 93
80 114 93
80 114 93
80 114 93
80 114 93
80 114 93
80 114 93
80 114 93
80 114 93
80 114 93
80 114 93
80 114 93
80 114 93
80 114 93
80 114 93
80 114 93
80 114 93
80 114 93
80 114 93
80 114 93
80 114 93
80 114 93
80 114 93
80 114 93
80 114 93
80 114 93
80 114 93
80 114 93
80 114 93
80 114 93
79 113 93
80 114 93
80 114 93
80 114 93
80 114 93
80 114 93
80 114 93
80 114 93
80 114 93
80 114 93
80 114 93
80 114 93
80 114 93
80 114 93
80 114 93
80 114 93
80 114 93
80 114 93
79 113 93
80 114 93
80 114 93
80 114 93
79 114 93
79 114 93
80 114 93
80 114 93
80 114 93
79 114 93
80 114 93
80 114 93
80 114 93
79 113 93
80 114 93
79 113 93
79 113 93
79 113 93
80 114 93
79 113 93
79 113 93
80 114 93
79 113 93
79 113 93
79 113 93
79 113 93
80 114 93
79 113 93
79 113 93
80 114 93
80 114 93
80 114 93
80 113 93
79 113 93
79 113 93
79 113 93
80 114 93
80 113 93
79 113 93
80 113 93
79 113 93
80 113 93
79 113 93
79 113 93
79 113 93
79 113 93
80 113 93
80 113 93
79 113 93
79 113 93
79 113 92
79 113 93
79 113 93
79 113 93
79 113 93
79 113 93
79 113 93
79 113 93
79 113 93
79 113 93
79 113 93
79 113 93
79 113 93
79 113 93
79 113 93
79 113 93
79 113 93
79 113 93
79 113 93
79 113 93
79 113 93
79 113 93
79 113 93
79 113 93
79 113 93
79 113 93
79 113 93
79 113 93
79 113 93
79 113 93
79 113 93
79 113 93
79 113 93
79 113 92
79 113 92
79 113 93
79 113 93
79 113 93
79 113 93
79 113 92
79 113 93
79 113 93
79 113 92
79 113 93
79 113 93
79 113 93
79 113 93
79 113 92
79 113 92
79 113 92
79 113 92
79 113 92
79 113 92
79 113 92
79 113 92
79 113 92
79 113 92
78 112 92
79 113 92
79 113 92
79 113 92
79 113 92
79 113 92
79 113 92
79 113 92
79 113 92
79 113 92
79 112 92
79 112 92
78 112 92
79 113 92
79 113 92
79 113 92
79 113 92
79 113 92
79 113 92
79 113 92
79 112 92
79 113 92
78 112 92
79 113 92
82 116 94
81 115 94
81 116 94
81 116 94
81 116 94
81 116 94
81 116 94
81 116 94
81 115 94
81 116 94
81 115 94
81 116 94
81 115 94
81 115 94
81 116 94
81 116 94
81 115 94
81 116 94
81 116 94
81 115 94
81 115 94
81 116 94
81 116 94
81 115 94
81 116 94
81 116 94
81 116 94
81 115 94
81 116 94
81 116 94
81 116 94
81 116 94
81 116 94
81 115 94
81 116 94
81 115 94
81 116 94
81 116 94
81 116 94
81 116 94
81 115 94
81 116 94
81 116 94
81 116 94
81 116 94
81 116 94
81 115 94
81 115 94
81 116 94
81 116 94
81 116 94
81 115 94
81 116 94
81 115 94
81 116 94
81 115 94
81 116 94
81 116 94
81 116 94
81 116 94
81 116 94
81 116 94
81 116 94
81 116 94
81 115 94
82 116 94
81 115 94
81 115 94
81 116 94
82 116 94
81 116 94
81 116 94
81 116 94
81 115 94
81 116 94
81 115 94
81 116 94
81 116 94
81 115 94
81 116 94
81 116 94
81 116 94
82 116 94
81 116 94
81 116 94
81 116 94
81 116 94
81 116 94
81 115 94
81 116 94
81 116 94
81 115 94
81 116 94
81 116 94
81 115 94
81 116 94
81 116 94
81 116 94
81 116 94
81 116 94
81 116 94
81 116 94
81 115 94
82 116 94
81 116 94
81 116 94
81 116 94
81 116 94
81 116 94
81 116 94
81 115 94
81 116 94
81 115 94
81 116 94
81 116 94
81 116 94
81 116 94
81 115 94
81 116 94
81 116 94
81 116 94
81 116 94
81 116 94
81 115 94
81 116 94
82 116 94
81 115 94
81 116 94
81 115 94
81 116 94
81 116 94
81 116 94
81 115 94
81 116 94
81 116 94
81 116 94
81 116 94
81 116 94
81 116 94
81 116 94
81 116 94
81 116 94
81 116 94
81 116 94
81 115 94
81 116 94
81 116 94
82 116 94
81 116 94
81 115 94
81 116 94
82 116 94
81 115 94
81 115 94
81 116 94
81 116 94
81 115 94
81 116 94
81 116 94
81 116 94
81 116 94
81 115 94
81 115 94
81 116 94
81 116 94
81 116 94
81 115 94
81 116 94
81 116 94
81 116 94
81 116 94
81 116 94
81 116 94
81 116 94
81 116 94
81 116 94
81 116 94
81 116 94
81 116 94
81 115 94
81 116 94
81 116 94
81 116 94
81 116 94
81 115 94
81 116 94
81 116 94
81 115 94
81 116 94
81 115 94
81 116 94
81 116 94
81 116 94
81 116 94
81 116 94
81 115 94
81 115 94
81 115 94
81 116 94
81 116 94
81 115 94
81 115 94
81 116 94
81 116 94
81 115 94
82 116 94
81 116 94
81 116 94
81 116 94
81 115 94
81 116 94
81 115 94
81 115 94
81 115 94
81 116 94
81 115 94
81 115 94
81 115 94
81 115 94
81 115 94
81 116 94
81 115 94
81 115 94
81 115 94
81 115 94
81 116 94
81 116 94
81 116 94
81 116 94
81 115 94
81 115 94
81 116 94
81 116 94
81 116 94
81 115 94
81 115 94
81 115 94
81 115 94
81 115 94
81 115 94
81 115 94
81 115 94
81 115 94
81 115 94
81 115 94
81 115 94
81 115 94
81 115 94
81 116 94
81 115 94
81 115 94
81 115 94
81 115 94
81 115 94
81 115 94
81 115 94
81 115 94
81 115 94
81 115 94
81 115 94
81 115 94
81 115 94
81 115 94
81 116 94
81 115 94
81 115 94
81 115 94
81 115 94
81 115 94
81 116 94
81 115 94
81 115 94
81 115 94
81 115 94
81 115 94
81 115 94
81 115 94
81 115 94
81 115 94
81 115 94
81 115 94
81 115 94
81 115 94
81 115 94
81 115 94
81 115 94
81 115 94
81 115 94
81 115 94
81 115 94
81 115 94
81 115 94
81 115 94
81 115 94
81 115 94
81 115 94
81 115 94
81 115 94
81 115 94
81 115 94
81 115 94
81 115 94
81 115 94
81 115 94
81 115 94
80 115 94
81 115 94
81 115 94
81 115 94
81 115 94
81 115 94
81 115 94
81 115 94
81 115 94
81 115 94
81 115 94
81 115 94
81 115 94
81 115 94
81 115 94
81 115 94
81 115 94
80 115 94
81 115 94
81 115 94
81 115 94
80 115 94
81 115 94
81 115 94
81 115 94
81 115 94
81 115 94
81 115 94
80 115 94
81 115 94
81 115 94
81 115 94
81 115 94
80 115 94
80 115 94
80 115 94
81 115 94
80 115 94
81 115 94
80 115 94
80 115 94
80 115 94
81 115 94
80 115 94
81 115 94
80 114 94
80 115 94
81 115 94
80 115 94
81 115 94
81 115 94
80 114 94
80 115 94
81 115 94
81 115 94
80 115 94
80 114 94
80 115 94
81 115 94
80 115 94
80 114 94
81 115 94
80 114 94
80 114 94
81 115 94
80 115 94
80 115 94
81 115 94
80 115 94
80 115 94
80 115 94
80 114 94
80 114 94
80 114 94
81 114 93
80 114 94
81 115 94
81 115 94
81 115 93
80 114 94
80 114 94
80 114 93
80 115 94
80 114 93
80 114 93
80 114 94
80 114 93
81 115 94
80 114 94
80 115 94
80 114 93
81 115 94
80 115 94
80 114 94
80 114 94
80 114 94
80 114 94
80 114 94
80 114 94
80 115 94
80 114 93
80 114 94
80 114 93
80 114 94
80 114 94
80 114 93
80 114 94
80 114 93
80 114 93
80 115 93
80 114 93
80 114 93
80 114 93
80 114 93
80 114 93
80 114 93
80 114 93
80 114 93
80 114 93
80 114 93
80 114 93
80 114 93
80 114 93
80 114 93
80 114 93
80 114 93
80 114 93
80 114 93
80 114 93
80 114 93
80 114 93
80 114 93
80 114 93
80 114 93
80 114 93
80 114 93
80 114 93
80 114 93
80 114 93
79 114 93
80 114 93
80 114 93
80 114 93
80 114 93
80 114 93
80 114 93
80 114 93
80 114 93
80 114 93
80 114 93
80 114 93
80 114 93
80 114 93
80 114 93
80 114 93
80 114 93
80 114 93
80 114 93
80 114 93
80 114 93
80 114 93
80 114 93
80 114 93
80 114 93
79 113 93
80 114 93
80 114 93
79 114 93
80 114 93
80 114 93
80 114 93
80 114 93
79 114 93
80 114 93
80 114 93
80 114 93
80 114 93
80 114 93
79 114 93
80 114 93
79 113 93
79 113 93
80 114 93
80 114 93
80 114 93
80 114 93
79 113 93
80 114 93
80 113 93
79 114 93
80 114 93
80 114 93
79 113 93
80 114 93
79 113 93
79 113 93
80 114 93
80 114 93
79 113 93
79 113 93
79 113 93
80 114 93
79 113 93
80 114 93
79 113 93
79 113 93
79 113 93
79 113 93
79 113 93
79 113 93
79 113 93
80 114 93
79 113 93
79 113 93
79 113 93
79 113 93
79 113 93
79 113 93
79 113 93
79 113 93
79 113 93
79 113 93
79 113 93
79 113 93
79 113 93
79 113 93
79 113 93
79 113 93
79 113 93
79 113 93
80 114 93
79 113 93
79 113 93
79 113 93
79 113 93
79 113 93
79 113 93
79 113 93
79 113 93
79 113 93
79 113 93
79 113 93
79 113 93
79 113 93
79 113 93
79 113 93
79 113 92
79 113 92
79 113 93
79 113 93
79 113 93
79 113 93
79 113 93
79 113 93
79 113 92
79 113 92
79 113 93
79 113 93
79 113 93
79 113 93
79 113 93
79 113 93
79 113 92
79 113 93
79 113 93
79 113 93
79 113 93
79 113 92
79 113 92
79 113 92
79 113 92
79 113 92
79 113 92
79 113 92
79 113 92
79 113 92
79 113 92
79 113 92
79 113 92
79 113 92
79 113 92
79 113 92
79 113 92
79 113 92
79 113 92
78 112 92
79 113 92
79 112 92
79 113 92
79 113 92
79 113 92
79 113 92
79 113 92
79 113 92
79 113 92
81 115 94
81 115 94
81 116 94
81 116 94
81 116 94
81 115 94
81 116 94
81 116 94
81 116 94
81 116 94
81 116 94
81 115 94
81 116 94
81 115 94
81 116 94
81 116 94
81 116 94
81 116 94
81 116 94
81 116 94
81 116 94
81 116 94
81 116 94
81 116 94
81 116 94
81 116 94
81 116 94
81 116 94
82 116 94
81 116 94
81 116 94
81 116 94
81 115 94
81 116 94
81 115 94
82 116 94
82 116 94
81 116 94
81 116 94
81 116 94
81 116 94
81 116 94
81 116 94
81 116 94
81 115 94
81 116 94
81 116 94
81 116 94
81 116 94
81 115 94
81 116 94
81 116 94
81 116 94
81 115 94
81 116 94
81 116 94
81 116 94
81 116 94
82 116 94
81 116 94
81 116 94
81 116 94
81 116 94
81 116 94
81 116 94
81 116 94
81 116 94
81 116 94
81 116 94
82 116 94
82 116 94
81 116 94
81 115 94
81 116 94
81 116 94
81 116 94
82 116 94
81 116 94
81 116 94
81 116 94
81 116 94
81 116 94
81 116 94
81 116 94
81 116 94
81 116 94
81 116 94
81 115 94
81 115 94
81 115 94
81 116 94
81 116 94
81 116 94
81 116 94
81 116 94
81 116 94
82 116 94
81 116 94
81 116 94
81 116 94
81 116 94
82 116 94
81 116 94
81 116 94
82 116 94
82 116 94
81 116 94
81 116 94
81 116 94
81 116 94
81 116 94
81 116 94
82 116 94
81 116 94
81 116 94
81 116 94
81 116 94
81 116 94
81 116 94
82 116 94
81 116 94
82 116 94
81 115 94
81 116 94
82 116 94
81 116 94
81 116 94
81 116 94
81 116 94
81 116 94
82 116 94
81 116 94
81 116 94
82 116 94
82 116 94
82 116 94
81 116 94
82 116 94
81 116 94
82 116 94
81 116 94
81 116 94
81 116 94
81 116 94
81 116 94
81 115 94
82 116 94
81 116 94
81 116 94
81 116 94
81 116 94
82 116 94
81 116 94
81 116 94
81 116 94
81 116 94
81 116 94
81 116 94
82 116 94
81 116 94
81 116 94
81 116 94
81 116 94
81 116 94
81 116 94
82 116 94
81 115 94
81 116 94
81 115 94
81 116 94
81 116 94
81 116 94
81 116 94
81 116 94
81 116 94
81 116 94
81 116 94
81 115 94
81 116 94
81 116 94
81 116 94
81 116 94
81 115 94
82 116 94
81 116 94
81 116 94
81 115 94
81 115 94
81 116 94
81 116 94
81 116 94
81 115 94
81 116 94
81 116 94
81 116 94
82 116 94
81 115 94
81 116 94
81 115 94
81 116 94
81 116 94
81 116 94
81 115 94
81 116 94
81 116 94
82 116 94
81 115 94
81 115 94
81 116 94
81 116 94
81 115 94
81 116 94
81 115 94
81 116 94
81 115 94
81 115 94
81 115 94
81 115 94
81 116 94
81 116 94
81 116 94
81 115 94
81 115 94
81 116 94
81 116 94
81 115 94
81 116 94
81 115 94
81 115 94
81 115 94
81 115 94
81 116 94
81 115 94
81 116 94
81 116 94
81 115 94
81 115 94
81 115 94
81 115 94
81 115 94
81 116 94
81 115 94
81 115 94
81 115 94
81 116 94
81 115 94
81 115 94
81 115 94
81 116 94
81 115 94
81 115 94
81 116 94
81 115 94
81 115 94
81 115 94
81 115 94
81 115 94
81 115 94
81 115 94
81 115 94
81 115 94
81 116 94
81 115 94
81 115 94
81 115 94
81 115 94
81 115 94
81 115 94
81 115 94
81 115 94
81 115 94
81 115 94
81 115 94
81 115 94
81 115 94
81 115 94
81 115 94
81 115 94
81 115 94
81 115 94
81 115 94
81 115 94
81 115 94
81 115 94
81 115 94
81 115 94
81 115 94
81 115 94
81 115 94
80 115 94
81 115 94
81 115 94
80 115 94
81 115 94
81 115 94
81 115 94
81 115 94
81 115 94
81 115 94
81 115 94
81 115 94
81 115 94
81 115 94
81 115 94
81 115 94
81 115 94
81 115 94
81 115 94
81 115 94
81 115 94
81 115 94
81 115 94
81 115 94
81 115 94
81 115 94
81 115 94
81 115 94
81 115 94
81 115 94
81 115 94
81 115 94
81 115 94
81 115 94
81 115 94
81 115 94
81 115 94
81 115 94
81 115 94
81 115 94
80 115 94
81 115 94
81 115 94
81 115 94
81 115 94
81 115 94
81 115 94
80 115 94
81 115 94
81 115 94
81 115 94
80 115 94
81 115 94
81 115 94
81 115 94
80 115 94
81 115 94
81 115 94
80 115 94
81 115 94
80 115 94
80 115 94
81 115 94
80 114 94
80 115 94
81 115 94
81 115 94
80 114 94
80 115 94
80 115 94
81 115 94
80 114 94
81 115 94
81 115 94
81 115 94
81 115 94
81 115 94
80 115 94
80 115 94
81 115 94
80 115 94
80 114 94
80 115 94
80 115 94
81 115 94
80 115 94
81 115 94
80 114 94
80 115 94
80 115 94
81 115 94
80 114 94
80 115 94
80 114 94
81 115 94
80 114 94
80 115 94
81 115 94
80 114 94
80 114 94
80 115 94
80 114 94
80 115 94
80 115 94
80 114 93
80 114 94
80 114 94
80 115 94
80 115 93
80 114 94
80 115 94
80 114 94
80 114 93
80 114 94
80 114 93
80 114 93
80 114 94
80 114 94
80 114 94
80 115 94
80 114 94
81 114 93
80 114 94
80 114 94
80 114 94
80 114 94
80 114 94
80 114 94
80 114 94
80 114 94
80 114 94
80 114 94
80 114 93
80 114 93
80 114 93
80 114 93
80 114 93
80 114 93
80 114 93
80 114 93
80 114 93
80 114 93
80 114 93
80 114 93
80 114 93
80 114 93
80 114 93
80 114 93
80 114 93
80 114 93
80 114 93
80 114 93
80 114 93
80 114 93
80 114 93
80 114 93
80 114 93
80 114 93
80 114 93
80 114 93
80 114 93
80 114 93
80 114 93
80 114 93
80 114 93
80 114 93
80 114 93
80 114 93
80 114 93
80 114 93
80 114 93
80 114 93
80 114 93
80 114 93
80 114 93
80 114 93
80 114 93
80 114 93
80 114 93
80 114 93
80 114 93
80 114 93
80 114 93
80 114 93
80 114 93
80 114 93
80 114 93
80 114 93
80 114 93
80 114 93
80 114 93
80 114 93
80 114 93
79 114 93
80 114 93
80 114 93
80 114 93
80 114 93
79 113 93
80 114 93
79 114 93
79 113 93
80 114 93
80 114 93
79 114 93
80 114 93
80 114 93
80 114 93
80 114 93
80 114 93
80 114 93
80 114 93
80 114 93
80 114 93
79 113 93
80 114 93
79 113 93
79 113 93
80 114 93
80 114 93
79 113 93
79 113 93
79 113 93
79 113 93
80 114 93
79 113 93
79 113 93
79 113 93
79 113 93
79 113 93
79 113 93
79 113 93
79 113 93
79 113 93
79 113 93
79 113 93
80 114 93
79 113 93
79 113 93
79 113 93
79 113 93
80 113 93
79 113 93
79 113 93
79 113 93
79 113 93
79 113 93
79 113 93
79 113 93
80 113 93
79 113 93
79 113 93
79 113 93
79 113 93
79 113 93
79 113 93
79 113 93
79 113 93
79 113 93
79 113 93
79 113 93
79 113 93
79 113 93
79 113 93
79 113 93
79 113 93
79 113 93
79 113 93
79 113 93
79 113 93
79 113 93
79 113 93
79 113 93
79 113 92
79 113 92
79 113 93
79 113 93
79 113 93
79 113 93
79 113 93
79 113 93
79 113 93
79 113 92
79 113 93
79 113 93
79 113 93
79 113 93
79 113 93
79 113 93
79 113 92
79 113 92
79 113 92
79 113 92
79 113 92
79 112 92
79 113 92
79 113 92
78 112 92
79 113 92
79 113 92
79 113 92
79 113 92
79 113 92
79 113 92
78 112 92
79 113 92
79 113 92
79 113 92
79 113 92
79 113 92
79 113 92
81 115 94
82 116 94
81 115 94
81 116 94
81 116 94
81 116 94
81 116 94
81 115 94
81 116 94
81 116 94
81 116 94
81 116 94
81 116 94
82 116 94
81 116 94
81 116 94
81 116 94
82 116 94
81 116 94
81 116 94
81 116 94
81 116 94
81 116 94
81 116 94
82 116 94
81 116 94
82 116 94
81 116 94
82 116 94
81 116 94
81 116 94
81 116 94
81 116 94
81 116 94
81 116 94
81 116 94
82 116 94
81 116 94
81 116 94
82 116 95
81 116 95
81 116 95
81 116 95
82 116 95
81 116 95
81 116 95
81 116 95
82 116 95
81 116 95
81 116 95
81 116 95
82 116 95
81 116 95
81 116 95
82 116 95
82 116 95
81 116 94
82 116 95
81 116 95
81 116 94
81 115 94
81 116 95
82 116 95
81 116 95
81 116 94
81 116 95
81 116 95
81 116 95
81 116 94
82 116 94
82 116 95
81 116 95
82 116 95
82 116 95
82 116 95
81 116 95
81 116 95
82 116 95
81 116 95
81 116 94
81 116 95
81 116 95
81 116 95
81 116 94
81 116 95
81 116 95
82 116 95
81 116 95
81 116 95
82 116 95
81 116 95
81 116 95
81 116 95
81 116 95
82 116 95
81 116 95
81 116 95
81 115 94
82 116 94
82 116 95
81 116 94
81 116 94
82 116 94
81 116 95
81 116 95
81 116 94
81 116 94
81 116 95
82 116 95
81 115 95
82 116 95
81 116 94
81 116 95
81 116 95
82 116 95
81 116 94
81 116 95
81 116 95
81 116 94
81 116 95
82 116 95
81 116 95
81 116 94
81 116 95
81 116 95
82 116 95
82 116 95
81 116 95
81 116 95
81 116 94
81 116 95
82 116 95
81 116 94
82 116 95
81 116 95
81 116 95
82 116 95
82 116 95
81 116 95
81 116 95
81 115 94
82 116 95
82 116 95
81 116 94
82 116 95
82 116 95
82 116 95
81 116 95
81 116 95
81 116 94
81 116 95
81 116 94
81 115 94
81 115 94
81 116 95
81 116 95
81 116 95
81 115 94
81 116 95
81 116 95
81 115 94
81 116 94
81 116 95
81 116 94
82 116 95
81 116 95
81 116 94
81 116 95
82 116 94
81 116 94
81 116 94
81 116 94
82 116 94
81 116 94
81 116 94
81 116 94
81 116 94
81 116 94
81 116 94
81 115 94
82 116 94
81 116 94
81 116 94
82 116 94
81 116 94
82 116 94
81 116 94
81 116 94
81 116 94
81 116 94
81 116 94
81 116 94
81 116 94
81 116 94
81 116 94
82 116 94
81 116 94
81 115 94
81 116 94
81 116 94
81 115 94
82 116 94
81 116 94
82 116 94
81 115 94
81 115 94
81 116 94
81 115 94
81 116 94
81 115 94
81 116 94
81 116 94
81 116 94
81 116 94
81 116 94
81 115 94
81 116 94
81 116 94
81 116 94
81 115 94
81 115 94
81 115 94
81 116 94
81 116 94
81 115 94
81 115 94
81 116 94
81 115 94
81 116 94
81 115 94
81 116 94
81 116 94
81 116 94
81 115 94
81 115 94
81 115 94
81 116 94
81 115 94
81 116 94
81 115 94
81 115 94
81 115 94
81 116 94
81 115 94
81 116 94
81 116 94
81 116 94
81 116 94
81 116 94
81 116 94
81 115 94
81 115 94
81 115 94
81 115 94
81 115 94
81 115 94
81 115 94
81 115 94
81 115 94
81 115 94
81 115 94
81 115 94
81 115 94
81 116 94
81 115 94
81 116 94
81 116 94
81 115 94
81 115 94
81 115 94
81 115 94
81 115 94
81 115 94
81 116 94
81 115 94
81 115 94
81 115 94
81 115 94
81 115 94
81 116 94
81 116 94
81 115 94
81 115 94
81 115 94
81 115 94
81 115 94
81 115 94
81 115 94
81 115 94
81 115 94
81 115 94
81 115 94
81 115 94
81 115 94
81 115 94
81 115 94
81 115 94
81 115 94
81 115 94
81 115 94
81 115 94
81 115 94
81 115 94
81 115 94
81 115 94
81 115 94
81 115 94
81 115 94
81 115 94
81 115 94
81 115 94
81 115 94
81 115 94
81 115 94
81 115 94
81 115 94
81 115 94
81 115 94
81 115 94
81 115 94
81 115 94
81 115 94
81 115 94
81 115 94
81 115 94
81 115 94
81 115 94
80 115 94
81 115 94
81 115 94
81 115 94
81 115 94
81 115 94
81 115 94
81 115 94
81 115 94
81 115 94
81 115 94
81 115 94
81 115 94
81 115 94
81 115 94
80 115 94
81 115 94
81 115 94
80 115 94
81 115 94
80 115 94
81 115 94
80 115 94
81 115 94
81 115 94
81 115 94
81 115 94
80 114 94
81 115 94
81 115 94
80 115 94
80 115 94
80 115 94
80 115 94
80 115 94
81 115 94
80 115 94
80 115 94
80 115 94
80 115 94
81 115 94
81 115 94
81 115 94
81 115 94
80 114 94
80 115 94
80 115 94
80 115 94
80 114 94
80 115 94
81 115 94
80 114 94
80 114 94
81 115 94
80 115 94
81 115 94
80 115 94
80 115 94
80 114 94
81 115 94
80 115 94
80 114 94
80 115 94
80 115 94
80 115 94
80 115 94
80 115 94
80 114 94
80 114 94
80 115 94
81 115 94
80 114 94
80 115 94
80 115 94
80 115 94
80 114 93
80 114 93
80 115 94
80 115 94
81 115 94
80 115 94
80 114 94
80 114 93
80 114 93
81 115 94
80 114 94
80 114 93
80 115 94
80 114 94
80 114 93
80 114 93
80 114 93
80 114 94
80 114 94
80 114 94
80 114 93
80 114 94
80 114 93
80 114 94
80 114 94
80 114 94
80 114 94
80 114 93
80 114 93
80 114 93
80 114 93
80 114 93
80 114 93
80 114 93
80 114 93
80 114 93
80 114 93
80 114 93
80 114 93
80 114 93
79 114 93
80 114 93
80 114 93
80 114 93
80 114 93
80 114 93
80 114 93
80 114 93
80 114 93
80 114 93
80 114 93
80 114 93
80 114 93
80 114 93
80 114 93
80 114 93
80 114 93
80 114 93
80 114 93
80 114 93
80 114 93
80 114 93
80 114 93
80 114 93
80 114 93
80 114 93
80 114 93
80 114 93
80 114 93
80 114 93
80 114 93
80 114 93
80 114 93
80 114 93
80 114 93
80 114 93
80 114 93
80 114 93
80 114 93
80 114 93
80 114 93
80 114 93
80 114 93
80 114 93
80 114 93
79 114 93
79 113 93
80 114 93
80 114 93
80 114 93
79 114 93
80 114 93
80 114 93
80 114 93
80 114 93
80 114 93
79 113 93
80 114 93
80 114 93
79 114 93
80 114 93
79 114 93
80 114 93
79 113 93
80 114 93
79 113 93
79 114 93
80 114 93
80 114 93
80 114 93
80 114 93
79 113 93
79 113 93
80 114 93
80 114 93
79 113 93
79 113 93
79 113 93
79 113 93
79 113 93
80 114 93
79 113 93
79 113 93
80 114 93
80 114 93
79 113 93
79 113 93
80 114 93
79 113 93
79 113 93
79 113 93
79 113 93
79 113 93
79 113 93
79 113 93
79 113 93
79 113 93
79 113 93
79 113 93
79 113 93
79 113 93
79 113 93
79 113 93
79 113 93
79 113 93
80 113 93
79 113 93
79 113 93
79 113 93
79 113 93
79 113 93
79 113 93
79 113 93
79 113 93
79 113 93
79 113 93
79 113 93
79 113 93
79 113 93
79 113 93
79 113 93
79 113 93
79 113 92
79 113 93
79 113 93
79 113 93
79 113 93
79 113 93
79 113 93
79 113 93
79 113 93
79 113 93
79 113 93
79 113 93
79 113 93
79 113 92
79 113 92
79 113 93
79 113 93
79 113 93
79 113 93
79 113 93
79 113 92
79 113 92
79 113 92
79 113 92
79 113 92
79 113 92
79 113 92
79 113 92
79 113 92
79 113 92
79 113 92
79 113 92
79 113 92
79 113 92
79 113 92
79 113 92
82 116 94
82 116 94
82 116 94
81 116 94
82 116 94
81 116 94
81 116 94
82 116 95
81 116 95
82 116 95
81 116 95
81 116 95
82 116 95
81 116 95
81 116 95
81 116 94
81 116 95
81 116 95
81 116 95
81 116 94
81 116 95
82 116 95
81 116 95
81 116 95
81 116 95
81 116 95
81 116 95
81 116 94
82 116 95
81 116 95
81 116 95
82 116 95
81 116 95
81 116 94
81 116 95
82 116 95
81 116 95
81 116 95
82 116 95
81 116 95
81 116 95
81 116 94
81 116 95
81 116 94
82 116 94
81 116 95
81 116 95
81 116 95
81 116 94
81 116 95
82 116 95
81 116 95
81 116 95
81 116 95
81 116 94
82 116 95
81 116 95
82 116 94
82 116 95
81 116 95
81 115 94
81 116 95
82 116 95
82 116 94
81 116 95
82 116 95
81 116 94
81 116 95
81 116 95
81 116 95
82 116 95
82 116 95
81 116 95
81 116 95
81 116 95
81 116 95
81 116 94
82 116 95
81 116 94
81 116 95
82 116 95
81 116 95
81 116 94
82 116 95
81 116 95
81 116 94
82 116 95
81 116 94
82 116 95
82 116 95
81 116 95
81 116 94
81 116 95
82 116 95
81 116 95
81 116 95
81 116 95
81 116 95
82 116 95
81 116 94
81 116 94
82 116 95
81 116 95
82 116 95
82 116 95
81 116 95
81 116 94
82 116 95
82 116 95
82 116 94
82 116 94
81 116 94
81 116 95
81 116 94
81 116 95
82 116 95
82 116 95
81 116 94
81 116 95
81 116 95
82 116 95
82 116 95
81 116 95
81 116 94
81 116 95
82 116 95
81 116 95
81 116 95
81 116 94
81 116 95
82 116 95
82 116 95
82 116 95
81 116 94
81 116 95
81 116 95
81 116 95
81 115 94
82 116 95
81 116 95
81 116 95
82 116 95
81 116 94
81 116 94
81 115 94
82 116 95
81 116 95
82 116 94
81 116 94
81 116 95
81 116 95
81 116 95
81 116 95
82 116 95
81 116 95
82 116 95
82 116 95
82 116 95
81 116 95
82 116 95
81 116 94
81 116 94
81 116 95
81 116 95
81 116 95
81 116 94
81 116 94
81 116 94
82 116 95
81 115 94
81 116 95
81 116 94
82 116 95
82 116 95
82 116 95
81 116 95
81 116 94
82 116 95
82 116 95
81 115 94
82 116 94
81 116 95
82 116 95
81 116 95
81 116 95
81 116 94
81 116 94
81 116 95
81 116 95
82 116 95
81 116 95
81 116 95
82 116 95
81 116 95
81 116 94
81 115 94
81 116 95
82 116 95
81 116 95
81 116 94
81 115 94
81 116 94
81 116 94
81 116 94
82 116 94
81 116 94
81 116 94
81 116 94
81 116 94
81 116 94
81 116 94
82 116 94
81 115 94
81 116 94
81 116 94
82 116 94
82 116 94
81 116 94
81 116 94
81 116 94
81 116 94
81 116 94
81 116 94
82 116 94
82 116 94
81 116 94
81 116 94
81 116 94
81 115 94
81 116 94
81 115 94
81 116 94
81 116 94
81 116 94
81 115 94
81 116 94
82 116 94
81 116 94
81 116 94
81 115 94
81 115 94
81 115 94
81 115 94
81 116 94
81 115 94
81 116 94
81 116 94
81 115 94
81 116 94
81 116 94
81 115 94
81 116 94
81 115 94
81 115 94
81 116 94
81 115 94
81 116 94
81 115 94
81 115 94
81 115 94
81 115 94
81 115 94
81 115 94
81 116 94
81 115 94
81 115 94
81 116 94
81 115 94
81 116 94
81 116 94
81 115 94
81 115 94
81 116 94
81 115 94
81 115 94
81 115 94
81 115 94
81 115 94
81 116 94
81 115 94
81 115 94
81 115 94
81 115 94
81 115 94
81 115 94
81 115 94
81 115 94
81 116 94
81 115 94
81 115 94
81 115 94
81 115 94
81 115 94
81 115 94
81 115 94
81 115 94
81 115 94
81 115 94
81 115 94
81 115 94
81 115 94
81 115 94
81 115 94
81 115 94
81 115 94
81 115 94
81 115 94
81 115 94
81 115 94
81 115 94
81 115 94
81 115 94
81 115 94
81 115 94
81 115 94
81 115 94
81 115 94
81 115 94
81 116 94
81 115 94
81 115 94
81 115 94
81 115 94
81 115 94
81 115 94
81 115 94
81 115 94
81 115 94
81 115 94
81 115 94
81 115 94
81 115 94
81 115 94
81 115 94
80 115 94
81 115 94
81 115 94
80 115 94
80 115 94
81 115 94
81 115 94
80 115 94
81 115 94
81 115 94
81 115 94
80 115 94
81 115 94
81 115 94
81 115 94
81 115 94
81 115 94
81 115 94
81 115 94
81 115 94
81 115 94
81 114 93
80 115 94
81 115 94
81 115 94
80 114 94
81 115 94
80 115 94
81 115 94
81 115 94
81 115 94
81 115 94
81 115 94
80 115 94
80 115 94
81 115 94
80 115 94
81 115 94
81 115 94
80 115 94
80 115 94
80 114 94
81 115 94
80 115 94
80 115 94
80 115 94
80 115 94
80 114 93
81 115 94
80 115 94
80 115 94
80 114 93
81 115 94
80 114 93
80 115 94
80 115 94
80 114 94
80 115 94
80 115 94
80 115 94
80 115 94
80 115 94
80 115 94
80 114 94
80 115 94
80 115 94
80 115 94
80 115 94
80 114 94
80 114 94
80 115 94
80 115 94
80 114 94
80 114 94
80 114 94
80 114 94
80 115 94
81 115 94
80 115 94
80 114 93
80 114 94
80 114 93
80 114 94
80 114 94
80 115 93
80 114 93
80 114 94
80 114 94
81 115 94
80 114 94
80 114 94
80 114 94
80 115 94
80 114 94
80 114 93
80 114 94
80 114 94
80 114 94
80 114 94
80 114 94
80 114 94
80 114 93
80 114 94
80 114 93
80 114 93
80 114 93
80 114 93
80 114 93
80 114 93
80 114 93
80 114 93
80 114 93
80 114 93
80 114 93
80 114 93
80 114 93
80 114 93
80 114 93
80 114 93
80 114 93
80 114 93
80 114 93
80 114 93
80 114 93
80 114 93
80 114 93
80 114 93
80 114 93
80 114 93
80 114 93
80 114 93
80 114 93
80 114 93
80 114 93
80 114 93
80 114 93
80 114 93
80 114 93
80 114 93
80 114 93
80 114 93
80 114 93
80 114 93
80 114 93
80 114 93
80 114 93
80 114 93
80 114 93
80 114 93
80 114 93
80 114 93
80 114 93
80 114 93
80 114 93
80 114 93
80 114 93
79 114 93
80 114 93
80 114 93
80 114 93
80 114 93
80 114 93
80 114 93
80 114 93
80 114 93
79 114 93
80 114 93
80 114 93
80 114 93
80 114 93
80 114 93
80 114 93
80 114 93
80 114 93
79 114 93
80 114 93
80 114 93
80 114 93
79 113 93
80 114 93
79 114 93
80 114 93
80 114 93
80 114 93
80 114 93
79 113 93
79 114 93
79 113 93
79 113 93
80 114 93
79 113 93
79 113 93
79 113 93
80 114 93
79 113 93
80 114 93
80 114 93
79 113 93
79 113 93
79 113 93
79 113 93
79 113 93
80 113 93
80 113 93
79 113 93
79 113 93
79 113 93
79 113 93
79 113 93
79 113 93
79 113 93
79 113 93
79 113 93
79 113 93
79 113 93
79 113 93
79 113 93
79 113 93
79 113 93
80 113 93
79 113 93
79 113 93
79 113 93
79 113 93
79 113 93
79 113 93
79 113 93
79 113 93
79 113 93
79 113 93
79 113 93
79 113 93
79 113 93
79 113 93
79 113 93
79 113 93
79 113 93
79 113 93
79 113 93
79 113 93
79 113 92
79 113 93
79 113 93
79 113 92
79 113 93
79 113 93
79 113 93
79 113 93
79 113 93
79 113 93
79 113 93
79 113 93
79 113 93
79 113 93
79 113 93
79 113 93
79 113 92
79 113 92
79 113 92
79 113 92
79 113 92
79 113 92
79 113 92
79 113 92
79 113 92
79 112 92
81 116 95
81 116 95
82 116 95
81 116 95
82 116 95
81 116 95
81 116 94
81 116 95
82 116 95
81 116 94
81 116 95
82 116 95
81 116 95
81 115 94
81 116 95
82 116 95
82 116 95
81 116 95
81 116 95
81 116 95
82 116 95
81 116 95
81 116 94
81 116 95
82 116 95
82 116 95
82 116 95
82 116 95
81 116 95
82 116 94
81 116 95
81 116 95
81 116 94
81 116 94
81 116 94
81 116 95
81 116 95
82 116 95
81 116 95
81 116 94
82 116 95
81 116 94
81 116 95
81 116 95
81 116 95
81 116 95
81 116 94
81 116 95
82 116 95
81 116 94
81 116 95
82 116 95
82 116 94
82 116 95
81 116 95
82 116 95
81 116 95
82 116 95
82 116 95
82 116 95
82 116 95
82 116 95
81 116 95
82 116 95
81 116 94
81 116 95
82 116 94
82 116 95
82 116 94
81 116 95
81 116 94
82 116 94
81 116 94
82 116 95
81 116 94
82 116 94
82 116 95
82 116 95
81 116 94
81 116 95
81 116 95
82 116 95
82 116 95
82 116 95
82 116 95
82 116 95
81 116 95
82 116 95
81 116 95
81 116 95
82 116 94
82 116 95
82 116 95
82 116 95
82 116 95
82 116 95
81 116 94
82 116 95
82 116 95
81 116 94
81 116 95
81 116 94
81 116 95
81 116 95
81 116 95
81 116 95
81 116 94
82 116 94
81 116 95
82 116 94
81 116 94
81 116 95
81 116 95
81 116 95
82 116 94
81 116 95
82 116 95
82 116 95
81 116 94
82 116 95
81 116 95
81 116 95
81 116 95
82 116 95
82 116 95
82 116 94
81 116 94
82 116 95
82 116 95
82 116 95
81 116 94
82 116 95
81 116 95
82 116 95
81 116 94
82 116 95
81 116 95
82 116 95
81 116 94
82 116 95
82 116 95
81 116 95
82 116 95
82 116 95
82 116 94
81 116 95
82 116 95
82 116 95
81 116 94
81 116 95
82 116 95
82 116 95
81 116 94
81 116 95
82 116 94
81 116 95
82 116 95
82 116 95
81 116 95
82 116 95
81 116 95
81 116 94
81 115 94
82 116 95
82 116 94
81 116 94
82 116 94
81 116 95
82 116 95
81 116 94
81 116 95
82 116 94
81 115 94
81 116 94
81 116 95
82 116 95
82 116 94
82 116 95
82 116 95
82 116 94
81 116 95
82 116 94
82 116 95
81 116 95
82 116 95
81 116 95
82 116 95
81 116 95
81 116 95
82 116 95
81 116 94
81 116 94
81 116 94
82 116 95
81 116 95
82 116 95
82 116 95
82 116 95
81 115 94
81 116 95
81 116 95
81 116 94
81 116 95
81 116 94
81 116 95
82 116 95
81 116 95
81 116 94
81 116 95
81 116 95
81 116 94
82 116 94
81 115 94
81 116 94
81 116 94
81 116 94
82 116 95
81 116 94
81 116 95
81 115 94
81 116 95
82 116 95
81 116 95
81 116 94
82 116 94
81 116 94
81 116 94
82 116 94
81 116 94
81 115 94
81 116 94
81 116 94
81 116 94
81 116 94
82 116 94
81 116 94
81 116 94
81 116 94
81 116 94
81 116 94
81 115 94
81 116 94
81 116 94
81 115 94
81 116 94
82 116 94
81 116 94
81 116 94
81 116 94
81 115 94
81 116 94
81 116 94
81 116 94
81 116 94
81 116 94
81 116 94
81 116 94
81 116 94
81 116 94
81 116 94
81 116 94
81 116 94
81 116 94
81 116 94
81 116 94
81 115 94
81 116 94
81 115 94
81 115 94
81 116 94
81 116 94
82 116 94
81 115 94
81 116 94
81 115 94
81 116 94
81 116 94
81 115 94
81 116 94
81 116 94
81 115 94
81 115 94
81 116 94
81 115 94
81 116 94
81 115 94
81 115 94
81 115 94
81 115 94
81 115 94
81 115 94
81 115 94
81 116 94
81 115 94
81 115 94
81 115 94
81 115 94
81 115 94
81 115 94
81 116 94
81 115 94
81 115 94
81 115 94
81 115 94
81 115 94
81 115 94
81 115 94
81 115 94
81 115 94
81 116 94
81 115 94
81 115 94
81 116 94
81 115 94
81 115 94
81 115 94
81 115 94
81 115 94
81 115 94
81 115 94
81 115 94
81 115 94
81 115 94
81 115 94
81 115 94
81 115 94
81 115 94
81 115 94
81 115 94
81 115 94
81 115 94
81 115 94
81 115 94
81 115 94
81 115 94
81 115 94
80 115 94
81 115 94
81 115 94
81 115 94
81 115 94
81 115 94
81 115 94
81 115 94
81 115 94
81 115 94
81 115 94
81 115 94
81 115 94
81 115 94
81 115 94
81 115 94
81 115 94
81 115 94
81 115 94
81 115 94
81 115 94
80 115 94
81 115 94
81 115 94
81 115 94
81 115 94
81 115 94
81 115 94
81 115 94
81 115 94
81 115 94
81 115 94
81 115 94
81 115 94
80 115 94
81 115 94
81 115 94
81 115 94
81 115 94
81 115 94
80 115 94
80 115 94
80 115 94
81 115 94
81 115 94
81 115 94
80 115 94
80 114 94
80 115 94
81 115 94
81 115 94
81 115 94
80 115 94
80 115 94
80 115 94
80 115 94
81 115 94
80 115 94
80 115 94
81 115 94
81 115 94
81 115 94
80 115 94
81 115 94
80 115 94
81 115 94
80 114 94
80 114 94
80 115 94
80 114 93
81 115 94
80 114 93
80 114 94
80 115 94
80 115 94
81 115 94
80 115 94
81 115 94
80 114 94
81 115 94
80 114 94
80 114 94
80 114 94
80 115 94
80 114 94
81 115 94
80 115 94
80 115 94
80 114 94
80 115 94
80 114 93
80 115 94
80 114 93
80 114 94
80 114 93
80 115 94
80 115 94
80 114 93
80 114 93
80 114 94
80 115 94
80 114 94
80 114 94
80 114 94
80 114 94
80 114 93
80 114 93
80 114 93
80 114 93
80 114 93
80 114 93
80 114 93
80 114 93
80 114 93
80 114 93
80 114 93
80 114 93
80 114 93
80 114 93
80 114 93
80 114 93
80 114 93
80 114 93
80 114 93
80 114 93
80 114 93
80 114 93
80 114 93
80 114 93
80 114 93
80 114 93
80 114 93
80 114 93
80 114 93
80 114 93
80 114 93
80 114 93
80 114 93
80 114 93
80 114 93
80 113 93
80 114 93
80 114 93
80 114 93
80 114 93
80 114 93
80 114 93
80 114 93
80 114 93
80 114 93
80 114 93
80 114 93
80 114 93
80 114 93
80 114 93
80 114 93
80 114 93
80 114 93
80 114 93
80 114 93
80 114 93
80 114 93
80 114 93
80 114 93
80 114 93
80 114 93
80 114 93
80 114 93
80 114 93
80 114 93
80 114 93
80 114 93
80 114 93
80 114 93
80 113 93
80 113 93
80 114 93
80 114 93
79 113 93
80 114 93
80 114 93
79 114 93
80 114 93
79 114 93
80 114 93
80 114 93
79 113 93
79 113 93
80 114 93
79 113 93
80 114 93
80 114 93
79 113 93
80 114 93
80 113 93
80 114 93
79 113 93
80 114 93
79 113 93
79 113 93
80 114 93
79 113 93
79 113 93
79 113 93
79 113 93
80 113 93
79 113 93
79 113 93
79 113 93
79 113 93
79 113 93
79 113 93
79 113 93
79 113 93
79 113 93
79 113 93
79 113 93
79 113 93
79 113 93
79 113 93
79 113 93
79 113 93
79 113 93
79 113 93
79 113 93
79 113 93
79 113 93
79 113 93
79 113 93
79 113 93
79 113 93
79 113 93
79 113 93
79 113 93
79 113 93
79 113 93
79 113 93
79 113 93
79 113 93
79 113 93
79 113 93
79 113 93
79 113 93
79 113 93
79 113 93
79 113 92
79 113 92
79 113 93
79 113 92
79 113 93
79 113 93
79 113 93
79 113 93
79 113 92
79 113 93
79 113 93
79 113 93
79 113 92
79 113 92
79 113 93
79 113 92
79 113 92
79 113 92
79 113 92
81 116 95
81 116 95
82 116 95
81 116 95
81 116 95
82 116 95
81 116 95
82 116 95
82 116 95
81 116 95
82 116 95
82 116 94
82 116 95
81 116 95
82 116 95
82 116 95
82 116 95
81 116 95
81 116 95
82 116 95
82 116 95
82 116 95
82 116 94
82 116 95
82 116 95
82 116 95
82 116 94
81 116 95
82 116 95
81 116 95
82 116 95
81 116 94
81 116 95
82 116 95
82 116 95
81 116 95
82 116 95
82 116 95
82 116 95
82 116 95
81 116 95
82 116 95
81 116 95
82 116 95
82 116 95
82 116 95
81 116 95
82 116 95
82 116 95
82 116 95
82 116 95
82 116 95
82 116 95
82 116 95
82 116 95
81 116 95
82 116 95
82 116 95
81 116 95
82 116 95
81 116 95
82 116 95
82 116 95
82 116 95
82 116 95
82 116 95
81 116 95
81 116 95
82 116 95
82 116 95
82 116 95
82 116 95
82 116 95
82 116 95
82 116 95
81 116 95
82 116 95
82 116 95
82 116 95
82 116 95
82 116 95
82 116 95
81 116 95
82 116 95
82 116 95
82 116 95
82 116 95
82 116 95
82 116 95
82 116 95
81 116 95
81 116 95
82 116 95
82 116 95
82 116 95
81 116 95
82 116 95
82 116 95
82 116 95
82 116 95
82 116 95
82 116 95
81 116 95
82 116 95
81 116 95
82 116 95
82 116 95
82 116 95
82 116 95
82 116 95
82 116 95
81 116 95
82 116 95
82 116 95
82 116 95
82 116 95
82 116 95
81 116 95
81 116 95
82 116 95
82 116 95
82 116 95
81 116 95
82 116 95
82 116 95
81 116 95
82 116 95
82 116 95
82 116 95
82 116 95
81 116 95
81 116 95
81 116 95
81 116 95
82 116 95
82 116 95
81 116 95
82 116 95
82 116 95
81 116 95
82 116 95
82 116 95
81 116 94
81 116 95
81 116 95
82 116 95
82 116 95
81 116 95
82 116 95
82 116 95
82 116 95
82 116 95
82 116 95
81 116 94
82 116 95
81 116 95
82 116 95
82 116 95
81 116 95
81 116 94
82 116 95
81 116 95
82 116 95
82 116 95
81 116 95
82 116 95
81 116 95
82 116 95
82 116 95
82 116 95
82 116 95
81 116 95
82 116 95
81 116 95
82 116 95
82 116 95
81 116 94
81 116 95
81 116 94
81 116 95
82 116 95
82 116 95
81 116 95
81 116 94
82 116 94
82 116 94
81 116 95
82 116 95
82 116 94
81 116 95
81 116 95
81 116 94
81 116 95
81 116 95
82 116 95
81 116 95
81 116 94
82 116 94
82 116 95
81 116 95
81 116 95
82 116 95
81 116 95
81 116 95
82 116 95
82 116 95
81 116 94
82 116 94
82 116 95
81 116 94
81 116 94
81 116 94
81 116 94
82 116 94
82 116 95
82 116 95
82 116 94
82 116 94
81 116 95
82 116 94
81 116 95
82 116 95
82 116 95
81 116 95
81 116 95
82 116 95
81 116 95
81 116 95
81 116 94
81 116 94
81 116 95
82 116 95
81 116 94
81 116 94
81 116 95
81 116 94
81 116 95
81 116 94
81 116 95
81 116 95
81 116 95
81 116 94
81 116 94
81 116 94
81 116 94
81 116 94
81 116 94
81 116 94
81 116 94
81 116 94
81 116 94
81 116 94
81 116 94
81 116 94
81 116 94
81 116 94
81 115 94
81 116 94
81 115 94
81 116 94
81 115 94
81 115 94
81 115 94
81 115 94
81 116 94
81 115 94
81 115 94
81 115 94
81 116 94
81 115 94
81 116 94
81 116 94
81 116 94
81 116 94
81 116 94
81 115 94
81 115 94
81 116 94
81 115 94
81 116 94
81 115 94
81 115 94
81 116 94
81 116 94
81 116 94
81 115 94
81 116 94
81 115 94
81 115 94
81 115 94
81 115 94
82 116 94
81 115 94
81 115 94
81 116 94
81 115 94
81 116 94
81 115 94
81 116 94
81 115 94
81 116 94
81 116 94
81 116 94
81 115 94
81 116 94
81 115 94
81 115 94
81 115 94
81 115 94
81 115 94
81 116 94
81 115 94
81 115 94
81 115 94
81 115 94
81 115 94
81 115 94
81 115 94
81 115 94
81 116 94
81 115 94
81 115 94
81 115 94
81 115 94
81 115 94
81 115 94
81 115 94
81 115 94
81 115 94
81 115 94
81 115 94
81 115 94
81 115 94
81 115 94
81 115 94
81 115 94
81 115 94
81 115 94
80 115 94
81 115 94
81 115 94
81 115 94
81 115 94
81 115 94
81 115 94
81 115 94
81 115 94
80 115 94
81 115 94
81 115 94
81 115 94
81 115 94
81 115 94
81 115 94
81 115 94
81 115 94
81 115 94
81 115 94
81 115 94
81 115 94
81 115 94
81 115 94
81 115 94
81 115 94
81 115 94
81 115 94
81 115 94
81 115 94
80 115 94
81 115 94
81 115 94
80 115 94
81 115 94
81 115 94
81 115 94
81 115 94
81 115 94
80 115 94
81 115 94
81 115 94
80 115 94
81 115 94
81 115 94
81 115 94
81 115 94
81 115 94
81 115 94
80 115 94
81 115 94
81 115 94
81 115 94
81 115 94
80 115 94
80 114 94
81 115 94
80 115 94
80 115 94
81 115 94
80 114 94
81 115 94
81 115 94
80 115 94
80 115 94
80 115 93
80 115 94
80 115 94
80 114 94
80 114 94
80 114 94
80 114 93
80 115 94
81 115 94
80 115 94
80 114 94
80 114 94
80 114 94
80 114 94
80 114 93
80 114 94
80 115 94
80 115 94
80 115 94
80 115 94
80 115 94
80 114 93
81 115 94
80 115 94
81 115 94
80 114 93
80 114 94
80 115 94
80 114 94
80 114 94
81 115 94
80 115 94
80 114 94
80 114 94
80 114 94
80 114 94
80 115 94
80 114 93
80 114 93
80 114 94
80 114 94
80 114 94
80 114 94
80 114 94
80 114 94
80 114 93
80 114 94
80 114 93
80 114 94
80 114 94
80 114 93
80 114 93
80 114 93
80 114 93
80 114 93
80 114 93
80 114 93
80 114 93
80 114 93
80 114 93
80 114 93
80 114 93
80 114 93
80 114 93
80 114 93
80 114 93
80 114 93
80 114 93
80 114 93
80 114 93
80 114 93
80 114 93
80 114 93
80 114 93
80 114 93
80 114 93
80 114 93
80 114 93
80 114 93
80 114 93
80 114 93
80 114 93
80 114 93
80 114 93
80 114 93
80 114 93
80 114 93
80 114 93
80 114 93
80 114 93
80 114 93
80 114 93
80 114 93
80 114 93
80 114 93
80 114 93
80 114 93
80 114 93
80 114 93
80 114 93
80 114 93
80 114 93
80 114 93
80 114 93
80 114 93
80 114 93
80 114 93
80 114 93
80 114 93
80 114 93
80 114 93
80 114 93
80 114 93
80 114 93
80 114 93
80 114 93
80 114 93
80 114 93
80 114 93
80 114 93
80 114 93
79 114 93
80 114 93
79 113 93
79 113 93
79 113 93
80 114 93
79 113 93
80 114 93
80 114 93
80 114 93
80 114 93
80 114 93
79 113 93
80 114 93
80 113 93
80 113 93
79 113 93
79 113 93
79 113 93
79 113 93
80 114 93
79 113 93
79 113 93
79 113 93
79 113 93
79 113 93
79 113 93
79 113 93
79 113 93
79 113 93
79 113 93
79 113 93
79 113 93
79 113 93
79 113 93
80 113 93
79 113 93
79 113 93
79 113 93
79 113 93
79 113 93
79 113 93
80 113 93
80 113 93
79 113 93
79 113 93
79 113 92
79 113 93
79 113 93
79 113 93
79 113 93
79 113 93
79 113 93
79 113 93
79 113 93
79 113 93
79 113 93
79 113 93
79 113 93
79 113 93
79 113 92
79 113 93
79 113 93
79 113 93
79 113 93
79 113 93
79 113 93
79 113 93
79 113 93
79 113 92
79 113 93
79 113 93
79 113 93
79 113 93
79 113 93
79 113 93
82 116 95
82 116 95
82 116 95
82 116 95
82 116 95
82 116 95
81 116 95
82 116 95
81 116 95
81 116 95
81 116 95
82 116 95
82 116 95
82 116 95
82 116 95
81 116 95
82 116 95
82 116 95
82 116 95
82 116 95
81 116 95
82 116 95
81 116 95
81 116 94
82 116 95
81 116 95
82 116 95
81 116 95
82 116 95
82 116 95
82 116 95
82 116 95
82 116 95
81 116 95
82 116 95
82 116 95
82 116 95
82 116 95
81 116 95
82 116 95
81 116 95
82 116 95
81 116 94
82 116 95
82 116 95
81 116 95
82 116 95
82 116 95
82 116 95
82 116 95
82 116 95
81 116 95
82 116 95
82 116 95
81 116 95
81 116 95
82 116 95
81 116 95
82 116 95
81 116 95
82 116 95
82 116 95
82 116 95
82 116 95
82 116 95
82 116 95
82 116 95
82 116 95
82 116 95
81 116 95
82 116 95
82 116 95
82 116 95
81 116 95
82 116 95
82 116 95
82 116 95
82 116 95
82 116 95
82 116 95
82 116 95
82 116 95
82 116 95
82 116 95
82 116 95
82 116 95
81 116 95
82 116 95
82 116 95
82 116 95
81 116 95
82 116 95
82 116 95
82 116 95
82 116 95
82 116 95
82 116 95
82 116 95
81 116 95
82 116 95
82 116 95
82 116 95
82 116 95
82 116 95
82 116 95
81 115 94
82 116 95
81 116 95
82 116 95
82 116 95
82 116 94
82 116 95
82 116 95
82 116 95
82 116 94
82 116 95
81 116 95
81 116 95
82 116 95
81 116 95
81 116 95
82 116 95
81 116 95
82 116 95
82 116 95
82 116 95
82 116 95
81 116 95
82 116 95
82 116 95
81 116 95
82 116 95
82 116 95
81 116 95
81 116 95
81 116 95
82 116 95
82 116 95
82 116 95
82 116 95
82 116 95
82 116 95
81 116 94
82 116 95
82 116 94
82 116 95
82 116 95
81 116 95
81 116 95
81 116 94
82 116 95
82 116 95
82 116 95
82 116 95
82 116 95
82 116 95
82 116 95
81 116 95
81 116 95
82 116 95
82 116 95
82 116 95
82 116 95
82 116 95
82 116 95
82 116 95
82 116 95
82 116 95
82 116 95
82 116 95
82 116 95
81 116 95
81 116 95
81 115 94
81 116 94
82 116 95
82 116 95
82 116 95
82 116 95
82 116 95
82 116 95
81 116 95
82 116 95
81 115 94
82 116 95
82 116 95
81 116 95
81 116 95
82 116 95
81 116 95
82 116 95
82 116 95
81 116 95
82 116 95
81 116 95
81 116 94
81 116 95
81 116 95
81 116 95
81 116 95
82 116 94
81 116 94
81 116 94
81 116 95
82 116 94
82 116 95
82 116 94
81 116 95
82 116 94
81 116 94
81 116 94
81 116 95
82 116 95
81 116 95
81 116 95
81 116 95
82 116 95
82 116 95
81 116 95
82 116 95
81 116 95
82 116 95
81 116 94
81 115 94
81 116 95
81 116 95
81 116 95
82 116 95
81 115 94
81 116 94
82 116 95
81 116 95
81 116 95
81 116 94
81 116 95
81 116 95
82 116 94
81 116 94
81 116 94
82 116 95
81 116 94
81 116 94
81 115 94
81 116 95
81 116 95
81 116 94
82 116 95
81 116 95
81 116 95
81 116 95
81 116 95
82 116 95
82 116 94
81 116 94
81 115 94
82 116 95
81 116 95
81 116 95
81 116 94
81 116 94
81 116 94
81 116 94
81 116 94
82 116 94
81 116 94
81 116 94
81 116 94
81 116 94
81 116 94
81 116 94
81 116 94
81 116 94
81 115 94
81 116 94
81 116 94
81 116 94
81 115 94
81 115 94
81 116 94
81 116 94
81 115 94
81 115 94
81 116 94
81 116 94
81 116 94
81 116 94
81 115 94
81 116 94
81 116 94
82 116 94
81 116 94
81 115 94
81 116 94
81 116 94
81 115 94
81 116 94
81 116 94
81 116 94
81 116 94
81 116 94
81 115 94
81 116 94
81 116 94
81 115 94
81 116 94
81 115 94
81 116 94
81 116 94
81 115 94
81 116 94
81 115 94
81 115 94
81 115 94
81 115 94
81 116 94
81 115 94
81 116 94
81 115 94
81 115 94
81 116 94
81 115 94
81 115 94
81 115 94
81 115 94
81 115 94
81 115 94
81 116 94
81 115 94
81 115 94
81 115 94
81 116 94
81 115 94
81 115 94
81 115 94
81 115 94
81 115 94
81 115 94
81 115 94
81 115 94
81 115 94
81 115 94
81 115 94
81 116 94
81 115 94
81 115 94
81 115 94
81 115 94
81 115 94
81 115 94
81 115 94
81 115 94
81 115 94
81 115 94
81 115 94
81 115 94
81 115 94
81 115 94
81 115 94
81 115 94
81 115 94
81 115 94
81 115 94
81 115 94
81 115 94
81 115 94
81 115 94
81 115 94
81 115 94
81 115 94
81 115 94
81 115 94
81 115 94
81 115 94
81 115 94
81 115 94
81 115 94
81 115 94
81 115 94
81 115 94
81 115 94
80 115 94
81 115 94
81 115 94
81 115 94
81 115 94
81 115 94
81 115 94
81 115 94
81 115 94
81 115 94
80 115 94
81 115 94
81 115 94
81 115 94
81 115 94
81 115 94
81 115 94
80 115 94
81 115 94
81 115 94
81 115 94
80 115 94
81 115 94
80 115 94
81 115 94
81 115 94
80 115 94
81 115 94
80 115 94
81 115 94
81 115 94
80 115 94
81 115 94
80 115 94
81 115 94
80 115 94
80 114 94
81 115 94
80 115 94
80 115 94
80 114 94
80 115 94
80 115 94
81 115 94
80 114 94
80 114 94
80 114 94
80 115 94
80 114 94
80 114 94
80 114 94
80 114 94
80 114 94
81 115 94
80 114 94
81 115 93
80 114 94
80 114 93
80 114 94
80 114 93
80 114 94
80 114 94
80 115 94
80 115 94
80 114 93
80 114 93
80 114 94
80 114 94
80 114 94
80 114 94
80 114 93
80 114 94
80 114 94
80 114 94
80 114 94
80 114 93
80 114 94
80 114 94
80 114 93
80 114 94
80 114 93
80 114 93
80 114 93
80 114 93
80 114 93
80 114 93
80 114 93
80 114 93
80 114 93
80 114 93
80 114 93
80 114 93
80 114 93
80 114 93
80 114 93
80 114 93
80 114 93
80 114 93
80 114 93
80 114 93
80 114 93
80 114 93
80 114 93
80 114 93
80 114 93
80 114 93
80 114 93
80 114 93
80 114 93
80 114 93
80 114 93
80 114 93
80 114 93
80 114 93
80 114 93
80 114 93
80 114 93
80 114 93
80 114 93
80 114 93
80 114 93
80 114 93
80 114 93
80 114 93
80 114 93
80 114 93
80 114 93
80 114 93
80 114 93
80 114 93
80 114 93
80 114 93
80 114 93
80 114 93
80 114 93
80 114 93
80 114 93
79 113 93
79 113 93
79 113 93
80 114 93
80 114 93
80 114 93
80 114 93
80 114 93
80 114 93
80 113 93
80 114 93
80 114 93
80 114 93
79 113 93
80 114 93
80 114 93
79 113 93
79 113 93
80 114 93
80 114 93
79 113 93
80 114 93
80 114 93
79 113 93
79 113 93
79 113 93
80 113 93
80 114 93
79 113 93
79 113 93
80 114 93
79 113 93
79 113 93
79 113 93
79 113 93
80 114 93
79 113 93
80 113 93
79 113 93
79 113 93
79 113 93
80 113 93
79 113 93
79 113 93
79 113 93
79 113 93
80 113 93
79 113 93
79 113 93
79 113 93
79 113 93
79 113 93
79 113 93
79 113 93
79 113 93
79 113 93
79 113 93
79 113 93
79 113 93
79 113 93
79 113 93
80 113 93
79 113 93
79 113 93
79 113 93
79 113 93
79 113 93
79 113 93
79 113 93
79 113 92
79 113 93
79 113 93
79 113 92
79 113 93
79 113 92
79 113 93
79 113 93
79 113 93
79 113 93
79 113 92
79 113 93
79 113 93
79 113 93
82 116 95
82 116 95
82 116 95
82 116 95
82 116 95
82 116 95
82 116 95
82 116 95
81 116 95
82 116 95
81 116 95
82 116 95
82 116 95
82 116 95
81 116 95
82 116 95
81 116 95
82 116 95
82 116 95
82 116 95
82 116 95
81 116 95
82 116 95
82 116 95
82 116 95
82 116 95
82 116 95
82 116 95
81 116 94
82 116 95
82 116 95
81 116 95
82 116 95
81 116 95
82 116 95
82 116 95
82 116 95
82 116 95
82 116 95
82 116 95
82 116 95
82 116 95
82 116 95
82 116 95
82 116 95
82 116 95
82 116 95
82 116 95
82 116 95
81 116 95
82 116 95
82 116 95
81 116 95
82 116 95
82 116 95
82 116 95
81 116 95
81 116 95
82 116 95
82 116 95
82 116 95
82 116 95
82 116 95
82 116 95
82 116 95
82 116 95
82 116 95
82 116 95
81 116 95
82 116 95
82 116 95
82 116 95
82 116 95
82 116 95
82 116 95
82 116 95
82 116 95
82 116 95
81 116 95
81 116 95
82 116 95
82 116 95
82 116 95
82 116 95
82 116 95
82 116 95
82 116 95
82 116 95
82 116 95
82 116 95
82 116 95
82 116 95
82 116 95
82 116 95
81 116 95
82 116 95
82 116 95
82 116 95
82 116 95
81 116 95
82 116 95
82 116 95
82 116 95
82 116 95
82 116 95
82 116 95
82 116 95
82 116 95
82 116 95
82 116 95
82 116 95
82 116 95
82 116 95
82 116 95
82 116 95
82 116 95
81 116 95
82 116 95
82 116 95
82 116 95
82 116 95
82 116 95
82 116 95
82 116 95
82 116 95
82 116 95
82 116 95
82 116 95
82 116 95
82 116 95
82 116 95
82 116 95
82 116 95
82 116 95
82 116 95
82 116 95
82 116 95
81 116 95
82 116 95
82 116 95
82 116 95
82 116 95
82 116 95
82 116 95
82 116 95
81 116 95
82 116 95
81 116 95
82 116 95
82 116 95
82 116 95
82 116 95
81 116 95
82 116 95
82 116 95
82 116 95
82 116 95
82 116 95
82 116 95
82 116 95
81 116 95
82 116 95
82 116 95
82 116 95
82 116 95
82 116 95
82 116 95
82 116 95
82 116 95
82 116 95
82 116 95
82 116 95
82 116 95
81 116 95
82 116 95
82 116 95
82 116 95
81 116 95
82 116 95
82 116 95
82 116 95
82 116 95
82 116 95
82 116 95
82 116 95
82 116 95
82 116 95
81 116 95
82 116 95
82 116 95
81 116 95
82 116 95
81 116 95
81 116 95
82 116 95
82 116 95
81 116 94
81 115 94
82 116 95
82 116 95
81 116 95
81 116 95
82 116 95
82 116 95
82 116 95
82 116 95
81 116 95
82 116 94
82 116 95
81 116 94
81 116 95
82 116 95
81 116 94
81 116 95
81 116 94
81 116 95
81 116 94
82 116 95
82 116 95
81 116 94
81 116 95
81 116 94
82 116 95
81 116 95
82 116 95
81 116 95
82 116 95
81 116 94
82 116 95
81 116 95
82 116 95
81 116 95
81 116 95
81 116 94
81 116 95
81 116 95
81 116 94
81 116 94
81 116 95
81 116 95
82 116 95
82 116 95
81 116 95
81 116 95
81 116 95
81 116 95
82 116 94
82 116 95
82 116 94
81 116 94
81 116 94
81 116 94
82 116 95
81 116 95
82 116 95
81 116 95
82 116 95
81 116 94
81 116 94
82 116 94
81 116 95
81 116 95
82 116 95
81 116 94
81 116 94
81 116 95
81 116 94
81 116 95
82 116 95
81 116 94
81 116 95
82 116 94
81 116 94
81 115 94
82 116 94
81 116 94
82 116 94
81 116 94
81 116 94
81 116 94
81 116 94
81 116 94
81 116 94
81 115 94
81 116 94
81 116 94
81 116 94
81 116 94
81 116 94
81 115 94
81 116 94
81 116 94
81 116 94
81 116 94
81 116 94
81 116 94
81 116 94
81 115 94
81 115 94
81 116 94
81 116 94
81 115 94
82 116 94
81 116 94
82 116 94
81 116 94
81 116 94
81 116 94
81 116 94
81 116 94
81 115 94
81 116 94
81 115 94
81 116 94
81 116 94
81 115 94
81 115 94
81 115 94
81 116 94
81 115 94
81 115 94
81 115 94
81 116 94
81 115 94
81 115 94
81 115 94
81 115 94
81 115 94
81 115 94
81 115 94
81 115 94
81 116 94
81 115 94
81 116 94
81 115 94
81 115 94
81 115 94
81 115 94
81 115 94
81 115 94
81 115 94
81 115 94
81 115 94
81 115 94
81 115 94
81 115 94
81 115 94
81 115 94
81 115 94
81 115 94
81 115 94
81 115 94
81 115 94
81 115 94
81 115 94
81 115 94
81 115 94
81 115 94
81 115 94
81 115 94
81 115 94
81 115 94
81 115 94
81 115 94
81 115 94
81 115 94
80 115 94
81 115 94
81 115 94
81 115 94
81 115 94
81 115 94
81 115 94
81 115 94
81 115 94
80 115 94
81 115 94
81 115 94
81 115 94
81 115 94
81 115 94
81 115 94
81 115 94
81 115 94
81 115 94
81 115 94
81 115 94
81 115 94
81 115 94
81 115 94
81 115 94
81 115 94
80 115 94
81 115 94
80 115 94
80 115 94
81 115 94
81 115 94
81 115 94
81 115 94
81 115 94
80 115 94
80 114 94
80 114 94
80 115 94
81 115 94
80 115 94
81 115 94
80 115 94
81 115 94
80 115 94
80 115 94
81 115 94
80 115 94
80 115 94
80 114 94
80 115 94
81 115 94
81 115 94
80 114 93
80 114 93
80 115 94
80 114 93
80 115 94
80 115 94
80 114 93
81 115 93
81 115 94
80 115 94
80 114 94
80 115 94
81 115 94
81 115 94
80 115 94
80 114 94
80 115 94
81 115 94
81 115 94
80 114 94
80 114 94
80 114 93
80 114 93
80 114 93
80 114 93
80 114 94
80 114 94
80 115 94
80 114 93
80 114 94
80 114 94
80 114 94
80 114 94
80 114 93
80 114 93
80 114 93
80 114 93
80 114 94
80 114 94
80 114 94
80 114 94
80 114 94
80 114 94
80 114 94
80 114 94
80 114 94
80 114 94
80 114 94
80 114 94
80 114 93
80 114 93
80 114 93
80 114 93
80 114 93
80 114 93
80 114 93
80 114 93
80 114 93
80 114 93
80 114 93
80 114 93
80 114 93
80 114 93
80 114 93
80 114 93
80 114 93
80 114 93
80 114 93
80 114 93
80 114 93
80 114 93
80 114 93
80 114 93
80 114 93
80 114 93
80 114 93
80 114 93
80 114 93
80 114 93
80 114 93
80 114 93
80 114 93
80 114 93
80 114 93
80 114 93
80 114 93
80 114 93
80 114 93
80 114 93
80 114 93
80 114 93
80 114 93
80 114 93
80 114 93
80 114 93
80 114 93
80 114 93
80 114 93
80 114 93
80 114 93
80 114 93
80 114 93
80 113 93
80 114 93
80 114 93
80 114 93
80 114 93
79 113 93
80 114 93
80 114 93
79 113 93
79 113 93
80 114 93
80 114 93
80 113 93
80 114 93
79 113 93
80 114 93
80 114 93
80 114 93
79 113 93
79 113 93
79 114 93
80 114 93
80 114 93
79 113 93
80 114 93
79 113 93
79 113 93
80 113 93
79 113 93
79 113 93
79 113 93
80 114 93
79 113 93
80 114 93
79 113 93
80 114 93
80 114 93
79 113 93
80 114 93
79 113 93
79 113 93
79 113 93
80 113 93
79 113 93
80 114 93
79 113 93
79 113 93
79 113 93
79 113 93
79 113 93
79 113 93
80 113 93
79 113 93
79 113 93
79 113 93
79 113 93
79 113 93
79 113 93
79 113 93
79 113 93
79 113 93
79 113 93
79 113 93
79 113 93
79 113 93
79 113 93
79 113 93
79 113 93
79 113 93
79 113 93
79 113 93
79 113 93
79 113 93
79 113 93
79 113 93
79 113 93
79 113 93
79 113 92
79 113 93
82 116 95
82 116 95
82 116 95
81 116 95
82 116 95
82 116 95
82 116 95
82 116 95
82 116 95
82 116 95
82 116 95
82 116 95
82 116 95
82 116 95
82 116 95
82 116 95
82 116 95
82 116 95
82 116 95
82 116 95
82 116 95
82 116 95
82 116 95
82 117 95
82 116 95
82 116 95
82 116 95
82 116 95
82 116 95
82 116 95
82 116 95
82 116 95
82 116 95
82 116 95
82 116 95
81 116 95
82 116 95
82 116 95
82 116 95
82 116 95
82 116 95
82 116 95
82 116 95
82 116 95
82 116 95
82 116 95
82 116 95
82 116 95
82 116 95
82 116 95
82 116 95
82 116 95
82 116 95
82 116 95
82 116 95
82 116 95
82 116 95
82 116 95
82 116 95
82 116 95
82 116 95
82 116 95
82 116 95
82 116 95
82 116 95
82 117 95
82 116 95
82 116 95
82 116 95
82 116 95
82 117 95
82 116 95
82 116 95
82 116 95
82 116 95
81 116 95
82 116 95
82 116 95
82 116 95
82 116 95
82 116 95
81 116 95
82 116 95
82 116 95
82 116 95
81 116 95
82 116 95
82 116 95
82 116 95
82 116 95
82 116 95
82 116 95
82 116 95
82 116 95
82 116 95
82 116 95
82 116 95
82 116 95
82 116 95
82 116 95
82 117 95
82 116 95
82 116 95
82 116 95
82 116 95
82 116 95
82 116 95
82 116 95
82 116 95
82 117 95
82 116 95
82 116 95
82 116 95
82 116 95
82 116 95
82 116 95
81 116 95
82 116 95
82 116 95
82 116 95
82 116 95
82 116 95
82 116 95
82 116 95
82 116 95
82 116 95
82 116 95
82 116 95
82 116 95
82 117 95
82 116 95
82 116 95
82 116 95
81 116 95
82 116 95
82 116 95
82 116 95
82 116 95
82 116 95
82 116 95
82 116 95
82 116 95
82 116 95
82 116 95
82 116 95
82 116 95
82 116 95
82 116 95
82 116 95
82 116 95
82 116 95
82 116 95
82 116 95
82 116 95
81 116 95
82 116 95
82 116 95
82 116 95
82 116 95
82 116 95
82 116 95
82 116 95
81 116 95
82 116 95
82 116 95
82 116 95
82 116 95
82 116 95
82 116 95
81 116 95
81 116 95
81 116 95
82 116 94
82 116 95
82 116 95
82 116 95
82 116 95
82 116 95
82 116 95
82 116 95
82 116 95
82 116 95
82 116 95
82 116 95
82 116 95
82 116 95
82 116 95
81 116 95
82 116 95
81 116 95
82 116 95
82 116 95
82 116 95
82 116 95
82 116 95
81 116 95
82 116 95
82 116 95
81 116 95
82 116 95
82 116 95
82 116 95
82 116 95
82 116 95
81 116 95
82 116 95
81 116 95
81 116 95
81 116 95
82 116 95
82 116 95
82 116 95
82 116 95
82 116 95
82 116 95
82 116 95
82 116 95
81 116 95
82 116 94
81 116 94
82 116 95
82 116 95
82 116 95
82 116 95
82 116 95
82 116 95
82 116 95
82 116 95
81 116 94
82 116 95
81 116 95
82 116 95
82 116 95
81 116 95
82 116 95
81 116 95
81 116 95
81 116 95
81 116 95
82 116 94
82 116 95
81 116 95
81 115 94
82 116 95
81 116 94
82 116 94
82 116 95
81 116 95
82 116 95
81 116 95
81 116 94
81 116 95
82 116 95
81 116 95
81 116 95
82 116 95
82 116 94
81 116 94
82 116 94
81 116 95
82 116 95
81 116 94
81 116 95
81 116 95
82 116 95
82 116 95
81 116 95
81 116 94
81 116 95
81 116 95
81 116 94
81 115 94
82 116 95
81 116 94
81 116 94
81 116 94
81 116 95
81 116 94
81 116 94
81 116 94
81 116 94
81 116 95
81 116 95
81 116 94
81 116 95
81 116 94
81 116 94
82 116 94
81 116 94
81 116 94
81 116 94
81 116 94
81 116 94
81 116 94
81 115 94
81 116 94
81 116 94
81 116 94
81 116 94
81 116 94
81 116 94
81 115 94
81 116 94
81 116 94
81 116 94
81 116 94
81 115 94
81 115 94
81 115 94
81 116 94
81 115 94
81 116 94
81 115 94
81 116 94
81 116 94
81 116 94
81 116 94
81 115 94
81 115 94
81 116 94
81 115 94
81 116 94
81 116 94
81 115 94
81 115 94
81 115 94
81 115 94
81 115 94
81 115 94
81 115 94
81 115 94
82 116 94
81 115 94
81 115 94
81 115 94
81 115 94
81 115 94
81 115 94
81 115 94
81 116 94
81 115 94
81 115 94
81 115 94
81 115 94
81 116 94
81 115 94
81 115 94
81 115 94
81 115 94
81 115 94
81 115 94
81 115 94
81 115 94
81 115 94
81 115 94
81 115 94
81 115 94
81 115 94
81 115 94
81 115 94
81 115 94
81 116 94
81 115 94
81 115 94
81 115 94
81 115 94
81 115 94
81 115 94
81 115 94
81 115 94
81 115 94
81 115 94
81 115 94
81 115 94
81 115 94
81 115 94
81 115 94
81 115 94
81 115 94
81 115 94
81 115 94
81 115 94
81 115 94
81 115 94
81 115 94
81 115 94
81 115 94
81 115 94
81 115 94
81 115 94
81 115 94
81 115 94
81 115 94
81 115 94
81 115 94
81 115 94
81 115 94
81 115 94
81 115 94
81 115 94
80 115 94
81 115 94
81 115 94
80 115 94
80 115 94
81 115 94
81 115 94
81 115 94
80 115 94
81 115 94
81 115 94
80 115 94
81 115 94
80 115 94
81 115 94
81 115 94
81 115 94
80 114 93
80 115 94
80 115 94
81 115 94
80 114 93
80 114 94
81 115 94
80 115 94
80 114 94
81 115 94
81 115 94
80 115 94
80 115 94
81 115 94
81 115 94
80 114 94
80 115 94
80 114 93
81 115 94
80 114 93
80 115 94
81 115 94
80 114 94
80 114 94
80 115 94
80 114 94
80 114 93
80 115 94
80 114 94
80 114 94
80 115 94
80 115 94
80 114 94
80 114 94
80 115 94
80 114 94
80 114 93
81 115 94
80 115 94
80 115 94
80 114 94
80 114 93
80 114 94
80 114 93
80 114 94
80 114 94
80 114 94
80 114 94
80 114 94
80 114 93
80 114 93
80 114 94
80 114 94
80 114 94
80 114 93
80 114 93
80 114 93
80 114 93
80 114 93
80 114 93
80 114 93
80 114 93
80 114 93
80 114 93
80 114 93
80 114 93
80 114 93
80 114 93
80 114 93
80 114 93
80 114 93
80 114 93
80 114 93
80 114 93
80 114 93
80 114 93
80 114 93
80 114 93
80 114 93
80 114 93
80 114 93
80 114 93
80 114 93
80 114 93
80 114 93
80 114 93
80 114 93
80 114 93
80 114 93
80 114 93
80 114 93
80 114 93
80 114 93
80 114 93
80 114 93
80 114 93
80 114 93
80 114 93
80 114 93
80 114 93
80 114 93
80 114 93
80 114 93
80 114 93
80 114 93
80 114 93
80 114 93
80 114 93
80 114 93
79 114 93
80 114 93
80 114 93
80 114 93
80 114 93
80 114 93
80 114 93
80 114 93
80 114 93
80 114 93
80 114 93
80 114 93
79 114 93
80 114 93
80 114 93
80 114 93
80 114 93
80 114 93
79 114 93
80 114 93
79 114 93
80 114 93
79 113 93
80 114 93
79 113 93
79 113 93
79 113 93
80 114 93
79 113 93
79 113 93
80 114 93
80 113 93
79 113 93
79 113 93
79 113 93
79 113 93
80 114 93
80 114 93
79 113 93
79 113 93
79 113 93
79 113 93
79 113 93
79 113 93
79 113 93
80 114 93
79 113 93
80 113 93
79 113 93
79 113 93
79 113 93
79 113 93
79 113 93
79 113 93
79 113 93
79 113 93
79 113 93
79 113 93
79 113 93
79 113 93
79 113 93
79 113 93
79 113 93
79 113 93
79 113 93
79 113 93
79 113 93
79 113 93
80 113 93
79 113 93
79 113 93
79 113 93
79 113 92
79 113 93
82 116 95
82 116 95
81 116 95
82 116 95
82 116 95
82 116 95
81 116 95
82 116 95
82 116 95
82 116 95
82 116 95
82 116 95
82 116 95
82 116 95
82 116 95
82 116 95
82 116 95
82 116 95
82 116 95
82 116 95
82 116 95
82 116 95
82 116 95
82 116 95
82 116 95
82 116 95
82 116 95
82 116 95
82 116 95
82 116 95
82 116 95
82 116 95
82 116 95
82 116 95
82 116 95
82 116 95
82 116 95
81 116 95
82 116 95
82 116 95
82 116 95
82 116 95
82 116 95
82 116 95
82 116 95
82 117 95
82 116 95
82 116 95
82 116 95
82 116 95
82 116 95
82 116 95
82 116 95
82 116 95
82 116 95
82 116 95
82 116 95
82 116 95
82 116 95
82 116 95
82 116 95
82 116 95
82 116 95
82 116 95
82 116 95
82 116 95
82 116 95
82 116 95
82 116 95
82 116 95
82 116 95
82 116 95
82 116 95
82 116 95
82 117 95
82 116 95
82 116 95
82 116 95
82 116 95
82 116 95
82 116 95
82 116 95
82 116 95
82 116 95
82 116 95
82 116 95
82 116 95
82 117 95
82 116 95
82 116 95
82 116 95
82 116 95
82 117 95
82 116 95
82 116 95
82 116 95
82 117 95
82 116 95
82 116 95
82 116 95
82 116 95
82 116 95
82 116 95
82 116 95
82 117 95
82 116 95
82 116 95
82 116 95
82 116 95
82 116 95
82 116 95
82 117 95
82 116 95
82 116 95
82 116 95
82 116 95
82 117 95
82 116 95
82 116 95
82 116 95
82 116 95
82 116 95
82 116 94
82 117 95
81 116 95
82 116 95
82 116 95
82 116 95
82 117 95
82 116 95
82 116 95
82 116 95
82 116 95
82 117 95
82 116 95
82 116 95
82 117 95
81 116 95
82 116 95
82 116 95
82 116 95
82 116 95
82 116 95
82 116 95
82 116 95
82 116 95
82 116 95
82 116 95
82 116 95
82 116 95
82 116 95
82 116 95
82 116 95
82 116 95
82 116 95
82 116 95
82 116 95
82 116 95
82 116 95
82 116 95
82 116 95
82 116 95
82 116 95
82 117 95
82 116 95
82 117 95
82 116 95
81 116 95
82 116 95
82 116 95
82 116 94
82 116 95
82 116 95
82 116 95
82 116 95
82 116 95
82 116 95
82 116 95
82 116 95
82 116 95
82 116 95
81 116 95
82 116 95
82 116 95
82 116 95
82 116 95
82 116 95
82 116 95
82 116 95
82 116 95
82 116 95
82 117 95
82 116 95
81 116 95
82 116 95
82 116 95
82 116 95
82 116 95
82 116 95
82 116 95
82 116 95
82 116 95
82 116 95
82 116 95
81 116 95
82 116 94
81 116 95
81 116 95
82 116 95
82 116 95
82 116 95
82 116 94
82 116 95
82 116 95
82 116 95
81 116 95
82 116 95
82 116 94
82 116 95
82 116 95
82 116 95
81 116 95
82 116 95
81 116 95
82 116 95
82 116 95
82 116 95
82 116 95
82 116 95
82 116 95
82 116 95
82 116 95
81 116 95
82 116 95
81 116 95
82 116 94
81 116 95
82 116 95
82 116 95
81 116 95
81 116 95
82 116 95
82 116 95
82 116 95
81 116 94
81 116 95
81 116 94
82 116 95
81 116 95
81 116 95
81 116 95
81 116 95
82 116 95
82 116 95
81 116 95
81 116 94
82 116 95
81 116 94
81 115 94
82 116 95
81 116 95
82 116 95
81 116 95
81 116 94
81 116 95
82 116 94
81 116 95
81 116 95
82 116 95
82 116 95
82 116 95
82 116 94
81 116 94
82 116 94
81 116 95
81 116 94
81 116 94
81 116 95
81 116 94
81 115 94
81 116 94
81 116 95
81 116 95
81 116 94
82 116 95
81 116 95
81 116 95
82 116 95
81 116 94
82 116 95
81 116 94
81 116 95
81 116 94
82 116 95
82 116 94
81 116 95
81 116 94
81 116 94
81 116 95
81 116 94
81 116 94
81 116 94
82 116 94
81 116 94
81 116 94
81 116 94
81 116 94
81 116 94
82 116 94
81 115 94
81 116 94
81 116 94
81 116 94
81 116 94
81 115 94
81 116 94
81 116 94
81 116 94
81 116 94
81 116 94
81 116 94
81 116 94
81 115 94
81 115 94
81 115 94
81 116 94
81 115 94
81 116 94
81 115 94
81 115 94
81 116 94
81 116 94
81 115 94
81 115 94
81 115 94
81 115 94
81 115 94
81 116 94
81 115 94
81 116 94
81 115 94
81 115 94
81 116 94
81 115 94
81 115 94
81 115 94
81 116 94
81 115 94
81 116 94
81 115 94
81 115 94
81 115 94
81 115 94
81 115 94
81 116 94
81 115 94
81 115 94
81 115 94
81 115 94
81 115 94
81 115 94
81 115 94
81 115 94
81 115 94
81 115 94
80 115 94
81 115 94
81 115 94
81 115 94
81 115 94
81 115 94
81 115 94
80 115 94
81 115 94
81 115 94
81 115 94
81 115 94
81 115 94
81 115 94
81 115 94
81 115 94
81 115 94
81 115 94
81 115 94
81 115 94
81 115 94
81 115 94
81 115 94
81 115 94
80 115 94
81 115 94
81 115 94
80 115 94
81 115 94
80 115 94
81 115 94
81 115 94
81 115 94
81 115 94
80 115 94
80 115 94
81 115 94
81 115 94
81 115 94
81 115 94
81 115 94
80 115 94
81 115 94
81 115 94
81 115 94
81 115 94
81 115 94
81 115 94
80 115 94
80 114 94
81 115 94
80 115 94
81 115 94
80 115 94
81 115 94
80 115 94
81 115 94
81 115 94
81 115 94
80 115 94
81 115 94
81 115 94
81 115 94
81 115 94
80 115 94
80 114 94
81 115 94
80 115 94
80 115 94
81 115 94
80 114 94
81 115 94
81 115 94
80 115 94
80 114 93
81 115 94
80 115 94
81 115 94
81 115 94
81 115 94
80 114 94
80 115 94
80 114 94
80 114 94
80 114 94
80 115 94
80 114 94
81 115 94
80 114 94
80 114 93
80 115 94
80 114 94
80 114 93
80 115 94
80 114 94
80 114 93
80 114 93
80 115 94
80 114 94
80 115 94
80 114 93
80 114 94
80 114 94
80 114 94
80 114 93
80 114 93
80 115 94
80 115 94
80 114 94
80 114 94
80 114 94
80 114 94
80 114 94
80 115 94
80 114 94
80 114 93
80 114 93
80 114 93
80 114 93
80 114 93
80 114 93
80 114 93
80 114 93
80 114 93
80 114 93
80 114 93
80 114 93
80 114 93
80 114 93
80 114 93
80 114 93
80 114 93
80 114 93
80 114 93
80 114 93
80 114 93
80 114 93
80 114 93
80 114 93
80 114 93
80 114 93
80 114 93
80 114 93
80 114 93
80 114 93
80 114 93
80 114 93
80 114 93
80 114 93
80 114 93
80 114 93
80 114 93
80 114 93
80 114 93
80 114 93
80 114 93
80 114 93
80 114 93
80 114 93
80 114 93
80 114 93
80 114 93
80 114 93
80 114 93
80 114 93
80 114 93
80 114 93
80 114 93
80 114 93
79 114 93
80 114 93
80 114 93
80 114 93
80 114 93
80 114 93
80 114 93
80 114 93
80 114 93
80 114 93
80 114 93
80 114 93
80 114 93
79 114 93
80 114 93
80 114 93
80 114 93
80 114 93
80 113 93
79 114 93
80 114 93
80 114 93
80 114 93
80 114 93
79 113 93
80 114 93
80 114 93
80 114 93
79 113 93
79 113 93
79 113 93
80 113 93
79 113 93
79 113 93
79 113 93
79 113 93
79 113 93
79 113 93
80 114 93
79 113 93
79 113 93
79 113 93
79 113 93
80 113 93
80 113 93
79 113 93
79 113 93
79 113 93
79 113 93
79 113 93
79 113 93
79 113 93
79 113 93
79 113 93
79 113 93
79 113 93
79 113 93
79 113 93
79 113 93
79 113 93
79 113 93
79 113 93
79 113 93
79 113 93
79 113 93
79 113 93
82 116 95
82 116 95
82 116 95
82 116 95
82 117 95
82 116 95
82 116 95
82 116 95
82 116 95
82 116 95
81 116 95
82 116 95
82 116 95
82 116 95
82 117 95
82 116 95
82 116 95
82 116 95
82 116 95
82 116 95
82 116 95
82 116 95
82 116 95
82 116 95
82 116 95
82 117 95
82 116 95
82 116 95
82 116 95
82 116 95
82 117 95
82 116 95
82 116 95
81 116 95
82 116 95
82 116 95
82 116 95
82 116 95
82 116 95
82 116 95
82 117 95
82 117 95
82 116 95
82 117 95
82 117 95
82 116 95
82 116 95
82 116 95
82 116 95
82 117 95
82 116 95
82 116 95
82 116 95
82 116 95
82 116 95
82 116 95
82 117 95
82 116 95
82 116 95
82 116 95
82 116 95
82 116 95
82 117 95
82 117 95
81 116 95
82 117 95
82 116 95
82 117 95
82 117 95
82 117 95
82 117 95
82 116 95
82 116 95
82 116 95
82 116 95
82 116 95
82 116 95
82 117 95
82 117 95
82 116 95
82 117 95
82 116 95
82 117 95
82 116 95
82 116 95
82 117 95
82 116 95
82 117 95
82 116 95
82 116 95
82 116 95
82 116 95
82 116 95
82 116 95
82 117 95
82 116 95
82 116 95
82 116 95
82 117 95
82 117 95
82 116 95
82 116 95
82 116 95
82 117 95
82 117 95
82 116 95
82 116 95
82 116 95
82 117 95
82 116 95
82 116 95
82 116 95
82 116 95
82 116 95
82 116 95
82 117 95
82 116 95
82 116 95
82 116 95
82 116 95
82 116 95
82 117 95
82 116 95
82 116 95
82 116 95
82 116 95
81 116 95
82 116 95
82 116 95
82 116 95
82 116 95
82 116 95
82 117 95
82 117 95
82 116 95
82 116 95
82 116 95
82 116 95
82 117 95
82 117 95
82 116 95
82 117 95
82 116 95
82 117 95
82 116 95
82 116 95
82 116 95
82 116 95
82 117 95
82 116 95
82 116 95
81 116 95
82 117 95
82 116 95
82 116 95
82 116 95
82 116 95
82 116 95
82 116 95
82 116 95
82 116 95
82 116 95
82 116 95
82 116 95
82 117 95
82 116 95
82 116 95
82 116 95
82 116 95
82 116 95
82 116 94
82 116 95
82 116 95
82 116 95
82 116 95
81 116 95
82 116 95
82 116 95
82 116 95
82 116 95
82 116 95
81 116 95
82 116 95
82 116 95
82 116 95
82 117 95
81 116 95
82 116 95
82 116 95
82 116 95
82 116 95
82 116 95
82 116 95
82 116 95
82 116 95
82 116 95
82 116 95
82 116 95
82 116 95
82 116 95
82 116 95
82 116 95
82 116 95
82 116 95
82 116 95
82 116 95
82 116 95
82 116 95
82 116 95
82 116 95
82 116 95
82 116 95
82 116 95
82 116 95
82 116 95
82 116 95
82 116 94
82 116 95
82 116 95
82 116 95
82 116 95
82 116 95
82 116 95
82 116 95
81 116 95
82 116 95
82 116 95
82 116 95
82 116 95
82 116 95
82 116 95
82 116 95
82 116 95
82 116 95
82 116 95
82 116 95
81 116 94
82 116 95
82 116 95
82 116 95
82 116 94
81 116 95
81 116 95
82 116 95
81 116 95
81 116 95
81 116 95
81 116 95
82 116 95
81 116 94
82 116 95
81 116 95
81 116 95
81 116 95
81 116 95
81 116 95
82 116 95
81 116 95
82 116 95
82 116 95
81 116 95
82 116 95
81 116 95
82 116 95
82 116 95
81 116 95
81 116 95
81 116 95
81 116 95
82 116 95
82 116 95
81 116 95
81 116 95
82 116 95
82 116 95
82 116 95
81 116 94
82 116 95
81 116 94
81 116 95
81 116 95
82 116 95
81 116 95
82 116 95
81 116 94
81 116 95
81 116 95
82 116 95
81 116 94
81 116 95
81 116 94
82 116 94
81 116 95
82 116 95
81 116 94
81 116 94
81 116 94
82 116 94
81 116 95
82 116 95
81 116 95
81 116 95
81 116 95
81 116 94
81 116 95
81 116 94
81 116 94
82 116 95
81 116 95
81 116 95
81 116 94
81 116 94
81 115 94
81 115 94
81 116 94
81 116 94
81 116 94
81 116 94
81 116 94
81 115 94
81 116 94
81 115 94
81 116 94
82 116 94
81 115 94
81 116 94
81 116 94
81 116 94
81 116 94
82 116 94
81 116 94
81 115 94
81 115 94
81 116 94
81 116 94
81 115 94
81 115 94
81 116 94
81 115 94
81 116 94
81 116 94
81 115 94
81 115 94
81 115 94
81 116 94
81 115 94
81 115 94
81 115 94
81 115 94
81 115 94
81 116 94
81 115 94
81 115 94
81 115 94
81 115 94
81 115 94
81 116 94
81 116 94
81 115 94
81 116 94
81 115 94
81 115 94
81 115 94
81 116 94
81 115 94
81 115 94
81 115 94
81 115 94
81 115 94
81 115 94
81 115 94
81 115 94
81 115 94
81 115 94
81 115 94
81 115 94
81 115 94
81 115 94
81 115 94
81 115 94
81 115 94
81 115 94
81 115 94
81 115 94
81 115 94
81 116 94
81 115 94
81 115 94
81 115 94
81 115 94
81 115 94
81 115 94
81 115 94
80 115 94
81 115 94
81 115 94
81 115 94
81 115 94
81 115 94
81 115 94
81 115 94
80 114 94
81 115 94
81 115 94
81 115 94
81 115 94
81 115 94
81 115 94
81 115 94
81 115 94
81 115 94
81 115 94
81 115 94
81 115 94
81 115 94
80 115 94
81 115 94
81 115 94
80 115 94
81 115 94
80 115 94
81 115 94
81 115 94
81 115 94
81 115 94
80 115 94
81 115 93
81 115 94
81 115 94
80 115 94
81 115 94
81 115 94
81 115 94
80 115 94
81 115 94
80 114 94
80 114 94
81 115 94
80 115 94
81 115 94
80 115 94
80 115 94
80 115 94
81 115 94
81 115 94
80 114 94
80 114 94
80 114 93
81 115 94
80 114 94
80 115 94
80 115 94
81 115 94
81 115 94
80 115 94
80 114 94
80 115 94
80 115 94
81 115 94
81 115 94
81 115 94
80 114 94
80 115 94
80 114 94
80 114 93
80 114 94
80 114 93
80 115 93
80 114 94
81 115 94
80 114 94
80 114 94
80 114 94
80 114 94
80 114 93
80 114 94
80 114 93
80 114 94
80 114 93
80 114 94
80 114 94
80 115 94
80 114 94
80 114 94
80 114 94
80 114 93
80 114 94
80 114 93
80 114 93
80 114 93
80 114 93
80 114 93
80 114 93
80 114 93
80 114 93
80 114 93
80 114 93
80 114 93
80 114 93
80 114 93
80 114 93
80 114 93
80 114 93
80 114 93
80 114 93
80 114 93
80 114 93
80 114 93
80 114 93
80 114 93
80 114 93
80 114 93
80 114 93
80 114 93
80 114 93
80 114 93
80 114 93
80 114 93
80 114 93
80 114 93
80 114 93
80 114 93
80 114 93
80 114 93
80 114 93
80 114 93
80 114 93
80 114 93
80 114 93
80 114 93
80 114 93
80 114 93
80 114 93
80 114 93
80 114 93
80 114 93
80 114 93
79 113 93
80 114 93
80 114 93
80 114 93
80 114 93
79 114 93
80 113 93
80 114 93
79 113 93
80 114 93
79 113 93
80 114 93
80 114 93
79 113 93
80 114 93
79 113 93
80 114 93
80 114 93
80 114 93
79 113 93
79 113 93
79 113 93
79 114 93
80 114 93
80 114 93
80 114 93
79 113 93
79 113 93
79 113 93
79 113 93
79 113 93
79 113 93
79 113 93
79 113 93
79 113 93
79 113 93
79 113 93
80 114 93
79 113 93
79 113 93
79 113 93
79 113 93
79 113 93
80 114 93
79 113 93
79 113 93
79 113 93
79 113 93
79 113 93
79 113 93
79 113 93
79 113 93
79 113 93
79 113 93
79 113 93
79 113 93
79 113 93
79 113 93
79 113 93
79 113 93
79 113 93
79 113 93
79 113 93
82 116 95
82 116 95
82 116 95
82 117 95
82 116 95
82 116 95
82 116 95
82 116 95
82 116 95
82 116 95
82 116 95
82 116 95
82 116 95
82 116 95
82 116 95
82 116 95
82 116 95
82 116 95
82 116 95
82 116 95
82 116 95
82 116 95
82 116 95
82 117 95
82 116 95
82 116 95
82 116 95
82 116 95
82 117 95
82 116 95
82 117 95
82 116 95
82 117 95
82 116 95
82 117 95
82 116 95
82 117 95
82 116 95
82 116 95
82 116 95
82 116 95
82 116 95
82 116 95
82 116 95
82 116 95
82 117 95
82 117 95
82 117 95
82 117 95
82 117 95
82 116 95
82 117 95
82 116 95
82 117 95
82 117 95
82 116 95
82 116 95
82 116 95
82 116 95
82 117 95
82 116 95
82 117 95
82 117 95
82 116 95
82 116 95
82 117 95
82 117 95
82 117 95
82 117 95
82 117 95
82 116 95
82 117 95
82 116 95
82 116 95
82 117 95
82 116 95
82 116 95
82 116 95
82 117 95
82 116 95
82 117 95
82 116 95
82 117 95
82 116 95
82 117 95
82 117 95
82 117 95
82 117 95
82 116 95
82 117 95
82 116 95
82 116 95
82 117 95
82 116 95
82 117 95
82 116 95
82 116 95
82 116 95
82 117 95
82 116 95
82 117 95
82 117 95
82 116 95
82 116 95
82 116 95
82 116 95
82 116 95
82 116 95
82 117 95
82 117 95
82 116 95
82 116 95
82 116 95
82 116 95
82 116 95
82 116 95
82 117 95
82 116 95
82 117 95
82 117 95
82 116 95
82 117 95
82 116 95
82 116 95
82 116 95
81 116 95
82 116 95
82 116 95
82 116 95
82 116 95
82 116 95
82 117 95
82 117 95
82 117 95
82 116 95
82 117 95
82 116 95
82 117 95
82 117 95
82 117 95
82 117 95
82 116 95
82 117 95
82 116 95
82 116 95
82 116 95
82 117 95
82 116 95
82 116 95
82 117 95
82 116 95
82 116 95
82 117 95
82 116 95
82 117 95
82 117 95
82 116 95
82 116 95
82 116 95
82 116 95
82 116 95
82 117 95
82 117 95
82 116 95
82 116 95
82 116 95
82 116 95
82 117 95
82 116 95
82 116 95
82 116 95
82 117 95
82 116 95
82 117 95
82 116 95
82 116 95
82 117 95
82 117 95
82 117 95
82 116 95
82 117 95
82 116 95
82 116 95
82 117 95
82 116 95
82 116 95
82 117 95
82 116 95
82 116 95
82 116 95
82 116 95
82 116 95
82 116 95
82 116 95
82 116 95
82 116 95
82 116 95
82 116 95
82 117 95
82 116 95
82 116 95
82 116 95
82 116 95
82 116 95
82 116 95
82 116 95
82 116 95
82 116 95
81 116 95
82 116 95
82 116 95
82 116 95
82 116 95
82 116 95
82 116 95
81 116 95
82 116 95
81 116 95
82 116 95
82 116 95
82 116 95
81 116 95
82 116 95
82 116 95
81 116 95
82 116 95
82 116 95
81 116 95
82 116 95
82 116 95
82 116 95
82 116 95
82 116 95
81 116 95
82 116 95
82 116 95
82 116 95
82 116 95
82 116 95
81 116 95
81 116 95
82 116 94
82 116 95
81 116 95
81 116 95
82 116 95
82 116 95
81 116 95
81 116 95
81 116 95
81 116 95
82 116 95
81 116 95
82 116 95
81 116 95
82 116 95
82 116 95
81 116 95
82 116 95
82 116 95
82 116 95
82 116 95
82 116 95
82 116 95
82 116 95
81 116 95
82 116 95
82 116 95
82 116 95
82 116 95
82 116 95
81 116 95
81 116 94
82 116 95
82 116 95
81 116 94
81 116 94
82 116 95
81 116 95
81 116 95
82 116 95
81 116 95
82 116 95
81 116 94
81 116 95
81 116 95
82 116 94
82 116 95
81 116 94
81 116 95
81 116 94
82 116 94
81 116 95
81 116 94
82 116 95
82 116 95
82 116 95
81 116 94
81 116 94
81 115 94
81 116 95
81 116 95
81 116 94
81 116 95
82 116 94
81 116 95
81 116 95
82 116 95
81 115 94
81 115 94
81 116 94
81 116 95
81 115 94
81 116 94
81 115 94
81 116 95
81 116 94
81 116 95
81 116 94
81 116 95
82 116 95
81 116 94
82 116 94
81 116 94
81 116 94
81 116 94
81 116 94
81 116 94
81 116 94
81 116 94
81 116 94
81 116 94
81 115 94
81 116 94
81 116 94
81 115 94
81 116 94
81 116 94
81 115 94
81 115 94
81 115 94
81 116 94
81 116 94
81 115 94
81 115 94
81 115 94
81 116 94
81 116 94
81 115 94
81 116 94
81 116 94
81 116 94
81 115 94
81 116 94
81 115 94
81 116 94
81 115 94
81 115 94
81 116 94
81 115 94
81 116 94
81 116 94
81 115 94
81 115 94
81 115 94
81 116 94
81 115 94
81 115 94
81 115 94
81 115 94
81 115 94
81 115 94
81 115 94
81 116 94
81 115 94
81 115 94
81 115 94
81 115 94
81 115 94
81 115 94
81 115 94
81 115 94
81 115 94
81 115 94
81 115 94
81 115 94
81 115 94
81 115 94
81 115 94
81 115 94
81 115 94
81 115 94
81 115 94
81 115 94
81 115 94
81 115 94
81 115 94
81 115 94
80 115 94
81 115 94
81 115 94
81 115 94
81 115 94
81 115 94
81 115 94
81 115 94
81 115 94
81 115 94
81 115 94
81 115 94
80 115 94
81 115 94
81 115 94
81 115 94
81 115 94
81 115 94
81 115 94
81 115 94
81 115 94
81 115 94
81 115 94
80 114 94
81 115 94
81 115 94
81 115 94
80 115 94
80 115 94
81 115 94
80 115 94
81 115 94
81 115 94
81 115 94
80 115 94
81 115 94
81 115 94
80 115 94
80 115 94
81 115 94
81 115 94
81 115 94
80 115 94
81 115 94
80 115 94
81 115 94
81 115 94
80 114 94
81 115 94
81 115 94
80 115 94
81 115 94
81 115 94
81 115 94
80 115 94
81 115 94
80 115 94
81 115 94
80 114 94
80 115 94
80 115 94
80 115 94
80 115 94
80 114 94
80 115 94
80 115 94
81 115 94
81 115 94
80 114 94
81 115 94
80 114 94
80 115 94
80 114 93
81 115 94
80 115 94
81 115 94
80 114 94
80 114 93
80 115 94
80 114 93
80 114 94
80 115 94
80 114 93
80 114 94
80 114 94
80 114 94
81 115 93
80 114 94
80 114 94
80 114 93
80 114 94
80 114 93
80 115 94
80 114 93
80 114 93
80 114 94
80 114 94
80 114 93
80 114 93
80 114 93
80 114 93
80 114 93
80 114 93
80 114 93
80 114 93
80 114 93
80 114 93
80 114 93
80 114 93
80 114 93
80 114 93
80 114 93
80 114 93
80 114 93
80 114 93
80 114 93
80 114 93
80 114 93
80 114 93
80 114 93
80 114 93
80 114 93
80 114 93
80 114 93
80 114 93
80 114 93
80 114 93
80 114 93
80 114 93
79 113 93
80 114 93
80 114 93
80 114 93
80 114 93
80 114 93
80 114 93
80 114 93
80 114 93
80 114 93
80 114 93
80 114 93
80 114 93
80 114 93
80 114 93
80 114 93
80 114 93
80 114 93
80 114 93
80 114 93
79 114 93
79 114 93
80 114 93
80 114 93
80 114 93
80 114 93
80 114 93
80 114 93
80 113 93
80 114 93
79 114 93
79 114 93
80 114 93
79 114 93
79 114 93
80 114 93
79 114 93
80 114 93
79 114 93
80 114 93
79 113 93
80 113 93
80 114 93
80 114 93
79 113 93
80 113 93
79 113 93
79 113 93
80 114 93
79 113 93
80 114 93
80 114 93
80 113 93
79 113 93
79 113 93
79 113 93
80 114 93
80 113 93
79 113 93
79 113 93
79 113 93
80 114 93
79 113 93
80 114 93
79 113 93
79 113 93
79 113 93
79 113 93
79 113 93
80 113 93
80 113 93
79 113 92
79 113 93
82 116 95
82 117 95
82 117 95
82 116 95
82 116 95
82 117 95
82 117 95
82 117 95
82 116 95
82 116 95
82 117 95
82 117 95
81 116 95
82 117 95
82 117 95
82 116 95
82 116 95
82 117 95
82 117 95
82 117 95
82 117 95
82 117 95
82 116 95
82 117 95
82 117 95
82 117 95
82 117 95
82 117 95
82 116 95
82 116 95
82 117 95
82 117 95
82 117 95
82 116 95
82 117 95
82 116 95
82 117 95
82 117 95
82 116 95
82 116 95
82 117 95
82 117 95
82 117 95
82 117 95
82 116 95
82 116 95
82 117 95
82 116 95
82 117 95
82 117 95
82 117 95
82 117 95
82 117 95
82 117 95
82 116 95
82 116 95
82 116 95
82 117 95
82 117 95
82 117 95
82 117 95
82 117 95
82 116 95
82 117 95
82 117 95
82 117 95
82 116 95
82 117 95
82 117 95
82 117 95
82 117 95
82 116 95
82 116 95
82 117 95
82 116 95
82 117 95
82 117 95
82 117 95
82 117 95
82 117 95
82 116 95
82 117 95
82 117 95
82 117 95
82 117 95
82 116 95
82 117 95
82 116 95
82 117 95
82 117 95
82 116 95
82 117 95
82 117 95
82 117 95
82 117 95
82 117 95
82 117 95
82 117 95
82 116 95
82 116 95
82 117 95
82 116 95
82 116 95
82 116 95
82 117 95
82 117 95
82 116 95
82 116 95
82 117 95
82 117 95
82 117 95
82 116 95
82 117 95
82 117 95
82 116 95
82 116 95
82 116 95
82 117 95
82 117 95
82 117 95
82 117 95
82 117 95
82 116 95
82 117 95
82 117 95
82 116 95
82 116 95
82 117 95
82 117 95
82 117 95
82 116 95
82 117 95
82 117 95
82 117 95
82 117 95
82 116 95
82 117 95
82 116 95
82 117 95
82 117 95
82 116 95
82 116 95
82 117 95
82 117 95
82 117 95
82 116 95
82 117 95
82 116 95
82 116 95
82 117 95
82 117 95
82 117 95
82 116 95
82 117 95
82 116 95
82 116 95
82 117 95
82 116 95
82 117 95
82 117 95
82 117 95
81 116 95
82 116 95
82 117 95
82 117 95
82 116 95
82 117 95
82 116 95
82 117 95
82 116 95
82 116 95
82 117 95
82 117 95
82 116 95
82 116 95
82 117 95
82 116 95
82 116 95
82 116 95
82 117 95
82 116 95
82 117 95
82 116 95
82 116 95
82 117 95
82 116 95
82 117 95
82 116 95
81 116 95
82 116 95
82 116 95
82 116 95
82 117 95
82 116 95
82 117 95
82 117 95
82 116 95
82 116 95
82 116 95
82 117 95
82 116 95
82 116 95
82 116 94
82 116 95
82 116 95
82 116 95
82 116 95
82 116 95
82 116 95
82 116 94
82 117 95
82 116 95
82 116 95
82 116 95
82 116 95
82 116 95
82 116 95
82 116 95
82 116 95
82 117 95
82 116 95
82 116 95
82 116 95
82 116 95
82 116 95
82 116 95
82 116 95
82 116 95
82 116 95
82 116 95
81 116 95
82 116 95
82 116 95
82 116 95
82 116 95
82 116 95
82 116 95
82 116 95
82 116 95
82 116 95
82 116 95
82 116 95
82 116 95
82 116 95
82 116 95
82 116 95
82 116 95
82 116 95
82 116 95
82 116 95
82 116 95
81 116 95
82 116 95
82 117 95
82 116 95
82 116 95
82 116 95
82 116 94
82 116 95
82 116 95
82 116 95
81 116 95
82 116 95
82 116 95
82 116 95
81 116 95
82 116 95
82 116 95
82 116 95
81 116 95
82 116 95
81 116 94
81 116 95
82 116 95
81 116 94
82 116 95
81 116 94
82 116 95
82 116 95
82 116 95
82 116 95
81 116 94
82 116 94
81 116 95
81 116 95
82 116 95
81 116 95
82 116 95
82 116 95
82 116 95
82 116 94
82 116 94
81 116 95
81 116 95
82 116 95
82 116 94
81 116 94
82 116 95
81 116 94
81 116 94
81 116 95
81 116 95
81 116 95
81 116 95
81 116 95
82 116 95
81 116 95
81 116 94
82 116 95
81 116 94
81 116 95
81 116 94
82 116 94
81 116 94
81 116 95
81 116 95
81 116 94
81 116 94
81 116 94
81 116 94
81 115 94
81 116 94
81 116 95
81 116 94
81 116 95
82 116 94
81 116 94
81 115 94
81 116 95
82 116 95
81 116 95
81 116 95
81 116 94
82 116 94
81 116 94
81 116 94
81 116 94
81 116 94
81 115 94
82 116 94
81 115 94
81 116 94
81 116 94
82 116 94
81 116 94
81 116 94
81 116 94
81 116 94
81 115 94
81 116 94
81 115 94
82 116 94
82 116 94
81 116 94
81 116 94
81 116 94
82 116 94
81 116 94
81 115 94
81 116 94
81 115 94
81 115 94
81 115 94
81 115 94
81 115 94
81 115 94
81 115 94
81 115 94
81 115 94
81 115 94
82 116 94
81 115 94
81 115 94
81 116 94
81 115 94
81 115 94
81 115 94
81 115 94
81 115 94
81 115 94
81 115 94
81 115 94
81 115 94
81 115 94
81 115 94
81 115 94
81 115 94
81 115 94
81 115 94
81 115 94
81 115 94
81 115 94
81 115 94
81 115 94
81 115 94
81 115 94
81 115 94
81 115 94
81 115 94
81 115 94
81 115 94
81 115 94
81 115 94
81 116 94
81 115 94
81 115 94
81 115 94
81 115 94
81 115 94
81 115 94
81 115 94
81 115 94
81 115 94
81 115 94
81 115 94
81 115 94
81 115 94
81 115 94
81 115 94
81 115 94
81 115 94
81 115 94
81 115 94
81 115 94
81 115 94
81 115 94
81 115 94
80 115 94
81 115 94
81 115 94
81 115 94
81 115 94
81 115 94
81 115 94
81 115 94
81 115 94
80 115 94
81 115 94
81 115 94
81 115 94
80 115 94
81 115 94
80 115 94
80 115 94
81 115 94
81 115 94
81 115 94
81 115 94
81 115 94
81 115 94
80 115 94
81 115 94
80 115 94
80 114 94
81 115 94
80 114 94
81 115 94
81 115 94
80 115 94
80 115 94
81 115 94
80 115 94
81 115 94
80 114 94
81 115 94
81 115 94
80 114 93
80 114 94
80 115 94
80 115 94
80 114 94
80 114 94
80 115 94
81 115 94
80 114 94
80 114 94
80 115 94
80 114 93
80 114 94
81 115 93
80 114 94
80 114 93
80 114 94
80 115 94
80 114 93
80 114 94
80 114 94
80 114 93
80 115 94
80 114 94
80 114 94
80 114 94
80 114 94
80 114 94
80 114 93
80 114 94
80 114 94
80 114 94
80 114 94
80 114 94
80 114 94
80 114 93
80 114 93
80 114 93
80 114 93
80 114 93
80 114 93
80 114 93
80 114 93
80 114 93
80 114 93
80 114 93
80 114 93
80 114 93
80 114 93
80 114 93
80 114 93
80 114 93
80 114 93
80 114 93
80 114 93
80 114 93
80 114 93
80 114 93
80 114 93
80 114 93
80 114 93
80 114 93
80 114 93
80 114 93
79 113 93
80 114 93
80 114 93
80 114 93
80 114 93
80 114 93
80 114 93
80 114 93
80 114 93
80 114 93
80 114 93
80 114 93
80 114 93
80 114 93
80 114 93
80 114 93
80 114 93
80 114 93
80 114 93
80 114 93
80 114 93
80 114 93
80 114 93
80 114 93
80 114 93
80 114 93
79 113 93
79 114 93
80 114 93
80 114 93
80 114 93
79 114 93
80 114 93
80 114 93
79 114 93
80 114 93
80 114 93
79 113 93
80 114 93
80 114 93
79 114 93
80 114 93
80 114 93
80 114 93
80 114 93
79 113 93
80 114 93
79 113 93
80 113 93
80 114 93
79 113 93
80 114 93
79 113 93
79 113 93
79 113 93
79 113 93
79 113 93
80 114 93
79 113 93
79 113 93
79 113 93
79 113 93
79 113 93
79 113 93
79 113 93
79 113 93
79 113 93
79 113 93
79 113 93
79 113 93
82 117 95
82 117 95
82 116 95
82 117 95
82 117 95
82 117 95
82 117 95
82 116 95
82 117 95
82 116 95
82 116 95
82 117 95
82 117 95
82 117 95
82 116 95
82 117 95
82 117 95
82 117 95
82 117 95
82 117 95
82 117 95
82 117 95
82 117 95
82 116 95
82 117 95
82 117 95
82 117 95
82 116 95
82 117 95
82 117 95
82 117 95
82 117 95
82 116 95
82 117 95
82 117 95
82 117 95
82 117 95
82 117 95
82 117 95
82 117 95
82 117 95
82 117 95
82 117 95
82 117 95
82 117 95
82 117 95
82 117 95
82 116 95
82 116 95
82 117 95
82 117 95
82 117 95
82 117 95
82 116 95
82 117 95
82 117 95
82 117 95
82 117 95
82 117 95
82 117 95
82 117 95
82 117 95
82 117 95
82 117 95
82 117 95
82 117 95
82 117 95
82 116 95
82 117 95
82 117 95
82 117 95
82 117 95
82 117 95
82 116 95
82 116 95
82 117 95
82 117 95
82 117 95
82 117 95
82 116 95
82 117 95
82 117 95
82 116 95
82 116 95
82 117 95
82 117 95
82 117 95
82 117 95
82 117 95
82 117 95
82 117 95
82 117 95
82 117 95
82 117 95
82 117 95
82 117 95
82 117 95
82 117 95
82 116 95
82 117 95
82 117 95
82 116 95
82 117 95
82 117 95
82 117 95
82 117 95
82 117 95
82 117 95
82 117 95
82 117 95
82 117 95
82 116 95
82 117 95
82 117 95
82 117 95
82 117 95
82 117 95
82 117 95
82 117 95
82 117 95
82 116 95
82 117 95
82 117 95
82 117 95
82 117 95
82 117 95
82 117 95
82 117 95
82 116 95
82 116 95
82 117 95
82 117 95
82 117 95
82 117 95
82 117 95
82 117 95
82 117 95
82 117 95
82 117 95
82 117 95
82 117 95
82 117 95
82 117 95
82 116 95
82 117 95
82 116 95
82 116 95
82 116 95
82 117 95
82 116 95
82 117 95
82 117 95
82 117 95
82 117 95
82 116 95
82 117 95
82 117 95
82 117 95
82 117 95
82 117 95
82 116 95
82 117 95
82 117 95
82 117 95
82 117 95
82 117 95
82 116 95
82 116 95
82 117 95
82 116 95
82 116 95
82 117 95
82 117 95
82 116 95
82 116 95
82 117 95
82 117 95
82 117 95
82 117 95
82 116 95
82 116 95
82 116 95
82 117 95
82 116 95
82 116 95
82 116 95
82 117 95
82 116 95
82 117 95
82 116 95
82 116 95
82 116 95
82 117 95
82 117 95
82 117 95
82 116 95
82 117 95
82 116 95
82 117 95
82 116 95
82 116 95
82 116 95
82 117 95
82 116 95
82 117 95
82 116 95
82 117 95
82 117 95
82 117 95
82 116 95
82 117 95
82 116 95
82 116 95
82 116 95
82 116 95
82 116 95
82 116 95
82 117 95
82 116 95
82 116 95
82 117 95
82 116 95
82 116 95
82 116 95
82 116 95
82 117 95
82 116 95
82 116 95
82 116 95
82 117 95
82 116 95
82 116 95
82 116 95
82 116 95
82 116 95
82 116 95
81 116 95
82 116 95
82 116 95
82 116 95
82 116 95
82 116 95
82 116 95
82 116 95
82 116 95
81 116 95
82 116 95
82 116 95
82 117 95
82 116 95
82 117 95
81 116 95
81 116 95
82 116 95
82 116 95
82 116 95
82 116 95
82 116 95
82 116 95
81 116 94
82 116 95
82 116 95
82 116 95
82 116 95
82 116 95
82 116 95
82 116 95
82 116 95
82 116 95
81 116 95
82 116 95
82 116 95
82 116 95
82 116 95
82 116 95
82 116 95
82 116 95
81 116 95
82 116 95
82 116 95
82 116 95
81 116 95
82 116 95
81 116 94
81 116 95
81 116 95
81 116 94
82 116 95
82 116 95
82 116 95
81 116 95
82 116 95
82 116 95
82 116 95
82 116 95
81 116 94
81 116 94
81 116 95
82 116 95
82 116 95
82 116 95
82 116 95
81 116 95
82 116 95
82 116 95
82 116 95
81 116 95
81 116 95
81 116 95
81 116 94
81 116 94
81 116 94
82 116 94
81 116 94
82 116 95
81 116 94
82 116 95
82 116 95
81 116 94
81 116 94
81 116 95
82 116 95
81 116 94
82 116 95
81 116 95
82 116 95
81 116 94
81 115 94
81 115 95
81 116 95
82 116 95
82 116 95
81 116 95
81 116 94
81 116 94
81 116 95
81 116 95
81 116 95
81 115 94
81 116 94
81 116 95
81 116 95
81 115 94
81 115 94
81 116 94
81 115 94
81 116 94
81 116 94
81 116 94
81 116 94
81 116 94
81 116 94
81 116 94
81 115 94
81 116 94
81 116 94
81 115 94
81 115 94
81 116 94
81 115 94
81 115 94
81 116 94
81 116 94
81 116 94
81 115 94
81 115 94
81 115 94
81 116 94
81 115 94
81 115 94
81 115 94
81 115 94
81 116 94
81 116 94
81 116 94
81 116 94
81 115 94
81 116 94
81 115 94
81 115 94
81 115 94
81 116 94
81 115 94
81 116 94
81 115 94
81 115 94
81 115 94
81 115 94
81 115 94
81 115 94
81 115 94
81 115 94
81 115 94
81 115 94
81 115 94
81 115 94
81 115 94
81 115 94
81 116 94
81 115 94
81 115 94
81 115 94
81 115 94
81 115 94
81 115 94
81 116 94
81 115 94
81 115 94
80 115 94
81 115 94
81 115 94
81 115 94
81 115 94
81 115 94
81 115 94
81 115 94
81 115 94
81 115 94
81 115 94
81 115 94
81 115 94
81 115 94
81 115 94
81 115 94
81 115 94
81 115 94
81 115 94
81 115 94
81 115 94
81 115 94
81 115 94
81 115 94
80 115 94
81 115 94
81 115 94
81 115 94
80 115 94
81 115 94
81 115 94
81 115 94
81 115 94
81 115 94
81 115 94
81 115 94
81 115 94
81 115 94
81 115 94
81 115 94
81 115 94
80 114 94
80 115 94
80 115 94
81 115 94
80 115 94
80 115 94
81 115 94
81 115 94
80 115 94
80 115 94
81 115 94
81 115 94
80 115 94
81 115 94
80 115 94
81 115 94
80 115 94
80 115 94
80 115 94
80 115 94
80 115 94
80 114 94
80 115 94
80 115 94
80 114 94
80 114 94
80 115 94
81 115 94
81 115 94
80 114 94
80 115 94
80 115 94
80 114 94
80 115 94
80 114 94
80 115 94
80 115 94
80 114 94
80 114 94
80 114 93
80 115 94
80 114 93
80 114 94
80 114 94
81 115 94
80 114 93
80 114 93
80 114 93
80 115 94
80 114 94
80 114 94
80 114 94
80 114 94
80 114 93
80 114 93
80 114 93
80 114 94
80 114 94
80 114 93
80 114 93
80 114 93
80 114 93
80 114 93
80 114 93
80 114 93
80 114 93
80 114 93
80 114 93
80 114 93
80 114 93
80 114 93
80 114 93
80 114 93
80 114 93
80 114 93
80 114 93
80 114 93
80 114 93
80 114 93
80 114 93
80 114 93
80 114 93
80 114 93
80 114 93
80 114 93
80 114 93
80 114 93
80 114 93
80 114 93
80 114 93
80 114 93
80 114 93
80 114 93
80 114 93
80 114 93
80 114 93
80 114 93
80 114 93
80 114 93
80 114 93
80 114 93
80 114 93
80 114 93
80 114 93
80 114 93
80 114 93
80 114 93
80 114 93
80 114 93
80 114 93
80 114 93
80 114 93
80 114 93
80 114 93
80 114 93
80 114 93
79 114 93
80 114 93
79 114 93
80 114 93
80 114 93
80 114 93
80 114 93
79 113 93
80 114 93
80 114 93
80 114 93
80 114 93
80 114 93
80 114 93
80 114 93
80 114 93
79 113 93
79 113 93
80 114 93
79 113 93
80 114 93
79 113 93
80 114 93
79 113 93
79 113 93
79 113 93
79 113 93
80 113 93
79 113 93
79 113 93
79 113 93
80 114 93
79 113 93
79 113 93
79 113 93
82 117 95
82 117 95
82 117 95
82 117 95
82 117 95
82 116 95
82 117 95
82 117 95
82 117 95
82 117 95
82 117 95
82 117 95
82 117 95
82 117 95
82 117 95
82 116 95
82 117 95
82 117 95
82 117 95
82 117 95
82 117 95
82 117 95
82 117 95
82 117 95
82 117 95
82 117 95
82 117 95
82 117 95
82 116 95
82 117 95
82 117 95
82 117 95
82 117 95
82 117 95
82 117 95
82 117 95
82 117 95
82 116 95
82 116 95
82 117 95
82 117 95
82 117 95
82 116 95
82 117 95
82 116 95
82 117 95
82 117 95
82 117 95
82 117 95
82 117 95
82 117 95
82 117 95
82 117 95
82 117 95
82 117 95
82 116 95
82 117 95
82 117 95
82 117 95
82 117 95
82 117 95
82 117 95
82 117 95
82 117 95
82 117 95
82 117 95
82 117 95
82 117 95
82 117 95
82 117 95
82 117 95
82 117 95
82 116 95
82 117 95
82 117 95
82 117 95
82 117 95
82 116 95
82 117 95
82 117 95
82 117 95
82 116 95
82 117 95
82 117 95
82 117 95
82 117 95
82 117 95
82 117 95
82 117 95
82 117 95
82 117 95
82 117 95
82 116 95
82 117 95
82 117 95
82 117 95
82 117 95
82 117 95
82 117 95
82 117 95
82 117 95
82 117 95
82 117 95
82 117 95
82 117 95
82 117 95
82 116 95
82 117 95
82 117 95
82 117 95
82 117 95
82 117 95
82 117 95
82 117 95
82 117 95
82 117 95
82 117 95
82 116 95
82 117 95
82 117 95
82 117 95
82 117 95
82 117 95
82 117 95
82 117 95
83 117 95
82 117 95
82 117 95
82 117 95
82 116 95
82 117 95
82 117 95
82 117 95
82 117 95
82 117 95
82 117 95
82 117 95
82 117 95
82 116 95
82 117 95
82 117 95
82 117 95
82 117 95
82 117 95
82 117 95
82 117 95
82 117 95
82 117 95
82 117 95
82 117 95
82 117 95
82 116 95
82 117 95
82 117 95
82 117 95
82 117 95
82 117 95
82 116 95
82 117 95
82 117 95
82 116 95
82 116 95
82 117 95
82 117 95
82 117 95
82 117 95
82 116 95
82 116 95
82 117 95
82 117 95
82 117 95
82 117 95
82 117 95
82 117 95
82 117 95
82 116 95
82 117 95
82 116 95
82 116 95
82 117 95
82 117 95
82 117 95
82 117 95
82 116 95
82 117 95
82 117 95
82 117 95
82 117 95
82 117 95
82 116 95
82 117 95
82 116 95
82 116 95
82 117 95
82 117 95
82 117 95
82 117 95
82 117 95
82 116 95
82 117 95
82 117 95
82 117 95
82 116 95
82 116 95
82 117 95
82 116 95
82 116 95
82 117 95
82 116 95
82 117 95
82 117 95
82 117 95
82 117 95
82 116 95
82 117 95
82 116 95
82 116 95
82 116 95
82 116 95
82 116 95
82 116 95
82 117 95
82 117 95
82 116 95
82 116 95
82 116 95
82 117 95
82 116 95
82 116 95
82 117 95
82 116 95
82 116 95
82 117 95
82 116 95
82 117 95
82 116 95
82 116 95
82 116 95
82 116 95
82 116 95
82 116 95
82 116 95
82 116 95
82 116 95
82 117 95
82 116 95
82 116 95
81 116 95
82 116 95
82 116 95
82 116 95
82 116 95
82 116 95
82 116 95
82 116 95
82 116 95
82 116 95
82 116 95
82 116 95
82 116 95
82 116 95
82 116 95
82 116 95
82 116 95
82 116 95
82 116 95
82 116 94
82 116 95
82 116 95
82 116 95
82 116 95
82 116 95
82 116 95
82 116 95
82 116 95
82 116 95
82 116 95
82 117 95
82 116 95
82 116 95
81 116 95
82 116 95
81 116 94
81 116 94
82 116 95
82 116 95
82 116 95
82 116 95
82 116 95
81 116 95
82 116 95
82 116 95
82 116 95
81 116 95
81 116 95
81 116 95
82 116 95
82 116 95
81 116 95
81 116 95
82 116 94
82 116 95
81 116 94
81 116 95
81 116 95
82 116 95
82 116 95
81 116 95
81 115 94
82 116 94
81 116 94
81 116 95
81 116 94
82 116 95
82 116 95
82 116 95
82 116 95
82 116 95
81 116 94
81 116 94
82 116 94
82 116 95
82 116 95
82 116 95
82 116 95
82 116 94
82 116 94
81 116 95
81 116 95
81 116 94
81 116 95
81 116 95
82 116 95
81 116 94
81 116 94
81 116 94
81 116 94
81 116 95
81 116 95
81 116 94
81 116 95
81 116 95
81 116 94
82 116 94
81 116 94
82 116 95
81 116 94
81 116 95
81 115 94
81 116 94
81 116 95
81 115 94
81 115 94
82 116 94
81 116 94
81 116 94
81 116 94
81 116 94
81 116 94
81 116 94
81 116 94
81 116 94
81 116 94
81 115 94
81 116 94
81 115 94
81 116 94
82 116 94
81 116 94
81 116 94
81 115 94
81 116 94
81 116 94
81 116 94
81 115 94
81 115 94
81 115 94
81 115 94
81 116 94
81 115 94
81 115 94
81 116 94
81 115 94
81 115 94
81 116 94
81 115 94
81 115 94
81 115 94
81 116 94
81 115 94
81 115 94
81 116 94
81 115 94
81 115 94
81 115 94
81 116 94
81 115 94
81 115 94
81 116 94
81 115 94
81 115 94
81 115 94
81 115 94
81 115 94
81 115 94
81 115 94
81 115 94
81 115 94
81 115 94
81 115 94
81 115 94
81 115 94
81 115 94
81 115 94
81 115 94
81 115 94
81 115 94
81 115 94
81 115 94
81 115 94
80 115 94
81 115 94
81 115 94
81 115 94
81 115 94
81 115 94
81 115 94
81 115 94
81 115 94
81 115 94
81 115 94
81 115 94
81 115 94
81 115 94
80 115 94
81 115 94
81 115 94
81 115 94
81 115 94
81 115 94
81 115 94
81 115 94
81 115 94
80 115 94
81 115 94
81 115 94
81 115 94
80 115 94
81 115 94
81 115 94
81 115 94
81 115 94
81 115 94
81 115 94
80 115 94
80 115 94
80 115 94
81 115 94
80 115 94
80 115 94
81 115 94
80 115 94
81 115 94
81 115 94
80 115 94
80 115 94
80 114 94
80 115 94
80 115 94
81 115 94
81 115 94
80 115 94
80 115 94
80 114 94
80 115 94
80 114 94
80 114 94
81 115 94
81 115 94
81 115 94
80 115 94
80 114 94
80 114 94
80 115 94
80 115 94
80 115 94
80 115 94
80 114 94
80 115 94
80 114 94
80 114 94
80 114 94
81 115 94
80 114 93
81 115 94
81 115 93
80 114 93
80 115 94
80 114 94
81 115 94
80 114 93
80 114 94
80 114 94
80 114 93
80 115 94
80 114 94
80 114 93
80 114 94
80 114 94
80 114 94
80 114 94
80 114 94
80 114 94
80 114 93
80 115 93
80 114 93
80 114 93
80 114 93
80 114 93
80 114 93
80 114 93
80 114 93
80 114 93
80 114 93
80 114 93
80 114 93
80 114 93
80 114 93
80 114 93
80 114 93
80 114 93
80 114 93
80 114 93
80 114 93
80 114 93
80 114 93
80 114 93
80 114 93
80 114 93
80 114 93
80 114 93
80 114 93
80 114 93
80 114 93
80 114 93
80 114 93
80 114 93
80 114 93
80 114 93
80 114 93
80 114 93
80 114 93
80 114 93
79 114 93
80 114 93
79 114 93
80 114 93
80 114 93
80 114 93
80 114 93
80 114 93
80 114 93
79 114 93
79 114 93
80 114 93
80 113 93
80 114 93
80 114 93
80 114 93
80 114 93
80 114 93
79 113 93
79 113 93
79 113 93
80 114 93
80 114 93
80 114 93
79 113 93
80 114 93
79 113 93
80 114 93
80 114 93
79 113 93
80 114 93
79 113 93
80 114 93
80 114 93
80 114 93
80 114 93
79 113 93
79 113 93
80 114 93
79 113 93
80 114 93
79 113 93
80 114 93
79 113 93
79 113 93
80 113 93
79 113 93
82 117 95
82 117 95
82 117 95
82 117 95
82 117 95
82 117 95
82 117 95
82 117 95
82 117 95
82 117 95
83 117 95
82 116 95
82 116 95
82 117 95
82 117 95
82 117 95
82 117 95
82 117 95
82 117 95
82 117 95
82 117 95
82 117 95
82 117 95
82 117 95
82 117 95
82 117 95
82 117 95
82 117 95
82 117 95
82 116 95
82 117 95
82 117 95
82 117 95
82 117 95
82 117 95
82 117 95
82 117 95
82 117 95
82 117 95
82 117 95
82 117 95
82 117 95
82 117 95
82 117 95
82 117 95
82 117 95
82 117 95
82 117 95
82 117 95
82 117 95
82 117 95
82 117 95
82 117 95
82 117 95
82 117 95
82 117 95
82 117 95
82 117 95
82 117 95
82 117 95
82 117 95
82 117 95
82 117 95
82 117 95
83 117 95
82 117 95
82 117 95
82 117 95
82 117 95
82 117 95
82 117 95
82 117 95
82 117 95
82 117 95
82 117 95
82 116 95
82 117 95
83 117 95
82 117 95
82 117 95
82 117 95
82 117 95
82 117 95
82 116 95
82 117 95
82 117 95
82 117 95
82 117 95
82 117 95
82 117 95
82 117 95
82 117 95
82 117 95
82 117 95
82 117 95
82 117 95
82 117 95
82 117 95
82 117 95
82 117 95
82 117 95
82 117 95
82 117 95
82 117 95
82 117 95
82 117 95
82 117 95
82 117 95
82 117 95
82 117 95
82 117 95
82 117 95
82 117 95
82 117 95
82 117 95
82 117 95
82 117 95
82 117 95
82 117 95
82 117 95
82 117 95
82 117 95
82 117 95
82 117 95
82 117 95
82 116 95
82 117 95
82 117 95
83 117 95
82 117 95
82 116 95
82 117 95
82 117 95
82 117 95
82 117 95
82 117 95
82 117 95
82 117 95
82 117 95
82 117 95
82 117 95
83 117 95
82 117 95
82 117 95
82 117 95
82 117 95
82 116 95
82 117 95
82 117 95
82 117 95
82 117 95
82 117 95
82 117 95
82 117 95
82 117 95
82 117 95
82 117 95
82 117 95
82 117 95
82 117 95
82 117 95
82 117 95
82 117 95
82 117 95
82 117 95
82 117 95
82 117 95
82 117 95
82 117 95
82 117 95
82 117 95
82 117 95
82 117 95
82 117 95
82 117 95
82 117 95
82 117 95
82 117 95
82 117 95
82 117 95
82 117 95
82 117 95
82 117 95
82 117 95
82 117 95
82 116 95
82 117 95
82 117 95
82 117 95
82 117 95
82 117 95
82 117 95
82 117 95
82 117 95
82 117 95
82 117 95
82 116 95
82 117 95
82 117 95
82 117 95
82 117 95
82 117 95
82 117 95
82 117 95
82 117 95
82 117 95
82 117 95
82 117 95
82 117 95
82 116 95
82 117 95
82 117 95
82 116 95
82 116 95
82 117 95
82 116 95
82 117 95
82 117 95
82 116 95
82 117 95
82 117 95
82 116 95
82 117 95
82 117 95
82 117 95
82 117 95
82 117 95
82 117 95
82 116 95
82 116 95
82 116 95
82 116 95
82 116 95
82 117 95
82 116 95
82 117 95
82 117 95
82 116 95
82 116 95
82 116 95
82 116 95
82 117 95
82 117 95
82 117 95
82 117 95
82 116 95
82 116 95
82 116 95
82 116 95
82 116 95
82 116 95
82 117 95
82 116 95
81 116 95
82 117 95
82 116 95
82 117 95
82 116 95
82 117 95
82 116 95
82 116 95
82 116 95
82 116 95
82 117 95
82 116 95
82 116 95
82 116 95
82 116 95
82 116 95
82 116 95
82 116 95
82 116 95
82 116 95
82 116 95
82 116 95
82 116 95
82 116 95
82 116 95
82 116 95
82 116 95
82 116 95
82 116 95
82 116 95
82 116 95
82 116 95
82 116 95
82 116 95
82 116 95
82 116 94
82 116 95
82 116 95
82 116 95
82 116 95
82 116 95
82 116 95
82 116 95
82 116 95
81 116 95
82 116 95
82 116 95
81 116 95
82 116 95
82 116 95
81 116 94
82 116 95
82 116 94
81 116 95
81 116 95
81 116 95
81 116 95
82 116 95
82 116 94
82 116 95
82 116 95
81 116 95
82 116 95
81 116 95
82 116 95
82 116 94
82 116 95
82 116 95
82 116 95
82 116 95
81 116 95
81 116 95
82 116 95
81 116 95
81 116 94
82 116 95
82 116 94
82 116 95
82 116 95
81 116 95
82 116 94
82 116 95
81 116 95
81 116 95
81 116 95
82 116 94
81 115 94
81 115 94
81 116 94
81 116 94
82 116 95
81 116 94
82 116 95
81 116 94
81 116 94
81 116 94
81 116 95
81 116 95
81 116 95
82 116 95
81 116 95
81 115 94
81 116 95
81 116 95
81 116 95
81 116 95
81 116 95
81 116 94
81 115 94
81 116 94
81 116 94
81 116 94
82 116 94
81 116 94
81 116 94
81 116 94
82 116 94
81 115 94
81 116 94
81 115 94
81 116 94
81 115 94
81 115 94
81 116 94
81 116 94
81 116 94
81 115 94
81 116 94
81 115 94
81 115 94
82 116 94
81 115 94
81 115 94
81 115 94
81 116 94
81 116 94
81 116 94
81 115 94
81 115 94
81 116 94
81 115 94
81 115 94
81 115 94
81 115 94
81 115 94
81 115 94
81 115 94
81 115 94
81 115 94
81 115 94
81 115 94
81 115 94
81 115 94
81 115 94
81 115 94
81 115 94
81 115 94
81 115 94
81 115 94
81 115 94
81 116 94
81 115 94
81 115 94
81 115 94
81 115 94
81 115 94
81 115 94
81 115 94
81 115 94
81 115 94
81 115 94
81 115 94
81 115 94
81 115 94
81 115 94
81 115 94
81 115 94
81 115 94
81 115 94
81 115 94
81 115 94
81 115 94
81 115 94
81 115 94
81 115 94
81 115 94
80 114 94
80 115 94
81 115 94
81 115 94
81 115 94
81 115 94
81 115 94
81 115 94
81 115 94
81 115 94
81 115 94
81 115 94
81 115 94
81 115 94
81 115 94
81 115 94
80 115 94
81 115 94
81 115 94
81 115 94
80 115 94
81 115 94
81 115 94
81 115 94
81 115 94
80 115 94
80 115 94
80 114 94
81 115 94
81 115 94
81 115 94
81 115 94
81 115 94
81 115 94
81 115 94
81 115 94
81 115 94
80 115 94
80 114 94
80 114 93
80 114 94
80 115 94
81 115 94
80 114 93
81 115 93
80 115 94
81 115 94
81 115 94
80 114 93
80 114 94
81 115 94
80 114 94
80 115 94
81 115 94
80 115 94
80 115 94
80 114 93
81 115 94
81 115 94
80 114 94
81 115 93
80 114 94
80 114 93
81 115 94
80 114 93
80 115 94
80 114 93
80 114 93
80 114 94
80 114 94
80 114 93
80 114 94
80 114 94
80 114 94
80 114 94
80 114 94
80 114 94
80 114 93
80 114 94
80 114 94
80 114 94
80 114 93
80 114 93
80 114 93
80 114 93
80 114 93
80 114 93
80 114 93
80 114 93
80 114 93
80 114 93
80 114 93
80 114 93
80 114 93
80 114 93
80 114 93
80 114 93
80 114 93
80 114 93
80 114 93
80 114 93
80 114 93
80 114 93
80 114 93
80 114 93
80 114 93
80 114 93
80 114 93
80 114 93
80 114 93
80 114 93
80 114 93
80 114 93
80 114 93
80 114 93
80 114 93
80 114 93
80 114 93
80 114 93
80 114 93
80 114 93
80 114 93
80 114 93
80 114 93
80 114 93
80 114 93
80 114 93
80 114 93
80 114 93
80 114 93
80 114 93
80 114 93
80 114 93
80 114 93
80 114 93
79 114 93
80 113 93
80 114 93
79 114 93
79 114 93
80 114 93
80 114 93
80 114 93
80 114 93
80 114 93
80 114 93
80 114 93
80 114 93
79 114 93
80 114 93
79 113 93
79 114 93
79 113 93
80 113 93
79 113 93
79 114 93
79 113 93
80 114 93
79 113 93
79 113 93
79 113 93
82 117 95
82 117 95
82 117 95
82 117 95
82 117 95
82 117 95
82 117 95
82 117 95
82 117 95
82 117 95
83 117 95
82 117 95
82 117 95
82 116 95
82 117 95
82 117 95
82 117 95
82 117 95
82 117 95
82 117 95
82 117 95
82 117 95
82 117 95
82 117 95
82 117 95
82 117 95
82 117 95
82 117 95
82 117 95
82 117 95
82 117 95
82 117 95
82 117 95
82 117 95
82 117 95
82 117 95
82 117 95
83 117 95
82 117 95
82 117 95
82 117 95
82 117 95
82 117 95
82 117 95
82 117 95
82 117 95
82 117 95
82 117 95
82 117 95
82 117 95
82 117 95
82 117 95
82 117 95
82 117 95
82 117 95
82 117 95
82 117 95
82 117 95
82 117 95
82 117 95
82 117 95
82 117 95
82 117 95
82 117 95
82 117 95
82 117 95
82 117 95
83 117 95
82 117 95
82 117 95
82 117 95
82 117 95
82 117 95
82 117 95
82 117 95
83 117 95
82 117 95
82 117 95
82 117 95
82 117 95
82 117 95
82 117 95
83 117 95
82 117 95
82 117 95
82 117 95
82 117 95
82 117 95
82 117 95
82 117 95
82 117 95
82 117 95
82 117 95
82 117 95
82 117 95
82 117 95
82 117 95
82 117 95
82 117 95
82 117 95
83 117 95
82 117 95
82 117 95
82 117 95
82 117 95
82 117 95
82 117 95
82 117 95
83 117 95
82 117 95
82 117 95
82 117 95
82 117 95
82 117 95
82 117 95
82 117 95
82 117 95
82 117 95
82 117 95
83 117 95
82 117 95
82 117 95
82 117 95
82 117 95
82 117 95
82 117 95
82 117 95
83 117 95
82 117 95
82 117 95
82 117 95
82 117 95
82 117 95
82 117 95
82 117 95
82 117 95
82 117 95
82 117 95
82 117 95
82 117 95
82 116 95
82 117 95
82 117 95
82 117 95
82 117 95
82 117 95
82 117 95
82 117 95
82 117 95
82 117 95
82 117 95
82 117 95
82 117 95
82 116 95
82 117 95
82 117 95
83 117 95
82 117 95
82 117 95
82 117 95
82 117 95
82 117 95
82 117 95
82 117 95
82 117 95
82 117 95
82 117 95
82 117 95
82 117 95
82 117 95
82 117 95
82 117 95
82 117 95
82 117 95
82 117 95
82 117 95
82 117 95
82 117 95
82 116 95
82 117 95
82 117 95
82 117 95
82 117 95
82 117 95
83 117 95
82 117 95
82 117 95
82 117 95
82 116 95
82 117 95
82 117 95
82 117 95
82 117 95
82 117 95
82 117 95
82 117 95
82 117 95
82 117 95
82 117 95
83 117 95
82 117 95
82 117 95
82 117 95
82 117 95
82 116 95
82 117 95
82 117 95
82 117 95
82 117 95
82 117 95
82 117 95
82 116 95
82 117 95
82 117 95
82 117 95
82 117 95
82 116 95
82 117 95
82 116 95
82 117 95
82 116 95
82 117 95
82 117 95
82 117 95
82 117 95
82 117 95
82 117 95
82 117 95
82 116 95
82 116 95
82 117 95
82 117 95
82 117 95
82 116 95
82 116 95
82 117 95
82 117 95
82 117 95
82 116 95
82 116 95
82 117 95
82 117 95
82 116 95
82 117 95
82 117 95
82 116 95
82 117 95
82 116 95
82 116 95
82 116 95
82 116 95
82 117 95
82 117 95
82 116 95
82 117 95
82 117 95
82 116 95
82 116 95
82 116 95
82 117 95
82 116 95
82 116 95
82 117 95
82 116 95
82 116 95
82 116 95
81 116 95
82 117 95
82 116 95
82 116 95
82 117 95
82 116 95
82 116 95
82 116 95
82 116 95
82 116 95
82 116 95
82 117 95
82 116 95
82 116 95
82 116 95
82 117 95
82 116 95
82 117 95
82 116 95
82 116 95
82 116 95
82 116 95
82 116 95
82 116 95
82 116 95
82 116 95
82 116 95
82 116 95
82 116 95
82 116 95
82 116 95
82 116 94
82 116 95
82 116 95
82 116 95
82 116 95
82 116 95
82 116 95
82 116 95
82 116 95
82 116 94
82 116 95
81 116 94
81 116 94
81 116 94
82 116 95
82 116 95
82 116 94
82 116 95
82 116 95
82 116 94
82 116 95
82 116 95
82 116 95
81 116 94
82 116 95
82 116 94
82 116 95
81 116 95
82 116 95
81 116 95
82 116 95
81 116 95
81 116 94
82 116 95
82 116 95
81 116 94
81 116 95
81 116 94
82 116 95
81 116 95
82 116 95
81 116 95
82 116 95
82 116 95
82 116 95
82 116 94
82 116 94
81 116 94
82 116 95
82 116 94
81 116 94
81 116 95
81 116 94
81 116 94
81 116 94
81 116 94
82 116 95
82 116 95
81 116 95
82 116 94
81 116 94
82 116 95
81 116 94
82 116 95
81 116 95
81 116 95
81 116 95
81 116 95
81 116 94
81 116 95
81 115 94
81 116 94
81 116 95
81 116 94
81 116 94
81 116 94
81 115 94
82 116 94
81 115 94
81 115 94
81 116 94
81 116 94
81 115 94
81 116 94
81 116 94
81 116 94
81 116 94
82 116 94
81 115 94
81 116 94
81 116 94
81 115 94
81 116 94
81 116 94
81 116 94
81 116 94
81 116 94
81 115 94
81 116 94
81 116 94
82 116 94
81 116 94
81 115 94
81 115 94
81 115 94
81 115 94
81 115 94
81 115 94
81 116 94
81 116 94
82 116 94
81 115 94
81 115 94
81 115 94
81 115 94
81 115 94
81 115 94
81 115 94
81 115 94
81 115 94
81 115 94
81 116 94
81 115 94
81 115 94
81 115 94
81 115 94
81 115 94
81 115 94
81 115 94
81 115 94
81 115 94
81 115 94
81 115 94
81 115 94
81 115 94
81 115 94
81 115 94
81 115 94
81 115 94
81 115 94
81 115 94
81 115 94
81 115 94
81 115 94
81 115 94
81 115 94
81 115 94
81 115 94
81 115 94
81 115 94
81 115 94
81 115 94
80 115 94
81 115 94
81 115 94
81 115 94
81 115 94
81 115 94
81 115 94
81 115 94
81 115 94
80 115 94
81 115 94
81 115 94
81 115 94
81 115 94
81 115 94
80 115 94
81 115 94
81 115 94
81 115 94
81 115 94
81 115 94
81 115 94
81 115 94
81 115 94
80 115 94
81 115 94
81 115 94
81 115 94
81 115 94
80 115 94
81 115 94
81 115 94
80 115 94
80 115 94
81 115 94
80 114 94
80 115 94
80 115 94
80 115 94
81 115 94
80 115 94
80 114 94
80 114 94
80 115 94
80 115 94
80 115 94
80 114 94
80 115 94
80 115 94
80 114 94
80 115 94
80 114 94
80 114 94
81 115 94
80 115 94
80 114 93
80 114 93
80 115 94
80 115 94
80 114 94
80 114 94
80 114 93
80 115 94
80 114 94
80 114 94
80 114 94
80 114 94
80 114 94
80 114 93
80 114 94
80 114 94
80 114 94
80 114 93
80 114 94
80 114 93
80 114 93
80 114 93
80 114 93
80 114 93
80 114 93
80 114 93
80 114 93
80 114 93
80 114 93
80 114 93
80 114 93
80 114 93
80 114 93
80 114 93
80 114 93
80 114 93
80 114 93
80 114 93
80 114 93
80 114 93
80 114 93
80 114 93
80 114 93
80 114 93
80 114 93
80 114 93
80 114 93
80 114 93
80 114 93
80 114 93
80 114 93
80 114 93
80 114 93
80 114 93
80 114 93
80 114 93
80 114 93
80 114 93
80 114 93
80 114 93
80 114 93
80 114 93
80 114 93
80 114 93
80 114 93
80 114 93
80 114 93
80 114 93
80 114 93
80 114 93
80 114 93
80 114 93
79 113 93
80 114 93
80 114 93
79 113 93
80 114 93
80 114 93
80 114 93
80 114 93
80 114 93
79 113 93
80 114 93
80 114 93
80 114 93
79 114 93
79 113 93
80 114 93
79 113 93
80 114 93
80 114 93
79 114 93
80 114 93
80 114 93
79 113 93
80 114 93
82 117 95
82 117 95
82 117 95
83 117 95
82 117 95
82 117 95
82 117 95
82 117 95
82 117 95
82 117 95
82 117 95
82 117 95
82 117 95
82 117 95
83 117 95
83 117 95
82 117 95
82 117 95
82 117 95
83 117 95
82 117 95
83 117 95
82 117 95
83 117 95
82 117 95
82 117 95
82 117 95
82 117 95
82 117 95
83 117 95
83 117 95
82 117 95
83 117 95
82 117 95
82 117 95
82 117 95
83 117 95
82 117 95
82 117 95
82 117 95
82 117 95
82 117 95
82 117 95
82 117 95
82 117 95
83 117 95
82 117 95
82 117 95
82 117 95
82 117 95
82 117 95
82 117 95
82 117 95
82 117 95
82 117 95
83 117 95
82 117 95
82 117 95
83 117 95
82 117 95
82 117 95
82 117 95
82 117 95
82 117 95
82 117 95
82 117 95
82 117 95
83 117 95
82 117 95
82 117 95
82 117 95
82 117 95
82 117 95
82 117 95
83 117 95
82 117 95
82 117 95
82 117 95
82 117 95
82 117 95
82 117 95
82 117 95
82 117 95
82 117 95
82 117 95
83 117 95
82 117 95
82 117 95
82 117 95
82 117 95
82 117 95
82 117 95
82 117 95
82 117 95
82 117 95
82 117 95
82 117 95
82 117 95
82 117 95
83 117 95
82 117 95
82 117 95
82 117 95
82 117 95
82 117 95
82 117 95
83 117 95
82 117 95
82 117 95
82 117 95
82 117 95
82 117 95
82 117 95
82 117 95
82 117 95
82 117 95
82 117 95
82 117 95
82 116 95
82 117 95
83 117 95
82 117 95
82 117 95
83 117 95
82 117 95
83 117 95
82 117 95
82 117 95
82 116 95
82 117 95
82 117 95
82 117 95
82 117 95
83 117 95
82 117 95
82 117 95
82 117 95
82 117 95
82 117 95
82 117 95
82 117 95
82 117 95
82 117 95
83 117 95
82 117 95
82 117 95
82 117 95
82 117 95
83 117 95
82 117 95
82 117 95
82 117 95
82 117 95
82 117 95
82 117 95
82 117 95
82 117 95
82 117 95
82 117 95
82 117 95
82 117 95
82 117 95
82 117 95
82 117 95
82 117 95
82 117 95
82 117 95
82 117 95
82 117 95
82 117 95
82 117 95
82 117 95
82 117 95
82 116 95
82 117 95
82 117 95
82 117 95
82 117 95
82 117 95
82 117 95
82 117 95
82 117 95
82 116 95
82 117 95
82 117 95
82 117 95
82 117 95
82 117 95
82 117 95
82 117 95
82 117 95
82 117 95
82 117 95
82 116 95
82 117 95
82 117 95
82 117 95
82 117 95
82 117 95
82 117 95
82 117 95
82 117 95
82 117 95
82 117 95
82 117 95
82 117 95
82 117 95
82 117 95
82 117 95
82 117 95
82 117 95
82 117 95
82 117 95
82 117 95
82 117 95
82 117 95
82 117 95
82 117 95
82 117 95
82 116 95
82 117 95
82 117 95
82 117 95
82 117 95
82 117 95
82 117 95
82 117 95
82 117 95
82 117 95
82 117 95
82 116 95
82 117 95
82 117 95
82 116 95
82 116 95
82 116 95
82 117 95
82 116 95
82 117 95
82 116 95
82 116 95
82 117 95
82 117 95
82 117 95
82 117 95
82 117 95
82 117 95
82 117 95
82 117 95
82 117 95
82 116 95
82 116 95
82 116 95
82 116 95
82 116 95
82 116 95
82 116 95
82 116 95
82 116 95
82 116 95
82 116 95
82 116 95
82 117 95
82 117 95
82 116 95
82 116 95
82 116 95
82 117 95
82 117 95
82 117 95
82 116 95
82 117 95
82 117 95
82 117 95
82 116 95
82 116 95
82 116 95
82 117 95
82 116 95
82 117 95
82 116 95
82 117 95
82 117 95
82 116 95
82 116 95
82 116 95
82 116 94
82 116 95
82 116 95
82 116 95
82 116 95
82 116 95
82 116 95
82 116 95
82 116 95
81 116 95
82 116 94
82 116 95
81 116 95
82 116 95
82 116 95
81 116 94
82 116 95
82 116 95
82 116 95
82 116 94
81 116 95
82 116 95
82 116 95
82 116 95
82 116 95
82 116 95
82 116 95
81 116 95
81 116 95
82 116 94
81 116 94
81 116 95
82 116 95
82 116 95
82 116 95
82 116 95
82 116 95
82 116 95
81 116 94
82 116 95
82 116 95
82 116 95
82 116 95
81 116 95
82 116 94
81 116 94
82 116 95
81 116 95
81 116 95
81 116 95
81 116 95
82 116 95
82 116 95
82 116 94
81 116 94
81 116 94
82 116 95
82 116 95
81 116 95
82 116 95
81 116 94
82 116 95
81 116 94
81 116 94
81 116 95
81 116 95
81 116 94
82 116 95
82 116 95
82 116 95
81 115 94
81 116 95
81 116 95
81 116 95
81 116 95
81 115 94
81 116 95
81 116 95
81 116 95
81 115 94
81 116 94
81 116 95
81 115 94
81 116 94
82 116 95
82 116 95
81 116 95
81 116 95
81 116 94
81 116 94
82 116 95
81 116 95
81 115 94
82 116 94
81 115 94
81 116 94
81 116 94
81 116 94
81 116 94
81 115 94
81 116 94
81 116 94
81 116 94
81 116 94
81 115 94
81 116 94
81 116 94
81 116 94
81 116 94
81 116 94
81 116 94
81 116 94
81 116 94
81 116 94
81 116 94
81 115 94
81 116 94
81 116 94
81 115 94
81 116 94
81 116 94
81 115 94
81 115 94
81 115 94
81 115 94
81 115 94
81 115 94
81 115 94
81 115 94
81 115 94
81 115 94
81 115 94
81 115 94
81 115 94
81 115 94
81 115 94
81 115 94
81 115 94
81 116 94
81 115 94
81 115 94
81 115 94
81 115 94
81 115 94
81 115 94
81 115 94
81 115 94
81 115 94
81 115 94
81 115 94
81 115 94
81 115 94
81 115 94
81 115 94
81 115 94
81 115 94
81 115 94
81 115 94
81 115 94
81 115 94
81 115 94
81 115 94
81 115 94
81 115 94
81 115 94
81 115 94
81 115 94
81 115 94
81 115 94
81 115 94
81 115 94
81 115 94
81 115 94
81 115 94
81 115 94
81 115 94
81 115 94
81 115 94
81 115 94
81 115 94
81 115 94
81 115 94
81 115 94
80 115 94
81 115 94
81 115 94
81 115 94
81 115 94
81 115 94
80 115 94
80 115 94
81 115 94
81 115 94
81 115 94
81 115 94
81 115 94
81 115 94
81 115 94
80 115 94
81 115 94
81 115 94
81 115 94
80 115 94
81 115 94
81 115 94
80 115 94
81 115 94
80 114 94
80 115 94
81 115 94
80 114 94
80 115 94
80 114 94
81 115 94
80 115 94
80 115 94
80 114 94
81 115 94
81 115 94
81 115 94
80 114 94
80 114 94
80 115 94
81 115 94
80 114 93
80 115 94
80 114 94
80 114 94
80 115 94
80 114 93
80 114 94
80 114 94
81 115 93
80 114 93
80 114 94
80 114 94
80 115 94
80 114 94
80 114 94
80 115 94
80 114 94
80 114 94
80 114 94
80 114 94
80 114 93
80 114 94
80 114 94
80 114 93
80 114 93
80 114 93
80 114 93
80 114 93
80 114 93
80 114 93
80 114 93
80 114 93
80 114 93
80 114 93
80 114 93
80 114 93
80 114 93
80 114 93
80 114 93
80 114 93
80 114 93
80 114 93
80 114 93
80 114 93
79 114 93
80 114 93
80 114 93
80 114 93
80 114 93
80 114 93
80 114 93
80 114 93
80 114 93
80 114 93
80 114 93
80 114 93
80 114 93
80 114 93
80 114 93
80 114 93
80 114 93
80 114 93
80 114 93
80 114 93
80 114 93
80 114 93
79 114 93
80 114 93
80 114 93
80 114 93
80 114 93
80 114 93
80 114 93
80 114 93
80 114 93
80 114 93
80 114 93
80 114 93
80 114 93
80 114 93
80 114 93
80 114 93
80 114 93
80 114 93
80 114 93
80 114 93
80 114 93
79 114 93
80 114 93
79 113 93
82 117 95
82 117 95
82 117 95
82 117 95
82 116 95
83 117 95
83 117 95
83 117 95
82 117 95
82 117 95
82 117 95
82 117 95
83 117 95
82 117 95
82 117 95
82 117 95
83 117 95
82 117 95
82 117 95
83 117 95
82 117 95
82 117 95
82 117 95
82 117 95
83 117 95
82 117 95
83 117 95
82 117 95
82 117 95
83 117 95
83 117 95
82 117 95
82 117 95
82 117 95
82 117 95
82 117 95
82 117 95
83 117 95
82 117 95
82 117 95
82 117 95
82 117 95
82 117 95
82 117 95
82 117 95
82 117 95
82 117 95
82 117 95
82 117 95
83 117 95
82 117 95
82 117 95
82 117 95
82 117 95
83 117 95
82 117 95
82 117 95
82 117 95
82 117 95
82 117 95
82 117 95
82 117 95
83 117 95
82 117 95
82 117 95
82 117 95
83 117 95
82 117 95
82 117 95
82 117 95
83 117 95
82 117 95
82 117 95
83 117 95
83 117 95
82 117 95
83 117 95
82 117 95
82 117 95
82 117 95
82 117 95
82 117 95
82 117 95
82 117 95
82 117 95
82 117 95
82 117 95
82 117 95
83 117 95
83 117 95
82 117 95
83 117 95
83 117 95
82 117 95
83 117 95
82 117 95
82 117 95
82 117 95
82 117 95
83 117 95
83 117 95
82 117 95
82 117 95
82 117 95
82 117 95
82 117 95
82 117 95
82 117 95
83 117 95
82 117 95
82 117 95
83 117 95
83 117 95
82 117 95
82 117 95
83 117 95
82 117 95
82 117 95
82 117 95
83 117 95
82 117 95
82 117 95
82 117 95
82 117 95
83 117 95
82 117 95
82 117 95
83 117 95
82 117 95
83 117 95
82 117 95
82 117 95
82 117 95
82 117 95
82 117 95
82 117 95
82 117 95
82 117 95
82 117 95
82 117 95
83 117 95
82 117 95
83 117 95
82 117 95
82 117 95
82 117 95
82 117 95
82 117 95
83 117 95
82 117 95
82 117 95
82 117 95
82 117 95
82 117 95
82 117 95
82 117 95
82 117 95
82 117 95
83 117 95
82 117 95
82 117 95
82 117 95
83 117 95
83 117 95
82 117 95
82 117 95
82 117 95
82 116 95
82 117 95
82 117 95
82 117 95
82 117 95
83 117 95
82 117 95
82 117 95
82 117 95
82 117 95
82 117 95
82 117 95
82 117 95
82 117 95
82 117 95
82 117 95
82 117 95
82 117 95
82 116 95
82 117 95
82 117 95
82 117 95
83 117 95
82 117 95
82 117 95
82 117 95
82 117 95
82 117 95
83 117 95
82 117 95
82 117 95
82 117 95
82 117 95
82 117 95
82 117 95
82 117 95
82 117 95
82 117 95
82 117 95
82 117 95
83 117 95
82 117 95
82 117 95
82 116 95
82 117 95
82 117 95
82 116 95
82 117 95
82 117 95
82 117 95
82 117 95
82 117 95
82 117 95
82 117 95
82 116 95
82 117 95
82 117 95
82 117 95
82 117 95
82 117 95
82 116 95
82 116 95
82 117 95
82 117 95
82 116 95
82 117 95
82 117 95
82 117 95
82 116 95
82 117 95
82 117 95
82 116 95
82 117 95
82 116 95
82 117 95
82 116 95
82 117 95
82 117 95
82 117 95
82 116 95
82 117 95
82 116 95
82 116 95
82 116 95
82 117 95
82 117 95
82 117 95
82 117 95
82 117 95
82 117 95
82 117 95
82 116 95
82 117 95
82 116 95
82 117 95
82 117 95
82 117 95
82 117 95
82 116 95
82 117 95
82 116 95
82 117 95
82 116 95
82 117 95
82 116 95
82 116 95
82 116 95
82 116 95
82 116 95
82 116 95
82 116 95
82 116 95
82 117 95
82 117 95
82 117 95
82 116 95
82 116 95
82 117 95
82 116 95
82 116 95
82 117 95
82 116 95
82 116 95
82 116 95
82 116 95
82 116 95
82 116 95
82 116 95
82 116 95
81 116 95
82 116 94
81 116 94
82 116 95
82 116 95
82 116 95
82 116 95
82 116 95
82 116 95
82 116 95
81 116 94
82 116 95
82 116 95
82 116 95
82 116 95
82 116 95
82 116 95
82 116 95
82 116 95
82 116 95
82 116 95
82 116 95
82 116 95
82 116 95
82 116 95
82 116 95
82 116 95
81 116 95
82 116 95
82 116 95
82 116 95
81 116 95
82 116 94
82 116 95
82 116 94
81 116 94
82 116 94
82 116 95
82 116 95
82 116 95
82 116 94
81 116 94
81 116 94
82 116 95
82 116 95
82 116 95
81 116 95
82 116 95
82 116 95
82 116 95
82 116 95
82 116 95
81 116 95
81 116 95
82 116 95
82 116 95
81 116 95
82 116 95
82 116 94
82 116 95
81 116 95
82 116 94
81 116 94
82 116 95
81 116 94
82 116 95
81 116 95
81 115 94
82 116 95
82 116 95
81 116 95
81 116 95
81 116 94
81 116 94
81 116 95
81 115 94
81 116 95
81 116 94
81 116 95
81 115 94
81 116 95
81 116 94
82 116 95
81 116 94
81 116 94
81 115 94
81 116 95
81 115 94
81 115 94
81 116 94
81 116 94
81 115 94
81 116 94
81 115 94
81 115 94
81 116 94
81 116 94
81 116 94
81 116 94
81 116 94
81 115 94
81 115 94
81 116 94
81 116 94
81 115 94
81 115 94
81 115 94
81 115 94
81 116 94
81 115 94
81 115 94
81 116 94
81 116 94
81 116 94
81 115 94
81 116 94
81 115 94
81 116 94
81 115 94
81 115 94
81 116 94
81 116 94
81 116 94
81 115 94
81 116 94
81 116 94
81 115 94
81 115 94
81 115 94
81 115 94
81 115 94
81 115 94
81 115 94
81 115 94
81 115 94
81 115 94
81 115 94
81 115 94
81 115 94
81 115 94
81 115 94
81 115 94
81 115 94
81 115 94
81 115 94
81 116 94
81 115 94
81 115 94
81 115 94
81 115 94
81 115 94
81 115 94
81 115 94
81 115 94
81 115 94
81 115 94
81 115 94
81 115 94
81 115 94
81 115 94
81 115 94
81 115 94
81 115 94
81 115 94
81 115 94
81 115 94
81 115 94
81 115 94
81 115 94
81 115 94
81 115 94
81 115 94
81 115 94
80 114 94
81 115 94
80 115 94
81 115 94
81 115 94
81 115 94
81 115 94
81 115 94
81 115 94
81 115 94
81 115 94
80 115 94
80 115 94
80 115 94
81 115 94
81 115 94
80 115 94
81 115 94
80 115 94
80 114 94
80 115 94
80 115 94
80 115 94
81 115 94
80 115 94
80 114 93
81 115 94
80 115 94
81 115 94
80 115 94
80 115 94
80 114 94
81 115 94
81 115 94
80 114 94
81 115 94
81 115 94
81 115 94
80 115 94
80 114 94
80 115 94
80 115 94
81 115 94
80 114 94
80 115 94
80 114 94
81 115 94
81 115 93
81 115 94
80 114 94
80 114 94
80 114 93
80 115 93
80 115 94
80 114 94
80 114 94
80 114 93
80 114 94
80 114 94
80 114 94
80 114 94
80 114 94
80 114 93
80 114 93
80 114 94
80 114 94
80 114 94
80 114 93
80 114 94
80 114 93
80 114 93
80 114 93
80 114 93
80 114 93
80 114 93
80 114 93
80 114 93
80 114 93
80 114 93
80 114 93
80 114 93
80 114 93
80 114 93
80 114 93
80 114 93
80 114 93
80 114 93
80 114 93
80 114 93
80 114 93
80 114 93
80 114 93
80 114 93
80 114 93
80 114 93
80 114 93
80 114 93
80 114 93
80 114 93
80 114 93
79 114 93
80 114 93
80 114 93
80 114 93
80 114 93
80 114 93
80 114 93
80 114 93
80 114 93
80 114 93
80 114 93
80 114 93
80 114 93
80 114 93
80 114 93
80 114 93
80 114 93
80 114 93
79 113 93
80 114 93
80 114 93
80 114 93
79 114 93
80 114 93
80 114 93
80 114 93
79 114 93
79 114 93
80 114 93
79 113 93
80 114 93
83 117 95
83 117 95
82 117 95
82 117 95
82 117 95
82 117 95
82 117 95
83 117 95
82 117 95
82 117 95
82 117 95
82 117 95
82 117 95
82 117 95
82 117 95
82 117 95
83 117 95
83 117 95
82 117 95
82 117 95
83 117 95
82 117 95
82 117 95
83 117 95
82 117 95
83 117 95
82 117 95
82 117 95
82 117 95
83 117 95
82 117 95
82 117 95
82 117 95
83 117 95
82 117 95
83 117 95
82 117 95
82 117 95
83 117 95
82 117 95
82 117 95
83 117 95
82 117 95
82 117 95
83 117 95
82 117 95
83 117 95
83 117 95
82 117 95
82 117 95
82 117 95
82 117 95
83 117 95
82 117 95
82 117 95
82 117 95
82 117 95
82 117 95
82 117 95
82 117 95
82 117 95
82 117 95
83 117 95
83 117 95
82 117 95
83 117 95
82 117 95
82 117 95
83 117 95
82 117 95
83 117 95
83 118 95
82 117 95
82 117 95
82 117 95
82 117 95
83 117 95
82 117 95
82 117 95
82 117 95
82 117 95
83 117 95
83 117 95
82 117 95
82 117 95
82 117 95
82 117 95
82 117 95
82 117 95
82 117 95
82 117 95
82 117 95
82 117 95
82 117 95
83 117 95
83 117 95
82 117 95
83 117 95
83 117 95
82 117 95
83 117 95
82 117 95
82 117 95
82 117 95
83 117 95
82 117 95
83 117 95
82 117 95
82 117 95
83 117 95
82 117 95
83 117 95
82 117 95
82 117 95
83 117 95
82 117 95
83 117 95
82 117 95
83 117 95
83 117 95
82 117 95
82 117 95
83 117 95
82 117 95
83 117 95
82 117 95
82 117 95
82 117 95
82 117 95
82 117 95
83 117 95
82 117 95
83 117 95
83 117 95
83 117 95
82 117 95
83 117 95
82 117 95
82 117 95
83 117 95
83 117 95
82 117 95
82 117 95
83 117 95
83 117 95
82 117 95
82 117 95
82 117 95
82 117 95
82 117 95
82 117 95
82 117 95
83 117 95
82 117 95
82 117 95
82 117 95
82 117 95
82 117 95
82 117 95
82 117 95
83 117 95
83 117 95
83 117 95
82 117 95
83 117 95
82 117 95
83 117 95
82 117 95
82 117 95
83 117 95
83 117 95
82 117 95
82 117 95
82 117 95
82 117 95
83 117 95
82 117 95
83 117 95
82 117 95
82 117 95
83 117 95
83 117 95
82 117 95
83 117 95
83 117 95
82 117 95
82 117 95
83 117 95
82 117 95
82 117 95
82 117 95
82 117 95
82 117 95
82 117 95
82 117 95
82 117 95
82 117 95
82 117 95
82 116 95
83 117 95
82 117 95
82 117 95
82 117 95
82 117 95
82 117 95
82 117 95
82 117 95
82 117 95
82 117 95
82 116 95
82 117 95
82 117 95
82 116 95
82 117 95
82 117 95
82 117 95
82 116 95
82 117 95
82 117 95
82 117 95
82 117 95
82 117 95
82 117 95
82 117 95
82 117 95
82 117 95
82 117 95
82 117 95
82 117 95
82 117 95
82 117 95
82 117 95
82 117 95
82 117 95
82 117 95
82 117 95
82 117 95
82 117 95
82 117 95
82 116 95
82 117 95
82 117 95
82 117 95
82 117 95
82 117 95
82 117 95
82 117 95
82 116 95
82 117 95
82 117 95
82 117 95
82 117 95
82 116 95
82 116 95
82 117 95
82 117 95
82 117 95
82 117 95
82 117 95
82 116 95
82 117 95
82 117 95
82 117 95
82 117 95
82 117 95
82 117 95
82 117 95
82 116 95
82 116 95
82 117 95
82 117 95
82 116 95
82 117 95
82 116 95
82 116 95
82 116 95
82 117 95
82 116 95
82 117 95
82 116 95
82 116 95
82 116 95
82 116 95
82 117 95
82 116 95
82 117 95
82 117 95
82 116 95
82 117 95
82 116 95
82 116 95
82 116 95
82 116 95
82 116 95
82 117 95
82 116 95
81 116 95
82 117 95
82 116 95
82 116 95
82 117 95
82 116 95
82 117 95
82 116 95
82 116 95
82 116 95
82 117 95
82 116 95
82 116 95
82 116 95
82 116 95
82 116 95
82 116 95
82 116 95
82 116 95
82 116 94
82 117 95
82 116 95
82 116 95
82 116 95
82 116 95
82 116 95
81 116 95
82 116 95
82 116 95
82 116 95
82 116 95
82 116 95
82 116 95
82 116 95
82 116 95
82 116 95
82 116 95
82 116 95
82 116 95
82 116 95
81 116 95
82 116 95
82 116 94
82 116 95
82 116 95
82 116 95
82 116 95
81 116 95
82 116 95
82 116 95
81 116 94
82 116 95
82 116 95
81 116 95
82 116 95
81 116 94
82 116 95
81 116 94
82 116 95
81 116 95
82 116 94
81 116 94
81 116 95
81 116 94
82 116 94
82 116 95
81 116 95
82 116 95
81 116 94
81 116 95
82 116 95
82 116 95
81 116 94
82 116 94
81 115 94
81 116 94
82 116 94
82 116 95
81 116 94
81 116 95
81 116 95
81 116 94
81 116 94
81 116 95
81 116 94
82 116 95
81 116 94
82 116 94
81 116 95
81 116 94
81 116 95
81 116 95
81 116 94
82 116 95
81 116 95
82 116 94
81 116 95
81 116 95
81 116 94
81 115 94
82 116 94
81 116 94
81 115 94
81 115 94
82 116 94
81 116 94
81 116 94
81 116 94
81 116 94
81 116 94
81 115 94
81 115 94
81 116 94
81 116 94
81 116 94
82 116 94
81 115 94
81 116 94
81 116 94
81 115 94
81 115 94
81 116 94
81 115 94
81 115 94
81 115 94
81 116 94
81 115 94
81 115 94
81 116 94
81 115 94
81 116 94
81 115 94
81 115 94
81 115 94
81 116 94
81 116 94
81 115 94
81 115 94
81 115 94
81 115 94
81 115 94
81 115 94
81 115 94
81 115 94
81 115 94
81 115 94
81 115 94
81 115 94
81 115 94
81 115 94
81 115 94
81 115 94
81 115 94
81 115 94
81 115 94
81 115 94
81 115 94
81 115 94
81 115 94
81 115 94
81 115 94
81 115 94
81 115 94
81 115 94
81 115 94
81 115 94
81 115 94
81 115 94
81 115 94
81 115 94
81 115 94
80 115 94
81 115 94
81 115 94
81 115 94
81 115 94
81 115 94
81 115 94
80 115 94
81 115 94
81 115 94
81 115 94
81 115 94
80 115 94
81 115 94
81 115 94
81 115 94
81 115 94
81 115 94
81 115 94
81 115 94
80 115 94
81 115 94
81 115 94
80 114 94
81 115 94
80 115 94
81 115 94
80 115 94
80 115 94
81 115 94
81 115 94
80 115 94
81 115 94
80 115 94
80 115 94
81 115 94
81 115 94
80 115 94
80 114 93
81 115 94
80 115 94
80 114 93
80 114 94
81 115 94
81 115 94
81 114 93
81 115 94
80 114 94
80 115 94
81 115 94
80 115 94
80 114 94
81 115 94
80 115 94
80 115 94
80 115 94
81 115 94
80 114 93
80 115 94
80 114 93
81 115 94
80 115 93
80 114 94
80 114 94
80 114 93
80 114 93
80 114 94
80 114 94
80 114 94
80 114 93
81 115 94
80 114 93
80 114 94
80 114 94
80 114 93
80 114 94
80 114 94
80 114 93
80 114 93
80 114 93
80 114 93
80 114 93
80 114 93
80 114 93
80 114 93
80 114 93
80 114 93
80 114 93
80 114 93
80 114 93
80 114 93
80 114 93
80 114 93
80 114 93
80 114 93
80 114 93
80 114 93
80 114 93
80 114 93
80 114 93
80 114 93
80 114 93
80 114 93
80 114 93
80 114 93
80 114 93
80 114 93
80 114 93
80 114 93
79 114 93
80 114 93
80 114 93
80 114 93
80 114 93
80 114 93
80 114 93
80 114 93
80 114 93
80 114 93
80 114 93
80 114 93
80 114 93
80 114 93
80 114 93
79 113 93
79 113 93
80 114 93
80 114 93
80 114 93
79 114 93
79 114 93
80 114 93
80 114 93
83 117 95
82 117 95
82 117 95
83 117 95
83 117 95
83 117 95
82 117 95
83 117 95
82 117 95
82 117 95
83 117 95
83 117 95
82 117 95
82 117 95
83 117 95
82 117 95
82 117 95
83 117 95
82 117 95
82 117 95
83 117 95
83 117 95
83 117 95
82 117 95
82 117 95
83 117 95
82 117 95
82 117 95
82 117 95
82 117 95
83 117 95
82 117 95
83 117 95
83 117 95
83 117 95
82 117 95
83 117 95
83 117 95
82 117 95
83 117 95
82 117 95
82 117 95
83 117 95
83 117 95
83 117 95
83 117 95
83 117 95
83 117 95
82 117 95
82 117 95
83 117 95
82 117 96
83 117 96
83 117 96
82 117 96
82 117 95
83 117 96
82 117 96
82 117 96
82 117 96
82 117 96
83 117 96
82 117 95
83 117 95
83 117 96
82 117 96
83 117 96
82 117 95
83 117 95
83 117 96
83 117 96
83 117 95
82 117 96
83 117 96
82 117 96
83 117 95
83 117 96
83 117 96
83 117 96
82 117 95
82 117 96
83 117 95
82 117 95
83 117 96
83 117 95
83 117 96
82 117 95
82 117 96
82 117 96
82 117 96
82 117 96
83 117 95
83 117 96
82 117 96
82 117 96
82 117 95
82 117 95
82 117 95
83 117 96
83 117 95
83 117 96
83 117 96
83 117 96
82 117 95
83 117 96
82 117 95
83 118 96
83 117 96
83 117 96
82 117 95
83 117 96
82 117 95
83 117 96
82 117 95
83 117 95
83 117 95
83 118 96
83 117 95
83 117 95
83 117 96
83 117 96
83 117 95
83 117 96
83 117 96
83 117 96
83 117 95
83 117 96
82 117 95
82 117 96
83 117 96
83 117 95
82 117 96
83 117 96
83 117 96
82 117 96
83 117 96
82 117 95
82 117 95
83 117 95
83 117 95
83 117 95
83 118 95
82 117 95
83 117 95
83 117 95
83 117 95
82 117 95
82 117 95
82 117 95
83 117 95
83 117 95
83 117 95
83 117 95
83 117 95
82 117 95
83 117 95
82 117 95
83 117 95
82 117 95
82 117 95
83 117 95
83 117 95
83 117 95
82 117 95
82 117 95
82 117 95
82 117 95
82 117 95
82 117 95
82 117 95
83 117 95
82 116 95
83 117 95
82 117 95
82 117 95
83 117 95
82 117 95
83 117 95
82 117 95
82 117 95
82 117 95
82 117 95
83 117 95
82 117 95
83 117 95
82 117 95
83 117 95
82 117 95
83 117 95
83 117 95
82 117 95
82 117 95
82 117 95
83 117 95
82 117 95
82 117 95
82 117 95
82 117 95
83 117 95
82 117 95
82 117 95
82 117 95
83 117 95
83 117 95
82 117 95
83 117 95
83 117 95
82 117 95
82 117 95
82 117 95
82 117 95
82 117 95
82 117 95
83 117 95
82 117 95
82 117 95
82 117 95
82 117 95
82 117 95
82 117 95
82 117 95
82 117 95
83 117 95
82 117 95
82 117 95
82 117 95
82 117 95
82 117 95
82 117 95
82 117 95
82 117 95
82 117 95
83 117 95
82 117 95
82 117 95
82 117 95
82 117 95
82 116 95
82 117 95
82 117 95
82 117 95
82 116 95
82 117 95
83 117 95
82 117 95
82 117 95
82 117 95
83 117 95
82 117 95
82 117 95
82 116 95
82 117 95
82 117 95
82 117 95
82 117 95
82 117 95
82 116 95
82 117 95
82 116 95
82 117 95
82 117 95
82 117 95
82 117 95
82 117 95
82 117 95
82 117 95
82 117 95
82 117 95
82 117 95
82 116 95
82 117 95
82 117 95
82 116 95
82 117 95
82 117 95
82 116 95
82 116 95
82 117 95
82 116 95
82 117 95
82 117 95
82 117 95
82 117 95
82 116 95
82 116 95
82 116 95
82 117 95
82 117 95
82 117 95
82 116 95
82 116 95
82 117 95
81 116 94
82 116 95
82 116 95
82 116 95
82 116 95
82 116 95
82 116 95
82 116 95
82 116 95
82 117 95
82 116 95
82 116 95
82 116 95
82 117 95
82 116 95
82 116 95
82 116 95
82 116 95
82 116 95
82 116 95
82 116 95
82 116 95
82 116 95
82 116 95
82 117 95
82 116 95
81 116 95
82 116 95
82 116 95
82 116 95
82 116 95
82 116 95
82 116 95
82 116 95
82 116 95
81 116 95
82 116 95
82 116 95
82 116 95
82 116 95
82 116 95
82 116 95
82 116 95
82 116 95
82 116 95
82 116 95
82 116 95
82 116 95
82 116 95
82 116 95
82 116 95
82 116 95
82 116 95
82 116 95
82 116 95
82 116 95
82 116 95
82 116 95
82 116 95
82 116 95
82 116 95
82 116 95
82 116 95
82 116 95
81 116 95
82 116 95
82 116 95
82 116 95
82 116 94
82 116 95
81 116 94
82 116 95
81 116 95
82 116 95
81 116 95
82 116 95
82 116 95
81 115 94
82 116 95
82 116 95
81 116 95
81 116 95
82 116 95
82 116 95
81 116 94
81 116 95
81 116 94
82 116 95
81 116 95
81 116 94
82 116 94
82 116 94
81 116 95
81 116 95
81 116 94
82 116 95
81 116 94
81 116 95
81 116 95
82 116 95
82 116 94
81 116 94
81 115 94
81 116 95
82 116 95
81 116 94
81 115 94
82 116 94
81 116 95
82 116 94
81 116 94
81 116 94
81 115 94
81 116 94
81 116 94
81 115 94
81 116 94
81 116 94
81 116 94
81 116 94
81 116 94
81 116 94
81 116 94
81 116 94
81 116 94
81 116 94
81 116 94
81 116 94
81 116 94
81 115 94
81 115 94
81 115 94
81 116 94
81 115 94
81 115 94
81 115 94
81 115 94
81 116 94
81 115 94
81 115 94
81 116 94
81 115 94
81 115 94
81 115 94
81 115 94
81 116 94
81 116 94
81 115 94
81 115 94
81 115 94
81 115 94
81 115 94
81 115 94
81 116 94
81 115 94
81 115 94
81 115 94
81 115 94
81 115 94
81 115 94
80 115 94
81 115 94
81 115 94
81 115 94
81 115 94
81 115 94
81 115 94
81 115 94
81 115 94
81 115 94
81 115 94
81 115 94
81 115 94
81 115 94
81 115 94
81 115 94
81 115 94
81 115 94
80 115 94
81 115 94
81 115 94
81 115 94
81 115 94
81 115 94
81 115 94
81 115 94
81 115 94
81 115 94
81 115 94
81 115 94
81 115 94
80 115 94
81 115 94
81 115 94
81 115 94
81 115 94
81 115 94
80 115 94
81 115 94
80 115 94
80 115 94
81 115 94
80 115 94
81 115 94
81 115 94
81 115 94
80 115 94
80 115 94
80 115 94
80 115 94
80 114 94
80 115 94
81 115 94
81 115 94
80 115 94
81 115 94
81 115 94
81 115 94
80 115 94
80 115 94
80 114 94
80 115 94
80 114 94
81 115 94
81 115 94
80 115 94
80 114 94
80 115 94
80 114 94
80 114 94
80 114 94
80 115 94
80 115 94
80 114 94
81 115 94
81 115 94
80 115 94
80 114 93
80 114 94
80 114 93
80 115 94
80 115 94
80 114 94
80 115 94
80 114 93
80 114 93
80 114 93
80 114 93
80 114 94
80 114 93
80 114 94
80 114 94
80 114 94
80 114 94
80 114 93
80 114 94
80 114 93
80 114 94
80 114 93
80 114 93
81 115 93
80 114 93
80 114 93
80 114 93
80 114 93
80 114 93
80 114 93
80 114 93
80 114 93
80 114 93
80 114 93
80 114 93
80 114 93
80 114 93
80 114 93
80 114 93
80 114 93
80 114 93
80 114 93
80 114 93
80 114 93
80 114 93
80 114 93
80 114 93
80 114 93
80 114 93
80 114 93
80 114 93
80 114 93
80 114 93
80 114 93
80 114 93
80 114 93
80 114 93
80 114 93
79 114 93
80 114 93
80 114 93
80 114 93
80 114 93
80 114 93
80 114 93
80 114 93
80 114 93
80 114 93
80 114 93
80 114 93
80 114 93
83 117 95
82 117 95
83 117 95
83 117 95
83 117 95
83 117 95
82 117 95
82 117 95
82 117 95
83 117 95
82 117 95
83 117 95
83 117 95
83 117 96
83 117 96
82 117 96
83 117 96
83 117 96
82 117 95
82 117 95
83 117 96
82 117 95
83 117 96
83 117 95
83 117 95
82 117 95
83 117 96
82 117 95
83 117 96
83 117 96
82 117 95
83 117 96
83 117 96
82 117 95
83 117 96
83 117 96
82 117 96
82 117 95
82 117 96
83 117 96
83 117 95
83 117 96
83 117 96
83 117 96
83 117 96
83 117 96
82 117 95
83 117 95
83 117 95
83 117 95
83 117 96
83 117 96
82 117 95
83 117 95
83 117 95
83 117 96
82 117 96
83 117 96
83 117 95
83 117 96
83 117 96
83 117 96
83 117 96
83 117 96
83 117 96
83 117 96
82 117 96
83 117 96
82 117 95
83 117 95
83 117 96
83 117 95
82 117 95
82 117 95
83 117 95
82 117 96
82 117 95
83 117 96
82 117 95
83 117 95
82 117 95
82 117 95
83 117 95
83 118 96
82 117 96
83 117 95
83 117 95
83 117 95
83 117 96
83 117 96
83 117 96
82 117 96
82 117 95
83 117 95
82 117 95
83 117 96
83 117 96
83 117 95
83 117 96
83 117 95
82 117 95
82 117 95
83 117 95
83 118 96
83 117 96
82 117 96
82 117 96
83 117 96
82 117 96
83 117 96
83 117 95
82 117 96
83 117 96
82 117 95
82 117 95
83 117 96
83 117 96
83 118 96
83 117 96
83 117 96
83 117 95
83 117 95
83 117 95
82 117 95
83 117 95
82 117 95
83 117 95
82 117 95
83 117 96
83 117 96
83 117 96
83 117 96
83 117 95
82 117 95
82 117 95
83 117 96
83 117 96
83 117 96
83 117 96
82 117 95
83 117 96
83 117 96
82 117 95
83 117 95
83 117 95
83 117 95
83 117 96
83 117 95
82 117 96
83 117 96
82 117 95
83 117 95
82 117 96
82 117 95
82 117 95
83 117 95
83 117 96
82 117 95
82 117 96
83 117 96
82 117 95
82 117 95
82 117 95
82 117 95
83 117 96
82 117 95
82 117 96
83 117 95
82 117 95
82 117 95
83 117 96
82 117 95
83 117 95
83 117 95
82 117 95
83 117 95
82 117 95
82 117 95
82 117 95
83 117 95
82 117 95
82 117 95
82 117 95
83 117 95
83 117 95
82 117 95
82 117 95
83 117 95
82 117 95
82 117 95
82 117 95
82 117 95
82 117 95
82 117 95
82 117 95
83 117 95
83 117 95
83 117 95
82 117 95
83 117 95
83 117 95
83 117 95
82 117 95
82 117 95
82 117 95
83 117 95
82 117 95
82 117 95
82 117 95
82 117 95
83 117 95
82 117 95
82 117 95
82 117 95
82 117 95
82 117 95
82 116 95
82 117 95
82 117 95
82 117 95
82 117 95
83 117 95
83 117 95
82 117 95
82 117 95
83 117 95
82 117 95
82 117 95
82 117 95
82 117 95
82 117 95
82 117 95
82 117 95
82 117 95
82 117 95
82 117 95
82 117 95
82 117 95
82 116 95
82 116 94
82 117 95
82 117 95
82 117 95
82 117 95
82 117 95
82 117 95
83 117 95
82 117 95
82 117 95
82 117 95
82 117 95
82 117 95
82 117 95
82 117 95
82 116 95
82 117 95
82 117 95
82 117 95
82 117 95
82 117 95
82 116 95
82 117 95
82 117 95
82 117 95
82 117 95
82 117 95
82 117 95
82 117 95
82 117 95
82 117 95
82 117 95
82 117 95
82 117 95
82 117 95
82 116 95
82 117 95
82 117 95
82 117 95
82 117 95
82 117 95
82 116 95
81 116 94
82 117 95
82 117 95
82 116 95
82 116 95
82 117 95
82 117 95
82 116 95
82 116 95
82 117 95
82 117 95
82 117 95
82 116 95
82 117 95
82 117 95
82 117 95
82 117 95
82 117 95
82 116 95
82 117 95
82 116 95
82 116 95
82 116 95
82 117 95
82 116 95
82 116 95
82 116 95
82 117 95
82 116 95
82 116 95
82 116 95
82 116 95
82 116 95
82 117 95
82 116 95
82 117 95
82 116 95
82 116 95
82 116 95
82 116 95
82 117 95
82 116 95
82 116 95
82 116 95
82 116 95
82 117 95
82 116 95
82 116 95
82 116 95
82 116 95
82 117 95
82 117 95
82 116 95
82 116 95
82 116 95
82 116 95
82 117 95
82 116 95
82 116 95
81 116 95
82 117 95
81 116 94
82 116 95
82 116 95
82 116 94
81 116 95
82 116 95
82 116 95
82 116 95
81 116 95
82 116 95
82 116 95
82 116 94
81 116 95
82 116 95
82 116 95
82 116 94
82 116 95
82 116 95
81 116 95
81 116 95
81 116 95
82 116 95
81 116 95
82 116 94
82 116 94
82 116 94
81 116 94
81 116 95
81 116 95
81 116 94
82 116 95
82 116 95
82 116 95
82 116 95
82 116 95
81 116 94
82 116 95
81 116 95
81 116 95
81 116 95
81 116 95
82 116 95
81 116 94
82 116 94
82 116 95
81 116 94
81 116 95
82 116 95
81 116 94
81 116 95
81 115 94
81 116 95
81 116 94
81 116 94
81 116 94
81 116 95
81 116 94
81 115 94
81 116 95
81 116 95
81 116 94
81 116 95
81 116 94
81 115 94
81 116 95
81 115 94
81 116 95
81 116 94
81 116 94
81 116 94
81 116 94
81 116 94
81 115 94
81 115 94
81 116 94
81 115 94
81 115 94
81 115 94
81 116 94
81 116 94
81 116 94
81 115 94
81 115 94
81 116 94
81 116 94
81 115 94
81 115 94
81 116 94
81 115 94
81 116 94
81 115 94
81 116 94
81 116 94
81 116 94
81 116 94
81 116 94
81 116 94
81 116 94
81 115 94
81 115 94
81 116 94
81 115 94
81 115 94
81 115 94
81 115 94
81 115 94
81 115 94
81 115 94
81 115 94
81 115 94
81 115 94
81 115 94
81 116 94
81 115 94
81 115 94
81 115 94
81 115 94
81 115 94
81 115 94
81 115 94
81 115 94
81 115 94
81 115 94
81 115 94
81 115 94
81 115 94
81 115 94
81 115 94
80 115 94
81 115 94
81 115 94
81 115 94
81 115 94
81 115 94
81 115 94
81 115 94
81 115 94
81 115 94
81 115 94
81 115 94
81 115 94
81 115 94
81 115 94
80 115 94
81 115 94
81 115 94
80 114 94
81 115 94
81 115 94
80 115 94
80 115 94
81 115 94
81 115 93
81 115 94
81 115 94
81 115 94
81 115 94
81 115 94
80 114 94
81 115 94
81 115 94
80 115 94
81 115 94
81 115 94
81 115 94
81 115 94
80 115 94
80 115 94
81 115 94
80 115 94
81 115 94
80 114 94
80 115 94
81 115 94
81 115 94
81 115 94
80 115 94
80 115 94
80 115 94
80 114 94
81 115 94
80 114 94
80 115 94
80 114 94
80 114 93
80 115 94
80 114 94
80 114 94
80 114 94
80 114 94
80 114 94
80 115 94
80 114 93
80 114 93
81 115 94
80 114 93
80 115 94
80 114 94
80 115 94
80 114 93
80 114 93
80 114 94
80 114 94
80 115 94
80 114 94
80 114 94
80 114 94
80 114 94
80 115 94
80 114 94
80 114 94
80 114 93
80 114 93
80 114 93
80 114 93
80 114 93
80 114 93
80 114 93
80 114 93
80 114 93
80 114 93
80 114 93
80 114 93
80 114 93
80 114 93
80 114 93
80 114 93
80 114 93
80 114 93
80 114 93
80 114 93
80 114 93
80 114 93
80 114 93
80 114 93
80 114 93
80 114 93
80 114 93
80 114 93
80 114 93
80 114 93
80 114 93
80 114 93
80 114 93
80 114 93
80 114 93
80 114 93
80 114 93
80 114 93
80 114 93
80 114 93
80 114 93
80 114 93
80 114 93
80 114 93
80 114 93
80 114 93
80 114 93
83 117 96
83 117 96
83 117 95
82 117 96
83 117 96
83 117 96
83 117 96
82 117 95
82 117 95
83 117 96
83 117 96
83 117 96
83 117 95
83 117 96
83 117 96
82 117 96
82 117 96
82 117 95
82 117 96
83 117 95
82 117 96
83 117 95
82 117 96
82 117 95
83 117 96
83 117 95
83 117 95
83 117 96
83 117 96
83 117 96
82 117 95
83 117 95
83 117 96
82 117 96
83 117 96
83 117 96
83 117 96
83 117 96
83 118 96
83 117 96
83 117 96
83 117 96
82 117 95
83 117 96
83 117 95
83 117 96
82 117 95
83 117 96
83 117 95
82 117 96
83 118 96
83 118 96
83 117 96
83 118 96
83 117 96
82 117 96
83 117 96
83 117 95
82 117 95
82 117 95
83 117 95
83 118 96
83 117 95
83 117 96
83 117 96
82 117 95
83 118 96
83 117 96
83 117 96
83 117 95
83 117 96
83 117 96
83 118 96
83 117 96
83 117 96
83 117 96
82 117 95
83 117 96
83 117 95
82 117 95
83 117 95
83 117 96
83 117 96
83 117 95
83 117 95
82 117 95
83 118 96
83 117 95
83 118 96
83 117 96
82 117 95
83 117 95
82 117 95
83 117 96
83 117 95
82 117 95
82 117 95
83 117 96
82 117 96
82 117 95
83 117 96
83 117 96
82 117 95
83 117 96
83 117 95
83 117 95
83 117 95
83 117 95
83 117 96
83 117 96
83 118 96
83 118 96
83 118 96
83 117 96
83 117 96
83 117 95
83 117 95
83 117 96
83 117 96
83 118 96
83 118 96
83 117 95
83 117 95
83 117 95
83 117 95
83 117 96
83 117 96
83 117 96
83 117 95
83 117 95
83 118 96
83 117 95
82 117 95
82 117 96
82 117 95
83 117 95
83 117 95
82 117 95
82 117 95
83 117 95
83 117 96
83 117 96
82 117 95
83 118 96
82 117 96
83 117 96
83 117 95
83 117 96
83 117 96
83 117 95
83 117 95
83 117 95
83 117 95
83 117 95
83 118 96
83 117 95
83 117 95
82 117 95
83 117 95
83 117 95
83 117 95
83 117 95
83 117 95
82 117 95
83 117 96
83 117 95
83 117 96
83 117 96
82 117 96
82 117 95
83 117 95
83 117 95
82 117 95
83 117 95
82 117 95
83 117 96
82 117 95
82 117 96
83 117 95
82 117 95
83 117 95
82 117 95
83 118 95
82 117 95
83 117 95
83 117 96
82 117 96
82 117 95
83 117 95
82 117 96
83 117 95
82 117 95
82 117 95
83 117 95
82 117 95
82 117 96
83 117 95
83 117 95
83 117 95
83 117 95
83 117 95
82 117 95
83 117 95
83 117 95
83 117 95
82 117 95
83 117 95
82 117 95
82 117 95
83 117 95
83 117 95
82 117 95
82 117 95
82 117 95
82 117 95
82 117 95
83 117 95
82 117 95
82 117 95
82 117 95
83 117 95
83 117 95
82 117 95
82 117 95
82 117 95
82 117 95
82 117 95
82 117 95
82 117 95
82 116 95
82 117 95
82 117 95
82 117 95
82 117 95
83 117 95
82 117 95
83 117 95
82 117 95
82 117 95
82 117 95
82 117 95
82 117 95
82 117 95
82 117 95
82 117 95
82 117 95
82 117 95
82 117 95
82 117 95
82 117 95
82 117 95
82 117 95
82 117 95
82 117 95
82 117 95
82 117 95
82 117 95
83 117 95
82 117 95
82 117 95
82 117 95
82 117 95
83 117 95
82 116 95
76 108 88
71 99 82
65 89 75
56 75 66
56 74 65
51 66 59
54 71 63
58 77 67
59 79 68
68 94 78
70 99 82
78 111 91
82 116 95
82 117 95
82 117 95
82 117 95
82 117 95
82 117 95
82 117 95
82 116 95
82 117 95
82 117 95
82 116 95
82 117 95
82 117 95
82 117 95
82 117 95
82 116 95
82 117 95
82 117 95
82 117 95
82 117 95
82 117 95
82 117 95
82 116 95
82 117 95
82 117 95
82 117 95
82 117 95
82 117 95
82 117 95
82 117 95
82 116 95
82 116 95
82 116 95
82 116 95
82 116 95
82 117 95
82 117 95
82 116 95
82 116 95
82 117 95
82 117 95
82 117 95
82 116 95
82 116 95
82 116 95
82 116 95
82 116 95
82 116 94
82 116 95
82 117 95
82 116 95
82 117 95
82 116 95
82 116 95
82 117 95
82 116 95
82 116 95
82 116 95
82 116 95
82 116 95
82 116 95
82 116 95
82 116 95
82 116 95
82 116 95
82 116 95
82 116 95
82 116 95
82 116 95
82 117 95
82 116 95
82 116 95
82 116 95
82 116 95
82 116 95
81 116 95
82 116 95
82 116 95
82 116 95
82 116 95
82 116 95
82 116 95
82 116 95
82 116 95
82 116 95
82 116 94
82 116 95
81 116 94
82 116 95
82 116 95
82 116 95
81 116 95
82 116 95
81 116 94
81 116 95
82 116 95
82 116 95
81 116 94
82 116 95
81 116 95
82 116 95
82 116 95
82 116 95
82 116 95
81 116 95
82 116 95
82 116 95
81 116 95
81 116 95
82 116 94
82 116 95
82 116 95
82 116 95
81 116 94
81 116 94
82 116 95
81 116 94
81 116 94
81 116 94
81 116 94
82 116 94
81 116 94
81 116 94
82 116 94
82 116 95
82 116 94
81 115 94
81 116 94
81 115 94
81 116 94
81 116 95
82 116 94
81 116 94
81 116 94
81 116 94
81 116 95
82 116 94
81 115 94
81 116 94
82 116 95
81 116 94
82 116 94
81 116 94
81 115 94
81 116 94
81 116 94
81 115 94
81 116 94
81 116 94
81 116 94
82 116 94
81 115 94
81 116 94
81 115 94
81 116 94
81 115 94
81 116 94
81 115 94
81 115 94
81 115 94
81 116 94
81 116 94
81 115 94
81 115 94
82 116 94
81 115 94
81 116 94
81 115 94
81 115 94
81 116 94
81 115 94
81 115 94
81 115 94
81 115 94
81 115 94
81 115 94
81 116 94
81 115 94
81 115 94
81 115 94
81 115 94
81 115 94
81 115 94
81 115 94
81 115 94
81 115 94
81 115 94
81 115 94
81 115 94
81 115 94
81 115 94
81 115 94
81 115 94
81 115 94
81 115 94
81 115 94
81 115 94
81 115 94
81 115 94
81 115 94
81 115 94
81 115 94
81 115 94
81 115 94
81 115 94
80 115 94
81 115 94
81 115 94
81 115 94
81 115 94
80 115 94
81 115 94
81 115 94
81 115 94
81 115 94
81 115 94
81 115 94
80 115 94
81 115 94
81 115 94
81 115 94
81 115 94
81 115 94
81 115 94
81 115 94
81 115 94
81 115 94
81 115 94
80 115 94
81 115 94
81 115 94
80 115 94
81 115 94
80 115 94
81 115 94
81 115 94
81 115 94
81 115 94
80 115 94
80 115 94
81 115 94
81 115 94
80 114 94
80 114 94
81 115 94
80 114 94
80 115 94
80 115 94
80 114 94
81 115 94
80 115 94
80 115 94
80 114 94
80 114 94
81 115 94
81 115 94
80 115 94
81 115 94
80 114 94
80 115 94
80 115 94
80 115 94
80 115 94
80 114 94
80 115 94
80 114 94
80 114 94
81 115 94
80 114 94
80 114 94
80 114 94
80 115 94
80 115 94
80 114 94
80 114 93
80 114 94
80 114 94
80 114 93
80 114 94
80 114 94
80 114 94
80 115 94
80 114 93
80 114 94
80 114 94
80 114 93
80 114 93
80 114 93
80 114 93
80 114 93
80 114 93
80 114 93
80 114 93
80 114 93
80 114 93
80 114 93
80 114 93
80 114 93
80 114 93
80 114 93
80 114 93
80 114 93
80 114 93
80 114 93
80 114 93
80 114 93
80 114 93
80 114 93
80 114 93
80 114 93
80 114 93
80 114 93
80 114 93
80 114 93
80 114 93
80 114 93
80 114 93
80 114 93
80 114 93
80 114 93
80 114 93
80 114 93
80 114 93
80 114 93
83 118 96
83 117 96
83 117 96
83 117 96
83 117 96
83 117 96
82 117 95
83 117 96
82 117 96
83 117 95
82 117 95
83 117 95
83 117 96
83 117 95
83 117 95
82 117 96
82 117 95
83 117 95
83 118 96
83 117 96
83 118 96
83 117 95
83 118 96
83 118 96
82 117 96
83 117 96
82 117 96
82 117 95
83 118 96
83 117 96
83 118 96
83 117 96
83 117 95
83 117 96
83 117 96
83 118 95
83 118 96
83 117 95
83 117 96
83 117 96
83 117 96
83 117 95
83 117 96
82 117 96
83 117 96
83 117 96
82 117 96
83 117 96
83 117 96
83 117 96
83 118 96
83 117 96
82 117 96
83 118 96
83 117 96
83 117 96
83 118 96
83 118 96
83 118 96
83 117 96
83 117 96
83 118 96
83 117 96
83 117 96
83 118 96
83 118 96
83 118 96
83 118 96
83 118 96
83 117 96
83 117 96
83 117 96
83 118 96
82 117 96
83 117 96
83 118 96
83 118 96
83 117 96
83 117 96
83 118 96
83 117 96
83 117 96
83 117 96
83 117 96
83 117 96
82 117 96
83 117 96
83 117 96
83 117 96
83 118 96
83 117 96
83 117 96
82 117 96
83 117 96
83 118 96
83 117 95
83 118 96
83 117 96
83 117 96
83 117 96
83 118 96
82 117 95
83 118 96
83 117 96
83 117 95
83 117 96
83 118 96
83 117 96
83 118 96
83 118 96
83 117 96
83 118 96
83 117 96
83 117 96
83 117 96
82 117 96
83 117 96
83 117 96
83 117 96
83 117 96
83 117 96
83 117 96
83 118 96
83 118 96
82 117 96
83 117 96
83 117 96
83 118 96
83 117 95
82 117 96
83 118 96
83 117 96
82 117 96
83 118 96
83 118 96
83 117 96
83 118 96
83 118 96
83 117 95
83 117 95
83 118 96
83 117 95
83 117 96
83 117 96
82 117 95
83 117 95
83 117 95
83 117 96
83 117 96
82 117 95
83 117 96
83 117 95
83 117 96
83 117 96
83 117 96
83 117 95
83 117 96
83 117 96
83 117 96
83 117 96
83 117 95
83 118 96
82 117 96
83 118 96
83 117 96
82 117 96
82 117 95
83 117 95
83 117 96
83 117 95
82 117 95
83 118 96
83 117 96
83 117 96
82 117 95
82 117 95
83 117 95
83 117 96
82 117 96
83 117 96
82 117 95
83 117 95
83 117 96
83 117 95
83 117 96
82 117 95
83 117 96
83 117 96
83 118 96
83 117 95
83 117 95
82 117 95
83 117 95
82 117 96
83 117 95
83 117 95
83 117 96
83 117 96
83 117 96
83 117 96
82 117 96
83 117 95
83 117 96
82 117 95
83 117 96
83 117 95
82 117 96
83 117 95
82 117 95
82 117 95
82 117 96
83 117 96
83 117 95
82 117 95
82 117 95
83 117 95
83 117 95
82 117 95
82 117 95
83 117 95
83 117 95
83 117 95
83 117 95
82 117 95
82 117 95
82 117 95
83 117 95
82 117 95
83 117 95
83 117 95
82 117 95
82 116 95
82 117 95
82 117 95
82 117 95
82 117 95
83 117 95
83 117 95
82 117 95
82 117 95
82 117 95
82 117 95
83 117 95
82 117 95
82 117 95
82 117 95
82 117 95
82 117 95
83 117 95
82 117 95
82 116 95
82 117 95
82 117 95
82 117 95
82 117 95
82 117 95
83 117 95
82 117 95
82 117 95
82 117 95
82 116 95
76 107 88
63 86 73
47 59 55
38 41 45
38 40 44
38 41 44
38 41 44
38 41 44
38 40 44
37 40 44
37 40 44
37 40 44
37 40 44
36 39 43
38 44 46
48 61 56
66 91 77
78 110 90
82 116 95
82 117 95
82 117 95
82 117 95
82 117 95
82 117 95
82 117 95
82 117 95
83 117 95
82 117 95
82 117 95
82 117 95
82 117 95
82 117 95
82 117 95
82 117 95
82 116 95
82 117 95
82 117 95
82 117 95
82 116 95
82 116 95
82 117 95
82 117 95
82 117 95
82 117 95
82 117 95
82 117 95
82 117 95
82 117 95
82 117 95
82 117 95
82 117 95
81 116 95
82 117 95
82 116 95
82 117 95
82 117 95
82 117 95
82 116 95
82 116 95
82 117 95
82 117 95
82 117 95
82 117 95
82 116 95
82 116 94
82 117 95
82 116 95
82 116 95
82 116 95
82 116 95
82 116 95
82 116 95
82 117 95
82 117 95
82 117 95
82 116 95
82 116 95
82 116 95
82 116 95
82 116 95
82 116 95
82 116 95
82 116 95
82 117 95
82 117 95
82 116 95
82 116 95
82 116 95
82 117 95
82 116 95
82 116 95
82 116 94
82 116 95
82 116 95
82 116 95
82 116 95
82 116 95
82 116 95
82 116 95
82 116 95
82 116 95
82 116 95
82 116 95
81 116 95
82 116 95
82 116 95
82 116 95
82 116 94
82 116 95
82 116 95
82 116 95
82 116 94
82 116 95
82 116 95
82 116 95
82 116 95
81 116 94
82 116 95
82 116 95
82 116 95
82 116 95
82 116 95
81 116 94
82 116 95
82 116 95
81 116 95
81 116 95
82 116 95
82 116 95
82 116 95
82 116 95
81 116 94
81 116 95
82 116 95
81 116 94
82 116 95
82 116 95
82 116 94
81 116 94
82 116 95
81 116 94
82 116 95
81 116 95
81 116 94
81 116 95
81 116 95
81 116 95
81 116 94
82 116 94
81 116 95
81 116 95
81 116 95
82 116 95
81 116 95
81 116 94
81 115 94
81 116 95
82 116 95
81 116 95
82 116 95
81 116 94
81 115 94
81 116 94
82 116 94
82 116 94
81 116 94
81 116 94
81 115 94
81 116 94
81 116 94
81 116 94
81 115 94
81 115 94
81 116 94
81 116 94
81 116 94
81 116 94
81 115 94
81 116 94
81 116 94
81 115 94
81 115 94
81 115 94
81 115 94
81 115 94
81 115 94
81 115 94
81 116 94
81 116 94
81 115 94
81 115 94
81 116 94
81 116 94
81 115 94
81 115 94
81 115 94
81 115 94
81 115 94
81 115 94
81 115 94
81 115 94
81 115 94
81 115 94
81 115 94
81 115 94
81 115 94
81 115 94
81 115 94
81 115 94
81 115 94
81 115 94
81 115 94
81 115 94
81 115 94
81 115 94
81 115 94
81 115 94
81 115 94
81 115 94
81 115 94
81 115 94
81 115 94
81 115 94
81 115 94
81 115 94
81 115 94
81 115 94
81 115 94
81 115 94
81 115 94
80 115 94
81 115 94
81 115 94
81 115 94
81 115 94
81 115 94
81 115 94
81 115 94
81 115 94
80 115 94
81 115 94
81 115 94
81 115 94
81 115 94
81 115 94
81 115 94
81 115 94
81 115 94
81 115 94
81 115 94
80 115 94
81 115 94
81 115 94
80 115 94
81 115 94
81 115 94
80 115 94
80 115 94
81 115 94
81 115 94
80 115 94
80 115 94
80 115 94
80 115 94
80 115 94
80 115 94
80 115 94
80 115 94
80 115 94
81 115 94
81 115 94
80 114 94
80 115 94
80 115 94
80 114 94
80 114 94
80 115 94
80 114 94
80 115 94
80 115 94
80 115 94
80 114 94
80 115 94
80 115 94
80 114 94
80 114 94
80 114 94
80 115 94
80 114 94
80 114 93
80 115 94
80 115 94
80 114 94
80 114 93
80 114 93
80 114 94
80 114 94
80 114 93
80 115 94
80 114 93
80 114 94
80 114 94
80 114 94
80 114 94
80 114 94
80 114 93
80 114 93
80 114 93
80 114 93
80 114 93
80 114 93
80 114 93
80 114 93
80 114 93
80 114 93
80 114 93
80 114 93
80 114 93
80 114 93
80 114 93
80 114 93
80 114 93
80 114 93
80 114 93
80 114 93
80 114 93
80 114 93
80 114 93
80 114 93
79 114 93
80 114 93
80 114 93
80 114 93
80 114 93
80 114 93
80 114 93
80 114 93
80 114 93
80 114 93
83 117 96
83 117 95
83 118 96
83 117 95
83 117 96
83 118 96
82 117 95
82 117 96
83 118 96
83 117 96
83 117 96
83 117 96
83 117 96
83 118 96
83 117 96
83 117 96
83 117 96
83 117 96
83 118 96
83 118 96
83 118 96
83 117 96
83 118 96
83 118 96
83 118 96
83 118 96
83 118 96
82 117 96
83 118 96
83 118 96
83 117 96
83 118 96
83 117 95
83 117 96
83 118 96
83 118 96
83 118 96
83 117 96
82 117 96
83 118 96
82 117 96
83 117 96
83 117 96
83 117 96
83 118 96
83 117 95
83 118 96
83 118 96
83 118 96
83 117 95
83 117 96
82 117 95
83 117 96
83 118 96
83 118 96
83 118 96
83 117 96
83 118 96
83 118 96
83 118 96
83 117 96
83 117 96
83 117 96
83 118 96
82 117 96
83 118 96
83 117 96
83 117 96
83 118 96
83 117 96
83 118 96
83 118 96
83 118 96
83 118 96
83 118 96
83 118 96
83 117 96
83 118 96
83 118 96
83 118 96
83 117 96
83 118 96
83 117 96
83 117 95
83 117 96
82 117 96
83 118 96
83 117 96
83 118 96
83 118 96
83 118 96
83 117 96
83 118 96
83 118 96
83 117 96
83 118 96
83 118 96
83 118 96
83 118 96
83 117 96
83 118 96
83 117 96
83 117 95
83 117 96
83 117 95
83 118 96
83 118 96
83 118 96
83 118 96
83 117 96
83 117 96
83 117 95
83 117 95
83 117 96
83 117 95
83 118 96
83 118 96
83 118 96
83 117 96
83 117 95
83 117 96
83 117 96
83 117 96
83 117 96
83 117 96
83 118 96
83 118 96
83 117 95
83 118 96
83 117 95
83 118 96
83 118 96
83 118 96
83 117 96
83 117 96
82 117 95
83 118 96
83 118 96
83 118 96
83 118 96
83 118 96
83 118 96
83 118 96
83 118 96
83 118 96
83 117 96
83 118 96
83 117 96
83 118 96
83 117 96
83 118 96
83 117 96
83 118 96
83 118 96
83 118 96
83 118 96
83 117 96
83 117 96
83 117 96
83 117 96
82 117 96
83 118 96
83 118 96
83 117 96
82 117 96
82 117 95
83 117 96
82 117 96
83 118 96
83 117 96
83 117 95
82 117 95
83 117 95
83 117 95
82 117 95
83 118 95
83 117 95
83 117 96
83 117 95
82 117 95
82 117 95
83 117 96
82 117 95
83 117 96
83 117 95
83 117 95
83 117 95
82 117 96
83 118 96
83 117 96
83 117 95
82 117 95
83 117 96
83 117 96
83 118 96
83 117 96
83 117 96
83 117 96
83 118 95
83 118 96
83 117 96
82 117 95
82 117 95
83 117 95
83 117 96
83 117 96
83 117 96
83 117 96
82 117 95
83 117 95
83 117 96
83 117 96
82 117 95
82 117 95
82 117 95
82 117 95
82 117 95
82 117 95
83 117 95
82 117 95
82 117 95
82 117 95
82 117 95
82 116 95
83 117 95
83 117 95
82 117 95
82 117 95
83 117 96
82 117 95
82 117 96
82 117 95
83 117 95
83 117 95
82 117 95
82 117 95
83 117 95
82 117 95
82 117 95
82 117 95
82 117 95
82 117 95
82 117 95
83 117 95
82 117 95
82 117 95
82 117 95
82 116 95
83 117 95
83 117 95
83 117 95
82 117 95
82 117 95
83 117 95
82 117 95
82 117 95
83 117 95
82 117 95
81 115 94
69 96 80
50 63 57
38 41 45
38 41 45
38 41 45
38 41 45
38 41 45
38 41 45
39 41 45
38 41 45
38 41 45
38 41 45
38 41 45
38 41 45
37 40 44
37 40 44
37 40 44
36 39 43
36 39 43
36 41 43
50 67 59
72 102 84
82 117 95
82 117 95
83 117 95
82 117 95
82 117 95
82 117 95
82 116 95
82 117 95
82 117 95
82 117 95
82 117 95
82 116 95
82 117 95
82 117 95
82 117 95
82 116 95
82 116 95
82 117 95
82 117 95
82 117 95
82 116 95
82 117 95
82 117 95
83 117 95
82 117 95
82 116 95
82 117 95
82 117 95
82 117 95
82 117 95
82 116 95
82 117 95
82 116 95
82 117 95
82 117 95
82 117 95
82 116 95
82 117 95
82 116 95
82 116 95
82 117 95
82 116 95
82 116 95
82 117 95
82 117 95
82 116 95
82 116 95
82 117 95
82 117 95
82 117 95
82 116 95
82 116 95
82 116 95
82 116 95
82 116 95
82 116 95
82 116 95
82 117 95
82 116 95
82 117 95
82 116 95
82 117 95
82 116 95
82 116 95
82 116 95
82 116 95
82 116 95
82 116 94
82 116 95
82 116 95
82 117 95
82 116 95
82 116 95
82 116 95
82 117 95
82 117 95
82 116 95
82 116 95
82 116 95
82 116 95
82 116 95
82 116 95
82 116 95
82 116 95
82 116 95
82 116 95
82 116 95
82 116 95
82 116 95
82 116 95
82 116 95
81 116 94
82 116 95
82 116 95
82 116 95
82 116 95
82 116 95
81 116 95
82 116 95
82 116 95
82 116 95
81 116 95
81 116 95
82 116 95
82 116 95
82 116 95
81 116 95
82 116 95
82 116 95
82 116 95
81 116 95
82 116 95
81 116 95
82 116 95
82 116 95
82 116 95
81 116 95
81 116 94
82 116 95
81 116 95
82 116 95
82 116 95
81 116 95
81 116 95
81 116 94
81 115 94
82 116 95
81 116 95
81 116 95
82 116 94
82 116 94
82 116 95
81 116 94
81 116 95
81 116 94
81 116 95
81 116 95
81 116 95
81 116 94
82 116 95
81 116 94
81 116 94
81 116 94
81 116 95
81 116 94
81 116 95
81 116 95
81 116 95
82 116 94
81 116 94
81 115 94
81 115 94
81 116 94
81 116 94
81 115 94
82 116 94
81 116 94
81 116 94
81 115 94
81 115 94
81 115 94
81 116 94
81 116 94
81 116 94
81 116 94
81 115 94
81 116 94
81 116 94
81 116 94
81 115 94
81 115 94
81 115 94
81 116 94
81 116 94
81 116 94
81 116 94
81 115 94
81 115 94
81 115 94
81 115 94
81 115 94
81 115 94
81 116 94
81 115 94
81 115 94
81 115 94
81 115 94
81 115 94
81 115 94
81 115 94
81 115 94
81 115 94
81 115 94
81 115 94
81 115 94
81 115 94
81 115 94
81 115 94
81 115 94
81 115 94
81 115 94
81 115 94
81 115 94
81 115 94
81 115 94
81 115 94
80 115 94
81 115 94
81 115 94
81 115 94
81 115 94
81 115 94
81 115 94
80 115 94
81 115 94
81 115 94
81 115 94
81 115 94
81 115 94
81 115 94
81 115 94
81 115 94
80 115 94
81 115 93
81 115 94
81 115 94
80 115 94
80 115 94
80 115 94
81 115 94
81 115 94
81 115 94
81 115 94
80 115 94
80 114 93
81 115 94
80 115 94
81 115 94
81 115 94
81 115 94
80 114 94
80 115 94
81 115 94
80 114 93
81 115 94
80 115 94
81 115 94
80 115 94
81 115 94
81 115 94
80 115 94
81 115 94
80 115 94
80 115 94
80 115 94
81 115 94
80 115 94
81 115 94
80 114 94
80 114 93
80 115 94
80 114 94
80 115 94
80 115 94
80 114 94
80 115 94
80 115 94
80 115 94
80 114 93
80 114 94
80 115 94
80 114 94
80 115 93
80 114 94
80 114 94
80 114 94
80 114 94
80 114 94
80 114 93
80 114 93
80 114 93
80 114 94
80 114 93
80 114 93
80 114 93
80 114 93
80 114 93
80 114 93
80 114 94
80 114 93
81 115 94
80 114 93
80 114 93
80 114 93
80 114 93
80 114 93
80 114 93
80 114 93
80 114 93
80 114 93
80 114 93
80 114 93
80 114 93
80 114 93
80 114 93
80 114 93
80 114 93
80 114 93
80 114 93
80 114 93
80 114 93
80 114 93
80 114 93
80 114 93
80 114 93
80 114 93
80 114 93
80 114 93
80 114 93
83 117 96
83 118 96
83 118 96
83 117 95
83 118 96
83 118 96
83 118 96
82 117 95
83 117 95
83 117 96
83 118 96
83 117 96
83 118 96
83 118 96
83 118 96
83 118 96
83 118 96
83 117 96
83 117 96
83 118 96
83 117 96
83 118 96
83 118 96
83 118 96
83 118 96
83 118 96
83 117 96
83 118 96
83 117 96
83 118 96
83 117 96
83 118 96
83 118 96
83 118 96
83 118 96
83 117 96
83 117 95
83 118 96
83 117 96
83 118 96
83 118 96
83 118 96
82 117 96
83 117 96
83 118 96
83 118 96
83 118 96
83 118 96
83 118 96
83 118 96
83 118 96
83 117 96
83 117 96
83 118 96
83 118 96
83 118 96
83 117 96
83 118 96
83 118 96
83 118 96
83 117 96
83 117 96
83 117 95
83 118 96
83 118 96
83 118 96
83 118 96
83 117 95
83 118 96
83 118 96
83 118 96
83 118 96
83 118 96
83 117 96
83 118 96
83 118 96
83 118 96
83 117 96
83 118 96
83 118 96
83 118 96
83 118 96
83 118 96
83 117 96
83 118 96
83 118 96
83 118 96
83 118 96
83 118 96
83 117 96
83 118 96
83 117 96
83 118 96
83 117 96
83 118 96
82 117 95
83 118 96
83 118 96
83 118 96
83 118 96
83 117 96
83 118 96
83 118 96
83 118 96
83 118 96
83 118 96
83 118 96
83 118 96
83 118 96
83 118 96
83 117 96
83 117 96
83 117 95
83 118 96
83 118 96
83 117 96
83 117 95
83 118 95
83 117 95
83 117 96
83 117 95
83 117 96
82 117 95
83 118 96
83 118 96
83 118 96
83 117 95
83 117 95
83 118 96
83 118 96
83 118 96
83 118 96
83 117 96
83 117 96
83 117 96
83 118 96
83 117 96
83 118 96
83 118 96
83 118 96
83 118 96
83 117 96
83 118 96
83 117 96
83 118 96
83 117 96
83 117 96
82 117 95
83 117 96
83 117 96
83 118 96
83 117 95
83 117 96
83 118 96
83 118 96
83 118 96
83 118 96
83 117 95
83 117 96
83 118 96
83 117 96
83 117 95
83 117 96
83 118 96
83 118 96
83 117 95
83 118 96
83 118 96
83 117 96
83 118 96
83 117 95
83 117 96
83 118 96
83 117 96
83 117 95
83 117 96
83 118 96
83 117 96
83 118 96
82 117 95
83 117 96
82 117 95
83 117 96
83 117 96
83 117 95
83 117 96
83 118 96
83 118 96
82 117 95
83 117 96
83 118 96
83 118 96
83 117 96
82 117 96
83 117 96
83 117 96
83 118 96
83 118 96
83 117 96
83 117 95
83 117 95
82 117 95
83 117 96
83 117 96
83 118 96
83 117 95
83 117 96
83 117 95
82 117 95
83 117 95
82 117 95
83 117 95
82 117 95
83 117 95
83 117 96
82 117 95
83 117 95
83 117 95
83 117 95
83 117 96
82 117 95
83 117 95
83 117 96
82 117 95
82 117 95
83 117 96
82 117 95
83 117 95
83 117 95
82 117 95
82 117 96
83 117 95
83 117 95
82 117 95
83 118 96
83 117 95
82 117 96
82 117 95
83 117 95
82 117 95
82 116 95
83 117 95
83 117 95
82 117 95
83 117 96
83 117 96
82 117 95
83 117 95
82 117 95
82 117 95
82 117 95
82 117 95
82 117 95
82 117 95
83 117 95
82 117 95
82 117 95
69 95 79
48 61 56
38 41 45
39 41 45
39 42 45
39 42 46
39 42 46
39 42 46
39 42 46
39 42 46
39 42 46
39 42 46
39 42 46
39 41 46
38 41 45
38 41 45
38 41 45
38 41 45
37 40 44
37 40 44
37 39 44
36 39 43
35 38 42
35 38 42
54 73 64
77 109 89
82 117 95
82 117 95
82 117 95
82 117 95
82 117 95
82 117 95
82 117 95
82 116 95
82 117 95
82 117 95
82 117 95
82 117 95
82 117 95
82 117 95
82 117 95
82 116 95
82 117 95
82 117 95
82 117 95
82 117 95
82 117 95
82 117 95
82 117 95
82 116 95
82 117 95
82 116 95
82 116 95
82 117 95
82 116 95
82 116 94
82 116 95
82 116 95
82 117 95
82 117 95
82 116 95
82 117 95
82 116 95
82 117 95
82 116 95
82 116 95
82 117 95
82 116 95
82 116 95
82 116 95
82 117 95
82 116 95
82 117 95
82 116 95
82 117 95
82 117 95
82 116 95
82 116 95
82 116 95
82 117 95
82 116 95
82 116 95
82 116 95
82 117 95
82 117 95
82 116 95
82 116 95
82 116 95
82 117 95
82 116 95
82 116 95
82 117 95
82 116 95
82 116 94
82 116 95
82 116 95
82 117 95
82 116 95
82 116 95
82 117 95
82 116 94
82 116 95
82 116 95
82 116 95
82 116 95
82 116 94
82 116 95
82 116 95
82 117 95
82 116 95
82 117 95
82 116 95
82 116 95
81 116 95
82 116 95
81 116 95
82 116 95
82 116 94
82 116 95
82 116 95
82 116 95
82 116 95
81 116 95
82 116 95
82 116 95
82 116 95
82 116 95
82 116 95
81 116 95
81 116 95
81 116 95
82 116 95
82 116 95
82 116 95
81 116 95
81 116 95
82 116 95
81 116 95
81 116 95
82 116 95
82 116 95
82 116 95
82 116 95
82 116 95
81 116 94
81 116 95
81 116 94
82 116 95
81 116 95
82 116 95
81 116 95
81 116 95
81 116 94
81 116 94
81 116 95
82 116 95
81 116 94
81 115 94
82 116 95
81 116 94
82 116 94
81 116 94
81 116 94
82 116 94
82 116 94
81 116 94
82 116 94
81 116 94
82 116 95
82 116 94
81 116 94
81 115 94
81 116 94
81 116 95
81 116 94
82 116 95
81 116 95
81 116 94
81 116 95
81 116 94
81 116 94
81 116 94
81 115 94
81 116 94
81 115 94
81 116 94
81 116 94
81 116 94
81 115 94
81 116 94
81 115 94
81 116 94
81 116 94
81 115 94
81 115 94
81 116 94
81 116 94
81 115 94
81 115 94
81 115 94
81 115 94
81 116 94
81 115 94
81 115 94
81 115 94
81 115 94
81 115 94
81 115 94
81 115 94
81 115 94
81 115 94
81 115 94
81 115 94
81 115 94
81 115 94
81 115 94
81 115 94
81 115 94
81 115 94
81 115 94
81 115 94
81 115 94
81 116 94
81 115 94
81 115 94
80 115 94
81 115 94
81 115 94
81 115 94
81 115 94
81 115 94
81 115 94
81 115 94
81 115 94
81 115 94
81 115 94
81 115 94
81 115 94
81 115 94
81 115 94
81 115 94
81 115 94
81 115 94
81 115 94
81 115 94
81 115 94
81 115 94
81 115 94
81 115 94
81 115 94
81 115 94
81 115 94
81 115 94
81 115 94
81 115 94
81 115 94
81 115 94
81 115 94
81 115 94
81 115 94
81 115 94
81 115 94
80 114 94
81 115 94
81 115 94
81 115 94
81 115 94
80 115 94
81 115 94
80 115 94
81 115 94
80 114 94
81 115 94
80 115 94
81 115 94
80 115 94
81 115 94
80 115 94
81 115 94
80 115 94
80 114 93
81 115 94
80 114 94
81 115 94
81 115 94
80 115 94
80 115 94
80 115 94
80 114 94
81 115 94
80 114 94
80 115 94
80 114 94
81 115 94
80 114 94
80 115 94
80 115 94
80 114 94
80 115 94
80 114 93
80 114 93
80 115 94
80 115 94
80 114 93
80 115 94
80 115 94
80 115 94
80 114 94
80 114 94
80 114 93
80 114 93
80 114 94
80 114 93
80 114 94
80 114 94
80 114 93
80 114 93
80 114 93
80 114 93
80 114 94
80 114 93
80 114 93
80 114 93
80 114 93
80 114 93
80 114 93
80 114 93
80 114 93
80 114 93
80 114 93
80 114 93
80 114 93
80 114 93
80 114 93
80 114 93
80 114 93
80 114 93
80 114 93
80 114 93
80 114 93
80 114 93
80 114 93
80 114 93
83 118 96
83 118 96
83 118 96
83 118 96
83 118 96
83 118 96
83 117 96
83 118 96
83 118 96
83 118 96
83 118 96
83 117 96
82 117 95
83 118 96
83 118 96
83 118 96
83 118 96
83 118 96
83 117 95
83 118 96
83 118 96
83 118 96
83 118 96
83 118 96
83 118 96
83 118 96
83 118 96
83 118 96
83 118 96
83 118 96
83 118 96
83 118 96
83 117 96
83 118 96
83 118 96
83 118 96
83 118 96
83 118 96
83 117 96
83 118 96
83 118 96
83 118 96
83 117 95
83 118 96
83 118 96
83 118 96
83 117 95
83 118 96
83 118 96
83 118 96
83 118 96
83 118 96
83 117 95
83 117 96
83 118 96
83 118 96
83 118 96
83 118 96
83 117 96
83 118 96
83 118 96
83 118 96
83 118 96
83 118 96
83 118 96
83 118 96
83 117 96
83 118 96
83 118 96
83 117 96
83 118 96
83 117 96
83 118 96
83 118 96
83 118 96
83 118 96
83 118 96
83 118 96
83 118 96
83 118 96
83 118 96
82 117 96
83 117 96
83 118 96
83 118 96
83 118 96
83 118 96
83 118 96
83 118 96
83 117 96
83 118 96
83 118 96
83 118 96
83 117 96
83 118 96
83 118 96
83 118 96
83 118 96
83 118 96
83 118 96
83 118 96
83 118 96
83 118 96
83 117 96
83 118 96
83 118 96
83 118 96
83 118 96
83 118 96
83 118 96
83 117 96
83 117 96
83 118 96
83 117 96
83 118 96
83 118 96
83 118 96
83 118 96
83 118 96
83 117 96
83 118 96
83 118 96
83 118 96
83 118 96
83 118 96
83 117 95
83 117 96
83 118 96
83 117 96
83 118 96
83 117 96
83 117 96
83 118 96
83 117 96
83 118 96
83 118 96
83 118 96
83 117 96
83 118 96
83 117 95
83 118 96
83 118 96
83 118 96
83 118 96
83 117 95
83 118 96
83 118 96
83 118 96
82 117 96
83 118 96
83 118 96
83 118 96
83 118 96
83 118 96
83 118 96
83 118 96
83 118 96
83 117 96
83 117 96
83 117 95
83 118 96
83 117 96
83 117 96
83 117 96
83 118 96
83 117 95
83 117 95
83 118 96
83 117 96
83 118 96
83 117 95
83 117 95
83 117 96
83 118 96
83 118 96
83 117 96
83 118 96
83 117 95
82 117 96
83 117 95
83 117 95
83 118 96
83 118 96
83 118 96
83 117 96
83 118 96
83 117 95
83 117 96
83 118 96
83 117 96
83 118 96
82 117 95
83 117 96
83 117 96
82 117 95
83 118 96
83 118 96
83 117 96
83 117 96
83 117 96
83 117 96
82 117 96
83 118 96
83 117 95
83 117 96
83 117 96
83 118 96
83 117 96
83 117 96
83 117 96
83 117 96
82 117 95
83 118 96
82 117 96
83 117 96
82 117 95
83 117 95
82 117 96
82 117 95
82 117 95
82 117 95
82 117 96
82 117 95
83 117 95
83 117 95
83 117 96
83 118 96
83 117 96
82 117 95
83 117 95
82 117 95
83 117 96
82 117 95
83 117 95
82 117 95
82 117 96
83 117 95
83 117 95
82 117 95
83 117 96
82 117 95
83 117 96
82 117 95
82 117 95
83 117 95
83 117 96
82 117 95
82 117 95
83 118 96
83 117 96
82 116 95
83 117 95
82 117 95
83 117 95
83 117 96
79 112 91
55 72 63
39 42 45
39 42 45
39 42 45
39 42 46
39 42 46
39 42 46
39 42 46
39 42 46
39 42 46
39 42 46
39 42 46
39 42 46
39 42 46
39 42 46
39 42 46
39 41 46
38 41 45
38 41 45
38 41 45
37 40 44
37 40 44
37 40 44
36 39 43
36 39 43
35 38 42
37 43 44
64 88 74
82 116 95
82 117 95
82 117 95
82 117 95
83 117 95
82 117 95
82 117 95
82 116 95
82 117 95
82 117 95
82 117 95
82 117 95
82 117 95
82 117 95
82 117 95
82 117 95
82 116 95
82 117 95
82 117 95
82 117 95
82 117 95
82 117 95
82 117 95
82 117 95
82 117 95
82 117 95
82 117 95
82 117 95
82 117 95
82 117 95
82 116 95
82 117 95
82 117 95
82 117 95
82 117 95
82 117 95
82 116 95
83 117 95
82 117 95
82 117 95
82 117 95
82 117 95
82 116 95
82 117 95
82 116 95
82 117 95
82 117 95
82 117 95
82 116 95
82 117 95
82 117 95
82 117 95
82 117 95
82 117 95
82 116 95
82 117 95
82 116 95
82 117 95
82 116 95
82 116 94
82 117 95
82 117 95
82 117 95
82 116 95
82 116 95
82 116 95
82 117 95
82 116 95
82 115 94
82 116 95
82 117 95
82 116 95
82 116 95
82 116 95
82 116 95
82 116 95
82 117 95
82 116 95
82 116 95
82 117 95
82 116 95
82 116 95
82 116 95
82 116 95
82 117 95
82 116 95
81 116 95
82 116 95
82 116 95
82 116 95
82 117 95
81 116 95
82 116 95
82 116 95
82 116 95
82 116 95
82 116 95
82 116 95
82 116 95
82 116 95
82 116 95
82 116 95
82 116 95
82 116 95
82 116 95
81 116 95
82 116 95
82 116 95
81 116 95
82 116 95
82 116 95
82 116 95
82 116 95
82 116 95
82 116 95
82 116 95
82 116 95
81 116 95
82 116 95
82 116 95
81 116 95
81 116 95
82 116 95
82 116 95
81 116 94
82 116 95
82 116 95
82 116 95
82 116 94
82 116 95
82 116 95
81 116 95
82 116 94
82 116 94
82 116 95
81 116 95
81 116 94
82 116 95
81 116 94
81 116 95
81 116 94
81 115 94
81 116 94
82 116 95
81 116 94
81 116 94
81 116 95
81 116 94
81 116 94
82 116 95
81 116 95
82 116 94
81 116 94
81 116 94
81 116 94
81 116 95
81 115 94
81 116 94
81 115 94
81 116 94
81 116 94
81 116 94
81 115 94
81 116 94
81 116 94
81 115 94
81 116 94
81 115 94
81 116 94
81 116 94
81 116 94
81 116 94
82 116 94
81 116 94
81 115 94
81 116 94
81 115 94
81 115 94
81 115 94
82 116 94
81 115 94
81 115 94
81 115 94
81 115 94
81 116 94
81 116 94
81 115 94
81 115 94
81 115 94
81 116 94
81 115 94
82 116 94
81 116 94
81 115 94
81 115 94
81 115 94
81 115 94
81 116 94
81 115 94
81 115 94
81 115 94
80 115 94
81 115 94
81 115 94
81 115 94
81 115 94
81 115 94
81 115 94
81 115 94
81 115 94
80 115 94
81 115 94
81 115 94
81 115 94
81 115 94
81 115 94
81 115 94
81 115 94
81 115 94
81 115 94
81 115 94
81 115 94
81 115 94
81 115 94
81 115 94
81 115 94
81 115 94
81 115 94
81 115 94
81 115 94
81 115 94
81 115 94
81 115 94
81 115 94
81 115 94
81 115 94
81 115 94
80 115 94
81 115 94
81 115 94
81 115 94
81 115 94
81 115 94
81 115 94
81 115 94
80 115 94
81 115 94
81 115 94
81 115 94
81 115 94
80 114 94
81 115 94
81 115 94
81 115 94
80 115 94
81 115 94
80 115 94
80 115 94
80 115 94
81 115 94
81 115 94
81 115 94
80 115 94
81 115 94
81 115 94
81 115 94
80 115 94
80 115 94
80 114 94
80 115 94
80 114 94
80 115 94
80 114 94
80 114 94
80 114 94
80 114 94
80 115 94
81 115 94
80 114 93
80 114 93
80 115 94
80 114 93
81 115 94
80 114 94
80 115 94
80 114 93
80 115 94
81 115 94
80 114 93
80 114 93
80 114 93
80 114 93
80 114 94
80 114 94
80 114 94
80 114 94
80 114 94
80 114 94
80 114 93
80 114 93
80 114 93
80 114 93
80 115 93
80 114 93
80 114 93
80 114 93
80 114 93
80 114 93
80 114 93
80 114 93
80 114 93
80 114 93
80 114 93
80 114 93
80 114 93
80 114 93
83 118 96
83 118 96
83 118 96
83 118 96
83 118 96
83 117 96
83 118 96
83 118 96
83 117 96
83 117 96
83 117 96
83 117 96
83 117 96
83 118 96
83 117 96
83 118 96
83 118 96
83 118 96
83 118 96
83 118 96
83 118 96
83 118 96
83 118 96
83 118 96
83 118 96
83 118 96
83 118 96
83 118 96
83 118 96
83 118 96
83 118 96
83 118 96
83 118 96
82 117 96
83 118 96
83 118 96
83 118 96
83 118 96
83 118 96
83 118 96
83 118 96
83 118 96
83 118 96
83 118 96
83 118 96
83 118 96
83 118 96
83 118 96
83 118 96
83 118 96
83 118 96
83 118 96
83 118 96
83 118 96
83 117 95
83 118 96
83 118 96
83 118 96
83 118 96
83 118 96
83 118 96
83 118 96
83 118 96
83 118 96
83 117 96
83 118 96
83 118 96
83 118 96
83 117 95
83 118 96
83 118 96
83 117 96
83 118 96
83 118 96
83 118 96
83 118 96
83 118 96
83 118 96
83 118 96
83 118 96
83 118 96
83 118 96
83 118 96
83 118 96
83 117 95
83 118 96
83 117 96
83 118 96
83 118 96
83 118 96
83 118 96
83 118 96
83 118 96
83 118 96
83 117 96
83 118 96
83 118 96
83 118 96
83 118 96
83 118 96
83 117 95
83 118 96
83 118 96
83 118 96
83 118 96
83 118 96
83 117 96
83 118 96
82 117 96
83 118 96
83 118 96
83 118 96
83 118 96
83 117 96
83 118 96
83 118 96
83 118 96
83 118 96
83 118 96
83 118 96
83 118 96
83 118 96
83 118 96
83 118 96
83 117 96
83 118 96
82 117 95
83 118 96
83 118 96
83 118 96
83 118 96
83 118 96
83 118 96
83 118 96
83 118 96
83 118 96
83 118 96
83 118 96
83 118 96
83 118 96
83 118 96
83 117 96
83 118 96
83 118 96
83 117 96
83 118 96
83 118 96
83 118 96
83 118 96
83 117 96
83 118 96
83 118 96
83 118 96
83 118 96
83 118 96
83 118 96
83 117 96
83 117 96
82 117 96
83 117 95
83 118 96
83 118 96
83 118 96
83 118 96
83 117 96
83 118 96
83 118 96
82 117 95
83 118 96
83 117 95
83 117 96
83 118 96
83 118 96
83 118 96
83 118 96
83 118 96
83 117 96
83 117 95
83 117 96
83 118 96
83 118 96
83 118 96
83 117 95
82 117 96
83 118 96
83 117 96
83 118 96
83 118 96
83 117 95
82 117 96
83 118 96
83 118 96
83 117 95
83 118 96
83 118 96
83 118 96
83 117 95
83 118 96
83 118 96
83 118 96
83 118 96
83 118 96
83 118 96
83 118 96
83 117 95
83 118 96
83 118 96
83 118 96
83 118 96
83 118 96
83 117 96
83 117 96
83 118 96
83 117 95
83 117 96
83 117 96
83 117 96
83 117 96
83 117 96
82 117 95
83 118 96
83 117 95
83 118 96
83 117 96
83 117 95
83 117 96
83 117 96
83 118 96
83 117 95
83 117 96
82 117 95
83 117 96
82 117 95
83 118 96
83 117 95
83 117 95
82 117 95
82 117 96
83 118 96
83 117 96
83 117 95
83 117 95
83 117 96
83 117 96
83 117 96
83 117 95
83 117 96
82 117 96
82 117 96
83 117 95
82 117 95
83 117 95
83 117 96
82 117 95
73 103 85
45 55 52
38 41 45
39 42 45
39 42 46
40 42 46
40 42 46
40 43 46
40 43 46
40 43 47
40 43 47
40 43 47
40 43 47
40 43 46
40 42 46
39 42 46
39 42 46
39 42 46
39 42 46
39 42 46
38 41 45
38 41 45
38 41 45
38 40 45
37 40 44
37 40 44
36 39 43
36 39 43
35 38 42
33 36 40
53 71 62
80 113 92
82 116 95
83 117 95
82 117 95
82 117 95
82 117 95
82 117 95
82 117 95
82 117 95
82 117 95
82 117 95
82 117 95
82 117 95
83 117 95
82 117 95
83 117 95
82 117 95
82 117 95
82 117 95
82 117 95
82 117 95
82 117 95
82 117 95
82 116 95
82 117 95
82 117 95
82 117 95
82 116 95
82 117 95
82 117 95
83 117 95
82 117 95
82 117 95
82 117 95
82 117 95
82 117 95
82 117 95
82 117 95
82 117 95
82 117 95
82 117 95
82 116 95
82 117 95
82 116 95
82 116 95
82 117 95
82 117 95
82 117 95
82 117 95
82 117 95
82 116 95
82 117 95
82 116 95
82 117 95
82 117 95
82 116 95
82 116 95
82 117 95
82 116 95
82 117 95
82 117 95
82 117 95
82 117 95
82 116 95
82 116 95
82 117 95
82 116 95
82 116 95
82 116 95
82 116 95
82 116 95
82 116 95
82 116 95
82 117 95
82 116 95
82 116 95
82 116 95
82 116 95
82 116 95
82 116 95
82 116 95
82 117 95
82 116 95
82 116 95
82 116 95
82 116 95
82 116 95
82 116 95
82 116 95
82 116 95
82 116 95
82 116 95
81 116 94
81 116 94
82 116 95
82 117 95
82 116 95
82 116 95
81 115 94
82 116 95
82 117 95
82 116 94
82 116 95
82 116 95
82 116 95
82 116 95
82 116 95
82 116 95
82 116 95
82 116 95
82 116 95
82 116 95
82 116 94
82 116 95
82 116 95
82 116 95
82 116 95
81 116 94
81 116 95
81 115 94
82 116 95
82 116 95
82 116 94
82 116 95
82 116 95
82 116 95
81 116 94
82 116 95
82 116 95
81 116 94
81 116 95
81 116 94
82 116 95
82 116 94
82 116 95
81 116 94
81 116 94
81 116 95
81 116 94
82 116 95
82 116 95
82 116 94
81 116 94
81 116 94
81 116 94
81 115 94
82 116 94
81 116 95
82 116 94
82 116 95
81 116 94
81 116 95
82 116 95
81 116 94
81 115 94
81 116 94
81 116 95
81 116 94
81 115 94
81 116 94
82 116 94
81 116 94
82 116 95
81 115 95
82 116 95
81 116 94
81 116 94
81 115 94
82 116 94
81 116 94
81 115 94
81 116 94
81 116 94
81 116 94
81 115 94
81 116 94
81 116 94
81 116 94
81 115 94
81 116 94
81 116 94
81 115 94
81 115 94
81 116 94
81 115 94
81 116 94
81 116 94
81 115 94
81 115 94
81 115 94
81 116 94
81 116 94
81 115 94
81 116 94
81 115 94
81 116 94
81 115 94
81 116 94
81 115 94
81 116 94
81 115 94
81 115 94
81 116 94
81 115 94
81 115 94
81 115 94
81 115 94
81 116 94
81 115 94
81 116 94
81 115 94
81 115 94
81 115 94
81 115 94
81 115 94
81 115 94
81 115 94
81 115 94
81 115 94
81 115 94
81 115 94
81 115 94
81 115 94
81 115 94
81 115 94
81 115 94
81 115 94
81 115 94
81 115 94
81 115 94
81 115 94
81 115 94
81 115 94
81 115 94
81 115 94
81 115 94
81 115 94
81 115 94
81 115 94
81 115 94
81 115 94
81 115 94
81 115 94
80 115 94
81 115 94
80 114 94
80 114 93
81 115 94
81 115 94
81 114 93
81 115 94
81 115 94
81 115 94
81 115 94
81 115 94
80 115 94
81 115 94
81 115 94
81 115 94
80 115 94
81 115 94
80 115 94
80 115 94
81 115 94
81 115 94
81 115 94
81 115 94
81 115 94
81 115 94
80 115 94
80 114 94
80 114 94
80 114 94
81 115 94
80 115 94
81 115 94
80 114 94
80 115 94
80 115 94
80 114 94
80 115 94
80 115 94
80 114 93
81 115 94
80 114 94
80 115 94
80 114 93
80 114 94
81 115 94
80 114 94
80 114 94
80 114 93
80 114 93
80 114 94
80 114 93
80 114 94
80 114 94
80 114 94
80 114 94
80 114 94
80 114 93
80 114 93
80 114 94
80 114 93
80 114 93
80 114 93
80 114 93
80 114 93
80 114 93
80 114 93
80 114 93
80 114 93
80 114 93
80 114 93
80 114 93
83 118 96
83 118 96
83 117 96
83 118 96
83 118 96
83 118 96
83 117 95
83 118 96
83 118 96
83 117 96
83 118 96
83 118 96
83 118 96
83 118 96
83 118 96
83 118 96
83 118 96
83 118 96
83 118 96
83 118 96
83 118 96
83 118 96
83 117 96
83 118 96
83 118 96
83 118 96
83 118 96
83 118 96
83 118 96
83 118 96
83 118 96
83 118 96
83 118 96
83 118 96
83 118 96
83 118 96
83 118 96
83 118 96
83 118 96
83 118 96
83 118 96
83 118 96
83 118 96
83 118 96
83 118 96
83 118 96
83 118 96
83 118 96
83 118 96
83 118 96
83 117 96
83 118 96
83 118 96
83 117 96
83 118 96
83 118 96
83 118 96
83 118 96
83 118 96
83 118 96
83 118 96
83 118 96
83 118 96
83 118 96
83 118 96
83 118 96
83 118 96
83 118 96
83 118 96
83 118 96
83 118 96
83 118 96
83 118 96
83 118 96
83 118 96
83 118 96
83 118 96
83 118 96
83 118 96
83 118 96
83 118 96
83 117 96
83 118 96
83 118 96
83 118 96
83 118 96
83 118 96
83 118 96
83 118 96
83 118 96
83 118 95
83 118 96
83 118 96
83 118 96
83 118 96
83 118 96
83 118 96
83 118 96
83 118 96
83 118 96
83 118 96
83 118 96
83 118 96
83 118 96
83 118 96
83 118 96
83 118 96
83 118 96
83 118 96
83 118 96
83 118 96
83 118 96
83 118 96
83 118 96
83 117 95
83 118 96
83 118 96
83 118 96
83 118 96
83 118 96
83 118 96
83 117 95
83 118 96
83 118 96
83 118 96
83 118 95
83 118 96
83 118 96
83 118 96
83 118 96
83 118 96
83 118 96
83 118 96
83 118 96
83 118 96
83 117 95
83 118 96
83 118 96
83 118 96
83 117 95
83 118 96
83 118 96
83 118 96
83 118 96
83 118 96
83 118 96
83 118 96
83 117 95
83 118 96
84 118 96
83 118 96
83 118 96
83 118 96
83 117 95
83 117 95
83 117 95
83 117 96
83 117 96
83 118 96
83 118 96
83 118 96
83 118 96
83 117 95
83 118 96
83 117 95
83 117 95
83 117 95
83 118 96
83 118 96
83 118 96
83 118 96
83 118 96
83 117 96
83 118 96
83 117 96
83 118 96
83 118 96
83 118 96
83 118 96
83 118 96
83 118 96
83 117 95
83 118 96
83 118 96
83 117 96
83 117 96
83 118 96
83 118 96
83 117 96
82 117 95
83 118 96
83 118 96
83 118 96
83 117 95
83 118 96
83 118 96
82 117 95
83 117 96
83 118 96
83 118 96
83 118 96
83 118 96
83 118 96
83 118 96
83 117 96
83 118 95
83 117 95
83 117 95
82 117 96
83 118 96
83 117 96
83 117 96
83 117 95
82 117 95
83 118 96
82 117 95
83 118 96
83 117 95
82 117 96
82 117 96
83 117 96
83 117 96
82 117 96
83 117 95
82 117 95
83 118 96
82 117 95
83 118 95
82 117 96
83 117 96
83 118 96
82 117 95
83 117 96
83 118 96
83 117 96
83 117 95
83 117 96
83 117 95
83 117 95
83 117 95
83 117 96
83 117 95
83 117 96
83 117 95
83 117 96
83 117 96
83 117 96
83 117 95
83 117 96
83 117 95
83 117 96
82 117 95
83 117 95
69 96 80
39 44 46
38 41 44
39 42 46
40 42 46
40 43 46
40 43 46
40 43 47
40 43 47
40 43 47
40 43 47
40 43 47
40 43 47
40 43 47
40 43 47
40 43 47
40 43 47
40 42 46
39 42 46
39 42 46
39 42 46
39 42 46
38 41 45
38 41 45
38 41 45
37 40 44
37 40 44
37 40 44
36 39 43
36 39 42
35 37 41
33 36 40
43 56 51
77 109 90
82 117 95
83 117 95
82 117 95
83 117 95
82 117 95
82 117 95
82 117 95
82 117 95
82 117 95
83 117 95
82 117 95
82 116 95
82 117 95
83 117 95
82 117 95
82 117 95
82 117 95
82 117 95
83 117 95
82 117 95
82 117 95
82 117 95
82 117 95
82 117 95
82 117 95
82 117 95
82 117 95
82 117 95
82 117 95
82 117 95
82 117 95
82 117 95
82 117 95
82 117 95
82 117 95
82 117 95
82 117 95
82 117 95
82 116 95
82 117 95
82 117 95
82 117 95
82 117 95
82 117 95
82 116 95
82 116 95
82 117 95
82 117 95
82 117 95
82 117 95
82 116 95
82 116 95
82 116 95
82 116 95
82 117 95
82 116 95
82 117 95
82 117 95
82 117 95
82 117 95
82 117 95
82 117 95
82 117 95
82 116 95
82 117 95
82 117 95
82 116 95
82 116 95
82 117 95
82 117 95
82 116 95
82 117 95
82 116 95
82 117 95
82 117 95
82 116 95
82 116 95
82 117 95
82 117 95
82 116 94
82 116 95
82 117 95
82 116 95
82 116 95
82 116 95
82 116 95
82 117 95
82 117 95
81 116 94
82 116 95
82 117 95
82 116 95
82 116 95
82 116 95
82 116 95
82 116 95
82 116 95
82 116 95
82 117 95
82 116 95
82 116 95
82 116 95
82 117 95
82 116 95
81 116 94
82 116 95
82 116 95
82 116 95
82 116 95
82 116 95
82 116 95
82 116 95
82 116 95
82 116 95
81 116 95
82 116 95
82 116 95
82 116 95
81 116 95
82 116 95
82 116 95
82 116 95
82 116 95
82 116 95
82 116 95
81 116 94
82 116 95
81 116 95
81 116 94
82 116 95
82 116 94
82 116 95
81 116 94
82 116 95
81 116 94
81 116 95
81 116 95
82 116 95
82 116 95
82 116 95
81 116 95
81 116 95
82 116 94
82 116 95
81 116 95
81 116 95
81 115 94
81 116 94
81 116 95
82 116 95
81 116 95
81 116 94
81 116 94
81 116 94
81 116 94
82 116 94
82 116 94
81 116 94
82 116 95
81 116 94
81 116 94
81 116 95
81 116 94
81 116 94
81 116 94
81 116 95
81 116 95
81 116 94
81 116 94
81 116 94
81 116 94
81 116 94
81 115 94
81 115 94
81 116 94
82 116 94
81 115 94
81 115 94
81 116 94
81 115 94
81 116 94
81 115 94
81 115 94
81 116 94
81 116 94
81 115 94
81 115 94
81 116 94
81 116 94
81 115 94
81 115 94
81 116 94
81 115 94
81 115 94
81 115 94
81 115 94
81 115 94
81 115 94
81 115 94
81 116 94
81 115 94
81 115 94
81 115 94
81 116 94
81 115 94
81 115 94
81 115 94
81 115 94
81 115 94
81 115 94
81 115 94
81 115 94
81 115 94
81 115 94
81 115 94
81 115 94
81 115 94
81 115 94
81 115 94
81 115 94
81 115 94
81 115 94
81 115 94
81 115 94
81 115 94
81 115 94
81 115 94
81 115 94
81 115 94
81 115 94
81 115 94
81 115 94
81 115 94
80 114 93
80 115 94
81 115 94
81 115 94
81 115 94
81 115 94
80 115 94
81 115 94
80 115 94
80 115 94
81 115 94
80 115 94
81 115 94
80 114 94
80 115 94
80 115 94
80 115 94
81 115 94
81 115 94
81 115 94
81 115 94
80 115 94
81 115 94
81 115 94
81 115 94
80 115 94
80 114 94
80 115 94
81 115 94
80 115 94
80 114 94
81 115 94
81 115 93
81 115 94
80 115 94
80 115 94
81 115 94
81 115 94
80 114 93
80 115 94
80 115 94
80 114 94
80 114 94
81 115 94
80 114 94
80 115 94
80 114 94
80 114 94
80 115 94
80 114 94
80 115 94
80 114 94
80 114 93
80 114 94
81 115 93
80 114 94
80 115 94
80 115 94
80 114 94
80 114 94
80 114 94
80 114 94
80 114 93
80 114 93
80 114 94
80 114 94
80 114 93
81 115 94
80 114 94
80 114 94
80 114 93
80 114 94
80 114 94
80 114 93
80 114 93
80 114 93
80 114 93
80 114 93
80 114 93
80 114 93
83 118 96
83 118 96
83 118 96
83 118 96
83 118 96
83 118 96
83 118 96
83 118 96
83 118 96
83 118 96
83 118 96
83 118 96
83 118 96
83 118 96
83 118 96
83 118 96
83 118 96
83 118 96
83 118 96
83 118 96
83 118 96
83 118 96
83 118 96
83 118 96
83 118 96
83 118 96
83 118 96
83 118 96
83 118 96
83 118 96
83 118 96
83 118 96
83 118 96
83 118 96
83 118 96
83 118 96
83 118 96
83 118 96
83 118 96
83 118 96
83 118 96
83 118 96
83 118 96
83 118 96
83 118 96
83 118 96
83 118 96
83 118 96
83 118 96
83 118 96
83 118 96
83 118 96
83 118 96
83 118 96
83 118 96
83 118 96
83 118 96
83 118 96
83 118 96
83 118 96
83 118 96
83 118 96
83 118 96
83 118 96
83 118 96
83 118 96
83 118 96
83 118 96
83 118 96
83 118 96
83 118 96
83 118 96
83 117 96
83 118 96
83 118 96
83 118 96
83 118 96
83 118 96
83 118 96
83 118 96
83 118 96
83 118 96
83 118 96
83 118 96
83 118 96
83 118 96
83 118 96
83 118 96
83 117 96
83 118 96
83 118 96
83 118 96
83 118 96
83 118 96
83 118 96
83 118 96
83 118 96
83 118 96
83 117 96
83 118 96
83 118 96
83 118 96
83 118 96
83 118 96
83 118 96
83 118 96
83 118 96
83 118 96
83 118 96
83 118 96
83 118 96
83 118 96
83 118 96
83 118 96
83 118 96
83 118 96
83 118 96
83 118 96
83 118 96
83 117 96
83 118 96
83 118 96
83 118 96
83 118 96
83 118 96
83 118 96
83 118 96
83 118 96
83 118 96
83 118 96
83 117 95
83 118 96
83 118 96
83 118 96
83 118 96
83 118 96
83 118 96
83 118 96
83 118 96
83 118 96
83 118 96
83 118 96
83 118 96
83 118 96
83 118 96
83 118 96
83 118 96
83 118 96
83 118 96
83 118 96
83 118 96
83 118 96
83 118 96
83 118 96
83 118 96
83 117 95
83 118 96
83 118 96
83 117 96
83 118 96
83 118 96
83 118 96
83 118 96
83 118 96
83 118 96
83 118 96
83 118 96
83 117 96
83 118 96
83 118 96
83 118 96
83 117 96
83 118 96
83 117 96
83 118 96
83 117 96
83 118 96
83 118 96
83 118 96
83 118 96
83 118 96
83 118 96
83 118 96
83 118 96
83 118 96
83 117 96
83 117 95
83 117 96
83 118 96
83 118 96
83 117 96
83 118 96
83 118 96
83 117 95
83 118 96
83 117 96
83 118 96
83 117 96
83 117 96
83 118 96
83 118 96
83 118 96
83 118 96
83 118 96
82 117 96
83 117 96
82 117 95
83 118 96
82 117 95
83 118 96
82 117 95
83 118 96
83 117 96
83 118 96
83 118 96
83 117 96
83 118 96
83 117 95
83 118 96
83 118 96
83 117 96
83 118 96
83 117 95
82 117 95
83 117 95
83 118 96
82 117 95
83 117 96
83 117 96
83 117 95
83 117 95
82 117 95
83 117 95
83 117 96
83 118 96
83 117 95
83 117 95
83 117 95
82 117 95
83 117 95
83 117 95
83 117 95
83 117 96
83 118 96
83 117 96
82 117 95
83 117 95
83 117 96
82 117 95
83 117 96
83 117 95
83 118 96
69 95 79
40 46 47
38 41 44
39 42 45
40 42 46
40 43 46
40 43 46
40 43 47
40 43 47
40 43 47
40 43 47
40 43 47
40 43 47
40 43 47
40 43 47
40 43 47
40 43 47
40 43 47
40 43 47
40 42 46
39 42 46
39 42 46
39 42 46
39 42 46
38 41 45
38 41 45
38 41 45
37 40 44
37 40 44
37 40 43
36 39 43
36 38 42
34 37 41
32 35 39
43 56 51
78 110 90
82 117 95
82 117 95
82 117 95
82 117 95
82 117 95
82 117 95
82 116 95
82 117 95
83 117 95
83 117 95
82 117 95
83 117 95
82 117 95
83 117 95
83 117 95
82 117 95
82 117 95
82 116 95
82 117 95
82 117 95
82 117 95
82 117 95
83 117 95
82 116 95
82 117 95
82 117 95
82 117 95
82 117 95
82 117 95
82 117 95
82 116 95
82 117 95
82 117 95
82 117 95
82 117 95
82 117 95
82 117 95
82 117 95
82 117 95
82 117 95
82 117 95
82 117 95
82 117 95
82 116 95
82 116 95
82 117 95
82 117 95
82 116 95
82 116 95
82 117 95
82 117 95
82 117 95
82 117 95
82 117 95
82 117 95
82 117 95
83 117 95
82 116 95
83 117 95
82 116 95
82 116 95
82 117 95
82 117 95
82 117 95
82 116 95
82 117 95
82 117 95
82 116 95
82 117 95
82 117 95
82 116 95
82 117 95
82 117 95
82 117 95
82 117 95
82 117 95
82 117 95
82 116 95
82 117 95
82 116 95
82 117 95
82 116 95
82 117 95
82 117 95
82 117 95
82 116 95
82 116 94
82 116 95
82 116 95
82 116 95
82 117 95
82 116 94
82 116 95
82 117 95
82 116 95
82 116 95
82 116 95
82 116 95
82 116 95
82 116 95
82 116 95
82 116 95
82 116 95
82 116 95
82 116 95
82 116 95
82 116 95
82 116 95
82 117 95
82 116 95
82 116 95
82 116 95
81 116 94
82 116 95
82 116 95
82 116 95
82 116 95
82 116 95
82 116 95
82 116 95
82 116 95
81 116 94
82 116 95
82 116 95
82 116 95
82 116 94
82 116 95
81 116 95
82 116 95
81 116 94
82 116 95
82 116 95
81 116 95
82 116 94
82 116 95
82 116 94
82 116 94
81 116 95
82 116 95
82 116 95
81 116 95
81 116 94
82 116 94
82 116 95
81 116 94
81 116 94
81 116 94
81 116 95
82 116 94
82 116 95
82 116 95
81 116 95
81 116 94
82 116 95
81 116 94
81 116 94
81 116 95
81 116 94
81 116 94
81 116 95
81 116 95
81 116 94
82 116 95
81 116 95
81 116 94
82 116 94
82 116 94
81 116 94
81 116 95
81 116 95
82 116 94
81 116 94
81 116 94
82 116 95
81 115 94
81 115 94
81 115 94
81 116 94
81 116 94
81 116 94
81 115 94
81 116 94
81 116 94
82 116 94
81 116 94
81 116 94
81 116 94
81 116 94
81 115 94
81 115 94
81 116 94
81 116 94
81 116 94
81 116 94
81 116 94
81 115 94
81 115 94
81 115 94
81 115 94
81 115 94
81 115 94
81 115 94
81 116 94
81 116 94
81 115 94
81 115 94
81 116 94
81 115 94
81 115 94
81 115 94
81 115 94
81 115 94
81 116 94
81 115 94
81 115 94
81 115 94
81 115 94
81 115 94
81 116 94
81 115 94
81 115 94
81 115 94
81 116 94
81 115 94
81 115 94
81 115 94
81 115 94
81 115 94
81 115 94
81 115 94
81 115 94
81 115 94
81 115 94
81 115 94
81 115 94
81 115 94
81 115 94
81 115 94
81 115 94
81 115 94
81 115 94
81 115 94
81 115 94
81 115 94
81 115 94
81 115 94
81 115 94
81 115 94
81 115 94
81 115 94
81 115 94
81 115 94
81 115 94
81 115 94
81 115 94
81 115 94
80 115 94
81 115 94
81 115 94
80 115 94
81 115 94
80 115 94
81 115 94
80 114 94
81 115 94
81 115 94
81 115 94
80 115 94
80 114 94
81 115 94
81 115 94
81 115 94
81 115 94
80 115 94
80 114 94
80 115 94
80 114 94
81 115 94
80 114 94
80 115 94
81 115 94
80 115 94
81 115 94
80 115 94
80 115 94
80 115 94
80 114 94
80 114 93
80 114 94
80 114 94
80 114 93
80 114 93
80 114 94
80 114 93
80 114 94
80 114 93
80 114 94
80 114 94
80 114 93
80 114 94
80 114 93
80 114 93
80 114 93
80 114 94
80 114 93
80 114 94
80 115 94
80 114 93
80 114 94
80 114 93
80 114 93
80 114 93
83 118 96
83 118 96
83 118 96
83 118 96
83 118 96
83 118 96
83 118 96
83 118 96
83 118 96
83 118 96
83 118 96
83 118 96
83 118 96
83 118 96
83 118 96
83 118 96
83 118 96
83 118 96
83 118 96
83 118 96
83 118 96
83 118 96
83 118 96
83 118 96
83 118 96
83 118 96
83 118 96
83 118 96
83 118 96
83 118 96
83 118 96
83 118 96
83 118 96
83 118 96
83 118 96
83 118 96
83 118 96
84 118 96
83 118 96
84 118 96
83 118 96
83 118 96
83 118 96
83 118 96
83 118 96
83 118 96
83 118 96
83 118 96
83 118 96
83 118 96
83 118 96
83 118 96
83 118 96
83 118 96
83 118 96
83 118 96
83 118 96
83 118 96
83 118 96
83 117 96
83 118 96
83 118 96
83 118 96
83 118 96
83 118 96
83 118 96
83 118 96
83 118 96
83 118 96
83 118 96
83 118 96
83 118 96
83 118 96
83 118 96
83 118 96
83 118 96
83 118 96
83 118 96
83 118 96
83 118 96
83 118 96
83 118 96
83 118 96
83 118 96
83 118 96
83 118 96
83 118 96
83 118 96
83 118 96
83 118 96
83 118 96
83 118 96
83 118 96
83 118 96
83 118 96
83 118 96
83 118 96
84 118 96
83 117 96
83 118 96
83 117 96
83 118 96
83 118 96
83 118 96
83 118 96
83 118 96
83 118 96
83 118 96
83 118 96
83 118 96
83 118 96
83 118 96
83 118 96
83 118 96
83 118 96
83 118 96
83 117 96
83 117 96
83 118 96
83 118 96
83 118 96
83 118 96
83 118 96
83 118 96
83 118 96
83 118 96
83 118 96
83 118 96
83 118 95
83 118 96
83 118 96
83 118 96
83 118 96
83 118 96
83 118 96
83 118 96
83 118 96
83 118 96
83 118 96
83 118 96
83 118 96
83 118 96
83 118 96
83 118 96
84 118 96
83 118 96
83 118 96
83 118 96
83 118 96
83 118 96
83 118 96
83 118 96
83 118 96
83 118 96
83 118 96
83 118 96
83 118 96
83 118 96
83 118 96
83 118 96
83 118 96
83 118 96
83 118 96
83 118 96
83 118 96
83 118 96
83 118 96
83 118 96
83 118 96
83 118 96
83 117 95
83 118 96
83 117 96
83 118 96
83 117 96
83 118 96
83 117 96
83 118 96
83 118 96
83 117 95
83 118 96
83 118 96
83 118 96
83 118 96
83 118 96
83 118 96
83 118 96
83 118 96
83 118 96
83 118 96
83 118 96
83 118 96
83 118 96
83 118 96
83 118 96
83 118 96
83 118 96
83 117 95
83 118 96
83 118 96
83 118 96
83 118 96
83 118 96
83 117 96
83 117 96
83 118 96
83 117 95
83 118 96
83 118 96
83 118 96
83 117 96
83 118 96
83 117 96
83 118 96
83 118 96
83 117 95
83 117 96
83 118 96
83 117 96
83 117 96
83 117 95
83 118 96
83 117 96
83 117 95
83 117 95
83 117 96
83 117 95
83 117 96
83 117 96
83 118 96
83 118 96
83 117 95
82 117 95
83 118 96
83 118 96
82 117 95
83 118 96
83 117 96
83 118 96
83 118 96
82 117 95
83 118 96
83 117 95
82 117 95
83 118 96
82 117 95
82 117 96
83 117 96
83 118 96
83 118 96
83 117 95
74 104 86
39 43 45
38 41 44
39 42 45
40 42 46
40 43 46
40 43 47
40 43 47
41 43 47
41 43 47
41 43 47
41 43 47
41 43 47
41 43 47
41 43 47
40 43 47
40 43 47
40 43 47
40 43 47
40 43 47
40 43 47
40 42 46
39 42 46
39 42 46
39 42 46
39 42 45
38 41 45
38 41 45
38 41 45
37 40 44
37 40 44
37 39 43
36 39 43
35 38 42
34 37 40
32 35 38
43 56 51
79 112 92
83 117 96
82 117 95
82 117 95
82 117 95
82 117 95
82 117 95
82 117 95
82 117 96
82 117 95
82 117 95
83 117 95
82 117 95
82 117 95
82 117 95
82 117 95
82 117 95
82 117 95
82 117 95
83 117 95
82 117 95
82 117 95
82 117 95
83 117 95
82 117 95
82 117 95
82 117 95
82 117 95
82 117 95
82 116 95
83 117 95
82 117 95
82 117 95
82 117 95
82 117 95
82 116 95
82 117 95
82 117 95
83 117 95
82 117 95
83 117 95
82 117 95
82 116 95
82 116 95
82 117 95
82 117 95
82 117 95
82 117 95
82 116 95
82 117 95
82 116 95
82 117 95
82 117 95
82 117 95
82 117 95
82 117 95
82 117 95
82 117 95
82 117 95
82 117 95
82 116 95
82 116 95
82 116 95
82 117 95
82 117 95
82 117 95
82 117 95
82 117 95
82 117 95
82 116 95
82 116 95
82 117 95
82 117 95
82 116 95
82 117 95
82 116 95
82 116 95
82 117 95
82 116 95
82 117 95
82 117 95
82 117 95
82 116 95
82 116 95
82 116 95
82 116 95
82 116 95
82 116 95
82 116 95
82 117 95
82 117 95
82 117 95
82 117 95
82 116 95
82 117 95
82 116 95
82 117 95
82 117 95
82 116 95
83 117 95
82 116 95
82 117 95
82 116 95
82 116 95
82 116 95
82 117 95
82 116 95
81 116 95
82 116 95
82 117 95
81 116 95
82 117 95
82 116 95
82 116 95
82 116 95
82 116 95
82 116 95
82 116 95
82 116 95
82 116 94
82 116 95
82 116 95
82 116 95
82 116 95
82 116 95
82 116 95
82 116 95
82 116 95
82 116 95
82 116 95
81 116 94
81 116 95
81 115 94
82 116 95
82 116 95
82 116 95
82 116 95
82 116 95
82 116 95
82 116 94
82 116 95
82 116 95
82 116 95
82 116 94
81 116 95
82 116 95
82 116 95
82 116 95
82 116 95
82 116 95
82 116 95
81 116 94
81 116 95
81 116 94
81 116 94
81 116 94
81 116 95
82 116 95
81 116 95
81 116 95
81 116 94
82 116 95
81 116 95
81 116 94
82 116 95
82 116 95
81 116 95
81 115 94
81 116 94
81 116 95
81 116 95
81 116 95
81 116 94
81 116 94
81 116 94
81 116 94
81 116 94
81 116 94
81 116 95
81 116 95
81 115 94
81 116 94
82 116 94
81 116 94
81 116 94
81 116 94
81 116 94
81 115 94
81 116 94
81 116 94
81 116 94
81 115 94
81 116 94
81 116 94
81 115 94
81 116 94
81 115 94
81 115 94
81 116 94
81 116 94
81 116 94
81 115 94
81 115 94
81 115 94
81 115 94
81 116 94
81 115 94
81 115 94
81 116 94
81 116 94
81 115 94
81 115 94
81 115 94
81 115 94
81 115 94
81 115 94
81 115 94
81 115 94
81 116 94
81 115 94
81 115 94
81 115 94
81 115 94
81 115 94
81 115 94
81 115 94
81 115 94
81 115 94
81 115 94
81 115 94
81 115 94
81 115 94
81 115 94
81 115 94
81 115 94
81 115 94
81 115 94
81 115 94
81 115 94
81 115 94
81 115 94
81 115 94
81 115 94
81 115 94
81 115 94
81 115 94
81 115 94
81 115 94
81 115 94
81 115 94
81 115 94
81 115 94
81 115 94
81 115 94
81 115 94
81 115 94
81 115 94
81 115 94
80 115 94
81 115 94
81 115 94
80 115 94
81 115 94
81 115 94
81 115 94
81 115 94
80 115 94
80 115 94
81 115 94
81 115 94
81 115 94
81 115 94
80 115 94
80 115 94
80 115 94
80 114 93
80 115 94
80 114 94
80 114 94
81 115 94
80 115 94
80 115 94
80 115 94
80 115 94
81 115 94
80 115 94
81 115 94
80 115 94
80 115 94
80 115 94
81 115 94
80 114 94
81 115 94
80 115 94
80 115 94
80 114 94
80 115 94
80 114 94
80 115 94
80 115 94
80 115 94
80 114 94
80 114 94
80 115 94
81 115 94
80 114 94
80 114 94
80 114 93
80 114 94
80 114 94
80 114 94
80 115 94
83 118 96
83 118 96
83 118 96
83 118 96
83 118 96
83 118 96
83 118 96
83 118 96
83 118 96
83 118 96
83 118 96
83 118 96
83 118 96
83 118 96
83 118 96
83 118 96
83 118 96
83 118 96
83 118 96
83 118 96
83 118 96
83 118 96
83 118 96
83 118 96
83 118 96
83 118 96
83 118 96
83 118 96
83 118 96
83 118 96
83 118 96
83 118 96
83 118 96
83 118 96
83 118 96
83 118 96
83 118 96
83 118 96
83 118 96
83 118 96
83 118 96
83 118 96
83 118 96
83 118 96
83 118 96
83 118 96
83 118 96
83 118 96
83 118 96
83 118 96
83 118 96
83 118 96
83 118 96
83 118 96
83 118 96
83 118 96
83 118 96
83 118 96
83 118 96
83 118 96
83 118 96
83 118 96
83 118 96
83 118 96
83 118 96
83 118 96
83 118 96
83 118 96
83 118 96
83 118 96
83 118 96
83 118 96
83 118 96
83 118 96
83 118 96
83 118 96
83 118 96
83 118 96
83 118 96
83 118 96
83 118 96
83 118 96
83 118 96
83 118 96
83 118 96
83 118 96
83 118 96
83 118 96
83 118 96
83 118 96
83 118 96
83 118 96
83 118 96
83 118 96
83 118 96
83 118 96
83 118 96
83 118 96
83 118 96
84 118 96
84 118 96
83 118 96
83 118 96
83 118 96
83 118 96
83 118 96
83 118 96
83 117 95
83 118 96
83 118 96
83 118 96
83 118 96
83 118 96
83 118 96
83 118 96
83 118 96
83 117 96
84 118 96
84 118 96
83 118 96
83 118 96
83 118 96
83 118 96
83 118 96
83 118 96
83 118 96
83 118 96
84 118 96
83 118 96
83 118 96
83 118 96
83 118 96
83 118 96
83 118 96
83 118 96
83 118 96
83 118 96
83 118 96
83 118 96
83 118 96
83 118 96
83 118 96
83 118 96
83 118 96
83 117 95
83 118 96
83 118 96
83 118 96
83 118 96
83 118 96
83 118 96
83 118 96
83 118 96
83 118 96
83 118 96
83 118 96
83 118 96
83 117 96
83 118 96
83 118 96
83 118 96
83 118 96
83 118 96
83 118 96
83 118 96
83 118 96
83 118 96
83 118 96
83 118 96
83 118 96
83 118 96
83 118 96
83 118 96
83 118 96
83 118 96
83 118 96
83 118 96
83 118 96
83 118 96
83 118 96
83 118 96
83 118 96
83 118 96
83 118 96
83 118 96
83 118 96
83 118 96
83 118 96
83 118 96
83 118 96
83 118 96
83 118 96
83 118 96
83 118 96
83 118 96
82 117 96
83 117 95
83 117 95
83 118 96
83 118 96
83 118 96
83 117 96
83 118 96
83 117 96
83 118 96
83 118 96
83 118 95
83 117 96
83 118 95
83 117 95
83 117 96
83 118 96
83 118 96
83 118 96
83 118 96
83 118 96
83 118 96
83 118 96
83 118 96
83 117 96
83 117 95
83 118 96
83 117 95
83 117 96
83 118 96
82 117 96
83 118 95
83 117 96
83 118 96
83 117 96
83 118 96
83 118 96
83 117 95
83 118 96
83 117 96
83 117 95
83 118 96
83 118 96
83 118 96
83 118 96
83 117 95
83 118 96
83 118 96
83 117 95
82 117 95
83 118 96
83 118 95
83 117 95
83 117 95
83 118 96
78 110 90
42 50 48
38 40 43
39 41 45
40 42 46
40 43 46
40 43 47
41 43 47
41 43 47
41 43 47
41 43 47
41 44 47
41 44 47
41 43 47
41 43 47
41 43 47
41 43 47
41 43 47
41 43 47
40 43 47
40 43 47
40 43 47
40 43 46
40 42 46
39 42 46
39 42 46
39 42 46
39 41 45
38 41 45
38 41 45
38 40 44
37 40 44
37 40 43
36 39 43
36 38 42
34 37 40
33 36 40
32 35 38
47 62 54
81 115 94
83 117 95
82 116 95
82 117 95
83 117 95
82 117 95
82 117 95
83 117 95
83 117 95
83 117 95
83 117 95
82 117 95
82 117 95
82 117 95
83 117 96
82 116 95
83 117 95
83 117 96
82 117 95
83 117 96
82 117 95
82 117 95
82 117 95
82 117 95
82 117 95
82 117 95
82 117 95
83 117 95
82 117 95
82 117 95
83 117 95
82 117 95
82 117 95
82 117 95
82 117 95
82 117 95
82 116 95
82 117 95
82 116 95
82 117 95
82 117 95
82 117 95
82 117 95
82 117 95
82 117 95
82 117 95
82 116 95
83 117 95
83 117 95
82 117 95
82 117 95
82 117 95
83 117 95
82 116 95
82 117 95
82 117 95
82 116 95
82 117 95
82 117 95
82 117 95
82 117 95
82 116 95
82 117 95
82 117 95
82 117 95
82 117 95
82 117 95
82 117 95
82 117 95
82 116 95
82 117 95
82 117 95
82 117 95
82 117 95
82 116 95
82 117 95
82 117 95
82 117 95
82 116 95
82 117 95
82 117 95
82 116 95
82 116 95
82 116 95
82 116 95
82 117 95
82 117 95
82 116 95
82 116 95
82 117 95
82 116 95
82 117 95
82 117 95
82 116 95
82 116 95
82 117 95
82 117 95
82 116 95
82 117 95
82 116 94
82 116 95
82 116 95
82 117 95
82 116 95
82 117 95
82 116 95
82 117 95
82 116 95
82 117 95
82 116 95
82 116 95
82 116 95
82 116 95
82 116 94
82 116 95
81 116 94
82 116 95
82 116 95
82 116 95
82 116 95
82 116 95
82 117 95
82 116 95
82 116 95
82 116 95
81 116 95
82 116 95
82 116 94
82 116 95
82 116 95
82 116 94
82 116 95
82 116 95
82 116 94
82 116 95
82 116 95
82 116 95
82 116 95
81 116 94
82 116 95
82 116 95
82 116 95
82 116 95
82 116 94
81 116 95
81 116 95
81 116 94
82 116 95
81 116 95
81 116 95
82 116 95
81 116 95
81 116 94
82 116 95
81 116 95
82 116 95
81 116 95
81 116 95
82 116 95
81 116 95
81 116 94
82 116 95
81 116 95
81 116 95
82 116 94
82 116 94
82 116 94
81 116 94
81 116 94
81 116 95
81 116 95
81 116 94
82 116 95
81 116 95
81 116 94
81 116 95
81 116 95
81 115 94
81 116 94
81 116 94
81 115 94
82 116 95
81 116 95
81 116 95
81 116 94
81 116 94
81 116 94
81 116 94
81 116 94
81 116 94
81 116 94
81 115 94
81 116 94
81 116 94
81 115 94
81 115 94
81 116 94
81 115 94
81 116 94
81 116 94
81 115 94
81 115 94
81 116 94
81 115 94
81 115 94
81 116 94
81 115 94
81 116 94
81 116 94
81 115 94
81 116 94
81 115 94
81 116 94
81 116 94
81 115 94
81 115 94
81 115 94
81 115 94
81 115 94
81 115 94
81 115 94
81 115 94
81 115 94
81 115 94
81 115 94
81 115 94
81 115 94
81 115 94
81 115 94
81 115 94
81 115 94
81 115 94
81 115 94
81 115 94
81 115 94
81 115 94
80 115 94
81 115 94
81 115 94
81 115 94
81 115 94
81 115 94
81 115 94
81 115 94
81 115 94
81 115 94
81 115 94
81 115 94
81 115 94
81 115 94
81 115 94
81 115 94
81 115 94
81 115 94
81 115 94
81 115 94
81 115 94
81 115 94
81 115 94
81 115 94
81 115 94
81 115 94
81 115 94
81 115 94
80 115 94
81 115 94
81 115 94
81 115 94
81 115 94
81 115 94
80 115 94
81 115 94
81 115 94
81 115 94
80 115 94
80 115 94
80 115 94
80 115 94
80 115 94
80 115 94
80 115 94
81 115 94
80 115 94
81 115 94
80 114 93
81 115 94
80 114 94
81 115 94
80 115 94
81 115 94
81 115 94
80 115 94
80 115 94
80 114 94
81 115 94
80 114 94
80 114 94
80 115 94
80 114 93
81 114 93
80 115 94
80 115 94
80 115 94
80 115 93
80 114 94
80 114 94
80 114 93
80 114 94
80 114 93
80 114 94
80 114 93
83 118 96
83 118 96
83 118 96
83 118 96
83 118 96
83 118 96
83 118 96
83 118 96
83 118 96
83 118 96
83 118 96
83 118 96
83 118 96
83 118 96
83 118 96
83 118 96
83 118 96
83 118 96
83 118 96
83 118 96
83 118 96
83 118 96
83 118 96
83 118 96
84 118 96
83 118 96
83 118 96
83 118 96
83 118 96
83 118 96
83 118 96
83 118 96
83 118 96
83 118 96
84 118 96
83 118 96
84 118 96
83 118 96
83 118 96
83 118 96
83 118 96
83 118 96
84 118 96
83 118 96
83 118 96
83 118 96
83 118 96
83 118 96
83 118 96
83 118 96
84 119 96
83 118 96
83 118 96
83 118 96
83 118 96
83 118 96
83 118 96
83 118 96
83 118 96
83 118 96
83 118 96
83 118 96
83 118 96
83 118 96
83 118 96
83 118 96
83 118 96
83 118 96
83 118 96
83 118 96
83 118 96
83 118 96
83 118 96
83 118 96
83 118 96
83 118 96
83 118 96
83 118 96
83 118 96
83 118 96
83 118 96
84 118 96
83 118 96
83 118 96
83 118 96
83 118 96
83 118 96
83 118 96
83 118 96
83 118 96
83 118 96
83 118 96
83 118 96
83 118 96
83 118 96
83 118 96
83 118 96
83 118 96
83 118 96
83 118 96
83 118 96
83 118 96
83 118 96
83 118 96
83 118 96
83 118 96
83 118 96
84 118 96
83 118 96
83 118 96
83 118 96
83 118 96
83 118 96
83 118 96
83 118 96
83 118 96
83 118 96
83 118 96
83 118 96
83 118 96
83 118 96
83 118 96
83 118 96
83 118 96
83 118 96
83 118 96
83 118 96
83 118 96
83 118 96
83 118 96
83 118 96
84 118 96
83 118 96
83 118 96
83 118 96
83 118 96
83 118 96
83 118 96
83 118 96
83 118 96
83 118 96
83 118 96
83 118 96
83 118 96
83 118 96
83 118 96
83 118 96
83 118 96
83 118 96
83 118 96
83 118 96
83 118 96
83 118 96
83 118 96
83 118 96
83 118 96
83 118 96
83 118 96
83 118 96
83 118 96
83 118 96
83 118 96
83 118 96
83 118 96
83 118 96
83 118 96
83 118 96
83 118 96
83 117 96
83 118 96
83 118 96
83 118 96
83 118 96
83 118 96
83 118 96
83 118 96
83 118 96
83 118 96
83 118 96
83 117 96
83 118 96
84 118 96
83 118 96
83 118 96
83 118 96
83 118 96
83 118 96
83 118 96
83 118 96
83 118 96
83 118 96
83 118 96
83 118 96
83 118 96
83 118 96
83 118 96
83 118 96
83 118 96
83 117 95
83 118 96
83 118 96
83 118 96
83 117 95
83 118 96
83 118 96
83 118 96
83 117 95
83 118 96
83 118 96
83 117 95
83 118 96
83 118 96
83 118 96
83 118 96
83 118 96
83 118 96
83 118 96
83 117 96
83 118 96
83 118 96
83 117 96
83 118 96
83 118 96
83 118 96
83 118 96
83 118 96
83 118 96
83 118 96
83 118 96
83 117 96
83 117 96
83 117 96
83 118 96
83 118 96
83 118 96
83 118 96
83 117 95
83 118 96
83 117 96
83 117 96
83 117 95
82 117 95
83 117 96
83 117 96
83 117 96
83 117 96
83 118 96
83 117 95
83 117 96
82 116 94
50 65 58
37 39 42
39 41 44
39 42 45
40 42 46
40 43 46
41 43 47
41 43 47
41 43 47
41 44 47
41 44 47
41 44 47
41 44 47
41 44 47
41 44 47
41 44 47
41 44 47
41 43 47
41 43 47
40 43 47
40 43 47
40 43 47
40 43 47
40 43 46
40 42 46
39 42 46
39 42 46
39 42 45
39 41 45
38 41 45
38 41 44
37 40 44
37 40 44
37 39 43
36 39 42
35 38 42
34 37 40
32 35 38
30 33 37
63 88 73
82 117 95
82 117 95
83 117 95
82 117 95
82 117 95
82 117 95
82 117 95
83 117 95
83 117 95
83 117 95
83 117 96
82 117 95
82 117 95
82 117 95
83 117 96
83 117 95
82 117 95
83 117 95
82 117 95
83 117 96
82 117 95
83 117 96
82 117 95
82 117 95
82 117 95
83 117 96
83 117 95
82 117 95
82 117 95
83 117 95
82 117 96
82 117 96
82 117 95
82 117 95
82 117 95
82 117 95
83 117 95
83 117 95
82 117 95
82 117 95
82 117 95
82 117 95
82 117 95
82 117 95
82 117 95
82 117 95
82 117 95
82 117 95
82 117 95
82 117 95
82 117 95
83 117 95
82 117 95
83 117 95
82 117 95
82 117 95
83 117 95
82 117 95
82 117 95
82 117 95
82 116 95
82 117 95
83 117 95
82 117 95
82 117 95
82 117 95
82 117 95
82 117 95
82 117 95
82 117 95
82 117 95
82 117 95
82 116 95
82 117 95
82 117 95
82 116 95
82 116 95
82 116 95
82 117 95
82 117 95
82 117 95
82 116 95
82 117 95
82 116 95
82 117 95
82 116 95
82 117 95
82 117 95
82 117 95
82 117 95
82 117 95
82 116 95
82 117 95
82 116 95
82 116 95
82 117 95
82 117 95
82 117 95
82 117 95
82 116 95
82 117 95
82 116 95
82 117 95
82 116 95
82 116 95
82 116 95
82 116 95
82 116 95
82 116 95
82 116 95
82 117 95
82 116 95
82 116 95
82 116 95
82 116 95
81 116 95
82 116 95
82 116 95
82 116 95
82 116 95
82 116 95
82 116 95
82 116 95
82 116 95
82 116 95
82 116 95
82 116 95
82 116 95
82 116 95
82 116 95
82 116 95
82 116 95
82 116 95
82 116 95
82 116 95
82 116 95
82 116 95
82 116 95
82 116 95
82 116 95
82 116 95
82 116 94
82 116 95
82 116 95
81 116 95
82 116 95
82 116 95
82 116 95
82 116 95
82 116 95
82 116 95
82 116 95
82 116 95
82 116 95
81 116 95
82 116 95
82 116 94
81 116 95
81 116 94
82 116 95
81 116 95
82 116 95
81 116 95
81 116 94
81 116 95
82 116 95
81 116 94
82 116 95
82 116 94
81 116 94
81 115 94
81 115 94
82 116 95
81 116 94
81 116 94
82 116 94
81 116 94
81 116 94
81 116 95
81 116 94
81 116 94
81 116 95
82 116 94
81 116 95
81 116 95
81 116 94
81 116 95
81 116 94
81 115 94
81 116 95
81 116 95
81 116 94
82 116 94
81 115 94
81 116 94
81 116 94
81 116 94
81 116 94
81 115 94
81 116 94
81 116 94
81 116 94
81 116 94
81 116 94
81 116 94
81 116 94
81 116 94
81 115 94
81 116 94
81 115 94
81 115 94
81 115 94
81 116 94
81 115 94
81 115 94
81 116 94
81 115 94
81 115 94
81 116 94
81 115 94
81 115 94
81 115 94
81 116 94
81 115 94
81 115 94
81 115 94
81 115 94
81 115 94
81 115 94
81 115 94
81 115 94
81 115 94
81 115 94
81 115 94
81 115 94
81 115 94
81 115 94
81 115 94
81 115 94
81 115 94
81 115 94
81 115 94
81 115 94
81 115 94
81 115 94
81 115 94
81 115 94
81 115 94
81 115 94
81 115 94
81 115 94
81 115 94
81 115 94
81 115 94
81 115 94
81 115 94
81 115 94
81 115 94
81 115 94
81 115 94
81 115 94
81 115 94
81 115 94
80 114 94
81 115 94
81 115 94
81 115 94
81 115 94
81 115 94
81 115 94
81 115 94
81 115 94
81 115 94
81 115 94
81 115 94
81 115 94
81 115 94
81 115 94
81 115 94
80 115 94
81 115 94
80 115 94
80 115 94
81 115 94
80 115 94
80 114 93
80 115 94
80 115 94
80 115 94
80 115 94
80 114 94
80 115 94
80 114 93
80 115 94
80 115 94
81 115 94
80 114 93
80 115 94
81 115 94
80 114 94
80 115 94
80 115 94
80 115 94
80 115 94
80 114 93
80 115 94
80 114 94
80 114 94
80 115 94
80 114 94
83 118 96
84 118 96
83 118 96
84 118 96
83 118 96
83 118 96
83 118 96
83 118 96
83 118 96
83 118 96
83 118 96
83 118 96
83 118 96
83 118 96
83 118 96
83 118 96
83 118 96
83 118 96
83 118 96
83 118 96
83 118 96
83 118 96
83 118 96
83 118 96
83 118 96
83 118 96
83 118 96
83 118 96
83 118 96
83 118 96
83 118 96
83 118 96
84 118 96
83 118 96
84 118 96
83 118 96
83 118 96
83 118 96
83 118 96
83 118 96
83 118 96
83 118 96
83 118 96
84 118 96
83 118 96
83 118 96
83 118 96
83 118 96
83 118 96
83 118 96
83 118 96
83 118 96
83 118 96
83 118 96
83 118 96
83 118 96
83 118 96
83 118 96
83 118 96
84 118 96
83 118 96
83 118 96
83 118 96
83 118 96
83 118 96
83 118 96
83 118 96
83 118 96
83 118 96
83 118 96
83 118 96
83 118 96
84 118 96
83 118 96
84 118 96
83 118 96
83 118 96
83 118 96
83 118 96
84 118 96
83 118 96
83 118 96
83 118 96
83 118 96
83 118 96
83 118 96
83 118 96
83 118 96
83 118 96
83 118 96
83 118 96
83 118 96
83 118 96
83 118 96
83 118 96
83 118 96
83 118 96
84 118 96
83 118 96
83 118 96
83 118 96
83 118 96
83 118 96
83 118 96
83 118 96
83 118 96
83 118 96
83 118 96
83 118 96
83 118 96
84 118 96
83 118 96
83 118 96
84 118 96
84 118 96
83 118 96
83 118 96
84 118 96
83 118 96
83 118 96
83 118 96
83 118 96
83 118 96
83 118 96
84 118 96
84 118 96
83 118 96
83 118 96
84 118 96
83 118 96
83 118 96
83 118 96
83 118 96
84 118 96
83 118 96
83 118 96
83 118 96
84 118 96
83 118 96
83 118 96
83 118 96
83 118 96
83 118 96
83 118 96
83 118 96
83 118 96
83 118 96
83 118 96
84 118 96
83 118 96
83 118 96
83 118 96
83 118 96
83 118 96
83 118 96
84 118 96
83 117 96
84 118 96
83 118 96
83 118 96
83 118 96
83 118 96
83 118 96
83 118 96
83 118 96
83 118 96
83 118 96
83 118 96
83 118 96
83 118 96
83 118 96
83 118 96
83 118 96
83 118 96
83 118 96
83 118 96
83 118 96
83 118 96
83 118 96
83 117 95
83 118 96
83 118 96
83 118 96
83 118 96
83 118 96
83 118 96
83 118 96
83 118 96
83 118 96
83 118 96
83 118 96
83 118 96
83 118 96
83 118 96
83 118 96
83 118 96
83 118 96
83 118 96
83 118 95
83 118 96
83 118 96
83 118 96
83 118 96
83 118 96
84 118 96
83 118 96
83 118 96
83 118 96
83 118 96
83 118 96
83 118 96
83 118 96
83 118 96
83 117 96
83 118 96
83 118 96
83 118 96
83 117 96
82 117 95
83 118 96
83 117 96
83 118 96
83 118 96
83 117 95
83 118 96
83 117 95
83 117 95
82 117 96
83 118 96
83 118 96
83 118 96
83 118 96
83 118 96
83 118 96
83 118 96
83 117 95
83 118 96
83 117 95
83 117 95
83 117 96
83 117 96
83 118 96
83 117 96
83 118 96
83 117 96
83 117 95
83 118 96
83 117 96
82 117 95
66 91 76
36 39 42
37 40 43
39 41 44
39 42 45
40 43 46
41 43 46
41 43 47
41 43 47
41 44 47
41 44 47
41 44 47
41 44 47
41 44 47
41 44 47
41 44 47
41 44 47
41 44 47
41 44 47
41 43 47
41 43 47
40 43 47
40 43 47
40 43 47
40 43 46
40 42 46
39 42 46
39 42 46
39 42 45
39 41 45
38 41 45
38 41 44
38 40 44
37 40 44
37 40 43
36 39 42
35 38 41
34 37 40
33 36 39
31 34 37
30 35 37
77 108 89
83 117 96
82 117 96
82 117 95
83 117 95
83 117 95
83 117 95
82 117 96
83 118 96
83 117 95
83 117 96
82 117 95
82 117 95
82 117 95
82 117 95
83 117 95
82 117 95
83 117 96
83 117 95
83 117 95
83 117 95
83 117 96
83 117 95
83 117 96
82 117 95
82 117 95
83 117 95
82 117 95
83 117 95
83 117 95
83 117 95
82 117 95
83 117 95
82 117 95
82 117 95
82 117 95
83 117 95
82 117 95
83 117 96
82 117 96
82 117 95
82 117 95
82 117 95
82 117 95
83 117 95
83 117 95
82 117 95
82 116 95
82 116 95
82 117 95
82 117 95
82 117 95
82 117 95
82 117 95
82 117 95
82 117 95
82 117 95
82 117 95
82 117 95
82 117 95
82 116 95
82 117 95
83 117 95
82 117 95
82 117 95
82 117 95
82 116 95
82 116 95
82 117 95
82 117 95
82 117 95
82 116 95
82 117 95
82 117 95
83 117 95
82 117 95
82 117 95
82 117 95
82 117 95
82 117 95
82 116 95
82 116 95
82 116 95
82 117 95
82 117 95
82 117 95
82 117 95
82 116 95
82 117 95
82 117 95
82 117 95
83 117 95
82 116 95
82 116 95
82 116 95
82 116 95
82 117 95
82 116 95
82 116 94
82 116 95
82 117 95
82 116 95
82 116 95
82 116 95
82 116 95
82 117 95
82 116 95
81 116 95
82 116 95
82 116 95
82 117 95
82 116 95
82 116 95
82 117 95
82 117 95
82 116 95
82 116 95
82 116 95
82 117 95
82 116 95
82 116 95
82 116 95
82 116 94
82 116 94
82 116 95
82 117 95
82 116 95
82 116 95
82 116 95
82 116 95
82 116 95
81 116 94
82 116 95
82 116 95
82 116 95
82 116 95
82 116 95
82 116 94
82 117 95
82 116 95
82 116 95
81 116 94
81 116 95
82 116 94
82 116 95
82 116 95
81 116 94
82 116 95
82 116 95
81 116 94
81 116 95
82 116 95
82 116 95
82 116 95
82 116 94
82 116 95
82 116 95
82 116 95
81 116 94
81 116 95
81 116 94
81 116 94
82 116 95
81 116 95
81 116 94
81 116 94
82 116 95
81 116 95
82 116 95
82 116 95
82 116 95
81 116 95
81 116 95
81 116 95
81 116 95
82 116 94
82 116 94
81 116 94
81 116 95
81 116 94
81 116 95
81 116 94
82 116 94
81 116 94
81 116 94
81 116 94
82 116 95
81 116 95
81 116 94
81 116 95
81 116 94
81 116 95
81 116 94
81 116 94
81 116 94
81 116 95
81 115 94
82 116 94
81 116 94
81 115 94
81 116 94
81 116 94
81 115 94
81 116 94
81 115 94
81 116 94
81 115 94
81 115 94
81 115 94
81 116 94
81 116 94
81 116 94
81 116 94
82 116 94
81 116 94
81 116 94
81 116 94
81 115 94
81 115 94
81 115 94
81 115 94
81 115 94
81 115 94
81 116 94
81 115 94
81 115 94
81 115 94
81 115 94
81 115 94
81 115 94
81 115 94
81 115 94
81 115 94
81 115 94
81 115 94
81 115 94
81 115 94
81 115 94
81 115 94
81 115 94
81 115 94
81 115 94
81 115 94
81 115 94
81 115 94
81 115 94
81 115 94
81 115 94
81 115 94
81 115 94
81 115 94
81 115 94
81 115 94
81 115 94
81 115 94
81 115 94
81 115 94
81 115 94
81 115 94
81 115 94
81 115 94
81 115 94
81 115 94
81 115 94
81 115 94
81 115 94
81 115 94
81 115 94
81 115 94
80 114 94
81 115 94
81 115 94
81 115 94
81 115 94
81 115 94
81 115 94
81 115 94
80 115 94
81 115 94
80 115 94
80 115 94
80 115 94
81 115 94
81 115 94
81 115 94
81 115 94
80 115 94
81 115 94
80 115 94
81 115 94
80 115 94
81 115 94
80 115 94
80 115 94
81 115 94
80 115 94
80 115 94
80 115 94
80 115 94
81 115 94
80 115 94
80 115 94
80 114 94
80 114 94
80 114 93
80 114 94
80 114 94
80 115 94
80 114 94
80 114 93
83 118 96
83 118 96
83 118 96
83 118 96
83 118 96
83 118 96
83 118 96
83 118 96
83 118 96
84 118 96
83 118 96
83 118 96
83 118 96
83 118 96
83 118 96
83 118 96
83 118 96
83 118 96
83 118 96
83 118 96
83 118 96
83 118 96
83 118 96
84 118 96
83 118 96
83 118 96
83 118 96
83 118 96
84 118 96
83 118 96
83 118 96
83 118 96
83 118 96
83 118 96
83 118 96
83 118 96
83 118 96
83 118 96
83 118 96
83 118 96
83 118 96
84 118 96
83 118 96
83 118 96
83 118 96
83 118 96
83 118 96
83 118 96
84 118 96
83 118 96
84 118 96
83 118 96
84 118 96
83 118 96
83 118 96
83 118 96
84 118 96
83 118 96
83 118 96
84 118 96
83 118 96
84 119 96
83 118 96
83 118 96
83 118 96
83 118 96
83 118 96
83 118 96
83 118 96
83 118 96
83 118 96
83 118 96
83 118 96
83 118 96
83 118 96
83 118 96
83 118 96
83 118 96
83 118 96
83 118 96
84 118 96
84 118 96
84 118 96
83 118 96
83 118 96
84 118 96
83 118 96
84 119 96
84 118 96
83 118 96
84 118 96
83 118 96
83 118 96
83 118 96
84 118 96
83 118 96
83 118 96
83 118 96
83 118 96
83 118 96
83 118 96
83 118 96
83 118 96
83 118 96
83 118 96
83 118 96
84 118 96
83 118 96
83 118 96
83 118 96
83 118 96
84 118 96
83 118 96
84 119 96
83 118 96
84 118 96
83 118 96
83 118 96
84 118 96
83 118 96
83 118 96
83 118 96
84 118 96
83 118 96
83 118 96
84 118 96
83 118 96
83 118 96
83 118 96
83 118 96
83 118 96
83 118 96
84 118 96
83 118 96
83 118 96
83 118 96
83 118 96
84 118 96
83 118 96
83 118 96
83 118 96
83 118 96
84 118 96
83 118 96
83 118 96
83 118 96
83 118 96
83 118 96
83 118 96
84 118 96
83 118 96
83 118 96
83 118 96
83 118 96
84 118 96
83 118 96
83 118 96
83 118 96
83 118 96
83 118 96
83 118 96
83 118 96
83 118 96
83 117 96
83 118 96
83 118 96
83 118 96
83 118 96
83 118 96
84 118 96
83 118 96
83 118 96
83 118 96
83 118 96
83 118 96
83 118 96
84 118 96
83 118 96
83 118 96
83 118 96
83 118 96
83 118 96
83 118 96
83 117 96
83 118 96
83 118 96
83 118 96
83 118 96
83 118 96
83 117 96
83 118 96
83 118 96
83 118 96
83 118 96
83 118 96
83 118 96
83 118 96
83 117 96
82 117 95
83 118 96
83 118 96
83 118 96
83 118 96
83 117 95
83 118 96
83 118 96
83 118 96
83 118 96
83 118 96
83 118 96
83 118 96
83 118 96
83 118 96
83 118 96
83 118 96
83 118 96
83 118 96
83 118 96
83 118 96
83 118 96
83 117 95
83 118 96
83 118 96
83 117 96
83 118 96
83 118 96
83 118 96
83 118 96
83 117 96
83 118 96
83 118 96
83 117 95
83 117 95
83 118 96
83 117 95
83 118 96
83 117 95
83 118 96
83 118 96
83 117 95
83 118 96
83 118 96
83 118 96
83 118 96
83 118 96
82 117 95
83 118 96
83 118 96
79 111 91
39 46 45
37 39 42
38 40 43
39 41 44
40 42 45
40 42 46
40 43 46
41 43 47
41 44 47
41 44 47
41 44 47
41 44 47
41 44 47
41 44 47
41 44 47
41 44 47
42 44 48
42 44 48
41 44 47
41 44 47
41 43 47
41 43 47
40 43 47
40 43 47
40 43 46
40 43 46
40 42 46
39 42 46
39 42 45
39 41 45
39 41 45
38 41 45
38 40 44
37 40 44
37 39 43
36 39 42
36 38 41
34 37 40
33 36 39
32 34 38
30 33 36
48 65 56
81 115 94
83 117 96
83 117 96
82 116 95
82 116 95
83 118 96
83 117 95
83 117 95
82 117 95
82 117 95
82 117 95
83 117 96
82 117 95
82 117 95
82 116 95
82 117 95
82 117 95
83 117 96
82 116 95
83 117 95
82 117 95
83 117 95
82 117 95
83 117 95
83 117 95
83 117 95
82 116 95
82 117 95
82 117 95
83 117 96
83 117 95
83 117 95
83 117 95
82 117 95
83 117 96
82 117 95
83 117 95
82 117 95
83 117 95
83 117 95
82 117 95
82 117 95
83 117 95
82 117 95
82 117 95
83 117 95
83 117 95
82 117 95
82 117 95
82 117 95
82 117 95
82 117 95
82 116 95
82 117 95
82 117 95
82 116 95
83 117 95
82 117 95
83 117 95
83 117 95
82 116 95
82 117 95
82 117 95
82 117 95
82 117 95
82 117 95
82 116 95
82 117 95
82 117 95
83 117 95
82 117 95
82 117 95
82 117 95
82 117 95
82 116 95
82 117 95
82 117 95
82 116 95
82 117 95
82 116 95
82 117 95
82 117 95
82 116 95
82 116 94
82 116 95
82 117 95
82 116 95
82 117 95
82 116 95
82 117 95
82 117 95
82 117 95
82 116 95
82 117 95
82 116 95
82 116 95
82 117 95
82 117 95
82 117 95
82 117 95
82 117 95
82 117 95
82 117 95
82 117 95
82 117 95
82 116 95
82 116 95
82 116 95
82 117 95
82 116 95
82 116 95
82 116 94
82 116 95
82 117 95
82 117 95
82 116 95
82 116 95
82 116 95
82 116 95
82 116 95
82 116 95
82 116 95
82 117 95
82 116 95
82 116 94
82 116 95
82 116 95
82 117 95
82 116 95
82 116 95
82 116 95
82 116 95
82 116 95
81 116 95
82 116 95
81 116 95
82 116 95
82 116 95
82 117 95
81 116 95
82 116 95
82 116 95
82 116 95
82 117 95
81 116 95
82 116 95
82 116 94
82 116 95
82 116 95
82 116 94
82 116 94
81 116 95
81 116 95
82 116 95
82 116 95
82 116 95
82 116 95
82 116 95
81 116 94
82 116 95
82 116 95
82 116 95
82 116 95
82 116 95
82 116 95
82 116 94
82 116 95
82 116 95
82 116 95
82 116 95
82 116 94
82 116 95
81 116 95
81 116 94
81 116 94
81 116 95
81 116 95
81 116 95
81 116 95
81 116 94
82 116 95
82 116 95
81 116 94
81 116 95
81 116 94
81 116 95
81 116 94
81 115 94
82 116 95
81 116 94
82 116 95
81 116 94
81 116 95
81 115 94
81 116 95
81 116 95
81 116 95
81 116 95
81 115 94
81 116 94
82 116 95
81 115 94
81 116 94
81 116 94
81 116 94
81 115 94
81 116 94
81 116 94
82 116 94
81 115 94
81 115 94
81 115 94
81 116 94
81 115 94
81 115 94
81 115 94
81 115 94
81 115 94
81 116 94
81 115 94
81 116 94
81 115 94
81 115 94
81 115 94
81 116 94
81 116 94
81 115 94
81 115 94
81 115 94
81 116 94
81 116 94
81 115 94
81 115 94
81 115 94
81 116 94
81 115 94
81 115 94
81 116 94
81 115 94
81 115 94
81 115 94
81 115 94
81 115 94
81 115 94
81 115 94
81 115 94
81 115 94
81 115 94
81 115 94
81 115 94
81 115 94
81 115 94
81 115 94
81 115 94
81 115 94
81 115 94
81 115 94
81 115 94
81 115 94
81 115 94
81 115 94
81 115 94
81 115 94
81 115 94
81 115 94
81 115 94
81 115 94
81 115 94
81 115 94
81 115 94
81 115 94
81 115 94
81 115 94
81 115 94
80 115 94
80 115 94
80 114 94
81 115 94
81 115 94
81 115 94
80 114 94
81 115 94
81 115 94
81 115 94
80 115 94
81 115 94
81 115 94
80 115 94
80 115 94
80 115 94
80 114 93
81 115 94
81 115 94
80 115 94
80 115 94
80 115 94
81 115 94
80 115 94
81 115 94
80 115 94
80 115 94
80 115 94
80 115 94
80 114 94
80 115 94
80 115 94
81 115 94
80 114 94
80 114 93
83 118 96
84 118 96
83 118 96
84 119 96
84 118 96
84 118 96
83 118 96
83 118 96
84 118 96
83 118 96
83 118 96
83 118 96
83 118 96
83 118 96
83 118 96
83 118 96
84 118 96
83 118 96
83 118 96
84 118 96
83 118 96
83 118 96
83 118 96
84 118 96
83 118 96
84 118 96
83 118 96
83 118 96
84 118 96
83 118 96
83 118 96
83 118 96
83 118 96
84 119 96
83 118 96
83 118 96
84 118 96
83 118 96
83 118 96
83 118 96
84 118 96
84 118 96
84 118 96
84 118 96
83 118 96
83 118 96
84 118 96
84 118 96
83 118 96
84 118 96
83 118 96
84 118 96
83 118 96
84 118 96
83 118 96
84 118 96
83 118 96
83 118 96
84 119 96
84 118 96
83 118 96
84 118 96
83 118 96
83 118 96
83 118 96
84 119 96
83 118 96
84 119 96
83 118 96
83 118 96
84 119 96
83 118 96
83 118 96
83 118 96
84 119 96
84 118 96
84 118 96
84 118 96
83 118 96
83 118 96
84 119 96
83 118 96
83 118 96
84 118 96
84 118 96
83 118 96
84 118 96
83 118 96
83 118 96
83 118 96
83 118 96
84 119 96
83 118 96
83 118 96
83 118 96
84 119 96
83 117 96
83 118 96
83 118 96
83 118 96
83 118 96
83 118 96
84 118 96
83 118 96
83 118 96
83 118 96
83 118 96
83 118 96
83 118 96
83 118 96
83 118 96
83 118 96
83 118 96
83 118 96
83 118 96
83 118 96
83 118 96
83 118 96
84 118 96
83 118 96
83 118 96
84 118 96
83 118 96
83 118 96
84 119 96
83 118 96
83 118 96
83 118 96
83 118 96
83 118 96
84 119 96
83 118 96
83 118 96
83 118 96
83 118 96
83 118 96
83 118 96
83 118 96
84 118 96
83 118 96
83 118 96
83 118 96
84 119 96
83 118 96
84 118 96
83 118 96
84 118 96
83 118 96
83 118 96
84 118 96
83 118 96
83 118 96
83 118 96
83 118 96
84 118 96
83 118 96
83 118 96
83 118 96
83 118 96
83 118 96
83 118 96
83 118 96
83 118 96
83 118 96
83 118 96
83 118 96
83 118 96
83 118 96
83 118 96
83 118 96
83 118 96
83 118 96
83 118 96
83 118 96
83 118 96
83 118 96
83 118 96
83 118 96
83 118 96
83 118 96
83 118 96
83 118 96
83 118 96
83 118 96
83 118 96
83 118 96
83 118 96
83 118 96
83 118 96
84 118 96
83 118 96
83 118 96
83 118 96
83 118 96
83 118 96
83 118 96
83 118 96
83 118 96
83 118 96
83 118 96
83 118 96
83 118 96
83 118 96
83 118 96
83 118 96
83 118 96
83 118 96
83 118 96
83 118 96
83 118 96
83 118 96
83 118 96
84 118 96
83 118 96
83 118 96
83 118 96
83 118 96
83 118 96
83 117 95
83 118 96
83 118 96
83 118 96
83 118 96
83 118 96
83 118 96
83 118 96
83 118 96
83 118 96
83 118 96
83 117 95
83 118 96
83 117 95
83 117 96
83 117 96
83 118 96
83 118 96
83 117 96
83 118 96
83 118 96
83 118 96
83 118 96
83 117 96
83 118 96
83 118 96
83 118 96
83 117 96
83 118 96
83 117 96
60 82 69
36 38 41
38 40 43
38 41 43
39 41 44
40 42 45
40 42 45
40 43 46
41 43 46
41 43 47
41 44 47
41 44 47
41 44 47
41 44 47
42 44 47
42 44 48
43 45 48
45 47 49
46 48 50
46 48 50
44 46 49
42 44 48
41 44 47
40 43 47
40 43 47
40 43 46
40 42 46
40 42 46
39 42 46
39 42 45
39 42 45
39 41 45
38 41 44
38 40 44
38 40 43
37 39 43
36 39 42
35 38 41
35 37 40
33 36 39
33 35 39
30 33 36
28 31 34
70 98 81
83 117 95
82 117 95
83 117 95
83 117 95
83 117 96
83 117 95
82 117 95
83 117 96
82 117 95
83 117 96
83 117 95
82 117 95
82 117 95
83 117 95
82 117 95
83 117 95
82 117 95
83 117 96
83 117 95
83 117 95
82 117 95
83 117 95
83 117 95
83 117 95
82 117 95
82 117 95
83 117 95
83 117 95
83 117 95
82 117 95
82 117 95
83 117 95
83 117 95
82 117 95
82 117 95
83 117 95
82 117 95
82 117 95
82 117 95
82 117 95
83 117 96
83 117 95
82 117 95
82 117 95
82 117 95
82 117 95
82 117 95
82 117 95
83 117 95
82 117 95
82 117 95
82 117 95
83 117 95
83 117 96
82 117 95
83 117 96
83 117 95
82 117 95
82 117 95
82 117 95
82 117 95
82 117 95
82 117 95
82 116 95
83 117 95
82 117 95
82 117 95
82 117 95
82 117 95
82 117 95
83 117 95
82 117 95
82 117 95
82 117 95
82 117 95
83 117 95
82 117 95
83 117 95
82 117 95
82 117 95
82 117 95
82 116 95
82 116 95
82 117 95
82 117 95
82 117 95
82 117 95
82 116 95
82 117 95
82 116 95
82 117 95
82 117 95
82 117 95
82 117 95
82 116 95
82 117 95
82 116 95
82 117 95
82 116 95
82 117 95
82 117 95
82 117 95
82 116 95
82 116 95
82 116 95
82 117 95
82 116 95
82 117 95
82 116 95
82 116 95
82 117 95
82 117 95
82 117 95
82 116 95
82 117 95
82 116 95
82 117 95
82 116 95
82 117 95
82 116 95
82 116 95
82 116 95
82 116 95
82 116 95
82 116 95
82 116 95
82 117 95
82 116 95
82 116 95
82 116 95
82 117 95
82 116 95
82 117 95
82 116 95
82 117 95
82 116 95
82 116 95
82 116 95
82 117 95
82 116 95
82 116 95
82 116 95
82 116 95
82 116 95
82 116 95
82 116 95
82 116 95
82 117 95
82 116 95
82 116 95
82 117 95
82 116 95
82 116 95
82 116 95
81 116 95
82 116 95
82 116 95
82 116 95
81 116 95
82 116 95
82 116 95
82 116 95
82 116 95
82 116 95
82 116 95
82 116 95
81 116 95
82 116 94
81 116 94
82 116 94
81 116 94
81 116 94
82 116 94
82 116 95
82 116 95
82 116 95
82 116 95
82 116 95
81 116 94
81 116 94
82 116 94
81 116 95
81 116 95
81 116 95
81 116 95
81 116 94
82 116 94
82 116 95
81 116 95
81 116 95
81 116 95
81 116 95
81 116 95
81 116 94
82 116 94
81 116 94
81 116 95
82 116 95
81 115 94
81 116 94
81 115 94
82 116 95
81 116 94
81 115 94
81 116 94
81 116 95
81 115 94
82 116 94
81 116 94
81 115 94
81 115 94
81 115 94
81 116 94
82 116 94
81 116 94
81 115 94
81 115 94
81 115 94
81 116 94
81 116 94
81 115 94
81 116 94
81 116 94
81 115 94
81 115 94
81 115 94
81 115 94
81 115 94
81 115 94
81 115 94
82 116 94
81 115 94
81 115 94
81 115 94
81 116 94
81 115 94
81 116 94
81 115 94
81 115 94
81 115 94
81 115 94
81 115 94
81 115 94
81 115 94
81 115 94
81 115 94
81 115 94
81 115 94
81 115 94
81 115 94
81 115 94
81 115 94
81 115 94
81 115 94
81 115 94
81 115 94
81 115 94
81 115 94
80 115 94
81 115 94
81 115 94
81 115 94
81 115 94
81 115 94
81 115 94
81 115 94
81 115 94
81 115 94
81 115 94
81 115 94
81 115 94
81 115 94
81 115 94
81 115 94
81 115 94
81 115 94
81 115 94
81 115 94
80 115 94
81 115 94
81 115 94
81 115 94
81 115 94
81 115 94
81 115 94
80 115 94
81 115 94
81 115 94
80 115 94
81 115 94
80 115 94
80 114 94
81 115 94
80 115 94
80 115 94
80 115 94
81 115 94
80 115 94
80 115 94
80 115 94
81 115 94
80 115 94
81 115 94
80 114 94
80 114 94
80 114 93
80 115 94
80 114 94
84 119 96
84 119 96
83 118 96
83 118 96
84 119 96
83 118 96
83 118 96
83 118 96
83 118 96
84 118 96
83 118 96
83 118 96
83 118 96
83 118 96
83 118 96
83 118 96
83 118 96
83 118 96
83 118 96
84 118 96
83 118 96
84 119 96
84 119 96
83 118 96
83 118 96
84 119 96
83 118 96
84 119 96
84 118 96
83 118 96
83 118 96
83 118 96
84 118 96
84 119 96
84 119 96
83 118 96
83 118 96
83 118 96
83 118 96
83 118 96
84 119 96
84 118 96
83 118 96
84 118 96
84 118 96
83 118 96
83 118 96
83 118 96
84 118 96
83 118 96
83 118 96
84 119 96
84 119 96
84 119 96
83 118 96
84 119 96
84 119 96
84 118 96
84 119 96
84 119 96
83 118 96
83 118 96
83 118 96
84 118 96
84 119 96
84 119 96
84 118 96
84 118 96
83 118 96
84 118 96
84 118 96
83 118 96
83 118 96
83 118 96
84 118 96
84 119 96
84 119 96
84 119 96
84 119 96
84 119 96
83 118 96
84 119 96
84 118 96
84 118 96
83 118 96
84 119 96
84 119 96
83 118 96
84 118 96
84 119 96
83 118 96
84 119 96
84 118 96
84 118 96
83 118 96
83 118 96
84 118 96
83 118 96
83 118 96
83 118 96
84 119 96
83 118 96
84 119 96
83 118 96
83 118 96
83 118 96
84 118 96
83 118 96
84 118 96
83 118 96
84 119 96
84 118 96
83 118 96
84 118 96
84 118 96
83 118 96
84 119 96
84 119 96
83 118 96
83 118 96
83 118 96
84 119 96
83 118 96
84 118 96
83 118 96
83 118 96
83 118 96
84 118 96
83 118 96
83 118 96
84 119 96
83 118 96
83 118 96
83 118 96
84 118 96
83 118 96
83 118 96
83 118 96
83 118 96
83 118 96
83 118 96
84 118 96
83 118 96
83 118 96
84 119 96
84 118 96
83 118 96
84 118 96
84 118 96
84 118 96
83 118 96
84 118 96
83 118 96
84 118 96
83 118 96
83 118 96
83 118 96
84 118 96
84 118 96
83 118 96
83 118 96
83 118 96
83 118 96
84 119 96
84 118 96
84 118 96
83 118 96
83 118 96
84 118 96
83 118 96
83 118 96
83 118 96
84 118 96
83 118 96
83 118 96
84 118 96
84 118 96
83 118 96
83 118 96
83 118 96
83 118 96
83 118 96
83 118 96
83 118 96
83 118 96
83 118 96
83 117 96
83 118 96
83 118 96
83 118 96
83 118 96
84 118 96
83 118 96
83 117 95
83 118 96
83 118 96
83 118 96
83 118 95
83 118 96
83 118 96
83 118 96
83 118 96
83 118 96
83 118 96
83 118 96
84 118 96
83 118 96
83 118 96
83 118 96
83 118 96
83 118 96
83 118 96
83 118 96
83 118 96
83 118 96
83 118 96
83 118 96
83 118 96
83 118 96
83 118 96
83 118 96
83 117 95
83 118 96
83 118 96
83 117 96
83 118 96
83 118 96
83 118 96
83 118 96
83 118 96
83 118 96
83 118 96
82 117 95
83 117 95
83 117 95
83 117 95
83 118 96
83 118 96
83 118 96
83 117 96
83 118 96
83 118 96
83 118 96
83 117 95
83 118 96
83 117 96
83 117 95
79 112 91
39 45 44
36 39 41
38 40 43
38 40 43
39 41 44
39 42 45
40 43 46
40 43 46
41 43 46
41 43 47
41 44 47
41 44 47
42 44 47
42 44 47
43 45 48
46 47 50
53 53 54
62 61 59
65 63 61
61 60 59
56 56 56
48 49 51
43 45 48
41 44 47
40 43 47
40 43 46
40 43 46
40 42 46
40 42 46
39 42 45
39 42 45
39 41 45
38 41 44
38 40 44
38 40 43
37 39 43
36 38 41
35 38 41
34 37 40
34 36 39
33 35 38
30 33 36
29 32 35
42 56 50
82 116 95
83 118 96
83 117 95
82 117 95
82 117 95
83 117 95
83 117 95
83 117 95
83 117 95
82 117 95
83 117 95
82 117 95
83 117 96
83 117 95
83 117 95
83 117 95
83 117 95
83 117 96
82 117 95
83 117 96
83 118 96
83 117 95
83 117 95
83 117 95
83 117 95
83 117 95
83 117 95
83 117 95
83 117 95
82 117 95
83 117 95
82 117 95
82 117 96
83 117 95
83 117 95
83 118 96
82 117 95
83 117 95
83 117 96
82 117 95
83 118 96
83 117 95
82 117 95
82 117 95
82 117 96
82 117 95
83 118 96
83 117 95
82 117 95
82 117 95
82 117 95
82 117 95
82 117 95
82 117 95
82 117 95
82 117 95
82 117 95
82 117 95
82 117 95
82 117 95
82 117 95
83 118 96
82 117 95
82 117 95
83 117 95
83 117 95
83 117 95
82 117 95
82 117 95
82 117 95
82 117 95
83 117 95
82 117 95
82 117 95
82 117 95
82 116 95
82 116 95
83 117 95
83 117 95
82 117 95
82 117 95
83 117 95
82 117 95
82 116 95
82 117 95
83 117 95
82 117 95
82 116 95
82 117 95
82 117 95
82 117 95
82 117 95
82 117 95
82 117 95
82 117 95
82 117 95
82 116 95
82 116 95
82 116 95
82 116 95
82 117 95
82 117 95
82 117 95
82 117 95
82 116 95
82 117 95
82 117 95
82 116 95
82 117 95
82 117 95
82 117 95
82 117 95
82 117 95
82 117 95
82 116 95
82 116 95
82 116 95
82 117 95
82 116 95
82 117 95
82 117 95
82 116 95
82 116 95
82 117 95
82 116 95
82 116 95
82 116 95
82 117 95
82 116 95
82 116 94
82 116 95
82 117 95
82 117 95
82 116 95
82 116 95
81 116 95
82 117 95
82 116 95
82 116 95
82 116 95
82 117 95
82 116 94
82 116 95
82 116 95
81 116 95
82 116 95
82 116 95
82 117 95
82 116 95
82 116 95
82 116 95
82 116 95
82 116 95
82 116 95
82 116 95
82 116 95
82 116 95
82 116 95
81 116 95
82 116 95
81 116 95
82 116 95
82 116 95
82 116 95
82 116 95
82 116 95
81 116 95
82 116 95
82 116 95
82 116 95
82 116 95
82 116 95
82 116 95
82 116 95
81 116 95
82 116 94
82 116 95
82 116 95
81 116 95
81 116 95
81 116 95
82 116 95
82 116 95
82 116 95
81 116 94
81 116 95
81 115 94
81 116 95
82 116 95
82 116 95
82 116 95
82 116 95
81 116 95
82 116 95
81 116 94
82 116 95
81 116 95
81 116 95
82 116 95
81 115 94
81 116 95
81 116 94
81 116 94
81 116 95
82 116 94
81 116 94
81 116 94
81 116 95
81 116 94
81 116 95
81 116 94
81 116 95
81 116 94
81 116 94
81 115 94
81 116 94
81 116 94
81 116 94
81 116 94
81 115 94
81 115 94
81 116 94
81 116 94
81 116 94
81 115 94
81 115 94
81 116 94
81 115 94
81 115 94
81 116 94
81 116 94
81 116 94
81 115 94
81 115 94
81 116 94
81 115 94
81 115 94
81 115 94
81 115 94
81 115 94
81 115 94
81 115 94
81 115 94
81 115 94
81 115 94
81 115 94
81 115 94
81 115 94
81 115 94
81 115 94
81 115 94
81 115 94
81 115 94
81 115 94
81 115 94
81 116 94
81 115 94
81 115 94
81 115 94
80 115 94
81 115 94
81 115 94
81 115 94
81 115 94
81 115 94
80 115 94
81 115 94
81 115 94
81 115 94
81 115 94
81 115 94
81 115 94
81 115 94
81 115 94
81 115 94
81 115 94
81 115 94
81 115 94
81 115 94
80 115 94
81 115 94
81 115 94
81 115 94
81 115 94
81 115 94
81 115 94
81 115 94
81 115 93
81 115 94
81 115 94
80 115 94
81 115 94
81 115 94
81 115 94
81 115 94
81 115 94
81 115 94
80 115 94
81 115 94
80 115 94
80 114 94
80 114 94
81 115 94
80 115 94
80 115 94
80 115 94
80 115 94
80 114 94
84 118 96
83 118 96
84 119 96
83 118 96
84 118 96
83 118 96
83 118 96
84 118 96
83 118 96
83 118 96
84 118 96
83 118 96
83 118 96
84 118 96
83 118 96
84 119 96
84 118 96
83 118 96
84 119 96
84 119 96
83 118 96
84 119 96
84 118 96
84 118 96
84 118 96
84 118 96
84 118 96
84 119 96
84 119 96
84 118 96
84 119 96
84 118 96
84 118 96
84 118 96
84 118 96
84 118 96
84 118 96
84 119 96
84 119 96
84 119 96
83 118 96
84 118 96
83 118 96
83 118 96
83 118 96
83 118 96
84 118 96
83 118 96
83 118 96
84 119 96
83 118 96
84 118 96
83 118 96
83 118 96
83 118 96
84 118 96
84 118 96
83 118 96
84 119 96
84 119 96
84 118 96
84 119 96
84 119 96
83 118 96
84 119 96
84 119 96
84 119 96
84 118 96
84 119 96
83 118 96
84 119 96
84 119 96
84 119 96
83 118 96
84 119 96
84 119 96
83 118 96
84 118 96
83 118 96
84 119 96
83 118 96
83 118 96
84 119 96
84 118 96
84 119 96
84 118 96
83 118 96
84 118 96
84 118 96
84 118 96
84 118 96
83 118 96
84 119 96
84 118 96
84 118 96
84 118 96
83 118 96
84 119 96
84 119 96
84 119 96
83 118 96
84 119 96
83 118 96
83 118 96
83 118 96
83 118 96
84 119 96
84 119 96
84 119 96
84 119 96
83 118 96
83 118 96
84 119 96
83 118 96
83 118 96
83 118 96
83 118 96
84 118 96
83 118 96
84 119 96
84 119 96
83 118 96
84 119 96
84 119 96
83 118 96
84 119 96
84 119 96
84 119 96
84 119 96
83 118 96
84 119 96
83 118 96
84 118 96
83 118 96
83 118 96
84 118 96
83 118 96
84 118 96
83 118 96
83 118 96
83 118 96
83 118 96
84 118 96
83 118 96
83 118 96
83 118 96
84 119 96
83 118 96
84 118 96
84 118 96
83 118 96
83 118 96
83 118 96
84 119 96
84 118 96
83 118 96
83 118 96
83 118 96
83 118 96
83 118 96
83 118 96
83 118 96
83 118 96
83 118 96
84 118 96
83 118 96
83 118 96
83 118 96
84 118 96
83 118 96
83 118 96
83 118 96
83 118 96
83 118 96
83 118 96
83 118 96
83 118 96
83 118 96
84 118 96
83 118 96
83 118 96
84 119 96
83 118 96
83 118 96
84 118 96
83 118 96
83 118 96
84 118 96
83 118 96
83 118 96
84 119 96
83 118 96
83 118 95
83 117 95
83 118 96
83 118 96
83 118 96
83 118 95
83 118 96
83 118 96
84 118 96
83 118 96
83 118 96
83 118 96
83 118 96
84 118 96
83 118 96
84 118 96
83 118 96
83 117 96
83 118 96
83 118 96
83 118 96
83 118 96
83 118 96
83 118 96
83 118 96
83 118 96
83 118 96
83 118 96
83 117 95
83 118 96
83 117 95
83 118 96
83 118 96
83 118 96
83 118 96
83 118 96
82 117 95
83 118 96
84 118 96
83 118 96
83 118 96
83 118 96
83 117 95
83 118 96
83 118 96
83 118 96
83 118 96
83 117 95
83 118 96
83 118 96
83 118 96
83 118 96
83 117 95
83 118 96
83 118 96
65 90 75
35 38 40
36 38 40
37 40 42
38 40 43
39 41 43
40 42 44
40 42 45
40 43 46
40 43 45
41 43 46
41 43 47
41 44 47
41 44 47
42 45 48
47 48 50
59 59 57
78 75 70
96 91 82
105 100 89
96 91 82
80 77 71
61 61 59
48 49 51
42 44 47
41 43 47
40 43 46
40 43 46
40 42 46
39 42 46
40 42 45
39 41 45
39 41 44
38 41 44
38 40 43
37 40 43
37 39 42
36 38 41
35 37 40
34 36 39
33 35 38
32 34 37
31 33 36
29 31 34
26 29 32
73 103 84
83 117 95
82 117 96
83 118 96
83 117 95
83 117 95
82 117 95
83 117 95
83 118 96
82 117 95
83 117 96
82 117 95
83 117 95
83 118 96
83 117 95
83 118 96
83 118 96
82 117 95
83 118 96
83 118 96
82 117 95
83 117 96
82 117 95
82 117 95
83 117 95
83 117 95
83 117 95
82 117 95
83 118 96
83 117 96
83 117 95
83 118 96
82 117 95
83 118 96
83 117 95
83 117 96
83 117 96
82 117 95
83 117 96
83 118 96
83 117 95
83 117 96
82 117 95
83 117 95
83 118 96
82 117 95
83 117 95
83 117 95
82 117 95
83 117 95
83 117 95
82 117 95
82 117 95
83 117 95
82 117 95
82 116 95
83 117 95
82 117 95
82 117 95
83 117 95
82 117 95
83 117 95
82 117 95
82 117 95
82 117 96
82 117 95
82 117 95
82 117 95
82 117 96
82 117 95
82 117 95
82 117 95
82 117 95
83 117 95
82 117 95
82 117 95
82 117 95
82 117 95
82 116 95
82 117 95
83 117 95
82 117 95
82 117 95
82 117 95
83 117 95
82 117 95
82 117 95
82 117 95
82 117 95
82 117 95
82 117 95
82 116 95
82 117 95
82 117 95
82 117 95
82 117 95
82 117 95
82 116 95
82 117 95
82 117 95
82 116 95
82 117 95
82 117 95
82 117 95
82 117 95
82 117 95
82 117 95
82 117 95
82 117 95
82 117 95
82 116 95
82 117 95
82 117 95
82 116 94
82 117 95
82 117 95
82 117 95
82 116 95
82 116 95
82 117 95
82 116 95
82 117 95
82 116 95
82 117 95
82 116 95
82 117 95
82 117 95
82 116 95
82 117 95
82 117 95
82 117 95
82 117 95
82 116 95
82 116 95
82 116 95
82 117 95
82 116 95
82 116 95
82 116 95
82 116 95
82 117 95
81 116 95
82 117 95
82 116 95
82 116 95
82 116 95
82 117 95
82 116 95
82 116 95
82 116 95
82 116 95
82 116 95
82 116 95
82 116 95
82 116 95
82 116 95
82 116 95
82 116 94
82 116 95
82 116 94
82 116 95
82 117 95
82 116 94
82 116 95
82 116 95
81 116 95
82 116 95
81 116 95
82 116 95
82 116 95
81 116 95
82 116 95
82 116 95
82 116 95
82 116 95
81 116 95
82 116 95
82 116 95
82 116 95
81 116 94
82 116 95
82 116 95
81 116 94
82 116 95
82 116 95
82 116 95
81 115 94
81 115 94
81 116 95
81 116 95
82 116 95
81 116 94
82 116 94
81 116 94
82 116 95
82 116 95
81 116 94
82 116 95
81 116 94
82 116 94
81 116 94
81 116 94
82 116 94
81 116 94
81 115 94
81 115 94
81 116 95
81 116 94
82 116 94
81 116 95
82 116 95
81 116 94
81 116 95
81 116 95
82 115 94
81 116 94
81 116 94
81 115 94
82 116 94
81 116 94
81 115 94
81 116 94
81 116 94
81 115 94
81 116 94
81 116 94
81 115 94
81 115 94
81 116 94
81 115 94
81 115 94
82 116 94
81 115 94
81 116 94
81 116 94
81 115 94
81 115 94
81 116 94
81 115 94
81 115 94
81 115 94
81 115 94
81 115 94
81 116 94
81 115 94
81 115 94
81 115 94
81 115 94
81 115 94
81 115 94
81 115 94
81 115 94
81 115 94
81 115 94
81 115 94
81 115 94
81 115 94
81 115 94
81 115 94
81 115 94
81 115 94
81 115 94
81 115 94
81 115 94
81 115 94
81 115 94
81 115 94
81 115 94
81 115 94
81 115 94
81 115 94
80 115 94
81 115 94
81 115 94
81 115 94
81 115 94
81 115 94
81 115 94
81 115 94
81 115 94
81 115 94
81 115 94
81 115 94
81 115 94
81 115 94
81 115 94
81 115 94
81 115 94
81 115 94
81 115 94
81 115 94
80 115 94
81 115 94
81 115 94
81 115 94
81 115 94
81 115 94
81 115 94
80 115 94
81 115 94
80 115 94
81 115 94
80 114 94
80 115 94
81 115 94
81 115 94
80 114 93
80 114 93
83 118 96
84 118 96
83 118 96
84 118 96
84 118 96
84 118 96
83 118 96
83 118 96
84 118 96
84 119 96
83 118 96
84 119 96
84 119 96
83 118 96
83 118 96
84 118 96
84 118 96
84 119 96
84 119 96
84 118 96
84 119 96
84 119 96
84 118 96
83 118 96
84 119 96
84 119 96
84 119 96
83 118 96
83 118 96
84 118 96
83 118 96
84 119 96
84 119 96
83 118 96
84 119 96
84 119 96
84 119 96
83 118 96
84 119 96
84 119 96
84 119 96
83 118 96
84 119 96
83 118 96
84 119 96
84 119 96
84 119 96
84 119 96
84 119 96
84 119 96
84 119 96
83 118 96
83 118 96
84 119 96
84 119 96
84 119 96
84 119 96
84 118 96
84 119 96
84 118 96
83 118 96
84 119 96
83 118 96
84 118 96
84 118 96
84 119 96
84 119 96
84 118 96
84 119 96
83 118 96
84 119 96
84 119 96
84 119 96
84 119 96
84 119 96
84 118 96
84 118 96
84 119 96
84 119 96
83 118 96
84 119 96
84 118 96
84 119 96
84 119 96
84 118 96
84 119 96
83 118 96
84 118 96
84 118 96
84 118 96
84 119 96
84 119 96
84 119 96
83 118 96
84 119 96
84 119 96
83 118 96
84 119 96
83 118 96
83 118 96
84 118 96
83 118 96
83 118 96
84 118 96
84 118 96
83 118 96
84 119 96
84 118 96
84 119 96
84 119 96
84 119 96
83 118 96
84 118 96
83 118 96
84 119 96
83 118 96
83 118 96
83 118 96
83 118 96
84 119 96
84 119 96
84 119 96
84 119 96
84 118 96
84 118 96
84 119 96
84 118 96
84 119 96
84 119 96
84 118 96
83 118 96
83 118 96
83 118 96
83 118 96
84 119 96
84 119 96
84 118 96
84 119 96
84 118 96
84 118 96
83 118 96
83 118 96
83 118 96
84 118 96
84 119 96
83 118 96
84 119 96
83 118 96
84 119 96
84 119 96
83 118 96
83 118 96
84 118 96
84 118 96
84 118 96
83 118 96
83 118 96
83 118 96
84 119 96
83 118 96
84 119 96
83 118 96
84 118 96
84 118 96
84 118 96
83 118 96
83 118 96
83 118 96
83 118 96
84 118 96
84 118 96
83 118 96
83 118 96
83 118 96
83 118 96
84 118 96
83 118 96
83 118 96
84 118 96
83 118 96
83 118 96
83 118 96
83 118 96
83 118 96
83 118 96
83 118 96
83 118 96
83 118 96
83 118 96
83 118 96
83 118 96
83 118 96
83 118 96
84 118 96
83 118 96
83 118 96
83 118 96
83 118 96
83 118 96
83 118 96
83 118 96
83 118 96
83 118 96
83 118 96
83 117 95
83 118 96
83 118 96
83 118 96
83 118 96
83 118 96
83 118 96
83 118 96
84 118 96
83 117 95
83 118 96
83 118 96
84 118 96
83 118 96
83 118 96
83 118 96
83 118 96
83 118 96
83 118 96
83 118 96
83 118 96
83 118 96
84 118 96
83 118 96
83 118 96
83 118 96
83 118 95
83 118 96
83 118 95
83 118 96
83 118 96
83 118 96
83 118 96
83 118 96
83 118 96
83 118 96
83 118 96
83 117 96
83 117 95
83 118 96
83 118 96
83 118 96
82 116 94
44 55 50
35 37 39
37 39 41
38 40 42
38 40 43
39 41 44
39 41 44
40 42 45
40 43 46
41 43 46
40 43 46
41 43 46
41 43 46
41 44 47
44 46 48
55 55 55
80 77 71
113 106 94
141 132 114
152 142 123
139 130 113
110 104 92
79 76 70
55 55 55
44 46 48
41 43 46
40 42 46
40 42 46
40 42 46
39 42 45
39 42 45
39 41 44
39 41 44
38 40 43
38 40 43
38 40 43
37 39 42
36 38 41
36 37 40
34 36 39
34 36 39
32 34 37
31 33 35
29 32 34
27 30 33
56 79 66
83 117 95
83 117 95
83 117 95
83 117 95
83 118 96
83 117 95
83 117 95
83 118 96
83 117 95
83 118 96
83 118 96
83 117 95
83 117 95
83 118 96
83 118 96
83 117 96
83 117 95
83 118 96
83 117 95
83 117 96
82 117 95
83 117 95
83 117 95
83 117 95
82 117 95
83 117 95
83 117 95
83 117 95
83 117 95
82 117 95
82 117 95
83 117 95
83 117 95
83 117 95
83 117 95
83 117 96
83 117 95
83 117 95
83 117 95
82 117 95
83 117 95
83 117 96
83 117 95
83 117 96
82 117 95
82 117 95
83 117 95
83 117 95
83 117 96
83 117 95
82 117 96
82 116 94
82 116 95
83 117 95
82 117 95
82 117 95
83 117 95
83 117 95
82 117 95
82 117 95
83 118 96
82 117 96
82 117 95
82 117 95
83 117 96
83 117 95
82 117 95
82 117 95
82 117 95
82 117 95
82 117 96
83 117 96
83 117 95
82 116 94
82 117 95
83 117 95
82 117 95
82 117 95
82 117 95
82 117 95
82 117 95
82 117 95
83 117 95
83 117 95
82 117 95
83 117 95
83 117 95
83 117 95
82 117 95
82 117 95
82 117 95
82 117 95
82 117 95
82 117 95
82 117 95
82 117 95
82 117 95
82 117 95
82 116 95
82 117 95
82 117 95
82 116 95
82 117 95
82 116 95
82 116 95
82 117 95
82 116 95
82 117 95
82 117 95
82 117 95
82 117 95
82 117 95
82 117 95
82 117 95
82 117 95
82 117 95
82 117 95
82 117 95
82 117 95
82 117 95
82 117 95
82 116 95
82 117 95
82 116 95
82 117 95
82 116 95
82 117 95
82 117 95
82 116 95
82 116 95
82 116 95
82 116 95
82 116 95
82 116 95
82 117 95
82 116 95
82 117 95
82 117 95
82 117 95
82 117 95
82 116 95
82 117 95
82 117 95
82 116 95
82 117 95
82 116 95
82 116 95
82 116 95
82 116 95
81 116 95
82 116 95
82 116 95
82 116 95
82 116 95
82 116 95
82 116 95
82 117 95
81 116 95
82 117 95
82 116 95
82 116 95
82 116 95
82 116 95
82 116 95
82 116 95
82 116 95
82 116 95
82 116 95
82 116 94
82 116 95
82 116 95
82 116 95
82 116 95
82 116 95
82 116 95
81 116 95
81 116 95
81 116 95
81 116 95
82 116 95
82 116 94
81 116 95
82 116 94
81 116 94
82 116 95
81 116 95
81 116 95
82 116 95
82 116 95
82 116 94
82 116 95
81 116 95
81 116 94
82 116 95
81 116 95
81 116 95
81 116 94
82 116 95
81 116 94
81 116 95
81 116 94
82 116 95
82 116 95
81 115 94
81 116 94
82 116 95
82 116 95
81 116 94
82 116 95
82 116 95
81 116 94
81 116 94
81 116 94
81 115 94
82 116 94
81 115 94
81 116 94
81 116 94
81 116 95
81 116 95
81 116 94
81 116 94
81 115 94
81 116 94
81 115 94
81 116 94
81 116 94
82 116 94
81 115 94
82 116 94
81 116 94
81 116 94
81 116 94
81 115 94
81 115 94
81 116 94
81 116 94
81 116 94
81 115 94
81 115 94
81 116 94
81 115 94
81 116 94
81 115 94
81 115 94
81 115 94
81 115 94
81 115 94
81 115 94
81 115 94
81 115 94
81 115 94
81 116 94
81 116 94
81 115 94
81 115 94
81 115 94
81 115 94
81 115 94
81 115 94
81 115 94
81 116 94
81 115 94
81 115 94
81 115 94
81 115 94
81 115 94
81 115 94
81 115 94
81 115 94
81 115 94
81 115 94
81 115 94
81 115 94
81 115 94
81 115 94
81 115 94
81 115 94
81 115 94
81 115 94
81 115 94
81 115 94
81 115 94
81 115 94
81 115 94
81 115 94
81 115 94
81 115 94
81 115 94
81 115 94
81 115 94
81 115 94
80 115 94
81 115 94
81 115 94
81 115 94
81 115 94
81 115 94
81 115 94
80 115 94
80 115 94
81 115 94
81 115 94
80 115 94
80 114 94
81 115 94
80 115 94
84 119 96
84 118 96
84 119 96
83 118 96
84 119 96
84 119 96
84 119 96
84 119 96
84 118 96
84 118 96
84 119 96
84 119 96
84 119 96
84 119 96
84 119 96
84 119 96
84 118 96
84 118 96
84 119 96
83 118 96
83 118 96
84 119 96
84 119 96
84 119 96
83 118 96
84 119 96
84 119 96
84 119 96
84 119 96
83 118 96
84 119 96
84 119 96
84 118 96
84 119 96
83 118 96
83 118 96
84 118 96
84 119 96
84 119 96
84 119 96
84 119 96
84 119 96
84 118 96
84 119 96
84 119 96
84 118 96
84 119 96
84 119 96
83 118 96
83 118 96
84 119 97
84 119 97
84 119 97
84 119 97
84 119 97
84 119 97
84 119 96
84 119 97
84 119 97
84 119 96
84 119 96
84 119 96
83 118 96
84 119 96
83 119 97
84 119 96
84 119 96
84 119 96
84 119 96
84 119 97
83 118 96
83 118 96
84 119 97
84 119 97
84 119 97
84 119 97
84 119 96
83 119 97
84 119 97
84 119 96
84 119 96
84 118 96
83 118 96
84 119 96
84 119 96
83 118 96
84 119 97
84 119 96
84 119 97
84 118 96
84 119 97
84 119 96
84 119 97
84 119 96
84 119 97
83 118 97
84 119 97
83 118 96
84 119 97
84 119 96
84 119 96
84 119 97
84 119 97
84 119 97
84 119 96
84 119 97
84 119 96
84 118 96
83 118 96
84 119 96
84 119 97
83 118 96
84 119 97
83 118 96
83 118 96
84 119 96
84 119 96
84 119 96
84 119 96
84 119 96
84 119 96
83 118 96
84 119 96
84 119 96
84 118 96
84 119 96
83 118 96
84 119 96
84 119 96
84 119 96
84 119 96
84 119 96
84 119 96
84 118 96
83 118 96
84 118 96
83 118 96
84 119 96
84 118 96
84 118 96
84 118 96
84 119 96
84 118 96
83 118 96
84 119 96
84 119 96
83 118 96
84 119 96
83 118 96
84 119 96
83 118 96
84 119 96
84 118 96
84 119 96
84 119 96
83 118 96
83 118 96
83 118 96
83 118 96
83 118 96
84 119 96
84 119 96
83 118 96
84 119 96
84 118 96
83 118 96
84 118 96
83 118 96
83 118 96
83 118 96
84 119 96
84 119 96
83 118 96
83 118 96
84 118 96
84 118 96
84 119 96
83 118 96
84 118 96
84 119 96
83 118 96
83 118 96
84 118 96
83 118 96
83 118 96
84 118 96
83 118 96
83 118 96
83 118 96
84 118 96
84 119 96
83 118 96
83 118 96
83 118 96
83 118 96
83 118 96
83 118 96
84 118 96
83 118 96
83 118 96
83 118 96
83 118 96
83 118 96
83 118 96
83 118 96
83 118 96
83 118 96
83 118 96
83 118 96
83 118 96
83 118 96
83 118 96
84 118 96
83 118 96
83 118 96
83 118 96
83 118 96
83 118 96
83 118 96
83 118 96
83 118 96
83 118 96
83 118 96
83 118 96
84 118 96
83 118 96
83 118 96
83 118 96
83 118 96
83 118 96
83 118 96
83 117 95
83 118 96
83 118 96
83 118 96
83 118 96
83 118 96
83 118 96
83 118 96
83 118 96
83 118 96
83 118 96
83 118 96
83 118 96
83 118 96
83 118 96
77 108 88
34 36 38
36 38 40
36 38 40
37 40 42
38 40 43
38 40 43
39 41 44
40 42 44
40 42 45
40 42 45
40 42 45
41 43 46
40 42 45
41 43 46
47 48 49
65 63 60
99 94 84
143 133 116
178 165 142
187 174 149
172 160 137
134 126 109
92 88 79
61 60 58
46 47 49
41 43 46
40 42 45
40 41 44
40 42 45
40 42 45
39 41 44
39 41 44
38 40 43
38 40 43
38 39 42
37 39 42
36 38 41
36 38 41
35 37 39
35 36 39
34 36 39
33 35 37
31 33 36
29 32 34
27 30 32
36 47 43
83 117 95
83 118 96
82 117 95
83 117 95
83 117 95
83 117 95
83 117 95
83 117 95
83 117 96
83 118 96
82 117 95
83 118 96
83 117 95
83 117 95
83 117 95
83 117 96
83 118 96
83 117 96
82 117 95
83 118 95
83 117 95
83 117 95
83 117 95
83 117 96
83 118 96
82 117 95
83 117 95
83 117 95
83 117 96
83 117 95
83 117 95
83 117 95
83 118 96
83 117 95
82 117 95
83 117 95
83 117 96
83 117 95
83 117 95
82 117 96
83 118 96
82 117 95
82 117 95
83 118 96
82 117 95
83 117 95
83 117 95
82 117 95
82 117 95
83 117 96
82 117 95
82 116 95
83 117 95
82 117 95
83 118 96
83 118 95
83 117 95
83 117 96
83 117 95
83 117 95
82 117 95
82 117 95
83 117 95
82 117 95
83 117 96
83 117 95
83 117 95
82 117 95
82 117 95
83 117 95
82 117 95
83 117 95
82 117 95
83 117 95
83 117 95
83 117 95
82 117 96
82 117 95
83 117 96
82 117 95
82 117 95
83 117 95
82 116 94
82 117 96
82 117 95
82 117 95
82 117 95
82 117 95
82 117 95
82 116 95
82 117 95
83 117 95
82 117 95
82 117 95
82 117 95
82 116 95
82 117 95
82 117 95
82 117 95
83 117 95
82 116 95
82 116 95
82 117 95
82 117 95
83 117 95
82 117 95
82 116 95
82 117 95
82 117 95
82 117 95
82 117 95
82 117 95
83 117 95
82 117 95
82 117 95
82 117 95
82 117 95
82 116 95
82 117 95
82 117 95
82 117 95
82 117 95
82 117 95
82 117 95
82 117 95
82 117 95
82 117 95
82 116 95
82 117 95
82 117 95
82 117 95
82 117 95
82 116 95
82 116 95
82 117 95
82 116 95
82 116 95
82 117 95
82 117 95
82 116 95
82 116 95
82 116 95
82 116 95
82 116 95
82 116 95
82 117 95
82 116 95
82 116 95
82 117 95
82 116 95
82 116 95
82 117 95
82 117 95
82 116 95
82 116 95
82 117 95
82 117 95
82 116 95
82 116 95
82 116 94
82 116 95
82 117 95
82 116 95
82 116 94
81 116 95
82 116 95
82 116 95
82 116 95
82 116 95
82 116 95
82 116 95
81 116 95
82 116 95
82 116 95
82 116 95
82 116 95
82 116 95
82 116 95
82 116 94
82 116 95
82 116 95
82 116 95
82 116 95
82 116 95
82 116 95
82 116 95
82 116 95
82 116 94
81 116 95
82 116 95
81 116 95
82 116 94
82 116 95
81 116 94
81 116 95
82 116 94
81 116 95
81 116 94
81 116 95
82 116 95
81 116 95
82 116 95
82 116 95
82 116 94
81 116 94
81 116 95
81 116 94
81 116 94
81 115 94
81 115 94
81 116 94
81 116 94
81 116 95
81 116 94
82 116 95
81 116 95
82 116 95
81 116 94
81 116 95
81 115 94
82 116 95
82 116 95
81 116 95
81 116 95
81 116 95
81 116 94
81 115 94
81 116 94
81 116 94
81 116 94
81 116 94
81 116 94
81 116 94
81 116 94
81 115 94
81 116 94
81 115 94
81 116 94
81 115 94
81 116 94
81 116 94
81 116 94
81 116 94
81 116 94
81 115 94
81 115 94
81 115 94
81 116 94
81 115 94
81 116 94
81 115 94
81 116 94
81 116 94
81 115 94
81 115 94
81 115 94
81 115 94
81 115 94
81 116 94
81 115 94
81 115 94
81 115 94
81 115 94
81 115 94
81 116 94
81 115 94
81 115 94
81 115 94
81 115 94
81 115 94
81 115 94
81 115 94
81 115 94
81 115 94
81 115 94
81 115 94
81 115 94
81 115 94
81 115 94
81 115 94
80 115 94
81 115 94
80 115 94
80 115 94
81 115 94
80 114 94
81 115 94
81 115 94
81 115 94
81 115 94
80 115 94
81 115 94
81 115 94
81 115 94
81 115 94
81 115 94
81 115 94
81 115 94
81 115 94
81 115 94
81 115 94
81 115 94
80 115 94
81 115 94
81 115 94
81 115 94
80 115 94
83 118 96
84 119 96
84 119 96
83 118 96
83 118 96
84 118 96
84 119 96
84 119 96
84 119 96
83 118 96
84 119 97
84 119 96
84 119 97
84 119 97
84 119 96
84 119 97
84 119 96
84 119 97
84 119 97
84 119 97
84 119 97
84 119 97
84 119 96
84 119 96
84 119 97
84 119 97
84 119 96
84 119 97
83 119 97
84 119 97
84 119 96
83 118 96
84 119 96
84 119 96
84 119 96
84 119 96
83 118 96
84 119 97
84 119 97
84 119 96
84 119 97
84 119 96
84 119 96
83 119 97
84 119 97
84 118 96
84 119 97
84 119 96
84 119 97
84 119 96
84 119 96
84 119 97
84 119 96
84 119 96
84 119 97
84 119 97
84 119 97
84 119 97
84 119 97
84 119 96
84 119 97
84 118 96
84 119 96
83 118 96
84 119 96
84 119 97
84 119 97
84 119 96
84 119 97
84 118 96
84 119 96
84 119 97
84 119 97
84 118 96
84 119 96
84 119 97
84 119 96
83 118 96
84 119 96
84 119 97
84 119 96
84 119 96
84 119 97
84 119 97
84 119 96
84 119 97
84 118 96
84 119 97
84 119 97
84 119 96
84 119 96
84 118 96
84 119 97
84 119 96
84 119 97
84 119 96
84 118 96
84 119 96
84 119 96
84 119 97
84 118 96
84 119 97
84 118 96
84 119 96
83 119 97
84 119 96
84 119 97
84 119 96
84 119 97
83 118 96
84 119 96
84 119 97
84 119 97
84 119 96
84 119 96
84 119 96
84 119 96
84 118 96
84 119 97
84 118 96
84 119 97
84 119 97
84 118 96
84 119 96
84 119 96
84 118 96
83 118 96
84 118 96
83 118 96
84 119 96
83 118 96
83 118 96
84 119 96
83 119 97
84 119 96
84 119 96
84 119 97
84 119 96
84 119 96
84 119 96
84 119 96
84 119 97
84 119 97
83 118 96
84 118 96
83 118 96
84 119 97
84 119 97
83 118 96
83 118 96
84 119 96
84 118 96
83 118 96
84 119 96
84 118 96
83 118 96
84 119 96
83 118 96
84 119 96
83 118 96
84 118 96
83 118 96
84 118 96
84 118 96
84 119 96
84 118 96
83 118 96
84 119 96
84 118 96
84 119 96
83 118 96
84 118 96
83 118 96
83 118 96
84 119 96
84 119 96
83 118 96
84 118 96
83 118 96
83 118 96
83 118 96
84 119 96
83 118 96
83 118 96
83 118 96
84 118 96
83 118 96
84 118 96
84 119 96
83 118 96
84 119 96
83 118 96
84 119 96
84 118 96
83 118 96
84 119 96
83 118 96
83 118 96
83 118 96
83 118 96
84 118 96
83 118 96
84 118 96
83 118 96
83 118 96
83 118 96
83 118 96
83 118 96
84 118 96
83 118 96
83 118 96
84 118 96
83 118 96
83 118 96
83 118 96
83 118 96
83 118 96
83 118 96
83 118 96
83 118 96
83 118 96
83 118 96
83 118 96
84 118 96
83 117 96
83 118 96
83 118 96
83 118 96
83 118 96
83 118 96
83 118 96
83 118 96
83 118 96
83 118 96
83 118 96
83 117 95
83 118 96
83 118 96
84 118 96
83 118 96
83 118 96
83 118 96
83 118 96
83 118 96
82 117 95
83 118 96
67 93 77
34 36 38
35 37 39
37 39 41
38 40 42
38 40 42
39 41 43
39 41 44
39 42 44
39 41 44
39 41 44
40 42 45
40 42 45
40 42 45
42 44 46
48 48 50
70 68 64
108 102 90
152 142 122
187 174 149
198 183 157
178 165 142
137 128 111
95 90 80
60 59 57
46 47 48
41 43 46
40 42 45
40 42 45
39 41 44
39 41 44
39 41 44
39 40 43
38 40 43
38 40 42
37 39 42
37 39 42
36 38 40
36 38 41
35 37 40
34 35 38
33 35 38
32 34 36
31 33 35
30 31 34
27 30 32
25 29 30
76 108 88
82 117 95
83 118 96
83 117 96
83 117 95
83 118 96
83 117 95
82 116 94
83 117 95
83 117 95
82 117 95
82 117 95
83 117 95
83 117 95
83 118 96
83 117 95
83 118 96
83 118 96
83 117 95
83 118 96
83 117 95
83 118 96
83 118 96
83 117 96
82 117 95
83 118 96
83 117 95
83 117 96
82 117 95
83 118 96
83 117 95
82 117 95
83 118 96
82 117 95
83 117 96
82 117 95
83 118 96
83 117 96
82 117 95
83 117 95
83 117 95
83 117 95
83 118 96
82 117 95
83 117 96
83 117 95
83 117 95
83 117 96
83 117 95
83 117 95
83 117 95
82 116 95
83 117 95
83 117 95
83 118 96
82 117 95
83 117 95
82 116 94
83 117 96
83 117 96
82 117 95
83 118 96
82 117 95
83 117 96
82 117 95
83 117 95
82 117 95
82 116 95
82 117 95
83 118 96
83 117 95
82 117 95
82 117 95
83 117 95
82 117 95
83 117 95
82 117 95
83 117 95
83 117 95
82 117 95
82 117 95
83 117 95
82 117 95
82 117 95
82 116 95
83 117 95
83 117 95
82 117 95
82 117 96
82 117 95
82 117 95
82 117 95
82 117 95
82 117 95
82 117 95
82 117 95
83 117 95
82 117 95
82 117 95
82 117 95
82 117 95
82 117 95
82 117 95
82 117 95
82 117 95
82 116 95
82 117 95
82 116 95
82 117 95
82 117 95
82 117 95
83 117 95
82 117 95
82 117 95
82 117 95
82 117 95
82 116 95
82 117 95
82 117 95
82 117 95
82 117 95
82 117 95
82 116 95
82 116 95
82 117 95
82 116 95
82 117 95
82 117 95
82 117 95
82 117 95
82 117 95
82 116 95
82 117 95
82 117 95
82 117 95
82 116 95
82 117 95
82 117 95
82 117 95
82 117 95
82 116 95
82 116 95
82 117 95
82 116 95
82 116 95
82 116 95
82 116 95
82 117 95
82 116 95
82 116 95
82 117 95
82 117 95
82 116 95
82 116 95
82 116 95
82 117 95
82 117 95
82 116 95
82 116 95
82 116 95
82 117 95
82 116 95
82 116 95
82 116 95
82 117 95
82 116 95
82 116 95
82 116 95
81 116 95
82 116 95
81 116 95
82 116 95
82 116 95
82 117 95
82 116 94
82 116 95
82 116 95
82 116 95
82 116 95
82 116 95
82 116 95
81 116 94
82 116 95
82 116 95
82 116 95
82 116 95
81 116 95
82 116 95
82 116 95
81 116 95
81 116 95
82 116 95
82 116 95
82 116 95
82 116 94
82 116 95
82 116 95
82 116 94
82 116 95
81 116 95
81 116 95
81 116 95
82 116 95
81 116 94
81 116 95
82 116 95
82 116 95
82 116 95
82 116 95
81 116 95
81 115 94
82 116 95
81 116 95
82 116 94
81 116 94
82 116 95
81 116 94
81 116 95
82 116 94
81 115 94
81 116 95
81 116 94
82 116 95
81 115 94
81 116 94
81 116 94
81 116 95
81 116 94
81 116 95
81 116 95
81 116 94
81 116 95
81 116 94
81 116 94
81 116 94
81 116 94
81 116 94
81 116 94
81 116 94
81 115 94
81 116 94
81 116 94
82 116 94
81 116 94
81 115 94
81 115 94
81 116 94
81 115 94
81 115 94
82 116 94
81 115 94
81 116 94
81 116 94
81 116 94
81 116 94
81 115 94
81 115 94
81 116 94
81 115 94
81 115 94
81 115 94
81 115 94
81 116 94
81 115 94
81 115 94
81 115 94
81 116 94
81 115 94
81 115 94
81 115 94
81 115 94
81 115 94
81 115 94
81 115 94
81 115 94
81 115 94
81 115 94
81 115 94
81 115 94
81 115 94
81 115 94
81 115 94
81 115 94
81 115 94
81 115 94
81 115 94
81 115 94
81 115 94
80 115 94
81 115 94
81 115 94
80 115 94
81 115 94
81 115 94
81 115 94
80 115 94
81 115 94
81 115 94
81 115 94
81 115 94
80 115 94
81 115 94
80 115 94
81 115 94
81 115 94
81 115 94
81 115 94
84 119 96
84 119 96
84 119 97
83 118 96
84 119 97
84 119 96
84 119 96
84 119 96
84 119 96
84 119 96
84 119 97
84 119 97
84 119 96
84 119 96
84 119 97
84 119 97
84 119 96
84 119 96
83 118 96
84 119 96
84 119 97
84 119 96
84 119 97
84 119 96
84 119 96
84 119 96
84 119 97
84 119 96
84 119 97
84 119 97
84 119 96
84 119 97
84 119 96
84 119 96
84 119 96
84 119 96
84 119 97
84 119 97
84 119 96
84 119 96
84 119 97
84 119 97
84 119 97
84 119 96
84 119 97
84 119 97
84 118 96
84 119 96
84 119 96
84 119 97
84 119 96
84 119 96
84 118 96
84 119 97
84 118 96
84 119 96
84 119 97
84 119 97
84 119 96
84 119 96
84 119 96
84 119 97
84 119 97
84 119 97
83 118 96
84 119 96
84 119 96
84 119 97
84 119 96
84 119 96
84 119 96
84 119 97
84 119 96
84 119 96
84 119 97
84 119 96
84 119 97
84 119 96
84 119 96
84 119 97
83 119 96
84 119 96
84 119 96
84 118 96
84 119 96
84 119 96
84 119 96
84 119 97
84 119 96
84 119 97
84 118 96
84 119 97
84 119 96
84 119 96
84 119 97
84 119 97
84 118 96
84 118 96
84 119 97
84 119 96
84 119 97
84 119 96
84 119 97
84 118 96
84 118 96
84 119 97
84 119 96
83 118 96
84 119 96
84 119 96
84 119 96
84 119 97
84 119 97
84 119 96
84 119 97
84 119 96
84 119 97
83 119 97
83 118 96
83 118 96
84 119 97
84 119 96
84 119 96
84 119 96
84 119 96
83 118 96
84 119 96
84 119 97
84 118 96
83 118 96
84 119 96
84 119 96
84 119 97
84 119 96
84 119 97
84 119 96
84 119 97
84 119 96
84 119 97
84 119 97
84 119 97
84 119 97
84 119 96
84 119 96
84 118 96
84 119 96
84 118 96
84 119 97
83 118 96
84 119 96
84 119 96
84 118 96
83 118 96
84 119 97
84 119 96
84 118 96
84 118 96
83 118 96
84 119 97
83 118 96
84 119 96
84 119 96
84 119 96
84 119 96
84 119 96
84 118 96
84 118 96
84 118 96
83 118 96
83 118 96
83 118 96
84 119 96
84 118 96
83 118 96
84 118 96
84 119 96
83 118 96
83 118 96
83 118 95
83 118 96
83 118 96
84 119 96
84 119 96
83 118 96
83 118 96
83 118 96
84 119 96
84 118 96
84 119 96
84 118 96
83 118 96
84 118 96
84 119 96
83 118 96
83 118 96
84 119 96
83 118 96
84 118 96
83 118 96
84 118 96
83 118 96
84 118 96
83 118 96
83 118 96
83 118 96
84 118 96
83 118 96
83 118 96
83 118 96
83 118 96
84 119 96
83 118 96
84 118 96
84 118 96
83 118 96
83 118 96
83 118 96
83 118 96
84 118 96
83 118 96
83 118 96
83 118 96
83 118 96
83 118 96
83 118 96
83 118 96
83 117 95
83 118 96
83 118 96
83 118 96
83 118 96
83 118 96
83 118 96
83 118 96
83 118 96
83 118 96
83 118 96
83 117 96
83 118 96
83 117 95
83 118 96
83 118 96
83 118 96
83 118 96
83 118 96
83 117 95
52 70 60
33 36 37
35 37 39
36 38 40
37 39 41
37 40 42
38 40 42
38 40 43
39 41 44
39 41 44
39 42 44
39 41 44
40 42 45
40 42 45
41 43 46
47 48 49
66 64 61
101 95 85
140 130 113
167 156 134
175 163 140
157 146 126
121 114 100
83 79 72
56 55 54
43 45 46
40 42 44
40 42 45
39 41 44
39 41 43
39 40 43
39 40 43
38 40 42
38 39 42
38 39 42
37 38 41
36 38 40
35 37 40
35 37 39
34 36 39
33 35 37
32 34 37
32 34 36
30 33 35
28 31 33
26 28 30
24 27 29
62 87 72
82 117 95
83 118 96
83 117 95
83 117 95
83 117 95
83 117 95
83 118 96
82 117 95
83 117 96
83 118 96
83 117 95
83 118 96
82 117 95
83 117 96
83 118 96
83 117 95
83 118 96
82 117 95
82 117 95
83 117 95
83 117 95
83 117 95
83 117 95
82 117 95
82 117 95
83 117 95
83 118 96
82 117 95
83 117 95
83 118 96
83 118 96
83 118 96
83 117 95
83 117 96
83 117 96
82 117 96
83 117 96
83 117 95
83 117 95
83 118 96
83 117 95
83 117 96
83 117 95
82 117 95
83 117 95
83 117 95
83 118 96
83 117 96
83 117 95
83 117 95
82 116 94
82 117 95
83 117 95
83 117 96
82 116 95
83 117 96
83 117 95
82 117 95
83 118 96
83 118 96
82 117 95
83 117 96
82 116 95
83 117 96
83 117 95
82 117 95
83 117 96
82 117 96
83 117 96
83 117 95
82 117 95
82 117 95
83 117 95
83 117 95
83 117 95
82 117 95
83 117 95
83 117 95
82 117 95
83 117 95
82 117 96
83 117 95
82 117 95
82 117 95
82 117 95
82 117 95
83 117 95
82 117 95
82 117 95
82 117 95
83 117 95
82 117 95
83 117 95
82 117 95
83 117 95
82 117 96
82 117 95
82 116 95
82 117 95
82 117 95
82 117 95
83 117 95
82 117 95
82 117 95
82 116 95
82 116 95
82 117 95
82 117 95
83 117 95
83 117 95
82 117 95
83 117 95
82 117 95
82 117 95
82 117 95
82 116 95
82 117 95
82 116 95
82 117 95
82 117 95
82 116 95
82 117 95
82 116 95
82 117 95
82 117 95
82 117 95
82 117 95
82 117 95
82 116 95
82 117 95
82 116 95
82 117 95
82 117 95
82 117 95
82 117 95
82 117 95
83 117 95
82 117 95
82 116 95
82 117 95
82 117 95
82 117 95
82 116 95
82 116 95
82 117 95
82 117 95
82 117 95
82 116 95
82 117 95
82 116 95
82 116 95
82 116 95
82 116 94
82 116 95
82 116 95
82 117 95
82 117 95
82 116 95
82 117 95
82 117 95
82 116 95
82 116 95
82 116 95
82 117 95
82 116 95
82 116 94
82 116 95
82 116 95
82 116 95
82 117 95
82 116 95
82 116 95
82 116 95
82 116 95
82 116 95
82 116 95
82 117 95
82 116 95
81 116 94
82 116 95
82 116 95
82 116 95
82 116 95
82 116 95
82 116 95
82 116 95
81 116 95
82 116 95
81 116 95
82 116 95
82 116 95
82 116 95
81 116 95
82 116 95
82 116 95
82 116 94
82 116 95
81 116 94
82 116 95
81 116 94
82 116 95
82 116 95
81 116 95
82 116 94
82 116 95
82 116 95
82 116 95
82 116 95
82 116 95
82 116 94
81 116 95
81 115 94
82 116 95
81 116 95
81 116 95
82 116 94
81 116 94
81 116 94
82 116 94
81 116 94
82 116 95
82 116 94
81 116 95
81 116 94
81 116 95
81 116 94
81 116 94
82 116 94
81 115 94
81 116 94
81 116 94
81 116 94
81 116 95
82 116 94
81 115 94
81 116 95
82 116 94
81 116 94
82 116 94
82 116 94
81 115 94
81 116 94
81 116 94
81 115 94
81 116 94
81 116 94
81 116 94
81 116 94
81 116 94
81 116 94
81 115 94
81 116 94
81 115 94
81 116 94
81 115 94
81 115 94
81 116 94
81 116 94
81 115 94
81 115 94
81 116 94
81 115 94
81 115 94
81 115 94
81 115 94
81 115 94
81 115 94
81 115 94
81 115 94
81 115 94
81 115 94
81 115 94
81 115 94
81 115 94
81 115 94
81 115 94
81 116 94
81 115 94
81 115 94
81 115 94
81 115 94
81 115 94
81 115 94
81 115 94
80 115 94
81 115 94
81 115 94
81 115 94
81 115 94
81 115 94
81 115 94
81 115 94
80 115 94
81 115 94
80 115 94
81 115 94
81 115 94
81 115 94
81 115 94
81 115 94
81 115 94
81 115 94
81 115 93
81 115 94
81 115 94
81 115 94
84 119 97
84 119 97
84 119 96
84 119 97
84 118 96
84 119 97
84 119 96
84 119 97
84 119 97
84 119 97
84 119 96
84 119 96
84 119 97
84 119 96
84 119 97
84 119 97
84 119 97
84 119 96
84 119 96
84 119 96
84 119 96
84 119 97
84 119 97
84 119 96
84 119 96
84 119 96
84 119 96
84 119 97
84 119 97
84 119 97
84 119 96
84 119 97
84 119 97
84 119 97
84 119 96
84 119 97
84 119 97
84 119 97
84 119 96
84 119 96
84 119 97
84 119 97
84 119 96
84 119 97
84 119 96
84 119 96
84 119 97
84 119 97
84 119 97
84 119 97
84 119 97
84 119 96
84 119 96
84 119 96
84 119 96
84 119 97
84 119 97
84 119 97
84 119 97
84 119 97
84 119 97
84 119 97
83 118 96
84 119 97
84 119 97
84 119 96
84 119 97
84 119 97
84 119 97
84 119 97
84 119 97
84 119 96
84 119 97
84 119 97
84 119 97
84 119 97
84 119 97
84 119 97
84 119 97
84 119 97
84 119 97
84 119 97
84 119 97
84 119 97
84 119 97
84 119 96
84 119 97
83 118 96
84 119 96
84 119 97
84 119 97
84 119 97
84 119 97
84 119 97
84 119 96
84 119 97
84 119 96
84 118 96
84 119 96
84 119 97
84 119 97
84 119 97
84 119 97
84 119 96
84 119 97
84 119 97
84 118 96
84 119 96
84 119 96
83 118 96
84 119 97
84 119 97
84 119 97
84 119 96
84 119 96
84 119 97
84 119 96
84 119 97
84 119 96
84 118 96
84 119 96
84 119 96
84 119 96
84 118 96
84 119 96
84 119 96
83 118 96
84 119 96
84 119 97
84 119 96
84 119 96
84 119 97
84 119 97
84 119 96
84 119 96
84 119 97
84 119 96
84 119 97
84 119 97
84 119 97
84 119 96
84 119 96
84 119 96
84 119 96
84 119 97
84 119 97
84 119 96
84 118 96
84 119 96
84 119 96
84 119 96
84 118 96
83 118 96
84 118 96
84 118 96
84 118 96
84 119 97
84 119 96
84 119 96
84 118 96
84 119 96
83 118 96
83 118 96
84 119 96
84 119 96
84 118 96
84 119 96
84 119 97
84 119 96
83 118 96
83 118 96
84 118 96
83 118 96
83 118 96
84 118 96
84 119 97
84 119 96
84 119 97
84 118 96
84 119 96
83 118 96
84 119 96
84 118 96
83 118 96
83 118 96
84 119 97
84 119 97
84 119 97
84 118 96
83 118 96
83 118 96
84 119 96
84 119 96
84 119 96
83 118 96
83 118 96
83 118 96
84 118 96
84 119 96
84 119 96
84 119 96
84 119 96
84 119 96
84 118 96
83 118 96
83 118 96
84 118 96
83 118 96
83 118 96
84 118 96
83 118 96
83 118 96
84 118 96
84 119 96
83 118 96
84 119 96
83 118 96
83 118 96
83 118 96
83 118 96
84 118 96
83 118 96
84 118 96
83 118 96
83 118 96
83 118 96
83 118 96
83 118 96
83 118 96
83 118 96
83 118 96
83 118 96
83 117 95
83 118 96
83 118 96
84 119 96
83 118 96
83 117 95
83 118 96
83 118 96
84 118 96
84 118 96
83 118 96
84 118 96
83 117 95
83 117 95
44 57 51
33 36 37
34 37 38
36 38 40
37 39 41
37 39 41
38 40 42
38 40 43
39 41 44
39 41 43
39 41 43
39 41 44
39 41 44
39 41 44
40 42 45
44 45 47
58 57 56
81 77 70
111 104 92
130 122 106
133 124 108
120 113 99
93 88 79
65 63 59
48 48 48
41 42 44
40 41 44
39 41 44
39 41 44
39 40 43
39 40 43
38 39 42
38 39 41
38 39 42
37 38 40
36 38 40
36 37 40
35 37 39
35 37 40
34 35 37
33 35 37
32 33 36
31 33 35
30 31 33
28 31 33
26 29 31
24 27 29
53 74 61
83 118 96
83 117 95
82 117 95
83 117 95
83 118 96
83 118 96
83 117 96
83 118 96
83 118 96
83 118 96
83 117 95
83 118 96
83 117 96
83 118 96
83 118 95
83 117 96
83 118 96
83 117 95
83 118 96
83 117 95
83 117 96
83 118 96
82 117 95
83 117 96
83 118 96
83 117 95
82 117 95
83 117 95
82 117 95
83 117 95
83 118 96
82 117 95
82 117 95
83 118 96
83 117 95
83 118 96
83 117 96
83 117 95
83 117 95
83 117 95
83 118 96
83 117 95
83 117 95
82 117 95
82 117 95
83 117 95
83 118 96
83 117 96
83 118 96
83 117 95
82 116 95
83 117 95
83 117 95
83 117 96
83 117 96
82 117 95
83 117 95
83 117 95
83 117 95
83 117 95
92 119 95
100 120 93
112 122 92
117 123 91
113 122 92
110 121 92
94 118 94
84 117 95
83 117 96
83 117 95
82 117 95
83 117 95
83 117 95
82 117 95
83 117 95
83 117 95
83 117 95
83 117 95
82 117 95
82 117 95
82 117 95
82 117 95
82 117 95
83 117 95
83 117 95
83 117 95
82 117 95
82 117 95
82 117 95
82 117 95
82 117 95
83 117 95
83 117 95
82 117 96
82 117 95
83 117 95
82 117 95
82 117 95
83 117 96
82 117 95
82 117 95
82 117 95
82 117 95
82 117 95
82 117 95
82 117 95
83 117 95
82 117 95
82 117 95
82 117 95
82 117 95
82 117 95
83 117 95
82 117 95
82 117 95
82 117 95
82 116 95
82 117 95
82 117 95
82 117 95
82 117 95
82 117 95
82 117 95
82 117 95
82 117 95
82 117 95
82 116 95
82 117 95
82 117 95
83 117 95
82 117 95
82 116 95
82 116 95
82 117 95
82 117 95
82 117 95
82 117 95
82 116 95
82 117 95
82 117 95
82 117 95
82 117 95
82 116 95
82 117 95
82 117 95
82 117 95
82 117 95
82 116 95
82 117 95
82 117 95
82 117 95
82 116 95
82 117 95
82 117 95
82 116 95
82 116 95
82 116 95
82 116 95
82 117 95
82 116 95
82 117 95
82 116 95
82 117 95
82 116 95
82 117 95
82 117 95
82 116 95
82 117 95
82 116 95
82 116 95
82 116 95
82 117 95
82 116 95
82 116 95
82 116 95
82 116 95
82 116 95
82 116 95
82 116 95
82 116 95
82 116 95
82 116 95
82 116 95
82 116 94
82 116 95
82 116 95
82 116 95
82 116 95
82 116 95
82 116 95
82 116 95
82 116 95
82 116 95
82 116 95
82 116 94
82 116 95
82 116 95
82 116 95
82 116 95
82 116 95
81 116 95
82 116 94
82 116 95
81 116 94
82 116 95
81 116 95
82 116 94
82 116 95
81 115 94
82 116 95
81 116 95
82 116 95
81 116 94
81 116 95
82 116 95
81 116 94
81 116 94
81 116 95
82 116 95
82 116 95
82 116 95
82 115 94
81 116 94
81 116 94
82 116 95
81 116 95
82 116 95
81 116 94
81 116 95
82 116 94
81 116 94
81 116 94
81 116 94
82 116 95
81 115 94
81 116 95
82 116 95
81 116 94
81 116 95
81 115 94
81 116 94
81 115 94
81 116 94
81 116 94
82 116 94
81 115 94
81 116 94
81 115 94
81 115 94
81 116 94
81 116 94
81 116 94
81 115 94
81 116 94
81 116 94
81 115 94
81 115 94
81 116 94
81 116 94
81 115 94
81 116 94
81 115 94
81 116 94
81 115 94
81 116 94
81 115 94
81 115 94
81 115 94
81 115 94
81 115 94
81 115 94
81 115 94
81 116 94
81 115 94
81 115 94
81 115 94
81 115 94
81 115 94
81 115 94
81 115 94
81 115 94
81 115 94
81 115 94
81 115 94
81 115 94
81 115 94
81 115 94
81 115 94
81 115 94
81 115 94
81 115 94
81 115 94
81 115 94
80 115 94
81 115 94
80 115 94
81 115 94
81 115 94
81 115 94
81 115 94
81 115 94
81 115 94
81 115 94
81 115 94
81 115 94
81 115 94
84 119 97
84 119 96
84 119 97
84 119 97
84 119 97
84 119 97
84 119 97
84 119 96
84 119 97
84 119 97
84 119 97
84 119 97
84 119 97
84 119 97
84 119 97
84 119 97
84 119 96
84 119 97
84 119 97
84 119 97
84 119 97
84 119 97
84 118 96
83 118 96
84 119 97
84 119 97
84 119 97
84 119 97
84 119 96
84 119 97
84 119 96
84 119 97
84 119 97
84 119 97
84 119 97
84 119 97
84 119 97
84 119 97
84 119 97
84 119 97
84 119 97
84 119 96
84 119 97
84 119 97
84 119 96
84 119 97
84 119 97
84 119 97
84 119 96
84 119 96
84 119 97
84 119 97
84 119 97
84 119 97
84 119 97
84 119 97
84 119 96
84 119 96
84 119 97
84 119 97
84 119 97
84 119 96
84 119 97
84 119 97
84 119 97
84 119 97
84 119 97
84 119 96
84 119 97
84 119 97
84 119 97
84 119 97
84 119 97
84 119 97
84 119 96
84 119 96
84 119 97
84 119 97
84 119 97
84 119 97
84 119 96
84 119 97
84 119 96
84 119 97
84 119 97
84 119 97
84 119 97
84 119 97
84 119 97
84 119 97
84 119 97
84 119 97
84 119 97
84 118 96
84 119 97
84 119 97
84 119 97
84 119 97
84 119 97
84 118 96
83 118 96
84 119 96
84 119 96
84 119 97
84 119 96
84 119 97
84 119 96
84 118 96
84 119 96
84 119 97
84 119 97
84 119 97
84 119 97
84 119 96
84 119 97
84 119 96
84 119 97
83 118 96
84 119 96
84 119 97
84 119 96
84 119 96
84 119 97
84 119 97
84 119 97
84 119 96
84 119 97
84 119 97
84 119 97
84 119 97
84 119 96
84 119 97
84 118 96
84 118 96
83 118 96
84 119 97
84 119 97
84 119 97
84 119 97
84 119 97
84 119 97
84 119 96
84 119 97
84 119 96
84 119 96
84 119 97
84 119 97
84 118 96
84 119 97
84 119 96
84 118 96
84 119 96
84 119 96
84 119 97
84 119 96
84 119 96
84 118 96
83 118 96
83 118 96
84 119 96
84 119 97
84 118 96
84 119 96
84 119 97
84 119 96
83 118 96
84 119 96
83 118 96
84 119 96
84 119 96
84 119 96
84 119 97
84 118 96
84 119 96
84 118 96
83 118 96
84 119 96
83 118 96
84 119 96
84 118 96
84 118 96
84 119 96
84 119 96
84 119 96
84 118 96
84 119 97
84 118 96
84 119 96
84 119 96
84 119 97
84 119 97
83 118 96
84 119 96
84 118 96
84 119 96
83 118 96
84 119 96
84 118 96
83 118 96
84 118 96
83 118 96
84 118 96
84 118 96
83 118 96
83 118 96
83 118 96
83 118 96
83 118 96
84 118 96
84 118 96
83 118 96
83 118 96
83 118 96
83 118 96
83 118 96
83 118 96
83 118 96
83 118 96
84 118 96
83 118 96
83 118 96
83 118 96
83 118 96
83 118 96
83 118 96
83 118 96
83 118 96
83 118 96
83 118 96
83 118 96
83 118 96
83 118 96
83 118 96
83 118 96
83 118 96
83 118 96
83 117 95
83 118 96
83 118 96
83 118 96
83 118 96
83 118 96
83 117 95
83 117 95
83 118 96
81 115 93
36 43 41
33 35 37
35 37 38
36 38 40
36 39 41
37 39 41
37 39 42
38 40 42
38 41 43
38 40 42
39 41 43
38 40 42
39 41 43
38 40 43
39 41 43
41 43 45
47 48 48
59 58 55
77 74 68
88 84 76
89 85 76
79 75 69
64 62 58
51 51 50
42 43 45
39 41 43
39 40 43
38 40 43
38 40 42
38 40 42
38 39 42
38 39 41
37 39 41
37 38 41
36 38 40
36 37 40
35 37 39
35 37 39
34 35 37
33 35 37
33 34 37
32 33 35
30 32 34
29 31 32
27 29 31
26 28 30
23 26 28
43 59 50
83 118 96
83 118 96
83 117 95
83 118 96
83 117 95
83 117 95
83 118 96
82 117 95
83 117 95
83 117 95
83 117 95
83 117 95
83 118 96
83 118 95
83 118 96
82 117 95
83 117 95
83 117 95
83 117 95
83 117 95
83 117 95
83 117 95
83 118 96
83 117 95
83 117 95
83 117 96
82 117 95
83 117 96
83 118 96
83 117 95
83 117 96
83 117 96
83 117 96
83 117 96
82 117 95
83 117 95
82 117 95
82 117 95
83 117 95
83 117 95
82 117 95
82 117 95
83 117 95
83 117 95
83 117 95
82 117 95
83 117 95
83 117 95
83 117 95
83 117 95
83 118 96
82 117 95
83 117 96
82 117 95
83 117 95
84 118 95
107 121 93
158 131 85
195 141 78
218 148 71
237 154 66
242 155 63
243 156 63
241 155 63
241 154 62
234 152 64
227 149 65
218 146 67
199 140 73
160 131 83
131 124 88
85 117 95
83 117 96
83 117 95
82 117 95
83 117 96
83 118 96
82 117 95
82 117 95
82 117 96
83 117 95
83 118 96
83 117 95
83 118 96
82 117 96
82 117 95
82 117 95
82 117 95
82 117 95
82 117 95
82 117 95
83 117 95
83 117 95
82 117 95
83 117 95
83 117 95
82 117 95
82 117 95
83 117 95
82 117 95
83 117 95
83 117 95
82 117 95
82 117 95
82 117 95
83 117 96
83 117 95
82 116 95
82 117 95
82 117 95
82 117 95
82 117 95
82 117 95
83 117 95
83 117 95
83 117 95
82 117 95
82 117 95
82 116 95
82 117 95
82 117 95
82 117 95
82 117 95
82 117 95
83 117 95
82 116 95
82 117 95
82 117 95
82 117 95
82 117 95
82 117 95
82 117 95
82 117 95
82 117 95
82 117 95
82 116 95
82 117 95
82 117 95
82 117 95
82 117 95
82 117 95
83 117 95
82 116 95
82 117 95
82 117 95
82 117 95
82 117 95
82 117 95
82 117 95
82 117 95
82 117 95
82 117 95
82 117 95
82 116 95
82 116 95
82 117 95
82 117 95
82 117 95
82 116 95
82 117 95
82 117 95
82 116 95
82 117 95
82 116 95
82 117 95
82 116 95
82 117 95
82 117 95
82 117 95
82 117 95
82 117 95
82 116 95
82 116 95
82 117 95
82 116 95
82 116 95
82 117 95
82 116 95
82 116 94
82 116 95
82 116 94
82 116 95
82 116 95
81 116 94
82 116 95
82 116 95
81 116 95
82 116 95
82 116 95
82 116 95
82 116 95
81 116 94
82 116 95
82 116 95
81 116 95
81 116 95
82 116 95
82 116 95
81 116 94
82 116 95
82 116 95
81 116 95
81 116 94
82 116 95
82 116 95
81 116 95
82 116 95
82 116 95
82 116 95
82 116 95
81 116 95
81 116 95
82 116 95
81 115 94
81 116 94
82 116 95
82 116 94
81 115 94
82 116 94
82 116 95
82 116 94
82 116 94
82 116 94
81 116 95
81 116 95
82 116 95
81 116 94
82 116 94
81 116 94
81 116 95
81 116 95
81 116 94
81 116 95
81 116 95
81 116 94
81 115 94
81 116 95
81 116 94
82 116 95
82 116 95
81 116 94
81 116 94
81 116 94
81 116 94
82 116 94
81 116 94
81 116 94
81 116 94
81 115 94
81 116 94
81 116 94
82 116 94
81 115 94
81 116 94
81 116 94
81 116 94
81 115 94
81 116 94
81 116 94
81 115 94
81 116 94
81 116 94
81 115 94
81 116 94
81 116 94
81 115 94
81 115 94
81 115 94
81 115 94
81 116 94
81 115 94
81 115 94
81 115 94
81 116 94
81 115 94
81 115 94
81 115 94
81 115 94
81 116 94
81 115 94
81 115 94
81 115 94
81 115 94
81 115 94
81 115 94
81 115 94
81 115 94
81 115 94
81 115 94
81 115 94
81 115 94
81 115 94
81 115 94
81 115 94
81 115 94
81 115 94
81 115 94
81 115 94
81 115 94
81 115 94
81 115 94
80 115 94
81 115 94
81 115 94
81 115 94
81 115 94
84 119 97
84 119 97
84 119 97
84 119 97
84 119 97
84 119 97
84 119 97
84 119 97
84 119 97
84 119 97
84 119 97
84 119 97
84 119 97
84 119 96
84 119 97
84 119 97
84 119 97
84 119 97
84 119 97
84 119 97
84 119 97
84 119 97
84 119 97
84 119 97
84 119 97
84 119 97
84 119 97
84 119 96
84 119 97
84 119 96
84 119 96
84 119 97
84 119 97
84 119 97
84 119 97
84 119 97
84 119 96
84 119 97
84 119 97
84 119 97
84 119 97
84 119 96
84 119 96
84 119 97
84 119 97
84 119 97
84 119 97
84 119 96
84 119 96
83 118 96
84 119 97
84 119 97
84 119 97
84 119 97
84 119 97
84 119 97
84 119 96
84 119 97
84 119 97
84 119 97
84 119 97
84 119 97
84 119 96
84 119 97
84 119 97
84 119 96
84 119 96
84 119 97
84 119 97
84 119 97
84 119 96
84 119 97
84 119 97
84 119 97
84 119 97
84 119 97
84 119 96
84 119 97
84 119 97
84 119 97
84 119 97
84 119 97
84 119 97
84 119 97
84 119 97
84 118 96
84 118 96
84 118 96
84 119 96
84 119 97
84 119 97
84 119 96
84 119 97
84 119 96
84 119 96
83 118 96
84 119 97
84 119 96
84 119 97
84 119 97
84 119 97
84 119 97
84 119 97
84 119 97
84 119 97
84 119 97
84 119 96
84 119 97
84 119 96
84 119 96
84 119 97
84 119 97
84 119 97
84 119 96
84 119 96
84 119 97
84 119 97
84 119 97
84 119 96
84 119 96
84 119 97
84 118 95
84 119 96
84 119 96
84 119 97
84 118 96
84 119 96
84 119 97
84 119 96
84 119 97
84 119 97
84 119 96
84 119 96
84 119 97
84 119 97
84 119 97
84 119 97
84 119 96
84 119 97
84 119 96
84 119 97
84 119 97
84 119 97
84 119 96
84 119 97
84 119 96
84 119 96
84 119 96
84 118 96
84 119 96
84 119 97
84 119 96
84 119 96
84 119 97
84 119 97
84 119 97
84 119 97
84 119 96
84 118 96
84 119 96
84 118 96
84 118 96
84 119 97
84 118 96
84 119 96
84 118 96
84 119 96
84 118 96
84 119 96
83 118 96
84 119 97
84 119 96
84 119 96
84 119 96
84 119 96
84 119 96
84 119 96
84 119 96
84 119 97
84 118 96
83 118 96
83 118 96
84 119 96
84 119 96
84 119 96
84 118 96
84 119 96
84 119 96
84 119 96
84 118 96
83 118 96
84 119 96
83 118 96
84 119 96
84 118 96
84 118 96
83 118 96
83 118 96
84 118 96
84 119 96
83 118 96
83 118 96
83 118 96
83 118 96
83 118 96
84 118 96
84 119 96
84 118 96
84 118 96
83 118 96
83 118 96
83 118 96
83 118 96
83 118 96
83 118 96
83 118 96
83 118 96
83 118 96
84 119 96
84 118 96
83 118 96
84 119 96
84 118 96
83 118 96
83 118 96
83 118 96
84 118 96
83 118 96
84 118 96
83 118 96
83 118 96
83 118 96
83 118 96
83 118 96
83 118 96
84 118 96
83 117 96
83 118 96
83 118 96
83 118 96
83 118 95
83 118 96
83 117 95
83 118 95
83 118 96
78 110 90
31 34 35
32 34 36
34 36 38
35 37 39
36 38 40
37 39 41
38 40 42
37 39 40
37 39 41
38 40 43
38 40 42
38 40 42
38 40 42
38 40 42
39 40 43
40 41 44
42 43 45
45 46 47
52 52 51
58 57 54
57 56 53
53 53 52
46 46 47
42 43 44
39 40 42
38 40 43
38 39 42
38 40 42
38 40 43
38 39 41
37 38 40
37 38 41
36 37 39
37 37 39
36 37 39
36 37 39
35 36 38
34 36 38
33 35 37
33 34 36
32 33 35
31 32 34
31 33 35
29 31 33
28 30 32
25 27 28
24 26 28
32 43 38
83 117 95
83 117 95
83 117 95
83 118 96
83 117 95
83 117 95
83 117 95
83 118 96
83 118 96
83 118 96
83 118 96
83 117 95
83 117 95
83 118 95
83 118 96
83 117 96
83 118 96
83 117 95
83 118 96
83 117 95
82 117 95
83 117 95
83 117 95
82 117 95
83 117 95
83 118 96
83 117 95
83 117 95
83 118 96
83 117 95
83 118 96
83 118 96
83 118 95
83 118 96
82 117 95
83 117 95
83 118 96
83 117 96
82 117 96
83 117 96
83 117 95
83 118 96
83 117 95
83 117 95
83 117 95
83 117 95
83 118 96
83 117 96
83 117 95
82 116 94
83 117 95
82 117 95
83 117 95
107 121 93
175 136 82
221 149 71
246 157 65
252 160 63
253 160 64
252 160 64
252 160 64
251 160 64
251 160 64
249 159 63
248 158 63
247 158 63
245 157 63
243 156 62
241 154 62
238 152 61
235 151 61
218 145 65
174 132 77
124 122 88
82 117 96
82 117 95
83 117 95
83 117 95
83 117 95
83 117 96
83 118 96
82 117 95
82 117 95
82 117 95
82 117 95
83 117 95
83 117 95
82 117 95
82 117 96
83 118 96
82 117 95
83 117 95
83 117 95
82 117 95
83 117 95
83 117 95
82 117 95
83 117 95
83 117 95
82 117 95
82 117 95
82 117 95
82 116 95
82 116 95
83 117 95
83 117 95
83 117 96
83 117 95
82 117 95
82 117 95
82 116 95
82 117 95
82 117 95
82 117 95
82 117 95
82 117 95
82 117 95
82 116 95
82 117 95
83 117 95
82 117 95
83 117 95
83 117 95
82 117 95
83 117 95
82 117 95
82 117 95
82 117 95
82 117 95
82 117 95
82 117 95
82 117 95
83 117 95
82 117 95
82 117 95
82 117 95
82 116 95
82 117 95
82 117 95
82 117 95
82 116 95
82 117 95
82 117 95
82 117 95
82 116 95
82 116 95
82 117 95
82 116 94
82 117 95
82 117 95
82 116 94
82 117 95
82 117 95
82 117 95
82 117 95
82 117 95
82 117 95
82 117 95
82 116 95
82 117 95
82 117 95
82 117 95
82 116 95
82 117 95
82 116 95
91 120 99
104 126 106
116 133 113
130 140 121
135 143 124
140 146 128
127 139 120
122 136 117
98 123 103
86 115 94
82 116 95
82 116 95
82 117 95
82 116 95
82 116 95
82 116 95
82 116 95
82 116 95
82 116 95
82 116 95
82 116 95
82 116 95
82 116 95
82 116 95
82 116 95
82 116 95
81 115 94
82 116 95
82 116 95
82 116 95
82 116 95
82 116 95
82 116 95
82 116 95
82 116 95
82 116 95
82 116 95
82 116 95
82 116 95
82 116 95
82 116 95
82 116 94
82 116 95
82 116 95
81 116 95
81 116 94
82 116 95
82 116 95
82 116 95
81 116 94
82 116 95
81 116 95
82 116 95
82 116 95
81 115 94
81 116 94
82 116 95
81 116 94
82 116 95
82 116 95
81 116 95
81 116 95
82 116 95
81 116 95
81 116 95
81 116 95
81 116 94
81 116 94
81 116 95
82 116 94
81 116 94
82 116 95
81 116 94
82 116 94
82 116 95
82 116 95
81 116 95
81 116 94
82 116 95
81 116 95
81 116 95
81 116 95
81 116 94
81 116 94
82 116 94
81 115 94
81 116 94
81 116 94
81 115 94
81 116 94
81 115 94
81 116 94
81 116 94
81 115 94
81 115 94
81 115 94
81 115 94
81 116 94
81 116 94
81 115 94
81 115 94
81 116 94
81 116 94
81 116 94
81 115 94
81 115 94
81 115 94
81 116 94
81 116 94
81 115 94
81 115 94
81 115 94
81 116 94
81 115 94
81 115 94
81 115 94
81 116 94
81 115 94
81 115 94
81 115 94
81 115 94
81 115 94
81 115 94
81 115 94
81 115 94
81 115 94
81 115 94
81 115 94
81 115 94
81 115 94
81 115 94
81 115 94
81 115 94
81 115 94
81 115 94
81 115 94
81 115 94
81 115 94
81 115 94
81 115 94
81 115 94
84 119 97
84 119 96
84 119 96
84 119 96
84 119 97
84 119 97
84 119 97
84 119 97
84 119 96
84 119 97
84 119 97
84 119 97
84 119 97
84 119 97
84 119 97
84 119 97
84 119 97
84 119 97
84 119 97
84 119 97
84 119 96
84 119 97
84 119 96
84 119 96
84 119 97
84 119 96
84 119 97
84 119 97
84 119 97
84 119 97
84 119 97
84 119 97
84 119 97
84 119 97
84 119 97
84 119 97
84 119 97
84 119 96
84 119 97
84 119 97
84 119 97
84 119 97
84 119 97
84 119 96
84 119 97
84 119 97
84 119 97
84 119 97
84 119 96
84 119 97
84 119 97
84 119 97
84 119 97
84 119 97
84 119 97
84 119 97
84 119 97
84 119 97
84 119 97
84 119 97
84 119 97
84 119 97
84 119 97
84 119 97
84 119 97
84 119 97
84 119 96
84 119 97
84 119 97
84 119 97
84 119 97
84 119 97
84 119 97
84 119 96
84 119 97
84 119 97
84 119 97
84 119 97
84 119 97
84 119 97
84 119 96
84 119 97
84 119 97
84 119 97
84 119 97
84 119 96
84 119 97
84 119 96
84 119 97
84 119 96
84 119 96
84 119 97
84 119 97
84 119 97
84 119 97
84 119 96
84 119 97
84 119 97
84 119 97
84 119 97
84 119 97
84 119 96
84 119 97
84 119 97
84 119 97
84 119 97
84 119 97
84 119 97
84 119 97
84 119 97
84 119 97
84 119 97
84 119 96
84 119 97
84 119 97
84 119 96
84 119 97
84 119 96
84 119 97
84 118 96
84 119 97
84 119 97
84 119 97
84 119 97
84 119 97
84 119 96
84 119 96
84 119 96
84 119 97
84 119 96
84 119 97
84 119 96
84 119 96
84 119 96
84 119 97
84 119 97
84 119 96
84 119 97
84 119 97
84 119 96
84 119 97
84 119 97
84 119 97
84 119 97
84 119 97
84 119 96
84 119 97
84 119 96
84 119 97
84 119 97
84 119 96
84 119 96
84 119 96
84 119 96
84 119 97
84 119 97
84 119 97
84 119 97
84 119 97
83 118 96
84 119 97
84 119 97
84 119 96
84 119 97
84 118 96
84 119 96
84 119 97
84 118 96
84 119 96
84 119 97
84 119 96
84 119 97
84 118 96
84 119 96
84 119 97
84 119 96
84 119 97
84 119 96
84 118 96
83 118 96
84 119 97
84 119 96
84 119 96
84 119 96
84 119 97
84 118 96
84 118 96
84 119 96
84 119 96
83 118 96
84 118 96
83 118 96
84 119 97
84 119 96
84 118 96
83 118 96
84 118 96
84 118 96
84 118 96
84 119 96
84 119 96
84 119 96
83 118 96
83 118 96
84 118 96
84 119 96
83 118 96
84 118 96
83 118 96
84 119 96
83 118 96
84 119 97
84 119 97
84 118 96
84 119 97
83 118 96
84 119 96
84 119 96
84 118 96
83 118 96
83 118 96
84 118 96
83 118 96
83 117 95
83 118 96
84 118 96
83 118 96
83 118 96
84 118 96
83 118 95
84 118 96
84 118 96
83 118 96
84 119 96
83 118 96
84 118 96
83 118 96
84 118 96
83 118 96
84 119 96
83 118 96
83 117 95
84 119 96
83 117 95
83 118 96
77 109 89
30 32 33
32 34 35
33 35 36
34 36 38
36 38 39
36 38 40
37 38 40
37 39 41
37 39 41
37 39 41
37 39 42
37 39 41
38 40 42
38 39 42
38 40 42
38 40 42
39 40 42
40 41 43
42 43 44
43 44 45
43 43 45
40 41 42
39 40 42
38 39 42
38 39 42
37 39 41
37 38 40
38 39 41
37 38 40
37 38 40
37 39 41
36 37 40
36 37 39
35 37 39
35 36 38
35 36 38
35 36 38
34 35 37
33 34 36
32 34 35
31 32 34
31 32 34
30 31 33
28 30 32
27 29 30
25 27 29
23 25 27
30 38 35
83 117 95
83 117 95
83 118 96
83 118 96
83 118 96
83 118 96
83 117 95
83 117 95
82 117 95
82 117 95
83 117 95
83 117 95
83 118 96
83 117 95
83 117 96
83 118 96
83 117 95
83 117 95
83 117 95
83 117 95
83 117 96
83 117 95
83 118 96
82 117 95
82 117 95
83 117 95
83 117 95
83 118 96
83 118 96
83 117 95
83 118 96
83 117 95
82 117 95
83 117 95
83 117 95
83 117 95
83 117 96
83 117 96
83 117 96
83 117 95
83 117 95
83 117 95
82 117 95
82 117 95
83 117 95
83 118 96
83 117 96
83 117 95
83 117 96
83 117 95
83 117 95
111 121 92
183 138 80
242 155 64
253 160 63
255 162 64
255 162 64
255 163 65
255 163 65
255 163 65
255 163 65
254 162 65
254 162 64
253 161 64
252 161 64
250 160 64
249 159 63
247 158 63
245 157 63
243 156 62
241 154 62
238 153 61
234 150 60
227 147 59
190 135 71
125 123 89
84 117 95
83 117 95
83 117 95
83 118 96
83 117 95
83 117 95
83 117 95
83 117 96
82 117 95
83 117 96
83 117 95
83 117 95
83 117 95
82 117 95
82 117 95
83 117 95
82 117 95
82 117 95
83 117 95
82 117 95
82 117 95
82 117 95
83 117 96
83 117 95
82 117 95
83 117 95
82 117 95
82 117 95
83 117 95
83 117 95
83 117 96
83 117 95
82 117 95
83 117 95
82 116 95
82 117 96
82 117 95
82 117 95
82 117 95
82 116 95
82 117 95
82 117 95
82 117 95
82 117 95
82 117 95
83 117 95
82 116 95
83 117 95
82 117 95
82 117 95
83 118 95
82 117 95
82 117 95
83 117 95
82 117 95
83 117 95
83 117 95
82 117 95
83 117 95
83 117 95
82 116 95
82 117 95
82 116 95
82 117 95
82 117 95
82 116 95
82 117 95
82 117 95
82 117 95
83 117 95
82 117 95
83 117 95
82 117 95
82 117 95
83 117 95
82 117 95
82 117 95
82 116 95
82 117 95
82 117 95
82 117 95
82 117 95
82 116 95
82 117 95
82 117 95
92 121 99
116 133 113
178 169 152
194 180 162
215 194 177
222 199 182
224 201 184
225 201 184
224 200 184
223 200 184
222 199 183
220 197 182
214 193 177
204 171 155
175 113 94
151 100 78
122 108 86
87 116 94
82 117 95
82 116 95
82 117 95
82 116 95
82 116 95
82 116 95
82 116 95
82 117 95
82 116 95
82 116 94
82 116 95
82 116 95
82 116 95
82 116 95
82 116 95
82 116 95
82 116 95
82 116 95
82 116 95
82 116 95
82 116 94
82 116 95
82 116 95
82 116 95
82 116 95
82 116 95
82 116 95
82 117 95
82 116 95
82 116 95
82 116 95
81 116 95
82 116 95
82 116 95
82 116 95
82 116 95
82 116 95
82 116 95
82 116 95
82 116 95
82 116 94
82 116 94
82 116 95
82 116 95
82 116 95
82 116 95
81 116 94
82 116 95
82 116 95
82 116 95
82 116 95
82 116 95
81 116 95
82 116 95
82 116 94
82 116 95
81 116 94
82 116 95
82 116 95
81 116 94
82 116 95
81 116 95
81 116 95
82 116 95
81 116 94
82 116 94
81 116 95
81 116 94
81 116 94
81 115 94
82 116 95
81 116 94
81 116 94
81 116 95
81 116 95
81 116 95
81 116 94
81 116 94
82 116 94
81 116 94
81 116 94
81 115 94
81 116 94
81 116 94
82 116 94
81 115 94
81 116 94
82 116 94
81 116 94
81 115 94
81 116 94
81 115 94
81 116 94
81 116 94
81 115 94
81 116 94
81 115 94
81 115 94
81 115 94
81 115 94
81 115 94
81 115 94
81 115 94
81 116 94
81 115 94
81 115 94
81 115 94
81 115 94
81 115 94
81 115 94
81 115 94
81 115 94
81 115 94
81 115 94
81 115 94
81 115 94
81 115 94
81 115 94
81 115 94
81 115 94
81 115 94
81 115 94
81 115 94
81 115 94
81 115 94
80 115 94
81 115 94
84 119 97
84 119 97
84 119 96
84 119 97
84 119 97
84 119 97
84 119 97
84 119 97
84 119 97
84 119 97
84 119 97
84 119 97
84 119 97
84 119 97
84 119 97
84 119 97
84 119 97
84 119 97
84 119 97
84 119 97
84 119 97
84 119 97
84 119 97
84 119 97
84 119 97
84 119 97
84 119 97
84 119 97
84 119 97
84 119 97
84 119 97
84 119 97
84 119 97
84 119 97
85 120 97
84 119 97
84 119 97
84 119 97
84 119 97
84 119 97
84 119 97
84 119 97
84 119 97
84 119 97
84 119 96
84 119 97
84 119 97
84 119 97
84 119 97
84 119 97
84 119 97
84 119 97
85 119 97
84 119 96
84 119 97
84 119 97
84 119 97
84 119 97
84 119 97
84 119 97
84 119 97
84 119 97
84 119 96
84 119 97
84 119 97
84 119 97
84 119 97
84 119 97
84 119 97
84 119 97
84 119 96
84 119 97
84 119 97
84 119 97
84 119 97
84 119 97
84 119 97
84 119 97
84 119 97
84 119 97
84 119 97
84 119 96
84 119 96
84 119 97
84 119 97
84 119 97
84 119 97
84 119 97
84 119 97
84 119 97
84 119 97
84 119 97
84 119 97
84 119 97
84 119 97
84 119 97
84 119 97
84 119 97
84 119 97
84 119 96
84 119 97
84 119 97
84 119 97
84 119 96
84 119 97
84 119 97
84 119 97
84 119 96
84 119 97
84 119 97
84 119 96
84 119 97
84 119 97
84 119 96
84 119 97
84 119 97
84 119 97
84 119 97
84 119 96
84 119 97
84 119 96
84 119 96
84 119 97
84 119 97
84 119 97
84 119 97
84 119 97
84 119 97
84 119 97
84 119 97
84 119 97
84 119 96
84 119 96
84 119 97
84 119 97
84 119 97
84 119 97
84 119 97
84 119 97
84 119 96
84 119 97
84 119 97
84 119 97
84 119 96
84 119 97
84 119 97
84 119 96
84 119 97
84 119 96
84 119 97
84 119 96
84 119 96
84 119 97
84 119 97
84 119 97
84 119 97
84 119 97
84 119 97
84 118 96
84 119 97
84 119 97
84 119 97
84 119 96
84 119 96
84 119 97
84 119 96
84 119 97
84 119 96
84 119 96
84 119 96
84 119 97
83 118 96
84 118 96
84 118 96
84 119 97
84 119 97
84 119 96
83 118 96
84 119 96
84 119 96
84 119 97
84 119 96
84 119 96
84 119 96
84 119 96
84 119 96
84 119 96
84 118 96
84 119 96
84 119 96
84 118 96
84 119 96
84 119 96
84 119 96
84 119 96
84 118 96
84 118 96
84 119 96
83 118 96
84 119 97
84 118 96
83 118 96
83 118 96
83 119 97
84 119 97
83 118 96
84 119 96
83 118 96
83 118 96
84 119 96
83 118 96
84 118 96
84 118 96
83 118 96
84 119 96
83 118 96
84 119 96
84 118 96
84 118 96
83 118 96
84 119 96
84 118 96
83 118 96
84 118 96
83 118 96
83 118 96
84 119 96
83 118 96
83 118 96
83 118 96
83 118 96
83 118 96
84 118 96
83 118 96
83 118 96
83 117 95
83 118 96
84 118 96
83 117 95
83 118 96
83 117 95
83 118 96
84 118 96
83 118 96
83 118 96
77 109 89
31 34 35
32 34 35
33 35 36
33 35 36
35 37 38
35 37 39
36 38 39
36 38 39
36 38 40
36 38 40
36 38 40
37 39 41
37 39 41
37 39 41
37 39 41
37 38 40
37 39 41
37 39 41
37 38 40
38 39 41
38 39 41
38 40 42
38 39 41
37 39 41
37 39 41
37 38 41
36 37 39
37 38 40
37 38 40
36 37 39
35 37 39
36 38 40
36 36 38
35 36 37
34 35 37
34 35 37
34 35 36
32 34 35
33 34 36
32 33 35
30 32 33
30 32 33
28 30 31
27 29 31
27 29 30
24 27 28
22 25 26
31 40 36
81 115 93
83 117 95
83 118 96
82 116 95
83 117 95
83 118 96
83 117 95
83 117 95
82 117 95
82 117 95
83 117 95
83 117 95
83 117 96
83 117 95
83 117 95
83 117 95
83 118 96
83 117 95
83 117 95
83 118 95
83 118 96
82 116 95
83 117 96
83 118 96
83 118 96
83 117 96
83 117 95
83 117 96
83 117 95
83 117 96
82 117 95
83 118 96
83 118 96
83 118 96
83 117 95
83 118 96
83 118 96
83 117 96
83 118 96
83 118 96
83 117 95
83 118 96
83 118 95
83 117 95
83 118 96
83 118 96
83 117 96
83 117 95
83 117 95
94 119 94
168 134 83
238 154 66
255 162 64
255 163 65
255 164 65
255 165 65
255 165 65
255 165 65
255 165 65
255 165 65
255 164 65
255 164 65
255 163 65
255 163 65
254 162 65
253 162 64
252 161 64
250 160 64
248 159 63
247 158 63
244 156 62
241 155 62
239 153 61
237 151 61
231 149 60
225 145 58
184 132 70
103 119 92
82 117 95
83 118 95
82 116 95
83 117 95
83 117 95
83 117 95
83 117 95
83 118 96
83 118 95
83 117 95
82 117 95
83 117 96
83 117 96
83 117 95
83 117 96
83 117 96
83 118 96
83 117 95
82 117 95
83 117 96
82 117 95
83 117 96
83 117 95
83 117 96
82 117 95
83 117 96
82 117 95
82 117 95
82 117 95
83 117 95
82 117 95
82 117 95
83 117 95
83 117 95
83 117 95
82 117 95
83 117 95
83 117 95
83 117 95
82 117 95
82 117 95
82 117 95
82 117 95
82 117 95
82 117 95
83 117 95
82 117 95
82 117 95
83 117 95
82 117 95
83 117 95
82 117 95
83 117 95
82 117 95
82 117 95
82 117 95
82 116 95
82 117 95
82 117 95
82 117 95
83 117 95
83 117 95
82 117 95
82 117 95
82 117 95
82 117 95
82 116 95
82 117 95
82 117 95
82 117 95
83 117 95
82 117 95
82 117 95
83 117 95
82 117 95
83 117 95
82 117 95
82 116 95
82 117 95
82 116 95
82 117 95
107 128 108
165 161 142
213 193 175
228 204 186
231 206 189
231 207 189
232 207 189
231 207 189
230 206 189
230 206 189
229 205 188
228 204 188
227 204 187
225 202 186
223 201 185
221 199 184
218 181 166
213 96 75
209 77 52
189 83 60
153 97 75
104 112 91
82 116 95
82 116 94
82 117 95
82 117 95
82 116 95
82 117 95
82 116 95
82 116 95
82 116 95
82 116 95
82 116 95
82 116 95
82 116 95
82 116 95
82 116 95
82 116 95
82 116 95
82 116 95
82 116 95
82 116 95
82 116 95
82 116 95
82 116 95
82 116 95
82 116 95
82 116 95
82 116 95
82 116 95
82 117 95
82 116 95
82 116 95
82 116 95
82 116 95
82 116 95
81 116 95
82 116 95
82 116 95
82 116 95
82 116 94
82 116 95
81 116 95
81 116 95
82 116 95
81 116 95
82 116 95
81 116 95
81 116 95
82 116 95
82 116 95
82 116 94
81 116 95
81 116 95
82 116 95
82 116 95
81 116 95
82 116 94
81 116 94
82 116 95
81 116 94
82 116 94
81 116 94
81 116 95
82 116 94
81 116 95
81 116 94
82 116 94
81 116 94
81 116 94
81 116 94
81 115 94
81 116 94
82 116 95
81 116 94
81 115 94
81 116 94
81 115 94
81 116 95
81 116 94
81 116 94
81 116 95
81 116 94
81 115 94
82 116 94
81 116 94
81 115 94
81 116 94
81 115 94
81 115 94
81 115 94
81 115 94
81 115 94
81 115 94
81 115 94
81 116 94
81 115 94
81 115 94
81 115 94
81 115 94
81 115 94
81 115 94
81 115 94
81 115 94
81 115 94
81 115 94
81 115 94
81 115 94
81 115 94
81 116 94
81 115 94
81 115 94
81 115 94
81 115 94
81 115 94
81 115 94
81 115 94
81 115 94
81 115 94
81 115 94
81 115 94
81 115 94
81 115 94
81 115 94
81 115 94
81 115 94
81 115 94
84 119 97
84 119 97
84 119 97
84 119 97
84 119 97
84 119 97
84 119 97
84 119 97
84 119 97
84 119 97
84 119 97
84 119 97
84 119 97
84 119 97
84 119 97
84 119 97
84 119 97
84 119 96
84 119 97
84 119 97
84 119 97
84 119 97
84 119 97
84 119 97
84 119 97
84 119 97
84 119 97
84 119 97
84 119 97
84 119 97
84 119 97
84 119 96
84 119 97
84 119 97
84 119 97
84 119 97
84 119 97
84 119 96
84 119 97
84 119 97
84 119 97
84 119 97
84 119 97
84 119 97
84 119 97
84 119 97
84 119 97
84 119 97
84 119 97
85 120 97
84 119 97
84 119 96
84 119 97
84 119 97
84 119 97
84 119 97
84 119 97
84 119 97
84 119 97
84 119 97
84 119 97
84 119 96
85 120 97
84 119 97
84 119 97
84 119 97
84 119 97
84 119 97
84 119 97
84 119 97
84 119 97
84 119 97
84 119 97
84 119 97
84 119 97
84 119 97
84 119 97
84 119 97
84 119 97
84 119 96
85 120 97
84 119 97
84 119 97
84 119 97
84 119 97
84 119 97
84 119 97
84 119 97
84 119 97
84 119 97
84 119 97
84 119 97
84 119 97
84 119 97
84 119 97
84 119 97
84 119 97
84 119 97
84 119 97
84 119 97
84 119 97
84 119 96
84 119 96
84 119 97
84 119 96
84 119 97
84 119 97
84 119 97
84 119 97
84 119 97
84 119 97
84 119 97
84 119 97
84 119 97
84 119 97
84 119 97
84 119 97
84 119 97
84 119 96
84 119 97
84 119 97
84 119 96
84 119 97
84 119 97
84 119 97
84 119 97
84 119 97
84 119 97
84 119 96
84 119 97
84 119 96
84 119 96
84 119 96
84 119 97
84 119 97
84 119 97
84 119 96
85 119 97
84 119 96
84 119 97
84 119 97
84 119 97
84 119 97
84 119 97
84 119 97
84 119 97
84 119 97
84 119 96
84 119 97
83 118 96
84 119 97
84 119 97
84 119 97
84 119 97
84 119 97
84 119 97
84 119 97
84 119 97
84 119 97
84 119 96
84 119 97
84 119 96
84 119 96
84 119 96
84 119 97
84 119 96
84 119 97
84 119 97
84 119 96
84 119 96
84 118 96
84 119 97
83 118 96
83 118 96
84 119 96
84 119 96
84 119 96
84 119 96
84 119 96
84 118 96
84 119 96
84 119 97
84 118 96
84 118 96
84 118 96
84 119 97
84 119 96
83 118 96
84 119 96
84 119 96
84 119 96
83 118 96
83 118 96
84 118 96
84 119 96
84 119 96
84 118 96
84 118 96
84 118 96
84 119 96
84 119 96
84 119 97
84 119 97
84 119 96
84 119 96
84 118 96
84 118 96
84 118 96
84 118 96
84 118 96
83 118 96
84 118 96
83 118 96
84 118 96
83 118 96
83 118 96
84 118 96
83 118 96
84 118 96
84 118 96
83 117 95
83 118 96
84 119 96
83 117 95
83 118 95
84 119 96
84 119 96
84 119 96
83 118 96
84 118 96
83 118 96
83 118 96
84 118 96
83 118 96
84 118 96
83 118 96
83 118 96
83 118 96
83 118 96
83 117 95
83 118 96
84 118 96
83 118 96
83 118 95
83 118 96
79 112 91
29 32 33
31 33 34
33 35 36
33 35 36
33 35 36
35 37 39
35 36 38
36 38 39
36 37 39
36 38 39
35 37 39
36 38 40
37 39 41
37 38 40
37 38 40
37 39 41
36 38 40
37 38 40
37 38 40
37 38 40
36 38 40
37 39 41
37 38 41
36 37 39
36 37 39
36 37 39
36 38 40
36 37 39
36 38 40
36 37 38
36 36 38
35 36 38
35 35 37
34 35 37
34 35 36
33 35 36
33 34 36
32 33 35
31 32 34
31 32 34
30 31 33
29 30 31
28 29 31
27 29 31
25 27 28
24 26 28
22 24 25
31 41 36
81 115 93
82 117 95
82 117 95
82 117 95
83 117 95
83 117 95
82 117 95
82 117 95
83 117 95
83 117 95
82 117 95
83 117 95
83 117 95
83 118 96
83 118 95
82 116 94
83 118 96
84 118 96
83 117 95
82 116 94
83 117 95
83 117 95
83 117 95
82 117 95
83 117 96
83 118 96
83 117 95
83 118 96
82 117 95
83 118 96
83 117 95
82 117 95
83 117 95
83 117 95
82 117 95
83 118 96
83 117 96
83 118 96
82 117 95
83 118 96
83 118 96
83 117 96
83 118 96
83 117 95
83 118 95
83 117 95
83 118 96
83 118 96
117 122 91
225 148 67
253 159 63
255 163 64
255 165 65
255 165 65
255 166 66
255 166 66
255 166 66
255 166 66
255 166 66
255 166 66
255 165 66
255 165 66
255 165 65
255 164 65
255 163 65
255 163 65
254 162 65
252 161 64
251 160 64
248 159 64
247 158 63
244 156 63
242 155 62
239 153 61
236 151 61
233 149 60
227 146 58
208 137 59
125 121 87
86 117 95
83 117 96
82 117 95
83 117 95
83 117 95
83 117 95
83 118 96
83 117 96
82 117 96
82 117 95
83 118 95
83 117 95
82 116 95
83 117 95
83 117 95
82 117 96
83 117 95
83 117 96
83 117 95
82 117 95
83 117 95
83 117 95
82 117 95
83 117 96
82 117 95
83 117 95
82 117 95
83 117 95
83 117 95
83 117 95
83 117 95
83 117 95
82 117 95
83 117 95
82 117 95
83 117 96
83 117 95
83 117 95
83 117 96
82 117 95
82 116 95
83 117 95
82 117 95
83 117 95
83 117 95
83 117 95
82 117 95
82 117 95
83 117 95
82 117 95
82 117 95
82 117 95
82 117 95
83 117 95
82 116 94
82 117 95
82 117 95
82 117 95
83 117 95
82 117 95
82 117 95
82 117 95
82 117 95
82 117 95
82 117 95
83 117 95
82 117 95
82 117 95
82 117 95
82 117 95
82 117 95
82 117 95
82 116 95
82 116 95
82 116 95
82 117 95
82 116 95
83 117 95
124 137 117
188 176 157
227 203 184
234 208 189
235 209 191
236 210 191
236 210 192
236 210 192
235 210 192
234 210 192
234 209 192
233 208 191
232 208 191
231 207 190
230 206 189
228 205 188
226 203 187
225 202 186
223 200 185
219 150 134
216 78 53
213 77 52
208 76 51
200 77 53
158 93 71
98 112 91
82 117 95
82 116 95
82 117 95
82 116 95
82 117 95
82 116 95
82 117 95
82 116 95
82 117 95
82 117 95
82 116 95
82 116 95
82 117 95
82 116 95
82 117 95
82 117 95
82 116 95
82 117 95
82 116 95
82 116 95
82 116 95
82 116 95
82 117 95
82 116 95
82 116 95
82 116 95
82 116 95
82 116 95
82 117 95
82 116 95
82 116 95
82 116 95
82 116 95
82 116 95
81 116 95
82 116 95
82 116 95
82 116 95
81 116 95
82 116 95
81 115 94
82 116 95
82 116 95
81 116 94
82 116 95
81 116 95
82 116 95
82 116 95
81 116 95
81 116 94
81 116 95
82 116 95
82 116 95
82 116 94
82 116 95
81 116 95
81 116 94
81 116 94
82 116 95
82 116 95
81 116 95
81 116 95
81 116 95
82 116 95
81 116 94
82 116 95
81 116 94
81 116 95
81 116 95
81 116 94
82 116 94
82 116 95
82 116 95
81 116 95
81 116 94
82 116 94
81 116 95
81 116 94
81 116 94
81 116 94
81 116 95
82 116 95
81 116 94
82 116 94
81 116 94
81 116 94
81 115 94
82 116 94
81 115 94
81 116 94
81 115 94
81 115 94
81 115 94
81 116 94
81 115 94
81 116 94
81 116 94
81 116 94
81 116 94
81 116 94
81 115 94
81 115 94
81 115 94
81 116 94
81 115 94
81 115 94
81 115 94
81 115 94
81 116 94
81 115 94
81 115 94
81 115 94
81 115 94
81 115 94
81 115 94
81 115 94
81 115 94
81 115 94
81 115 94
81 115 94
81 115 94
81 115 94
81 115 94
84 119 97
84 119 97
84 119 97
84 119 97
84 119 97
84 119 97
84 119 97
84 119 97
84 118 96
84 119 97
84 119 97
84 119 97
84 119 96
84 119 97
84 119 96
84 119 97
84 119 97
84 119 97
85 120 97
84 119 97
84 119 97
84 119 97
84 120 97
84 119 97
84 119 97
84 119 97
85 120 97
84 119 97
84 119 97
84 119 97
84 119 96
84 119 97
84 119 97
84 119 97
84 119 97
84 119 97
84 119 97
84 119 97
84 119 97
84 119 97
84 119 97
84 119 97
84 119 97
84 119 96
84 119 97
84 119 97
84 119 97
84 119 97
84 119 97
84 119 97
84 119 97
84 119 97
84 119 97
84 119 97
84 119 97
84 119 97
84 119 97
84 119 97
84 119 97
84 119 97
84 119 97
84 119 97
84 119 97
84 119 97
84 119 97
84 119 97
84 119 97
84 119 96
84 119 97
84 119 97
84 119 97
84 119 97
84 119 97
84 119 97
84 119 97
84 119 96
84 120 97
84 119 97
87 119 97
120 123 98
107 121 97
95 120 97
85 119 97
84 119 97
84 119 97
84 119 97
84 119 97
84 119 97
84 119 97
84 119 97
84 119 97
84 119 97
84 119 97
84 119 97
84 119 97
84 119 97
84 119 97
84 119 97
84 119 97
84 119 96
84 119 97
84 119 97
84 119 97
84 119 97
84 119 97
84 119 97
84 120 97
84 119 97
84 119 97
84 119 97
84 119 97
84 119 97
84 119 97
84 119 97
84 119 97
84 119 96
84 119 97
84 119 97
84 119 97
84 119 97
84 119 97
84 119 97
84 119 97
84 119 96
84 119 97
84 119 96
84 119 97
84 119 96
84 119 97
84 119 97
84 119 97
84 119 97
84 119 97
84 119 97
84 119 97
84 119 97
85 120 97
84 119 97
84 119 97
84 119 97
84 119 96
84 119 97
84 119 97
84 119 97
84 119 97
84 119 97
84 119 97
84 119 96
84 119 97
84 119 96
84 119 96
84 119 96
84 119 97
84 119 97
84 119 97
84 119 96
84 119 96
84 119 97
84 119 97
84 119 97
84 119 97
84 119 96
84 119 96
84 119 97
84 119 97
84 119 96
84 119 97
84 119 96
84 118 96
84 119 96
84 119 96
84 119 97
84 119 96
84 119 96
84 119 97
84 119 96
84 119 97
84 118 96
84 119 97
84 119 96
84 119 96
84 119 96
84 119 97
84 118 96
84 118 96
84 118 96
84 119 97
84 119 97
84 119 97
83 118 96
84 118 96
84 119 96
84 119 97
84 119 97
84 118 96
84 119 96
83 118 96
84 119 96
84 118 96
84 118 96
83 118 96
84 119 97
84 119 96
83 118 96
84 118 96
84 119 97
83 118 96
84 119 96
84 119 96
84 118 96
83 118 96
84 119 96
83 118 96
83 118 96
83 118 96
83 118 96
84 118 96
84 118 96
83 118 96
83 118 96
84 118 96
83 118 96
84 119 96
84 119 96
83 118 96
84 119 97
84 119 97
84 118 96
84 118 96
83 118 96
83 118 96
83 118 96
83 117 95
83 118 96
84 118 96
84 119 96
83 118 96
83 118 96
82 117 95
84 118 96
83 118 96
83 118 95
83 118 96
83 118 96
84 118 96
80 113 92
30 34 33
31 34 35
32 34 36
33 35 36
34 36 37
34 36 37
34 36 37
35 37 38
34 36 37
35 36 38
35 37 39
35 37 39
36 37 39
36 38 40
35 37 39
36 37 39
36 38 40
36 38 39
36 37 39
36 37 39
36 37 39
36 38 39
36 37 38
36 37 39
36 37 39
35 37 39
35 36 38
35 36 38
35 36 38
35 36 38
35 36 38
34 35 37
34 35 36
33 34 35
33 34 35
32 34 35
32 33 35
32 33 34
31 32 33
30 32 33
29 30 31
28 29 30
26 28 29
25 27 28
24 26 27
23 25 26
20 22 23
37 50 43
81 115 93
82 116 94
81 116 94
82 116 95
82 116 94
82 117 95
82 117 95
82 116 95
82 116 94
82 117 95
83 117 95
82 116 95
82 117 95
83 117 95
83 117 95
83 118 95
82 117 95
82 116 95
83 117 95
83 117 95
83 117 95
83 117 95
82 116 94
83 117 95
83 118 95
83 117 95
83 117 95
82 117 95
83 117 95
83 118 96
83 117 96
83 118 96
83 117 95
83 118 96
83 117 95
83 117 95
83 117 95
82 117 95
82 117 95
83 117 95
83 118 96
83 117 95
82 117 95
83 117 96
83 117 95
83 118 96
85 117 94
162 132 84
239 154 64
255 161 64
255 165 65
255 166 65
255 166 66
255 167 66
255 167 66
255 167 66
255 167 66
255 167 66
255 167 66
255 167 66
255 167 66
255 166 66
255 166 66
255 165 66
255 164 65
255 164 65
255 163 65
254 162 65
253 161 64
251 160 64
249 159 63
246 158 63
245 157 63
241 155 62
240 153 61
236 151 61
232 149 60
227 145 58
217 140 56
164 126 74
89 118 94
83 117 95
83 117 96
82 116 95
83 118 96
83 117 96
82 117 95
82 117 95
83 118 96
83 117 95
82 117 95
83 117 95
83 117 95
83 118 96
82 117 95
83 117 95
83 117 96
82 117 95
83 118 96
83 117 95
83 118 96
82 117 95
83 117 95
83 117 95
83 117 95
83 117 96
83 117 95
83 117 96
82 117 95
83 117 95
83 117 95
83 117 95
82 117 95
83 118 95
83 117 96
82 116 95
82 117 95
82 117 95
82 117 95
82 117 95
82 116 95
83 117 95
83 117 95
83 117 95
83 117 95
82 117 95
83 117 95
82 117 95
83 117 95
82 117 95
82 117 96
82 117 95
82 117 95
82 117 95
82 117 95
82 117 95
82 116 95
82 117 95
82 117 95
83 117 95
83 117 95
83 117 95
82 117 95
83 117 95
82 117 95
83 117 95
82 116 95
82 117 95
83 117 95
83 117 95
82 117 95
82 116 95
83 117 95
82 117 95
82 117 95
100 125 104
179 170 151
229 204 184
235 209 190
236 210 191
238 212 193
238 212 193
238 212 194
238 212 194
238 213 194
238 212 194
237 212 194
236 211 193
235 211 193
234 210 192
233 209 192
232 208 191
231 207 190
229 206 189
227 204 188
225 203 187
223 176 160
218 79 53
216 79 53
213 78 52
210 77 52
207 75 51
194 75 52
143 97 76
85 115 94
82 116 95
82 117 95
82 117 95
82 116 95
82 117 95
82 117 95
82 116 95
82 117 95
82 116 95
82 116 95
82 116 95
82 117 95
82 116 95
82 116 95
82 116 95
81 116 95
81 116 94
82 116 94
82 116 95
82 116 95
82 116 95
82 116 94
82 116 95
82 116 95
82 116 95
82 116 95
82 116 95
82 116 95
82 116 95
82 116 95
82 116 94
82 116 95
82 116 95
81 116 94
82 116 95
82 116 95
81 116 95
82 116 95
82 116 95
82 116 95
82 116 95
82 116 95
82 116 95
82 116 95
82 116 95
82 116 95
82 116 95
82 116 95
82 116 94
81 116 95
82 116 95
82 116 95
82 116 95
82 116 95
81 116 95
82 116 95
81 116 95
82 116 94
82 116 95
81 116 94
82 116 94
81 116 95
81 116 94
81 116 95
81 116 95
81 116 95
82 116 95
82 116 95
81 116 94
81 116 94
81 116 95
81 116 95
82 116 94
82 116 94
81 116 94
81 116 95
81 115 94
82 116 95
81 116 94
81 116 95
81 116 95
81 115 94
81 116 95
81 115 94
81 116 94
81 116 94
81 116 94
81 116 94
81 115 94
81 116 94
81 115 94
81 116 94
81 116 94
81 116 94
81 116 94
81 116 94
81 116 94
81 115 94
81 116 94
81 116 94
81 116 94
81 115 94
81 116 94
81 115 94
81 115 94
81 115 94
81 116 94
81 115 94
81 115 94
81 115 94
81 115 94
81 115 94
81 115 94
81 115 94
81 115 94
81 115 94
81 115 94
81 115 94
81 115 94
81 115 94
81 115 94
84 119 97
84 119 97
84 119 97
84 119 97
84 119 97
85 119 97
84 119 97
84 119 96
84 119 97
84 119 97
84 119 97
84 119 97
84 119 97
84 119 97
84 119 97
84 119 97
84 119 97
84 119 97
84 119 97
84 119 97
84 119 97
84 120 97
84 119 97
84 119 97
84 119 97
84 119 97
84 119 97
84 119 97
84 119 97
85 120 97
84 119 97
84 119 97
84 119 97
85 120 97
84 119 97
84 119 97
84 119 97
85 120 97
84 119 97
84 119 97
84 119 97
84 119 97
84 119 97
84 119 97
84 119 97
84 119 97
84 119 97
84 119 97
84 120 97
84 119 97
84 119 97
85 119 97
84 119 97
85 120 97
84 119 97
84 119 97
84 119 97
84 120 97
84 119 97
84 119 97
84 119 97
84 119 97
84 119 97
84 119 96
84 119 97
84 119 97
84 119 97
84 119 97
84 119 97
84 119 97
84 119 97
84 120 97
84 120 97
84 119 97
84 119 97
84 119 97
97 120 97
126 124 98
159 129 100
174 132 101
173 131 101
171 131 101
165 130 101
152 128 100
140 126 99
124 124 99
106 121 97
90 120 97
84 119 97
84 119 97
84 119 97
84 119 97
85 119 97
83 118 96
84 119 97
84 119 97
84 119 97
84 119 97
84 119 97
84 119 97
84 119 97
84 119 97
84 119 97
84 119 96
84 119 97
84 119 97
85 120 97
84 119 97
84 119 97
84 120 97
84 119 97
84 119 97
84 119 97
84 119 97
84 119 97
84 119 96
84 119 97
84 119 97
85 119 97
84 119 96
84 120 97
84 119 97
84 119 97
84 119 97
84 119 97
84 119 97
84 119 97
84 119 97
84 119 97
84 119 97
84 119 97
84 119 97
84 119 97
84 119 97
84 119 96
84 119 96
84 119 97
84 119 97
84 119 97
84 119 97
84 119 97
84 119 97
84 118 96
84 119 97
84 119 96
84 119 96
84 119 97
84 119 97
84 119 97
84 119 97
84 119 96
84 119 97
84 119 96
84 119 96
84 119 97
84 118 96
84 119 97
84 119 97
84 119 96
84 119 97
84 118 96
84 119 96
84 118 96
84 119 96
84 119 96
84 119 96
84 119 96
84 119 97
84 119 97
84 119 97
84 119 96
84 119 97
84 118 96
84 119 97
84 119 96
84 119 97
84 119 97
84 119 96
84 119 97
84 119 96
84 119 97
84 119 96
84 119 96
84 119 97
84 119 97
84 119 97
84 119 96
84 119 96
84 119 96
84 118 96
84 118 96
84 119 96
84 118 96
84 119 96
84 119 96
84 119 96
84 119 96
84 119 96
84 119 96
84 119 96
84 119 96
84 119 96
83 118 96
84 119 96
84 118 96
84 118 96
83 118 96
83 118 96
84 118 96
83 118 96
83 118 96
84 118 96
84 118 96
84 119 97
84 119 96
83 118 96
84 119 96
84 119 96
83 117 95
84 119 96
83 118 96
84 118 96
83 118 96
83 118 96
83 118 96
83 118 96
83 118 96
83 118 96
84 119 96
83 118 96
84 118 96
83 118 96
83 118 96
83 118 96
84 118 96
83 118 95
83 118 96
84 118 96
83 118 96
83 118 96
83 118 96
84 118 96
83 117 95
83 118 95
83 118 95
82 116 94
33 40 36
30 32 33
31 33 33
32 34 35
33 35 36
33 35 36
34 36 37
34 36 37
34 36 37
34 36 37
34 36 37
34 36 37
35 37 38
35 36 38
35 37 38
36 37 39
35 37 39
35 37 38
35 36 37
36 37 38
35 37 39
35 36 38
35 37 39
35 37 38
35 36 38
34 36 37
34 36 37
34 35 37
34 35 36
34 35 37
33 34 36
34 34 35
34 34 35
33 33 34
32 33 35
31 32 33
31 32 33
30 31 32
30 31 32
29 30 31
29 30 31
26 28 29
26 28 28
25 27 28
24 26 27
21 23 24
20 23 23
41 57 48
80 114 93
81 115 93
80 114 93
80 114 93
81 115 94
81 115 93
81 116 94
82 116 95
81 116 94
82 117 95
81 115 93
82 117 95
82 117 95
82 116 94
82 117 95
83 117 95
83 117 95
83 117 95
83 117 95
83 118 96
83 118 96
83 117 95
82 117 95
83 118 96
83 118 96
83 118 95
83 118 96
83 117 96
83 117 95
82 116 95
83 118 96
83 117 95
83 117 95
83 117 95
83 117 96
83 117 95
83 118 96
83 117 95
83 117 95
83 117 95
83 117 95
83 118 96
83 117 95
83 117 95
83 117 95
85 118 95
187 136 76
245 156 62
255 162 64
255 165 65
255 166 66
255 167 66
255 168 66
255 168 66
255 168 66
255 168 67
255 168 67
255 168 67
255 168 67
255 168 66
255 167 66
255 167 66
255 166 66
255 166 66
255 165 66
255 165 65
255 164 65
255 163 65
254 162 65
252 161 64
251 160 64
249 159 63
246 157 63
244 156 62
241 154 62
239 153 61
236 151 60
232 149 60
224 144 57
216 139 56
176 128 68
95 118 93
83 118 96
83 117 95
83 117 95
83 117 95
82 117 95
83 118 96
83 118 95
83 117 95
83 117 95
83 117 95
83 117 96
83 117 95
83 117 95
83 117 96
83 117 95
82 117 95
83 117 95
83 117 95
83 117 95
83 117 95
83 117 95
83 117 95
83 117 95
82 117 95
83 117 95
82 117 95
82 117 95
83 117 95
82 117 95
83 117 95
83 117 95
83 117 95
83 118 96
82 117 95
82 116 95
83 117 95
83 117 95
83 117 95
83 117 95
83 117 95
83 117 95
82 117 95
82 117 95
82 117 95
82 117 95
83 117 95
83 118 95
82 116 95
82 117 95
82 117 96
82 117 95
83 117 95
83 117 95
83 117 95
83 117 95
82 117 95
82 117 95
83 117 95
82 117 95
83 117 95
83 117 95
82 117 95
82 117 95
82 117 95
82 117 95
82 117 95
83 117 95
83 117 95
83 117 95
82 117 95
82 117 95
83 117 95
135 143 123
219 197 178
235 208 189
239 211 191
240 213 193
240 214 194
241 214 195
241 214 195
241 214 195
241 215 196
240 214 195
239 214 195
239 213 195
238 213 195
237 212 194
236 211 194
235 210 193
234 210 192
232 208 191
232 208 191
229 206 189
227 204 188
225 182 166
220 81 55
219 80 54
216 79 53
213 78 52
210 77 52
205 75 51
198 73 49
174 81 60
103 110 89
82 117 95
82 117 95
82 116 95
82 116 95
82 117 95
82 117 95
82 116 95
82 116 95
82 117 95
82 116 95
82 116 95
82 116 95
82 116 95
82 116 94
82 116 95
82 117 95
82 116 94
82 116 95
82 116 95
82 116 95
82 116 95
82 116 95
82 117 95
82 116 95
82 116 94
82 116 95
82 116 95
82 116 95
82 116 95
82 117 95
81 116 95
82 116 95
82 116 95
82 117 95
82 116 95
82 116 95
82 116 95
82 116 95
82 116 95
82 116 95
82 116 95
81 116 94
82 116 95
82 116 95
82 116 95
82 116 95
82 116 95
82 116 95
82 116 94
82 116 95
81 116 95
82 116 95
82 116 95
82 116 95
82 116 95
81 116 95
82 116 95
82 116 94
82 116 95
81 116 95
81 116 95
82 116 95
82 116 95
82 116 95
82 116 95
81 116 94
82 116 95
81 116 95
82 116 94
81 116 95
81 116 95
81 116 95
82 116 95
81 116 95
81 116 94
81 116 94
81 116 95
81 116 95
81 115 94
81 115 94
81 116 95
82 116 95
82 116 94
81 115 94
81 115 94
81 116 94
81 116 95
81 115 94
81 116 95
81 116 94
81 115 94
81 116 94
81 116 94
81 115 94
81 116 94
81 115 94
82 116 94
81 116 94
82 116 94
81 116 94
81 115 94
81 115 94
81 116 94
81 115 94
81 115 94
81 115 94
81 115 94
81 115 94
81 115 94
81 116 94
81 115 94
81 115 94
81 115 94
81 115 94
81 115 94
81 115 94
81 115 94
81 115 94
81 115 94
81 115 94
84 119 97
84 119 97
84 119 97
84 119 97
84 119 97
84 119 97
85 120 97
84 119 97
84 119 97
84 119 97
84 119 97
84 119 97
84 120 97
84 119 97
84 119 97
84 119 97
84 119 97
84 119 97
84 119 97
84 119 97
84 119 97
85 120 97
84 119 97
84 119 97
84 119 97
84 119 97
84 119 97
84 120 97
84 119 97
84 119 97
84 119 97
85 120 97
84 119 97
85 119 97
84 119 97
84 120 97
84 119 97
84 119 97
84 119 97
84 120 97
84 119 97
84 119 97
84 119 97
84 120 97
84 119 97
84 119 97
84 119 97
84 119 97
84 120 97
84 119 97
84 120 97
84 119 97
84 119 96
84 119 97
84 119 97
84 120 97
84 119 97
84 119 97
85 119 97
84 119 97
84 119 97
84 119 97
85 120 97
84 119 97
84 119 97
84 119 96
84 120 97
85 120 97
84 119 97
84 119 97
84 119 97
84 119 97
84 119 97
85 119 97
104 121 97
143 127 100
169 130 101
175 132 101
174 131 101
174 132 101
174 132 101
174 131 101
173 131 101
174 132 101
174 132 101
174 131 101
174 132 101
172 131 101
160 129 100
150 127 100
136 125 99
116 123 98
100 121 98
90 120 97
85 120 97
84 120 97
84 119 97
84 119 97
84 119 97
84 119 97
84 119 96
84 119 97
84 119 96
84 119 97
84 120 97
84 119 97
84 119 97
84 119 97
84 119 97
84 119 96
84 119 97
85 120 97
84 119 96
85 120 97
84 119 97
84 119 97
84 119 96
84 119 97
84 119 96
84 119 97
84 119 97
84 119 97
84 119 97
84 119 96
84 119 97
84 119 97
84 119 97
84 120 97
84 119 97
84 119 97
84 119 97
84 119 97
84 119 97
84 119 97
84 119 97
84 119 97
84 119 96
84 119 97
84 119 96
84 119 97
84 119 97
84 119 97
84 119 97
84 119 97
84 119 97
84 119 97
84 119 97
84 119 97
84 119 97
84 119 97
84 119 97
84 119 97
84 119 97
84 119 96
84 119 97
84 119 97
84 119 97
83 118 96
84 119 97
84 119 97
84 119 97
84 119 97
84 119 97
83 118 96
84 119 97
84 119 97
84 119 97
84 118 96
84 119 97
84 119 97
84 119 96
84 118 96
84 119 97
84 119 97
84 119 96
84 118 96
84 119 96
84 119 96
84 119 97
84 119 96
84 119 96
84 119 97
84 118 96
84 119 96
84 119 96
84 119 96
84 119 97
84 119 97
84 119 96
84 119 97
83 118 96
84 119 97
84 118 96
84 118 96
84 119 96
84 118 96
84 119 96
84 119 96
84 119 96
84 119 96
84 119 97
84 119 97
84 119 96
83 118 96
84 119 97
83 118 96
84 118 96
84 118 96
84 119 97
83 118 96
83 118 96
84 119 97
84 119 96
84 118 96
84 118 96
84 119 96
84 119 96
84 119 96
84 119 96
83 118 96
84 118 96
84 118 96
83 118 96
83 118 95
84 118 96
84 118 96
84 118 96
83 118 96
84 118 96
83 118 96
83 118 95
83 118 96
84 119 96
83 117 95
84 118 96
83 118 96
83 118 96
83 117 95
83 118 95
83 118 96
83 118 96
84 119 96
83 117 95
83 117 95
83 118 96
83 118 95
46 62 53
30 32 33
29 32 32
31 33 34
32 34 35
33 35 36
33 35 36
33 35 36
33 35 36
34 36 37
34 36 37
34 36 37
34 35 36
35 36 38
35 36 38
34 35 37
34 35 37
34 36 37
35 36 37
34 36 37
34 36 37
35 36 38
34 36 37
34 36 37
34 35 37
34 35 36
34 35 36
33 34 36
33 34 36
33 34 35
33 34 34
32 33 33
33 34 35
31 32 33
32 33 34
31 32 33
30 32 33
30 31 32
29 30 30
28 29 30
27 29 30
27 29 30
24 27 27
24 26 26
21 23 24
20 22 23
20 22 23
50 70 58
78 111 91
79 113 92
79 113 92
79 113 92
79 113 93
80 114 93
80 114 93
81 114 93
81 115 93
80 114 93
81 115 94
82 116 94
82 116 94
82 117 95
81 115 94
83 117 95
82 117 95
83 117 95
82 117 95
82 117 95
83 117 96
83 117 95
82 116 95
83 117 95
83 117 95
83 118 96
83 117 95
83 118 96
83 117 95
83 117 95
83 118 96
83 117 95
83 118 96
82 117 95
83 117 95
83 118 96
83 118 95
83 118 96
83 117 95
83 117 95
83 118 96
83 117 95
83 118 96
83 117 96
84 118 95
178 136 80
247 156 61
255 163 64
255 165 65
255 167 66
255 168 66
255 168 66
255 169 66
255 169 67
255 169 67
255 169 67
255 169 67
255 169 67
255 168 67
255 168 67
255 168 67
255 168 66
255 167 66
255 167 66
255 166 66
255 165 66
255 164 65
255 164 65
255 163 65
254 162 64
252 161 64
250 160 64
248 158 63
245 157 63
244 156 62
240 154 62
237 152 61
234 150 60
231 148 59
220 142 57
209 135 54
183 127 63
91 118 93
83 117 96
83 118 96
83 118 96
83 117 95
83 117 95
83 118 96
82 116 95
83 118 96
83 117 95
83 117 95
82 116 94
82 117 95
83 118 96
82 117 95
83 117 96
83 118 96
83 117 96
82 116 94
83 117 95
83 117 95
83 117 96
82 117 95
83 118 96
83 118 96
83 118 96
82 117 95
83 117 95
83 117 95
82 117 95
83 117 95
82 117 95
82 117 95
83 117 95
83 117 96
82 117 96
83 118 96
82 117 96
83 117 95
83 118 96
83 118 96
83 117 96
82 117 95
83 117 96
83 117 95
83 117 95
82 117 95
82 117 95
83 117 95
83 118 96
83 117 95
82 117 95
82 117 95
83 117 95
82 117 95
82 117 95
82 117 95
82 117 95
82 117 95
82 117 95
82 117 95
82 117 95
82 117 95
82 117 95
83 117 95
82 117 95
82 117 95
82 117 95
82 116 95
82 117 95
90 120 99
170 163 143
229 203 183
236 209 189
239 212 193
242 214 194
242 215 195
244 216 196
243 216 196
243 216 197
243 216 197
242 216 197
242 215 197
241 215 196
240 215 196
239 214 196
239 213 195
238 213 195
237 212 194
235 211 193
234 210 192
233 209 192
231 207 191
230 206 189
227 188 172
222 82 56
221 80 54
218 79 53
215 78 53
214 78 52
210 77 52
206 75 51
199 73 49
182 74 52
125 103 82
83 117 95
82 117 95
82 117 95
82 117 95
82 116 95
82 117 95
82 117 95
82 117 95
82 116 95
82 117 95
82 117 95
82 116 95
82 117 95
82 116 94
82 117 95
82 116 95
82 116 94
82 117 95
82 116 95
82 117 95
82 116 94
82 116 94
82 117 95
82 116 94
82 116 94
82 116 95
82 117 95
82 116 95
82 116 95
82 116 94
82 116 95
82 116 95
82 116 95
82 116 94
82 116 95
82 116 94
82 116 95
82 117 95
82 116 95
82 116 95
82 116 95
82 116 95
82 117 95
82 116 95
82 116 95
82 116 95
82 116 95
82 116 94
82 116 95
82 116 95
82 116 95
81 115 94
82 116 95
81 116 95
82 116 95
81 116 95
82 116 94
81 115 94
81 116 95
82 116 95
82 116 95
81 116 95
82 116 95
81 116 95
82 116 95
82 116 94
82 116 95
81 116 95
81 116 94
82 116 95
81 116 94
81 116 95
82 116 95
81 116 94
81 116 95
81 116 94
82 116 94
81 116 94
81 116 95
82 116 94
81 116 94
81 116 95
82 116 94
81 116 95
81 116 95
81 116 95
81 116 95
81 116 95
82 116 95
81 116 95
81 116 94
81 116 94
81 116 94
81 116 94
81 116 94
81 115 94
81 116 94
81 116 94
81 116 94
81 116 94
82 116 94
81 115 94
81 116 94
81 116 94
81 116 94
81 115 94
81 115 94
81 115 94
81 116 94
81 116 94
81 115 94
81 115 94
81 115 94
82 116 94
81 115 94
81 115 94
81 116 94
81 115 94
81 115 94
84 119 97
84 119 97
84 119 97
85 120 97
85 120 97
84 119 97
84 119 97
84 119 97
84 119 97
84 119 97
84 119 97
84 119 97
85 120 97
84 119 97
84 119 97
84 119 97
84 120 97
84 119 97
84 119 97
84 119 97
84 119 97
85 120 97
84 119 97
84 119 97
84 119 97
84 119 97
84 119 97
84 119 96
84 119 97
84 119 97
84 120 97
84 119 97
84 119 97
85 120 97
85 120 97
84 119 97
84 120 97
84 120 97
84 119 97
85 120 97
84 119 97
84 119 97
84 119 97
85 120 97
84 119 97
84 119 97
85 120 97
84 119 97
84 119 97
84 119 97
84 119 97
84 119 97
84 119 97
84 119 97
84 119 97
85 120 97
84 120 97
84 119 97
84 120 97
85 120 97
84 119 96
84 119 97
84 119 97
84 119 97
84 119 96
84 119 97
84 120 97
84 119 97
84 119 97
84 119 97
85 120 97
87 120 97
117 123 98
154 128 100
171 131 101
174 132 101
175 132 101
174 132 101
174 132 101
175 132 101
174 132 101
174 132 101
174 132 101
174 132 101
174 132 101
174 132 101
174 132 101
174 132 101
174 132 101
174 132 101
174 131 101
174 131 101
173 131 101
169 131 101
160 129 100
146 127 100
133 125 99
108 122 98
95 120 97
88 120 97
84 119 97
84 119 97
84 119 97
84 119 97
84 120 97
84 119 97
84 120 97
84 119 97
84 119 97
84 119 97
84 119 97
84 119 96
84 119 97
84 119 97
84 119 97
84 119 97
84 119 97
84 119 97
84 119 97
84 120 97
84 119 97
84 119 96
84 119 97
84 119 96
85 120 97
84 119 97
84 119 97
84 119 96
84 119 97
84 119 97
84 119 97
84 119 97
85 120 97
84 119 97
84 119 97
84 119 97
84 119 97
84 119 97
84 119 97
84 119 97
84 119 97
84 119 97
84 119 97
84 119 97
84 120 97
84 119 97
84 119 97
84 119 97
84 119 97
84 119 96
84 119 96
84 119 97
84 119 97
84 119 97
84 119 97
84 119 97
84 119 97
84 119 97
84 119 97
84 119 96
84 119 97
84 119 96
84 119 97
84 118 96
84 119 97
84 119 97
84 119 97
84 119 97
84 119 96
84 119 97
84 119 97
84 119 97
84 119 97
84 119 97
84 119 97
84 119 97
84 119 97
84 119 96
84 119 96
84 119 97
84 118 96
84 119 97
84 119 97
84 119 97
84 119 96
84 119 97
84 119 96
84 119 96
84 119 96
83 118 96
84 119 96
84 119 97
84 118 96
84 118 96
84 119 97
84 118 96
84 118 96
83 118 96
84 119 97
84 119 96
83 118 96
84 119 96
84 118 96
84 119 97
83 118 96
84 119 96
84 119 96
84 118 96
84 118 96
84 119 96
84 119 96
84 119 96
84 118 96
83 118 96
83 118 96
84 118 96
84 119 96
84 118 96
84 119 96
83 118 96
83 118 96
84 118 96
83 118 96
84 118 96
83 118 95
83 118 96
83 118 96
83 118 95
83 118 96
84 118 96
83 118 96
83 117 95
83 117 95
83 118 96
83 118 96
83 118 95
83 117 95
83 117 95
83 117 95
83 117 95
83 117 95
83 118 96
83 118 96
83 117 95
83 117 95
83 118 95
53 72 60
28 30 30
29 31 32
30 32 32
31 33 34
31 33 34
32 34 35
32 34 34
33 35 35
33 35 36
33 35 36
33 35 36
34 35 36
33 35 36
34 36 37
34 35 37
34 35 36
33 34 35
34 35 37
34 36 38
34 35 36
34 35 36
33 35 37
33 35 36
33 35 36
33 34 35
32 34 35
32 33 34
32 33 35
33 33 34
32 32 33
31 32 33
31 32 33
31 32 33
30 31 32
29 30 31
29 30 31
28 29 29
28 29 29
26 28 29
27 28 28
24 26 26
23 25 25
23 25 26
20 22 22
20 22 22
19 21 22
58 82 68
77 110 90
76 109 90
76 108 89
77 110 90
79 112 92
79 112 92
79 113 93
78 112 91
80 113 92
80 114 94
80 113 92
81 115 94
81 115 93
81 115 94
81 115 94
82 116 94
82 116 95
83 117 95
82 116 94
82 117 95
82 116 94
82 117 95
83 118 96
83 118 96
83 117 95
83 118 95
83 117 95
83 118 96
83 117 94
83 117 95
83 118 96
82 117 95
83 117 95
82 117 95
83 117 95
83 117 95
83 117 95
83 118 96
83 118 96
83 117 95
83 118 96
83 118 96
83 117 95
86 117 95
185 135 75
246 156 61
255 160 62
255 164 64
255 167 65
255 168 66
255 169 66
255 169 67
255 169 67
255 170 67
255 170 67
255 169 67
255 170 67
255 169 67
255 169 67
255 169 67
255 168 67
255 168 67
255 167 66
255 167 66
255 166 66
255 166 66
255 165 66
255 164 65
255 163 65
255 163 65
253 161 64
251 160 64
249 159 63
247 158 63
244 156 62
242 155 63
235 162 96
228 173 130
223 174 136
223 161 109
220 144 68
210 135 54
169 124 68
90 118 94
83 118 96
83 117 95
83 117 95
83 117 96
83 118 96
83 117 95
83 118 96
83 117 95
83 118 96
83 117 95
83 117 96
82 117 95
83 117 95
83 118 96
83 118 96
83 117 95
83 117 95
82 117 95
83 117 96
83 117 95
83 118 96
83 117 95
83 118 96
83 117 96
83 117 95
83 118 96
83 117 96
82 116 95
83 117 96
83 117 95
83 117 95
82 117 95
83 117 95
82 117 95
83 117 95
82 117 95
82 117 95
83 117 95
83 118 96
83 117 95
82 117 95
83 117 95
83 117 95
83 117 95
82 117 95
83 118 96
83 117 95
83 117 96
83 117 96
82 117 95
82 117 95
83 117 95
83 117 95
82 117 95
83 117 95
83 117 95
83 117 95
83 117 95
83 117 95
83 117 95
83 117 95
82 117 95
82 117 95
82 117 95
82 117 95
82 117 95
83 117 95
94 122 101
176 165 144
227 201 180
236 208 187
242 214 194
244 216 195
243 216 196
244 217 197
245 217 197
245 217 197
245 217 198
245 217 198
244 217 198
243 217 197
242 216 197
242 216 197
241 215 196
240 214 196
240 214 195
238 213 195
236 212 194
235 211 193
234 210 192
233 209 191
231 207 190
228 182 165
224 81 55
222 81 54
220 80 54
218 79 53
215 78 53
213 78 52
209 76 51
204 75 51
200 73 50
185 71 49
130 98 78
82 117 95
82 116 95
82 116 95
82 117 95
82 116 95
82 116 95
82 116 95
82 116 95
82 116 94
82 117 95
82 117 95
82 116 95
82 117 95
82 117 95
82 117 95
82 116 95
82 116 95
82 117 95
81 116 94
82 117 95
82 116 95
82 116 95
82 116 95
82 116 95
82 116 95
82 116 95
82 116 95
82 116 95
82 116 94
82 116 95
82 116 95
82 116 95
82 117 95
82 116 95
82 116 95
82 116 95
82 116 95
82 116 95
82 116 95
82 116 95
82 116 95
82 116 95
82 116 95
82 116 95
82 116 95
81 116 95
82 116 95
82 116 95
81 116 95
82 116 95
82 116 95
82 116 94
81 116 95
82 116 95
82 116 95
81 116 94
82 116 94
82 116 95
81 116 95
82 116 95
81 116 95
82 116 95
82 116 95
82 116 94
81 116 94
81 116 94
81 115 94
82 116 95
81 116 95
82 116 94
81 115 94
82 116 95
82 116 95
82 116 95
81 116 95
82 116 95
81 116 95
82 116 94
81 116 95
82 116 94
81 115 94
81 116 94
81 116 95
82 116 94
81 116 95
81 116 94
82 116 94
81 116 94
81 116 95
81 116 95
81 116 94
81 116 95
82 116 94
81 116 95
81 116 95
81 116 95
81 115 94
81 115 94
81 116 94
81 116 94
81 115 94
81 115 94
81 115 94
81 116 94
82 116 94
81 116 94
81 116 94
81 115 94
81 115 94
81 116 94
81 115 94
81 116 94
81 115 94
81 116 94
81 116 94
81 116 94
81 115 94
81 116 94
85 120 97
84 119 97
84 119 97
85 120 97
84 120 97
84 120 97
84 119 97
85 120 97
84 120 97
84 119 97
85 120 97
84 119 97
84 119 97
84 119 97
85 120 97
85 120 97
84 119 97
85 120 97
84 119 97
85 119 97
84 119 97
85 120 97
85 120 97
85 120 97
85 120 97
84 119 97
84 119 97
84 120 97
85 119 97
84 119 97
85 120 97
84 119 97
84 119 97
84 120 97
85 120 97
85 120 97
85 120 97
84 119 97
84 119 97
84 120 97
84 119 97
85 120 97
84 119 97
84 119 97
85 120 97
84 119 97
84 120 97
85 120 97
85 120 97
84 119 97
85 120 97
85 120 97
84 119 96
84 119 97
84 119 97
85 120 97
84 119 96
84 120 97
84 119 97
84 120 97
85 120 97
85 120 97
84 119 97
84 120 97
84 120 97
84 120 97
84 119 97
84 119 97
84 119 97
96 120 97
139 126 99
163 130 101
174 132 101
174 132 101
174 132 101
174 132 101
174 132 101
175 132 101
174 132 101
174 132 101
174 132 101
174 132 101
175 132 101
174 132 101
174 132 101
174 132 101
174 132 101
174 132 101
175 132 101
174 132 101
175 132 101
174 132 101
175 132 101
174 132 101
174 131 101
175 132 101
174 132 101
174 132 101
172 131 101
168 131 101
154 128 100
140 126 99
132 125 99
112 122 98
97 121 97
86 120 97
84 119 97
84 119 97
84 119 97
85 120 97
84 120 97
84 119 97
84 119 97
84 119 97
84 119 97
85 120 97
84 120 97
84 119 97
84 119 97
85 120 97
84 120 97
84 119 96
84 119 97
85 120 97
84 119 96
84 119 97
84 119 97
84 120 97
85 120 97
85 120 97
85 120 97
84 119 97
84 120 97
84 119 97
84 119 97
84 119 97
84 119 97
85 120 97
84 120 97
84 120 97
84 119 97
84 119 97
84 119 97
84 119 97
84 119 97
84 119 97
84 119 96
84 119 97
84 119 96
84 119 97
84 119 97
84 119 97
84 119 97
84 119 97
84 119 96
84 119 97
84 119 96
84 119 97
84 119 97
84 119 96
84 119 97
84 119 97
84 119 96
84 119 96
84 119 97
84 119 97
84 119 97
84 119 96
84 118 96
84 119 96
84 119 97
84 119 97
84 118 96
84 119 97
84 119 97
84 119 97
83 118 96
84 119 97
84 119 96
84 119 97
84 119 96
83 118 96
84 119 96
84 119 96
84 118 96
84 119 97
84 119 97
84 119 97
83 118 96
83 118 96
84 119 97
84 119 97
84 119 97
84 119 96
84 119 97
84 119 96
84 119 96
84 118 96
84 119 96
84 119 97
83 118 96
84 119 96
84 119 96
84 119 97
84 118 96
83 118 95
84 118 96
84 118 96
84 119 96
84 119 97
83 118 96
84 118 96
84 118 96
84 119 96
84 119 96
83 118 95
84 119 96
83 118 96
83 118 96
84 119 97
84 119 96
84 118 96
83 118 96
84 119 96
83 118 96
83 118 95
83 118 95
83 117 95
84 118 96
83 118 96
83 117 95
83 118 95
83 118 96
83 118 96
83 117 95
83 117 95
83 118 95
82 116 94
83 118 95
84 118 96
84 118 96
83 118 96
82 117 95
83 117 95
83 118 95
83 118 95
69 97 79
25 28 28
28 30 31
29 31 31
30 32 32
31 33 34
31 33 34
32 34 35
32 34 34
32 34 35
32 34 34
32 34 34
34 35 36
33 34 35
33 35 36
33 34 35
33 34 35
33 34 35
32 34 34
34 35 37
33 34 35
33 34 35
33 34 35
33 34 35
33 34 35
31 32 33
32 33 34
31 33 34
32 33 34
31 32 33
31 32 32
30 32 32
30 31 32
30 31 32
30 30 30
28 29 29
28 28 28
27 28 28
26 27 28
25 27 27
25 26 27
24 26 26
23 25 25
22 23 23
19 21 21
18 21 21
20 23 23
66 94 78
74 107 88
73 105 87
74 106 87
76 108 89
76 109 90
78 111 91
77 110 91
77 111 91
79 112 92
78 111 91
80 113 93
80 114 93
80 114 93
81 114 93
81 116 94
81 115 94
81 116 94
82 116 94
82 116 95
83 117 95
82 116 95
83 117 95
82 117 95
82 116 94
82 117 95
82 116 94
83 118 95
83 117 95
82 117 95
83 117 95
83 118 96
83 117 95
83 117 95
83 118 96
83 117 95
83 117 95
83 118 96
83 117 95
83 117 95
83 117 95
83 117 95
83 118 96
83 117 95
149 127 85
244 154 62
250 158 62
255 163 64
255 167 65
255 168 66
255 168 66
255 169 67
255 170 67
255 170 67
255 170 67
255 170 67
255 170 67
255 170 67
255 170 67
255 170 67
255 169 67
255 169 67
255 169 67
255 168 67
255 167 66
255 167 66
255 166 66
255 166 66
255 165 65
255 164 65
255 163 65
254 162 64
253 161 64
251 160 64
249 158 63
246 157 63
234 181 141
199 175 159
136 122 112
94 84 77
107 96 88
157 135 120
202 151 108
203 133 62
148 120 74
83 117 95
83 118 96
83 117 95
83 118 96
83 118 96
83 117 95
83 117 96
83 118 96
83 117 95
83 118 96
82 117 95
83 117 95
83 117 95
82 117 96
83 117 95
83 117 95
83 117 95
83 117 95
83 117 95
83 117 96
83 117 95
83 117 95
83 117 95
83 118 96
83 118 95
83 117 96
83 118 96
83 117 95
83 117 95
83 118 96
83 118 96
83 118 96
83 117 95
83 117 96
83 117 96
83 118 96
83 117 95
83 118 96
83 117 95
83 117 96
83 117 95
82 117 95
82 117 95
83 117 95
83 117 95
82 117 95
83 117 95
83 117 95
82 117 95
82 117 95
82 117 95
83 117 96
82 116 95
82 117 95
83 117 95
82 117 95
83 117 95
82 117 95
82 117 95
82 116 95
82 117 95
82 117 95
83 117 95
83 117 96
82 117 95
83 118 96
90 120 98
189 176 155
232 204 183
238 210 189
242 213 192
245 216 195
245 217 196
246 218 197
246 218 198
246 218 198
246 218 198
246 218 198
246 218 198
245 218 198
244 217 198
244 217 198
243 217 197
242 216 197
242 216 197
240 214 196
239 214 195
238 213 195
237 212 194
235 211 193
234 209 192
232 208 191
229 156 138
225 82 55
223 81 54
222 80 54
219 80 54
217 79 53
215 78 52
211 77 52
207 76 51
203 74 50
196 72 49
184 69 47
137 93 73
83 116 94
82 117 95
82 117 95
82 116 95
82 117 95
82 116 95
82 116 95
82 117 95
82 116 95
82 116 95
82 117 95
82 117 95
82 116 95
82 116 95
82 116 95
82 116 95
82 117 95
82 117 95
82 116 95
82 117 95
82 116 94
82 116 95
82 116 95
82 116 95
82 116 95
82 117 95
82 117 95
82 117 95
82 116 95
82 116 95
82 117 95
82 116 95
82 116 95
81 116 95
82 116 95
82 116 95
82 116 95
82 116 94
82 116 95
81 116 95
82 116 95
82 116 94
82 116 95
82 117 95
82 116 95
82 116 95
82 116 95
82 116 95
81 116 94
82 116 95
82 116 95
81 116 94
82 116 95
82 116 95
82 116 95
82 116 95
82 116 95
82 116 95
82 116 94
82 116 95
82 116 95
82 116 95
82 116 95
82 116 95
81 116 94
81 116 95
82 116 95
81 116 94
82 116 95
81 116 95
82 116 95
82 116 95
81 116 94
81 116 94
82 116 95
81 116 94
81 116 94
82 116 95
81 116 95
81 116 94
82 116 95
81 116 95
81 116 94
82 116 94
81 116 94
82 116 94
81 116 94
81 116 94
81 116 95
81 116 94
81 116 94
82 116 95
82 116 95
81 116 94
82 116 94
81 116 94
81 116 95
81 115 94
81 116 94
81 116 94
81 116 94
81 116 94
81 116 94
81 116 94
81 116 94
82 116 94
81 115 94
81 115 94
81 115 94
81 115 94
81 116 94
81 115 94
81 115 94
81 115 94
81 115 94
81 116 94
81 115 94
84 119 97
84 119 97
84 120 97
84 119 97
84 119 97
84 119 97
84 120 97
84 119 97
84 119 97
85 120 97
84 119 97
85 120 97
84 119 97
85 120 97
84 120 97
85 120 97
84 120 97
84 120 97
84 119 97
84 119 97
84 120 97
85 120 97
84 119 97
84 119 97
84 119 97
84 119 97
84 119 97
84 119 97
85 120 97
84 119 97
85 120 97
85 120 97
85 120 97
85 119 97
84 120 97
84 120 97
85 120 97
85 120 97
85 120 97
85 120 97
85 120 97
85 120 97
85 120 97
85 120 97
84 120 97
85 120 97
85 120 97
84 120 97
84 119 97
85 120 97
85 120 97
85 119 97
84 119 97
85 120 97
84 120 97
85 120 97
85 120 97
84 120 97
84 119 97
85 120 97
84 119 97
85 120 97
85 120 97
85 120 97
85 120 97
84 119 97
85 119 97
108 122 98
147 127 100
171 131 101
175 132 101
175 132 101
175 132 101
174 132 101
175 132 101
174 132 101
174 132 101
175 132 101
174 132 101
175 132 101
174 132 101
175 132 101
174 132 101
174 132 101
174 132 101
174 132 101
174 132 101
175 132 101
175 132 101
175 132 101
175 132 101
174 132 101
175 132 101
175 132 101
175 132 101
175 132 101
175 132 101
174 132 101
174 132 101
174 132 101
175 132 101
174 132 101
175 132 101
175 132 101
171 131 101
166 130 101
154 128 100
142 127 100
125 124 98
106 121 97
92 120 97
86 119 97
84 119 97
84 119 97
84 119 97
84 119 97
84 119 97
84 119 96
84 119 97
84 120 97
84 119 97
84 119 97
84 119 97
84 119 97
85 119 97
84 119 97
84 119 96
84 119 97
85 119 97
84 119 97
84 119 97
84 119 96
84 119 97
84 119 97
85 120 97
85 120 97
84 119 97
84 119 97
84 119 96
84 119 97
84 119 97
84 119 97
84 119 97
85 119 97
84 119 97
84 119 96
85 120 97
85 120 97
84 119 97
84 119 97
84 119 97
84 119 96
84 119 96
84 119 97
84 120 97
84 119 97
84 119 97
84 119 97
84 119 97
84 119 97
85 120 97
84 119 97
84 119 97
84 119 96
84 119 96
84 119 96
84 119 97
84 119 97
84 119 97
84 119 97
83 118 96
84 119 96
84 119 97
84 118 96
84 118 96
84 119 97
84 119 96
84 119 97
83 118 96
84 119 96
84 119 97
84 119 96
84 119 97
84 119 96
84 119 96
84 119 97
84 119 97
84 119 97
84 119 96
84 119 96
83 118 96
84 119 97
84 119 96
84 118 96
84 119 97
85 119 97
84 119 96
84 119 96
83 118 96
84 119 97
83 118 96
84 119 96
84 118 96
84 119 97
84 118 96
84 118 96
84 119 97
83 118 96
84 119 97
84 118 96
83 118 96
84 119 96
84 119 96
83 118 95
84 119 97
83 118 96
84 118 96
84 118 96
84 118 96
84 118 96
84 119 96
83 118 95
83 118 96
83 118 96
83 117 95
83 118 96
84 118 96
84 119 96
83 118 96
83 118 96
83 117 95
83 117 95
83 118 96
82 116 94
83 117 95
83 118 96
84 118 96
83 118 96
83 118 96
83 118 96
83 117 95
83 117 95
83 117 94
83 118 96
84 118 96
83 117 95
78 110 89
28 32 31
28 30 30
29 31 31
29 31 31
29 31 31
30 32 32
31 33 33
32 33 34
30 32 32
31 33 34
32 33 34
33 35 35
32 33 33
32 34 34
32 33 33
32 33 33
32 33 34
32 33 34
32 33 34
32 33 34
32 34 34
32 33 34
32 33 34
31 32 33
31 32 33
30 31 32
30 32 32
31 32 32
31 32 33
29 30 30
30 30 31
29 30 30
28 29 29
28 29 29
27 28 28
27 27 27
26 27 27
25 26 26
24 26 25
23 25 25
23 24 24
22 23 23
18 20 19
17 20 20
17 20 19
28 39 34
70 101 84
70 102 84
72 104 86
72 104 86
73 105 87
72 104 86
73 106 87
74 107 88
76 109 90
76 109 90
77 110 90
77 110 90
79 113 92
79 112 92
79 112 92
79 112 91
81 115 94
81 114 93
81 115 94
82 115 94
82 117 95
82 116 94
83 117 95
83 117 95
83 117 95
83 117 95
83 117 95
83 117 95
83 118 95
83 118 96
83 118 95
83 117 95
83 117 95
83 117 95
83 117 95
82 116 94
83 117 95
83 118 96
83 117 95
83 117 95
82 117 95
83 117 95
83 118 96
121 122 89
237 151 62
246 154 60
255 161 63
255 163 64
255 166 65
255 168 66
255 170 67
255 170 67
255 170 67
255 170 67
255 171 67
255 171 67
255 170 67
255 170 67
255 170 67
255 170 67
255 170 67
255 169 67
255 169 67
255 168 67
255 168 66
255 167 66
255 166 66
255 166 66
255 165 65
255 164 65
255 163 65
255 162 64
254 161 64
251 160 64
250 159 63
240 173 117
196 174 159
73 66 61
152 136 125
202 182 167
203 182 167
177 159 145
131 118 108
174 131 97
193 128 61
125 117 82
83 117 96
83 118 96
83 117 95
82 117 95
83 117 96
83 118 96
83 117 95
83 117 95
82 117 95
82 117 95
83 117 95
83 118 95
83 117 96
83 117 95
83 117 95
83 117 95
83 118 96
83 118 96
83 117 95
83 117 95
83 118 96
83 118 96
83 117 95
82 117 95
83 118 96
83 118 96
83 117 95
83 117 95
83 117 95
83 118 96
83 117 95
83 117 95
82 117 95
83 117 95
83 117 95
83 118 96
83 118 96
83 117 95
83 117 95
82 117 96
82 117 95
83 117 95
83 117 95
82 117 95
82 117 95
83 117 95
83 117 95
83 118 96
83 118 96
82 117 95
82 117 95
83 117 95
83 117 96
83 117 95
83 117 96
82 116 95
83 117 95
82 117 95
82 116 95
82 117 95
83 117 96
82 117 95
83 117 95
83 117 95
86 118 96
182 169 149
230 201 179
236 207 185
241 211 190
244 214 192
247 218 196
247 218 197
248 219 198
248 219 198
247 219 199
247 219 199
247 219 199
246 219 199
246 219 199
245 218 198
245 218 198
244 217 198
243 217 197
243 216 197
242 215 196
241 215 196
239 214 195
238 213 194
236 211 193
235 210 192
234 209 191
229 140 121
226 82 55
225 82 55
223 81 54
221 80 54
218 79 53
216 79 53
212 77 52
209 76 51
206 75 51
201 73 50
191 70 47
180 68 47
125 99 79
82 116 95
82 117 95
82 117 95
82 117 95
82 117 95
82 117 95
82 117 95
82 116 95
82 117 95
82 117 95
82 117 95
82 117 95
82 117 95
82 116 94
82 117 95
82 117 95
82 116 95
82 116 95
82 116 95
82 116 95
82 117 95
82 116 95
82 116 94
82 116 95
82 117 95
82 116 95
82 117 95
82 117 95
82 116 95
82 116 95
82 116 95
82 116 95
82 116 95
82 116 95
82 116 95
82 117 95
82 116 95
82 117 95
82 116 95
82 116 95
82 116 95
82 116 95
82 116 95
82 116 95
82 116 95
82 116 95
82 116 95
82 116 95
82 116 95
82 116 95
82 116 95
82 116 94
82 116 94
82 116 95
82 116 95
82 116 95
82 116 94
82 116 95
82 116 95
82 116 95
82 116 95
82 116 95
82 116 95
81 116 94
82 116 95
82 116 95
82 116 95
82 116 94
82 116 95
82 116 94
81 116 94
82 116 94
82 116 95
81 116 94
82 116 95
82 116 94
82 116 94
81 115 94
81 116 95
82 116 95
81 116 95
82 116 94
81 116 95
81 116 94
81 116 95
81 115 94
81 116 94
81 116 94
82 116 95
82 116 94
81 116 94
81 116 95
82 116 95
81 116 95
81 116 95
81 116 94
82 116 95
81 116 94
81 116 95
81 116 94
81 116 94
81 116 94
81 115 94
81 116 94
81 115 94
81 116 94
81 116 94
81 115 94
81 115 94
81 116 94
81 115 94
81 116 94
81 115 94
81 116 94
82 116 94
81 115 94
85 120 97
85 120 97
84 119 97
85 120 97
85 120 97
84 120 97
84 119 97
84 119 97
84 119 97
85 120 97
85 120 97
85 120 97
85 120 97
84 120 97
84 120 97
84 119 97
84 120 97
84 120 97
85 120 97
85 120 97
84 120 97
84 120 97
84 120 97
84 119 97
85 120 97
84 119 97
84 119 97
85 120 97
84 120 97
85 120 97
84 120 97
84 119 97
84 120 97
84 119 97
85 120 97
84 119 97
85 120 97
85 120 97
85 120 97
85 120 97
85 120 97
85 120 97
84 119 97
84 119 97
85 119 97
85 120 97
85 120 97
85 120 97
85 120 97
84 120 97
84 119 97
85 120 97
85 120 97
84 119 97
84 120 97
84 119 97
84 120 97
85 120 97
84 119 97
84 120 97
84 119 97
85 120 97
84 119 97
85 120 97
89 120 97
121 123 98
154 128 100
173 131 101
175 132 101
174 132 101
175 132 101
175 132 101
174 132 101
175 132 101
175 132 101
175 132 101
175 132 101
175 132 101
175 132 101
175 132 101
175 132 101
175 132 101
175 132 101
174 132 101
175 132 101
175 132 101
175 132 101
174 132 101
174 132 101
175 132 101
175 132 101
174 132 101
174 132 101
175 132 101
174 132 101
174 132 101
175 132 101
174 132 101
175 132 101
175 132 101
175 132 101
174 132 101
174 132 101
175 132 101
174 132 101
174 132 101
175 132 101
175 132 101
175 132 101
174 132 101
171 131 101
166 130 101
153 128 100
136 126 99
125 124 98
109 122 98
93 120 97
85 120 97
84 119 97
84 119 97
84 119 97
84 120 97
85 120 97
85 120 97
85 120 97
84 120 97
84 119 96
85 119 97
84 119 97
85 120 97
85 120 97
84 119 97
84 119 97
84 119 96
84 119 97
84 119 97
84 120 97
84 119 97
84 119 97
84 119 97
84 119 97
84 119 97
84 119 97
84 119 97
85 120 97
84 119 97
84 119 97
84 119 97
84 119 97
84 119 97
85 120 97
84 119 97
84 119 97
84 119 97
84 119 97
84 119 96
84 119 97
84 120 97
84 119 97
84 119 96
84 119 97
85 120 97
84 120 97
84 119 97
84 119 97
84 119 97
84 119 97
84 119 97
84 119 97
84 119 97
84 119 97
84 118 96
84 119 97
84 119 97
84 119 97
84 119 97
84 119 96
84 119 97
84 119 97
84 119 97
83 118 96
84 119 97
84 119 97
84 119 97
84 119 97
84 119 96
84 118 96
84 119 96
84 119 96
84 119 97
84 119 96
84 119 96
84 119 97
84 119 97
84 119 96
83 118 95
83 118 96
84 119 97
84 119 97
84 119 96
84 119 96
84 119 96
84 119 97
84 119 97
84 119 96
84 119 96
84 118 96
83 117 95
84 119 96
83 118 96
84 118 96
84 118 96
84 118 96
83 118 95
83 118 96
84 118 96
84 118 96
83 118 96
83 118 95
84 118 96
83 118 96
83 117 95
83 118 95
83 118 95
83 118 96
83 118 96
84 118 96
84 118 96
84 118 96
83 117 95
83 117 95
83 118 95
83 118 96
83 117 95
83 117 95
83 118 95
83 118 96
83 118 96
83 118 95
83 117 95
83 117 94
83 118 96
82 117 95
83 117 95
83 118 96
82 116 94
83 117 95
42 57 48
25 28 28
27 29 29
28 30 30
28 30 30
29 31 31
30 32 32
31 33 33
31 32 33
31 32 32
30 32 32
31 32 32
31 33 33
31 33 33
31 32 32
31 32 33
31 32 33
31 32 33
31 32 33
31 32 33
31 32 33
31 32 32
31 32 32
30 31 31
30 31 31
30 31 31
30 31 31
30 31 31
30 30 31
29 30 30
29 29 29
28 29 29
28 29 29
28 28 28
27 27 27
27 27 26
24 25 25
24 25 25
23 25 24
22 24 24
21 24 24
20 22 21
19 21 21
17 19 18
18 21 21
43 63 54
65 95 80
67 97 82
68 99 83
69 99 83
70 101 84
71 103 86
71 103 85
72 103 86
73 105 87
74 107 89
75 108 88
76 108 89
76 109 89
78 111 91
79 112 92
79 112 91
79 113 92
80 114 92
81 116 94
82 116 94
81 116 94
82 116 95
83 117 95
83 117 95
83 117 95
83 117 95
82 117 95
83 117 94
82 117 95
82 117 95
83 117 95
82 116 95
83 117 95
83 117 95
83 117 95
83 117 95
83 117 95
83 118 96
83 118 96
83 118 96
83 118 95
83 118 95
93 119 95
207 139 66
246 155 60
251 158 62
254 160 62
255 165 64
255 165 65
255 168 66
255 169 66
255 171 67
255 171 67
255 171 67
255 171 67
255 171 67
255 171 67
255 171 67
255 171 67
255 170 67
255 170 67
255 170 67
255 169 67
255 169 67
255 168 66
255 167 66
255 167 66
255 166 66
255 165 65
255 164 65
255 163 65
255 163 64
254 161 64
252 160 64
249 161 70
228 195 171
116 103 94
158 141 129
221 198 182
219 196 180
215 193 177
211 189 174
204 182 166
152 136 124
155 126 103
175 123 65
95 117 92
83 118 96
82 117 95
83 116 94
83 117 95
83 117 95
83 117 96
83 117 96
83 118 96
83 118 96
83 118 96
83 118 96
83 118 96
83 117 95
83 117 95
83 117 96
83 118 96
83 117 95
83 118 96
83 118 96
83 117 96
83 117 96
83 117 96
82 117 95
83 118 96
83 117 95
83 118 96
83 117 95
83 117 96
83 117 96
83 118 96
83 117 95
82 117 95
83 117 95
82 117 95
83 118 95
83 117 95
83 117 95
82 117 95
83 118 96
83 117 95
83 117 95
83 118 96
83 117 95
83 117 95
82 117 95
82 117 95
83 117 95
83 117 95
83 117 95
82 117 95
83 117 95
83 117 95
83 117 95
83 117 95
82 116 95
83 117 95
83 117 96
83 117 95
83 118 96
83 117 95
82 117 95
83 117 95
82 117 95
170 162 142
223 196 174
233 205 183
238 209 187
245 215 194
245 215 193
248 218 197
248 219 198
249 220 199
248 220 199
248 220 199
248 220 199
248 220 199
248 220 199
247 219 199
247 219 199
246 218 199
245 218 198
244 217 198
243 217 197
243 216 197
242 215 196
240 214 195
239 213 195
237 212 194
236 211 193
234 203 186
230 104 81
227 82 55
226 82 55
224 81 54
221 80 54
219 80 53
217 79 53
213 78 52
211 77 52
209 76 51
203 74 50
197 72 49
185 68 46
172 68 47
103 107 86
82 116 95
82 117 95
83 117 95
82 117 95
82 117 95
82 117 95
82 117 95
82 117 95
83 117 95
82 117 95
82 117 95
82 117 95
82 117 95
82 117 95
82 116 95
82 117 95
82 116 95
82 117 95
82 117 95
82 117 95
82 117 95
82 117 95
82 117 95
82 116 95
82 116 95
82 117 95
82 116 95
82 116 95
82 117 95
82 117 95
82 116 95
82 117 95
83 117 95
82 116 95
82 116 95
82 116 95
82 117 95
82 116 95
82 116 95
82 116 95
82 116 95
82 117 95
82 117 95
82 116 95
82 116 95
82 116 95
82 116 95
82 116 95
82 117 95
82 117 95
82 117 95
82 116 95
82 116 95
82 116 95
82 116 95
82 116 95
82 116 95
82 116 95
82 116 95
82 116 95
82 116 95
82 116 95
82 116 95
82 116 95
82 116 95
82 116 95
82 116 95
81 116 94
82 116 95
82 116 95
81 116 95
82 116 95
82 116 94
81 116 94
81 116 94
81 116 95
82 116 94
81 116 95
82 116 94
81 116 94
82 116 94
81 116 94
81 116 95
81 116 94
82 116 94
82 116 95
81 116 94
81 116 95
81 116 94
81 116 94
81 116 94
81 116 95
82 116 95
82 116 95
81 116 95
81 115 94
82 116 95
81 116 95
81 116 95
81 116 94
82 116 94
82 116 94
81 115 94
81 116 94
81 116 95
81 116 95
81 115 94
81 116 94
81 116 94
81 116 94
81 115 94
82 116 94
81 116 94
81 116 94
81 116 94
85 120 97
85 120 97
85 119 97
84 119 97
84 120 97
84 119 97
84 119 97
85 120 97
85 120 97
85 120 97
84 119 97
85 120 97
84 120 97
85 120 97
85 120 97
84 120 97
85 120 97
85 120 97
85 120 97
85 120 97
84 119 97
85 120 97
85 120 97
85 120 97
85 120 97
85 120 97
84 120 97
85 120 97
84 120 97
85 119 97
85 120 97
85 120 97
84 119 97
84 119 97
85 120 97
85 120 97
85 120 97
85 120 97
85 120 97
84 119 97
85 120 97
85 120 97
84 119 97
84 119 97
85 120 97
84 120 97
85 120 97
85 120 97
85 120 97
84 120 97
85 120 97
85 120 97
85 120 97
85 120 97
85 120 97
85 120 97
84 119 97
84 119 97
85 120 97
85 120 97
84 119 97
84 120 97
94 121 97
140 126 99
162 130 101
175 132 101
175 132 102
175 132 102
175 132 102
175 132 102
175 132 102
175 132 102
174 132 102
175 132 102
175 132 102
175 132 102
174 132 102
175 132 102
175 132 102
174 132 102
175 132 102
175 132 102
175 132 102
175 132 102
175 132 102
175 132 102
175 132 102
175 132 102
175 132 102
175 132 102
175 132 102
175 132 102
175 132 102
175 132 102
174 132 101
175 132 101
175 132 101
175 132 101
174 132 101
174 132 101
175 132 101
175 132 101
175 132 101
175 132 101
174 132 101
174 132 101
175 132 101
175 132 101
175 132 101
175 132 101
174 132 101
175 132 101
175 132 101
174 132 101
175 132 101
173 132 101
171 131 101
159 129 100
150 128 100
132 125 99
118 123 98
98 121 97
88 119 97
85 120 97
84 119 97
84 119 97
84 119 97
84 119 97
85 119 97
85 119 97
84 119 96
84 119 97
85 120 97
84 119 97
85 120 97
84 119 96
84 119 97
84 120 97
84 119 96
84 119 96
84 119 96
84 119 97
84 119 96
84 119 97
84 119 97
84 120 97
84 119 97
84 119 97
84 119 97
84 119 96
85 120 97
84 119 97
84 119 97
84 119 97
85 120 97
84 119 96
84 119 97
84 119 97
84 119 97
84 120 97
84 119 97
84 119 97
84 119 96
84 119 96
84 119 96
85 120 97
84 119 96
84 119 97
84 119 97
84 119 97
84 119 96
84 119 97
84 119 97
84 119 96
84 118 96
84 119 97
84 119 97
84 119 96
85 120 97
84 119 96
84 119 97
84 119 97
84 119 96
84 119 97
84 119 97
85 119 97
84 119 96
84 119 97
85 120 97
84 120 97
84 119 96
84 119 96
84 119 96
85 120 97
84 118 96
84 119 96
84 118 96
84 119 96
84 119 97
84 118 96
84 119 96
84 119 97
84 119 97
84 119 97
84 118 96
84 119 96
83 118 96
84 119 96
84 118 96
83 118 96
84 118 96
85 119 97
84 119 96
84 118 96
84 118 96
83 118 96
83 118 96
84 118 96
83 117 95
83 118 95
84 118 96
83 117 95
83 117 95
84 118 96
84 118 96
84 119 96
84 119 96
83 118 96
83 118 96
82 116 94
83 117 95
83 118 95
84 119 96
84 118 96
83 118 96
84 118 96
83 117 95
83 117 95
82 116 94
83 118 96
83 117 95
83 117 95
83 117 95
82 116 94
83 117 95
84 118 96
82 116 94
66 92 75
24 27 27
26 28 28
27 29 29
28 31 31
28 30 30
29 31 30
28 30 30
29 31 31
30 32 32
30 32 32
29 31 30
30 32 32
31 32 32
31 32 32
30 31 32
30 31 31
30 31 31
30 31 31
30 31 31
30 32 32
31 32 32
30 31 31
29 31 30
29 30 31
29 30 30
29 30 31
29 30 31
29 30 30
28 29 28
27 28 28
27 28 27
27 28 27
26 26 26
26 27 26
24 25 24
24 25 24
23 24 24
21 23 22
20 22 22
20 22 21
18 20 18
17 19 18
17 19 18
17 21 20
55 81 69
62 92 78
64 94 79
64 93 79
66 96 81
67 98 82
69 100 83
70 102 85
72 104 86
72 103 85
73 105 86
74 106 87
74 106 87
75 108 89
77 110 90
78 112 91
78 112 92
79 112 91
79 113 92
81 115 93
81 114 93
81 115 93
82 116 95
82 116 94
83 117 95
83 117 95
82 117 95
83 117 95
83 118 96
83 117 95
83 118 95
83 117 95
83 117 95
82 117 95
83 117 94
83 117 95
83 118 96
83 117 95
83 118 96
83 117 95
82 117 95
83 117 95
83 118 95
164 131 81
238 150 58
245 154 60
253 159 62
255 161 63
255 165 64
255 167 65
255 169 66
255 169 66
255 170 67
255 171 67
255 171 67
255 171 67
255 171 67
255 171 67
255 171 67
255 171 67
255 171 67
255 170 67
255 170 67
255 169 67
255 169 67
255 168 66
255 168 66
255 167 66
255 166 66
255 165 65
255 164 65
255 164 65
255 163 64
255 162 64
253 161 64
248 165 87
203 181 164
65 59 54
216 193 177
222 199 182
218 195 179
209 186 170
178 159 146
192 171 157
200 179 164
159 142 130
162 122 89
149 117 70
83 117 95
83 117 95
83 117 96
83 118 96
83 117 95
83 117 95
83 117 95
83 118 96
83 117 95
83 118 95
83 118 96
83 118 96
83 117 96
83 118 95
83 117 95
83 117 95
82 117 95
83 117 95
83 117 95
83 118 96
83 117 95
83 117 95
83 117 95
82 117 95
83 118 95
83 118 96
83 118 96
83 118 96
83 117 95
83 118 96
83 117 95
83 118 96
83 118 96
83 117 95
82 117 95
83 117 96
83 118 96
83 118 96
83 117 96
83 118 96
83 117 95
83 117 95
83 118 96
83 117 95
83 117 95
83 117 95
83 118 96
83 118 96
83 118 96
83 117 95
83 117 95
83 117 95
83 117 95
83 117 95
82 117 95
83 117 95
83 117 95
83 117 95
82 117 95
83 117 96
82 117 95
83 117 95
131 140 119
224 197 176
230 199 176
238 209 187
241 211 189
246 214 192
246 217 195
248 219 198
250 220 198
249 220 199
249 220 199
250 221 199
249 221 200
249 220 200
248 220 199
248 220 199
247 219 199
247 219 199
246 218 198
245 218 198
244 217 197
242 216 197
241 215 196
241 215 196
240 214 195
238 212 194
237 211 193
235 174 156
230 84 57
229 83 55
226 82 55
225 81 54
222 81 54
220 80 54
218 79 53
215 78 53
214 77 52
210 76 51
204 74 50
199 73 49
190 70 47
183 68 46
158 71 52
93 112 91
82 116 95
82 117 95
82 117 95
82 117 95
82 117 95
83 117 95
82 117 95
82 116 94
82 117 95
82 117 95
82 117 95
82 116 95
82 117 95
82 116 95
82 117 95
83 117 95
82 117 95
82 116 95
82 116 95
82 116 95
82 117 95
82 116 95
82 116 95
83 117 95
82 116 95
82 116 95
82 117 95
82 117 95
82 116 95
82 117 95
82 116 95
82 117 95
82 116 95
82 116 95
82 116 95
82 117 95
82 116 95
82 116 95
82 117 95
82 117 95
82 117 95
82 116 95
82 116 95
82 116 95
82 116 95
82 116 95
82 116 95
82 116 95
82 116 95
82 116 95
81 116 95
82 116 95
82 116 95
82 116 95
82 116 95
82 116 95
82 116 95
82 116 95
82 116 95
82 116 95
82 116 95
82 116 95
82 116 95
82 116 95
82 116 95
82 116 95
82 116 95
82 116 95
82 116 95
82 116 95
81 116 95
82 116 94
81 116 94
82 116 95
81 116 94
82 116 95
82 116 95
82 116 95
82 116 95
81 116 94
81 116 95
82 116 95
82 116 95
81 116 95
82 116 94
82 116 95
82 116 95
81 116 95
81 116 95
81 116 95
81 116 95
81 115 94
81 116 94
82 116 94
81 116 94
82 116 95
81 116 94
81 116 94
82 116 95
82 116 95
81 116 95
81 116 94
81 116 94
82 116 94
81 116 94
81 116 94
81 116 94
81 116 95
81 116 95
81 116 94
82 116 94
81 115 94
81 115 94
81 116 94
85 120 97
84 120 97
84 120 97
85 120 97
84 119 97
85 120 97
85 120 97
85 120 97
85 120 97
85 120 97
85 120 97
85 120 97
84 119 97
85 120 97
84 120 97
85 120 97
84 119 97
84 120 97
85 120 97
85 120 97
85 120 97
85 120 97
85 120 97
85 120 97
85 120 97
85 120 97
85 120 97
84 119 97
85 120 97
85 120 97
85 120 97
84 119 96
85 120 97
85 120 97
85 120 97
85 120 97
85 120 97
85 120 97
85 120 97
85 120 97
85 120 97
85 120 97
84 120 97
85 120 97
84 120 97
85 120 97
85 119 97
85 120 97
85 120 97
84 119 97
85 120 97
85 120 97
85 120 97
85 120 97
85 120 97
84 120 97
84 119 97
85 120 97
85 120 97
86 120 97
113 123 98
146 127 100
172 132 101
175 132 102
175 132 102
175 132 102
175 132 102
175 132 102
175 132 102
175 132 102
175 132 102
175 132 102
175 132 102
175 132 102
175 132 102
176 132 102
175 132 102
175 132 102
175 132 102
175 132 102
175 132 102
175 132 102
175 132 102
175 132 102
175 132 102
176 132 102
176 132 102
175 132 102
175 132 102
174 132 102
175 132 102
175 132 102
175 132 102
175 132 102
175 132 102
175 132 102
175 132 102
175 132 102
176 132 102
175 132 102
175 132 102
175 132 102
175 132 102
174 132 102
175 132 102
175 132 102
175 132 102
175 132 102
175 132 102
175 132 102
175 132 102
174 132 102
175 132 102
175 132 102
175 132 102
174 132 102
175 132 102
176 132 101
175 132 101
175 132 101
165 125 96
143 110 85
100 110 88
85 120 97
84 119 97
84 120 97
84 119 97
84 119 97
84 119 97
85 120 97
84 119 97
85 119 97
84 119 97
84 119 97
84 120 97
84 120 97
84 119 97
84 119 97
85 120 97
84 119 96
84 119 96
84 119 97
84 119 97
85 120 97
85 120 97
85 120 97
84 119 97
84 119 97
85 120 97
84 119 97
84 119 97
85 120 97
85 120 97
85 119 97
85 120 97
85 119 97
84 120 97
84 119 97
84 119 97
84 119 97
84 119 97
84 119 96
84 118 96
84 119 97
84 119 96
84 119 96
85 119 97
84 119 97
84 119 96
84 119 97
84 120 97
84 119 96
84 120 97
84 120 97
84 119 97
84 119 96
84 119 97
84 119 96
84 118 96
84 119 96
84 119 97
84 118 96
84 119 96
84 119 97
84 119 96
84 119 97
84 119 97
84 119 97
84 120 97
84 119 97
84 119 97
84 119 97
84 119 97
84 119 97
84 118 96
84 119 97
83 118 96
84 119 96
83 118 95
84 119 96
84 119 96
83 118 95
84 119 96
83 117 95
84 118 96
84 119 97
84 118 96
84 118 96
84 119 97
84 119 96
83 118 95
84 118 96
84 119 97
84 118 96
84 119 97
83 118 96
83 118 96
83 118 96
83 117 95
83 118 95
84 118 96
83 118 95
83 117 95
84 118 96
83 118 95
83 118 96
83 118 96
83 117 95
83 117 94
83 117 95
83 117 95
83 117 94
83 118 95
83 118 95
82 116 94
83 117 95
83 117 94
83 117 95
83 117 94
82 116 94
82 116 93
82 116 94
82 116 94
82 115 93
83 117 95
82 116 94
83 117 95
80 112 90
26 33 29
24 27 26
25 27 26
27 29 28
27 29 29
28 30 30
28 30 30
28 30 30
28 30 29
29 30 30
29 31 30
29 31 31
29 30 30
29 31 31
29 31 30
28 30 29
29 30 30
29 31 31
29 30 30
29 31 31
29 30 30
29 30 30
28 30 29
28 29 29
28 29 29
28 29 29
28 29 28
27 28 28
27 28 28
27 27 27
26 27 26
25 26 24
25 26 25
23 25 24
22 23 22
23 24 24
22 23 22
20 22 22
19 21 20
17 19 17
17 19 18
16 18 17
15 18 17
29 42 38
60 89 76
60 90 77
61 90 77
61 91 77
63 92 78
64 94 79
65 94 79
64 94 79
68 99 83
71 102 84
69 100 82
73 105 87
74 106 87
74 107 88
76 109 90
76 108 88
78 111 91
78 111 91
80 114 93
80 113 92
81 115 93
81 115 93
82 115 94
83 118 96
82 116 94
83 117 95
83 117 95
83 117 95
83 117 95
83 117 95
83 117 95
83 117 95
82 117 95
83 118 95
83 118 95
83 117 95
83 117 95
83 117 95
83 117 95
83 117 95
83 117 95
84 118 96
105 120 93
219 143 63
240 151 58
251 158 61
255 162 63
255 162 63
255 164 64
255 166 65
255 167 65
255 168 66
255 170 66
255 170 67
255 171 67
255 171 67
255 171 67
255 171 67
255 171 68
255 172 68
255 171 68
255 171 69
255 171 68
255 170 68
255 169 67
255 168 67
255 168 66
255 167 66
255 166 66
255 165 65
255 165 65
255 164 65
255 163 64
255 162 64
253 161 64
245 177 121
182 162 148
126 113 103
226 201 184
222 199 182
206 184 168
74 67 61
0 0 0
37 33 30
143 127 116
190 169 154
142 125 111
172 123 77
98 116 89
83 118 96
83 118 96
83 118 96
83 118 96
83 117 95
83 118 96
83 117 96
83 118 96
83 118 96
83 117 95
83 117 95
83 118 96
83 118 95
83 118 96
83 117 95
83 117 96
83 117 95
83 118 96
83 117 95
83 117 95
83 117 95
83 118 96
83 118 96
82 117 95
83 118 96
83 118 96
83 118 96
83 118 96
83 117 95
83 117 95
83 117 95
82 117 95
83 117 95
83 118 96
83 118 96
82 117 95
83 118 96
83 117 95
83 117 96
83 117 96
83 117 95
83 118 96
83 117 95
83 117 95
82 117 95
82 117 95
82 117 95
83 117 95
82 117 95
82 117 96
83 118 96
83 118 96
83 118 96
83 117 95
82 117 95
83 117 95
83 117 95
83 118 96
83 117 95
83 117 95
105 127 106
209 185 163
229 200 178
235 205 183
239 208 186
243 211 188
246 215 193
248 217 195
249 220 198
250 220 198
250 221 199
250 221 200
250 221 200
250 221 200
249 221 200
249 220 200
249 220 199
248 220 199
247 219 199
247 219 199
245 218 198
245 217 198
244 217 197
242 216 196
242 215 196
240 214 195
239 213 194
238 211 193
234 134 115
231 83 56
230 83 55
227 82 55
226 82 55
223 81 54
221 80 54
219 79 53
216 79 53
214 78 52
211 77 51
206 75 51
202 74 49
192 70 47
185 68 46
175 65 44
132 89 70
82 116 95
82 116 95
82 117 95
82 117 95
82 117 95
82 117 95
82 117 95
82 117 95
82 117 95
82 116 95
82 116 95
82 116 95
82 116 95
82 117 95
82 117 95
82 116 94
82 117 95
83 117 95
82 117 95
82 117 95
82 117 95
82 116 95
82 117 95
82 117 95
82 117 95
82 116 95
82 117 95
82 117 95
82 116 95
82 117 95
82 116 95
82 117 95
81 116 95
82 117 95
82 117 95
82 116 95
82 116 95
82 117 95
82 117 95
82 116 95
82 116 94
82 116 95
82 116 95
82 116 95
82 116 95
82 116 95
82 117 95
82 117 95
82 117 95
82 116 95
82 116 95
82 117 95
82 117 95
82 116 95
82 116 94
82 116 95
81 116 95
82 116 95
82 116 95
82 116 95
82 116 95
82 117 95
82 117 95
82 116 95
82 116 95
82 116 95
82 116 95
82 116 95
82 116 95
82 116 95
82 116 95
82 116 95
82 116 94
82 116 94
82 116 95
82 116 95
82 116 95
81 116 95
82 116 95
81 116 95
82 116 95
82 116 95
82 116 95
82 116 94
81 116 95
81 116 95
81 116 95
81 116 94
82 116 95
81 116 95
82 116 95
82 116 94
82 116 95
82 116 95
81 116 95
82 116 94
81 116 94
82 116 94
81 116 95
82 116 95
81 116 94
82 116 95
81 116 94
81 116 94
81 116 95
81 115 94
81 115 94
81 116 95
81 115 94
82 116 94
81 116 94
81 115 94
81 116 94
81 115 94
85 120 97
85 120 97
85 120 97
85 120 97
85 120 97
85 120 97
85 120 97
84 119 97
85 120 97
84 120 97
85 120 97
85 120 97
84 120 97
85 120 97
85 120 97
85 120 97
85 120 97
85 120 97
84 119 97
85 120 97
85 120 97
85 120 97
85 120 97
84 120 97
85 120 97
85 119 97
84 119 97
85 120 97
85 120 97
85 120 97
84 119 97
85 120 97
85 120 97
85 120 97
85 120 97
85 120 97
85 120 97
85 120 97
84 120 97
85 120 97
85 120 97
85 120 97
84 120 97
85 120 97
85 120 97
85 120 97
85 120 97
84 119 97
85 120 97
84 120 97
85 120 97
85 120 97
84 119 97
85 120 97
85 120 97
84 120 97
85 120 97
90 120 97
125 124 99
154 128 100
174 132 101
175 132 102
175 132 102
175 132 102
176 132 102
175 132 102
175 132 102
175 132 102
174 132 102
175 132 102
175 132 102
175 132 102
175 132 102
175 132 102
175 132 102
175 132 102
175 132 102
175 132 102
175 132 102
175 132 102
175 132 102
175 132 102
175 132 102
175 132 102
175 132 102
175 132 102
175 132 102
175 132 102
175 132 102
175 132 102
175 132 102
175 132 102
175 132 102
175 132 102
175 132 102
175 132 102
175 132 102
175 132 102
175 132 102
175 132 102
175 132 102
175 132 102
175 132 102
175 132 102
175 132 102
175 132 102
176 132 102
175 132 102
175 132 102
175 132 102
175 132 102
174 132 102
175 132 102
175 132 102
175 132 102
175 132 102
175 132 102
174 131 101
166 125 96
136 105 80
117 90 67
115 90 67
98 109 86
85 120 97
84 120 97
85 120 97
84 119 97
84 120 97
84 119 97
85 120 97
85 120 97
84 119 97
84 119 97
85 120 97
85 119 97
84 119 97
84 119 97
84 120 97
84 119 97
85 120 97
85 120 97
85 120 97
85 120 97
84 119 97
84 119 97
84 120 97
84 119 97
84 119 96
84 119 97
84 119 97
84 119 97
84 119 97
84 119 97
84 119 97
85 120 97
84 119 97
84 119 97
85 120 97
84 119 97
84 119 97
85 120 97
85 120 97
84 119 97
85 120 97
84 120 97
84 119 97
85 120 97
84 119 97
84 119 97
84 120 97
84 119 97
84 119 97
84 119 97
84 119 97
84 119 97
84 119 96
84 119 96
84 119 97
84 119 96
84 119 96
84 119 96
84 118 96
84 119 97
84 119 96
84 119 96
84 119 96
84 119 96
84 119 97
85 120 97
84 119 97
84 119 97
83 118 96
84 119 97
84 118 96
84 118 96
84 118 96
83 118 96
84 119 97
84 119 96
84 119 96
84 119 97
84 119 97
84 119 96
84 119 96
84 118 96
83 118 96
84 119 96
84 119 97
84 118 95
84 118 96
84 119 97
84 119 96
84 119 97
83 118 96
83 118 96
84 118 96
83 118 95
84 118 96
84 119 96
83 118 95
84 118 95
83 118 96
83 118 96
83 118 95
83 117 95
83 118 95
81 114 96
80 110 100
77 103 102
75 100 102
74 96 104
74 96 104
74 98 102
75 101 100
78 107 99
82 116 97
83 117 95
83 117 95
82 116 94
83 117 94
83 117 95
83 117 95
82 115 93
82 115 93
82 115 93
82 116 93
82 116 94
82 115 93
62 87 71
22 25 24
24 27 26
25 28 27
26 28 27
27 29 28
27 29 28
28 30 29
27 29 28
28 29 29
27 29 28
28 30 29
27 29 28
28 29 29
28 30 30
28 30 29
29 30 29
28 29 28
27 29 28
28 28 28
28 29 28
27 29 28
27 29 28
27 28 28
27 28 27
27 28 28
27 28 28
26 27 26
26 26 25
25 26 26
25 26 25
24 25 24
22 23 22
22 23 22
22 23 22
20 22 21
20 21 20
18 20 18
17 19 17
16 18 17
15 18 16
15 18 16
16 20 19
46 68 58
56 83 72
56 84 72
58 87 74
59 88 75
60 89 76
61 91 77
63 92 78
64 93 78
67 97 82
67 98 82
69 100 83
70 101 84
72 104 86
74 106 87
75 107 88
76 108 89
76 109 89
78 111 91
79 113 92
80 113 93
80 113 92
82 116 94
82 115 94
82 117 95
82 115 93
82 116 94
82 117 95
83 117 95
82 116 94
82 116 94
83 117 95
83 117 95
83 117 95
83 117 95
83 117 95
83 118 96
83 117 95
83 117 95
82 117 95
83 117 95
83 118 95
83 117 95
166 130 78
237 149 58
241 151 58
253 158 61
251 157 61
255 161 62
255 163 63
255 165 64
255 167 65
255 166 65
255 168 66
255 169 66
255 170 67
255 170 67
255 171 67
255 172 68
255 173 69
255 174 72
255 175 75
255 176 76
255 175 75
255 173 72
255 171 69
255 169 67
255 168 66
255 167 66
255 167 66
255 166 65
255 165 65
255 164 65
255 163 64
255 162 64
253 161 64
244 179 127
158 140 128
155 138 126
227 202 184
221 197 180
154 138 126
0 0 0
0 0 0
33 30 27
14 12 11
127 113 103
178 160 147
139 111 89
147 114 67
83 118 96
83 117 95
83 118 96
83 118 96
83 118 95
83 118 96
83 118 96
83 117 95
83 118 96
83 117 95
83 117 95
83 117 95
83 117 95
83 118 96
83 118 96
83 118 96
83 117 95
83 118 96
83 118 96
83 118 96
82 117 95
83 118 96
83 118 95
83 118 96
83 117 95
83 117 95
83 117 95
83 118 96
82 117 95
83 118 96
83 117 95
83 118 96
83 117 95
83 118 96
82 117 95
83 117 95
83 118 96
83 118 96
83 117 95
83 118 96
83 117 95
83 117 95
83 117 95
83 117 95
83 117 95
83 118 96
83 117 95
83 117 95
82 117 95
83 118 96
82 117 95
83 118 96
83 117 95
83 118 96
82 117 95
83 117 95
83 117 96
83 117 96
82 117 95
83 117 96
170 162 141
224 195 172
232 202 180
239 207 185
241 210 188
245 213 191
248 217 194
249 217 195
250 219 197
251 221 199
251 221 199
251 221 200
250 221 200
250 221 200
250 221 200
250 221 200
249 221 200
249 220 199
248 220 199
247 219 199
247 219 198
245 218 198
243 216 197
243 216 196
242 215 196
241 214 195
239 213 194
238 197 178
233 95 71
230 83 56
230 83 55
228 82 55
227 82 55
223 81 54
222 80 54
220 80 53
218 79 53
215 78 52
211 77 51
207 75 50
202 74 49
196 71 48
186 68 46
179 66 45
157 61 42
98 106 86
83 117 95
82 117 95
83 117 95
82 117 95
82 116 95
82 116 95
82 116 94
82 116 95
83 117 95
82 117 95
82 117 95
82 117 95
82 117 95
82 117 95
82 117 95
82 117 95
82 116 95
82 116 95
82 117 95
82 116 95
82 117 95
82 117 95
82 117 95
82 117 95
82 116 95
82 117 95
82 117 95
82 117 95
82 116 95
82 116 95
82 117 95
82 117 95
82 116 95
82 116 95
82 116 95
82 116 95
82 116 95
82 117 95
82 117 95
82 117 95
82 117 95
82 116 95
82 116 95
82 116 94
82 116 95
82 116 94
82 116 95
82 116 95
82 116 95
82 116 95
81 116 95
82 116 95
82 117 95
82 116 95
82 116 95
82 116 95
82 116 95
82 116 95
82 116 95
82 116 95
82 116 95
82 116 94
82 116 95
82 116 95
82 116 95
82 116 95
82 116 95
82 116 95
81 116 95
82 116 95
82 116 95
82 116 95
82 116 95
82 116 95
82 116 95
82 116 95
81 116 95
82 116 95
82 116 95
82 116 95
82 116 95
81 116 95
82 116 94
82 116 95
82 116 95
82 116 95
81 116 94
82 116 95
82 116 95
82 116 95
81 116 95
81 116 95
82 116 94
81 116 95
81 116 95
81 116 94
82 116 95
82 116 94
81 116 94
82 116 94
81 116 95
81 116 94
81 116 95
81 116 94
82 116 95
81 116 94
81 116 95
81 116 95
81 115 94
82 116 95
81 116 94
81 116 94
81 116 94
85 120 97
85 120 97
85 120 97
85 120 97
85 120 97
85 120 97
85 119 97
84 120 97
85 120 97
85 120 97
85 120 97
84 119 97
85 120 97
84 120 97
84 119 97
84 120 97
84 119 97
85 120 97
84 119 97
85 120 97
84 119 97
84 120 97
85 120 97
85 120 97
84 120 97
85 120 97
85 120 97
85 120 97
85 120 97
85 120 97
85 120 97
85 120 97
85 120 97
84 119 97
85 120 97
84 119 97
85 120 97
85 120 97
85 120 97
85 120 97
85 120 97
84 119 97
85 120 97
85 120 97
84 120 97
85 120 97
84 119 97
85 120 97
85 120 97
85 120 97
85 120 97
84 119 97
85 120 97
85 120 97
85 120 97
101 122 98
138 126 99
167 131 101
175 132 102
175 132 102
175 132 102
175 132 102
176 132 102
175 132 102
175 132 102
175 132 102
175 132 102
176 132 102
175 132 102
176 132 102
175 132 102
175 132 102
175 132 102
175 132 102
175 132 102
175 132 102
175 132 102
175 132 102
175 132 102
175 132 102
174 132 102
175 132 102
175 132 102
175 132 102
175 132 102
175 132 102
175 132 102
175 132 102
175 132 102
175 132 102
175 132 102
174 132 102
174 132 102
175 132 102
175 132 102
175 132 102
175 132 102
175 132 102
175 132 102
176 132 102
175 132 102
175 132 102
175 132 102
175 132 102
175 132 102
176 132 102
175 132 102
175 132 102
174 132 102
175 132 102
175 132 102
175 132 102
175 132 102
175 132 102
175 132 102
174 131 101
158 120 92
131 100 76
117 90 67
117 91 68
114 88 66
121 93 70
101 105 82
85 120 97
85 120 97
85 120 97
85 120 97
84 119 97
85 120 97
84 119 97
85 120 97
84 119 97
84 120 97
85 119 97
84 119 97
85 119 97
85 120 97
84 119 97
84 119 97
84 119 97
84 119 97
85 120 97
85 120 97
84 119 97
85 120 97
85 119 97
85 120 97
84 119 96
85 120 97
84 119 97
84 119 97
85 119 97
85 120 97
84 120 97
85 120 97
84 119 96
85 120 97
85 119 97
85 120 97
84 119 97
85 120 97
85 120 97
85 120 97
84 119 97
84 119 97
85 120 97
85 120 97
84 119 97
84 119 96
84 119 97
85 119 97
84 120 97
85 120 97
84 119 97
84 119 97
84 120 97
84 119 97
84 119 97
84 119 97
84 119 96
84 119 97
85 120 97
84 119 96
84 118 95
84 119 97
84 119 96
84 119 96
84 119 97
84 119 97
84 119 96
84 119 96
84 119 96
84 119 97
84 119 96
84 119 96
84 119 96
84 118 96
84 119 96
84 118 96
84 119 96
84 119 96
84 119 96
84 119 97
83 118 96
84 118 96
83 117 95
84 119 96
84 119 96
84 118 96
84 119 97
84 119 97
84 118 96
84 119 96
83 118 96
83 118 95
84 118 95
84 119 96
84 118 95
83 117 95
83 118 95
83 117 95
83 117 95
82 116 97
78 106 100
71 90 108
64 71 114
62 63 117
61 60 118
61 58 119
60 58 119
60 58 119
60 58 118
60 57 118
60 57 117
59 57 117
60 61 114
62 69 110
66 80 106
73 96 101
80 111 95
82 116 94
82 116 94
83 118 95
82 116 94
82 115 93
82 116 94
82 115 93
82 115 93
80 112 91
34 45 38
22 25 24
24 26 25
25 27 26
26 28 27
26 28 27
26 28 27
26 27 26
27 28 28
26 27 27
26 28 27
27 28 28
26 28 27
26 28 27
27 29 28
26 28 27
26 28 27
27 28 27
26 27 26
26 27 26
26 27 26
26 27 27
25 27 26
25 26 26
26 27 26
25 26 26
25 26 25
24 25 24
24 25 24
23 23 22
23 24 22
22 23 22
21 22 21
20 21 19
19 21 20
18 20 18
17 19 17
15 18 16
15 18 16
15 18 17
15 18 17
28 40 35
56 83 72
57 85 73
57 85 73
58 86 74
57 84 72
59 88 75
59 88 75
59 87 74
63 93 79
65 94 79
65 95 80
68 99 82
69 100 83
72 103 85
74 106 87
74 106 87
75 108 89
77 110 90
77 110 90
79 112 91
79 112 91
80 113 92
81 115 93
82 115 93
81 115 94
83 117 95
82 116 94
83 117 95
81 115 94
83 117 95
82 116 94
82 117 95
82 116 95
82 116 94
82 117 95
82 116 94
83 117 95
83 117 95
83 118 95
83 118 95
83 118 95
83 117 95
94 119 94
213 138 60
237 149 58
241 151 58
250 156 60
254 158 61
255 161 63
255 164 64
255 163 63
255 164 64
255 168 66
255 166 65
255 168 66
255 170 66
255 170 67
255 171 67
255 173 70
255 176 75
255 181 84
255 187 92
255 189 96
255 185 91
255 180 83
255 173 74
255 170 69
255 168 67
255 167 66
255 166 66
255 165 65
255 165 65
255 164 65
255 163 64
255 162 64
254 161 64
245 178 124
174 154 140
157 140 127
225 201 183
221 197 179
108 96 87
0 0 0
131 116 106
196 174 158
138 122 110
30 25 22
166 148 135
147 131 118
161 116 75
98 117 91
83 117 95
82 116 94
84 118 96
83 117 95
83 117 95
83 118 96
83 117 95
83 118 96
83 117 95
83 118 96
83 118 96
83 117 95
83 118 96
83 117 95
83 118 96
83 117 95
83 117 96
83 118 96
83 117 95
83 117 95
83 117 95
82 117 95
83 117 95
83 117 96
83 118 96
83 117 95
83 118 96
83 118 96
83 118 96
82 117 95
83 117 96
83 117 95
83 118 96
83 118 95
83 117 95
83 117 95
83 117 95
83 118 96
83 117 95
83 117 95
83 117 96
83 117 95
83 117 95
83 117 95
83 117 95
83 118 96
83 117 95
83 117 95
83 117 95
83 117 96
83 117 95
83 118 96
83 118 95
83 117 95
83 117 95
82 117 95
83 118 96
82 117 95
110 128 107
211 185 163
229 199 177
234 201 179
239 207 184
241 208 185
246 214 192
249 216 193
249 218 196
248 218 196
251 220 198
250 220 198
252 222 200
251 222 200
251 222 200
252 222 200
250 221 200
250 221 200
250 221 200
249 220 199
249 220 199
247 219 198
246 218 198
245 217 197
244 216 196
242 215 196
241 214 195
240 213 194
237 147 127
234 84 56
232 84 56
231 83 55
228 82 55
227 82 55
225 81 54
222 80 54
220 80 53
218 79 53
215 78 52
212 77 51
206 75 50
201 73 49
194 71 48
188 69 46
179 66 44
164 61 41
137 77 58
83 117 95
82 116 95
82 117 95
82 116 95
82 116 95
82 117 95
82 117 95
82 117 95
82 117 95
82 117 95
82 117 95
83 117 95
82 116 95
82 117 95
83 117 95
82 117 95
82 117 95
82 116 95
82 116 95
82 116 95
82 117 95
82 116 95
83 117 95
82 117 95
82 116 94
82 117 95
82 117 95
82 116 95
82 117 95
82 117 95
82 117 95
82 116 95
82 117 95
82 117 95
82 116 95
82 117 95
82 117 95
82 116 95
82 116 95
81 116 95
82 116 95
82 117 95
82 117 95
82 117 95
82 117 95
82 117 95
82 117 95
82 117 95
82 116 95
82 117 95
82 116 94
82 116 95
82 116 95
82 116 95
82 116 95
82 116 95
82 116 95
82 116 94
82 116 95
82 116 94
82 117 95
82 116 95
82 117 95
82 116 95
82 116 95
82 116 95
82 116 95
82 116 95
82 116 95
82 116 95
82 116 95
82 115 94
82 116 95
82 116 95
82 116 95
82 116 95
82 116 95
82 116 95
82 116 95
82 116 95
81 116 95
82 116 95
82 116 95
81 116 94
82 116 95
81 116 95
82 116 95
82 116 95
81 116 95
81 116 94
82 116 94
81 116 94
81 116 95
81 116 95
82 116 95
82 116 95
81 116 95
81 116 95
82 116 95
81 116 95
81 116 95
81 116 95
81 116 94
81 116 95
81 116 95
82 116 95
82 116 94
82 116 94
81 116 95
81 116 94
81 116 94
81 115 94
81 116 94
85 120 97
84 120 97
85 120 97
85 120 97
85 120 97
85 120 97
85 120 97
85 120 97
85 120 97
85 120 97
85 120 97
85 120 97
85 120 97
85 120 97
85 120 97
85 120 97
85 120 97
85 120 97
85 120 97
85 120 97
85 120 97
85 120 97
85 120 97
85 120 97
85 120 97
85 120 97
85 120 97
85 120 97
85 120 97
85 120 97
85 120 97
85 120 97
84 120 97
85 120 97
85 120 97
85 120 97
85 120 97
85 120 97
85 120 97
85 120 97
85 120 97
85 120 97
85 120 97
85 120 97
85 120 97
85 120 97
85 120 97
85 120 98
85 119 97
85 120 97
85 120 97
85 120 97
87 120 97
114 123 98
149 128 100
172 132 102
175 132 102
175 132 102
175 132 102
175 132 102
175 132 102
176 132 102
176 132 102
175 132 102
175 132 102
175 132 102
175 132 102
176 132 102
175 132 102
176 132 102
175 132 102
175 132 102
176 132 102
175 132 102
175 132 102
175 132 102
175 132 102
175 132 102
175 132 102
175 132 102
176 132 102
175 132 102
175 132 102
176 132 102
175 132 102
175 132 102
175 132 102
175 132 102
175 132 102
175 132 102
175 132 102
175 132 102
176 132 102
175 132 102
176 132 102
175 132 102
175 132 102
175 132 102
175 132 102
175 132 102
175 132 102
175 132 102
175 132 102
175 132 102
175 132 102
175 132 102
175 132 102
175 132 102
175 132 102
175 132 102
175 132 102
175 132 102
175 132 102
171 129 99
157 119 91
127 97 73
119 92 69
118 91 69
119 92 69
117 90 67
113 87 64
117 91 68
104 102 79
85 120 97
85 120 97
84 119 96
84 119 97
85 119 97
85 120 97
84 119 96
85 120 97
85 120 97
85 120 97
84 119 97
84 120 97
84 119 97
85 120 97
85 120 97
85 120 97
84 119 97
84 119 97
85 120 97
85 120 97
84 120 97
84 119 97
84 119 96
84 119 96
85 120 97
84 119 97
84 119 97
85 120 97
84 119 97
85 119 97
84 119 96
84 119 97
85 119 96
84 119 97
85 120 97
84 119 97
85 119 97
85 120 97
84 119 97
84 119 97
85 120 97
84 120 97
84 119 96
84 119 97
84 119 97
84 119 96
84 120 97
84 119 97
84 119 97
85 120 97
84 119 97
84 119 97
84 119 96
84 119 96
84 119 97
84 119 97
84 119 96
84 119 97
84 119 97
84 118 96
84 119 96
84 119 96
84 119 96
84 120 97
84 119 97
84 119 96
84 118 96
85 120 97
84 119 96
84 119 96
84 119 96
84 119 97
84 119 96
84 119 97
84 119 96
84 118 96
84 119 96
84 119 97
84 118 96
84 119 96
84 119 97
84 118 96
84 119 96
84 119 97
83 118 96
84 119 96
83 117 95
84 119 96
83 117 95
84 118 96
84 118 96
84 119 96
84 119 96
84 118 96
84 119 96
83 118 95
83 117 95
80 111 99
71 89 108
64 66 117
61 58 120
62 59 121
62 59 121
62 59 121
62 59 121
62 59 121
62 59 121
61 59 121
61 59 121
61 58 120
61 58 120
60 58 119
60 57 118
59 57 117
59 57 117
58 56 115
59 62 112
66 80 105
75 102 98
81 114 94
82 116 94
82 115 93
81 114 92
82 116 94
82 115 93
81 115 93
69 98 79
20 23 22
22 25 24
23 26 25
24 26 25
24 26 25
25 27 26
25 27 26
25 27 26
25 27 26
26 28 26
25 27 26
26 27 26
26 27 26
26 27 26
26 27 26
25 26 25
25 27 25
25 27 26
25 26 25
25 26 25
25 26 25
25 26 25
24 26 24
24 25 24
24 25 23
23 25 23
24 24 23
22 24 22
22 23 21
21 22 21
21 22 19
19 21 19
18 19 17
17 19 17
16 18 16
14 17 14
14 17 15
14 17 15
14 17 15
17 22 20
49 73 62
57 86 73
56 84 72
56 84 72
57 85 73
56 84 72
58 87 74
58 87 74
59 88 75
61 91 77
64 94 79
64 93 78
67 97 81
69 99 83
71 102 84
71 102 84
73 105 87
76 109 90
76 108 88
78 111 91
79 112 91
80 114 92
81 114 93
82 116 94
83 117 95
82 116 94
81 115 93
82 116 94
81 114 92
82 116 94
82 116 94
83 117 95
83 117 94
82 117 95
83 118 95
82 117 95
83 117 95
83 117 94
83 116 94
82 115 93
83 117 95
82 117 95
83 117 95
144 125 84
223 141 54
233 146 56
242 151 58
252 157 61
250 155 60
255 160 62
255 160 62
255 163 63
255 163 63
255 165 64
255 164 64
255 169 66
255 168 66
255 169 66
255 170 68
255 174 74
255 183 88
255 198 108
255 208 120
255 211 124
255 203 115
255 191 99
255 179 83
255 171 72
255 168 67
255 167 66
255 166 65
255 165 65
255 165 65
255 164 65
255 163 64
255 162 64
254 161 63
247 174 114
168 149 136
141 126 114
224 200 182
221 197 179
112 100 91
0 0 0
181 161 146
206 184 168
202 178 162
115 103 93
110 98 90
170 151 138
138 110 87
132 111 70
83 118 96
83 117 95
83 118 96
83 118 95
83 117 95
83 117 95
83 117 95
83 117 95
83 118 96
83 117 95
83 117 95
83 117 95
83 118 96
83 118 96
83 118 96
83 117 95
83 117 95
83 117 95
83 118 96
83 118 96
83 118 96
83 118 96
84 118 96
83 117 95
83 118 96
83 118 96
83 117 95
83 118 96
83 117 95
83 117 95
83 117 95
83 117 95
83 118 96
83 118 96
83 117 95
83 118 96
83 118 96
82 117 95
83 118 96
82 117 95
83 117 95
83 117 95
82 117 95
83 117 95
83 117 96
82 117 95
83 117 95
83 117 95
83 117 95
83 117 95
83 117 95
83 117 95
83 117 95
82 117 95
83 118 95
83 117 95
83 117 95
83 117 96
164 156 135
216 186 163
229 199 177
235 202 178
239 208 186
242 211 188
245 212 189
249 214 190
249 216 192
249 217 194
250 219 196
251 221 198
252 222 199
252 222 200
252 222 200
251 222 200
252 222 200
251 222 201
253 224 201
253 223 201
251 222 200
248 220 199
247 219 198
245 217 197
244 216 196
243 215 195
241 214 195
240 199 180
236 94 68
234 84 56
233 84 56
231 83 55
229 82 55
227 82 55
226 81 54
223 80 54
221 80 53
218 79 53
215 78 52
211 76 51
207 75 50
200 73 48
198 72 48
189 69 46
181 67 45
171 63 43
154 59 40
103 105 84
82 117 95
83 117 95
82 117 95
83 117 95
82 117 95
83 117 95
82 117 95
82 117 95
83 117 95
82 117 95
82 116 95
82 117 95
82 117 95
82 117 95
82 117 95
82 117 95
82 117 95
82 117 95
82 117 95
82 116 95
82 116 95
82 117 95
82 117 95
82 116 95
82 116 95
83 117 95
82 116 95
82 117 95
82 116 95
82 117 95
82 117 95
82 117 95
82 116 95
82 117 95
82 117 95
82 117 95
82 116 95
82 117 95
82 116 94
82 117 95
82 117 95
82 117 95
82 116 95
82 117 95
82 117 95
82 117 95
82 116 95
82 117 95
82 116 95
82 117 95
82 117 95
82 116 95
82 116 95
82 117 95
82 116 95
82 116 95
82 117 95
82 117 95
82 116 95
82 116 95
82 116 95
82 117 95
82 117 95
82 117 95
82 116 95
82 116 95
81 116 95
82 117 95
82 116 95
82 116 95
82 116 95
82 117 95
82 116 95
82 116 95
82 116 95
82 116 95
82 116 95
82 116 95
82 116 95
82 116 95
81 116 95
82 116 95
82 116 95
82 116 95
81 116 94
81 116 95
82 116 94
82 116 95
82 116 95
81 116 94
82 116 95
81 116 94
82 116 95
81 116 94
82 116 94
82 116 95
81 115 94
81 116 94
82 116 95
81 116 95
81 116 95
81 115 94
81 115 94
82 116 95
82 116 95
82 116 95
82 116 94
81 116 94
81 116 94
81 116 95
81 116 95
81 116 94
85 120 97
85 120 97
85 120 97
85 120 97
85 120 97
85 120 97
85 120 97
85 120 97
85 120 97
85 120 98
85 120 97
85 120 98
85 120 97
85 120 97
85 120 98
85 120 97
85 120 97
85 120 98
85 120 97
85 120 97
85 120 97
85 120 97
85 120 97
85 120 97
85 120 98
85 120 97
85 120 97
85 120 97
84 119 97
85 120 97
85 120 97
85 120 97
85 120 97
85 120 97
85 120 97
85 120 97
85 120 97
85 120 97
85 120 97
85 120 97
85 120 98
85 120 97
85 120 97
85 120 98
85 120 97
85 120 97
85 120 98
84 120 97
85 119 97
85 120 97
90 121 98
125 124 99
157 129 101
175 132 102
175 132 102
176 132 102
175 132 102
175 132 102
175 132 102
176 132 102
176 133 102
175 132 102
176 132 102
176 132 102
175 132 102
175 132 102
176 132 102
176 132 102
175 132 102
176 132 102
175 132 102
176 132 102
175 132 102
176 133 102
176 132 102
175 132 102
175 132 102
175 132 102
175 132 102
175 132 102
175 132 102
175 132 102
175 132 102
175 132 102
175 132 102
176 133 102
175 132 102
175 132 102
175 132 102
176 132 102
175 132 102
176 132 102
175 132 102
176 132 102
175 132 102
175 132 102
175 132 102
175 132 102
175 132 102
175 132 102
175 132 102
176 132 102
175 132 102
175 132 102
175 132 102
175 132 102
175 132 102
175 132 102
175 132 102
175 132 102
175 132 102
172 130 99
151 115 88
124 94 71
113 87 65
118 91 68
118 91 68
114 88 65
115 89 67
117 90 68
116 89 67
115 89 66
105 104 81
84 119 97
84 119 97
85 120 97
84 119 97
85 120 97
85 120 97
85 119 97
84 119 97
85 120 98
85 119 97
85 120 97
85 120 97
85 120 97
85 120 97
84 119 97
84 119 97
85 120 97
85 120 97
85 120 97
85 120 97
85 120 97
84 120 97
85 120 97
85 120 97
85 119 97
85 120 97
84 120 97
84 119 97
84 119 97
85 120 97
85 119 97
84 119 97
85 120 97
84 119 97
85 120 97
85 120 97
84 119 96
84 119 97
84 119 97
84 119 96
84 119 96
84 119 96
84 119 97
84 119 96
84 119 97
85 119 97
84 119 97
84 119 97
84 119 97
85 120 97
84 119 96
84 119 96
84 119 97
84 118 96
84 119 96
84 119 97
84 119 96
84 119 96
84 119 97
84 119 96
84 119 96
84 119 96
84 119 97
84 119 96
84 119 96
84 119 97
84 119 96
84 119 96
84 119 96
84 119 97
84 119 96
84 119 97
84 119 96
84 119 96
84 119 96
84 119 96
84 119 96
84 119 97
84 119 96
84 118 96
84 118 96
84 119 97
84 119 96
84 119 96
83 118 96
83 117 95
84 119 96
83 117 95
84 119 96
83 118 96
83 118 95
83 117 95
83 118 96
83 117 95
84 118 96
80 110 97
69 83 111
62 61 119
62 59 121
62 59 121
62 60 122
63 60 122
63 60 123
62 60 123
62 60 123
62 60 123
62 60 122
62 59 122
62 59 122
61 59 121
61 59 121
61 59 120
61 58 120
60 58 119
60 57 118
59 57 117
59 56 116
58 56 115
57 55 112
61 68 108
70 93 98
81 114 94
82 115 93
81 114 92
81 115 93
80 113 91
81 114 92
50 70 57
20 23 21
22 24 23
22 25 23
22 24 23
24 26 24
24 26 25
24 26 25
24 26 24
24 26 25
24 26 25
25 27 25
24 26 25
24 26 25
24 26 24
24 25 24
24 26 25
24 26 24
23 25 24
23 25 24
24 25 24
23 24 23
23 25 23
23 24 23
23 25 23
23 24 22
22 23 22
21 23 21
20 22 19
20 22 20
18 20 18
17 19 17
16 18 16
14 17 14
13 17 14
13 16 14
13 16 14
13 17 15
13 17 15
41 61 52
54 81 70
56 85 73
55 82 71
55 82 70
55 83 71
57 84 72
57 86 73
56 84 72
58 87 74
60 89 76
61 90 76
63 92 77
64 94 79
69 99 82
70 101 84
72 104 86
73 104 86
75 107 88
75 107 88
79 112 91
80 113 92
80 112 91
81 115 93
82 115 93
82 115 93
82 116 94
82 116 94
82 116 94
83 117 95
83 117 95
83 116 94
83 117 95
82 116 94
82 116 94
83 117 95
84 118 95
83 117 95
83 117 95
82 116 94
83 117 95
83 117 95
83 117 95
83 117 95
176 128 71
227 142 55
239 149 58
242 150 58
249 155 60
255 158 61
255 159 61
255 161 63
255 160 62
255 165 64
255 164 64
255 165 64
255 168 65
255 166 65
255 168 66
255 171 70
255 177 81
255 195 104
255 214 129
255 232 148
255 235 152
255 221 136
255 201 113
255 184 90
255 173 74
255 169 68
255 167 66
255 166 65
255 165 65
255 164 65
255 163 64
255 163 64
255 162 64
253 160 63
248 164 85
199 175 157
116 103 93
221 196 178
219 194 176
140 125 114
0 0 0
166 147 133
206 182 164
202 179 163
160 141 126
48 42 38
168 149 135
133 116 103
151 111 64
86 118 95
83 117 95
83 118 95
83 117 95
83 118 96
83 117 95
83 117 95
83 117 95
83 118 96
83 117 95
83 118 96
83 117 95
83 117 96
83 117 95
83 117 95
83 118 96
83 118 95
83 118 95
83 117 96
83 118 96
83 118 96
83 117 95
83 117 95
83 117 95
83 117 95
83 118 96
83 117 95
83 118 96
83 117 95
83 117 95
83 118 96
83 118 96
83 117 95
83 117 95
83 117 95
83 117 95
83 117 95
83 118 95
83 118 96
83 117 95
83 117 95
83 117 95
83 118 95
83 118 95
83 118 96
83 117 96
82 117 95
83 117 95
83 117 95
83 117 95
83 117 96
83 117 95
82 117 95
83 117 96
83 117 95
83 117 95
83 118 96
106 127 105
206 180 157
221 192 169
230 200 178
239 207 184
238 206 182
242 208 184
243 209 185
246 211 187
248 215 192
250 217 194
250 218 196
250 219 197
251 219 196
252 221 199
252 221 199
253 223 201
255 226 203
255 229 205
255 232 208
255 232 208
255 229 205
253 224 202
249 220 199
246 218 197
245 217 196
243 215 195
242 214 194
238 147 127
236 85 56
234 84 56
233 84 55
231 83 55
229 82 55
228 82 54
225 81 54
223 80 54
221 80 53
218 79 52
214 77 52
210 76 51
206 75 50
204 74 50
197 72 48
191 70 47
184 67 45
170 63 42
156 59 39
129 82 63
82 117 95
82 117 95
82 116 95
82 116 95
82 117 95
82 117 95
82 117 95
82 117 95
82 117 96
82 117 95
82 117 95
83 117 95
82 117 95
82 117 95
82 117 95
82 117 95
82 117 95
82 117 95
82 117 95
82 117 95
82 117 95
82 117 95
82 117 95
82 117 95
82 116 95
82 117 95
82 117 95
82 117 95
82 116 95
82 117 95
82 117 95
82 117 95
82 117 95
82 117 95
82 117 95
82 117 95
82 116 95
82 116 95
82 117 95
82 117 95
82 116 95
82 116 95
82 117 95
82 117 95
82 117 95
82 117 95
82 117 95
82 117 95
82 116 95
82 117 95
82 116 95
82 116 95
82 117 95
82 117 95
82 117 95
82 116 95
82 116 95
82 116 95
82 117 95
82 116 95
82 116 95
82 116 95
82 116 95
82 116 95
82 117 95
82 116 95
82 117 95
82 116 95
82 116 95
82 116 95
82 116 95
82 116 95
82 116 95
82 117 95
82 116 94
82 116 95
82 116 95
82 116 95
82 116 95
82 116 95
82 116 95
82 116 95
81 116 95
82 116 95
82 116 95
82 116 95
82 116 95
82 116 95
82 116 95
82 116 95
82 116 94
82 116 95
82 116 95
82 116 95
81 116 94
81 116 95
82 116 95
81 116 94
81 116 94
81 115 94
81 116 94
81 116 95
81 116 95
81 116 94
82 116 95
82 116 95
81 115 94
82 116 95
81 116 95
81 116 94
81 115 94
82 116 95
85 120 97
85 120 98
85 120 98
85 120 97
85 120 97
85 120 97
85 120 98
85 120 97
85 120 97
85 119 97
85 120 97
85 120 97
85 120 97
85 120 97
85 120 97
85 120 97
85 120 97
85 120 98
84 120 97
85 120 97
85 120 97
85 120 97
85 120 97
84 120 97
85 120 97
85 120 97
85 120 97
85 120 98
85 120 97
85 120 97
85 120 98
85 120 97
85 120 97
85 120 97
85 120 97
85 120 97
85 120 97
85 120 97
85 120 97
85 120 97
85 120 97
85 120 97
85 120 98
85 120 97
85 121 98
85 120 97
85 120 97
85 120 97
103 122 98
140 126 99
169 131 101
175 132 102
175 132 102
176 133 102
176 132 102
175 132 102
176 133 102
175 132 102
175 132 102
176 133 102
175 132 102
175 132 102
176 133 102
175 132 102
176 133 102
176 132 102
176 133 102
176 132 102
176 132 102
175 132 102
175 132 102
176 132 102
175 132 102
176 133 102
176 132 102
175 132 102
175 132 102
175 132 102
176 133 102
175 132 102
175 132 102
175 132 102
175 132 102
175 132 102
175 132 102
175 132 102
175 132 102
176 132 102
176 132 102
175 132 102
175 132 102
175 132 102
175 132 102
175 132 102
175 132 102
175 132 102
176 132 102
175 132 102
175 132 102
176 132 102
176 132 102
176 132 102
176 132 102
175 132 102
175 132 102
175 132 102
175 132 102
175 132 102
175 132 102
168 127 98
146 111 85
125 95 72
116 90 67
117 90 67
118 91 69
116 90 67
118 90 68
112 86 64
119 92 69
115 89 67
117 91 68
119 92 69
110 101 79
85 120 97
85 120 97
85 120 97
85 120 97
85 120 98
85 120 97
85 120 97
85 120 97
85 120 98
84 119 97
85 120 97
85 120 97
84 119 96
85 120 97
85 120 97
85 120 97
84 119 97
85 120 97
85 120 97
85 120 97
84 119 97
84 119 97
85 120 97
84 119 97
85 120 97
84 119 97
84 119 97
85 120 97
85 120 97
85 120 97
84 119 97
85 120 97
85 120 97
84 119 96
84 119 97
85 120 97
84 119 96
85 120 97
84 119 97
85 120 97
85 120 97
85 120 97
85 120 97
84 119 97
85 120 97
85 120 97
84 119 97
85 120 97
84 119 96
84 119 97
84 119 97
84 119 97
84 119 97
84 119 97
84 119 97
85 119 97
85 119 97
84 119 97
84 119 97
84 118 96
84 119 96
84 119 97
84 119 96
84 118 96
84 119 97
84 118 96
84 119 97
84 119 97
84 118 96
84 119 96
84 119 97
84 119 96
83 118 96
84 119 97
84 118 96
84 119 97
84 119 96
84 119 96
84 119 97
84 119 96
84 119 96
84 119 96
84 119 96
84 118 96
83 118 96
84 119 96
84 119 96
84 118 96
84 118 96
84 118 96
84 118 96
84 118 96
83 118 95
82 115 97
69 84 109
62 61 118
62 59 121
62 60 122
63 60 123
63 60 123
63 60 123
63 60 124
63 60 124
63 60 124
63 60 124
63 60 123
63 60 123
62 60 123
62 60 123
62 59 122
62 59 122
61 59 121
61 59 121
61 58 120
60 58 120
60 58 119
59 57 118
59 57 117
58 56 116
57 55 114
56 55 111
59 66 103
76 104 94
81 114 92
80 113 91
81 114 92
79 112 90
75 105 85
36 50 41
18 21 19
20 22 20
21 23 22
21 24 22
22 24 22
22 24 22
22 24 23
23 25 23
23 25 23
23 25 24
23 25 23
23 25 24
23 25 23
22 24 23
23 25 23
23 24 23
22 24 22
23 24 23
22 24 23
22 24 22
21 24 22
22 23 22
21 23 21
21 23 21
20 22 20
19 21 19
19 20 18
18 20 18
16 18 16
15 18 15
13 16 14
13 16 13
12 15 13
12 16 13
12 15 13
13 17 15
26 38 33
54 80 69
55 82 70
53 79 68
54 82 70
54 81 69
54 81 70
56 83 70
56 84 72
56 84 73
57 84 72
58 86 73
60 89 75
63 93 78
65 95 80
67 98 82
69 99 82
71 102 84
73 104 85
76 109 89
77 108 88
79 112 91
79 112 91
80 113 92
80 113 92
82 116 94
82 116 94
83 118 95
82 116 94
82 117 95
83 117 95
82 116 94
83 117 95
83 117 95
82 116 94
83 117 95
84 118 96
82 116 93
83 117 95
83 117 95
83 118 96
83 117 95
83 118 96
83 117 95
95 117 92
208 134 55
227 142 55
235 147 56
238 148 57
252 155 60
251 155 60
255 157 61
255 157 60
255 159 61
255 162 63
255 162 63
255 164 64
255 165 64
255 165 64
255 166 66
255 170 71
255 180 86
255 200 113
255 224 141
255 243 161
255 244 163
255 229 146
255 204 118
255 184 92
255 173 75
255 168 68
255 166 65
255 165 65
255 164 64
255 163 64
255 162 64
255 161 63
255 161 63
251 158 62
248 158 67
216 183 159
78 70 63
207 183 166
215 192 173
184 163 146
22 19 17
97 87 79
203 179 162
197 174 155
171 151 136
20 18 16
149 135 123
139 126 115
158 111 65
99 115 88
83 118 96
83 118 96
83 117 95
83 117 95
83 117 95
83 118 96
83 117 95
83 117 95
83 118 95
83 118 95
83 117 95
83 118 96
83 117 95
83 117 95
83 117 95
83 118 96
82 117 95
83 117 96
83 117 95
83 118 96
83 117 95
83 117 95
83 118 96
83 118 95
83 118 96
83 117 95
83 117 95
83 117 95
83 118 95
83 118 95
83 117 95
83 118 96
83 117 95
82 117 95
82 116 94
83 117 95
83 118 96
83 117 96
83 118 96
83 117 95
83 117 95
83 117 96
82 117 95
83 117 96
83 117 95
83 118 96
83 118 96
83 117 95
83 118 96
83 117 95
83 117 95
83 118 95
83 118 96
82 117 95
83 117 96
83 118 96
161 154 133
211 184 162
225 194 171
228 197 173
234 202 179
236 203 180
243 210 187
244 211 188
245 213 190
247 216 193
248 215 191
249 218 195
249 218 195
251 219 197
249 218 196
253 223 200
255 225 202
255 231 206
255 242 216
255 249 221
255 248 221
255 241 215
255 230 207
253 223 201
247 218 197
246 217 196
243 215 195
242 186 165
239 91 63
236 85 56
235 84 56
233 84 55
232 83 55
230 83 55
227 82 54
225 81 54
223 80 53
220 79 52
217 78 52
212 76 51
211 76 51
205 74 50
202 73 49
194 71 47
186 68 45
178 65 44
169 63 42
159 60 40
149 60 42
89 112 91
82 117 95
83 117 95
82 116 95
83 117 95
82 116 95
83 117 95
82 117 95
83 117 95
82 117 95
83 117 95
82 117 95
83 117 95
82 117 95
82 117 95
83 117 95
82 116 95
82 117 95
82 117 95
82 117 95
82 117 95
83 117 95
83 117 95
82 116 95
83 117 95
82 117 95
82 116 95
82 117 95
82 116 95
83 117 95
82 117 95
82 117 95
82 117 95
82 116 95
82 116 95
82 117 95
82 117 95
82 117 95
82 116 95
82 117 95
82 116 95
82 116 95
82 116 95
82 117 95
82 117 95
82 116 95
82 117 95
82 117 95
82 117 95
82 117 95
82 116 95
82 117 95
82 116 94
82 117 95
82 116 95
82 117 95
82 116 95
82 117 95
82 116 95
82 116 95
82 116 95
82 116 95
82 116 95
82 116 95
82 116 95
82 116 95
82 116 95
82 116 95
82 116 95
82 116 95
82 116 95
82 116 95
82 116 95
81 116 94
82 116 95
82 116 95
82 116 95
82 116 95
82 117 95
82 116 94
82 116 95
82 116 95
82 116 95
82 116 94
82 116 95
82 116 95
81 116 94
81 116 94
82 116 95
81 116 94
81 116 95
82 116 95
82 116 94
81 116 95
82 116 94
82 116 95
82 116 94
81 116 95
82 116 94
81 116 95
82 116 95
81 116 95
82 116 95
82 116 95
82 116 95
82 116 95
82 116 94
81 115 94
81 116 94
81 116 95
81 115 94
82 116 95
85 120 97
85 120 98
85 120 97
85 120 97
85 120 98
85 120 97
85 120 97
85 120 98
85 120 97
85 121 98
85 120 97
85 120 97
85 120 97
85 120 97
85 120 97
85 120 97
85 120 97
85 120 98
85 120 97
85 120 97
85 120 97
85 120 98
85 120 97
85 120 97
85 120 98
85 120 97
85 120 97
85 120 97
85 120 97
85 120 98
85 120 97
86 121 97
85 120 97
85 120 97
85 120 97
85 120 97
85 120 97
84 119 96
85 120 97
85 120 97
85 120 97
85 120 97
85 120 97
85 120 97
85 120 98
87 120 97
116 123 98
151 128 100
174 132 102
175 132 102
175 132 102
175 132 102
176 133 102
176 133 102
176 132 102
176 133 102
175 132 102
176 132 102
175 132 102
176 132 102
176 133 102
176 133 102
176 133 102
176 132 102
175 132 102
175 132 102
176 133 102
176 133 102
176 133 102
175 132 102
176 133 102
176 133 102
176 133 102
176 132 102
176 133 102
176 133 102
175 132 102
175 132 102
175 132 102
176 133 102
175 132 102
175 132 102
175 132 102
175 132 102
176 133 102
176 133 102
175 132 102
175 132 102
175 132 102
176 132 102
175 132 102
175 132 102
176 132 102
176 133 102
175 132 102
176 132 102
175 132 102
176 133 102
176 132 102
176 133 102
176 132 102
176 132 102
176 133 102
175 132 102
175 132 102
176 132 102
175 132 102
164 124 95
142 108 83
115 89 66
118 91 68
116 89 66
117 90 68
120 92 69
118 91 68
116 90 68
116 89 66
118 91 68
113 87 66
121 94 70
118 91 68
112 88 66
107 96 73
84 119 97
85 120 97
84 119 97
85 120 97
85 120 97
84 119 97
85 120 97
85 120 97
85 120 97
84 119 97
85 120 97
85 120 97
85 120 97
85 120 97
85 120 97
84 120 97
84 119 97
85 120 97
85 120 97
85 120 97
85 119 97
85 120 97
85 120 97
85 120 97
84 119 97
84 119 97
84 119 97
85 120 97
84 119 97
85 120 98
85 120 97
85 119 97
85 120 97
85 120 97
85 120 97
84 119 97
84 119 97
85 120 97
85 120 97
84 119 97
84 119 97
84 118 95
84 119 97
84 119 97
85 119 97
85 120 97
84 119 97
84 119 97
85 119 97
85 119 97
85 119 97
85 120 97
85 120 97
84 119 96
84 119 97
84 119 96
84 118 96
84 119 97
84 119 96
84 119 97
84 119 96
84 119 97
84 119 96
84 119 97
84 119 96
84 119 96
84 119 96
84 118 96
85 119 97
85 119 97
85 120 97
84 119 96
84 119 97
84 119 97
84 119 96
84 118 96
84 118 95
84 118 96
84 119 96
84 119 96
84 118 96
84 119 96
84 118 96
84 119 96
84 118 96
84 119 97
84 118 96
84 119 97
84 118 96
84 118 96
83 118 96
83 118 96
77 103 101
63 67 113
62 59 120
63 60 122
63 60 123
63 60 123
63 60 124
63 61 124
64 61 124
64 61 124
63 61 124
64 61 124
63 61 124
63 61 124
63 60 124
63 60 124
63 60 123
62 60 123
62 60 123
62 59 122
62 59 122
61 59 121
61 58 120
61 58 120
60 58 119
60 57 118
59 57 117
58 56 116
58 55 114
56 54 111
55 55 108
66 83 98
80 112 93
79 111 89
80 112 90
77 108 87
72 101 82
25 33 28
17 20 18
18 21 19
19 22 20
20 22 20
20 23 21
21 23 21
22 24 22
22 24 22
22 24 22
22 24 22
22 24 22
21 24 22
21 23 21
21 24 22
22 24 22
21 23 21
21 23 21
21 23 21
21 23 21
20 22 20
20 22 20
19 22 19
19 21 19
18 20 18
18 20 18
17 20 17
16 18 15
15 18 15
13 16 13
12 15 12
11 15 12
11 15 12
53 24 17
95 37 26
120 46 32
140 74 58
175 79 59
176 80 60
185 80 58
181 79 59
166 82 62
160 82 63
143 79 62
96 80 67
84 80 67
57 85 73
58 86 73
61 89 75
64 93 78
65 95 79
68 98 81
70 100 83
72 103 85
74 106 87
77 109 89
78 110 90
80 113 92
80 113 92
82 115 93
81 114 92
82 115 93
82 116 94
82 117 95
82 116 94
82 116 94
83 117 94
81 115 93
82 116 94
82 116 94
82 116 94
82 116 94
83 117 95
83 116 94
82 116 95
83 117 95
82 117 95
82 116 94
82 116 94
83 117 95
127 121 86
217 136 52
230 143 55
236 146 56
238 146 56
246 150 58
249 151 58
255 156 60
253 153 59
255 158 61
255 160 62
255 157 61
255 161 62
255 162 63
255 164 64
255 165 65
255 168 71
255 178 86
255 197 111
255 222 139
255 237 155
255 233 152
255 219 136
255 198 111
255 180 88
255 170 73
255 164 65
255 165 65
255 164 64
255 161 63
255 161 63
255 160 63
254 160 62
250 158 62
250 158 62
245 155 61
232 179 138
122 108 97
172 153 139
217 193 174
209 185 167
94 82 73
0 0 0
136 120 108
183 162 146
124 110 99
0 0 0
151 135 121
137 124 111
146 108 74
118 110 76
84 119 96
83 117 95
83 118 95
83 117 95
83 117 95
83 117 95
83 118 96
83 118 95
83 117 95
83 117 95
83 117 95
83 118 95
83 118 96
83 118 96
83 118 95
83 118 96
83 117 95
83 118 96
83 117 95
83 117 95
83 118 96
83 117 95
83 118 96
83 117 96
83 117 95
83 117 95
83 117 95
83 118 96
83 117 95
83 118 96
83 118 96
83 117 95
83 118 96
83 117 95
83 117 96
83 118 96
83 117 95
83 117 95
82 116 95
83 117 95
83 117 95
83 117 95
83 117 95
83 118 96
83 118 96
83 117 95
83 117 95
83 117 95
82 117 95
83 117 95
83 117 95
83 118 95
83 117 95
83 117 95
83 117 95
85 118 96
190 169 147
211 184 161
224 193 169
224 192 168
233 200 176
237 204 180
243 210 187
241 208 185
244 211 188
244 211 187
245 212 188
247 215 192
248 216 193
247 216 194
250 219 196
251 221 198
255 228 203
255 242 214
255 255 228
255 255 237
255 255 234
255 253 223
255 237 211
255 225 202
248 219 198
245 216 195
243 211 191
240 128 106
238 85 56
237 85 56
235 84 55
233 83 55
231 83 55
230 82 54
226 81 54
225 81 53
221 79 53
219 79 52
217 78 52
211 76 51
208 75 50
206 74 49
200 73 48
190 69 46
189 69 46
177 65 43
170 63 42
164 61 41
150 57 38
111 98 78
82 117 95
83 117 95
83 117 95
82 117 95
82 117 95
82 117 95
83 117 95
82 116 95
82 117 95
82 117 95
82 117 95
82 117 95
82 117 95
82 117 95
82 117 95
82 117 95
82 116 95
82 117 95
82 117 95
82 117 95
82 117 95
83 117 95
83 117 95
83 117 95
82 117 95
82 117 95
82 117 95
82 117 95
82 117 95
83 117 95
82 117 95
82 117 95
82 117 95
82 117 95
82 117 95
82 117 95
82 117 95
82 117 95
82 117 95
82 117 95
82 117 95
82 117 95
82 116 95
82 117 95
82 117 95
82 116 95
82 117 95
82 117 95
82 117 95
82 116 95
82 117 95
82 117 95
82 116 94
82 117 95
82 116 95
82 117 95
82 117 95
82 117 95
82 117 95
82 116 95
82 116 94
81 116 94
82 117 95
82 116 95
82 117 95
82 116 95
82 116 95
82 116 95
82 116 95
82 116 95
82 116 94
82 116 95
82 116 95
82 116 95
82 116 95
82 116 95
82 116 95
82 116 95
82 116 95
82 116 95
82 116 95
82 116 95
82 116 95
82 117 95
82 116 95
82 116 95
82 116 95
82 116 94
82 116 95
82 116 95
82 116 95
82 116 95
81 116 95
82 116 95
82 116 95
82 116 95
81 116 95
82 116 95
82 116 95
82 116 95
82 116 95
82 116 95
82 116 95
82 116 95
81 116 94
82 116 94
82 116 95
81 116 94
82 116 95
82 116 95
82 116 95
85 120 97
85 121 98
85 120 97
85 120 97
85 120 97
85 120 97
86 121 98
85 120 97
85 120 97
85 120 97
85 120 98
85 120 97
85 120 97
85 120 98
85 120 97
85 120 97
85 120 97
85 120 97
85 120 97
85 120 98
85 121 98
85 120 97
85 120 97
85 120 97
85 120 98
85 120 98
85 120 97
85 120 98
85 120 98
85 120 97
85 120 98
85 120 97
85 120 97
85 120 98
85 120 98
85 120 97
85 120 97
85 120 97
85 120 98
85 120 97
85 120 97
85 120 97
85 120 97
85 120 98
85 120 98
86 120 97
145 113 85
151 115 85
160 121 91
165 125 95
172 130 99
175 132 101
176 133 102
176 133 102
176 133 102
176 133 102
175 132 102
176 133 102
175 132 102
176 133 102
176 133 102
175 132 102
176 133 102
175 132 102
176 132 102
175 132 102
176 133 102
176 133 102
176 133 102
176 133 102
175 132 102
176 133 102
176 133 102
175 132 102
175 132 102
175 132 102
175 132 102
176 132 102
176 133 102
176 133 102
176 133 102
176 133 102
176 133 102
175 132 102
176 132 102
175 132 102
175 132 102
175 132 102
176 133 102
175 132 102
176 133 102
176 132 102
175 132 102
175 132 102
176 133 102
176 133 102
175 132 102
176 133 102
176 133 102
176 133 102
176 132 102
175 132 102
176 133 102
176 132 102
174 131 101
159 121 92
130 99 74
118 92 69
121 93 70
117 90 67
119 91 69
119 91 68
120 92 69
121 93 70
115 89 67
117 91 68
118 91 68
118 91 69
117 91 69
117 91 69
118 91 68
115 89 67
111 94 72
85 120 97
84 119 96
85 119 97
85 120 97
84 119 97
85 120 97
85 120 97
85 120 97
85 120 97
85 119 96
85 120 97
84 119 96
84 119 97
85 120 97
85 120 97
85 120 97
84 119 96
84 119 97
84 119 97
85 120 97
85 120 97
84 119 97
84 119 97
84 119 97
85 120 97
85 120 97
85 119 97
85 120 97
85 120 97
85 120 98
84 119 97
85 120 97
85 120 97
84 119 97
84 119 97
85 120 97
85 120 97
84 119 97
84 119 97
85 119 97
84 120 97
84 119 97
84 119 96
84 119 96
84 119 97
85 120 97
84 119 97
85 119 96
84 119 97
84 118 95
84 119 97
85 119 97
84 119 97
85 120 97
84 120 97
84 119 96
84 119 96
84 119 97
84 119 96
85 120 97
84 119 97
84 119 96
84 118 96
85 120 97
84 119 96
84 119 96
85 120 97
84 119 96
84 118 96
85 120 97
84 119 97
84 119 96
84 119 96
84 119 96
83 117 95
83 118 96
84 119 96
84 118 96
84 119 96
84 118 96
84 119 97
84 119 96
84 119 96
85 120 97
84 119 96
84 119 96
84 119 96
83 118 96
84 118 96
83 117 95
83 116 96
72 92 105
60 58 116
62 59 121
63 60 122
63 60 123
64 61 124
64 61 124
64 61 124
64 61 125
64 61 125
64 61 125
64 61 125
64 61 125
64 61 125
64 61 125
63 61 124
63 61 124
63 60 124
63 60 124
62 60 123
62 60 123
62 59 122
62 59 122
61 59 121
61 58 120
60 58 120
60 58 119
59 57 118
59 57 117
58 56 115
57 55 114
57 54 112
55 52 108
58 66 99
75 104 88
78 109 88
77 108 87
73 103 83
64 91 74
24 33 27
16 19 17
17 20 17
18 21 19
18 21 19
20 22 20
19 22 20
20 22 20
20 22 20
21 23 21
20 23 21
20 23 21
21 23 21
20 22 20
20 22 20
20 22 20
20 22 20
19 22 20
19 21 19
18 21 19
18 21 18
18 21 18
18 20 18
17 19 17
16 19 16
15 18 15
13 17 14
12 16 13
25 17 13
63 27 19
121 45 31
184 67 45
213 77 51
226 81 54
229 83 55
229 83 55
228 82 55
227 82 55
227 82 55
227 82 55
225 81 54
224 81 54
222 80 54
219 79 53
206 78 54
186 79 57
144 81 63
97 90 74
68 94 78
66 96 79
70 100 83
71 102 83
74 105 86
75 107 87
76 108 88
79 112 91
80 112 91
81 114 93
81 114 93
81 114 92
83 117 95
82 116 94
83 117 95
81 114 92
83 117 94
81 114 92
83 117 95
82 116 94
82 116 94
82 116 94
82 116 94
81 115 93
82 116 94
83 116 94
82 116 94
83 117 95
84 118 96
81 114 92
83 117 94
157 124 75
215 134 51
226 141 54
230 142 54
242 148 57
247 152 58
248 151 58
252 153 59
255 156 60
255 157 60
255 158 62
255 158 61
255 158 61
255 159 62
255 159 62
255 161 63
255 164 68
255 173 80
255 187 98
255 201 118
255 214 132
255 213 129
255 199 114
255 186 96
255 172 78
255 167 68
255 163 64
255 162 63
255 163 64
255 163 64
255 160 62
254 160 62
252 158 62
249 156 61
246 155 61
244 153 60
239 163 96
188 166 149
102 91 82
209 186 168
212 188 169
182 161 143
52 46 43
0 0 0
30 28 24
14 12 11
20 19 17
157 140 126
150 134 122
140 104 69
122 106 69
83 117 95
84 118 96
83 118 96
83 117 95
83 117 95
84 118 96
83 118 96
83 118 96
83 117 95
83 117 95
83 118 95
83 117 95
83 118 96
83 117 95
83 118 96
83 118 96
83 117 95
83 117 95
83 118 96
83 117 95
83 117 95
83 118 96
83 117 95
83 118 95
83 118 96
83 117 96
83 117 95
83 117 95
83 117 95
83 117 95
83 117 95
83 117 95
83 117 95
83 117 95
83 118 96
83 118 96
83 117 95
83 117 95
83 118 95
82 116 95
83 117 96
83 117 95
83 117 95
83 117 95
83 118 96
83 118 96
83 118 96
83 117 96
83 117 95
83 117 95
83 117 95
83 117 95
83 118 95
83 117 95
83 118 96
117 130 109
204 177 154
215 186 163
223 192 169
231 199 176
231 199 175
233 201 177
239 206 181
241 210 186
242 209 185
242 209 186
243 210 187
245 213 190
246 215 192
244 213 190
249 218 195
252 222 198
255 232 206
255 250 221
255 255 236
255 255 245
255 255 241
255 255 227
255 240 213
255 225 202
247 218 195
246 217 195
242 166 145
239 85 56
237 85 56
235 84 55
234 84 55
232 83 55
230 82 54
227 81 54
226 81 54
223 80 53
222 80 53
218 78 51
214 77 51
209 75 50
207 75 50
201 73 48
196 71 47
192 70 46
188 68 45
179 66 44
174 64 42
163 61 41
148 56 38
126 81 63
82 117 95
82 117 95
82 117 95
82 117 95
83 117 95
83 117 95
82 117 95
82 116 95
82 117 96
83 117 95
83 117 96
82 116 95
83 117 95
83 117 95
82 117 95
82 117 95
83 117 95
82 117 95
83 117 95
82 117 96
82 116 95
82 117 95
82 117 95
82 117 95
82 116 95
83 117 95
82 117 95
82 117 95
82 117 95
82 117 95
82 117 95
83 117 95
82 117 95
82 117 95
82 116 95
82 117 95
82 117 95
82 117 95
82 116 95
82 116 95
82 117 95
82 117 95
82 117 95
82 117 95
82 117 95
82 116 95
82 117 95
82 117 95
82 117 95
82 116 95
82 117 95
82 116 95
82 117 95
82 116 95
82 116 95
82 117 95
82 117 95
82 117 95
82 117 95
83 117 95
82 116 95
82 117 95
82 116 95
82 116 95
82 116 95
82 117 95
82 117 95
82 116 95
82 116 95
82 116 95
82 116 95
82 116 94
82 117 95
82 116 95
82 116 95
82 116 95
82 116 95
82 117 95
82 116 95
82 117 95
82 116 94
82 116 95
82 116 95
82 116 94
82 116 95
82 116 94
82 116 95
82 116 94
82 116 95
82 116 95
82 116 95
82 116 95
82 116 95
82 116 95
82 116 95
82 116 95
82 116 94
82 116 95
82 116 95
82 116 95
82 116 95
82 116 95
82 116 95
82 116 95
81 116 94
81 116 95
82 116 95
82 116 95
81 116 94
81 116 94
81 115 94
85 121 98
85 121 98
85 120 98
85 120 98
85 120 98
85 121 98
85 120 97
85 120 98
85 120 97
85 120 98
85 121 98
85 120 98
85 120 97
85 120 97
85 120 98
85 120 97
85 120 97
85 120 98
85 120 98
85 120 97
85 120 97
85 120 98
85 120 97
86 121 98
85 120 97
85 120 98
85 121 98
85 120 98
85 120 97
85 120 98
85 121 98
85 120 98
85 121 98
85 120 97
85 120 97
85 121 98
85 120 97
85 121 98
85 120 97
85 121 98
85 120 97
85 120 97
85 120 97
85 120 97
85 120 97
87 120 97
138 110 82
144 108 79
143 109 79
142 108 79
145 110 80
149 113 84
151 114 85
158 120 90
164 124 93
167 126 96
172 130 99
175 132 101
176 133 102
176 133 102
176 133 102
175 132 102
176 133 102
176 133 102
176 133 102
175 133 102
176 133 102
176 133 102
175 132 102
175 132 102
176 133 102
176 133 102
176 133 102
176 133 102
176 133 102
176 133 102
176 133 102
175 132 102
176 133 102
176 133 102
176 133 102
175 132 102
175 132 102
176 133 102
176 133 102
176 133 102
175 132 102
176 133 102
176 133 102
176 133 102
176 133 102
176 133 102
175 132 102
176 133 102
176 133 102
176 133 102
176 133 102
175 132 102
175 132 102
175 132 102
176 133 102
175 132 102
172 130 100
156 118 90
136 104 79
116 90 67
117 90 68
114 88 66
116 91 68
116 89 66
117 90 67
119 92 69
117 90 68
117 90 68
117 90 68
120 92 69
118 92 69
113 88 65
113 88 66
113 88 65
118 91 68
113 89 66
108 95 73
85 119 96
85 120 97
84 119 96
85 120 98
85 120 97
85 120 97
85 120 97
85 120 97
85 120 97
85 120 97
85 120 97
85 120 97
85 120 97
85 120 97
85 120 97
85 120 97
84 119 97
85 120 97
84 119 97
84 119 97
85 120 97
85 120 97
85 120 97
85 119 96
85 120 97
85 120 97
85 120 97
85 120 97
84 119 97
85 120 97
85 119 97
84 119 97
85 120 97
84 119 96
85 120 97
84 120 97
84 119 96
84 119 96
85 120 97
84 119 97
84 119 97
85 120 97
84 119 96
84 118 95
85 120 97
85 120 97
85 120 97
85 120 97
85 120 97
84 119 97
85 120 97
85 120 97
84 119 97
84 119 96
84 119 97
84 119 97
85 120 97
84 119 97
84 119 97
84 119 97
84 119 96
84 119 96
85 120 97
84 119 96
84 119 97
85 119 97
84 119 97
85 119 97
84 119 97
84 119 96
84 118 96
84 119 96
84 118 95
84 119 97
84 119 96
84 119 96
84 118 96
84 119 96
83 118 95
84 119 96
84 119 96
84 119 97
84 118 95
84 119 97
84 118 96
84 118 96
83 118 96
83 118 95
84 118 96
83 117 95
68 81 107
60 57 116
62 59 120
63 60 122
63 60 123
64 61 124
64 61 124
64 61 125
64 61 125
64 61 125
64 61 125
64 61 125
64 61 125
64 61 125
64 61 125
64 61 125
64 61 125
64 61 125
63 61 124
63 60 124
63 60 124
62 60 123
62 60 123
62 59 122
62 59 121
61 59 121
61 58 120
60 58 119
60 57 118
59 57 117
58 56 116
58 56 115
57 55 114
56 54 111
55 52 106
55 57 98
74 101 92
74 104 84
73 102 82
68 96 77
57 81 66
25 35 29
14 17 15
15 18 16
16 20 17
18 20 18
18 21 18
18 21 19
19 21 19
19 21 19
19 21 19
19 22 19
19 22 19
19 22 19
19 22 19
18 21 19
19 21 19
18 21 18
18 20 18
17 20 18
16 19 17
16 19 16
15 19 16
15 18 15
14 18 15
13 16 13
22 17 13
100 38 26
185 67 44
221 80 53
232 83 55
233 84 56
234 84 56
233 84 56
233 84 56
233 84 56
232 84 56
231 84 56
230 83 56
230 83 56
228 83 55
228 82 55
226 82 55
224 81 54
223 81 54
221 80 53
217 79 53
212 78 53
178 83 62
129 91 72
77 99 81
74 105 86
75 106 86
77 109 88
78 111 90
79 112 91
80 112 91
81 114 93
80 113 91
82 116 94
82 115 93
82 115 93
82 116 94
82 115 93
82 116 94
82 116 94
82 115 93
83 117 95
82 116 94
82 116 94
82 116 94
83 117 95
82 116 94
83 117 95
82 116 94
83 117 95
83 116 94
82 115 93
83 117 95
178 127 66
213 133 51
223 139 53
235 145 55
232 142 54
243 148 57
245 149 57
251 152 59
253 154 59
255 155 60
255 154 59
255 154 59
255 156 60
255 158 61
255 157 61
255 157 61
255 164 66
255 166 71
255 174 83
255 181 94
255 187 101
255 186 100
255 178 90
255 174 80
255 166 70
255 163 65
255 159 62
255 161 63
255 159 62
253 157 61
251 158 61
251 158 61
253 159 62
248 156 60
245 154 60
243 153 60
237 150 60
212 172 140
95 85 77
172 154 139
206 184 165
207 183 163
160 142 128
44 39 35
0 0 0
0 0 0
99 88 79
172 156 141
137 122 109
140 107 79
141 104 56
83 118 96
83 118 96
83 117 96
83 118 95
83 117 95
83 118 95
83 118 96
83 117 95
83 117 95
83 118 96
83 118 95
83 118 95
84 118 96
83 117 95
83 118 95
83 117 95
83 118 96
83 117 95
83 117 95
83 118 96
83 118 96
83 118 96
83 118 96
84 118 96
83 118 96
83 117 95
83 117 95
83 117 95
83 117 95
83 118 96
83 117 95
83 118 95
83 117 95
83 117 95
83 118 96
83 117 95
83 118 96
83 118 95
83 117 95
83 118 96
83 117 95
83 117 95
83 117 95
83 117 96
83 118 95
82 116 95
83 117 95
82 117 95
83 117 95
83 118 96
82 117 95
83 117 95
83 117 95
83 118 95
83 118 96
146 146 124
205 178 155
215 186 163
222 191 168
228 197 173
228 196 172
233 200 176
237 202 177
239 207 183
241 209 184
240 209 185
241 210 187
243 211 187
244 213 190
246 215 192
247 215 192
253 221 197
255 232 205
255 250 221
255 255 234
255 255 243
255 255 238
255 252 222
255 237 211
250 221 197
247 217 194
243 195 174
236 97 72
237 84 55
238 84 55
234 83 55
232 83 54
229 82 54
227 81 53
227 81 53
221 79 52
224 80 53
220 79 52
215 77 51
212 76 50
208 75 50
203 73 48
202 73 49
198 72 48
190 69 46
188 69 46
175 64 42
172 63 42
161 60 40
149 56 38
137 69 53
84 118 96
82 117 95
82 117 95
82 117 95
82 116 95
83 117 95
82 117 95
83 117 95
82 117 95
82 117 95
83 117 95
82 117 95
82 117 95
82 117 95
82 117 95
83 117 95
82 117 96
82 117 95
82 117 95
82 117 95
82 117 95
82 117 95
82 117 95
82 117 96
82 117 95
82 116 95
82 116 95
82 117 95
82 117 95
82 116 95
82 117 95
82 117 95
82 116 95
82 117 95
82 117 95
82 117 95
82 117 95
82 117 95
82 116 95
83 117 95
82 117 95
82 117 95
82 117 95
82 117 95
82 117 95
82 117 95
82 117 95
82 117 95
82 116 94
82 116 95
82 117 95
82 117 95
82 117 95
82 117 95
82 116 95
82 117 95
82 117 95
82 117 95
82 117 95
82 116 95
82 116 95
82 116 95
82 116 95
82 117 95
82 116 95
82 117 95
82 116 95
82 117 95
82 116 95
82 116 95
82 117 95
82 116 95
82 116 95
82 116 95
82 116 95
82 117 95
82 116 95
82 116 95
82 117 95
82 117 95
82 116 95
82 116 95
82 116 94
82 116 95
82 116 95
82 116 95
82 117 95
82 116 95
81 116 95
82 116 95
82 116 95
82 116 95
82 116 95
82 116 94
82 117 95
82 116 94
82 116 94
82 116 95
82 116 95
82 116 95
82 117 95
82 116 94
82 116 95
82 116 95
82 116 95
82 116 95
81 116 94
82 116 95
82 116 94
82 116 95
81 116 95
84 119 97
85 120 98
85 120 97
85 121 98
85 120 97
85 120 97
85 120 97
85 120 97
85 120 97
85 120 97
85 121 98
85 120 98
85 120 97
85 121 98
85 120 98
85 120 97
86 121 98
85 120 97
85 121 98
85 120 97
85 120 98
85 121 98
85 120 97
85 120 97
85 120 97
85 121 98
85 121 98
85 120 98
85 120 97
85 120 97
85 120 97
85 120 97
85 120 97
85 120 97
85 120 97
85 120 97
85 120 97
85 120 97
85 120 98
85 120 98
85 120 97
85 120 97
85 120 98
85 120 98
85 121 98
85 120 97
134 111 83
146 110 81
143 109 80
144 109 80
145 110 81
144 109 80
142 108 78
143 108 79
142 108 78
145 110 80
147 111 81
148 112 82
155 117 88
159 120 91
162 122 92
172 129 99
173 131 100
176 133 102
176 133 102
176 133 102
176 133 102
175 132 102
176 133 102
176 133 102
176 133 102
176 133 102
176 133 102
176 133 102
175 132 102
176 133 102
175 132 102
176 133 102
176 133 102
176 133 102
176 133 102
175 132 102
176 133 102
176 133 102
176 133 102
176 133 102
176 133 102
176 133 102
176 133 102
176 133 102
176 133 102
176 133 102
176 133 102
176 133 102
176 133 102
176 133 102
176 133 102
176 133 102
176 133 102
176 133 102
172 130 100
154 116 89
127 97 72
117 91 68
118 91 68
116 89 67
116 90 67
115 89 66
114 89 66
116 90 67
117 91 68
113 88 66
114 89 66
118 91 68
114 88 66
120 92 69
117 90 67
115 89 66
113 88 66
116 90 67
116 91 69
117 90 67
114 92 70
86 119 96
85 120 97
85 120 97
85 120 97
85 120 97
85 120 97
85 120 97
85 120 97
85 120 97
85 120 98
84 120 97
85 120 97
85 120 97
85 120 97
85 120 97
85 120 98
85 120 97
85 120 97
85 120 97
85 120 97
85 120 97
84 119 96
85 119 97
85 119 97
84 119 96
84 119 97
85 120 97
85 120 97
85 120 97
85 120 97
85 119 97
85 120 97
85 120 97
84 119 96
85 119 96
85 120 98
85 120 97
85 120 97
84 119 97
85 120 97
85 120 97
85 119 97
84 119 97
84 119 97
84 119 97
85 119 97
85 120 97
85 119 97
84 119 96
85 120 97
84 119 96
84 119 97
84 119 96
84 119 96
84 119 97
84 120 97
84 119 97
84 119 97
84 119 96
84 119 96
84 119 96
84 119 96
85 120 97
84 119 97
84 119 96
84 119 96
84 119 96
84 119 97
84 118 96
84 119 97
84 119 97
84 118 96
84 119 96
84 119 96
84 119 96
84 119 96
85 119 97
84 118 96
83 118 96
84 119 97
84 119 96
84 119 96
84 118 96
84 118 96
83 118 95
83 117 95
84 119 96
84 118 95
82 116 96
66 78 107
60 57 116
62 59 119
63 60 122
64 61 123
64 61 124
64 61 125
64 61 125
65 61 125
65 62 125
65 62 126
64 62 126
64 62 126
64 61 126
64 61 126
64 61 125
64 61 125
64 61 125
64 61 125
63 61 125
63 61 124
63 60 124
63 60 123
63 60 123
62 60 122
62 59 122
62 59 121
61 59 120
61 58 120
60 58 119
60 57 118
59 57 117
58 56 116
58 55 114
57 55 112
56 53 108
54 51 105
54 57 99
71 98 85
70 98 78
66 93 75
62 88 72
53 75 62
27 39 32
12 16 13
13 17 14
15 19 16
15 19 16
16 19 17
17 20 17
17 20 17
17 20 17
17 20 17
18 20 18
17 20 17
17 20 17
17 20 17
17 19 17
17 20 17
15 18 16
15 18 16
15 18 15
14 18 15
13 16 13
12 16 13
26 18 14
105 40 27
196 71 47
228 82 54
234 84 56
235 84 56
236 85 56
235 85 56
235 85 57
235 85 57
235 85 57
235 85 57
234 85 56
234 84 56
233 84 56
232 84 56
231 84 56
229 83 56
229 83 55
227 82 55
225 82 55
223 81 54
221 80 54
219 79 53
216 78 53
211 77 52
194 80 56
135 97 77
83 107 87
78 111 90
80 113 92
81 113 91
81 114 92
82 115 93
81 113 91
81 115 93
82 116 94
81 114 92
81 114 92
81 114 92
82 116 94
82 116 94
82 116 94
82 115 93
83 118 95
82 116 94
83 116 94
82 116 94
83 117 95
82 116 93
82 116 94
83 116 94
83 116 94
82 116 94
84 117 95
182 126 63
213 134 51
219 136 52
227 141 53
230 141 53
239 146 56
243 149 57
246 148 57
251 151 58
251 152 58
252 152 59
253 152 58
255 154 59
255 156 60
255 156 60
255 154 59
255 160 62
255 159 64
255 165 70
255 166 74
255 169 78
255 168 75
255 167 73
255 163 68
255 161 64
255 160 63
251 157 61
255 160 62
252 158 61
251 157 61
247 154 60
246 154 60
247 155 60
242 152 59
243 153 59
239 151 59
233 147 57
228 156 92
181 159 140
77 68 61
193 173 155
199 177 157
197 174 155
176 156 138
137 122 109
136 121 108
172 154 137
168 150 134
124 110 99
137 104 72
154 105 48
90 118 94
83 118 96
83 117 95
83 117 95
83 117 95
83 117 95
83 118 96
83 117 95
83 118 95
83 118 95
83 118 96
83 117 95
83 117 95
83 118 96
84 118 96
83 118 96
83 118 95
83 117 95
83 117 95
83 118 96
83 117 95
84 118 96
83 118 96
83 117 95
83 118 96
83 118 96
83 117 95
83 117 95
83 118 95
83 117 95
83 118 96
83 117 95
83 118 96
83 118 96
82 117 95
83 117 95
83 118 96
83 118 95
83 118 96
83 117 95
82 117 95
83 117 95
83 117 95
83 117 95
83 117 95
83 118 95
83 117 95
83 118 96
82 117 95
83 117 95
83 117 95
83 118 96
83 118 96
83 117 95
83 117 95
161 151 129
205 177 153
210 180 155
220 191 166
226 194 170
227 195 170
230 199 174
238 204 180
234 203 178
237 206 181
240 208 184
241 209 185
242 212 189
239 208 185
245 214 190
245 213 190
249 218 194
255 228 202
255 240 211
255 252 221
255 255 225
255 252 221
255 240 212
255 228 203
248 218 194
243 211 189
237 116 93
236 84 55
235 84 55
235 83 55
232 83 54
230 82 54
230 82 54
227 81 53
225 80 53
223 80 53
219 79 52
215 77 51
215 77 51
209 75 49
205 74 49
202 73 48
196 71 47
193 70 46
191 69 46
181 66 44
181 66 44
165 61 40
160 59 39
153 58 39
137 68 54
91 117 96
83 117 95
82 117 95
82 117 95
82 117 95
83 117 96
83 117 96
82 117 95
83 117 95
83 117 95
82 117 95
82 117 95
82 117 95
82 117 95
83 117 95
82 117 95
82 117 95
82 116 94
82 117 95
83 117 95
82 117 95
83 117 95
82 117 95
82 117 95
82 116 95
82 117 95
82 117 95
83 117 95
83 117 95
82 117 95
82 117 95
82 117 95
82 117 95
83 117 95
82 117 95
82 117 95
82 117 95
82 116 94
82 117 95
82 117 95
82 117 95
83 117 95
82 117 95
82 117 95
82 117 95
82 117 95
82 117 95
82 116 95
82 117 95
82 116 94
82 117 95
82 117 95
82 116 94
82 117 95
82 117 95
82 117 95
82 117 95
82 116 95
82 117 95
82 117 95
82 116 95
82 117 95
82 117 95
82 116 95
82 117 95
82 117 95
82 116 95
82 116 95
82 117 95
82 116 94
82 116 94
82 116 95
82 117 95
82 116 95
82 117 95
82 116 95
82 116 95
82 117 95
82 116 95
82 116 95
82 117 95
82 116 95
82 116 95
82 117 95
82 116 95
82 117 95
82 117 95
82 116 95
82 116 95
82 116 95
82 116 94
82 116 95
82 116 95
82 116 95
82 116 95
82 117 95
82 116 95
82 116 95
82 116 95
82 116 95
82 116 95
82 116 95
82 116 95
82 116 95
82 116 94
82 116 95
81 115 94
82 116 95
82 116 95
82 116 95
81 116 94
85 120 97
85 120 97
85 120 97
85 120 97
85 120 98
85 120 97
85 120 98
85 121 98
85 120 97
85 121 98
85 120 97
85 120 98
85 121 98
85 120 98
85 121 98
85 120 98
85 120 98
85 120 98
85 120 97
85 120 97
85 120 97
85 121 98
85 120 98
85 121 98
85 121 98
85 120 98
85 120 98
85 120 98
85 121 98
85 120 97
85 120 97
85 120 98
85 120 97
85 120 98
85 120 97
85 120 97
85 120 97
85 121 98
85 121 98
85 121 98
85 121 98
85 120 98
85 120 98
85 120 98
85 120 98
85 120 98
128 111 83
144 109 79
144 109 80
141 106 77
145 110 80
144 109 80
143 108 79
142 108 78
142 108 79
144 109 79
143 108 79
143 108 79
145 109 80
144 109 80
142 108 79
140 106 77
148 111 82
149 113 83
158 119 90
164 124 93
168 127 96
173 130 100
175 132 102
176 133 102
176 133 102
176 133 102
176 133 102
176 133 102
176 133 102
176 133 102
176 133 102
176 133 102
176 133 102
176 133 102
176 133 102
176 133 102
175 133 102
176 133 102
175 132 102
176 133 102
176 133 102
176 133 102
176 133 102
176 133 102
176 133 102
176 133 102
176 133 102
176 133 102
176 133 102
176 133 102
176 133 102
175 133 102
169 128 98
147 112 85
120 92 69
116 89 67
118 90 68
118 91 69
117 90 68
116 89 66
120 93 70
119 92 69
121 93 70
122 93 71
118 91 69
117 90 67
117 91 68
112 87 66
116 90 68
115 89 67
117 90 68
116 89 67
117 90 67
115 89 66
113 88 66
117 91 68
112 90 68
86 118 95
85 119 97
85 120 97
85 120 97
85 120 97
85 119 96
85 120 97
85 120 97
85 120 97
85 120 98
84 119 97
85 120 97
85 120 97
85 120 97
85 120 97
85 120 97
85 120 97
85 120 97
85 120 97
85 120 97
85 120 97
84 119 97
84 119 97
85 120 97
85 120 97
85 120 97
84 120 97
85 120 97
85 120 97
85 120 97
85 120 97
85 120 97
85 120 97
85 120 97
85 119 97
85 120 97
84 119 97
84 119 97
85 120 97
84 119 97
85 120 97
85 120 97
85 120 97
85 119 97
85 120 97
84 119 96
85 120 97
85 120 97
84 119 97
84 119 96
85 120 97
84 119 97
85 120 97
84 119 96
84 120 97
84 119 97
85 120 97
85 119 97
84 119 97
84 119 96
84 119 96
84 119 97
84 119 96
84 119 96
84 119 97
84 119 96
84 118 96
84 119 96
85 120 97
84 119 96
84 119 96
84 119 96
85 120 97
84 119 97
84 119 96
84 118 96
84 119 96
84 119 97
84 118 96
84 119 96
84 119 97
84 118 96
84 119 96
83 118 95
84 118 96
84 119 96
84 118 96
83 116 95
69 85 106
60 57 116
62 59 119
63 60 121
64 60 123
64 61 124
64 61 125
65 61 125
65 62 125
65 62 126
65 62 126
65 62 126
65 62 126
65 62 126
65 62 126
64 62 126
64 61 126
64 61 126
64 61 125
64 61 125
64 61 125
64 61 124
63 60 124
63 60 124
63 60 123
62 60 123
62 59 122
62 59 121
61 59 121
61 58 120
60 58 119
60 57 118
59 57 117
59 56 116
58 56 115
57 55 113
57 54 110
56 52 106
53 50 103
55 61 95
68 93 81
67 94 75
63 89 72
57 81 66
49 70 58
31 45 37
13 18 14
12 16 12
14 17 14
13 16 13
14 17 14
15 18 15
15 18 15
15 18 15
15 18 16
15 18 16
15 18 15
15 18 15
14 17 15
14 17 14
14 17 14
13 16 13
12 16 13
12 16 12
13 16 13
72 29 21
184 66 44
227 82 54
234 84 56
237 85 56
237 85 57
237 85 57
238 86 57
238 86 57
238 86 57
237 86 57
237 86 57
237 85 57
235 85 57
235 85 57
234 85 57
233 84 56
233 84 56
231 84 56
230 83 56
229 83 55
227 82 55
226 82 55
224 81 54
222 80 54
219 80 53
217 79 53
215 78 52
210 76 51
181 86 63
120 104 82
80 112 90
82 115 93
81 114 92
81 114 92
81 113 91
81 114 92
82 116 94
82 115 93
81 114 92
82 116 94
82 115 93
82 115 92
82 115 93
82 115 93
82 116 94
82 116 94
82 116 93
82 116 93
82 116 94
83 117 94
82 116 94
82 116 94
82 116 94
83 117 95
86 117 94
185 123 55
210 132 50
222 138 52
222 136 51
231 142 54
237 142 54
240 146 55
238 143 54
249 152 58
245 147 57
248 149 57
250 148 57
250 152 58
255 154 59
255 155 59
255 157 60
255 156 60
255 157 61
255 157 62
255 157 63
255 160 65
255 158 64
255 161 64
254 158 62
255 160 62
253 158 61
250 156 60
252 157 61
251 157 61
246 154 59
245 153 60
244 152 59
245 154 60
240 151 59
238 150 58
234 148 57
228 144 56
227 143 56
215 162 119
148 132 118
97 86 77
199 177 159
195 172 152
192 171 152
182 162 143
176 156 138
173 153 136
171 152 135
84 77 67
147 107 70
147 99 42
90 117 93
83 117 95
83 118 96
83 118 95
83 117 95
83 117 95
83 117 95
83 117 95
83 117 95
83 117 95
83 117 95
83 117 95
83 117 95
83 117 95
83 117 95
83 118 96
83 118 96
83 117 95
84 118 96
83 118 95
83 117 96
83 118 96
82 117 95
83 117 95
83 117 95
83 118 96
83 117 95
83 117 95
83 118 96
83 117 95
83 118 96
83 117 95
83 118 96
83 117 95
83 117 95
83 117 95
83 118 96
83 117 95
83 118 96
83 118 96
83 117 95
83 118 96
83 117 95
83 117 95
83 117 96
83 117 95
83 117 95
83 117 95
83 117 95
83 117 95
83 117 95
83 118 96
83 117 95
82 116 94
84 118 96
183 163 140
205 178 154
215 185 161
218 188 164
217 187 161
226 194 170
228 197 172
231 198 173
232 201 176
234 204 180
237 206 182
238 205 181
238 206 182
241 210 186
240 208 184
240 210 186
240 209 184
251 219 195
255 227 200
255 235 208
255 237 209
255 231 204
255 225 199
246 217 193
241 212 189
236 153 131
237 85 56
234 83 54
232 83 54
230 82 54
228 81 53
229 82 53
223 80 52
222 80 52
221 79 51
219 78 51
215 77 51
212 76 50
211 76 50
207 74 49
202 73 47
199 72 47
197 71 47
189 68 45
187 68 45
181 66 44
175 65 43
171 63 42
154 58 38
139 53 35
140 74 60
103 121 103
83 117 95
82 117 95
83 117 95
83 117 95
83 117 95
83 117 95
82 116 94
83 117 95
82 117 95
83 118 95
83 117 95
82 116 95
83 117 95
83 117 95
83 117 95
83 117 96
82 117 95
83 117 95
82 116 95
82 117 95
83 117 96
82 117 95
82 117 95
82 117 95
83 117 95
82 117 95
82 117 95
83 117 95
82 117 95
82 116 95
82 116 95
82 117 95
82 117 95
82 116 95
82 116 95
82 116 95
82 117 95
83 117 95
82 117 95
82 117 95
82 117 95
82 117 95
82 117 95
82 117 95
82 116 95
83 117 95
82 117 95
82 116 95
82 116 95
82 117 95
82 117 95
82 116 95
82 116 95
82 117 95
82 117 95
82 117 95
82 117 95
82 117 95
82 116 95
82 116 95
82 117 95
82 117 95
82 117 95
82 117 95
82 117 95
82 117 95
82 117 95
82 117 95
82 117 95
82 116 95
82 116 95
82 117 95
82 116 95
82 117 95
82 116 95
82 117 95
82 116 95
82 116 95
82 117 95
82 117 95
82 116 95
82 116 95
82 116 95
82 117 95
82 117 95
82 116 95
82 116 95
82 117 95
82 116 95
82 116 95
82 116 95
82 116 95
82 117 95
82 116 95
82 117 95
81 116 94
82 116 95
82 116 95
82 116 95
82 116 95
82 116 95
82 116 95
82 116 95
82 116 95
82 116 94
82 116 95
82 116 95
82 116 95
81 116 95
82 116 95
85 120 98
85 120 98
85 120 98
85 120 98
85 120 97
85 121 98
85 121 98
85 121 98
85 121 98
85 121 98
85 121 98
85 121 98
85 120 98
85 120 97
85 120 97
85 121 98
85 121 98
86 121 98
85 120 98
85 120 98
85 121 98
86 121 97
85 120 97
85 120 97
85 120 97
85 121 98
85 120 98
85 120 98
85 120 98
85 120 98
85 121 98
85 120 98
85 121 98
85 120 97
85 120 98
85 120 98
85 120 98
85 120 97
85 120 97
85 120 97
85 120 98
85 120 97
86 121 98
85 120 97
85 120 98
85 120 97
127 113 87
144 109 79
141 107 78
144 109 79
146 110 80
141 107 77
144 110 80
141 107 78
147 111 83
145 110 81
143 108 79
141 107 78
145 109 80
146 110 81
146 110 80
144 109 80
147 111 82
142 108 79
143 109 79
143 109 80
141 106 77
146 111 82
151 114 85
154 116 86
160 120 91
166 125 95
172 130 99
174 132 101
176 133 102
177 133 102
176 133 102
176 133 102
176 133 102
176 133 102
176 133 102
176 133 102
176 133 102
176 133 102
176 133 102
176 133 102
177 133 102
176 133 102
176 133 102
176 133 102
176 133 102
177 133 102
176 133 102
175 133 102
176 133 102
176 133 102
169 127 97
145 110 84
120 93 69
116 90 67
119 91 69
117 91 68
114 88 64
116 89 66
120 92 68
112 87 65
117 91 68
118 91 69
116 90 67
118 91 69
114 88 65
118 92 70
120 93 70
114 88 66
115 90 67
115 89 67
114 89 66
110 86 64
116 90 67
117 91 68
113 88 65
119 92 69
116 93 71
89 117 95
85 120 97
85 120 97
85 120 98
85 120 97
85 120 97
85 120 98
85 119 97
85 120 97
85 119 96
85 120 97
85 120 97
85 120 97
85 120 97
85 120 97
85 120 97
85 120 97
85 120 97
85 120 97
85 120 97
85 120 97
84 119 97
85 119 97
84 120 97
85 120 97
84 119 96
85 120 97
85 120 97
85 119 97
85 120 97
85 120 97
84 119 96
84 119 97
84 119 96
85 120 97
84 119 97
85 119 96
85 120 97
84 119 97
84 119 96
84 119 97
85 119 96
85 120 97
85 119 97
85 120 97
85 119 97
84 119 97
85 120 97
84 119 97
85 120 97
84 119 97
84 119 97
84 119 96
84 118 96
84 119 96
85 120 97
84 119 97
84 119 97
84 119 97
84 119 97
84 119 96
84 119 97
84 119 96
84 119 97
84 119 96
84 119 97
85 119 97
84 119 96
85 120 98
84 119 96
84 118 96
84 119 96
84 119 97
84 119 96
84 119 97
84 119 96
84 118 96
85 120 97
84 119 96
84 119 96
84 119 96
84 118 96
85 120 97
84 118 95
83 118 95
83 117 95
83 117 96
70 89 103
59 56 112
61 58 117
62 59 120
63 60 122
64 61 123
64 61 124
65 61 125
65 62 125
65 62 126
65 62 126
65 62 126
65 62 126
65 62 126
65 62 126
65 62 126
65 62 126
65 62 126
64 61 126
64 61 125
64 61 125
64 61 125
64 61 125
63 61 124
63 60 124
63 60 123
62 60 123
62 60 122
62 59 122
61 59 121
61 59 120
61 58 119
60 58 119
59 57 118
59 57 116
59 56 115
58 55 113
57 54 111
56 52 107
55 51 105
52 49 100
53 58 91
64 88 74
61 85 68
57 80 64
51 73 60
45 65 54
36 53 45
22 32 26
11 15 12
12 15 12
12 15 12
13 16 13
12 16 13
12 15 12
13 16 13
13 16 13
12 16 13
12 16 12
13 16 13
12 15 12
12 16 13
12 15 12
12 16 12
12 15 12
112 42 28
212 76 50
231 83 55
237 85 56
238 85 57
239 86 57
239 86 57
240 86 57
240 86 57
240 86 57
240 86 57
239 86 57
239 86 57
238 86 57
237 86 57
237 85 57
236 85 57
235 85 57
234 85 57
233 84 56
232 84 56
230 83 56
228 83 55
227 82 55
225 82 55
224 81 54
221 80 54
219 80 53
217 79 53
213 77 52
210 76 51
200 75 51
145 96 75
83 113 91
81 113 91
80 113 91
81 115 93
82 115 93
81 113 91
81 114 92
82 115 93
82 115 93
82 115 93
83 117 95
82 115 93
81 114 93
81 115 93
82 116 94
83 117 94
82 115 93
82 115 93
83 116 94
82 116 94
83 116 94
83 118 95
83 117 94
92 117 93
192 125 52
201 125 47
214 131 50
221 136 51
228 139 53
234 142 54
236 141 54
236 143 54
245 146 56
237 143 54
247 149 57
246 148 57
249 149 57
251 151 58
252 150 57
251 151 58
254 154 59
253 154 59
254 155 60
250 154 60
254 155 60
252 156 60
255 158 61
247 152 59
249 155 60
253 158 61
251 156 60
248 155 60
246 153 59
245 153 59
242 151 58
242 152 59
238 149 58
236 148 57
233 146 56
232 146 56
228 144 56
231 146 57
222 142 60
204 164 131
128 114 101
83 75 67
173 153 135
189 168 149
182 160 141
176 157 139
170 152 135
126 112 99
102 92 80
143 99 51
140 94 38
90 116 91
83 118 96
83 117 95
82 116 94
83 118 95
83 118 96
83 118 95
83 118 95
83 118 95
83 118 96
83 118 96
83 118 96
83 117 95
83 117 95
84 118 96
83 117 95
83 117 95
82 117 95
83 118 95
83 117 95
83 117 95
83 117 95
83 117 95
83 118 96
83 118 95
83 118 96
83 116 94
83 117 95
83 117 95
83 117 95
83 118 95
83 117 95
83 117 95
83 118 96
83 118 96
83 117 95
83 117 95
83 117 95
83 118 96
83 118 96
83 117 95
83 117 95
83 117 95
83 117 95
83 117 95
83 117 95
83 117 95
83 118 95
83 117 95
83 117 95
83 117 95
83 117 95
83 117 95
83 118 96
103 124 102
184 162 139
204 176 152
207 179 155
215 185 160
220 190 165
223 191 166
226 194 169
226 194 168
231 200 175
233 201 176
231 200 176
234 202 178
238 206 182
236 206 182
237 206 182
241 210 186
241 210 186
242 212 188
246 216 191
246 216 191
248 219 194
247 218 193
243 213 189
240 211 188
238 169 147
233 87 59
231 82 54
232 82 53
227 81 52
226 80 52
226 81 52
223 80 52
222 79 52
219 78 51
219 78 51
216 77 50
215 77 50
213 76 50
207 74 49
206 74 49
199 72 47
198 71 47
192 69 45
190 69 46
181 66 43
176 65 42
166 61 40
163 61 40
157 59 39
141 54 36
131 83 69
109 123 105
82 116 94
83 117 95
82 116 94
82 116 94
82 117 95
83 117 95
83 117 95
83 117 95
83 117 95
82 117 95
82 117 95
82 117 95
83 117 95
83 117 96
83 117 95
82 116 95
83 117 95
82 117 95
82 117 95
82 117 95
82 117 95
82 117 95
82 117 95
83 117 95
82 116 95
82 117 95
83 117 96
83 117 96
82 117 95
83 117 95
83 117 95
82 117 95
82 117 95
82 117 95
82 117 95
82 117 95
82 117 95
83 117 95
82 117 95
82 117 95
83 117 95
83 117 95
82 117 95
82 117 95
82 117 95
82 117 95
82 117 95
83 117 95
82 117 95
82 117 95
82 117 95
82 117 95
82 117 95
82 117 95
82 116 95
82 117 95
82 116 95
82 117 95
82 117 95
82 117 95
82 116 95
82 117 95
82 116 94
82 117 95
82 116 95
82 116 95
82 117 95
82 117 95
82 117 95
82 117 95
82 117 95
82 116 95
82 117 95
82 116 94
82 116 95
82 117 95
82 117 95
82 116 95
82 116 95
82 117 95
82 116 95
82 117 95
82 116 95
82 117 95
82 116 95
82 117 95
82 116 95
82 116 95
82 116 94
82 116 95
82 116 95
82 116 95
82 116 95
82 116 95
82 116 95
82 116 95
82 116 95
82 117 95
82 116 95
82 117 95
82 116 95
82 116 95
82 116 95
82 116 95
82 116 94
82 116 95
82 116 95
82 116 95
82 116 95
81 116 95
85 121 98
85 121 98
85 120 97
85 121 98
85 121 98
85 121 98
86 121 98
85 121 98
85 121 98
85 120 97
85 121 97
85 120 97
85 121 98
85 121 98
85 120 97
85 121 98
85 121 98
85 121 98
85 121 98
85 120 97
85 121 98
86 121 98
85 121 98
86 121 97
85 121 98
85 121 98
85 120 97
86 121 98
85 120 97
85 120 97
85 120 97
85 120 97
85 120 97
85 120 97
85 120 98
86 121 98
85 120 97
85 121 98
85 121 98
85 120 97
85 121 98
85 121 98
85 120 97
85 121 98
85 120 97
85 120 98
122 114 88
142 108 79
143 109 80
142 108 78
141 107 78
144 109 80
146 110 81
144 109 80
144 108 79
146 111 82
143 109 80
144 109 80
146 111 82
144 109 79
141 107 79
142 107 78
145 110 81
145 109 79
145 110 80
145 109 80
143 108 78
140 106 77
147 110 81
146 110 81
146 110 80
144 109 80
144 109 80
146 110 81
148 112 83
158 119 90
161 122 92
167 127 96
174 131 101
174 131 101
176 133 102
176 133 102
176 133 102
176 133 102
176 133 102
176 133 102
176 133 102
176 133 102
176 133 102
176 133 102
176 133 102
177 133 102
176 133 102
175 132 101
161 121 93
134 103 77
122 93 70
114 89 66
118 91 68
118 91 69
118 91 68
117 90 67
115 90 67
113 87 65
119 92 69
116 90 67
113 87 65
119 92 70
113 87 64
115 89 66
117 90 67
114 87 65
116 89 67
119 92 70
114 88 65
116 89 66
115 89 66
116 90 67
113 88 66
113 88 65
112 87 65
118 91 69
114 89 67
91 116 93
85 119 96
85 120 97
85 120 97
85 120 97
84 119 97
85 120 97
84 119 96
85 120 97
85 120 97
85 120 97
85 120 97
85 120 97
85 120 97
84 119 97
85 120 97
85 120 97
85 120 97
85 121 98
85 120 97
85 120 97
85 120 97
85 120 97
85 120 97
85 120 97
85 120 97
85 120 97
85 120 97
85 120 97
85 120 97
84 119 97
85 119 97
85 120 97
85 120 97
85 119 97
85 119 97
84 119 97
85 120 97
85 119 96
85 120 97
84 119 97
85 120 97
85 120 97
84 118 96
84 119 96
85 120 97
85 120 97
85 120 97
85 119 97
84 119 96
85 120 97
84 119 96
85 120 97
84 118 96
84 119 97
84 119 97
84 118 96
85 119 97
84 119 97
85 120 97
85 120 97
84 119 97
84 119 97
84 119 96
84 119 96
84 119 97
84 118 95
84 119 97
84 119 97
84 119 96
84 118 96
84 118 95
84 118 96
84 119 96
85 119 97
84 119 96
84 119 96
84 118 96
84 119 96
83 118 95
84 119 96
84 119 96
84 118 96
83 117 95
83 118 95
83 118 95
76 103 98
60 60 113
60 57 115
62 59 119
63 60 121
64 60 122
64 61 124
65 61 125
65 62 125
65 62 125
65 62 126
65 62 126
65 62 126
65 62 126
65 62 126
65 62 126
65 62 126
65 62 126
65 62 126
65 62 126
64 61 125
64 61 125
64 61 125
64 61 125
64 61 124
63 60 124
63 60 123
63 60 123
62 60 122
62 59 122
62 59 121
61 59 120
61 58 120
60 58 119
60 57 118
59 56 116
59 56 115
58 55 113
58 54 110
57 53 108
55 51 105
53 49 100
51 46 94
55 67 83
66 90 72
62 86 69
53 75 60
45 64 52
41 59 49
35 51 43
30 44 37
19 28 23
15 21 17
12 15 12
12 15 12
12 15 12
12 15 12
11 15 12
11 15 12
11 15 11
12 16 12
12 15 12
12 15 12
12 15 12
23 17 13
142 52 34
220 79 52
231 83 55
238 85 56
239 86 57
240 86 57
241 86 57
241 87 57
242 87 57
241 87 58
241 87 58
241 87 58
240 87 58
240 86 58
239 86 57
239 86 57
238 86 57
237 85 57
236 85 57
235 85 57
234 85 57
233 84 56
231 84 56
230 83 56
229 83 55
227 82 55
225 82 55
224 81 54
222 80 54
219 79 53
216 78 53
214 77 52
210 76 51
200 72 48
164 89 67
92 110 89
80 113 91
81 114 92
81 113 91
81 114 92
83 117 95
81 114 92
81 114 92
82 115 93
82 115 93
82 116 94
82 116 94
82 116 94
82 115 93
83 116 94
82 115 93
82 115 92
82 116 93
82 116 94
83 117 95
82 116 94
82 116 94
85 117 94
184 119 48
201 125 47
212 131 49
219 134 50
223 135 51
225 135 51
229 138 52
237 140 53
237 143 54
239 142 54
240 143 54
241 144 55
245 148 57
246 147 56
248 148 56
248 151 58
247 148 56
248 149 57
247 148 56
248 151 58
249 153 59
249 153 59
250 153 59
247 153 59
247 153 58
245 153 59
241 150 58
242 151 58
240 149 57
242 151 58
241 150 58
236 148 57
232 146 56
232 146 56
231 145 56
230 145 56
223 141 54
222 141 54
218 138 53
216 141 65
198 161 131
139 124 109
60 53 46
117 105 94
144 127 112
133 119 103
89 81 72
79 70 61
143 116 91
149 97 37
146 94 36
91 115 91
83 117 95
83 117 95
84 118 96
83 118 96
83 118 95
83 117 95
83 117 95
83 118 96
83 118 96
83 117 95
83 117 95
83 117 95
83 118 96
83 118 95
83 117 95
84 118 96
83 118 95
84 118 96
83 117 95
83 118 96
83 118 95
83 118 96
83 118 95
83 116 94
84 118 95
83 117 95
83 118 95
83 117 95
83 117 95
83 117 95
83 117 95
83 117 95
83 118 95
83 118 96
83 118 95
83 117 95
83 118 96
83 117 95
83 116 95
83 117 95
83 117 95
83 118 96
82 117 95
83 117 95
83 117 95
83 117 95
83 117 95
83 117 95
83 117 95
83 117 95
83 117 95
83 117 95
83 117 95
99 122 99
188 164 141
202 174 149
208 179 154
212 182 157
215 184 159
220 188 162
226 194 169
226 194 169
226 195 169
230 199 174
231 202 177
234 203 179
235 204 180
233 203 178
236 205 181
239 207 183
236 205 180
239 209 185
238 208 184
240 211 187
240 211 187
240 211 187
235 206 182
233 184 162
230 89 63
228 81 52
229 81 53
227 81 52
225 80 52
222 79 51
222 79 52
223 80 52
219 78 51
218 78 51
217 77 50
210 75 49
212 76 50
208 75 48
206 74 48
203 73 48
197 71 46
191 69 45
190 69 45
184 67 44
180 66 43
173 64 42
163 60 39
161 60 39
152 57 37
142 54 36
136 103 90
110 122 105
82 116 95
83 117 95
83 118 96
83 117 95
82 117 95
83 117 95
83 117 95
82 117 95
83 117 95
82 117 95
83 117 95
83 118 95
82 117 95
83 117 95
83 117 95
82 117 95
83 118 96
82 116 95
83 117 96
83 116 95
82 117 95
82 117 95
83 117 95
83 117 95
82 117 95
83 117 95
82 116 95
82 117 95
82 117 95
82 117 95
83 117 95
83 117 95
83 117 95
82 117 95
82 117 95
82 116 95
82 116 94
82 117 95
83 117 95
83 117 95
82 117 95
82 117 95
82 117 95
82 117 95
83 117 95
82 116 95
82 117 95
82 116 95
83 117 95
82 116 95
82 116 95
82 117 95
82 116 95
82 117 95
82 117 95
82 117 95
82 117 95
82 116 94
82 117 95
82 117 95
82 117 95
82 116 95
82 116 95
83 117 95
82 116 95
82 117 95
82 116 95
82 117 95
82 117 95
82 117 95
82 117 95
82 116 94
82 117 95
82 116 95
82 117 95
82 116 95
82 117 95
82 117 95
82 117 95
82 117 95
82 117 95
82 117 95
82 116 95
82 117 95
82 117 95
82 116 95
82 116 95
82 116 95
82 117 95
82 117 95
82 117 95
82 116 95
82 116 95
82 116 95
82 117 95
82 116 95
82 116 95
82 117 95
82 116 95
82 116 95
82 116 95
82 116 95
82 116 95
82 116 95
82 116 95
82 116 95
82 116 95
82 116 95
82 117 95
82 116 95
86 121 98
85 121 98
85 120 97
85 120 97
85 121 98
85 120 97
85 120 97
85 121 98
85 120 97
85 120 98
85 121 98
85 120 97
85 121 98
85 120 97
85 121 97
85 120 98
85 121 98
85 120 98
85 120 97
85 120 98
85 120 97
85 120 98
86 121 98
85 120 97
86 121 98
85 121 98
85 121 98
85 121 98
85 120 97
85 120 97
85 120 98
85 120 98
85 120 98
86 121 98
85 120 97
85 121 98
85 120 97
85 121 98
85 120 97
85 120 97
85 120 97
85 120 97
85 120 98
85 120 97
85 120 97
85 120 97
116 116 90
146 110 81
143 108 79
143 108 79
146 110 81
143 108 79
143 108 79
146 111 82
144 109 80
141 107 78
143 108 79
144 109 79
144 108 79
144 109 79
146 111 81
145 109 80
141 107 78
142 108 79
143 108 79
144 109 80
143 108 79
144 109 80
143 108 79
147 111 82
145 110 81
143 108 79
144 108 79
147 111 82
145 110 81
147 110 81
146 110 81
147 110 81
146 110 82
151 115 85
156 117 88
160 120 91
165 124 94
170 128 98
175 132 101
176 133 102
176 133 102
176 133 102
176 133 102
176 133 102
176 133 102
174 132 101
158 120 92
128 98 74
117 91 67
118 91 69
116 91 67
121 92 70
118 91 68
119 91 68
118 91 68
116 89 66
119 91 69
122 94 71
119 90 67
118 91 67
115 89 67
117 90 67
116 89 66
116 90 67
117 90 67
116 90 67
115 90 67
116 90 68
115 89 67
113 88 66
119 92 69
115 89 67
114 89 67
117 91 69
114 88 66
116 90 68
112 87 65
93 114 92
85 120 97
85 120 97
85 120 97
86 121 98
85 121 98
85 120 97
85 120 97
85 119 97
84 119 97
85 120 97
85 120 97
85 120 98
85 120 97
84 119 96
85 121 98
85 120 97
85 120 97
84 119 97
85 120 97
85 120 97
84 119 97
85 120 97
85 120 97
85 120 97
85 120 97
85 120 97
85 120 97
84 119 96
85 120 97
85 120 97
85 120 97
85 120 97
85 120 98
85 120 97
84 119 97
84 119 96
85 120 97
85 119 97
85 120 97
84 119 96
85 120 97
85 120 97
85 120 97
85 120 97
84 119 96
85 119 97
85 120 97
85 119 96
85 120 97
85 120 97
84 119 97
84 118 96
84 118 96
84 119 97
84 119 96
84 118 96
85 120 97
85 120 97
84 119 97
84 119 97
85 120 97
85 120 97
84 119 96
85 120 97
85 120 97
85 120 97
84 119 96
84 119 97
84 119 96
84 119 96
85 119 97
84 118 96
84 119 97
84 118 96
84 118 96
84 119 97
85 120 97
84 119 96
83 117 95
84 119 96
84 119 97
84 118 95
83 118 95
84 118 96
81 113 97
62 67 108
59 56 113
61 58 118
62 59 119
64 60 121
64 60 122
65 61 124
65 62 125
65 62 125
65 62 126
65 62 126
65 62 126
65 62 126
65 62 126
65 62 126
65 62 126
65 62 126
65 62 126
65 62 126
65 62 126
65 62 125
64 61 125
64 61 125
64 61 125
64 61 124
64 61 124
63 60 123
63 60 123
62 60 122
62 59 122
62 59 121
61 59 120
61 58 120
61 58 119
60 57 118
59 57 116
59 56 115
58 55 113
58 54 111
56 52 106
56 52 106
55 50 102
52 48 99
48 45 93
62 82 82
66 91 72
62 86 68
53 74 59
47 66 52
40 57 46
30 42 35
27 40 33
23 33 28
21 30 25
15 21 17
12 15 12
11 14 11
11 14 11
11 14 11
10 13 11
11 14 11
11 14 11
11 14 11
42 20 14
170 61 40
224 80 53
233 83 55
237 85 56
240 86 57
241 86 57
242 87 57
242 87 58
242 87 58
243 87 58
242 87 58
242 87 58
242 87 58
241 87 58
241 87 58
240 87 58
240 86 58
239 86 57
238 86 57
237 86 57
236 85 57
235 85 57
234 84 56
233 84 56
232 84 56
230 83 56
228 83 55
226 82 55
225 81 55
223 81 54
221 80 54
218 79 53
216 78 52
212 77 52
208 75 50
203 72 48
174 82 60
96 112 90
81 113 91
81 115 93
82 115 93
81 114 92
81 113 91
81 115 93
82 116 93
82 115 93
82 116 93
82 117 95
81 114 92
81 115 92
82 115 93
83 117 95
83 117 95
83 117 95
82 116 94
82 116 93
82 116 94
83 117 94
88 116 92
178 116 49
196 122 45
209 129 49
218 132 50
217 132 50
224 135 51
227 135 51
231 139 53
230 137 52
234 139 53
238 143 54
236 140 53
243 146 56
244 146 56
244 146 55
243 145 55
245 148 56
245 148 56
245 147 56
243 146 55
245 152 58
245 150 57
243 150 57
241 149 57
244 152 58
243 151 58
244 152 58
238 149 57
240 151 58
235 148 57
234 147 56
236 148 57
230 145 56
225 142 54
225 142 54
224 141 54
221 139 54
216 137 53
213 135 52
207 132 50
209 135 56
193 151 115
167 146 127
125 111 99
78 69 61
73 65 58
113 101 90
148 123 101
156 105 50
151 98 38
145 97 41
95 115 90
83 117 94
83 117 95
83 117 95
83 117 95
83 117 94
83 117 95
83 117 94
83 117 95
82 116 94
83 116 94
83 118 95
83 117 95
83 117 95
83 117 94
83 117 95
83 117 95
82 116 94
83 117 95
83 117 95
84 118 96
83 117 95
83 117 94
83 118 96
83 117 95
83 118 95
83 117 94
83 118 95
83 117 95
83 117 95
83 117 95
83 117 95
83 117 95
83 117 95
83 118 96
83 117 95
83 117 95
83 117 95
83 117 95
83 118 96
83 118 95
83 118 96
83 117 95
83 117 95
82 117 95
83 117 95
83 117 95
83 117 95
83 117 94
83 117 95
83 117 95
83 116 94
83 117 95
83 117 96
114 127 105
185 161 137
197 171 147
206 177 153
209 179 155
215 185 160
217 187 162
219 188 162
225 194 169
230 199 174
227 195 170
228 197 171
229 199 175
230 200 175
232 202 178
234 204 179
233 203 179
231 202 177
230 200 175
236 207 182
231 203 178
233 205 181
233 204 181
228 188 165
229 102 78
227 81 52
225 80 51
225 80 52
224 79 51
224 80 52
221 79 51
221 79 51
219 78 50
217 78 50
216 77 50
211 76 49
207 74 48
206 74 48
205 73 48
201 72 47
199 71 46
194 70 46
190 69 45
186 67 44
181 66 43
178 65 42
172 63 41
166 61 40
155 58 38
145 55 36
140 53 35
138 118 106
115 124 107
83 117 95
83 117 95
82 117 95
83 117 95
83 117 95
82 116 94
82 116 95
82 117 95
83 117 96
83 117 95
82 116 94
83 117 95
82 117 95
83 117 95
83 117 95
83 117 95
83 117 95
82 117 95
82 116 95
82 117 95
82 117 95
83 117 95
83 117 95
83 117 95
83 117 95
83 117 95
83 117 95
82 117 95
83 117 95
83 117 96
83 117 95
83 117 95
83 117 95
82 117 95
83 117 95
82 117 95
82 117 95
83 117 95
82 117 95
82 117 95
82 117 95
82 116 95
83 117 96
83 117 95
83 117 96
83 117 95
82 117 95
83 117 95
82 117 95
82 116 94
82 117 95
82 117 95
82 117 95
82 117 95
82 117 95
83 117 95
82 116 95
82 116 95
82 117 95
82 117 95
82 117 95
83 117 95
82 117 95
82 117 95
82 116 95
82 117 95
82 116 94
82 117 95
82 117 95
82 116 95
82 116 95
82 117 95
82 117 95
82 117 95
82 117 95
82 117 95
82 116 95
82 117 95
82 117 95
82 117 95
82 117 95
82 116 95
82 117 95
82 116 95
82 117 95
82 116 95
82 116 95
82 117 95
82 116 95
82 117 95
82 116 95
82 116 95
82 116 95
82 117 95
82 117 95
82 116 95
82 116 95
82 116 95
82 116 95
82 116 95
82 116 95
82 116 95
82 116 95
82 116 95
82 117 95
82 116 95
82 116 95
82 116 95
81 116 95
82 117 95
86 121 98
85 120 97
85 120 98
85 121 98
85 121 98
86 121 98
85 120 97
85 121 98
85 121 98
85 121 98
85 120 98
86 121 98
85 121 98
85 120 98
85 120 98
85 121 98
85 120 98
85 121 98
85 121 98
85 120 98
85 120 97
85 120 98
85 121 98
85 120 98
85 120 98
85 121 98
86 121 98
85 120 97
85 121 98
85 121 98
85 120 97
85 120 97
85 121 98
85 121 98
85 120 98
85 121 98
85 121 98
85 120 98
85 121 98
85 120 98
86 121 98
86 120 97
85 120 97
85 120 97
85 120 97
85 121 98
109 116 91
141 107 77
141 107 77
144 109 79
142 108 78
142 107 78
146 110 81
144 109 80
145 109 81
143 108 79
142 108 79
142 108 79
140 106 77
145 109 80
141 107 77
145 110 81
143 108 79
145 109 81
144 109 80
143 108 79
143 108 79
142 107 78
147 111 82
143 108 79
143 108 80
142 107 78
142 107 78
143 108 79
144 109 80
144 109 80
141 106 77
143 108 79
144 108 79
144 109 80
144 109 80
147 111 82
147 111 82
143 108 79
148 112 82
150 114 84
156 118 88
165 124 94
169 127 97
170 128 98
151 115 87
131 100 76
118 91 68
118 92 69
120 92 69
117 90 68
115 89 66
115 88 65
116 90 67
117 90 68
117 91 68
121 93 70
115 89 66
115 90 67
123 94 71
120 92 69
115 89 67
118 91 69
116 89 66
113 88 66
115 89 67
117 91 69
120 92 70
120 93 70
116 90 67
113 88 65
116 90 67
113 88 66
114 89 66
114 88 66
116 90 67
117 90 68
115 88 66
94 113 90
85 120 98
85 120 97
85 120 97
85 120 97
85 120 98
85 120 98
85 120 97
85 121 98
85 120 97
85 120 98
85 120 97
85 120 97
85 120 96
85 120 97
85 120 98
85 120 97
85 119 96
85 120 97
85 120 97
85 120 97
85 120 97
85 120 97
85 119 97
85 120 97
85 120 97
85 120 97
85 120 97
85 120 97
85 120 97
85 120 97
85 119 97
85 120 97
85 120 97
85 119 97
85 120 97
85 119 97
85 121 98
85 120 97
85 120 97
85 120 97
85 120 97
85 120 97
84 119 97
85 120 97
85 119 96
84 119 96
85 120 97
85 120 97
84 118 96
85 119 97
85 119 96
84 119 96
85 120 97
85 119 96
85 120 97
85 120 97
85 119 96
85 120 97
84 118 96
85 119 97
84 119 96
85 120 97
84 119 97
84 119 97
84 119 97
84 118 95
85 120 97
84 118 96
85 120 97
85 120 97
85 119 97
84 118 96
84 119 97
84 118 96
84 119 96
85 120 97
84 119 96
84 118 95
84 119 96
84 119 96
84 119 96
83 118 95
84 119 96
84 119 96
68 85 103
58 55 110
60 56 113
62 59 118
63 59 119
64 60 121
64 60 122
65 61 124
65 62 125
65 62 125
65 62 126
65 62 126
65 62 126
65 62 126
66 62 126
65 62 126
65 62 126
66 62 126
66 63 126
66 63 126
66 63 126
65 62 126
65 62 125
64 61 125
64 61 125
64 61 124
64 61 124
63 60 123
63 60 123
63 60 122
62 59 122
62 59 121
62 59 120
61 58 120
61 58 119
60 57 117
60 57 116
59 56 115
59 55 112
58 53 109
57 53 109
55 52 107
55 49 100
53 48 98
49 46 94
48 51 84
68 92 75
69 94 74
64 88 69
59 81 63
53 73 57
42 57 45
34 47 38
28 40 32
23 33 27
24 33 27
18 26 21
16 22 18
11 15 12
10 14 11
8 10 7
10 13 10
9 13 10
23 13 10
165 59 39
226 81 53
232 83 55
235 84 55
241 86 57
243 87 57
243 87 57
243 87 58
243 87 58
244 87 58
243 87 58
243 87 58
243 87 58
243 87 58
242 87 58
242 87 58
242 87 58
240 87 58
239 86 58
239 86 57
238 86 57
237 85 57
236 85 57
235 85 57
233 84 56
232 84 56
231 83 56
229 83 55
228 82 55
226 82 55
224 81 54
221 80 54
220 80 53
218 79 53
215 78 52
210 76 51
207 74 50
197 71 47
175 79 57
99 109 88
82 114 92
81 115 93
81 113 91
82 115 92
82 116 94
81 114 92
82 116 94
82 116 94
82 115 93
82 116 94
82 116 94
82 116 93
82 116 93
82 116 94
83 116 94
82 115 93
83 116 94
83 116 94
82 115 93
86 116 93
170 114 51
195 122 46
199 122 46
212 129 49
211 128 48
214 127 47
222 132 50
226 136 51
227 136 51
227 136 51
227 134 50
234 140 53
234 141 53
233 138 52
240 144 54
237 143 54
239 144 54
241 145 55
240 146 56
238 145 55
238 146 55
238 146 55
243 149 57
239 147 56
239 148 57
236 148 56
239 149 57
235 147 56
235 147 56
228 142 54
233 146 56
226 141 54
226 142 54
223 141 54
227 143 55
214 135 51
218 138 53
212 134 51
208 133 51
204 130 50
203 129 49
201 127 48
189 129 70
180 141 107
173 144 120
163 132 105
170 127 91
160 106 49
145 94 35
147 96 36
138 92 39
86 114 91
82 116 94
82 116 94
83 117 95
82 116 94
82 116 95
83 117 95
83 117 95
83 117 95
82 116 94
83 117 95
83 118 96
83 117 95
83 118 95
83 118 96
83 117 95
83 117 94
83 117 95
84 118 96
83 117 95
83 117 95
83 118 96
83 117 95
83 118 95
84 118 96
83 117 95
83 118 96
83 117 95
83 118 95
83 118 96
83 117 95
83 117 94
83 117 95
83 117 95
83 118 96
83 117 95
83 117 95
83 117 95
82 117 95
83 117 95
83 118 96
83 117 95
83 117 95
82 116 94
83 117 95
83 118 96
83 117 95
83 117 96
83 118 96
83 117 95
83 117 95
83 117 95
83 117 95
83 117 95
111 126 104
188 161 138
194 169 145
200 173 147
209 180 155
210 181 157
213 183 157
220 189 164
219 188 163
222 192 167
227 195 170
222 192 166
224 195 170
231 201 176
223 194 168
228 198 173
227 199 174
232 202 178
229 201 176
234 205 181
231 202 179
227 200 176
227 194 171
225 104 79
226 80 51
223 79 51
222 79 51
222 79 51
219 78 50
224 80 52
218 78 50
217 78 50
215 77 49
214 76 49
211 76 49
210 75 48
208 74 48
203 73 47
197 71 46
197 71 46
193 70 45
195 70 46
184 67 43
187 68 44
176 64 41
171 62 40
167 61 40
159 59 38
153 57 37
142 54 35
139 76 62
127 122 108
115 123 106
83 117 96
83 118 95
83 117 95
83 118 96
83 117 95
82 117 95
83 117 95
83 117 95
83 117 95
82 117 95
83 117 95
83 117 95
83 117 95
82 117 95
83 117 95
82 116 95
82 117 95
83 117 95
82 117 95
83 117 95
83 117 95
83 117 95
82 117 95
83 117 95
82 117 95
83 118 96
82 117 95
82 117 95
83 117 95
83 117 96
83 117 95
82 117 95
83 117 95
83 117 95
83 117 96
83 117 95
82 117 95
83 117 95
82 117 95
83 117 96
82 117 95
82 116 95
83 117 95
82 117 95
82 117 95
82 117 95
82 117 95
82 117 95
82 117 95
82 117 95
82 117 95
83 117 95
82 117 95
82 117 95
82 117 95
82 116 95
83 117 95
82 117 95
82 117 95
83 117 95
82 116 95
82 117 95
82 117 95
82 117 95
82 116 95
82 116 95
82 117 95
82 116 95
82 116 94
82 117 95
82 117 95
82 117 95
82 117 95
82 116 95
82 117 95
82 117 95
82 117 95
82 117 95
82 117 95
82 116 95
82 117 95
83 117 95
82 117 95
82 117 95
82 117 95
82 117 95
82 117 95
82 117 95
82 117 95
82 116 95
82 117 95
82 116 95
81 116 94
82 117 95
82 116 95
82 116 95
82 117 95
82 116 95
82 116 95
82 116 95
82 116 95
82 117 95
82 116 95
82 116 95
82 117 95
82 116 95
82 116 95
82 116 95
82 116 95
82 116 95
85 121 98
85 120 98
86 121 98
86 121 98
86 121 98
85 121 98
85 121 98
85 120 98
85 120 97
85 120 98
85 120 97
85 121 98
85 121 98
85 121 98
86 121 98
86 121 97
86 121 98
85 121 98
85 120 98
85 120 97
85 121 98
85 121 98
86 121 98
85 120 97
85 120 97
86 121 98
86 121 98
85 120 98
85 120 97
85 120 98
85 121 98
85 121 98
85 120 97
85 120 97
86 121 98
85 121 98
86 121 97
86 121 98
85 121 98
85 120 97
85 120 97
85 120 97
85 120 97
85 120 97
85 120 97
85 120 97
101 118 94
146 111 82
141 107 78
147 111 82
143 108 79
141 107 78
143 108 79
141 107 78
143 108 79
143 108 79
140 106 77
141 107 77
143 108 79
142 108 79
143 109 79
146 111 81
141 107 77
144 108 79
141 107 78
144 109 80
144 108 79
139 105 76
144 109 80
148 111 82
144 109 80
146 110 81
145 109 79
146 110 81
142 108 78
145 110 81
143 107 78
144 109 80
143 108 80
145 110 81
146 111 81
143 108 79
146 110 81
142 108 79
144 109 79
144 109 80
146 110 81
144 108 79
144 109 80
136 104 76
119 92 70
118 92 69
121 94 70
117 89 66
116 90 67
119 92 69
119 92 69
117 90 67
116 89 67
115 89 66
117 90 67
113 87 64
117 90 68
117 91 68
114 89 66
114 88 66
115 89 66
116 90 68
113 88 65
115 90 67
119 93 70
117 91 68
114 89 66
119 91 69
115 89 67
117 91 68
118 91 68
112 88 65
113 88 65
115 89 66
114 89 66
112 87 65
115 90 67
94 110 87
85 120 97
85 121 98
85 120 97
85 120 97
85 120 97
85 121 98
85 121 98
85 120 97
85 120 97
85 120 97
85 120 97
85 120 97
85 120 98
85 120 97
84 119 97
85 120 97
85 120 97
85 121 98
85 120 97
85 120 97
85 120 97
84 119 97
84 119 96
85 120 97
85 120 97
84 119 96
85 120 97
85 119 97
85 120 97
85 120 97
85 120 97
85 120 97
85 120 97
85 120 97
84 119 96
85 119 97
85 120 97
84 119 97
85 119 97
85 120 97
85 120 97
85 119 97
85 120 97
85 120 97
85 120 97
84 119 96
85 121 97
84 119 96
84 119 97
84 119 96
84 119 96
85 120 97
84 120 97
85 119 97
84 119 96
84 119 97
85 119 96
85 120 97
84 119 96
84 119 97
84 119 96
84 119 96
85 119 97
84 119 96
84 119 96
85 120 97
84 118 96
85 120 97
84 119 97
84 119 96
84 119 96
84 118 96
85 119 97
84 119 96
84 119 96
84 119 96
84 119 96
83 118 95
84 118 95
84 119 96
84 119 96
84 119 96
83 118 95
80 110 96
57 57 106
59 56 112
60 57 114
61 58 116
63 59 119
64 60 122
64 61 123
65 61 124
65 62 125
65 62 125
65 62 126
65 62 126
66 62 126
65 62 126
65 62 126
66 63 126
67 63 127
68 65 127
70 67 128
72 68 128
71 67 127
69 65 127
67 63 126
65 62 125
64 61 124
64 61 124
64 61 124
63 60 123
63 60 123
63 60 122
62 59 122
62 59 121
62 59 120
61 58 120
61 58 118
60 57 118
60 57 116
60 55 113
59 54 111
58 54 111
58 52 106
56 51 105
55 50 103
54 49 100
51 47 95
47 44 89
56 70 80
70 96 74
70 97 75
70 96 75
66 90 70
61 83 65
54 74 57
47 64 50
45 62 49
37 51 41
28 39 30
24 34 27
22 31 25
19 28 22
23 33 27
19 24 19
20 25 20
156 58 39
223 79 53
230 82 54
233 83 55
239 85 56
242 86 57
243 87 57
243 87 58
244 87 58
244 87 58
244 88 58
244 88 58
244 88 58
243 87 58
243 87 58
243 87 58
242 87 58
242 87 58
241 87 58
240 87 58
240 86 57
239 86 57
237 86 57
237 85 57
236 85 57
234 85 56
233 84 56
232 84 56
230 83 56
228 83 55
227 82 55
225 81 54
223 81 54
220 80 54
218 79 53
215 78 52
211 77 52
206 75 50
203 74 49
196 71 47
165 82 60
97 109 88
81 114 92
81 114 92
82 115 93
82 115 93
82 115 93
82 116 94
82 115 93
82 116 94
82 116 94
82 115 93
81 114 92
82 115 93
82 115 93
82 116 94
82 116 94
82 116 93
83 117 94
83 117 95
83 117 95
166 113 52
183 115 42
196 121 45
199 120 44
208 125 46
214 129 48
216 130 49
223 135 51
222 134 50
226 134 50
226 133 50
225 133 50
230 137 51
229 136 51
234 140 53
234 141 53
232 140 52
235 142 54
243 149 57
240 147 56
235 144 54
237 145 55
238 144 55
235 145 55
234 145 55
235 146 55
232 145 55
231 145 55
229 144 55
223 140 53
229 143 54
220 138 52
219 137 52
219 138 52
215 136 52
217 137 52
204 130 49
203 129 49
207 131 50
199 128 48
195 124 47
198 126 48
187 119 45
189 119 45
184 115 44
177 111 42
162 103 39
151 99 37
145 94 36
137 89 33
134 95 47
82 115 93
80 113 91
81 115 93
81 114 93
81 114 93
82 117 95
82 115 93
82 116 94
82 116 94
82 116 94
82 117 95
82 116 94
82 117 95
83 117 95
83 117 95
83 117 95
83 117 95
83 117 95
83 117 95
84 118 95
83 118 95
83 117 95
83 117 95
82 116 94
83 117 95
83 117 95
83 117 95
83 117 95
83 117 95
83 117 95
83 118 96
84 118 96
83 117 94
83 117 95
82 116 94
83 117 95
83 117 95
83 118 95
83 117 95
83 117 94
83 117 95
83 117 95
83 117 95
83 117 95
83 117 95
83 117 95
83 118 96
83 118 95
83 118 96
83 117 94
83 117 95
83 117 95
83 117 95
83 117 95
106 123 100
179 156 133
192 165 140
195 168 143
203 175 149
208 178 153
209 180 154
213 184 158
219 186 160
222 192 168
219 188 162
219 189 164
224 194 169
223 195 170
227 198 173
229 200 175
223 195 170
227 198 173
223 196 171
226 198 173
229 201 176
225 190 165
220 104 79
226 80 51
220 78 50
222 79 51
219 78 50
218 77 50
218 77 50
218 78 50
215 77 49
211 75 48
208 74 48
208 74 47
207 74 48
205 73 47
201 72 46
200 71 46
197 71 46
195 70 45
191 69 44
187 68 44
185 67 43
176 64 41
176 64 42
169 62 40
165 61 40
154 57 37
151 57 37
142 54 35
141 98 85
137 130 116
115 123 106
82 116 95
83 117 95
83 117 95
82 117 95
82 116 94
82 116 94
82 117 95
83 117 95
83 118 96
82 116 94
82 116 95
82 117 95
82 116 95
82 117 95
83 117 96
83 117 96
83 117 96
82 116 94
83 117 95
83 117 95
83 117 95
83 117 95
82 117 95
83 117 95
82 117 95
83 117 95
82 117 95
82 117 95
83 118 96
83 117 95
83 117 96
82 116 95
82 117 95
83 117 96
83 117 96
83 117 95
82 117 95
82 117 95
82 117 95
83 117 95
83 117 95
83 117 96
82 116 95
82 117 95
83 117 95
83 117 95
82 117 95
83 117 95
83 117 95
83 117 95
83 117 96
82 116 95
82 117 95
82 117 95
82 117 95
82 117 95
82 117 95
83 117 95
82 117 95
83 117 95
82 117 95
82 117 95
82 117 95
82 117 95
82 117 95
82 117 95
82 117 95
82 117 95
82 117 95
82 117 95
82 116 95
82 116 95
82 117 95
82 116 95
83 117 95
82 117 95
82 117 95
82 116 95
82 117 95
82 117 95
82 117 95
82 117 95
83 117 95
82 117 95
82 116 95
82 116 94
82 116 95
82 117 95
82 116 95
82 117 95
82 117 95
82 116 95
82 117 95
82 116 95
82 117 95
82 116 95
82 117 95
82 117 95
82 116 95
82 117 95
82 116 95
82 116 95
82 117 95
82 116 95
82 117 95
82 116 95
82 116 95
82 117 95
82 117 95
82 116 95
86 121 98
85 120 98
85 121 98
85 120 98
85 120 97
86 121 97
85 121 98
85 120 98
85 121 98
85 121 98
85 121 98
86 121 98
85 121 98
85 121 97
86 121 98
85 120 97
85 120 97
85 121 98
85 121 98
85 121 98
86 121 98
85 121 98
85 121 98
85 121 98
85 120 98
86 121 98
86 121 98
85 120 97
85 120 97
85 120 97
85 120 97
85 121 98
85 121 98
86 121 98
85 120 97
85 120 97
85 121 98
85 121 98
85 121 98
86 121 98
85 120 97
85 120 97
85 121 98
86 121 98
85 120 97
85 120 97
94 118 95
142 109 80
140 106 77
140 106 77
143 108 80
141 106 77
146 111 82
142 107 79
144 109 80
142 108 78
140 106 77
145 109 80
145 110 81
146 110 81
145 109 80
139 105 75
142 108 79
144 109 79
145 109 80
143 108 79
144 109 80
145 110 80
144 109 80
144 109 80
144 109 80
142 108 79
140 106 76
143 108 79
143 108 79
142 107 78
143 108 79
143 108 79
145 109 80
146 110 81
144 109 80
143 108 79
144 109 80
143 108 79
142 107 79
141 107 78
144 109 80
142 108 79
146 109 80
136 103 76
121 94 71
119 92 69
117 90 68
121 94 71
118 91 68
116 89 67
114 88 66
124 95 72
117 91 68
114 88 65
114 89 66
117 91 68
115 90 68
113 88 65
116 90 68
117 91 68
114 89 66
115 89 67
114 87 65
113 88 65
115 89 66
116 90 68
114 88 66
114 89 66
114 89 67
118 91 69
116 90 68
115 90 67
109 85 63
115 89 67
115 89 66
108 85 63
111 86 64
100 110 88
85 120 97
85 120 97
85 119 97
85 120 97
85 120 97
85 120 97
85 121 98
85 120 97
85 120 97
85 120 97
85 120 97
85 120 97
85 120 97
84 119 96
85 120 97
85 120 97
85 120 97
85 120 97
85 120 97
84 119 97
85 119 97
85 120 97
85 120 97
85 120 97
85 120 97
85 120 98
85 119 97
85 120 97
85 120 97
85 120 97
85 119 97
85 120 97
85 120 97
85 120 97
85 120 97
85 120 97
85 120 98
85 121 98
85 120 97
85 119 97
85 120 97
85 119 96
85 120 97
84 118 96
85 120 97
85 120 97
84 119 97
85 120 97
85 120 97
84 119 96
84 119 96
84 119 96
84 119 96
84 119 97
85 120 97
84 119 96
85 119 97
85 120 97
85 120 97
84 119 96
85 119 97
85 120 97
84 119 97
85 119 97
84 119 96
85 120 97
84 118 95
84 119 97
85 120 97
84 119 96
84 118 95
84 118 96
84 119 96
85 120 97
84 119 97
84 118 96
85 120 97
84 118 96
83 117 95
84 118 96
83 118 95
84 118 96
84 119 96
64 77 100
58 55 110
59 55 111
61 58 116
61 58 116
62 58 118
64 60 121
64 60 121
65 61 123
65 61 125
65 62 125
65 62 126
66 62 126
65 62 126
66 62 126
66 63 126
68 64 127
73 69 128
80 75 131
86 81 133
90 84 134
87 82 133
81 76 131
73 69 127
67 64 125
65 62 124
64 61 124
64 61 123
63 60 123
63 60 122
63 60 122
62 59 121
62 59 121
62 59 120
61 58 119
61 58 118
60 57 117
60 57 116
59 56 114
59 55 112
58 54 110
57 52 107
56 51 103
55 49 100
54 49 99
51 46 94
48 45 91
46 47 83
70 95 79
73 99 78
71 98 76
71 97 75
70 95 74
69 94 73
67 91 70
65 89 69
62 85 66
56 76 58
54 73 57
51 69 53
45 62 48
45 62 49
42 57 45
136 62 44
219 78 52
228 81 54
233 83 55
235 84 55
241 86 57
244 87 57
244 87 58
245 88 58
245 88 58
245 88 58
245 88 58
245 88 58
244 88 58
244 88 58
244 88 58
243 87 58
243 87 58
243 87 58
242 87 58
241 87 58
240 86 57
239 86 57
238 86 57
237 85 57
236 85 57
235 85 56
233 84 56
232 84 56
230 83 56
229 83 55
228 82 55
226 82 55
223 81 54
221 80 54
220 80 53
217 79 53
214 78 52
210 76 51
203 74 49
197 71 47
190 69 46
151 88 67
84 114 92
83 116 93
81 115 93
82 116 93
81 113 91
82 116 94
82 115 93
82 115 92
82 116 94
82 116 93
83 116 94
82 116 93
83 117 94
83 117 94
83 117 95
82 116 94
82 116 94
82 116 94
83 117 95
154 115 64
184 116 43
189 117 43
200 122 46
201 121 45
206 123 46
212 127 48
216 129 48
210 126 47
223 131 49
224 133 50
221 132 49
225 135 51
226 135 51
223 134 50
226 135 51
227 137 52
235 139 52
235 141 53
229 138 52
232 144 54
229 140 53
229 140 53
229 143 54
229 142 53
228 142 53
223 140 52
228 143 54
223 139 52
223 140 53
221 139 53
218 137 52
214 135 51
210 132 49
211 133 50
208 131 49
205 130 49
206 131 50
196 126 47
194 124 47
191 122 46
185 118 44
188 119 45
177 113 43
173 111 42
162 103 38
153 98 37
148 96 36
143 93 35
142 93 35
119 94 54
80 112 91
80 114 92
80 113 92
81 114 93
81 114 93
80 114 93
81 114 93
81 115 93
82 116 94
81 114 93
81 115 93
82 115 94
82 116 94
81 115 94
82 116 95
82 116 94
83 117 95
83 116 94
83 117 94
83 117 95
83 117 95
83 117 95
83 117 95
83 117 94
83 117 95
83 117 95
83 117 95
83 117 94
83 117 95
83 118 95
83 117 95
83 118 96
83 117 95
83 117 95
83 117 95
83 117 94
84 118 96
83 117 95
83 117 95
83 117 95
83 117 95
83 118 95
82 116 94
83 117 95
83 117 95
83 118 96
83 117 95
83 117 94
83 117 95
83 117 94
83 117 95
83 117 95
83 117 95
83 117 95
102 122 99
175 151 127
187 163 138
195 167 140
197 170 145
204 175 149
208 177 150
209 178 152
214 184 157
211 181 154
217 186 160
224 194 169
222 193 168
219 190 165
220 191 166
223 194 169
224 196 170
223 194 169
225 198 173
223 194 169
222 189 164
221 116 93
221 79 50
219 78 50
218 77 49
222 79 51
215 76 48
212 75 48
213 76 48
215 77 49
210 75 48
210 75 48
210 75 48
203 72 46
202 72 46
200 72 46
199 71 46
200 72 46
198 71 46
190 68 44
187 68 43
180 65 42
182 66 42
175 64 41
166 61 39
160 59 38
161 60 39
154 57 37
139 52 34
132 51 33
133 116 102
133 126 112
104 117 99
82 116 94
82 117 95
81 116 94
82 116 94
82 117 95
82 116 95
82 116 95
82 117 95
82 116 94
83 117 95
82 117 95
82 116 95
82 116 94
82 116 94
82 117 95
83 117 95
82 116 95
82 115 94
83 117 95
83 117 95
82 116 95
82 117 95
82 116 94
83 117 95
83 117 95
83 117 95
82 116 94
83 117 95
83 117 95
83 117 95
83 116 95
83 117 95
82 117 95
83 117 95
82 117 95
83 117 95
82 117 95
82 117 95
82 117 95
83 117 95
82 117 95
82 117 95
82 117 95
82 117 95
83 117 96
83 117 95
82 117 95
82 117 95
83 117 96
82 117 95
82 117 95
82 117 95
82 116 95
82 117 95
83 117 95
82 117 95
82 116 95
82 117 95
82 117 95
82 117 95
82 117 95
82 117 95
82 116 95
82 117 95
83 117 95
82 117 95
82 116 95
82 117 95
82 117 95
83 117 95
82 116 95
83 117 95
82 117 95
82 116 95
82 117 95
82 117 95
83 117 95
82 116 95
82 117 95
82 117 95
82 117 95
82 117 95
82 117 95
82 117 95
82 117 95
82 117 95
82 117 95
82 117 95
82 117 95
82 117 95
82 117 95
82 116 95
82 116 95
82 117 95
82 116 95
82 116 95
82 117 95
82 116 95
82 117 95
82 116 95
82 116 95
82 116 95
82 116 95
82 117 95
82 116 95
82 116 95
82 117 95
82 116 95
82 117 95
82 116 95
85 121 98
86 121 98
86 121 98
86 121 98
85 121 98
86 121 98
85 121 98
86 121 98
85 121 98
85 120 97
85 121 98
85 120 98
85 120 98
85 121 98
86 121 98
85 120 98
85 121 98
86 121 98
85 120 97
85 121 98
86 121 98
86 121 98
86 121 98
85 121 98
85 121 98
85 121 98
85 120 98
86 121 98
86 121 98
86 121 98
85 121 97
86 121 98
85 121 98
86 121 98
85 121 98
85 121 98
86 121 98
86 121 98
86 121 98
85 121 98
85 120 98
86 121 98
86 121 98
85 120 97
85 120 97
86 121 98
91 119 96
142 109 80
146 110 81
143 109 79
144 109 80
142 108 79
143 108 79
145 110 81
144 109 80
143 108 79
144 109 80
139 106 77
144 108 79
141 107 78
147 111 82
145 110 81
145 110 81
144 109 80
142 108 79
143 108 78
144 109 79
146 110 81
142 107 78
145 110 80
143 107 79
145 109 81
144 109 80
142 108 79
145 110 81
146 111 81
144 109 80
141 107 78
146 110 81
145 109 80
146 110 82
146 110 81
145 110 81
143 109 80
145 110 81
144 109 80
146 110 81
146 110 81
145 109 80
137 104 75
118 91 68
117 91 67
121 94 71
114 89 66
116 90 67
112 87 65
114 87 65
118 91 68
115 88 66
117 90 68
114 89 66
115 89 66
119 92 70
115 89 67
117 91 68
114 89 66
117 90 68
116 90 67
112 87 65
117 90 67
115 89 66
119 93 70
114 89 66
112 88 65
116 90 67
113 88 66
113 88 65
113 89 66
111 87 64
110 86 64
115 90 67
112 87 65
108 84 62
98 106 84
85 120 97
84 119 96
85 120 97
86 121 98
85 120 97
85 119 97
85 120 97
85 120 97
85 120 97
85 120 97
85 120 97
86 121 98
85 120 97
85 120 97
85 120 97
85 120 97
85 120 97
85 121 98
85 120 97
85 120 97
85 120 97
85 120 97
85 120 97
85 120 97
85 120 97
85 119 97
84 119 96
85 120 97
85 120 98
85 120 97
85 120 97
84 119 96
85 120 97
85 120 97
84 119 96
85 120 97
85 120 97
85 120 97
85 120 98
85 120 97
85 120 97
85 119 97
85 120 97
84 119 96
85 120 97
84 119 96
85 120 97
85 120 97
85 120 97
85 120 97
85 119 97
85 120 98
85 120 97
84 119 96
85 119 96
85 119 97
85 119 97
85 120 97
85 120 97
85 120 97
85 120 97
85 120 97
85 120 97
84 118 96
84 118 95
84 119 96
85 120 97
84 119 96
84 119 96
84 118 96
84 119 97
84 119 96
84 118 95
84 118 96
84 119 96
84 119 97
84 118 96
84 118 96
84 119 96
84 119 96
84 119 96
84 118 95
79 109 97
56 55 103
58 55 110
59 55 111
61 57 115
62 58 117
62 59 118
63 59 120
64 60 121
64 61 123
65 61 123
65 62 125
65 62 125
66 62 126
66 62 126
66 62 126
68 64 127
74 70 129
87 81 133
106 99 141
122 113 149
124 115 150
118 110 147
102 96 139
85 79 132
72 68 127
67 63 125
64 61 124
64 61 123
63 60 123
63 60 122
63 60 122
62 59 121
62 59 121
62 59 120
61 58 119
61 58 118
60 57 117
60 56 114
60 55 112
59 54 111
59 53 108
57 51 104
57 51 103
55 50 102
54 47 95
51 46 92
48 43 88
45 41 84
57 73 79
72 99 77
72 98 77
73 101 79
72 99 77
73 100 78
69 94 73
72 98 77
69 93 72
68 92 71
69 94 73
69 93 72
68 92 72
66 89 69
107 86 66
209 76 51
226 80 53
232 82 54
232 82 54
238 85 56
243 86 57
244 87 58
244 87 58
244 88 58
246 88 58
246 88 58
246 88 58
246 88 58
245 88 58
245 88 58
244 88 58
244 88 58
243 87 58
243 87 58
242 87 58
241 87 58
241 87 57
239 86 57
239 86 57
238 86 57
236 85 57
235 85 56
234 84 56
233 84 56
230 83 56
229 83 55
228 82 55
226 82 55
225 81 54
223 81 54
221 80 53
218 79 53
214 78 52
210 76 51
207 75 50
201 72 48
194 69 46
185 67 45
129 97 76
82 115 93
82 114 92
81 115 93
82 116 94
83 117 94
81 114 92
82 116 93
81 115 93
82 115 93
83 115 93
83 115 93
82 115 93
83 117 94
83 116 93
82 115 93
83 116 94
82 115 93
83 117 95
127 109 70
173 110 40
187 116 43
195 118 44
197 119 44
204 121 45
207 125 46
207 123 46
211 126 47
216 128 48
210 125 46
218 129 48
213 126 47
220 131 49
224 134 50
224 134 50
229 137 51
222 134 50
227 138 52
226 136 51
225 138 51
227 139 52
227 141 53
224 138 52
224 139 52
222 139 52
227 142 53
220 137 51
213 134 50
219 138 52
215 135 51
213 134 51
212 134 50
207 131 49
208 132 50
208 132 50
204 130 49
192 123 46
191 122 46
195 125 47
190 122 46
180 115 43
177 112 42
170 109 40
167 105 39
155 101 38
141 93 34
140 92 34
137 89 33
128 85 31
108 95 63
78 111 91
79 112 92
78 110 90
78 110 90
79 112 91
79 112 91
80 113 92
80 113 92
81 114 93
80 114 92
81 115 93
80 113 91
81 115 94
81 115 94
81 115 93
82 116 94
82 116 94
82 116 94
82 117 95
83 116 94
82 117 95
83 116 94
83 117 95
83 117 95
83 117 95
83 118 95
83 118 95
83 117 95
83 118 95
83 117 95
83 117 95
83 117 94
83 117 95
84 118 96
83 117 95
83 117 95
83 117 95
83 117 95
83 117 95
83 117 95
84 118 95
83 118 95
83 117 95
83 116 94
83 116 94
84 118 95
83 118 95
83 116 94
83 117 96
82 116 94
82 116 94
83 118 95
83 117 95
83 117 95
94 120 97
168 147 123
178 154 129
185 161 135
197 169 143
197 171 145
201 174 148
207 177 151
211 180 154
209 181 155
213 184 158
214 185 158
214 187 161
216 188 162
215 186 160
221 191 166
222 193 167
217 190 164
223 196 171
224 188 164
215 109 85
213 76 48
216 76 49
217 77 49
214 76 48
214 76 48
214 76 49
209 74 47
207 74 47
208 74 47
211 75 48
206 73 47
200 71 45
201 71 45
199 71 46
195 70 45
195 70 45
190 68 44
188 68 43
186 67 43
184 67 43
178 64 41
175 64 41
165 61 39
164 60 38
164 60 39
155 57 37
144 54 35
140 53 34
130 84 71
128 123 109
128 122 107
94 115 95
81 115 93
81 115 93
80 114 93
81 115 93
81 115 94
81 115 94
81 115 94
82 116 94
81 115 94
81 115 94
81 115 93
82 116 94
81 115 94
82 116 94
82 116 94
83 117 95
81 116 94
82 116 95
82 116 95
83 117 95
82 117 95
83 117 95
83 117 95
83 117 95
82 117 95
82 117 95
82 117 95
82 116 95
82 117 95
83 117 95
82 117 95
83 117 95
82 117 95
83 117 95
83 117 95
83 117 95
83 117 95
83 117 95
82 116 94
82 116 95
82 116 95
82 117 95
82 116 95
83 117 95
83 117 95
83 117 95
83 117 96
82 117 95
82 117 95
83 117 96
82 117 95
82 117 95
82 117 95
83 117 95
82 117 95
82 117 95
82 117 95
83 117 95
83 117 95
82 117 96
83 117 95
83 117 95
82 116 95
82 117 95
82 117 95
83 117 95
82 117 95
83 117 95
82 116 95
82 117 95
82 117 95
82 117 95
82 117 95
82 117 95
82 117 95
82 117 95
82 117 95
82 117 95
82 116 95
82 116 95
82 117 95
82 117 95
82 116 95
82 117 95
82 117 95
82 116 95
82 117 95
82 117 95
82 116 95
82 116 95
82 117 95
82 116 95
82 116 95
82 117 95
82 117 95
82 116 95
82 117 95
82 117 95
82 116 95
82 117 95
82 116 95
82 116 95
82 116 95
82 117 95
82 117 95
82 117 95
82 117 95
82 117 95
82 117 95
82 117 95
86 121 98
85 121 98
86 121 98
86 121 98
86 121 98
85 120 97
86 121 98
85 121 98
86 121 98
85 121 98
85 120 97
86 121 98
85 121 98
86 121 98
85 121 98
86 121 98
86 121 98
85 120 97
86 121 98
85 121 98
85 120 97
85 120 97
85 121 98
86 121 97
85 121 98
86 121 98
85 120 98
85 120 97
86 121 98
86 121 97
85 120 98
85 121 98
86 121 98
85 120 98
86 121 98
86 121 98
86 121 98
85 120 97
86 121 98
85 120 97
85 120 97
85 121 98
85 120 97
85 120 97
85 120 97
85 120 97
89 120 97
140 109 81
140 107 78
143 108 79
143 108 79
139 106 77
145 110 80
144 109 80
144 109 80
145 110 81
146 111 82
143 109 79
143 108 80
142 107 78
141 107 78
140 106 77
143 109 79
139 106 77
141 107 78
145 110 81
146 110 81
144 109 80
142 107 78
144 109 80
145 109 80
148 111 82
145 110 81
147 110 81
144 109 80
148 111 82
145 109 80
141 106 77
145 109 80
142 107 78
144 109 80
145 109 80
146 110 81
145 109 80
143 108 79
146 110 81
142 107 78
146 110 82
144 109 80
147 111 82
120 93 70
117 90 67
116 90 67
118 91 69
121 94 71
117 90 67
118 92 69
118 91 68
118 91 68
114 87 65
122 94 71
116 89 67
116 89 67
112 88 65
114 88 66
117 91 69
115 90 67
115 89 67
120 93 71
115 89 67
114 88 66
114 88 66
112 88 65
116 89 66
115 88 66
116 89 67
110 86 64
112 87 65
118 91 69
112 87 65
113 88 65
115 89 67
116 90 68
103 103 81
85 120 97
85 119 97
85 119 96
85 120 98
85 121 98
85 119 96
85 120 97
85 120 97
85 120 97
85 120 97
85 120 97
85 119 97
85 120 97
84 119 96
85 120 97
85 120 97
85 119 97
85 120 97
85 120 98
85 119 97
85 120 97
85 119 97
85 120 97
85 120 97
85 120 97
85 121 98
85 120 97
84 119 97
85 120 97
85 120 97
85 120 97
85 120 97
84 119 96
85 120 97
85 120 97
85 120 97
85 119 96
84 119 96
85 120 97
84 119 96
85 120 97
85 120 97
84 119 97
85 120 97
85 119 97
85 120 97
85 120 97
85 120 98
84 118 95
84 119 96
85 120 97
85 120 97
85 120 97
84 120 97
85 119 96
84 119 97
85 120 97
85 119 97
85 119 97
84 119 96
85 119 96
85 120 97
84 119 96
84 119 96
85 119 96
85 120 97
85 119 97
85 119 96
84 118 96
85 120 97
85 120 97
84 119 96
84 119 96
84 119 96
84 119 96
84 119 96
84 119 96
84 119 96
84 119 97
84 119 97
85 120 97
83 117 95
70 90 98
56 53 106
58 54 108
59 56 111
61 57 115
62 58 117
62 59 118
63 59 119
63 60 120
64 61 122
64 61 122
64 61 123
65 62 125
65 62 124
65 62 125
67 63 126
71 67 127
85 80 132
110 102 143
138 128 157
159 148 169
165 153 172
152 141 164
128 118 151
101 95 138
80 75 129
69 65 125
65 62 124
64 61 123
63 60 123
63 60 122
63 60 122
62 59 121
62 59 120
62 59 120
61 58 119
61 58 117
60 57 115
60 56 113
60 55 110
59 53 109
58 52 107
57 51 103
57 48 97
55 49 101
54 48 98
51 45 92
50 43 87
46 42 85
44 47 77
74 102 81
74 102 80
74 102 80
75 103 82
73 101 79
74 102 80
72 100 78
72 99 77
71 98 76
71 98 77
71 98 76
71 97 75
80 98 77
184 79 56
221 78 52
228 81 53
231 82 54
235 84 55
240 85 56
241 86 57
245 87 58
246 88 58
245 88 58
246 88 58
246 88 58
246 88 58
245 88 58
246 88 58
246 88 58
245 88 58
244 88 58
244 87 58
243 87 58
242 87 58
242 87 58
241 87 57
240 86 57
239 86 57
238 86 57
237 85 57
235 85 56
235 84 56
233 84 56
232 84 56
230 83 55
228 82 55
227 82 55
225 81 54
223 81 54
220 80 53
219 79 53
214 78 52
212 77 51
209 76 51
202 73 49
196 71 47
190 68 46
177 67 46
98 110 88
82 115 93
82 115 92
82 115 93
82 116 94
81 113 91
82 116 93
81 114 92
83 116 94
82 115 93
82 116 93
82 115 93
82 116 93
83 116 94
83 116 94
82 115 93
83 117 94
83 116 94
108 112 83
171 109 41
181 113 42
185 115 42
193 116 43
193 115 42
198 116 43
197 117 43
207 122 45
208 121 45
208 123 45
208 124 46
216 129 48
216 128 47
217 130 49
221 131 49
219 130 48
226 134 50
224 133 50
222 134 50
218 135 50
218 133 49
221 137 51
218 135 51
218 136 51
219 137 51
220 138 52
222 139 53
213 134 50
214 134 50
209 132 49
211 133 50
201 127 47
204 129 49
203 128 48
200 126 47
195 124 46
194 124 46
190 122 46
184 118 44
180 115 43
182 116 43
167 108 40
163 106 39
154 100 37
146 95 35
138 92 34
132 87 31
128 85 31
133 86 31
92 100 75
75 107 88
75 107 88
76 108 89
77 109 89
76 109 90
78 111 91
78 110 90
79 111 90
79 112 91
79 111 91
80 113 92
80 113 92
80 114 92
80 113 92
81 114 93
81 115 93
81 115 93
81 115 93
82 115 93
82 116 93
82 116 94
82 116 94
83 117 95
83 118 95
83 118 95
83 116 94
83 116 94
83 117 95
83 118 95
83 117 95
83 117 95
83 117 95
83 117 95
83 117 95
83 117 95
83 117 94
83 117 94
83 117 95
83 117 94
82 116 94
82 116 94
83 117 95
82 116 94
83 117 95
83 118 96
83 117 95
83 117 95
83 118 95
82 116 94
83 118 95
83 117 95
83 117 95
83 117 95
83 117 95
87 119 97
159 142 118
178 153 127
187 162 136
189 164 138
195 165 138
199 171 145
204 174 147
206 177 151
207 179 151
209 182 155
207 180 153
212 183 157
209 182 155
215 187 161
214 187 161
213 186 159
213 185 159
213 171 146
211 98 75
216 76 48
213 75 48
216 76 48
210 74 47
210 75 47
211 75 48
206 73 46
206 73 47
209 74 47
208 74 47
204 73 46
202 72 46
201 72 46
199 71 45
195 70 44
195 70 45
192 69 44
190 69 44
186 67 43
180 65 42
179 65 41
178 65 41
168 61 39
168 61 39
162 60 38
149 55 35
142 53 34
140 53 34
131 52 35
123 109 94
119 116 100
123 119 104
90 114 95
79 113 92
80 114 93
79 112 91
79 112 91
79 113 93
80 113 93
80 113 92
80 114 93
80 114 93
80 114 93
81 115 94
81 115 93
81 115 94
81 115 94
81 115 94
81 115 94
82 116 94
82 116 94
82 117 95
82 116 95
82 117 95
82 116 94
82 116 95
82 116 94
82 117 95
82 116 94
83 118 96
83 117 95
82 117 95
82 117 95
82 117 95
82 117 95
82 117 95
82 117 95
82 117 95
83 117 95
83 117 95
83 117 95
83 117 95
82 117 95
83 117 95
82 117 95
82 117 95
83 117 95
82 117 95
83 117 95
83 117 95
83 117 95
83 118 96
82 116 95
82 117 95
82 117 95
82 117 95
83 117 95
82 117 95
82 117 95
82 117 95
83 117 96
83 117 95
82 117 95
82 116 95
83 117 95
83 117 95
82 116 95
83 117 95
82 117 95
82 117 95
82 116 95
82 117 95
82 117 95
82 116 94
82 117 95
82 116 95
82 117 95
82 116 95
82 117 95
83 117 95
82 117 95
82 116 95
82 117 95
82 116 95
82 117 95
82 117 95
82 116 95
82 117 95
82 116 95
82 117 95
82 117 95
82 116 95
82 117 95
82 117 95
82 117 95
82 116 95
82 117 95
82 116 95
82 117 95
82 116 94
82 117 95
82 116 95
82 116 95
82 116 95
82 116 95
82 117 95
82 117 95
82 116 95
82 117 95
82 116 95
82 116 95
82 116 95
82 116 95
85 121 98
85 121 98
85 120 97
86 121 98
85 121 98
86 121 98
86 121 98
86 121 98
86 121 98
86 121 98
86 121 98
86 121 98
86 121 98
86 121 98
86 121 98
86 121 98
85 120 97
86 121 98
86 121 98
86 121 98
85 120 97
85 120 97
86 121 98
86 121 98
86 121 98
85 121 98
86 121 98
86 121 98
85 121 98
86 121 98
86 121 98
86 121 98
85 121 98
86 121 98
86 121 98
86 121 98
85 121 98
86 121 98
85 121 98
86 121 98
85 120 97
86 121 98
85 121 98
86 121 98
85 121 98
85 120 97
86 120 97
130 108 81
142 108 79
140 106 77
141 107 78
143 108 79
145 109 80
143 109 80
142 107 78
138 105 75
139 106 77
144 109 80
140 106 78
141 107 78
139 106 77
144 109 80
141 107 78
142 108 79
146 110 81
144 109 80
144 109 80
146 110 81
144 109 80
143 108 79
142 107 78
142 107 78
142 108 79
143 107 78
146 110 81
143 108 79
144 109 80
144 109 80
145 109 81
143 108 79
143 108 79
144 108 79
143 108 79
144 109 81
148 111 82
146 110 81
146 110 81
143 108 78
139 104 75
144 109 80
119 92 68
118 92 69
117 90 67
116 89 67
112 86 64
117 90 67
115 89 66
119 92 69
113 87 65
113 87 64
112 87 64
115 89 66
115 88 65
115 89 67
113 87 65
114 89 66
115 90 67
117 91 69
112 87 65
113 88 65
118 92 69
112 86 63
114 89 66
112 87 64
116 90 68
113 88 65
113 88 65
110 86 64
116 91 68
115 89 66
111 87 65
114 89 66
116 90 67
105 104 81
85 120 97
85 121 98
84 119 97
85 120 97
85 120 97
85 120 97
85 120 97
85 120 98
85 120 97
85 120 97
86 121 98
85 120 97
86 121 98
85 120 97
85 120 97
85 120 97
85 120 97
85 120 97
85 121 98
85 119 97
85 120 97
85 120 97
85 120 97
85 120 97
85 120 98
85 120 97
85 120 97
85 120 97
85 120 97
85 120 97
85 120 97
85 120 97
85 120 97
85 120 97
85 120 97
85 119 97
85 120 97
85 119 96
85 119 97
85 120 97
85 120 97
85 120 97
85 120 97
85 120 97
85 120 97
85 120 97
85 119 97
85 120 97
86 121 98
84 119 97
85 120 97
85 120 97
85 120 97
85 120 97
84 119 96
85 120 97
85 120 97
85 120 97
85 120 97
84 119 96
85 120 97
84 118 96
85 119 97
84 119 96
84 118 95
85 119 96
85 119 96
84 118 95
84 119 96
85 119 97
84 118 96
85 120 97
84 118 96
84 119 96
85 120 97
85 120 97
84 118 96
84 118 96
84 119 96
84 118 96
84 119 96
81 114 93
59 66 98
55 52 103
58 55 110
59 55 110
61 57 115
62 58 116
62 58 117
63 59 119
63 59 119
63 59 119
64 60 122
64 61 122
65 61 123
65 61 124
65 62 124
68 64 126
77 72 128
98 91 137
131 121 153
168 155 173
191 176 187
197 182 190
179 165 179
147 136 161
112 104 143
85 80 131
71 67 125
65 62 124
64 61 123
63 60 121
63 60 122
63 60 121
62 59 121
62 59 119
62 59 119
61 58 118
61 57 116
60 56 114
60 55 112
59 54 109
59 52 105
58 52 106
57 49 100
56 49 100
55 48 97
53 46 92
51 44 89
49 43 88
47 41 83
41 37 75
65 87 82
75 104 83
77 106 85
76 105 83
76 105 83
75 103 81
75 104 82
75 103 81
75 104 82
75 104 82
74 102 80
75 103 81
138 92 70
214 77 51
223 79 52
231 82 54
233 82 54
237 85 56
239 85 56
245 87 57
246 88 58
246 88 58
247 88 58
247 88 58
246 88 58
247 88 58
247 88 58
245 88 58
245 88 58
245 88 58
245 88 59
245 88 59
243 88 59
243 88 58
243 87 58
242 87 58
241 86 57
239 86 57
239 86 57
238 86 57
236 85 56
235 85 56
234 84 56
232 84 56
230 83 55
228 82 55
227 82 55
226 82 54
223 81 54
222 80 53
220 79 53
216 78 52
211 76 51
209 76 51
204 74 49
197 71 47
194 70 47
184 65 43
153 78 58
83 116 93
82 115 92
82 114 92
82 116 94
82 115 93
82 116 94
82 116 93
83 117 94
82 115 92
82 115 93
83 117 95
81 113 91
82 116 93
83 116 94
82 116 94
82 114 92
82 115 93
87 113 90
156 103 43
174 109 40
177 110 40
186 114 42
188 113 41
195 117 43
194 114 42
204 121 45
201 119 44
197 117 43
208 124 46
207 121 44
209 124 46
210 124 45
216 129 48
210 125 46
216 130 48
216 130 48
212 129 47
216 131 48
215 132 49
215 133 49
215 132 49
203 127 46
218 136 51
215 134 50
214 134 50
215 135 51
207 130 49
204 128 48
203 128 48
204 129 48
194 123 45
202 128 48
190 121 45
190 121 45
185 119 44
186 119 45
175 113 42
168 109 40
167 109 40
158 103 37
156 100 37
154 100 37
141 91 33
122 82 29
131 86 31
125 84 30
121 81 30
78 101 81
73 104 86
74 105 87
74 106 87
75 107 88
74 105 86
75 107 88
77 109 89
76 108 88
77 108 88
77 110 90
78 110 90
78 110 90
78 111 90
79 112 91
80 113 92
80 114 92
80 114 92
81 114 93
81 114 93
82 116 95
82 115 93
82 116 94
82 116 94
83 117 95
83 117 95
83 117 95
83 117 95
84 118 96
83 117 95
83 117 94
83 117 95
83 117 94
83 117 95
83 117 94
83 117 95
84 118 95
84 118 95
83 118 95
83 116 94
83 117 94
83 117 95
84 118 96
83 117 95
83 117 95
83 118 95
83 116 94
83 116 94
82 116 94
82 116 94
83 116 94
82 116 94
82 116 94
83 117 95
83 116 94
83 116 94
147 135 112
172 148 123
178 153 127
185 160 134
188 164 137
200 171 145
204 175 149
198 171 144
200 174 147
205 177 150
209 181 154
209 181 155
208 181 154
209 182 155
208 181 155
211 184 157
209 160 135
213 90 65
209 74 46
205 73 46
203 72 45
205 73 46
204 73 45
203 72 45
210 74 47
203 72 45
202 72 45
202 72 46
201 72 45
194 69 44
193 69 43
190 68 43
196 70 44
190 68 43
193 70 45
188 68 43
182 66 42
177 64 41
179 65 41
171 62 39
171 63 40
169 62 39
160 59 37
156 57 36
149 55 35
139 52 33
134 51 32
130 85 71
120 116 100
122 118 102
116 115 98
80 111 91
77 110 90
78 111 91
77 110 91
78 111 91
78 111 90
78 111 91
79 112 91
78 112 91
79 112 91
79 112 91
79 113 92
80 113 92
80 113 92
80 114 93
80 114 93
81 115 94
81 115 93
81 115 94
81 116 94
81 115 94
82 116 94
82 117 95
82 116 94
82 117 95
82 116 95
82 116 94
83 117 95
83 117 96
83 117 95
82 117 95
82 117 95
83 117 95
82 116 95
83 117 95
82 116 94
83 117 95
83 117 95
83 117 95
83 117 95
83 117 95
82 117 95
83 117 95
83 118 96
83 117 95
83 117 95
83 117 95
82 117 95
83 117 95
82 117 95
82 117 95
83 117 95
83 117 95
82 117 95
83 118 96
82 117 95
82 117 95
82 117 95
83 117 95
83 117 95
82 117 95
82 117 95
82 117 95
82 117 95
82 117 95
82 117 95
82 117 95
82 117 95
83 117 95
82 116 95
82 117 95
82 117 95
82 116 95
82 116 95
82 117 95
82 117 95
82 117 95
82 117 95
83 117 95
82 116 95
82 117 95
82 117 95
82 117 95
83 117 95
83 117 95
83 117 95
82 116 95
82 116 95
82 116 95
82 117 95
82 117 95
82 116 95
82 117 95
82 117 95
82 117 95
83 117 95
82 117 95
82 117 95
82 116 95
82 116 95
82 117 95
82 117 95
82 116 95
82 116 95
82 116 95
82 117 95
82 117 95
82 117 95
82 116 95
82 116 95
82 117 95
86 121 98
85 121 98
85 120 98
85 121 98
85 120 97
86 121 98
86 121 98
86 121 98
85 120 97
86 121 98
85 121 98
86 121 98
86 121 98
86 121 98
86 121 98
86 121 98
85 121 98
85 120 97
86 121 98
86 121 98
86 121 98
86 121 97
86 121 98
86 121 98
86 121 98
86 121 98
85 121 98
85 120 98
86 121 98
86 121 98
86 121 98
85 120 97
86 121 98
85 120 98
86 121 98
86 121 98
86 121 98
86 121 98
86 121 98
85 121 98
85 120 97
86 121 98
85 120 97
85 121 98
86 121 98
85 121 98
85 121 98
134 112 85
142 108 78
142 108 79
146 111 81
147 111 82
143 108 80
142 108 79
143 108 79
144 109 80
145 109 80
143 108 79
142 108 79
142 107 78
142 108 79
142 107 78
143 108 79
142 107 78
145 110 81
143 108 80
143 108 80
143 108 79
144 109 80
144 108 79
147 111 82
144 108 79
143 108 79
141 106 77
145 109 80
142 108 79
142 108 78
142 108 79
146 110 81
142 108 79
144 108 79
144 109 80
138 105 76
146 110 81
142 107 78
146 110 81
141 106 78
145 109 80
142 107 78
144 108 80
118 91 68
115 89 67
122 94 71
119 92 69
115 89 66
115 89 66
115 90 67
117 91 68
115 90 67
118 91 69
113 88 65
115 89 66
116 90 66
114 89 66
117 90 67
113 88 65
115 89 66
119 91 69
108 85 63
111 86 64
115 89 67
113 87 65
112 87 65
115 90 67
115 90 67
116 90 68
115 90 67
114 89 66
111 86 63
115 90 67
117 90 68
107 84 62
114 89 66
104 102 81
85 120 97
85 120 97
85 120 97
85 119 96
85 120 97
85 120 97
85 120 97
85 120 97
85 120 97
85 120 97
85 120 97
85 120 97
85 120 97
85 120 97
85 120 97
85 120 97
85 120 97
85 120 97
86 121 98
85 120 97
85 120 97
85 120 97
84 119 96
85 120 97
85 120 97
85 120 97
85 120 97
85 120 97
85 119 97
85 119 97
85 120 97
85 120 97
85 120 97
85 120 97
84 119 96
84 119 96
85 120 97
84 118 95
84 119 97
84 119 96
85 120 97
85 120 97
85 120 98
85 120 97
85 121 98
84 119 96
85 120 97
84 119 97
85 120 97
85 120 97
85 120 97
85 120 97
85 120 97
84 119 97
84 119 96
85 120 97
85 120 97
84 119 97
84 119 96
85 119 97
85 120 97
85 119 97
85 119 97
85 119 97
85 120 97
84 119 96
84 120 97
84 119 96
84 119 96
84 119 97
84 118 96
84 119 96
84 118 96
84 119 96
84 118 96
84 118 96
84 119 96
84 118 95
84 118 96
85 120 97
84 118 96
78 107 96
53 50 100
56 53 106
57 53 105
59 56 111
60 57 114
61 58 116
62 58 115
62 58 117
63 59 119
63 60 120
64 60 121
64 60 122
64 61 122
65 61 123
65 61 123
68 64 124
79 74 129
103 96 139
140 130 157
177 163 178
200 185 192
203 187 194
183 169 182
148 137 161
113 105 142
85 80 131
70 66 125
65 62 123
63 60 122
63 60 121
84 77 126
159 141 151
186 165 165
204 181 172
199 176 168
192 169 164
157 138 147
110 97 127
61 56 112
59 53 108
59 52 105
58 52 105
57 50 102
56 49 99
55 47 96
53 45 90
52 44 88
48 41 82
46 41 82
42 36 73
52 65 73
78 108 86
78 108 85
77 107 86
77 107 85
75 104 83
76 106 84
75 104 82
76 105 83
76 105 83
76 106 84
91 101 79
195 75 51
214 76 50
224 79 52
227 80 53
232 82 54
237 84 55
241 86 56
243 86 57
246 88 58
246 88 58
247 88 58
247 88 58
247 88 58
247 88 58
246 88 58
246 88 58
247 89 59
246 90 61
247 91 62
246 92 63
246 92 62
244 90 61
243 88 59
241 87 58
240 86 57
240 86 57
238 86 57
237 85 57
236 85 56
234 84 56
233 84 56
232 84 56
231 83 55
230 83 55
227 82 55
226 81 54
223 81 54
222 80 53
220 79 53
217 78 52
212 77 51
208 75 50
203 73 49
197 71 48
191 69 46
187 66 43
172 61 40
111 105 84
82 115 92
81 114 91
82 116 93
82 115 92
82 115 93
82 115 93
82 115 93
83 116 94
82 115 93
82 116 94
82 115 93
83 116 93
83 116 94
83 117 94
82 115 93
83 116 93
82 114 92
129 99 56
158 100 36
174 108 39
180 110 40
180 108 39
183 109 39
186 110 40
192 113 42
191 113 41
195 115 42
196 115 42
204 121 44
206 122 45
202 120 43
207 123 45
210 125 46
210 127 47
211 127 46
206 125 46
209 127 46
211 129 48
210 130 48
211 132 49
213 133 49
211 132 49
203 128 47
203 128 47
205 129 48
203 129 48
196 124 46
198 125 46
193 122 45
187 119 44
186 118 44
184 118 43
181 116 43
181 116 43
178 115 43
169 109 40
164 106 39
163 107 39
150 99 36
152 98 36
140 91 33
129 86 31
130 85 30
129 85 31
129 85 31
113 85 48
69 100 83
70 100 83
70 101 84
70 101 84
71 102 84
72 104 86
73 105 86
74 105 86
74 105 86
74 106 86
76 109 90
77 109 89
77 109 89
77 109 89
78 111 91
78 111 91
79 112 92
79 112 91
80 113 91
82 116 95
82 116 94
81 114 92
82 115 93
82 116 94
82 115 93
83 116 94
82 116 94
83 117 94
83 116 94
83 117 95
83 117 94
83 117 94
83 117 95
84 118 95
83 117 95
83 117 94
83 117 94
83 117 94
83 117 94
83 117 94
83 117 95
83 116 94
83 117 94
83 116 94
83 118 96
82 115 93
83 116 94
83 116 94
83 116 94
83 117 94
82 116 94
82 117 95
83 116 94
83 117 95
82 117 95
83 116 94
122 125 102
162 143 118
173 150 124
179 152 125
186 159 131
190 165 139
193 168 142
196 169 141
199 172 144
198 172 144
206 177 150
202 175 148
205 178 151
205 179 151
206 178 151
202 137 112
210 81 56
206 73 46
204 72 45
202 72 45
201 71 45
206 73 46
201 72 45
199 71 44
203 72 46
202 72 45
196 70 44
201 72 45
195 70 44
195 70 44
194 69 44
187 67 42
188 67 42
185 67 42
186 67 42
181 65 41
178 65 41
177 64 40
172 62 39
165 60 38
165 60 38
156 57 36
150 56 35
147 54 34
144 54 34
132 50 32
130 53 35
120 109 93
119 115 98
119 115 98
108 112 95
74 106 87
75 108 89
75 107 89
75 108 89
76 109 90
77 110 90
77 109 90
77 109 90
78 111 91
78 111 90
78 112 91
78 111 91
78 112 91
79 112 92
79 112 92
79 113 92
80 113 92
80 114 93
81 115 94
80 114 93
81 116 94
81 115 94
82 116 95
82 116 94
82 115 94
82 116 95
82 117 95
82 116 95
82 117 95
83 117 95
83 117 95
83 117 95
83 117 95
82 116 94
83 117 95
83 117 95
83 117 95
83 117 95
82 117 95
83 117 95
83 117 95
83 117 95
83 117 95
82 117 95
82 117 95
83 117 95
82 117 95
83 117 96
83 117 95
83 117 95
82 117 95
83 118 96
83 117 95
82 117 95
82 117 95
83 117 95
82 117 95
83 117 95
82 117 95
83 117 95
82 117 95
82 117 95
82 117 95
82 117 95
82 117 95
83 117 95
83 117 95
82 117 95
82 117 95
83 117 95
82 117 95
83 117 95
82 117 96
83 117 95
82 117 95
83 117 95
83 117 95
82 117 95
82 117 95
82 117 95
82 117 95
82 117 95
82 117 95
82 117 95
82 117 95
82 116 95
82 117 95
82 117 95
82 117 95
82 117 95
82 117 95
82 117 95
82 117 95
83 117 95
82 116 95
82 117 95
82 116 95
82 117 95
82 116 95
82 116 95
82 116 95
82 117 95
82 117 95
82 117 95
82 117 95
82 116 95
82 116 95
82 116 95
82 117 95
82 116 95
82 116 95
85 121 98
86 121 98
85 121 98
86 121 97
85 121 98
86 121 98
86 121 98
86 121 98
85 121 98
85 121 98
86 121 98
86 121 98
86 121 98
85 121 98
86 121 98
86 121 98
85 121 98
86 121 98
86 121 98
86 121 98
86 121 98
86 121 98
85 121 98
85 121 97
86 121 97
86 121 98
86 121 98
86 121 98
86 121 97
86 121 98
86 121 98
86 121 98
86 121 98
85 120 97
85 120 97
85 120 97
86 121 98
86 121 97
86 121 98
86 121 98
85 121 98
86 121 98
86 121 98
85 120 97
85 120 98
86 121 98
85 121 98
125 113 87
144 109 80
144 109 80
142 108 79
145 110 81
143 109 80
143 109 79
143 108 79
144 109 80
143 108 80
145 109 80
146 110 81
144 109 80
142 108 79
138 104 75
144 109 80
144 109 80
146 110 82
144 109 80
143 109 80
144 109 80
141 107 78
142 108 78
142 107 78
143 108 79
144 109 80
143 108 79
145 110 81
143 108 79
143 109 79
143 108 79
142 107 78
142 107 79
145 109 80
143 108 78
144 109 79
144 109 80
143 108 79
144 109 80
144 109 79
144 109 80
143 108 79
144 108 80
120 92 68
118 91 68
116 90 67
121 92 70
115 89 67
112 87 65
115 88 66
118 92 69
117 90 67
114 88 66
108 84 62
114 88 66
113 88 66
113 88 65
115 90 67
121 94 71
114 88 66
113 89 66
117 90 68
116 90 68
114 89 67
113 88 66
113 88 65
115 90 67
117 91 68
113 88 66
113 88 66
113 88 65
111 87 64
115 90 68
114 89 66
114 89 66
110 86 64
105 99 77
85 120 97
85 119 96
85 120 97
85 120 97
85 120 97
85 120 97
85 120 97
85 120 97
84 119 96
85 120 97
85 120 97
85 120 97
85 120 97
86 121 98
85 120 97
86 121 98
84 119 96
85 120 97
85 120 97
85 120 97
85 121 98
85 120 97
85 119 97
85 120 97
85 119 96
85 120 97
85 120 98
85 120 97
85 120 97
85 119 97
85 119 97
85 119 96
85 120 97
85 119 97
85 120 98
85 120 98
84 119 96
85 120 97
85 120 97
85 120 97
85 120 97
85 120 97
85 120 97
85 120 97
85 120 97
85 119 96
85 120 97
85 120 97
85 120 97
85 119 97
85 120 97
84 119 97
85 119 97
85 119 97
85 119 96
84 119 96
84 118 96
84 119 96
85 120 97
85 120 97
85 120 97
85 120 97
84 118 95
84 119 96
84 118 96
84 118 96
85 119 97
84 119 96
84 118 96
85 119 96
84 119 96
85 120 97
84 119 96
84 118 96
84 119 96
84 119 96
84 118 96
85 119 97
84 119 96
84 118 96
83 117 95
71 94 97
53 50 99
56 53 106
57 54 108
59 55 110
59 56 111
60 57 113
61 58 115
62 58 117
62 58 116
63 59 118
63 60 120
63 60 120
64 60 120
64 61 122
65 61 123
67 63 123
77 72 127
100 93 136
134 124 153
164 152 169
184 170 181
184 170 181
166 153 170
133 124 152
101 94 136
79 74 127
68 64 123
64 61 121
86 78 127
171 152 157
222 196 179
184 162 146
147 129 117
114 101 92
112 99 90
128 112 101
160 140 126
195 170 155
181 156 152
88 77 116
58 52 106
58 51 102
57 49 98
56 48 96
55 47 95
53 45 90
51 44 89
49 41 83
46 38 78
41 37 74
42 47 69
77 107 86
79 111 89
78 108 86
78 109 87
78 109 87
77 107 85
78 109 87
76 105 83
77 108 86
78 108 86
145 90 68
208 74 48
218 77 51
222 78 51
231 82 54
234 83 55
238 85 55
240 85 56
241 86 56
246 87 57
246 88 57
247 88 58
246 88 58
247 88 58
247 88 58
248 89 59
247 90 60
248 93 64
250 99 69
252 103 74
252 105 76
252 104 75
248 98 69
246 93 63
242 89 59
241 87 58
239 86 57
238 86 57
238 85 57
236 85 56
235 84 56
234 84 56
233 84 56
231 83 55
230 83 55
227 82 55
226 82 54
224 81 54
223 80 53
219 79 53
216 78 52
212 77 51
208 75 50
203 74 49
200 72 48
188 68 46
184 67 44
179 63 42
146 75 56
84 112 90
83 116 93
83 116 94
83 115 93
82 115 93
83 117 94
81 114 92
82 115 93
83 116 94
82 115 93
83 116 93
82 114 92
82 115 93
82 115 93
82 115 93
83 116 93
83 116 93
112 105 72
153 97 35
163 101 36
171 105 38
177 106 38
177 106 38
184 107 39
183 108 39
186 108 39
187 111 40
190 111 40
194 115 42
199 118 43
199 118 43
202 119 43
200 118 42
203 123 44
205 123 45
203 124 45
209 126 46
203 124 45
202 126 46
202 126 46
205 129 48
207 130 48
203 128 47
198 125 46
195 124 45
195 124 45
193 123 45
185 117 43
190 121 45
190 121 45
178 114 42
175 113 41
172 111 41
170 110 40
167 108 40
162 106 39
156 103 37
154 101 37
151 99 36
135 91 33
127 85 30
117 79 28
124 82 29
123 82 29
117 79 27
82 88 66
65 95 79
67 98 82
67 98 82
67 97 81
68 97 81
69 99 82
70 100 83
71 103 85
72 103 85
72 104 86
74 106 87
74 106 87
75 107 88
76 109 89
77 109 89
77 110 90
78 111 91
79 112 92
79 112 91
80 113 91
81 113 92
80 113 92
82 115 93
82 116 94
82 116 94
83 116 94
82 116 94
82 116 94
83 117 95
83 116 94
83 117 94
83 117 95
83 117 94
83 116 94
83 116 94
82 116 93
83 116 94
83 117 95
82 116 94
83 117 95
83 116 94
83 117 95
83 116 94
83 117 94
83 117 94
83 116 94
83 117 95
83 116 93
83 116 93
83 116 94
83 117 94
82 116 94
82 115 93
82 116 94
83 117 95
83 116 94
104 120 97
159 139 115
170 147 120
177 153 127
178 153 126
183 157 129
189 163 135
189 164 136
193 166 139
197 170 141
197 170 142
201 175 148
198 173 144
199 168 141
196 103 79
201 71 44
204 72 44
201 71 44
201 71 44
199 71 44
200 71 44
202 72 45
201 71 45
197 71 44
195 70 43
194 69 43
191 69 43
190 68 43
193 69 43
191 69 43
190 68 43
189 68 43
181 65 40
180 65 41
175 63 39
177 64 40
167 61 38
171 62 39
167 61 38
163 59 37
159 58 36
152 56 35
142 53 32
141 53 33
134 51 32
130 49 31
119 82 65
122 118 102
119 115 98
113 111 93
96 108 91
72 104 86
72 104 86
73 106 88
74 106 88
73 106 88
74 107 88
74 106 88
75 107 88
76 108 89
76 108 89
76 108 89
77 110 90
77 109 90
77 110 90
78 112 91
78 111 91
79 112 91
79 113 92
80 113 92
79 112 91
80 114 93
81 114 93
82 116 94
82 116 94
82 116 94
82 116 94
82 116 95
82 117 95
83 117 95
83 117 95
83 117 95
82 117 95
83 117 95
83 117 95
83 118 96
83 117 95
82 117 95
82 117 95
83 117 95
83 117 96
82 117 95
83 117 95
82 116 94
83 117 95
82 116 95
83 117 95
82 117 95
83 117 96
82 117 95
83 118 96
83 117 95
83 117 95
82 117 95
83 117 95
82 117 95
82 117 95
83 117 95
82 117 95
82 117 95
82 117 95
83 117 95
82 117 95
82 117 95
83 117 95
82 117 95
82 117 95
82 117 95
82 117 95
82 117 95
83 117 95
83 117 95
82 117 95
83 117 95
83 117 95
82 117 95
83 117 95
82 117 95
82 117 95
83 117 95
83 117 95
82 117 95
82 117 95
82 117 95
82 117 95
82 117 95
83 117 95
82 117 95
82 117 95
82 117 95
82 117 95
82 116 95
83 117 95
82 117 95
82 116 95
82 117 95
83 117 95
82 117 95
82 117 95
82 117 95
82 117 95
82 116 95
82 117 95
82 117 95
82 117 95
82 117 95
82 116 95
82 117 95
82 116 95
82 117 95
82 117 95
82 116 95
86 121 98
85 120 97
85 121 98
85 121 98
86 121 98
86 121 98
86 121 98
86 121 98
86 121 98
86 121 98
86 121 98
86 121 98
86 121 98
86 121 97
86 121 98
85 121 98
86 121 98
85 120 97
86 121 98
85 121 98
86 121 98
85 121 98
86 121 98
86 121 98
86 121 98
86 121 98
86 121 98
86 121 98
85 121 98
85 121 98
86 121 98
85 120 97
86 121 98
86 121 98
85 121 98
86 121 98
86 121 98
86 121 97
85 120 97
85 120 97
85 121 98
86 121 98
85 120 97
86 121 98
86 121 98
86 121 98
86 121 98
121 114 88
140 106 77
143 108 79
141 107 78
141 107 78
145 110 80
144 109 80
141 107 78
143 109 79
143 108 79
142 108 79
143 108 79
141 106 77
144 109 80
144 109 80
142 108 79
145 110 80
147 111 82
140 106 77
143 108 78
146 110 81
143 109 79
145 109 80
144 109 80
143 108 79
141 106 77
145 109 80
146 110 82
141 106 77
142 107 78
141 107 78
146 110 81
145 110 81
144 109 80
143 108 80
142 107 79
143 108 79
144 109 80
144 108 80
140 106 77
146 110 81
144 109 80
147 111 81
125 95 71
118 92 69
116 90 67
114 89 66
114 89 66
113 88 65
120 92 69
112 88 65
118 91 68
115 89 66
117 91 68
115 89 66
115 89 67
113 88 65
117 90 68
117 91 68
115 89 67
116 91 68
116 89 66
116 90 68
114 88 66
113 87 65
117 91 68
113 88 66
116 90 67
113 88 66
116 90 68
114 88 66
116 90 68
115 89 67
110 85 63
116 91 68
114 89 67
107 91 69
85 119 97
85 120 97
85 120 97
85 119 96
85 119 97
85 120 97
85 120 97
85 120 97
85 120 97
85 120 97
85 120 97
85 120 97
85 120 97
85 119 97
85 120 97
85 119 96
85 120 97
85 120 98
85 119 97
85 120 97
85 120 97
85 120 97
85 120 97
85 119 97
84 119 96
84 119 96
85 119 97
85 120 97
85 120 97
85 120 97
85 120 97
85 120 97
85 119 97
85 120 97
85 120 98
84 119 96
84 119 96
85 119 96
85 120 97
85 120 97
85 119 97
85 120 97
86 121 98
85 119 97
85 120 97
85 120 97
85 120 97
85 119 97
85 120 97
85 120 97
85 120 97
85 120 97
84 119 96
84 119 96
85 120 97
85 120 97
85 119 97
85 120 97
85 120 97
85 120 97
84 119 96
84 119 96
85 120 97
84 118 96
85 120 97
84 119 96
85 119 96
84 119 96
85 120 97
84 119 97
84 119 97
84 118 95
85 119 97
84 119 96
84 119 96
84 119 96
85 120 97
85 119 96
84 119 96
84 119 96
84 118 95
62 75 96
53 50 98
56 53 105
57 54 107
58 54 108
58 55 109
60 56 111
60 57 113
60 57 113
61 57 114
63 59 118
63 59 118
63 59 118
63 60 120
64 60 121
64 60 120
66 62 122
73 68 124
89 83 131
113 105 141
137 127 153
149 138 160
148 137 159
133 123 150
109 102 139
87 81 130
72 68 122
66 62 121
109 97 130
216 190 177
178 157 142
87 76 68
83 73 66
140 122 110
176 155 140
175 154 139
156 135 121
121 105 94
63 55 49
130 112 101
199 164 150
132 110 125
56 49 98
56 49 98
55 47 94
55 46 91
53 43 86
51 43 86
48 40 82
46 38 76
41 34 68
36 33 66
71 98 84
78 109 88
78 109 87
79 110 88
79 110 88
78 108 86
79 110 88
79 110 89
79 110 88
88 108 86
195 75 51
213 75 49
220 78 51
226 80 52
232 82 54
233 82 54
240 85 56
239 85 56
242 86 56
243 87 57
246 87 57
247 88 58
247 88 58
247 88 58
248 89 58
248 90 60
250 95 65
253 104 75
255 117 87
255 130 99
255 132 101
255 127 97
255 113 83
249 101 71
244 92 63
241 88 59
239 86 57
239 86 57
238 85 56
237 85 56
235 84 56
234 84 56
233 84 55
231 83 55
230 83 55
227 82 54
226 81 54
223 81 54
221 80 53
219 79 53
217 78 52
211 76 51
208 75 50
200 72 48
198 72 48
194 70 47
186 67 45
175 62 41
167 60 40
109 101 80
82 115 93
82 114 92
82 116 93
81 113 91
82 115 93
81 114 91
83 117 94
82 114 92
82 115 92
83 117 94
83 115 93
83 115 92
82 115 93
82 115 93
83 116 93
82 115 93
88 114 89
138 94 40
155 99 35
162 101 36
166 102 37
168 102 36
172 103 37
177 104 37
179 106 38
179 106 38
183 106 38
184 109 39
194 115 41
193 114 40
200 118 42
192 115 42
199 119 43
195 119 43
200 121 44
196 119 43
197 121 44
198 123 44
197 123 45
201 125 46
200 126 46
196 124 45
190 121 44
183 117 42
191 121 44
187 119 43
178 113 41
181 115 42
172 110 40
185 117 43
174 112 41
168 109 40
160 104 38
158 104 38
152 100 36
145 96 34
146 96 35
133 89 31
134 90 32
135 88 32
114 77 26
113 76 26
115 78 27
112 78 30
67 91 76
62 91 77
64 92 78
64 93 78
65 96 80
66 95 79
67 96 81
68 97 81
68 98 81
69 99 82
71 102 84
71 101 83
72 103 85
73 105 86
74 106 87
75 107 87
77 108 88
77 109 89
78 111 90
80 113 92
80 113 92
80 113 92
81 114 92
82 115 94
80 113 91
82 115 93
82 116 94
82 115 93
83 116 94
83 116 93
83 117 94
83 117 94
82 116 94
83 116 93
83 117 94
83 117 95
83 117 94
83 117 95
82 115 93
83 117 95
82 116 94
83 116 94
83 116 94
83 116 94
83 117 95
82 116 93
82 116 94
83 117 94
82 115 93
83 116 94
82 115 92
83 117 95
83 117 94
82 116 94
82 116 93
82 116 94
82 116 94
85 115 93
146 131 107
158 140 113
168 148 121
175 153 126
182 156 128
177 155 127
186 161 133
186 161 132
189 164 137
193 168 140
192 164 136
187 127 102
192 76 51
196 69 42
195 69 43
194 69 42
196 69 43
193 69 42
195 69 43
198 70 43
192 68 42
194 69 43
190 68 42
193 69 43
189 68 42
187 67 41
184 66 41
183 66 41
184 66 41
181 65 41
180 65 40
173 62 38
176 64 40
171 62 38
170 62 38
166 61 38
160 59 36
155 57 35
159 58 37
149 55 34
153 56 35
142 53 33
138 52 33
125 48 30
117 59 44
121 114 98
119 115 98
109 108 90
112 110 93
76 99 82
69 100 84
70 101 84
70 101 84
70 101 84
71 103 86
72 103 86
70 102 84
73 104 86
73 105 87
73 106 87
74 106 87
74 106 87
76 109 89
75 107 88
76 109 90
77 110 90
78 111 91
79 112 91
79 113 93
79 113 93
80 114 93
80 114 93
80 114 93
81 115 94
81 114 93
81 115 94
82 115 94
82 116 95
82 116 95
82 117 95
82 117 95
83 117 95
83 117 95
82 116 94
83 117 95
83 117 95
82 116 94
83 118 96
83 118 96
82 117 95
82 117 95
83 117 95
83 117 95
83 117 95
83 117 95
83 118 96
83 118 96
83 117 95
83 117 96
82 117 95
83 117 95
83 117 95
82 117 96
83 117 95
82 116 95
83 117 95
83 117 95
82 117 95
82 117 96
83 117 96
82 117 95
83 117 95
83 118 96
83 117 95
83 117 96
83 117 95
82 117 95
82 117 95
82 117 95
82 117 95
83 117 95
83 117 95
83 117 96
83 117 95
82 117 95
82 117 95
82 117 95
82 117 95
83 117 95
82 117 95
83 117 95
83 117 95
83 117 95
82 117 95
83 117 95
83 117 95
82 117 95
82 116 95
82 116 95
82 117 95
82 117 95
82 117 95
82 117 95
82 117 95
82 117 95
82 117 95
82 117 95
82 117 95
83 117 95
82 117 95
82 117 95
83 117 95
82 117 95
82 117 95
82 117 95
82 117 95
82 117 95
82 116 95
82 117 95
82 117 95
82 117 95
86 121 98
86 121 98
86 121 98
86 121 98
86 121 98
86 122 98
86 121 98
85 121 98
86 121 98
86 121 98
85 120 98
86 121 98
85 120 97
86 121 98
86 121 98
85 121 98
86 121 98
86 121 98
86 121 98
86 121 98
85 121 98
86 121 98
85 121 98
86 121 98
86 121 98
86 121 98
86 121 98
86 121 98
85 120 98
85 120 97
86 121 97
86 121 98
86 121 98
86 121 98
85 120 98
86 121 98
86 121 98
85 120 97
86 121 98
86 121 98
85 121 98
86 121 98
86 121 98
86 121 98
86 121 97
86 121 98
85 120 96
113 114 88
141 107 78
142 108 78
146 111 82
138 105 76
142 108 79
141 107 77
144 109 80
140 106 77
141 107 78
140 107 77
141 107 78
144 109 80
141 107 78
146 110 81
142 108 79
143 108 79
142 107 78
144 109 80
143 109 80
141 107 78
144 109 79
142 107 78
143 108 79
145 109 80
141 106 77
142 107 79
141 107 77
145 110 81
140 106 77
143 108 80
141 107 78
143 108 79
145 109 80
145 109 81
142 107 78
144 109 80
145 109 80
145 109 80
139 105 76
145 109 80
145 109 80
144 109 80
129 98 73
118 92 69
116 90 67
119 91 68
118 90 68
114 87 65
113 87 64
115 89 66
116 89 67
116 89 67
118 91 68
116 91 68
112 87 64
118 91 69
118 92 69
113 87 66
113 89 66
114 89 67
116 90 67
115 90 67
113 88 66
115 90 68
114 89 66
113 88 65
111 87 65
116 91 68
113 88 66
108 84 62
113 88 66
114 89 67
115 89 67
113 87 65
116 91 68
109 93 71
85 120 97
85 120 97
85 120 97
85 120 97
85 119 97
85 120 97
85 120 97
85 120 97
85 120 97
85 119 97
85 119 96
84 119 96
85 120 97
84 119 97
85 119 96
85 120 97
85 119 96
85 120 97
85 120 97
85 120 96
85 120 97
85 120 97
84 119 96
85 120 97
84 119 97
85 120 97
85 120 97
85 119 96
85 119 97
85 119 96
84 119 97
85 120 97
85 120 97
85 120 97
85 120 97
85 120 97
84 119 97
84 119 96
85 119 97
85 120 97
85 120 97
85 120 97
85 120 97
84 119 96
85 120 97
85 120 97
85 119 97
85 120 97
85 119 96
84 119 97
85 120 97
85 119 97
85 120 97
84 119 97
85 120 97
85 118 95
84 119 96
85 119 96
85 119 96
85 119 97
84 119 96
85 120 97
84 119 96
85 121 98
85 119 96
85 119 96
84 119 96
84 119 96
84 118 95
84 119 96
84 118 96
84 119 96
84 119 96
84 119 96
85 119 96
84 119 97
84 118 95
84 119 96
83 117 95
84 118 95
83 117 95
52 55 90
52 49 96
55 52 103
57 54 106
57 54 107
59 55 110
58 55 108
59 56 111
61 57 114
62 58 115
61 58 115
63 59 118
62 59 117
63 59 119
62 59 117
64 60 120
65 61 121
68 64 121
77 72 125
91 85 130
103 96 135
112 104 140
110 102 138
100 93 134
87 81 128
74 69 123
67 62 120
126 112 137
225 197 179
145 129 116
61 53 48
172 151 136
225 199 179
231 203 183
229 201 181
226 198 178
225 195 175
223 193 173
208 178 159
131 112 100
75 64 58
176 144 130
109 91 113
55 48 97
54 46 92
53 44 87
52 43 87
51 43 86
48 38 76
45 35 69
42 34 69
35 31 62
65 88 81
80 111 89
80 112 90
81 113 91
78 109 87
80 113 90
79 110 88
79 111 89
79 110 88
131 99 77
201 71 46
211 74 48
221 78 51
221 78 50
230 82 53
233 82 54
240 85 55
240 85 56
239 85 55
243 87 57
244 87 57
246 88 57
245 87 57
247 88 58
247 89 59
250 93 63
253 103 73
255 123 93
255 146 113
255 163 129
255 166 132
255 155 122
255 134 103
253 111 81
246 96 68
242 89 60
240 87 57
238 86 57
238 85 56
237 85 56
235 84 56
234 84 56
233 84 55
231 83 55
229 82 54
228 82 54
226 81 54
224 80 53
221 79 53
217 78 52
214 77 51
210 76 50
205 74 49
203 73 49
197 72 47
192 69 46
184 67 44
175 62 41
168 60 39
132 82 62
81 113 90
81 114 92
82 115 92
82 113 91
83 116 94
83 117 95
82 114 92
82 114 91
82 116 93
83 115 92
83 116 93
82 115 92
82 114 92
82 115 93
83 116 93
82 113 90
82 115 92
105 100 68
148 95 34
154 97 35
158 98 35
165 99 35
166 100 36
167 102 36
173 102 36
172 102 36
176 102 36
182 106 37
181 109 38
185 108 38
187 109 38
189 113 40
191 114 41
189 114 41
190 114 41
192 116 42
190 118 43
192 119 43
195 121 43
193 121 44
191 121 44
190 120 44
186 118 43
178 113 40
184 117 42
181 115 42
176 113 41
167 108 39
171 110 40
169 109 39
169 109 40
153 100 36
158 103 38
149 98 35
144 96 34
131 90 31
133 89 32
120 82 29
127 83 29
118 80 27
114 78 26
112 76 26
108 73 24
86 80 55
58 86 73
60 88 75
60 88 74
60 89 76
62 91 77
62 90 76
63 92 77
66 95 79
66 95 80
67 97 80
68 97 81
69 100 83
71 102 84
72 103 85
74 105 87
74 105 85
75 106 87
75 107 88
77 109 88
78 111 90
80 113 92
79 112 91
80 112 91
80 113 92
81 115 93
81 114 92
82 115 94
82 116 94
83 116 94
83 117 95
83 116 94
83 116 94
83 117 95
83 117 94
82 116 94
83 117 94
82 115 92
83 117 94
83 116 94
83 116 94
82 115 93
82 114 92
83 116 94
82 116 94
83 116 93
83 116 94
83 116 94
82 115 93
83 116 94
82 116 94
82 116 94
82 116 94
82 115 93
82 114 92
83 117 95
82 115 93
82 115 93
83 117 95
122 107 85
155 134 109
163 142 116
167 145 117
170 146 118
176 153 126
182 157 130
181 157 129
184 155 127
183 140 113
189 91 67
184 66 41
187 66 40
194 69 42
190 67 41
191 68 42
192 68 42
190 68 41
194 69 42
189 67 41
191 68 42
188 67 41
184 66 40
185 66 40
181 65 40
184 66 41
183 66 41
180 65 40
177 64 39
176 63 39
176 63 39
173 62 38
169 61 38
165 60 37
167 61 38
159 58 36
159 58 36
156 57 36
150 56 35
145 53 33
142 53 33
126 48 29
129 49 30
120 49 31
109 96 79
112 110 92
115 112 94
104 105 86
93 99 82
67 96 81
65 95 80
65 95 80
65 95 80
66 96 81
67 98 82
68 99 82
69 100 84
70 102 85
70 101 84
71 102 84
73 105 87
72 104 86
74 106 87
75 107 88
75 107 88
77 110 90
76 109 89
78 111 90
78 111 91
78 112 91
79 112 92
79 113 93
80 114 93
80 114 93
81 115 93
81 115 94
81 115 94
82 116 94
82 116 94
82 116 94
82 116 94
82 116 95
83 117 95
82 116 94
83 117 95
83 118 96
83 117 95
83 117 95
83 117 95
82 117 95
83 117 95
83 117 96
83 117 95
82 117 95
82 116 95
83 117 95
83 117 95
83 117 95
83 117 95
82 117 95
83 117 95
83 117 95
83 117 95
83 117 95
83 117 95
83 117 96
82 116 95
83 117 95
83 117 95
83 117 96
83 117 96
82 117 95
83 117 96
82 117 95
82 117 95
83 117 95
83 117 95
82 117 95
82 117 96
82 117 95
82 117 95
82 117 95
83 117 96
83 117 95
83 117 95
82 117 95
82 117 95
83 117 95
82 117 95
82 116 95
82 117 95
82 117 95
83 117 95
82 117 95
82 117 95
82 117 95
82 117 96
83 117 95
82 117 95
82 117 95
83 117 95
82 117 95
82 117 95
82 117 95
82 117 95
82 117 95
82 117 95
82 117 95
82 117 95
82 117 95
82 117 95
82 117 95
82 117 95
82 117 95
82 117 95
82 116 95
83 117 95
82 117 95
82 117 95
82 117 95
82 117 95
86 121 98
86 121 98
86 121 98
85 121 98
86 121 98
86 121 98
86 121 98
86 121 98
86 121 98
86 121 98
86 121 98
86 121 98
86 121 98
86 121 98
86 121 98
85 120 97
86 121 98
85 120 97
85 121 98
86 121 98
86 121 98
86 122 98
86 121 97
86 121 98
86 121 98
85 121 98
85 121 98
86 121 98
85 120 97
86 121 98
86 121 97
86 121 98
85 121 98
86 121 98
86 121 98
86 121 98
86 121 98
86 121 98
86 121 97
85 120 97
86 121 98
86 121 98
85 121 98
86 121 98
85 120 97
86 121 98
86 121 98
113 117 91
138 105 76
143 108 79
142 108 79
145 110 81
142 108 79
145 109 80
143 108 79
143 109 79
140 106 77
142 108 79
141 107 78
142 108 79
141 107 78
144 109 80
142 107 77
143 108 79
147 111 82
143 108 79
140 106 77
143 108 79
145 109 81
145 110 81
142 107 78
142 107 78
143 108 79
146 111 81
146 110 81
143 108 79
144 109 80
145 109 80
143 108 79
143 108 79
145 110 80
145 109 80
143 108 79
141 106 78
141 106 77
139 105 77
144 109 80
142 107 79
144 109 80
141 106 78
125 95 70
118 92 69
113 87 64
116 90 67
111 87 65
114 89 66
118 90 67
116 90 67
117 91 68
121 93 70
113 88 65
116 90 68
114 88 66
116 89 66
115 89 66
117 91 68
114 89 66
114 89 67
113 88 66
111 86 64
115 89 67
112 88 66
112 87 65
111 87 64
115 89 67
114 89 68
112 88 65
116 90 67
113 88 65
108 85 63
114 89 67
113 87 65
113 88 65
106 90 67
87 120 97
85 119 96
85 119 96
85 119 96
85 119 97
85 119 97
85 120 97
85 120 97
85 119 96
85 119 96
85 119 96
85 120 97
85 121 98
85 120 97
85 119 96
85 120 98
85 119 96
85 120 97
85 120 97
85 120 97
85 119 96
85 120 97
85 120 97
85 119 96
85 120 97
85 119 96
84 119 96
85 120 97
84 119 96
85 120 97
85 120 97
85 120 97
85 119 96
85 120 98
85 119 96
85 120 97
85 120 97
85 120 97
84 119 96
85 120 97
85 120 97
85 120 97
85 120 97
85 119 96
85 120 97
85 120 97
85 120 97
85 120 97
85 120 97
84 119 96
85 120 97
85 120 97
85 120 97
85 120 97
85 120 97
84 119 96
85 119 97
85 119 97
85 120 97
85 119 96
85 119 96
85 119 96
84 119 96
85 119 96
85 120 97
84 118 96
84 119 96
85 120 97
85 119 96
84 119 96
84 119 96
84 119 96
84 119 96
84 119 96
84 119 97
85 119 96
84 119 96
84 119 96
84 119 96
84 119 96
82 115 96
52 52 94
53 51 100
53 50 99
57 53 106
57 53 105
57 53 105
59 55 109
59 55 109
60 56 112
61 57 113
60 57 113
62 58 117
62 58 116
62 58 117
62 58 117
62 58 116
64 60 120
64 60 119
68 64 120
73 68 122
79 74 123
83 77 125
81 75 124
77 72 124
71 67 122
66 61 117
93 85 126
215 188 173
134 117 105
95 83 75
215 189 169
231 202 182
231 203 182
229 201 180
225 197 176
222 196 177
220 194 174
220 190 171
220 187 168
217 184 164
167 138 123
90 74 66
187 150 136
82 70 101
54 45 90
53 44 87
52 42 85
49 40 81
46 36 72
44 34 67
39 31 63
35 31 61
56 73 75
80 111 89
80 112 90
80 112 90
81 113 91
79 111 88
81 113 91
81 114 91
82 113 90
164 83 62
202 71 47
213 75 49
218 77 50
225 80 52
229 81 53
233 82 54
235 83 54
238 84 55
240 85 56
241 86 56
241 86 56
243 86 57
244 87 57
246 88 58
246 89 59
250 96 67
255 113 83
255 139 108
255 169 134
255 189 152
255 191 154
255 174 139
255 147 115
255 118 88
248 100 71
242 90 61
240 87 58
239 85 57
237 85 56
237 85 56
235 84 56
234 84 55
232 83 55
230 83 55
229 82 54
226 81 54
226 81 53
223 80 53
220 79 52
215 77 51
213 76 51
210 75 50
205 74 49
200 73 48
195 70 46
192 70 46
183 66 44
175 63 42
167 60 39
156 59 40
92 111 89
83 116 93
82 114 92
82 115 93
82 114 92
82 115 92
82 115 93
82 115 92
82 114 92
82 115 93
83 116 93
83 116 93
81 113 91
82 114 91
82 115 93
81 113 91
82 115 93
84 111 87
127 89 39
140 90 32
152 95 33
154 95 33
155 96 34
161 95 33
163 97 34
166 98 34
171 99 35
173 101 35
177 103 36
179 106 37
181 106 37
182 111 39
177 109 38
184 112 40
183 111 39
183 113 40
185 115 41
182 115 41
187 117 42
187 118 42
189 119 43
176 112 39
179 114 40
178 114 40
176 112 40
171 110 39
171 110 39
167 108 39
158 102 36
159 104 37
154 101 36
151 99 35
143 95 33
142 95 34
135 91 32
127 86 30
119 82 28
119 82 29
111 76 26
109 74 25
113 76 26
109 74 24
97 72 32
62 84 70
58 85 72
58 85 73
57 84 71
59 85 72
59 88 75
60 88 75
61 87 73
63 91 76
64 92 77
65 94 79
67 96 80
68 97 81
70 100 83
72 103 85
70 101 83
73 104 86
75 105 86
75 106 87
77 110 89
77 109 88
79 111 90
78 109 89
79 112 92
81 114 92
80 113 91
82 116 94
82 115 93
83 116 93
83 117 95
83 116 94
83 116 94
83 116 93
83 116 94
83 116 94
82 116 94
83 117 94
82 115 92
82 116 94
83 116 94
83 117 94
83 117 95
83 116 93
82 116 94
83 116 94
83 116 93
83 116 94
82 115 93
82 115 93
82 115 93
82 115 93
83 116 94
82 115 94
82 115 93
81 114 92
82 114 92
82 115 93
82 115 92
82 116 94
102 101 81
142 97 74
157 130 104
162 138 109
159 138 110
175 148 121
172 138 111
173 117 93
178 76 52
182 64 39
181 64 39
183 65 39
185 65 39
185 65 40
186 66 40
186 66 40
192 68 42
187 67 41
187 67 41
187 67 40
183 65 40
185 66 40
182 65 39
183 66 40
175 63 38
178 64 39
178 64 39
175 63 39
167 61 37
174 63 39
171 62 38
163 59 36
160 58 35
160 59 36
156 57 35
151 55 34
155 57 35
141 53 32
144 54 33
134 51 31
131 50 30
118 46 28
115 45 27
111 76 60
117 113 95
105 105 86
111 109 91
107 105 87
87 100 85
62 91 77
63 93 79
62 93 79
63 93 79
63 93 78
65 95 80
66 96 81
66 97 82
68 100 83
68 100 83
69 100 83
70 101 84
71 102 85
71 102 85
73 105 87
75 107 88
74 106 87
75 108 89
76 108 89
77 110 90
77 110 90
78 111 91
79 113 92
79 112 91
80 114 93
80 113 93
81 115 94
81 115 94
82 115 94
82 116 95
82 116 94
82 116 94
83 117 95
83 117 95
83 117 95
82 116 95
83 117 95
83 117 95
83 117 95
83 117 95
83 117 95
83 117 95
83 117 95
83 117 95
83 117 95
83 117 95
83 117 95
82 117 95
83 117 95
83 118 96
83 117 95
82 117 95
83 117 95
83 118 96
83 117 95
83 117 95
83 117 95
82 117 95
83 117 96
83 118 96
83 117 96
83 117 95
82 117 95
82 117 96
83 117 95
82 117 95
82 117 95
83 117 95
82 117 95
82 117 95
82 117 95
82 117 95
83 117 95
82 117 95
83 117 95
83 117 95
83 118 96
82 117 95
82 117 95
82 117 95
83 117 95
82 117 95
83 117 95
83 117 95
82 117 95
83 117 95
82 117 95
82 117 95
82 117 95
82 117 95
82 117 95
83 117 95
82 117 95
82 116 95
82 117 95
82 117 95
83 117 95
82 117 95
82 117 95
82 117 95
82 117 95
82 117 95
82 117 95
82 117 95
82 117 95
82 117 95
83 117 95
82 116 95
82 117 95
82 117 95
82 117 95
82 117 95
86 121 98
86 121 98
86 121 98
86 121 98
86 121 98
86 120 97
85 121 98
86 121 98
86 121 98
86 121 98
86 121 98
86 121 98
86 121 98
86 121 98
86 121 98
86 121 98
86 121 98
86 121 98
86 121 98
86 121 98
85 120 97
85 120 97
85 120 97
86 121 98
86 121 98
86 121 98
86 121 98
86 121 98
85 120 97
86 121 98
86 121 98
85 120 97
85 120 97
86 121 97
86 121 98
85 121 98
86 121 98
85 120 97
86 121 98
85 120 97
85 120 97
85 120 97
85 120 97
85 120 97
86 121 97
85 120 97
86 121 98
103 117 92
141 107 78
138 104 75
146 110 81
139 106 77
142 108 79
141 107 78
141 107 78
140 106 77
144 109 80
140 107 78
144 109 80
143 108 79
144 109 80
148 112 82
143 108 79
142 108 79
146 110 81
142 108 79
141 107 78
143 109 79
144 109 80
145 109 80
142 107 78
144 109 80
142 108 79
143 108 79
142 107 78
145 110 81
142 107 78
146 110 81
142 108 79
141 107 78
144 109 80
143 108 79
141 106 78
140 105 76
144 109 80
144 109 80
142 107 78
143 108 79
145 110 80
145 109 80
129 97 72
114 89 66
115 90 67
116 90 67
120 93 70
113 88 65
117 89 66
112 87 65
112 87 64
112 87 65
115 90 67
115 89 66
115 90 68
113 88 66
118 92 70
110 86 64
116 90 68
112 86 64
114 89 66
116 90 67
114 88 66
112 87 65
112 87 65
114 89 66
111 86 64
113 89 66
112 87 64
111 86 64
115 89 67
114 88 66
108 86 64
112 87 65
116 90 68
109 90 68
86 118 95
85 120 97
84 119 96
85 119 96
84 119 96
85 119 96
85 119 96
85 119 96
85 119 96
84 119 96
85 120 97
85 120 97
85 120 97
84 119 96
86 120 97
85 119 96
85 119 96
85 120 97
85 119 96
85 120 97
84 119 96
85 120 97
85 119 96
85 119 97
85 120 97
85 120 97
84 118 96
85 120 97
86 121 98
85 120 98
85 119 96
85 119 96
85 119 96
85 119 97
85 119 97
85 120 97
85 120 97
85 120 97
85 119 96
85 120 97
85 120 97
85 120 97
85 121 98
85 120 97
85 120 97
84 119 96
85 120 97
85 120 97
85 121 98
84 119 96
84 118 95
85 119 97
84 119 96
85 120 97
85 120 97
85 119 97
85 120 97
85 121 98
85 119 97
85 119 97
85 119 97
85 119 97
85 119 97
85 119 96
85 119 96
84 118 96
85 120 97
84 119 96
84 119 97
85 120 97
84 119 96
85 120 97
84 118 95
85 119 96
85 119 97
85 119 96
85 119 97
84 119 96
85 119 97
84 118 95
77 107 93
50 48 92
52 49 96
54 51 100
55 51 101
56 52 103
57 53 104
58 55 108
59 55 109
59 55 109
59 55 109
60 56 111
61 57 114
62 58 116
61 58 116
61 58 115
61 58 115
62 58 116
62 59 116
63 60 117
66 62 120
66 62 117
68 63 118
66 62 115
65 61 116
64 60 117
63 59 117
189 166 161
170 148 132
64 56 50
214 189 169
227 198 176
226 197 175
224 196 175
219 193 172
195 171 153
177 155 139
190 164 146
214 184 164
218 185 165
217 181 161
210 175 156
150 121 106
106 88 79
153 122 121
53 45 89
52 43 85
51 40 79
49 38 76
46 36 72
43 34 67
39 30 57
33 28 58
49 62 68
81 113 91
80 112 90
81 113 91
81 113 90
80 112 90
81 114 91
81 114 91
102 108 87
188 70 47
207 73 47
214 76 49
219 77 50
222 78 51
228 80 52
233 83 54
234 83 54
237 84 55
238 85 55
240 85 56
243 86 56
242 86 56
242 86 57
245 88 58
246 90 60
250 98 69
255 117 87
255 147 115
255 177 142
255 197 159
255 197 159
255 178 142
255 149 116
255 118 89
245 98 69
240 89 60
240 86 57
238 85 56
237 85 56
236 84 55
235 84 55
234 83 55
231 83 55
229 82 54
229 82 54
225 80 53
223 80 53
221 79 52
216 78 52
213 77 51
208 75 49
207 74 49
202 73 48
196 71 47
196 71 47
191 69 45
180 65 43
176 63 42
170 61 40
151 54 35
114 98 77
83 116 94
82 115 92
82 114 91
82 114 91
82 115 93
82 114 91
82 115 92
82 114 92
82 114 92
82 114 92
83 115 92
82 115 92
82 114 92
81 113 91
81 112 90
82 113 90
81 113 91
99 99 69
130 85 29
143 91 32
146 92 32
150 93 32
156 95 33
156 92 32
161 95 33
160 97 33
165 99 34
170 101 35
172 104 36
173 104 36
174 106 37
172 107 37
174 107 37
178 109 38
175 108 38
178 111 39
174 109 38
174 110 38
180 114 40
172 109 38
177 112 39
168 107 37
165 106 37
163 104 36
167 108 38
160 104 37
155 100 35
154 100 36
149 98 35
147 97 34
145 96 34
136 92 32
125 86 29
124 85 29
112 79 27
110 76 26
101 72 24
102 73 24
106 73 25
106 72 24
106 71 23
74 78 57
57 84 72
58 86 73
58 83 70
58 85 72
59 86 72
58 86 73
59 87 74
59 86 73
61 89 75
62 90 76
64 92 77
65 93 77
67 97 80
68 97 81
68 99 82
71 100 83
72 102 83
73 104 85
74 106 86
76 108 88
77 109 88
78 110 89
80 113 92
80 112 91
81 113 92
81 114 92
81 115 93
82 115 93
83 117 94
83 116 94
82 115 93
82 115 93
83 116 93
83 116 93
83 117 94
82 115 93
83 116 93
82 115 93
82 116 94
82 115 93
82 115 93
82 115 93
82 116 94
83 116 94
83 117 94
82 115 93
81 114 92
83 116 93
82 114 92
82 115 92
82 116 94
82 115 93
82 115 92
82 114 92
82 114 92
82 114 92
81 114 92
82 114 91
81 113 91
85 112 90
121 67 49
142 57 36
149 67 45
154 75 54
162 73 52
163 60 37
170 60 36
170 60 35
172 61 36
178 62 38
174 61 37
178 63 38
177 63 38
180 64 38
181 65 39
178 64 38
179 64 39
177 64 38
178 64 38
181 65 39
180 65 39
176 63 38
177 63 38
173 62 38
173 62 38
169 61 37
168 61 37
164 60 36
158 58 35
162 59 36
156 57 35
159 58 36
157 57 35
149 55 34
145 54 32
145 54 33
135 51 30
131 49 30
130 49 30
121 46 28
106 42 24
110 68 53
101 100 80
104 104 84
108 107 88
98 99 79
100 103 86
63 89 75
59 88 75
59 87 74
60 90 76
61 91 78
62 91 77
62 92 78
63 93 79
64 94 80
65 96 81
65 95 79
67 98 82
68 99 83
70 101 84
69 100 83
71 103 85
72 103 85
73 104 86
73 105 87
76 108 89
76 109 89
76 109 89
77 110 90
78 111 91
78 111 91
79 112 92
80 114 93
80 113 93
81 115 94
81 115 93
82 116 94
82 116 94
83 117 95
82 116 94
83 117 95
82 116 94
82 117 95
83 117 95
83 117 95
83 117 95
82 116 94
82 117 95
82 117 95
83 117 95
82 117 95
83 117 95
83 117 95
83 117 96
83 117 95
83 117 95
82 117 95
83 117 95
82 117 95
82 117 95
83 117 95
83 117 95
83 118 96
83 118 96
83 117 95
83 117 96
83 117 95
82 117 95
83 117 95
83 117 95
83 117 96
83 117 96
83 117 95
83 117 95
82 117 95
83 117 95
83 117 96
83 117 95
83 117 96
82 117 95
83 117 95
83 117 95
82 117 95
83 117 95
82 117 95
83 117 95
83 117 95
83 117 95
83 117 95
82 117 95
82 117 95
83 117 95
82 117 95
82 117 95
82 117 95
82 117 95
82 117 95
83 117 95
82 117 96
82 116 95
82 117 95
82 116 95
83 117 95
82 117 95
82 117 95
83 117 95
82 117 95
82 116 95
82 117 95
82 117 95
82 117 95
82 117 95
82 117 95
82 117 95
82 117 95
82 117 95
82 117 95
82 117 95
82 117 95
86 121 98
86 121 98
86 121 98
86 121 98
86 121 98
86 122 98
86 121 98
86 121 98
86 121 98
86 121 98
86 121 98
86 121 98
86 121 98
86 121 98
86 121 98
86 121 98
85 121 98
86 121 98
85 120 97
86 121 98
86 121 98
86 121 98
86 121 97
85 120 97
86 121 98
86 121 98
86 121 98
86 121 98
85 120 97
86 121 98
85 121 98
86 121 98
85 121 98
86 121 98
85 120 97
85 120 97
86 121 98
86 121 98
86 121 97
86 121 98
86 121 98
85 120 97
86 121 98
86 121 98
86 121 98
85 120 97
85 120 97
105 118 94
144 110 81
143 109 80
140 106 78
142 108 78
143 108 79
144 109 80
143 109 79
145 109 80
145 110 80
145 110 81
143 108 79
141 107 78
144 109 80
141 107 78
145 110 81
144 109 80
146 110 81
145 109 80
143 108 79
143 108 79
142 107 78
144 109 80
142 107 78
142 108 79
146 110 81
142 108 79
144 109 79
144 109 80
143 109 80
143 108 79
142 107 78
145 110 81
147 110 81
144 109 80
143 108 79
141 107 78
140 105 76
141 107 78
143 108 79
140 106 77
139 105 76
144 109 80
129 99 73
115 89 66
115 89 66
121 93 70
117 91 68
112 88 65
113 87 65
114 88 66
111 87 65
114 88 66
111 87 64
115 89 67
116 90 67
110 86 63
114 88 66
110 85 63
110 86 64
117 90 67
115 89 66
111 86 64
114 89 67
114 89 67
114 89 67
117 91 68
112 87 66
111 87 64
116 90 68
112 87 65
111 87 65
113 87 65
113 89 67
110 86 64
111 87 64
109 87 65
87 116 93
83 117 94
85 120 97
85 120 97
85 120 97
85 120 97
85 119 96
84 119 96
84 119 96
85 119 96
85 120 97
85 120 97
85 119 97
85 119 97
85 119 96
86 120 97
84 118 95
85 119 96
86 120 97
84 119 96
85 119 96
85 120 97
85 119 96
85 120 97
85 120 97
84 118 95
85 120 97
84 119 97
84 119 96
85 119 96
85 120 97
85 120 97
85 119 96
85 120 97
84 119 96
85 120 97
85 120 97
84 119 96
85 120 97
85 121 98
85 120 97
85 121 98
85 119 96
85 120 97
85 119 97
85 120 97
85 119 97
85 120 97
85 120 97
85 120 97
85 119 97
85 120 97
85 119 96
84 118 96
85 119 96
85 120 97
85 119 96
84 118 96
84 119 96
85 120 97
85 120 97
85 120 97
84 119 96
85 120 97
85 120 97
84 118 96
84 119 96
84 119 96
84 119 96
84 119 96
85 120 97
84 119 96
85 119 96
85 119 97
84 118 95
84 118 96
84 119 96
84 119 96
85 120 98
84 119 96
76 105 93
48 46 90
51 48 94
53 50 98
55 52 102
55 52 101
56 53 104
57 53 105
58 54 108
60 56 111
58 54 107
59 56 110
60 57 113
61 57 114
61 57 114
61 57 113
61 57 113
62 58 115
61 58 114
60 57 112
62 58 115
62 58 113
62 58 114
62 58 115
61 58 114
60 57 113
115 103 129
213 187 168
62 55 49
183 161 143
228 199 177
227 198 177
225 197 176
189 166 148
84 74 66
23 20 18
0 0 0
0 0 0
73 63 56
171 146 130
213 175 154
212 175 155
204 165 146
93 80 72
177 137 122
72 57 86
50 40 78
49 38 76
46 36 71
45 34 67
42 32 64
38 28 55
30 25 49
45 56 62
82 114 92
82 115 92
83 116 93
82 114 91
80 112 90
82 114 92
81 114 92
131 96 75
188 66 43
200 70 46
213 75 49
218 77 50
224 79 51
230 81 53
230 82 53
232 82 53
235 83 54
238 84 55
236 84 55
238 85 55
241 85 56
242 86 56
241 86 56
243 89 59
247 97 68
255 115 85
255 139 108
255 167 133
255 182 146
255 179 144
255 162 129
255 135 105
253 111 82
244 95 66
240 87 59
238 85 56
237 84 55
236 84 55
234 83 55
233 83 55
232 83 54
231 82 54
229 82 54
227 81 54
225 80 53
221 79 52
219 78 52
214 76 50
212 76 50
209 75 50
206 74 49
200 72 48
195 71 47
191 69 46
187 68 45
180 66 43
174 64 42
161 59 38
157 56 36
126 79 60
82 114 92
82 115 93
82 114 92
82 114 91
83 116 93
82 115 92
81 114 91
81 113 90
82 114 91
82 115 92
82 114 92
81 113 91
82 114 92
81 112 90
81 113 91
81 111 88
81 112 90
82 110 87
109 84 43
125 82 28
134 87 29
135 85 29
146 91 31
144 89 30
148 91 31
152 93 32
155 94 32
159 98 34
161 99 34
162 99 34
165 101 35
165 102 35
170 105 37
162 101 35
165 104 36
167 105 37
166 105 36
173 110 38
169 108 37
175 111 39
164 105 37
165 105 36
161 104 36
157 102 35
155 100 34
156 101 35
144 95 32
139 93 31
134 90 31
134 90 31
131 89 30
126 86 29
121 84 29
108 78 26
100 72 24
101 70 23
106 74 24
102 72 23
94 67 21
97 67 22
89 72 40
58 84 71
57 83 70
57 84 71
58 85 72
57 84 72
58 86 73
58 85 72
57 83 71
58 85 72
59 86 73
61 89 76
62 91 77
63 91 76
65 95 80
66 96 79
68 98 81
70 99 82
71 101 83
73 104 85
75 106 87
75 106 87
75 107 87
78 110 89
79 112 91
79 112 90
81 113 92
81 115 94
82 116 94
82 114 92
82 116 93
82 115 93
83 117 94
83 116 94
83 116 94
82 115 93
83 117 94
83 116 94
82 115 93
82 115 93
83 116 93
83 116 94
83 116 94
82 114 92
83 116 94
83 115 93
83 116 93
82 115 92
82 113 91
82 115 93
82 115 92
82 114 92
82 115 93
82 115 93
81 113 91
82 116 93
82 114 92
82 114 92
81 113 91
82 114 92
81 112 90
82 113 91
103 91 72
133 48 28
138 49 27
149 53 31
155 55 32
153 54 32
157 57 33
161 57 34
163 58 34
166 59 35
174 62 37
171 61 36
169 61 36
171 61 36
172 62 37
169 61 36
177 64 38
176 63 38
170 61 36
175 62 37
173 62 37
173 62 38
166 60 36
174 62 38
164 59 36
167 61 37
165 60 36
161 59 35
159 58 35
155 57 34
156 57 35
154 57 34
146 54 33
143 53 32
142 53 32
134 50 30
131 50 30
125 47 28
123 47 29
111 44 26
98 55 40
115 106 88
102 103 83
101 101 82
96 98 78
101 101 83
80 93 78
59 88 75
58 87 74
58 87 74
60 88 75
60 89 76
60 89 76
60 89 75
61 91 77
61 90 76
63 93 78
64 94 79
64 94 79
66 96 81
66 96 80
69 99 83
70 101 84
71 103 85
72 104 86
72 104 86
75 108 89
75 107 88
75 108 88
76 109 90
77 110 90
78 111 91
79 113 92
79 112 91
80 113 92
81 115 94
81 116 94
81 115 94
82 115 94
82 116 94
83 117 95
82 117 95
83 118 96
83 117 95
83 117 95
83 117 95
83 117 96
83 117 95
83 117 95
83 118 96
83 118 95
82 117 95
83 118 96
83 117 96
83 117 95
83 117 95
83 117 95
83 117 95
83 117 95
83 117 95
83 117 95
83 118 96
83 117 95
83 118 96
83 117 95
83 117 95
83 117 95
83 117 95
83 118 96
83 117 95
83 117 95
83 118 96
83 117 95
83 117 95
83 118 96
83 117 95
82 117 95
83 117 95
83 118 96
82 117 95
83 117 95
83 117 95
83 117 95
83 117 95
83 117 95
83 117 95
83 117 95
82 117 95
82 117 95
83 117 95
83 117 95
82 117 95
82 117 96
82 117 95
83 117 95
83 117 95
83 117 95
82 117 95
82 117 95
83 117 95
82 117 95
83 117 95
82 117 95
82 117 95
83 117 95
82 117 95
83 117 95
82 117 95
83 117 95
82 117 95
82 117 95
82 116 95
82 117 95
83 117 95
82 117 95
83 117 95
82 117 95
82 117 95
83 117 95
82 117 95
86 122 98
86 121 98
86 121 98
86 121 98
85 121 97
86 122 98
86 122 98
86 121 98
86 122 98
85 120 97
86 121 98
86 121 98
86 121 98
86 121 98
86 121 98
86 121 98
86 121 98
86 121 98
86 121 98
86 121 98
86 121 98
86 121 98
86 121 98
86 121 98
86 121 98
86 122 98
86 121 98
86 121 98
86 121 98
86 121 98
86 121 98
86 121 98
86 121 97
86 120 97
86 121 98
86 121 98
86 121 98
85 121 98
85 120 97
86 121 98
85 120 97
86 121 98
85 120 97
85 120 97
86 120 97
86 121 98
85 120 97
96 119 95
137 105 76
144 109 80
145 110 81
144 109 80
143 109 80
142 108 79
138 104 75
143 108 79
142 107 78
143 108 79
142 107 79
143 108 79
144 109 81
144 108 79
143 108 80
143 109 80
145 109 81
145 109 80
143 109 80
143 108 79
142 108 79
143 108 79
142 108 79
145 110 81
141 107 78
142 107 78
143 108 79
139 106 77
143 108 79
139 106 77
145 109 80
145 110 80
144 108 79
142 107 78
142 107 78
142 108 79
144 109 80
145 109 80
142 107 78
139 105 76
142 108 78
142 107 78
132 100 73
115 89 67
114 88 65
115 89 67
116 89 67
117 91 68
118 91 68
116 89 66
117 91 67
117 90 67
116 89 67
113 89 66
112 87 64
112 88 66
114 88 65
116 90 67
118 92 68
114 88 65
111 87 64
114 89 67
112 88 65
115 89 66
114 89 66
112 88 65
114 89 67
111 87 64
113 88 66
111 87 64
112 87 64
111 86 64
111 87 65
110 86 63
111 87 64
111 87 66
89 115 92
84 118 96
83 118 95
83 117 95
84 119 96
84 118 95
84 119 96
85 119 96
85 120 97
84 119 96
85 119 97
85 120 97
84 119 96
85 119 96
85 119 96
85 120 97
85 120 97
85 119 96
85 120 97
85 119 96
85 120 97
85 120 97
85 119 96
85 120 97
84 119 97
85 120 97
85 120 97
84 119 96
85 119 96
85 120 97
85 120 97
85 120 97
85 120 97
85 119 97
85 120 98
84 119 96
85 120 97
85 120 97
85 120 97
85 120 97
85 119 97
84 118 96
85 120 97
85 120 97
85 120 97
85 120 97
85 120 97
85 119 96
85 120 97
84 119 96
85 120 97
85 119 97
85 119 96
84 119 96
84 119 96
84 118 95
85 120 97
84 119 96
85 120 97
84 119 96
85 119 96
84 119 96
85 119 96
84 119 97
84 119 96
85 120 97
85 120 97
83 117 95
85 120 97
85 120 97
84 119 96
85 119 97
84 118 96
85 119 96
85 120 97
84 119 96
83 117 95
85 119 96
84 119 97
85 119 97
73 100 92
49 47 91
50 48 93
52 49 96
54 51 100
55 51 101
55 52 101
56 52 103
58 54 107
57 54 106
58 55 108
58 55 108
59 56 111
59 55 109
60 56 111
59 56 110
60 57 113
60 57 112
60 57 113
61 57 114
61 57 113
60 56 110
60 56 111
60 57 112
59 56 111
60 57 113
170 150 150
174 152 136
98 85 75
222 194 172
226 198 176
223 196 174
178 156 139
41 36 31
0 0 0
0 0 0
0 0 0
0 0 0
0 0 0
17 9 7
164 136 120
207 170 150
206 168 148
151 118 104
138 106 92
123 96 102
50 40 79
48 36 71
45 35 68
43 32 62
41 28 55
35 25 49
30 23 45
40 49 59
82 115 93
82 114 92
82 116 93
82 115 92
82 114 92
82 115 92
82 116 93
136 84 64
188 66 43
200 71 45
211 74 48
215 76 49
224 79 51
223 79 51
229 81 53
232 82 53
236 84 54
234 83 54
236 84 54
240 85 56
239 85 55
239 85 55
241 86 56
240 87 57
244 93 63
249 105 76
255 123 93
255 142 110
255 153 120
255 150 118
255 136 105
255 117 87
246 101 72
239 90 62
238 86 57
237 85 56
235 84 55
234 83 54
233 83 55
232 82 54
228 81 53
229 81 53
228 81 53
225 80 53
221 78 51
219 78 52
218 78 51
212 76 50
212 76 50
204 73 48
202 73 48
196 71 47
195 70 46
190 69 45
181 66 43
178 65 43
167 61 40
161 59 39
151 55 36
133 66 49
83 114 92
82 113 91
82 115 93
82 114 92
82 114 92
82 114 91
83 115 92
82 114 91
81 113 90
81 113 90
81 111 89
81 112 89
82 114 91
82 114 91
81 112 90
81 113 90
80 111 88
81 112 89
85 106 82
109 79 33
123 81 27
127 82 28
135 85 29
138 85 29
142 89 30
147 91 31
148 92 31
148 92 31
152 95 32
153 94 32
158 98 33
156 96 33
162 101 35
164 101 35
161 101 34
161 102 35
161 102 35
160 102 35
162 104 36
160 102 35
159 102 35
152 98 33
153 99 34
146 95 32
145 94 32
138 92 31
141 93 32
137 91 31
131 89 30
124 85 29
123 85 29
117 81 27
110 79 27
103 75 25
95 71 23
100 72 24
92 67 21
96 69 22
92 66 20
89 65 24
66 78 60
56 82 69
55 81 69
56 83 70
57 83 71
58 84 71
55 81 69
57 84 71
58 86 73
58 85 72
58 84 71
59 86 72
61 88 74
62 90 76
65 94 78
66 95 79
68 99 82
70 100 82
71 102 84
72 103 85
74 104 85
75 107 87
78 111 90
77 109 89
78 110 89
79 111 89
80 112 90
81 114 92
82 114 92
82 114 92
82 116 93
83 116 94
82 115 93
83 117 94
82 115 93
83 116 94
83 116 94
83 116 93
83 116 93
84 117 94
82 116 93
83 116 93
83 116 93
82 114 92
82 115 93
82 115 93
82 114 92
82 116 94
83 115 93
82 115 93
81 113 91
82 115 92
82 115 93
82 114 92
82 114 92
82 114 92
82 114 92
82 114 92
81 112 90
81 113 91
81 113 91
81 113 91
82 113 91
114 64 46
127 46 25
140 49 28
146 52 30
148 53 30
157 56 33
156 55 32
165 59 35
162 57 34
158 57 33
159 57 33
164 59 35
166 60 36
167 60 36
167 60 36
165 60 35
173 62 37
164 59 35
165 59 35
162 58 34
165 59 35
163 59 35
159 57 34
160 58 34
161 58 35
158 58 34
153 56 33
150 55 33
147 54 32
143 53 31
138 51 30
137 51 30
134 50 30
133 50 30
118 45 26
125 48 29
117 45 27
108 42 25
91 41 24
97 88 70
95 97 75
106 105 87
101 102 82
96 98 77
84 91 73
59 87 74
59 88 75
58 86 74
58 87 74
59 89 76
57 85 72
60 89 76
59 89 76
60 89 76
61 90 77
61 90 76
62 91 77
63 93 79
65 96 81
66 97 81
67 98 82
68 99 83
71 102 85
70 102 85
73 104 86
73 104 86
74 106 88
74 106 87
76 109 89
77 110 90
78 111 91
79 112 91
79 113 92
80 113 93
81 114 93
81 115 94
82 116 94
82 115 94
82 116 94
82 117 95
82 116 95
82 116 95
83 118 96
82 117 95
83 117 95
83 117 95
82 116 95
83 117 95
82 117 95
83 117 95
83 117 95
83 118 96
83 117 95
83 117 95
83 117 95
83 117 95
83 117 95
83 117 95
83 117 95
82 117 95
83 117 95
83 117 95
83 117 95
83 118 96
83 117 95
83 117 95
82 117 95
83 117 95
83 117 95
83 117 95
83 117 95
83 117 96
82 116 95
82 117 95
83 118 96
83 117 95
83 117 95
83 117 95
82 117 95
82 117 95
83 117 96
83 117 95
83 117 96
82 117 96
83 117 96
82 117 96
83 117 95
83 117 96
83 117 95
82 117 95
82 117 95
82 117 96
83 117 95
83 117 95
83 117 95
82 117 95
83 117 96
82 117 95
82 117 95
82 117 95
82 117 95
83 117 96
82 117 95
82 117 95
82 117 95
83 117 95
83 117 95
83 117 95
82 117 95
82 117 95
82 117 95
82 116 95
82 117 95
83 117 95
83 117 95
82 117 95
83 117 95
83 117 95
83 117 95
86 122 98
86 121 98
86 121 98
86 121 98
86 122 99
86 121 98
86 122 98
86 121 98
86 121 98
86 121 98
86 122 98
86 121 98
86 121 98
86 121 98
86 121 98
86 121 98
86 121 98
86 121 98
86 121 98
86 121 98
86 121 98
86 122 99
86 121 98
86 121 98
86 121 98
86 121 98
86 121 98
86 121 98
85 120 97
86 121 98
86 121 98
86 121 98
86 121 98
86 121 98
86 122 99
86 121 98
85 120 97
86 121 98
86 121 98
85 120 97
86 121 98
86 121 98
86 121 98
86 121 98
85 119 96
86 121 97
86 121 98
90 120 97
144 111 83
140 106 77
143 108 79
142 108 78
143 108 79
144 109 80
143 109 80
144 109 80
142 107 78
140 106 78
146 110 81
145 110 81
144 109 80
143 108 79
145 109 80
144 108 80
143 108 79
143 108 79
141 107 78
142 108 78
145 109 81
143 108 79
143 109 80
142 108 78
144 109 80
143 108 79
141 107 78
141 106 77
142 108 78
142 108 79
145 110 81
144 109 79
140 106 77
140 106 77
140 106 77
139 105 76
141 107 78
142 107 78
141 106 77
144 108 79
144 109 80
145 110 81
134 102 75
116 90 67
115 90 67
118 91 68
116 90 67
116 90 66
117 90 67
116 89 67
119 92 69
117 90 68
115 89 67
117 91 68
115 89 66
114 88 65
116 90 68
115 90 67
113 88 66
114 88 66
112 88 65
112 88 65
111 86 64
106 83 61
114 89 67
112 88 66
109 85 63
110 86 64
114 89 67
115 89 67
112 87 65
113 89 67
112 87 65
114 89 66
110 86 64
111 86 65
91 113 91
82 116 94
82 116 94
84 118 96
83 117 95
82 116 94
83 117 95
84 118 95
84 118 96
84 118 95
84 118 95
83 118 95
84 118 96
83 117 94
85 119 96
84 118 95
85 120 98
85 120 97
85 119 96
85 119 96
84 119 96
85 120 97
84 118 95
84 119 96
85 120 97
85 120 97
85 120 97
85 119 96
85 120 97
85 121 98
85 120 97
85 120 97
85 119 96
85 119 96
84 118 95
85 119 96
85 120 97
85 120 97
85 119 96
85 119 96
85 120 97
85 119 96
85 119 96
84 119 96
85 120 97
85 120 97
85 119 97
85 120 97
85 119 96
84 119 96
84 118 96
85 119 97
85 120 98
85 120 97
85 120 97
85 120 97
85 120 97
85 120 97
84 119 96
85 119 96
84 119 96
85 119 97
84 119 97
85 119 97
85 120 97
85 119 96
84 119 96
84 119 96
84 119 96
84 118 95
84 119 96
84 119 96
84 118 96
84 119 96
84 117 94
85 119 96
84 118 96
85 119 97
84 118 95
84 119 96
73 100 91
47 45 87
50 47 92
51 49 95
52 49 95
54 51 99
54 51 99
55 52 101
56 52 103
56 53 103
57 54 106
56 53 103
58 55 108
59 56 110
59 56 111
59 56 110
59 55 109
60 56 112
59 56 110
59 55 109
58 55 108
58 55 108
60 56 112
60 56 111
58 54 106
63 59 111
198 173 161
83 73 64
170 149 132
220 193 169
221 194 172
207 182 161
69 60 53
0 0 0
0 0 0
147 129 115
162 141 124
142 125 112
40 34 29
0 0 0
74 64 57
199 161 141
198 161 141
183 145 127
75 56 48
150 116 112
48 38 75
48 38 76
44 32 63
40 29 55
39 27 53
35 23 45
27 21 42
41 51 57
82 116 93
83 117 94
82 115 92
81 113 91
82 115 93
83 116 94
82 115 92
157 74 54
190 66 43
199 70 45
207 73 47
219 77 50
218 77 50
225 79 51
226 80 52
230 81 53
229 81 52
233 83 54
235 83 54
234 83 54
237 84 55
236 83 54
237 84 54
238 85 56
242 89 60
243 95 66
246 105 76
255 117 87
255 121 91
255 120 90
250 110 81
244 99 71
239 91 62
237 86 57
236 84 56
233 83 54
232 82 54
231 81 53
230 81 53
227 80 53
227 80 53
226 80 53
224 79 52
221 79 52
221 79 51
215 76 50
216 77 51
211 75 49
207 74 49
203 73 48
200 72 48
197 71 47
189 69 45
187 68 44
182 66 44
179 65 43
171 62 41
160 59 38
146 54 36
139 51 33
86 111 89
82 115 93
81 112 90
82 113 90
83 115 92
82 114 92
81 112 89
82 114 91
82 112 90
82 113 91
81 113 90
81 112 90
82 113 90
82 114 92
80 111 89
82 114 91
81 111 88
80 110 87
79 110 88
84 91 65
105 72 25
112 75 25
124 81 27
129 83 28
131 84 28
135 86 29
139 88 29
141 89 30
143 90 30
147 91 31
148 93 32
151 94 32
152 96 33
151 96 33
151 96 32
149 95 32
152 98 33
151 96 32
146 95 32
145 94 31
148 96 32
141 92 31
145 94 31
137 91 30
135 90 30
135 90 30
130 88 29
121 83 27
118 81 27
112 78 26
106 76 25
95 71 22
89 68 21
92 69 22
93 69 22
90 67 21
95 69 22
83 62 19
90 64 20
75 76 56
56 80 68
56 81 69
57 83 71
57 82 69
56 82 69
57 85 72
57 84 71
57 84 72
57 85 72
57 84 71
57 84 71
59 86 72
60 87 73
62 89 75
64 92 77
66 94 78
67 95 78
68 97 80
71 100 82
72 102 84
74 104 85
75 107 88
77 108 88
78 110 89
79 111 90
81 114 92
81 114 92
82 115 93
82 115 93
83 116 94
82 115 93
82 115 93
83 116 93
82 115 93
83 117 94
82 115 92
83 116 94
82 115 93
83 115 93
83 116 94
82 115 93
82 115 92
83 116 94
82 114 92
82 115 92
82 115 92
82 115 93
82 115 93
82 114 92
82 114 92
82 115 93
81 113 91
82 114 92
81 114 92
81 114 92
81 113 91
80 111 89
81 113 91
81 113 91
81 113 90
80 111 89
81 111 89
81 112 90
85 102 82
110 44 25
124 44 25
134 48 27
143 51 29
143 51 29
148 53 30
147 53 30
152 54 31
150 54 31
155 55 32
153 56 32
160 58 34
159 57 34
160 58 34
161 58 34
159 58 34
158 58 34
157 57 33
159 58 34
157 57 33
156 57 33
154 56 33
158 57 34
149 55 32
148 54 32
150 55 33
149 54 32
143 53 31
139 52 31
133 50 29
128 49 28
132 49 29
115 45 26
115 45 26
113 44 26
96 39 22
100 41 24
95 81 62
101 101 80
91 95 73
94 95 74
97 98 79
97 98 79
66 87 73
58 85 73
58 87 74
58 86 73
58 86 73
58 87 74
58 86 74
57 86 74
59 88 76
58 87 74
59 88 75
60 88 74
61 90 76
62 91 77
62 91 77
64 93 79
66 96 81
66 96 81
69 100 83
70 101 84
71 102 85
72 104 86
74 106 87
74 106 88
76 109 89
77 109 89
79 112 92
78 111 91
80 113 91
80 113 92
80 113 92
81 115 93
82 116 94
82 116 94
82 116 95
82 116 95
83 117 95
83 117 95
83 117 95
82 116 94
83 117 95
83 117 95
83 117 95
83 117 95
83 118 96
83 118 96
83 117 95
83 117 95
83 117 95
82 117 95
83 117 96
83 117 95
83 117 95
83 117 95
83 118 96
82 117 95
83 117 95
83 117 95
83 117 95
83 117 95
83 117 95
83 117 95
83 117 95
83 118 96
83 117 95
83 117 95
82 117 95
83 117 96
83 117 95
83 117 95
83 117 96
83 117 96
83 117 95
83 117 95
83 117 95
83 117 96
83 117 95
83 117 95
83 117 95
83 118 96
83 117 96
83 117 96
83 117 95
83 117 95
83 117 95
83 117 95
82 117 95
82 117 95
82 117 95
83 117 95
82 117 95
82 117 95
82 117 95
83 117 95
83 117 95
83 117 95
83 117 95
82 117 95
83 117 95
83 117 95
83 117 95
83 117 96
82 117 95
82 117 95
82 117 95
82 117 95
82 117 95
82 117 96
82 117 95
83 117 95
82 117 95
82 117 95
82 117 95
82 117 95
83 117 95
85 120 97
86 121 98
85 121 98
86 122 98
86 121 97
86 121 98
86 121 98
85 121 98
86 121 98
86 122 98
86 121 98
86 121 98
86 121 98
86 121 98
86 121 98
86 122 99
86 122 98
86 121 98
86 121 98
86 121 98
86 121 98
86 121 98
86 121 98
86 121 97
86 121 98
85 121 97
86 121 98
86 121 98
85 120 97
86 121 97
86 121 98
86 121 98
86 121 98
86 121 97
86 121 98
85 120 97
86 121 98
86 121 97
85 120 97
86 121 98
86 121 98
86 121 97
86 121 98
86 121 97
86 121 98
85 120 97
85 119 96
87 120 97
135 108 80
142 107 78
142 108 79
142 108 79
140 106 77
142 107 78
142 108 79
144 109 81
144 109 80
139 105 76
140 106 77
143 109 80
143 108 79
138 105 76
141 107 78
142 108 78
144 109 80
143 108 79
140 107 78
143 108 79
145 109 80
148 112 83
143 108 80
142 108 78
144 109 80
142 107 78
142 108 79
144 109 80
144 109 79
141 107 78
139 105 76
141 107 79
140 106 77
144 108 79
143 108 79
141 107 78
142 108 79
142 107 78
144 109 80
143 108 79
143 108 79
145 109 80
134 102 75
116 89 67
112 87 65
117 90 67
116 91 68
114 89 67
115 88 66
114 89 66
115 89 67
116 89 66
116 90 67
111 86 63
112 87 65
117 90 68
115 89 66
113 89 66
115 89 67
114 88 66
115 90 68
112 87 65
109 85 63
112 88 66
112 88 66
111 86 64
110 86 63
113 88 66
114 88 66
112 87 65
112 87 64
113 88 66
108 85 63
110 85 63
111 86 64
110 86 64
91 107 86
82 116 94
81 115 93
83 117 95
83 117 95
82 116 94
83 117 95
83 117 95
82 116 94
83 116 94
83 118 96
84 119 96
84 118 95
84 118 95
84 119 96
84 118 95
84 118 95
84 118 95
84 119 96
85 120 97
84 118 95
84 118 95
85 119 96
85 120 97
85 120 97
85 119 96
85 120 97
85 119 96
85 120 97
85 120 97
85 119 96
85 119 97
85 119 96
84 119 96
85 119 97
85 120 97
85 120 97
84 118 95
84 119 96
85 119 96
85 120 97
85 119 96
85 120 97
85 120 97
85 120 97
86 120 97
85 120 97
85 120 97
85 120 97
85 120 97
85 120 97
84 118 95
85 120 97
85 120 97
85 120 97
84 119 96
84 119 96
85 119 96
85 120 97
84 119 96
84 119 96
84 119 96
84 119 97
85 120 97
85 120 97
85 121 98
85 119 96
85 120 97
85 119 96
85 119 96
84 119 96
84 118 95
84 119 96
84 118 95
84 118 96
84 119 96
85 119 96
84 118 95
84 118 95
84 118 96
76 104 93
45 43 83
48 46 89
50 47 91
52 49 95
52 49 95
53 50 97
54 51 100
56 52 103
55 52 102
56 53 104
57 53 105
56 53 103
58 55 109
58 54 107
58 55 107
59 56 110
58 55 107
58 55 107
58 55 108
58 54 107
58 55 109
58 54 107
58 55 109
58 55 108
93 84 117
204 179 159
34 29 26
193 169 148
218 191 167
218 191 168
168 147 130
0 0 0
0 0 0
142 124 109
207 183 162
209 183 162
208 179 158
169 145 127
15 13 12
0 0 0
165 134 118
195 153 132
187 147 127
75 62 54
147 108 100
46 35 69
45 34 65
42 30 56
39 28 54
36 24 45
29 19 38
29 21 40
40 50 55
82 114 92
82 115 93
82 114 92
82 115 92
83 117 94
83 116 94
86 112 90
170 66 45
187 66 42
200 70 44
207 73 47
215 76 49
219 77 49
222 79 50
226 80 52
232 82 53
228 81 52
228 81 52
232 82 53
233 83 54
236 84 54
235 83 54
234 83 54
237 84 55
236 85 56
235 87 59
239 92 63
241 96 67
242 99 70
241 97 68
240 93 64
237 89 60
234 85 56
231 82 54
231 82 53
230 81 53
230 81 53
230 81 53
225 79 52
223 79 51
222 78 51
223 79 51
220 78 51
218 78 51
217 78 51
213 76 50
211 76 49
207 74 48
205 74 48
196 71 46
192 69 45
193 70 46
189 68 45
185 67 44
179 65 43
171 63 41
166 61 40
160 58 38
145 54 35
141 51 33
95 102 81
82 114 92
82 114 91
82 113 90
81 113 91
81 113 91
81 113 91
81 113 90
80 111 88
81 113 90
80 111 89
82 113 90
80 112 89
81 113 90
79 109 87
81 112 89
80 110 87
80 110 87
80 111 88
77 106 84
85 80 50
96 68 21
108 72 23
118 77 25
119 78 25
127 82 27
131 84 28
132 85 28
134 86 28
136 88 29
142 90 30
142 91 30
140 89 30
140 90 30
142 91 30
138 91 30
143 92 31
140 91 30
136 89 29
137 90 30
134 89 29
134 88 29
130 88 29
127 86 28
126 85 27
127 85 28
115 80 25
112 79 25
106 76 24
102 73 23
91 67 20
90 68 21
87 65 19
92 69 21
87 65 20
83 63 19
82 63 19
79 60 19
74 71 49
54 78 65
53 78 66
56 81 68
56 81 68
57 81 67
56 82 70
57 83 70
56 82 69
56 82 69
58 85 72
57 81 68
58 84 72
58 84 70
59 87 73
61 88 73
63 91 76
65 93 77
67 96 79
69 98 81
71 100 82
73 103 84
75 107 87
76 107 87
78 109 89
79 110 89
81 114 92
80 112 90
81 113 91
82 114 92
82 115 92
81 112 90
82 115 93
83 116 93
83 116 94
82 116 93
83 115 93
83 116 94
82 116 94
83 115 93
82 115 92
83 116 93
82 115 92
82 115 93
83 116 94
83 114 92
82 115 93
82 114 91
82 114 92
81 114 92
81 113 91
82 113 91
81 112 90
81 112 90
82 114 92
81 113 91
80 111 89
81 113 91
82 114 92
81 113 90
80 111 89
81 111 89
80 111 89
81 113 91
80 111 89
80 110 88
88 83 64
113 43 24
121 45 25
128 46 26
131 47 27
139 50 28
140 51 29
143 52 30
146 53 30
148 54 31
150 55 32
152 55 32
153 56 32
153 56 32
153 55 32
153 55 32
149 55 32
151 55 32
151 55 32
145 53 30
145 53 30
145 53 31
147 54 31
146 53 31
141 52 30
142 52 30
135 50 29
134 50 29
124 47 27
124 47 27
122 46 27
116 44 25
109 43 24
104 41 23
99 40 23
89 37 21
91 71 52
93 95 73
86 91 69
86 91 68
90 93 71
86 90 70
78 91 76
57 85 72
57 84 71
58 86 73
58 86 73
58 86 73
57 85 73
58 86 73
58 86 73
58 86 74
59 88 75
59 88 75
59 88 75
60 89 76
60 89 76
61 91 77
63 92 78
64 93 79
66 96 81
69 100 83
70 102 85
70 102 85
72 104 87
74 105 86
74 106 88
75 107 88
77 110 90
78 111 91
79 112 91
81 114 93
80 114 93
80 114 93
81 114 93
82 116 94
82 116 94
83 117 95
82 117 95
83 117 95
82 116 94
83 118 96
83 118 96
82 116 94
83 117 95
83 117 95
82 117 95
83 117 95
83 117 96
83 117 95
83 117 95
82 116 94
83 117 96
83 117 95
83 118 96
83 117 95
83 117 96
83 117 95
83 117 95
83 118 96
83 117 95
83 118 96
83 118 96
83 118 96
83 117 96
83 117 95
83 117 95
83 117 95
83 118 96
83 118 96
83 117 95
83 117 96
83 117 95
83 117 95
83 118 96
83 117 95
83 117 95
82 117 95
83 117 95
83 117 95
83 118 96
83 117 95
83 118 96
83 117 95
83 117 95
83 117 95
83 117 96
83 117 95
83 117 96
83 117 95
83 118 96
82 117 95
83 117 96
82 117 95
82 117 96
83 118 96
83 117 95
83 117 95
83 117 95
83 117 95
82 117 95
82 117 95
83 117 96
82 117 95
83 117 95
82 117 95
83 117 95
82 117 95
82 117 95
83 117 95
82 117 95
83 117 95
83 117 95
83 117 95
82 117 95
82 117 95
82 117 95
82 117 95
86 121 98
86 122 99
86 121 98
86 121 98
86 121 98
86 121 98
86 121 98
86 121 98
86 122 98
86 122 98
86 121 98
86 122 98
86 121 98
86 121 98
86 122 98
86 121 98
86 121 98
86 122 98
86 121 98
86 121 98
86 121 98
86 122 98
86 121 98
85 120 97
85 121 98
86 121 98
86 121 98
86 121 98
86 121 97
86 121 98
86 121 97
86 121 98
86 121 98
86 121 98
86 121 97
86 121 98
86 121 98
85 120 97
85 120 97
85 120 97
86 121 98
85 120 97
85 120 97
86 121 97
85 120 97
85 120 97
86 121 98
87 121 98
136 109 81
139 106 77
144 110 81
140 106 77
139 106 77
143 109 79
139 105 76
140 106 77
142 108 79
141 107 78
141 107 78
142 108 79
143 108 79
145 110 81
140 106 77
142 107 78
143 108 79
143 108 79
142 108 79
139 106 77
145 109 80
146 111 81
140 106 77
142 107 78
143 108 79
142 108 79
140 106 77
140 107 77
147 111 82
141 107 78
140 106 77
142 108 79
143 108 79
143 108 79
143 108 79
144 109 80
145 110 81
143 108 79
144 109 80
143 107 78
144 108 79
139 106 77
141 107 79
114 87 65
115 89 66
121 94 70
115 89 67
117 91 68
111 86 64
113 87 65
113 87 64
110 86 64
111 85 63
114 88 65
112 87 63
115 88 65
114 88 65
116 90 67
112 87 65
110 86 64
112 87 65
114 88 66
111 87 64
115 89 67
115 89 67
114 89 67
115 89 66
113 88 66
111 87 64
111 86 64
110 86 64
109 85 63
112 87 64
111 86 64
115 89 67
110 86 65
90 104 83
80 114 92
80 113 92
81 114 93
81 114 92
80 114 92
81 114 92
82 115 94
82 115 93
82 116 94
82 116 94
83 117 95
82 115 94
83 117 95
83 117 95
83 117 95
84 118 95
83 117 94
85 119 97
85 120 97
84 118 95
85 119 96
84 118 96
85 119 97
85 119 96
85 119 97
84 117 95
85 119 96
85 120 97
85 120 97
85 119 96
85 119 96
85 119 96
85 120 97
85 120 97
85 119 96
85 120 97
85 120 97
85 120 97
84 119 96
85 119 96
85 119 96
85 119 97
84 119 96
84 119 96
85 120 97
84 119 96
85 119 97
84 119 96
85 119 97
85 120 97
84 119 96
84 119 96
85 119 96
85 120 97
85 119 96
85 119 96
85 120 97
85 120 97
84 119 96
84 119 96
85 120 97
85 119 97
85 119 97
84 118 95
85 120 97
84 119 96
84 118 96
85 120 97
84 119 96
85 120 97
84 119 96
84 118 96
84 118 96
85 120 97
85 119 96
84 119 96
84 119 96
84 119 96
84 118 96
77 107 92
45 44 83
47 44 86
49 46 89
51 48 93
52 49 96
52 49 95
53 50 97
55 52 101
55 51 100
56 53 104
56 53 103
57 53 104
57 54 106
57 54 106
58 54 107
58 54 107
57 54 105
57 54 105
57 53 104
57 54 106
57 54 106
56 53 104
57 53 105
57 54 106
102 92 118
199 175 153
48 43 37
208 182 160
212 186 162
213 187 164
130 114 100
0 0 0
48 42 37
198 174 152
210 184 162
203 179 157
205 178 157
192 165 144
53 45 38
0 0 0
147 119 103
195 160 140
184 146 126
82 64 56
154 116 105
46 36 69
43 33 63
41 30 57
37 25 46
32 20 36
29 17 32
24 17 32
46 60 61
81 114 92
82 115 92
82 115 93
82 115 93
82 115 93
82 114 92
93 113 91
165 62 41
193 67 43
197 69 44
206 72 46
214 76 49
214 75 48
220 78 50
221 78 50
224 79 51
228 81 52
223 79 51
230 81 52
232 83 53
233 83 54
235 83 53
233 83 54
235 83 54
231 82 53
234 84 55
232 84 56
235 87 58
236 87 59
233 86 57
232 84 56
232 83 55
229 81 53
229 81 53
232 82 54
230 81 53
227 80 52
228 81 53
225 79 52
223 79 52
221 78 51
221 78 51
216 77 50
218 77 51
214 77 50
208 74 48
207 74 48
203 73 47
202 72 47
198 71 46
194 69 45
187 67 44
187 68 44
183 66 43
180 65 43
172 62 41
164 59 39
153 57 37
146 53 34
139 50 32
109 93 73
82 113 90
82 114 91
80 111 88
82 114 91
81 112 89
81 112 90
81 111 89
81 112 90
82 112 89
81 111 89
81 112 90
81 110 87
80 111 89
80 110 87
81 111 88
78 107 84
79 108 85
78 108 85
77 106 83
74 100 78
87 83 54
93 66 21
101 70 22
110 74 24
115 75 24
118 78 25
127 82 27
127 83 27
130 85 28
127 83 27
131 86 28
133 87 28
134 87 28
130 85 28
132 87 28
132 88 28
130 87 28
126 85 27
125 84 27
127 85 27
126 85 27
124 83 27
115 80 25
115 80 25
113 79 25
109 76 23
101 72 22
91 67 20
88 66 19
87 67 20
84 65 19
82 64 19
83 64 19
85 65 20
79 60 18
77 59 19
65 68 47
55 79 66
53 76 64
54 78 65
56 81 68
56 81 68
55 79 67
55 80 68
56 81 68
54 80 68
56 81 68
56 82 69
57 83 70
56 82 69
59 85 71
60 86 72
62 89 75
65 93 78
65 95 79
68 97 80
70 99 81
73 104 85
73 102 83
76 108 88
77 108 88
78 110 89
79 111 90
79 111 89
81 113 91
82 115 92
83 116 94
83 117 94
83 117 94
83 116 93
83 116 93
83 116 94
83 116 94
83 116 93
83 117 94
82 114 92
82 114 91
82 115 92
83 117 94
83 115 92
82 114 92
82 116 93
82 113 91
83 115 92
82 115 93
82 114 92
81 113 91
81 114 92
81 113 91
82 114 92
82 114 92
82 114 92
81 112 90
81 113 91
81 112 90
81 113 90
80 110 89
81 111 89
80 111 89
78 107 85
80 109 87
81 112 90
80 110 88
79 109 87
90 69 53
105 40 21
116 43 23
126 46 25
132 48 27
132 48 27
136 50 28
135 50 28
139 51 29
139 51 28
144 52 30
140 52 29
142 52 30
145 53 30
145 53 30
145 53 31
144 53 30
141 52 30
143 52 30
142 52 30
140 51 29
138 52 30
135 50 29
136 50 29
129 49 28
133 49 28
123 47 26
119 45 25
115 44 25
108 42 23
100 40 22
98 40 22
91 37 20
87 39 23
87 67 48
87 89 66
78 86 62
81 88 64
84 90 67
86 90 69
77 88 70
56 83 70
56 83 71
56 83 71
57 84 72
57 85 72
58 86 73
57 84 71
59 88 75
58 86 73
58 86 74
57 86 73
58 87 74
58 87 74
59 88 75
60 89 76
62 92 78
63 93 79
65 96 80
66 96 80
68 98 82
69 101 84
71 102 85
71 103 85
74 106 87
76 108 89
77 110 90
77 109 89
78 111 91
78 111 91
80 113 92
80 114 93
81 114 93
82 116 94
82 115 93
82 116 94
83 117 95
83 117 95
82 116 94
83 117 95
83 117 95
82 116 95
83 116 94
83 117 95
83 117 95
83 117 95
83 117 95
83 117 96
83 117 95
83 117 95
83 118 95
83 117 95
83 117 95
83 117 95
83 117 95
83 117 96
83 118 96
82 117 95
83 117 96
83 117 95
83 117 95
83 117 95
83 117 95
83 117 95
83 117 95
83 117 95
83 117 96
83 118 95
82 117 95
83 118 96
83 117 95
83 117 95
83 118 96
83 118 96
83 118 96
83 117 95
83 117 95
83 117 95
83 117 95
83 117 95
83 117 96
83 117 95
83 118 96
83 117 95
83 118 96
83 117 95
83 118 96
83 118 96
83 117 96
83 117 95
83 117 95
83 117 95
83 117 95
83 118 95
83 117 95
83 117 96
83 117 95
83 117 95
82 117 95
82 117 95
82 117 95
82 117 95
82 117 95
82 117 95
83 117 95
83 117 96
83 117 96
83 117 96
83 117 95
82 117 95
83 117 95
82 117 95
82 117 95
83 117 95
83 117 95
82 117 95
82 117 95
86 121 98
86 121 98
86 121 97
86 121 98
86 121 98
86 121 98
86 122 98
86 122 98
86 121 98
86 121 98
86 121 98
85 120 97
86 121 98
86 121 98
86 122 98
86 121 98
86 121 98
86 121 98
85 120 97
86 121 98
86 121 98
86 121 98
85 120 97
86 121 98
86 121 98
86 121 98
86 120 97
85 121 98
86 121 98
86 121 98
86 121 98
86 122 98
86 121 97
86 120 97
86 121 98
86 121 98
85 120 97
86 121 97
86 121 98
86 121 98
86 121 98
86 121 98
85 120 97
86 121 97
85 120 97
85 120 97
85 121 97
86 120 97
131 111 83
140 106 77
143 108 79
140 106 77
140 107 78
145 110 81
144 109 80
141 107 78
144 109 80
145 110 81
141 107 78
144 109 79
143 109 80
144 109 80
144 109 80
141 106 78
141 107 78
142 108 79
141 107 78
143 109 80
142 107 78
144 109 80
141 107 78
145 110 80
144 109 80
144 109 80
139 105 76
146 110 81
141 106 77
145 109 80
143 108 79
138 104 75
140 106 77
141 107 78
145 110 81
140 106 77
142 107 78
141 106 77
143 108 79
143 108 79
143 108 79
144 109 80
139 105 76
121 93 70
117 90 68
113 88 66
116 90 67
115 88 66
113 88 65
115 89 67
117 91 68
113 88 66
113 88 65
115 89 67
113 88 66
114 89 66
111 86 65
110 86 63
116 90 68
113 87 64
111 86 64
111 87 65
113 87 65
114 88 66
111 87 64
113 88 66
111 87 64
113 87 64
111 87 65
113 89 66
110 86 64
110 86 64
111 86 65
113 88 66
108 84 62
110 86 64
93 101 80
78 111 90
78 111 91
79 112 92
79 111 90
80 113 92
79 112 91
80 113 92
81 114 92
81 114 92
81 114 93
81 114 92
82 115 93
81 115 94
83 117 94
82 115 93
82 116 94
82 116 94
83 117 95
84 119 96
84 118 96
83 117 95
85 119 96
84 119 96
84 117 94
84 119 96
85 120 96
84 119 96
85 120 97
85 120 96
85 119 96
85 120 97
85 120 97
85 119 96
85 120 97
85 120 97
85 120 97
85 119 96
85 119 96
85 120 97
85 119 96
85 120 97
85 120 96
85 120 97
85 119 96
85 119 96
85 120 97
85 120 97
84 119 96
85 119 96
84 118 95
85 120 97
85 120 97
85 120 97
84 119 96
85 119 96
84 119 96
85 120 97
84 119 96
85 120 97
85 119 97
85 119 96
84 118 95
84 119 96
85 119 97
85 119 96
84 118 95
85 119 96
85 119 96
84 119 96
85 119 96
84 119 96
84 119 96
85 119 96
84 119 96
84 119 96
84 118 95
84 118 96
85 119 97
85 119 96
82 115 95
45 46 79
45 43 83
48 46 88
50 47 90
50 47 91
52 49 95
52 49 94
52 49 95
53 50 96
54 51 99
55 52 101
56 53 103
55 52 102
55 52 102
56 52 103
56 53 104
56 53 103
55 52 101
56 53 104
56 52 103
55 52 101
56 53 104
56 53 103
56 53 104
106 95 117
200 175 154
58 50 43
202 177 155
209 183 160
208 183 160
113 100 87
0 0 0
46 41 36
191 169 147
198 175 152
196 173 152
197 171 149
186 160 139
31 27 24
0 0 0
154 126 110
187 148 127
185 145 126
81 63 55
132 101 94
43 33 63
41 31 61
38 27 50
37 22 41
30 18 30
25 15 26
23 17 32
47 62 61
81 114 92
82 115 93
81 114 92
81 114 92
81 113 92
81 114 92
98 107 85
170 60 39
181 63 41
198 70 44
201 71 45
211 75 48
215 76 48
214 76 48
220 78 50
225 80 51
225 80 51
223 79 51
222 79 50
227 81 52
231 82 53
230 81 52
227 80 52
230 81 52
228 81 52
233 83 54
231 82 53
230 82 53
228 81 53
227 81 53
229 81 53
226 80 52
229 81 53
226 80 52
226 80 52
227 80 52
226 80 52
225 80 52
220 78 51
220 77 50
218 77 50
215 76 49
213 76 49
211 75 49
207 73 48
208 74 48
208 74 49
202 72 47
199 71 46
195 70 46
192 69 45
185 67 43
183 66 43
180 65 43
175 64 42
164 60 39
152 57 36
155 57 37
143 51 33
137 50 32
102 91 71
82 114 91
82 113 90
81 112 89
82 114 91
80 110 88
82 113 91
80 112 89
81 112 89
82 114 91
79 109 86
80 110 86
80 110 87
79 109 86
78 108 85
79 107 84
78 106 83
79 108 86
77 106 83
76 105 83
72 99 78
69 93 73
74 72 46
87 64 19
91 65 20
98 68 21
106 72 23
110 75 24
115 77 25
118 79 25
122 81 26
121 82 26
120 80 26
122 82 26
123 83 27
122 82 26
123 83 26
121 82 26
118 80 25
117 81 25
117 80 25
114 78 24
109 77 24
106 75 23
101 72 22
95 70 21
89 67 20
85 66 19
83 64 18
86 66 19
83 64 18
79 62 18
79 62 18
75 59 17
78 60 17
72 55 17
62 64 44
51 72 60
52 75 63
53 75 62
53 77 65
55 79 66
52 76 64
53 77 64
54 77 64
55 80 67
54 77 64
55 79 67
56 81 69
57 84 71
58 84 71
59 85 71
61 88 74
63 89 74
66 94 77
68 97 79
70 99 81
71 100 82
74 104 85
75 106 86
77 108 87
78 110 89
79 111 89
80 113 91
81 113 91
82 113 91
83 115 93
82 114 92
82 115 93
83 116 93
83 115 93
83 116 93
83 114 92
82 114 92
82 114 92
82 115 92
82 114 92
83 115 92
82 114 91
82 115 92
82 114 92
83 115 92
83 115 92
81 113 91
82 114 91
82 114 92
82 114 92
82 113 91
81 113 91
81 112 90
82 114 92
81 112 90
82 113 91
80 110 88
80 111 89
80 111 89
81 111 89
80 110 88
79 109 87
80 110 88
80 109 87
81 112 90
79 109 87
79 109 87
79 108 86
82 105 84
89 56 40
104 40 21
113 43 23
120 44 24
121 45 25
126 47 26
130 47 26
130 48 27
130 48 27
131 49 27
131 49 27
133 49 27
134 49 28
135 50 28
134 50 28
134 50 28
135 50 28
130 49 27
134 50 28
128 48 26
132 49 28
128 48 27
123 47 26
122 46 26
116 45 24
115 44 24
111 43 23
105 41 22
95 38 20
92 38 20
81 35 18
80 34 18
80 64 44
78 85 61
77 85 61
86 91 68
77 85 60
83 88 66
79 87 70
60 84 71
57 84 71
56 84 71
56 84 71
56 83 71
56 83 71
57 85 73
58 85 72
57 83 70
58 87 74
58 86 73
57 85 72
59 88 75
59 87 74
58 86 73
60 89 75
61 90 76
63 93 78
65 95 79
68 98 82
67 98 82
70 101 84
70 101 84
72 104 86
75 107 88
75 107 88
77 110 90
78 111 91
79 112 92
80 113 92
80 113 92
81 115 93
81 115 93
82 116 94
82 116 94
82 117 95
83 117 95
83 118 96
83 117 95
83 117 95
82 117 95
83 117 95
83 117 95
82 116 94
82 117 95
83 117 95
83 117 95
83 118 95
83 117 95
83 118 96
83 117 95
83 117 95
83 117 95
83 117 95
83 118 95
83 117 95
83 117 95
83 117 95
83 117 95
83 117 95
83 117 95
83 118 96
83 117 95
83 117 95
83 117 95
83 118 96
83 118 96
83 118 96
83 117 95
83 117 95
82 117 95
83 118 96
83 117 95
83 117 95
83 117 95
83 117 95
83 117 96
83 117 95
83 117 95
83 117 95
83 117 96
83 117 95
83 117 95
83 117 96
83 117 96
83 117 95
83 117 95
83 117 95
83 117 95
82 117 95
83 117 95
83 117 95
83 117 96
83 117 96
83 117 95
83 117 95
83 117 95
83 117 95
82 117 95
83 117 96
83 117 95
83 117 95
83 117 95
83 118 96
83 117 96
82 117 95
83 117 95
83 117 95
83 118 96
82 117 95
83 117 95
83 117 95
82 117 95
82 117 95
83 117 95
82 117 95
82 117 95
86 121 98
86 122 98
86 121 98
86 121 98
87 122 99
86 121 97
86 121 98
86 121 98
86 121 98
86 121 98
86 121 97
86 121 98
86 121 97
86 122 99
86 121 98
86 122 98
86 121 98
86 121 98
86 121 98
86 121 98
86 121 98
86 121 98
86 122 99
86 121 98
86 121 98
86 121 98
85 120 97
86 121 98
86 121 97
86 121 98
86 120 97
86 121 98
85 120 97
86 121 98
86 121 98
86 121 98
86 121 97
85 120 97
86 120 97
85 120 98
86 121 97
85 120 96
86 120 97
85 120 96
86 121 98
85 120 97
85 120 97
85 120 97
125 112 86
142 107 78
142 108 79
143 109 80
138 105 76
139 105 77
141 107 78
142 108 79
141 107 78
143 108 79
143 108 79
143 108 79
141 107 78
142 108 79
141 107 78
139 106 77
141 108 79
141 106 77
140 106 77
144 109 80
143 108 80
144 109 80
143 108 79
144 109 80
144 108 79
139 106 77
143 108 78
144 108 80
144 109 80
141 107 78
144 109 80
144 108 80
141 107 78
144 109 80
142 108 79
141 107 78
140 105 77
143 108 79
145 109 80
143 108 78
144 108 80
146 110 81
135 102 74
117 90 67
116 89 67
114 89 66
111 85 63
111 87 64
113 88 65
115 88 66
114 89 67
114 88 66
114 89 67
112 87 65
113 88 65
113 88 65
112 87 65
111 87 65
114 89 67
117 92 69
110 87 64
111 86 63
113 88 66
113 88 66
108 85 62
114 89 67
113 88 65
111 87 65
108 85 63
111 87 65
111 86 64
107 84 61
108 85 63
108 84 63
109 85 63
112 88 66
93 95 74
75 107 87
75 107 87
76 107 88
78 110 90
78 111 90
78 110 90
77 110 90
79 112 91
80 113 92
79 111 91
81 114 93
80 113 92
81 114 93
82 116 94
82 116 93
82 116 94
83 117 95
83 118 95
83 116 94
83 117 94
83 117 95
85 119 96
84 117 95
84 119 96
85 119 96
85 119 96
85 120 97
85 119 96
84 119 96
85 119 96
85 119 96
85 119 96
85 120 97
86 121 97
85 120 97
85 120 97
85 119 96
85 120 97
85 120 97
85 119 96
85 119 96
85 120 97
85 120 97
85 119 96
85 119 96
84 119 96
85 120 97
84 119 96
84 119 96
85 119 96
85 120 97
84 118 95
85 120 96
85 119 96
84 119 96
85 119 96
85 119 96
85 119 96
85 120 97
85 120 97
84 119 96
84 118 95
85 120 97
85 119 96
84 119 96
85 120 97
84 117 95
85 120 97
85 120 97
84 118 95
85 119 96
84 119 96
84 119 96
84 118 95
84 118 95
84 118 95
84 118 96
85 119 97
84 118 96
82 115 94
46 51 78
45 43 82
47 45 86
48 45 87
48 46 87
51 48 94
51 48 93
52 48 93
52 49 95
53 50 97
53 50 97
54 51 99
54 51 100
54 51 99
56 53 103
55 52 101
56 53 103
55 52 102
55 52 102
55 52 102
56 52 102
55 51 100
54 51 100
54 50 98
78 72 108
197 173 151
39 34 30
193 170 148
206 181 158
211 185 163
148 130 113
0 0 0
16 14 12
158 139 120
193 170 147
197 172 150
196 171 150
148 128 111
10 9 7
14 13 12
163 132 115
180 150 130
163 126 107
88 66 56
126 94 89
41 31 58
39 28 53
36 24 43
34 21 37
29 14 23
22 13 21
23 18 34
58 80 70
80 112 91
80 113 92
80 113 91
81 113 92
79 111 90
81 113 92
95 105 84
167 58 37
184 65 41
194 68 43
200 70 44
204 71 45
208 73 47
214 75 48
218 77 49
217 77 49
221 78 50
224 80 51
221 79 50
224 79 51
223 79 51
226 80 51
225 80 51
226 80 51
228 81 52
224 79 51
228 80 52
227 81 52
225 80 51
228 80 52
224 79 51
226 80 52
222 78 50
225 79 51
223 78 51
224 79 51
221 77 50
220 77 50
218 77 50
215 76 49
217 76 50
212 75 49
211 75 49
207 74 48
207 74 48
206 73 48
201 71 46
196 70 45
194 70 45
194 70 45
190 68 45
186 67 44
182 66 43
175 63 41
167 61 39
165 60 39
154 57 37
149 56 36
134 51 33
131 47 29
110 88 68
82 113 90
83 115 92
81 111 89
81 112 89
81 112 90
80 111 88
81 111 88
81 111 88
81 112 89
79 109 87
80 110 87
78 107 84
79 107 84
80 110 88
78 105 82
79 107 84
78 107 85
77 105 82
75 103 80
73 100 79
68 93 74
66 89 70
70 74 51
73 57 20
84 62 18
90 65 19
93 66 20
105 73 23
106 73 23
107 73 23
111 76 24
111 76 24
111 77 24
113 77 24
110 76 24
111 77 24
111 77 24
110 76 23
105 75 23
103 73 22
100 71 21
96 70 21
94 69 20
95 70 20
89 67 19
87 65 19
90 68 19
87 65 19
83 65 19
80 62 18
80 63 18
76 60 17
72 57 16
69 56 21
54 64 47
49 70 58
51 74 62
52 76 63
50 72 59
52 75 63
53 77 65
52 75 63
54 78 66
55 79 66
56 80 67
55 78 65
55 77 64
54 78 66
55 79 67
59 84 70
60 86 71
63 90 74
65 93 76
67 95 78
70 98 80
72 101 83
73 103 83
75 105 85
76 107 86
79 110 88
79 111 89
80 111 89
81 112 90
81 114 92
83 115 93
83 116 93
83 116 93
82 115 92
81 113 91
82 115 93
83 117 94
82 115 92
83 115 92
83 115 92
82 115 92
83 116 93
83 115 93
83 115 93
82 114 91
82 114 91
82 114 92
82 114 92
82 114 91
82 113 91
81 112 90
82 113 91
81 113 90
82 114 92
81 112 90
81 112 90
80 111 90
80 109 87
80 109 87
80 111 89
80 109 87
81 112 89
80 110 88
79 108 86
79 110 88
79 108 86
80 111 89
77 105 83
79 108 86
79 107 85
77 104 83
77 99 79
81 54 39
96 37 20
107 40 22
112 43 23
119 45 24
117 44 24
121 45 25
122 46 25
124 47 26
125 47 26
126 47 26
125 47 26
126 47 26
125 47 26
127 47 26
124 46 26
126 47 26
122 46 25
120 46 25
123 46 26
118 45 25
115 44 24
109 43 23
103 41 22
100 40 21
91 37 19
90 37 19
79 34 17
75 33 16
75 35 19
74 62 41
80 85 61
81 87 64
76 83 59
74 83 58
75 81 59
75 85 66
59 83 69
56 82 69
56 83 70
56 82 69
56 83 70
56 84 71
56 84 71
56 83 70
58 85 72
56 83 70
56 84 71
57 85 72
57 85 72
58 86 73
58 86 73
59 87 73
60 89 75
61 90 76
63 92 77
64 93 78
66 96 80
68 99 82
70 101 84
71 102 84
73 105 87
75 108 88
77 109 89
77 109 89
77 110 89
79 112 91
80 113 92
81 114 93
82 116 94
81 115 93
82 117 95
82 116 94
82 117 95
82 116 94
82 116 94
83 117 94
83 117 94
82 116 94
83 118 96
83 117 95
83 117 95
83 118 96
82 117 95
83 117 95
82 116 94
83 117 95
83 118 96
83 117 95
83 117 95
83 117 95
82 117 95
83 118 96
83 118 95
83 117 95
83 118 96
83 118 96
83 117 95
83 118 95
83 117 95
83 117 95
83 117 95
83 117 96
83 117 95
83 117 95
83 117 95
83 118 96
83 117 95
83 118 96
83 117 95
83 118 96
83 117 95
83 117 95
83 117 95
83 117 95
83 118 95
83 117 96
83 117 96
83 117 96
83 117 95
83 117 95
83 117 95
82 117 95
83 117 96
82 117 95
82 117 95
83 117 95
83 118 96
83 117 96
83 117 95
83 118 96
83 117 96
83 117 96
83 117 95
83 118 96
83 117 95
83 117 95
82 117 95
83 117 95
83 117 95
82 117 95
83 117 95
83 117 95
83 117 96
83 117 96
83 117 95
82 117 95
83 117 95
82 117 95
82 117 95
83 117 95
83 117 96
83 117 95
83 117 95
82 117 95
86 121 97
86 121 98
86 121 98
86 121 98
86 121 98
86 121 98
86 121 98
86 121 98
86 121 98
86 122 99
86 121 98
86 121 98
86 121 98
86 121 98
86 121 98
86 121 98
86 121 98
86 120 97
86 121 98
86 121 98
86 122 98
86 121 98
86 121 98
86 121 98
86 121 98
85 120 97
86 121 98
86 121 98
85 120 96
85 120 97
86 121 98
85 120 97
86 121 98
86 121 98
85 120 97
85 119 96
86 121 97
86 122 98
85 120 97
85 120 96
85 120 97
86 121 98
86 120 97
85 120 96
86 121 97
86 120 97
85 120 97
86 121 98
120 112 86
140 106 78
143 108 79
140 106 78
142 107 78
144 110 81
143 109 80
144 109 80
140 106 77
141 107 78
143 108 79
141 106 77
144 109 79
144 109 80
140 106 77
144 109 80
142 108 78
145 110 81
140 106 77
143 108 79
145 109 80
142 108 79
146 110 82
143 108 79
142 108 79
143 108 79
143 108 79
142 107 78
141 107 77
144 109 80
140 106 77
144 109 80
145 110 81
141 106 78
145 110 82
143 108 79
141 107 78
142 107 78
141 107 78
140 107 78
143 107 78
142 107 79
144 109 80
120 92 68
115 89 66
113 87 65
117 90 68
113 88 65
112 87 64
115 90 67
113 87 65
116 90 67
111 87 64
115 90 67
114 89 67
110 85 63
112 87 64
114 88 65
115 89 67
112 88 65
114 88 66
115 89 67
110 86 64
113 88 65
110 86 64
110 86 64
114 89 66
108 85 64
107 84 62
112 88 65
107 85 63
111 87 66
106 83 61
110 86 63
108 85 64
103 81 59
92 96 75
74 106 87
73 104 86
74 105 86
75 107 88
76 108 88
77 109 89
77 109 89
78 111 91
78 111 91
78 110 90
79 111 90
77 110 89
80 113 92
81 114 92
80 113 92
81 115 93
83 117 94
82 116 94
83 116 94
84 118 96
83 117 95
84 117 95
83 117 94
83 116 94
84 117 95
84 118 95
85 120 96
85 119 96
84 119 96
85 120 97
85 120 97
85 120 97
84 118 95
84 118 95
85 121 97
84 119 96
84 119 96
85 119 96
85 120 97
85 119 96
85 119 96
86 120 97
85 119 96
85 119 97
84 118 96
85 120 97
85 120 97
85 119 96
85 119 96
85 119 96
85 120 97
85 120 97
84 119 96
85 119 97
85 119 97
84 119 96
85 119 96
85 119 96
85 120 97
84 119 96
85 119 96
85 119 96
85 119 96
85 120 97
84 118 95
85 120 98
85 119 96
84 119 96
85 120 97
85 119 97
85 119 96
85 119 96
83 117 95
84 118 95
84 118 95
84 118 96
85 119 96
84 119 96
84 118 96
85 119 97
55 70 78
43 41 78
45 43 83
46 44 83
47 44 84
48 46 86
50 47 91
49 46 88
51 48 91
51 48 93
54 51 99
53 50 96
53 50 97
54 51 99
54 51 100
53 50 97
54 52 100
53 50 96
55 52 101
54 51 99
53 50 97
53 50 98
53 50 97
53 50 97
61 57 102
189 167 146
79 70 61
172 151 131
205 180 156
195 172 148
179 157 137
24 22 19
0 0 0
42 37 32
137 121 104
162 144 125
140 123 107
31 25 21
0 0 0
77 64 54
178 147 126
179 144 124
140 111 95
107 77 65
103 75 77
41 30 57
36 25 46
34 24 44
30 19 32
26 13 19
22 15 26
21 18 33
63 87 74
78 110 90
78 111 90
78 111 90
79 112 91
79 111 90
79 111 90
96 100 81
155 56 36
176 62 39
189 66 42
193 68 43
203 72 45
209 74 47
210 75 47
212 75 47
217 77 49
217 77 49
220 78 50
221 79 50
220 78 50
223 79 51
218 77 49
223 79 50
222 79 51
224 79 51
223 79 50
223 79 51
226 80 52
223 79 51
222 78 50
220 78 50
223 79 51
224 79 51
220 77 50
220 78 50
219 77 50
218 77 50
218 77 50
213 76 49
212 74 48
212 75 49
210 74 48
205 73 47
205 72 47
203 72 46
203 72 47
199 71 46
198 70 45
189 68 44
183 66 43
182 65 42
182 66 43
174 63 41
167 61 39
162 59 38
156 57 37
146 54 35
140 52 34
134 50 32
132 47 29
116 82 63
81 111 88
82 114 91
81 111 88
82 113 89
82 114 91
80 110 87
81 111 88
81 111 87
80 110 88
80 111 88
81 112 89
79 109 86
79 109 86
78 107 83
79 108 85
78 106 83
76 103 80
76 103 80
76 104 82
70 95 73
67 91 71
63 84 66
58 80 64
58 66 48
73 60 26
81 60 17
77 59 17
84 63 18
88 64 19
92 66 20
97 69 21
99 69 21
98 69 21
97 69 21
97 70 21
101 72 21
97 70 21
97 70 21
94 68 20
88 65 19
91 67 19
85 65 18
86 65 18
85 64 18
85 64 18
83 64 18
86 65 18
79 61 17
79 61 17
76 60 17
74 58 16
71 57 16
60 55 28
49 62 48
45 63 52
47 66 54
46 66 54
48 69 57
52 73 61
52 73 61
51 73 61
51 74 62
55 78 65
55 79 66
53 76 64
54 78 65
54 77 65
58 82 69
57 83 69
60 85 70
63 89 73
65 91 74
68 95 77
69 96 79
72 100 82
73 103 84
75 105 85
77 108 87
79 109 88
79 110 88
82 114 91
82 114 92
82 114 92
82 115 92
82 115 92
83 115 92
81 113 90
82 114 91
82 114 91
83 115 92
82 114 91
83 115 92
81 113 91
82 114 92
82 114 91
82 113 90
83 116 94
83 114 92
82 114 92
82 114 91
82 114 91
82 114 91
82 113 90
82 113 91
82 114 92
82 115 92
81 112 90
81 113 91
82 114 91
81 113 90
81 113 91
80 111 89
80 111 89
79 108 86
79 108 86
79 108 86
79 108 86
77 105 84
78 108 86
79 108 86
77 104 83
78 107 85
77 103 82
77 105 83
77 105 83
73 100 80
68 89 70
77 50 35
89 36 18
98 38 20
104 40 21
108 42 22
113 43 23
112 43 23
114 43 23
115 44 24
117 44 24
116 44 24
116 44 24
117 44 24
116 45 24
117 45 24
112 43 23
111 43 23
109 42 23
109 42 23
106 41 22
102 40 21
102 40 21
94 38 19
87 36 18
86 36 18
77 33 17
76 33 16
74 38 21
70 64 41
74 83 57
70 79 53
72 80 55
75 82 58
74 82 58
69 81 62
54 77 64
55 81 67
53 78 65
54 80 68
56 82 69
56 82 69
56 83 70
56 83 70
55 82 69
57 85 72
56 82 70
57 85 72
57 84 71
58 85 72
58 85 72
57 85 72
59 88 75
59 87 74
61 90 76
65 94 78
66 95 79
67 97 81
69 99 82
71 102 84
73 104 86
75 108 89
76 108 89
77 110 90
78 112 91
79 112 91
80 113 92
81 115 93
81 115 93
82 116 94
82 116 94
83 117 95
83 117 95
82 116 94
82 117 94
82 117 95
83 118 96
83 118 95
83 117 95
83 117 95
83 117 94
83 117 95
83 117 95
83 117 95
82 117 95
83 118 96
83 118 95
83 117 95
83 117 95
83 117 95
83 117 95
83 118 96
83 117 95
83 117 95
83 117 95
83 118 96
83 117 95
83 118 96
83 118 96
83 118 96
83 117 96
83 118 95
83 117 95
83 117 95
83 117 95
83 117 95
83 118 96
83 118 95
83 118 96
83 117 95
83 118 96
83 117 95
83 117 95
83 118 96
83 117 95
83 117 95
83 117 95
83 117 95
83 117 95
83 117 95
83 117 95
83 118 95
83 117 95
82 117 95
82 117 95
83 117 95
82 117 95
83 118 96
83 118 96
83 118 96
83 117 95
82 117 95
83 118 96
83 118 96
82 117 95
82 117 95
82 117 95
83 117 96
82 117 95
83 117 95
82 117 95
82 117 95
83 117 95
83 118 96
82 117 95
83 117 95
82 117 95
83 117 96
83 117 95
83 117 95
83 117 95
83 117 95
82 117 95
82 117 95
83 118 95
86 121 98
86 122 98
86 122 99
86 121 98
86 121 98
86 121 98
86 121 98
86 121 98
86 122 98
86 121 98
86 121 98
86 121 98
86 121 98
86 121 98
86 121 98
86 121 98
86 121 98
86 122 98
86 122 98
86 121 97
86 121 98
86 121 98
86 121 98
86 121 98
86 121 97
86 121 98
86 121 98
86 121 98
86 121 97
86 121 98
86 120 97
86 121 98
86 121 97
86 121 98
85 120 97
86 122 98
86 121 97
85 120 96
86 121 97
85 120 97
86 121 97
86 121 98
86 120 97
85 120 97
85 120 97
85 120 97
85 120 97
85 119 96
115 115 90
140 106 77
140 106 78
137 104 75
142 108 79
141 107 78
143 108 79
143 108 79
140 107 77
142 108 79
142 107 78
141 107 78
143 108 79
144 109 80
141 107 78
142 107 78
144 109 80
142 107 78
143 108 79
140 105 76
140 106 77
142 107 78
141 107 78
142 108 79
142 108 79
144 109 81
143 108 79
141 107 78
142 108 79
142 107 78
147 111 81
137 104 75
142 107 79
142 107 78
140 106 77
144 108 79
144 109 80
142 107 78
141 107 78
140 106 78
143 108 79
142 108 79
140 106 77
119 92 68
117 90 68
117 91 68
113 88 65
111 86 64
112 88 65
115 89 67
114 89 66
111 86 64
114 89 66
111 86 63
110 86 64
114 90 67
113 88 66
114 89 66
112 87 65
116 90 67
110 86 64
113 88 66
113 88 66
112 87 65
111 87 65
110 86 63
112 87 65
111 87 65
113 88 66
113 88 66
116 90 68
111 87 64
107 84 62
108 85 63
108 85 63
108 85 63
95 92 72
70 100 83
71 103 85
72 104 85
73 104 86
73 105 86
73 104 85
74 105 86
75 107 88
75 107 88
76 108 88
77 109 89
77 110 89
79 113 92
79 112 91
80 113 91
80 114 92
80 113 92
82 116 94
83 117 95
83 117 94
84 118 95
82 115 93
83 117 95
84 117 94
84 118 96
84 119 96
84 118 95
85 119 96
85 119 96
85 120 97
85 119 96
84 118 95
85 119 96
84 119 96
85 119 96
85 119 96
85 120 97
85 119 96
85 120 97
84 118 96
85 119 96
85 120 97
84 119 96
85 119 96
85 119 96
84 119 96
85 119 96
85 119 96
85 119 96
85 119 96
85 119 96
85 119 96
85 120 97
85 120 97
84 118 95
85 119 96
84 119 96
85 120 97
84 118 95
84 118 95
85 120 97
84 119 96
85 120 97
85 119 96
84 118 96
84 119 96
84 119 96
85 119 97
85 120 97
86 121 97
84 118 96
84 118 96
85 119 96
84 118 96
83 117 95
84 118 96
84 118 95
84 118 95
84 119 96
85 119 97
64 86 82
41 40 75
42 41 77
46 43 83
47 45 86
47 44 84
49 46 88
49 46 88
50 48 91
50 47 90
50 47 90
52 49 95
52 49 95
53 50 97
52 49 95
53 50 96
53 50 98
53 50 97
52 50 96
52 49 93
51 48 93
53 50 97
52 49 95
52 49 96
52 49 96
164 145 136
129 113 97
118 103 89
196 172 148
194 170 146
191 169 145
120 106 91
0 0 0
0 0 0
0 0 0
0 0 0
0 0 0
0 0 0
63 53 46
163 136 116
170 143 123
163 130 109
82 65 54
126 99 86
57 44 63
37 30 56
34 25 46
30 21 37
27 17 28
25 14 21
19 13 22
21 20 34
70 99 82
77 108 88
77 109 89
77 108 88
78 111 91
79 112 91
78 109 89
95 102 82
154 54 34
176 62 39
188 66 42
191 67 42
198 70 44
204 72 46
205 73 46
211 75 47
210 75 47
216 76 48
219 78 50
217 77 49
215 77 49
218 77 49
218 77 50
220 78 50
219 78 50
216 76 49
220 78 50
218 77 49
222 79 51
217 76 49
220 78 50
220 78 50
216 76 49
218 77 50
213 75 48
218 77 49
215 76 49
216 76 49
210 74 47
208 73 47
212 75 48
207 73 47
209 74 48
200 71 46
200 71 46
201 71 46
197 70 45
190 68 43
190 68 44
187 67 44
181 65 42
181 65 42
178 64 42
168 61 40
161 59 38
165 60 39
153 56 36
146 54 35
133 51 33
137 51 32
133 48 29
103 86 67
81 112 89
82 113 90
82 113 90
82 113 90
82 113 90
80 109 87
81 111 88
80 111 88
80 109 86
80 110 87
78 107 84
79 108 86
79 109 86
78 107 84
79 108 85
76 103 80
77 104 81
76 103 80
76 103 81
73 98 76
69 94 73
62 84 65
55 75 59
49 67 52
44 59 46
62 54 30
74 57 18
79 59 17
84 62 17
77 59 17
82 60 17
88 63 18
85 63 18
83 62 18
85 63 18
85 63 18
86 63 18
85 64 18
86 64 18
82 63 18
83 63 18
84 63 18
86 64 18
79 61 17
80 61 17
83 63 18
81 61 17
86 63 18
76 58 16
73 57 16
68 54 19
49 51 33
43 60 49
43 61 51
43 62 51
47 67 55
46 67 55
48 68 56
50 71 58
50 72 60
50 70 58
53 76 63
54 79 66
52 74 62
54 77 65
54 79 67
57 81 67
58 83 69
61 87 72
63 90 74
67 95 78
69 97 79
70 97 79
74 104 84
74 103 83
77 106 85
78 108 87
79 110 88
81 113 91
81 113 90
82 114 91
82 115 92
81 113 90
83 114 91
82 115 92
83 115 93
83 115 92
82 115 92
82 114 91
82 115 92
83 115 92
82 115 93
83 115 92
82 113 91
83 116 93
83 115 92
82 114 91
82 116 93
83 115 92
82 115 92
82 115 92
81 113 91
82 114 91
81 112 90
82 113 91
81 112 90
82 113 90
80 111 89
81 111 89
82 113 91
81 112 89
80 111 89
81 110 88
80 109 87
79 109 87
79 108 86
78 107 85
78 107 85
78 107 85
78 106 84
77 104 82
77 104 82
76 103 81
76 103 81
75 101 79
71 96 76
68 92 73
62 79 62
68 52 38
79 33 16
90 36 18
95 38 19
104 40 21
103 40 21
103 40 21
109 42 22
106 41 22
109 42 22
105 41 22
107 41 22
105 41 22
105 41 22
103 40 21
106 41 22
100 40 21
97 39 20
93 37 19
88 36 18
88 36 18
84 35 17
78 34 16
78 34 16
75 33 16
74 41 24
74 72 48
69 76 50
68 78 52
67 77 51
72 80 56
64 73 49
66 79 61
52 76 63
50 74 62
53 77 64
50 74 62
53 78 66
53 78 66
55 81 69
54 79 66
54 80 67
54 81 68
56 83 71
57 85 72
54 81 69
56 83 71
56 84 71
58 86 73
60 88 75
60 88 74
63 92 77
63 92 77
65 95 80
66 95 79
69 100 83
71 102 83
72 103 85
74 106 87
76 108 88
76 109 89
78 111 91
79 112 91
80 113 92
82 116 94
81 114 93
82 115 93
83 117 95
83 117 95
82 116 94
82 116 94
83 117 95
83 118 96
83 117 95
83 118 95
82 116 94
83 117 95
83 117 95
83 117 95
83 117 95
82 116 94
83 117 95
83 117 95
83 117 95
82 116 94
83 117 95
83 118 95
83 118 96
83 117 95
83 117 95
83 117 95
83 117 95
83 118 96
83 117 95
83 118 95
83 117 95
83 117 95
83 118 96
83 118 95
83 117 96
83 117 95
82 117 95
83 117 95
83 118 96
83 117 95
83 118 95
83 118 96
83 117 95
83 117 95
83 118 95
83 118 96
82 117 95
83 117 95
83 118 95
83 118 96
83 117 95
83 117 95
83 118 96
82 117 95
82 117 95
83 117 95
83 118 96
83 117 95
83 117 95
83 117 95
83 117 96
82 117 95
83 117 95
83 117 95
82 116 95
82 117 95
83 117 95
83 117 95
83 118 96
83 117 95
83 118 96
82 117 95
83 118 96
83 117 95
83 117 95
83 118 96
82 117 95
82 117 95
83 117 95
83 117 96
83 118 96
82 117 95
83 117 96
82 117 95
83 117 95
82 117 95
83 117 95
82 117 95
86 122 98
86 122 98
86 122 99
86 120 97
86 121 98
86 121 98
86 121 98
86 121 98
86 122 99
86 121 98
86 122 99
86 121 98
86 121 98
86 122 98
86 122 98
86 121 98
86 121 98
85 120 97
86 120 97
86 121 98
86 122 98
86 122 98
86 120 97
86 121 98
86 121 97
86 120 97
86 121 97
86 121 98
86 121 98
86 121 98
86 121 98
86 121 98
85 120 96
85 120 97
86 121 98
86 121 98
85 120 96
84 119 96
85 120 97
86 121 98
86 121 97
85 120 96
86 121 98
85 120 97
86 120 97
85 120 97
85 120 97
85 120 96
105 115 90
139 106 77
139 106 77
143 109 79
141 107 78
139 105 76
143 109 80
142 107 78
144 109 80
141 107 77
140 107 77
143 108 79
141 107 78
142 108 79
143 108 79
142 107 78
141 107 78
145 110 81
143 108 79
143 108 79
142 107 78
141 106 78
141 107 78
142 107 78
142 108 79
141 107 78
146 110 81
141 107 78
142 107 78
143 108 79
143 108 79
141 107 78
144 109 80
142 108 79
142 107 78
139 105 77
144 109 80
143 108 79
139 105 76
139 105 76
141 106 78
142 107 78
139 106 77
124 93 68
117 90 68
112 86 63
114 88 66
111 87 64
115 89 66
113 88 65
114 88 66
113 88 66
114 89 66
114 89 66
115 89 67
114 88 66
115 90 68
111 86 64
111 87 65
113 89 66
115 89 67
112 87 65
113 88 66
108 84 62
109 86 63
107 84 61
113 88 66
110 86 64
109 86 63
114 89 66
112 88 65
109 84 61
110 86 63
108 84 62
105 83 61
106 83 61
97 92 72
67 97 81
68 98 81
68 98 82
70 101 84
71 102 84
72 103 84
71 102 84
73 105 86
75 107 87
76 108 88
76 108 89
76 109 89
77 110 89
79 111 91
78 110 90
80 113 91
80 113 92
82 116 94
82 115 93
83 118 95
82 116 93
83 117 94
83 117 95
83 117 95
85 120 96
84 118 95
84 119 96
85 119 96
84 118 95
85 119 96
85 119 96
85 119 96
85 120 97
85 119 96
84 118 95
85 119 96
85 120 97
85 120 97
85 120 97
85 119 96
85 119 96
85 119 96
85 120 97
85 119 96
85 119 96
84 119 96
85 119 96
84 118 95
85 119 96
84 119 96
85 119 96
85 120 97
85 120 97
85 120 97
85 119 96
84 119 96
85 119 96
84 118 95
84 119 96
85 119 96
84 119 96
85 120 97
85 119 96
85 119 96
84 118 95
84 118 96
84 118 96
84 118 95
84 118 95
84 118 95
84 119 96
84 118 96
85 119 96
84 118 95
84 119 96
84 118 96
85 119 96
84 118 95
84 118 95
83 117 94
75 104 89
38 37 69
41 40 75
43 42 78
45 43 81
45 43 81
47 44 84
48 46 87
48 46 86
50 47 91
50 48 91
50 48 91
51 48 92
51 48 92
50 48 91
52 49 94
52 49 95
53 50 97
51 48 91
52 50 96
51 48 93
51 48 92
51 48 92
51 48 93
51 48 93
111 99 110
164 146 123
52 46 38
176 155 134
191 169 145
187 165 141
187 165 142
127 113 97
52 46 40
0 0 0
0 0 0
34 29 25
78 67 56
157 134 116
172 143 122
164 136 116
136 106 89
72 58 49
113 86 78
38 30 57
35 26 47
31 23 42
29 20 35
24 14 21
21 12 17
19 15 26
37 48 47
73 104 86
73 104 85
74 103 84
75 106 87
74 104 85
75 106 87
75 107 87
83 101 82
152 55 35
170 60 37
182 64 40
191 68 42
195 69 43
200 71 44
204 73 46
204 72 46
204 73 46
207 73 46
208 74 47
213 76 48
215 76 48
211 75 47
217 76 49
216 76 49
215 76 49
215 76 49
212 75 47
218 77 50
217 77 49
216 77 49
214 76 49
215 76 48
217 77 49
220 77 50
215 76 49
211 74 48
206 73 46
212 75 48
207 73 47
208 74 48
208 73 47
202 71 46
201 71 46
197 70 45
197 70 45
195 70 45
194 69 45
187 67 43
183 66 42
180 65 41
182 66 43
178 64 42
171 62 40
170 62 40
160 59 38
151 56 36
149 55 35
135 51 32
133 50 32
130 49 31
136 49 31
111 87 67
82 113 90
80 110 87
81 111 89
81 112 89
81 111 88
82 112 89
81 111 88
80 109 86
80 109 86
80 108 84
79 108 86
79 107 84
78 106 83
79 107 84
77 104 82
77 105 82
76 104 81
75 101 78
76 102 79
74 100 77
72 97 75
66 88 68
58 77 59
52 69 54
45 61 48
42 57 45
42 50 38
64 52 24
79 59 18
82 60 17
78 59 16
81 60 17
80 60 17
81 61 17
79 60 17
84 62 17
87 63 18
84 63 18
88 64 18
79 59 17
82 61 17
82 61 17
82 61 17
81 60 17
82 61 17
79 60 17
75 56 16
73 55 15
68 52 17
50 46 26
40 53 43
42 59 48
39 54 44
42 58 47
46 63 52
47 66 54
47 68 56
47 66 54
49 69 56
49 70 58
51 71 58
50 71 59
51 72 60
53 76 63
53 75 62
55 77 64
60 85 69
62 88 72
64 90 74
69 97 79
70 98 79
72 100 80
73 102 82
76 106 85
79 110 89
80 110 88
80 111 89
81 112 89
82 115 92
82 114 91
83 115 92
83 115 92
83 115 92
80 111 88
82 115 92
82 114 91
83 116 93
82 115 92
83 115 93
83 115 93
82 114 91
82 114 91
84 117 94
82 115 92
82 115 92
82 114 92
82 114 92
82 115 93
82 114 92
83 115 93
82 113 90
81 112 90
82 113 91
82 114 92
81 112 90
82 114 92
81 112 89
81 113 91
81 112 89
82 113 91
80 111 89
80 111 88
79 107 85
80 109 86
78 107 85
79 106 85
79 108 86
79 108 85
78 106 84
79 106 84
77 104 82
76 102 80
77 105 83
75 100 78
74 100 78
72 97 76
68 92 73
63 84 66
56 74 59
61 55 43
76 34 18
79 33 16
84 34 17
88 35 18
90 36 18
92 37 19
99 39 20
99 38 20
98 38 20
96 38 20
96 38 20
96 38 20
94 38 19
92 37 19
86 35 18
86 35 17
84 35 17
78 33 16
77 33 16
81 34 17
72 32 16
75 32 16
72 48 29
74 78 52
72 80 53
69 78 52
67 76 51
66 75 50
59 69 48
50 67 52
49 72 60
49 73 61
50 73 61
52 76 64
52 76 64
53 79 67
53 78 65
54 80 67
54 80 67
55 81 68
54 81 68
55 82 70
56 84 72
57 84 71
57 85 72
56 83 70
57 85 72
59 87 74
60 88 74
63 92 77
66 95 79
68 99 82
71 102 84
71 103 85
73 104 85
74 105 86
76 108 89
78 110 89
79 112 91
79 112 91
80 114 92
80 114 92
82 115 93
82 116 94
83 117 95
83 117 95
82 116 94
83 117 95
83 116 94
82 117 95
83 117 95
83 118 95
83 117 95
83 117 95
83 117 95
83 118 95
83 118 96
83 117 95
83 118 96
83 117 95
83 118 96
83 117 95
83 117 95
83 117 95
83 118 95
83 117 94
83 118 96
83 117 95
83 118 95
83 118 95
82 117 95
83 118 95
83 117 95
83 117 95
83 118 95
83 117 95
82 117 95
83 118 96
83 117 95
83 117 95
83 117 96
83 118 96
83 118 96
83 118 96
83 118 96
83 117 95
83 117 95
83 117 95
83 118 95
83 118 96
83 117 96
83 117 95
83 118 96
83 117 95
82 117 95
83 118 96
83 118 96
83 117 95
83 118 96
82 117 95
83 117 95
83 117 95
82 117 95
83 117 95
83 118 96
83 117 95
83 117 96
83 117 95
83 118 95
83 117 96
83 117 95
83 118 96
83 118 96
82 117 95
82 117 95
83 117 95
83 117 96
83 118 96
83 118 96
83 117 95
83 118 96
82 117 95
83 118 96
83 118 95
83 117 96
83 117 95
82 117 95
83 117 95
82 117 95
83 117 96
82 117 95
86 121 98
86 122 98
86 121 98
86 122 98
86 121 97
86 121 98
86 122 98
86 121 97
86 122 99
86 122 98
86 121 98
86 121 98
86 122 98
86 121 98
86 121 97
86 121 98
86 121 98
86 120 97
86 120 97
85 120 97
86 121 97
85 120 97
86 121 98
86 121 97
86 121 98
86 121 97
85 120 97
86 121 98
86 121 98
86 121 98
86 121 98
85 120 97
85 119 96
86 120 97
86 121 98
86 121 97
86 121 98
85 120 96
86 120 97
85 120 97
85 119 96
85 120 97
85 120 97
85 119 96
85 120 96
85 119 95
85 120 97
85 120 96
98 118 94
136 104 75
142 108 79
143 108 79
140 106 77
141 107 78
142 108 79
141 107 78
143 108 79
138 105 76
141 108 79
143 108 79
140 106 77
142 108 79
144 109 79
141 107 78
144 109 80
140 106 77
144 109 80
140 106 77
144 108 79
143 108 79
141 107 78
141 107 78
139 105 76
144 109 80
144 109 80
139 106 77
140 106 77
141 107 78
143 108 80
143 107 79
142 108 79
144 109 79
142 108 79
142 107 78
142 108 78
144 109 80
139 106 77
139 105 77
142 107 78
144 108 79
143 108 79
124 95 71
116 90 67
112 87 64
114 89 66
114 88 66
112 87 65
109 86 64
110 85 62
110 86 64
114 87 65
114 89 67
115 90 67
113 88 66
115 90 68
113 88 65
111 88 66
111 87 65
113 87 65
107 84 62
108 84 62
111 86 64
107 83 61
111 86 64
111 86 64
108 85 63
108 85 63
107 84 62
111 87 65
110 86 64
112 87 65
105 82 60
109 85 64
110 86 65
93 86 66
66 96 80
65 94 78
68 98 81
67 97 80
69 99 82
69 99 82
70 101 84
71 101 83
73 104 85
73 105 86
74 106 86
76 108 88
77 109 88
78 111 90
79 112 91
79 111 90
81 114 93
82 115 93
81 115 93
82 116 93
82 116 93
83 117 95
84 119 96
85 119 96
85 119 96
84 119 96
85 120 97
85 119 96
84 117 94
85 118 95
85 120 97
85 120 96
84 118 95
85 120 97
85 120 97
85 119 95
85 120 97
84 118 95
84 118 95
84 119 96
85 119 96
85 120 96
85 119 97
85 120 97
85 119 96
85 120 97
84 118 96
85 120 97
85 120 97
84 118 95
86 120 97
84 118 95
85 119 96
84 119 96
84 119 96
85 119 96
85 119 97
85 119 96
85 119 97
85 120 97
85 119 96
85 119 96
84 119 96
84 118 96
84 119 96
84 118 96
85 119 97
84 118 95
84 118 95
84 118 95
85 119 96
84 118 95
84 118 95
84 118 95
85 119 96
84 119 96
85 119 96
84 118 96
84 118 96
83 117 95
82 114 93
44 51 71
39 38 71
42 41 77
42 40 73
44 42 80
45 43 80
47 44 84
48 46 87
48 46 86
49 47 88
49 47 89
50 48 91
49 46 87
50 48 91
50 48 92
51 48 92
50 48 91
50 48 91
50 47 89
50 47 91
50 47 91
49 47 90
49 47 89
49 46 89
60 56 92
164 144 126
106 93 79
83 74 62
178 158 134
183 163 138
183 162 138
180 160 137
165 148 125
141 125 106
132 116 99
148 130 110
167 143 121
160 139 116
162 136 115
140 116 97
62 50 40
128 101 86
55 46 64
35 27 50
33 25 46
29 22 39
23 17 28
22 16 24
19 13 19
17 15 25
46 64 58
69 99 81
70 99 82
70 101 83
72 103 85
72 101 83
73 103 84
75 106 86
82 105 86
145 55 36
162 57 36
171 60 37
187 66 42
191 68 42
198 70 44
197 70 44
203 72 45
207 73 46
201 72 45
206 73 46
210 75 47
211 75 48
211 75 47
213 75 48
215 76 49
214 76 48
216 76 49
211 75 47
212 75 48
212 75 48
215 76 49
207 73 46
211 75 48
212 75 47
206 73 46
208 73 46
205 72 46
206 73 47
202 71 45
204 72 46
202 71 45
202 71 46
197 69 44
196 69 45
195 69 44
191 68 43
189 67 43
187 67 43
181 65 41
186 66 42
176 64 41
174 63 40
175 63 41
166 61 39
161 59 37
151 56 36
152 56 36
141 52 33
143 53 34
134 51 33
127 48 30
122 46 28
95 91 71
79 109 87
80 110 88
81 111 88
80 111 88
80 109 86
79 109 86
81 111 89
80 109 86
79 110 87
79 107 84
78 107 85
77 105 83
78 105 83
78 105 81
77 104 81
77 105 82
78 105 82
76 102 79
77 104 81
74 100 77
72 96 73
70 93 71
66 89 68
62 82 63
51 67 51
48 63 48
38 52 41
30 40 31
35 44 33
50 40 18
68 51 18
70 52 14
80 58 16
82 59 16
76 56 16
74 57 16
77 57 16
86 61 17
72 55 15
79 59 17
78 57 16
80 59 16
79 57 16
75 54 15
71 53 15
64 49 14
54 45 22
43 42 26
35 46 36
33 46 37
36 51 41
36 50 40
42 59 49
43 60 50
44 61 50
47 66 55
45 63 52
46 64 52
46 63 51
48 68 56
49 69 57
51 73 61
53 75 62
56 78 64
59 83 68
60 82 66
65 91 73
67 93 75
69 96 78
72 99 79
74 104 83
76 107 86
78 108 86
79 110 88
81 112 90
81 113 91
81 113 91
81 111 89
82 113 89
82 114 92
83 115 92
83 114 91
82 114 91
82 114 91
83 115 92
82 114 91
83 115 92
83 115 92
83 115 92
82 113 90
83 115 92
83 116 93
82 114 92
82 114 91
83 115 93
82 114 91
83 116 93
81 113 91
82 114 92
82 114 92
82 115 93
82 114 92
83 116 93
82 113 91
82 113 90
81 111 89
82 113 91
81 111 89
81 112 90
81 111 89
81 112 90
80 110 88
80 109 86
81 111 89
79 108 86
79 108 86
80 110 88
78 107 85
77 105 83
77 105 83
77 104 82
76 103 81
75 101 80
75 99 78
74 99 77
71 94 73
68 92 72
61 80 62
57 77 61
51 69 55
48 54 43
63 36 24
72 31 15
72 31 15
74 31 15
75 32 15
76 32 15
79 33 16
84 34 17
80 33 16
82 33 16
81 33 16
74 32 15
76 32 16
78 32 16
74 32 15
77 32 16
75 32 15
74 32 15
74 32 15
73 36 19
73 63 41
80 83 56
69 78 51
68 76 51
65 74 49
62 70 47
49 64 48
45 64 52
47 68 57
46 68 56
49 71 59
49 73 60
53 78 65
51 75 63
52 77 65
52 77 65
53 78 65
54 80 67
53 78 66
53 78 65
54 79 67
54 81 68
55 82 69
57 84 71
59 86 72
60 88 74
61 89 74
64 94 78
67 97 80
68 99 81
71 101 83
72 103 85
73 105 85
75 107 88
77 110 89
77 109 88
78 110 90
80 113 92
80 113 92
82 115 93
82 116 94
83 117 95
82 116 94
82 116 94
82 116 94
83 118 96
83 117 95
82 116 94
83 118 95
83 117 95
83 117 95
82 116 93
83 117 95
83 117 95
82 116 94
83 117 95
83 117 95
83 117 95
83 117 95
83 118 95
83 118 95
83 117 95
83 118 95
83 117 95
83 117 95
83 118 96
83 118 96
83 118 95
83 117 95
83 117 95
83 117 95
83 118 95
83 117 95
83 118 95
83 117 95
83 117 95
83 117 95
83 117 95
83 117 95
83 118 96
83 118 96
83 118 96
83 117 95
83 118 96
83 118 96
83 117 95
82 117 95
83 117 95
83 117 95
83 117 95
83 117 95
83 117 95
83 118 96
83 117 95
83 117 95
83 118 96
83 118 96
83 117 95
83 117 95
83 117 95
83 118 96
83 117 95
83 118 96
83 118 96
83 117 95
83 117 95
83 118 96
82 117 95
82 117 95
83 117 96
83 117 96
83 117 95
83 117 95
83 117 95
83 117 95
83 118 96
83 117 96
83 117 96
83 117 95
83 118 96
82 117 95
83 117 95
83 117 96
83 118 96
83 117 96
83 117 95
83 117 95
83 117 95
83 118 96
83 118 96
86 121 98
86 121 98
86 121 98
86 121 98
86 122 98
86 122 99
86 121 98
86 121 97
86 121 98
86 122 98
86 121 97
86 121 98
86 121 98
86 121 98
86 121 98
86 122 98
86 121 97
86 121 98
86 121 98
86 122 98
86 121 98
86 121 98
86 121 98
86 121 98
86 121 98
86 121 98
86 121 98
86 121 98
86 121 98
86 121 98
86 120 97
86 121 98
86 120 97
85 120 97
85 119 96
86 120 97
85 120 97
85 120 97
86 120 97
85 120 97
86 121 98
85 120 96
85 119 96
85 119 96
85 119 96
86 120 97
85 119 96
85 120 97
98 117 93
141 107 78
141 107 78
141 107 78
143 108 80
141 107 78
143 108 79
144 109 80
142 107 78
143 108 80
141 107 78
140 106 77
141 107 78
140 106 77
145 110 81
142 107 78
142 107 78
142 108 79
140 106 77
145 110 81
142 107 79
144 109 80
139 106 77
142 108 79
137 104 75
138 104 75
144 109 80
142 107 78
140 106 77
145 109 80
141 107 78
141 107 78
143 108 79
140 106 77
141 107 78
140 106 77
142 107 78
142 107 78
140 106 77
141 107 78
142 107 78
140 106 77
142 108 79
124 95 70
117 90 67
113 88 65
114 88 66
113 87 65
114 90 68
112 87 65
116 90 68
112 87 65
113 88 65
106 83 62
109 85 63
114 89 66
109 85 63
113 88 65
109 84 62
108 85 63
113 88 66
110 86 64
112 87 65
112 87 65
110 86 63
109 85 63
108 85 63
107 84 62
113 89 67
117 91 69
111 87 65
111 87 65
111 85 63
107 84 62
114 89 67
110 86 64
102 87 67
61 89 75
64 92 77
64 93 78
65 94 78
67 97 81
66 96 79
69 99 82
71 101 84
71 101 83
72 103 85
74 105 86
75 107 87
76 108 88
78 110 89
79 111 91
79 111 91
81 114 93
80 114 92
81 114 92
82 115 93
83 116 94
84 117 95
83 116 94
84 117 95
84 118 95
85 119 96
84 118 95
85 120 97
85 120 97
84 119 96
85 120 97
84 119 96
85 120 97
85 119 96
85 120 97
85 119 96
84 118 95
85 119 95
85 119 96
84 117 94
85 119 96
85 120 97
84 119 96
85 119 96
85 120 97
85 119 96
85 119 96
84 118 96
85 120 97
84 119 96
84 119 96
85 119 96
84 119 96
85 119 96
84 117 95
85 119 96
85 120 97
84 119 96
85 119 97
84 118 95
85 120 97
85 119 97
85 120 97
85 120 97
85 119 96
85 120 97
84 118 95
85 119 97
84 119 96
84 118 95
83 117 94
85 119 96
84 118 95
84 118 96
84 118 96
85 119 96
84 118 96
83 117 95
84 118 95
83 116 94
84 118 95
57 76 75
37 36 66
40 38 70
41 40 73
42 40 75
44 42 77
46 44 82
46 43 82
47 45 84
47 45 84
48 46 87
49 47 88
49 46 88
49 47 88
49 46 88
50 47 90
49 46 88
49 47 89
49 46 87
49 46 88
48 46 87
48 45 85
50 47 91
48 45 86
49 46 89
93 83 97
168 149 127
82 73 62
113 98 84
168 149 126
172 153 129
172 152 129
170 151 127
165 147 123
160 142 118
158 138 115
157 138 116
154 134 113
133 117 99
63 52 43
110 90 75
81 66 69
36 30 54
32 27 49
30 24 43
24 19 33
21 14 20
19 13 19
17 14 22
18 18 26
57 82 70
66 96 80
68 98 81
68 96 79
68 98 81
68 97 81
70 100 82
73 103 84
72 101 83
125 60 43
154 54 33
170 60 37
178 63 39
185 65 40
192 68 43
197 70 44
196 70 43
197 70 44
205 73 46
208 74 47
205 73 46
208 74 47
207 73 46
207 73 46
208 74 47
210 74 47
207 73 46
209 74 47
201 71 45
207 73 46
206 73 46
208 74 47
205 72 46
209 74 47
204 72 45
208 74 47
203 72 46
201 71 45
198 70 44
198 70 45
201 71 45
198 70 45
194 69 44
192 68 44
190 67 43
185 66 42
182 65 41
181 65 41
178 64 41
177 63 40
174 63 40
166 60 38
166 60 38
160 58 37
163 59 38
147 54 34
147 55 35
133 50 31
127 48 30
125 48 30
123 47 29
127 47 29
86 98 79
79 110 88
79 110 88
79 110 88
79 109 87
79 108 86
79 109 87
79 109 87
79 108 86
79 109 86
79 107 85
77 107 84
78 107 84
77 105 82
76 104 82
78 106 83
76 101 78
76 104 81
78 105 82
75 101 77
76 101 78
74 99 76
73 98 75
72 96 73
69 91 69
62 83 64
56 74 56
49 65 50
40 52 40
33 43 33
31 40 31
20 23 17
25 26 18
43 32 12
51 39 14
55 41 12
59 43 14
70 51 15
71 51 14
67 49 14
65 47 14
64 46 13
62 45 15
53 42 16
42 35 19
36 37 23
23 29 22
28 38 30
26 35 28
30 42 34
36 50 41
37 50 40
41 58 47
39 53 42
43 61 50
45 62 51
45 63 51
46 64 52
46 63 51
50 70 58
52 72 59
55 78 63
56 79 64
60 83 67
64 89 72
65 91 74
66 93 75
70 97 77
74 102 82
73 101 80
77 106 85
77 106 84
80 111 88
80 110 88
81 112 89
81 113 90
82 112 89
82 113 90
82 113 91
82 113 90
82 113 91
82 113 90
83 115 92
82 113 90
81 112 89
83 114 91
83 116 93
83 115 92
83 114 91
83 114 91
83 115 92
83 115 92
83 116 93
82 113 90
83 116 93
83 115 92
83 115 92
82 114 91
82 113 90
82 115 93
81 112 89
82 114 91
82 114 91
83 115 92
82 113 91
82 113 90
81 112 90
82 114 92
81 112 89
81 111 89
80 110 88
81 111 89
81 110 88
80 110 88
80 110 88
79 109 87
78 106 84
78 106 84
77 104 82
79 107 85
77 103 81
76 102 80
76 102 80
76 101 79
76 103 81
75 101 79
73 98 76
71 96 75
67 90 70
62 82 64
54 72 56
47 63 50
41 53 43
43 36 28
61 29 17
69 30 15
70 30 14
71 30 14
71 30 14
74 31 15
72 31 15
73 30 14
74 31 15
74 31 15
75 31 15
76 31 15
73 31 15
71 31 15
73 31 15
77 33 16
74 51 32
71 74 49
74 80 53
67 75 49
65 72 48
62 68 45
52 62 44
39 55 44
40 58 47
42 62 51
43 62 51
46 68 57
45 66 54
42 62 51
49 72 60
49 72 60
48 72 60
51 74 62
51 76 63
53 78 65
52 77 64
53 78 66
55 82 69
56 82 69
57 84 71
58 85 71
61 89 74
62 90 75
65 94 77
68 97 80
69 99 81
71 101 83
74 105 86
75 107 87
77 109 89
77 109 89
80 113 92
79 112 91
80 113 92
81 115 93
82 115 93
83 117 95
82 116 94
82 116 94
82 116 94
82 116 94
83 117 95
83 117 95
83 117 95
83 118 95
83 117 94
82 117 94
83 117 95
83 117 94
83 117 94
83 117 94
83 118 95
83 117 95
83 118 96
83 117 95
83 117 95
82 116 94
83 118 95
83 118 96
83 118 95
83 117 94
83 118 96
83 117 95
83 118 96
83 117 95
83 117 95
83 118 96
83 118 96
83 117 95
83 117 95
83 118 96
83 118 96
83 118 96
83 117 95
83 118 95
83 117 96
83 118 96
83 117 95
83 118 96
83 117 95
83 117 95
83 117 96
83 117 95
83 117 95
83 118 96
83 118 95
82 117 95
83 118 96
83 117 95
83 118 96
83 118 96
83 118 96
82 117 95
83 117 96
83 117 95
83 117 95
83 117 95
83 117 95
83 117 95
83 117 95
83 117 96
83 117 95
83 117 96
83 117 95
83 117 95
83 117 95
83 117 95
83 117 95
83 117 96
83 118 96
83 118 96
83 117 95
83 117 95
83 117 95
83 118 96
83 117 95
83 117 95
83 117 95
83 117 95
83 117 95
82 117 95
83 117 95
83 117 95
83 117 95
83 117 95
83 117 95
83 117 95
86 122 98
86 122 98
86 122 98
87 122 98
86 122 98
86 121 98
86 121 98
86 122 98
86 121 98
86 121 98
86 121 98
86 120 97
86 121 98
86 121 98
86 121 97
86 121 98
86 121 97
86 121 98
86 120 97
86 121 97
85 120 97
86 121 98
86 121 98
85 119 96
86 121 98
86 121 97
86 121 97
86 121 98
85 120 97
86 120 97
85 120 96
85 120 97
86 120 97
86 120 97
86 120 97
86 121 98
85 119 95
85 120 96
85 119 96
86 120 97
85 120 96
85 120 96
85 119 96
86 120 97
85 119 96
85 120 97
85 119 95
85 119 96
93 119 95
137 105 77
139 106 77
143 108 79
143 108 79
138 105 76
140 106 77
143 108 79
141 107 79
142 108 79
142 107 79
141 107 78
143 108 79
141 107 79
143 108 80
142 108 79
144 109 80
140 106 77
142 107 78
141 107 78
143 108 79
143 108 79
142 108 79
141 107 78
143 108 79
140 106 78
139 106 77
143 108 79
140 106 77
142 108 78
140 106 77
138 105 76
144 109 80
141 107 78
142 107 78
141 107 78
142 107 79
143 108 79
140 106 78
140 106 77
142 107 78
143 108 79
142 107 79
128 98 72
113 87 64
113 87 64
114 88 66
114 88 66
108 85 62
115 89 67
114 89 66
113 87 64
112 86 64
112 87 65
112 86 65
113 89 66
111 86 63
111 87 65
114 89 66
112 87 65
108 84 62
109 86 64
112 87 65
109 85 63
109 85 63
111 87 65
107 85 63
113 87 65
109 85 63
108 85 62
106 83 61
110 86 64
108 85 63
107 84 62
109 85 63
108 85 63
98 82 62
61 88 75
61 90 76
61 88 74
63 92 77
64 93 78
66 96 80
67 97 81
67 96 80
70 101 83
73 104 86
74 106 87
76 108 88
75 107 87
77 109 89
78 110 89
78 111 90
81 114 92
82 115 93
83 116 94
83 117 95
84 119 96
84 118 95
83 117 94
84 119 96
84 118 95
84 118 95
85 118 95
85 119 96
84 117 94
85 119 96
84 118 96
85 119 96
85 119 95
85 119 96
84 118 95
84 119 96
85 120 97
85 119 96
84 119 96
85 120 97
85 120 97
85 120 97
84 118 95
85 120 97
85 119 96
85 120 96
85 119 96
85 120 97
85 120 97
85 119 96
85 120 97
84 119 96
84 119 96
85 120 97
85 119 96
84 119 96
84 118 95
85 119 96
85 119 96
85 119 96
84 119 96
84 119 96
84 119 96
84 118 96
84 118 95
83 116 94
84 119 96
83 117 95
84 118 95
84 117 95
83 117 94
84 118 96
83 117 95
84 119 96
84 118 95
84 118 95
83 117 94
83 117 94
83 117 95
82 115 93
83 117 94
73 102 86
37 39 66
38 36 67
39 38 69
41 39 73
42 40 74
43 41 77
45 43 81
46 44 83
46 44 81
46 44 82
47 45 84
47 45 83
46 44 83
49 47 88
49 46 88
48 46 87
48 45 85
48 46 86
48 45 86
46 44 83
47 45 85
46 44 82
46 44 84
46 44 83
46 44 83
103 94 100
162 144 121
81 71 60
71 63 52
144 128 107
162 143 119
167 151 128
158 143 119
163 145 122
161 142 120
146 127 105
106 90 76
62 54 44
110 92 76
93 76 72
34 29 52
32 27 49
30 23 41
26 21 36
25 18 30
19 15 23
18 14 20
16 14 20
32 42 44
61 89 75
61 88 74
64 92 77
64 92 77
66 94 78
66 94 78
67 97 80
69 97 80
70 100 83
112 65 49
155 55 34
163 58 36
175 62 38
177 63 39
189 67 41
195 70 44
193 69 43
196 70 43
199 70 44
200 71 45
200 71 44
205 73 46
202 71 45
205 73 46
203 72 45
200 71 44
203 72 45
201 71 44
206 73 46
204 72 46
205 73 46
201 71 45
203 72 45
200 71 45
199 70 44
197 70 44
197 70 44
199 70 44
193 68 43
197 70 44
195 69 44
191 68 43
187 67 42
189 67 43
185 66 42
183 65 41
177 63 40
179 64 41
177 63 40
173 62 40
171 62 39
163 59 37
156 57 36
151 55 35
143 53 33
145 54 34
139 52 33
128 48 30
121 47 29
119 46 28
116 44 26
115 48 32
82 105 84
78 109 88
76 105 85
79 108 87
78 107 85
79 108 86
77 105 83
77 106 84
79 107 85
78 106 83
78 107 85
79 108 86
79 107 84
78 107 85
77 104 82
77 105 83
77 105 82
76 103 80
77 103 80
77 103 80
76 101 78
74 99 75
75 100 78
73 98 75
72 95 72
71 94 71
66 87 65
59 77 57
57 76 58
51 66 50
41 54 42
32 41 30
32 42 33
24 32 25
24 30 23
22 30 24
21 25 19
18 23 18
22 22 15
24 26 19
23 30 24
16 22 17
24 33 26
18 24 18
25 34 27
26 36 29
27 38 30
31 43 34
31 42 33
34 46 36
37 51 40
38 53 43
40 55 44
41 58 47
44 60 48
45 63 51
48 67 54
50 70 57
53 73 58
56 78 63
59 82 66
63 86 69
65 90 72
68 93 74
72 99 79
74 101 81
75 103 82
77 105 83
77 106 84
78 106 84
80 111 88
81 111 88
81 110 87
81 112 89
82 113 90
82 113 90
83 115 92
83 113 90
81 112 89
82 113 90
82 112 90
82 114 91
83 114 91
83 115 93
82 114 91
82 114 91
82 113 90
83 116 93
82 114 91
83 115 93
82 114 92
83 115 92
83 115 91
82 113 90
83 115 93
83 115 92
83 116 93
82 115 92
82 113 90
83 115 92
83 114 92
82 113 90
83 115 92
83 115 92
82 114 92
82 114 91
81 112 89
81 112 90
81 112 89
81 113 90
80 110 88
80 110 87
80 110 88
81 111 89
80 110 88
79 108 87
79 107 85
79 109 87
78 106 84
77 104 83
79 107 85
78 105 83
76 102 81
76 101 79
75 101 79
77 104 82
74 100 78
73 96 75
71 94 72
67 89 69
62 82 64
54 69 53
46 60 47
37 49 39
32 40 32
33 28 21
56 31 21
61 27 14
69 28 13
68 29 14
70 29 14
70 29 14
70 29 14
74 30 14
73 31 15
70 29 14
69 30 14
73 31 15
69 46 28
67 64 41
70 74 48
66 70 45
64 69 46
53 59 39
41 51 37
36 50 39
38 55 44
36 52 42
39 57 46
41 61 50
45 66 55
46 67 55
46 67 56
46 68 56
50 73 61
52 76 64
52 76 63
50 74 62
51 76 64
53 78 65
54 80 66
53 78 65
57 84 70
60 87 73
60 87 72
61 89 74
64 92 75
68 98 81
69 98 80
72 102 83
74 106 86
75 107 87
76 108 87
78 110 89
80 113 91
80 113 91
81 114 92
80 112 90
81 114 91
83 116 94
82 116 93
82 115 93
82 116 93
82 116 94
83 117 95
83 117 94
83 117 95
83 117 95
83 117 95
83 117 95
82 116 94
83 117 94
83 116 94
83 117 94
83 117 95
83 117 95
83 117 95
83 118 95
83 116 94
83 117 95
83 118 96
83 117 94
83 118 95
83 117 95
83 117 95
83 117 95
83 118 96
83 117 95
83 117 95
83 118 96
83 117 95
83 117 95
83 117 94
83 118 96
83 118 96
83 117 95
83 118 96
83 117 95
83 117 95
83 117 95
83 118 96
83 118 96
83 118 96
83 118 96
83 118 95
83 117 95
83 118 96
83 118 96
82 117 95
83 117 95
83 118 96
83 117 95
83 117 95
83 117 95
83 118 96
83 117 95
83 117 95
83 118 96
83 117 96
82 117 95
83 117 95
83 118 96
83 118 96
83 117 95
83 117 95
83 118 96
82 117 95
83 118 96
83 117 96
83 118 96
83 117 95
83 118 96
83 117 95
83 118 96
82 117 96
83 117 95
83 118 96
83 117 95
83 118 96
82 117 95
83 117 96
83 117 96
83 117 95
83 117 95
82 117 95
83 117 95
83 117 96
82 117 95
82 117 95
83 117 95
83 117 95
83 117 95
86 121 98
86 121 98
86 121 98
86 122 98
86 121 98
86 122 98
86 121 98
86 121 97
86 121 98
86 121 97
87 122 98
86 121 98
86 122 98
86 121 97
85 120 97
86 120 97
86 121 97
86 122 98
86 121 97
86 122 98
86 121 97
87 122 99
85 120 97
85 120 97
86 120 97
86 120 97
86 120 97
86 121 98
86 121 97
85 120 97
86 120 97
86 120 97
86 120 97
85 119 96
85 120 96
85 120 97
85 118 95
85 120 97
84 118 95
85 119 96
85 120 97
85 119 96
85 120 96
85 120 97
84 118 95
85 120 96
85 119 95
85 120 96
94 119 95
138 108 79
140 106 77
140 106 77
142 107 78
143 108 79
143 108 79
143 108 80
145 110 81
142 108 79
142 107 79
141 107 78
143 109 80
142 107 78
140 106 77
142 108 78
142 108 79
141 107 77
144 109 80
137 104 76
140 106 77
142 107 79
144 109 80
142 107 78
138 105 76
141 107 78
141 107 77
143 108 79
143 108 79
141 107 78
143 108 79
140 106 77
142 108 79
143 108 80
143 108 79
141 107 78
141 106 77
140 106 77
141 107 78
139 105 76
140 106 77
141 107 78
139 105 76
125 96 70
113 88 66
109 85 62
114 88 65
115 89 66
116 90 67
112 87 65
111 87 65
109 84 62
112 86 64
113 87 65
113 88 65
113 87 65
112 87 65
114 88 65
112 88 66
114 89 66
105 83 60
110 86 64
106 83 61
108 84 62
110 86 64
109 86 63
113 88 66
111 86 64
111 87 65
111 86 64
111 87 65
112 87 65
110 86 64
111 87 65
113 88 66
105 83 61
104 86 65
58 85 72
57 84 70
60 88 74
61 89 75
63 92 77
63 91 76
67 98 81
67 97 80
69 100 82
71 102 84
74 106 86
74 105 86
77 109 89
78 111 90
79 112 91
80 112 91
81 114 92
81 114 91
83 117 94
84 118 96
84 119 96
84 118 95
85 119 96
84 118 95
85 119 96
85 119 96
85 120 97
85 119 96
85 119 96
84 119 96
85 119 96
84 119 96
85 119 96
86 121 98
85 119 96
85 120 97
85 120 97
85 119 96
85 119 96
85 119 96
84 118 95
85 119 96
84 118 95
85 119 96
84 118 96
84 118 95
85 119 96
85 120 97
84 118 95
85 119 96
84 117 95
85 119 96
84 117 94
85 119 96
85 119 96
84 118 95
84 118 95
84 119 96
85 119 96
85 119 96
84 118 95
84 118 95
84 119 96
85 119 96
84 119 96
84 118 95
84 118 95
83 117 95
84 118 95
84 118 95
84 118 96
84 117 95
84 117 95
84 119 96
83 116 94
84 119 96
83 117 94
82 116 94
83 117 94
84 118 95
84 118 95
83 117 94
52 68 68
35 35 62
37 36 65
38 37 66
39 38 68
41 40 74
44 42 79
45 43 81
43 42 77
45 43 81
46 44 82
47 45 84
45 43 80
46 44 81
47 45 85
46 44 81
46 44 83
46 44 82
44 42 78
46 44 81
46 43 81
46 43 82
45 43 80
46 44 82
45 43 81
44 42 79
96 87 93
151 134 114
113 101 82
55 50 41
64 57 47
103 93 77
100 90 76
100 88 72
82 71 60
49 45 37
90 77 62
121 104 87
79 69 70
34 30 55
31 28 50
29 25 45
25 21 37
23 19 32
20 17 27
19 15 23
16 15 22
16 17 25
46 67 59
56 81 69
58 86 74
59 86 73
61 88 75
64 92 77
64 92 77
66 95 79
67 97 80
67 95 79
103 74 58
142 50 31
161 57 35
169 60 37
175 62 38
181 65 40
184 65 40
187 67 41
194 69 43
192 69 43
193 69 42
196 70 44
195 70 43
197 70 44
198 70 44
197 70 44
194 69 43
203 72 46
200 71 44
199 70 44
194 69 43
193 68 43
195 69 43
197 70 44
195 69 44
197 70 44
195 69 43
198 70 44
195 69 44
193 68 43
191 68 43
187 66 42
186 66 42
183 64 40
189 67 42
179 64 40
179 64 41
178 63 40
172 61 39
170 61 39
163 59 37
160 58 36
158 57 36
150 55 35
143 53 33
146 54 34
138 52 33
135 50 32
126 48 30
121 46 29
121 47 30
123 46 28
112 60 44
77 106 86
76 106 85
75 104 84
76 105 84
76 105 84
77 106 85
77 105 84
77 105 83
77 106 85
77 105 84
76 103 82
78 107 85
79 108 85
76 102 80
78 104 81
77 105 83
78 105 82
77 104 81
78 106 83
77 104 81
76 102 79
73 97 74
76 102 79
75 100 76
73 98 75
74 98 75
74 99 76
72 94 72
68 90 68
67 88 67
60 80 60
57 74 56
51 67 50
45 59 44
42 57 44
35 44 33
36 47 35
28 37 28
29 39 30
25 33 25
26 34 25
28 36 27
29 38 30
30 40 31
30 41 33
29 37 28
30 41 32
38 51 41
35 48 37
40 55 43
44 59 47
46 61 48
47 64 51
51 70 56
53 73 57
57 80 64
58 79 62
62 86 69
65 87 69
67 91 71
70 97 77
69 94 73
72 98 77
75 102 81
76 104 82
78 107 84
79 108 85
81 110 88
81 111 88
81 111 88
81 112 89
82 112 89
81 112 90
82 114 91
83 115 92
82 113 90
82 112 89
83 115 92
83 114 91
82 114 91
82 114 92
83 115 92
83 114 91
84 116 93
83 115 93
83 115 92
83 116 93
83 114 91
83 115 92
83 114 91
83 117 94
83 115 92
82 113 91
84 116 93
83 115 92
82 113 90
83 115 92
83 116 93
82 114 92
82 113 90
83 115 92
82 114 91
83 113 90
82 113 90
82 114 91
81 112 90
83 114 91
82 114 92
82 112 89
81 111 88
80 110 88
80 110 87
81 111 88
81 110 88
80 110 87
80 110 87
79 108 86
80 107 85
79 106 84
78 106 84
77 103 81
78 105 83
75 101 79
77 104 82
74 100 78
76 101 80
74 99 77
73 97 76
73 97 75
71 94 73
69 90 70
65 85 66
59 77 59
49 64 50
41 53 42
33 43 34
28 36 29
23 29 24
31 26 20
39 24 17
51 23 12
58 26 14
63 26 13
62 27 13
63 29 15
63 38 23
64 47 29
61 57 37
57 60 39
54 59 41
44 49 33
36 43 31
31 42 32
30 43 35
33 48 39
37 54 43
33 48 39
39 57 47
36 53 43
40 58 47
44 64 53
41 60 49
46 67 55
48 70 58
47 69 57
49 72 60
49 71 59
51 75 62
51 74 61
56 82 69
55 81 67
60 87 72
61 89 74
62 90 74
64 91 75
68 97 79
71 100 82
73 103 84
74 105 85
77 109 88
78 110 89
77 109 88
79 112 91
80 113 91
81 114 91
81 115 92
83 117 94
82 116 93
82 115 93
82 116 93
82 116 94
82 116 94
82 115 93
83 117 95
82 115 93
83 117 95
82 115 93
82 116 94
83 117 95
82 116 94
83 118 95
82 117 95
82 116 94
83 117 95
83 117 94
83 117 95
83 116 94
82 116 94
83 118 95
83 117 95
83 118 96
83 117 95
83 118 96
83 117 95
82 116 94
83 117 95
83 117 95
83 117 95
83 117 95
84 118 96
83 117 95
83 117 95
83 117 95
83 118 95
83 117 95
83 118 96
83 117 95
83 118 96
83 117 95
83 118 96
83 118 95
83 118 96
83 118 96
83 117 95
83 117 95
83 118 96
83 118 96
82 116 94
83 118 95
83 117 96
83 118 96
83 117 95
83 118 96
83 117 95
83 117 95
83 118 96
83 117 95
83 117 95
83 118 96
83 118 95
83 118 96
83 118 96
83 118 96
83 117 95
83 118 96
83 117 95
83 118 96
83 117 95
83 118 96
83 117 95
83 117 95
83 118 96
83 118 96
83 118 96
83 117 95
83 117 95
83 117 96
83 118 96
83 118 96
83 117 95
83 117 96
83 117 95
83 118 96
83 117 95
83 117 96
83 117 96
83 117 95
83 118 96
83 117 95
82 117 95
82 117 95
83 117 96
86 122 98
86 122 98
86 121 98
86 121 98
86 121 98
86 121 97
86 121 98
86 121 98
86 122 98
86 122 98
86 122 98
86 122 98
86 122 98
86 121 97
86 121 97
86 121 98
86 121 97
86 120 97
86 121 98
86 121 98
86 121 97
86 120 97
86 121 97
86 121 98
86 120 97
85 120 97
86 120 97
86 120 97
85 120 97
85 120 96
85 119 96
85 119 95
86 121 97
86 121 97
85 119 96
85 119 96
85 120 97
85 119 96
85 119 96
86 121 97
85 119 95
85 120 97
85 119 96
85 118 95
86 120 97
85 120 97
85 119 96
84 118 94
88 120 96
136 109 81
137 104 75
141 107 78
140 106 77
140 106 78
141 106 78
141 107 79
140 107 78
141 107 78
142 107 78
142 107 79
141 107 78
141 107 77
140 106 77
141 107 78
140 106 77
144 109 80
140 106 78
143 108 79
142 107 78
140 106 77
143 108 79
141 107 77
142 107 79
139 105 77
139 105 76
140 106 78
143 109 80
143 109 80
143 108 79
142 108 79
140 106 77
139 105 76
141 106 77
139 105 75
141 107 77
142 108 79
144 109 81
141 107 78
145 109 80
143 108 79
139 105 76
129 99 72
114 89 66
118 92 69
115 88 66
112 87 65
114 89 66
113 87 65
114 89 66
111 86 64
114 89 67
109 84 62
111 87 65
114 89 66
111 87 64
111 86 64
109 85 63
106 83 61
115 90 67
109 85 63
110 86 63
105 83 61
110 85 63
109 86 63
110 86 64
110 86 64
112 88 65
110 86 63
110 85 62
114 89 67
110 86 64
113 88 66
109 85 63
107 84 62
106 84 62
59 82 70
57 84 71
58 85 71
61 89 74
63 91 76
67 97 81
67 96 80
67 96 80
70 99 81
71 100 82
75 106 87
76 109 88
77 109 88
79 112 91
79 111 90
80 113 92
82 114 91
83 117 95
84 118 95
84 118 95
84 118 94
84 118 95
85 119 96
84 118 95
85 119 95
85 119 95
83 116 93
85 119 96
84 118 95
84 119 96
85 120 96
85 120 97
86 120 97
84 118 95
85 120 97
85 119 96
85 119 96
84 118 95
85 120 96
85 119 96
85 119 96
85 119 96
84 119 96
84 118 95
85 119 96
84 119 96
85 119 97
85 119 96
84 117 95
84 118 95
85 119 96
85 119 96
85 119 96
85 119 97
85 120 97
84 118 96
84 119 96
84 118 95
84 119 96
84 117 95
84 118 95
85 119 97
85 119 96
84 117 94
84 118 95
84 118 95
85 119 96
84 118 95
84 117 95
84 118 95
83 116 93
84 117 95
84 118 95
84 117 94
82 115 92
83 116 94
84 118 95
84 118 95
83 117 94
82 115 92
83 117 94
83 116 93
74 104 87
33 34 59
35 34 61
37 36 65
39 38 68
40 39 70
40 39 72
42 40 73
42 41 74
43 41 76
44 42 78
44 43 79
44 42 79
45 43 79
45 43 79
45 43 80
44 42 79
44 42 77
43 41 74
45 43 79
43 41 76
43 41 77
44 42 79
44 42 77
43 41 76
43 41 77
43 41 77
55 52 76
113 102 94
145 131 111
124 112 91
103 93 76
104 94 77
103 93 76
115 105 85
116 104 88
101 91 85
46 43 61
30 29 52
29 26 44
26 24 41
23 21 36
22 19 31
21 18 29
20 15 23
18 14 21
16 15 21
27 34 37
54 80 69
53 79 68
57 84 72
57 83 71
58 85 72
59 86 72
59 86 73
61 89 75
64 93 78
66 94 78
85 87 72
134 48 29
152 54 33
161 57 35
173 62 38
179 64 39
182 65 40
188 67 42
188 67 42
187 67 41
192 69 42
187 67 41
193 69 43
193 69 43
193 69 43
198 70 44
195 69 43
195 69 43
194 68 43
192 68 42
193 69 42
191 68 42
194 69 43
192 68 42
193 69 43
192 68 42
191 67 42
189 67 42
187 66 42
181 64 40
184 66 41
183 65 41
181 65 40
179 64 40
178 63 40
175 62 39
169 61 38
168 60 38
168 60 38
160 58 36
160 58 36
153 56 34
152 56 35
147 54 33
138 52 32
138 52 32
127 48 30
120 45 28
120 46 28
120 46 29
119 45 28
116 44 27
103 75 59
74 102 83
73 101 82
73 100 81
74 102 82
75 103 83
75 104 83
76 105 84
74 102 81
75 103 82
75 104 83
76 105 84
75 103 81
77 106 84
77 106 84
77 104 82
78 106 84
77 105 82
77 105 82
78 105 82
78 105 82
78 106 83
76 102 79
77 102 79
76 102 79
75 101 78
76 101 78
74 97 74
72 95 72
74 98 75
72 96 73
73 95 72
72 94 71
68 90 68
69 90 68
65 85 64
60 79 59
60 80 60
59 77 58
54 70 53
52 68 50
50 65 49
49 66 50
49 66 51
49 66 51
49 64 50
51 67 51
53 70 54
53 71 55
54 72 55
57 76 59
59 80 63
61 84 66
64 86 68
65 87 68
66 89 69
70 94 74
71 97 76
73 98 76
74 101 79
75 101 79
76 102 80
77 104 81
78 107 84
80 109 86
80 110 87
80 109 86
81 111 88
80 109 86
81 111 87
81 112 89
81 111 88
82 112 89
82 114 91
81 112 89
82 112 89
82 113 90
82 114 91
83 114 91
83 115 92
82 113 90
83 114 91
83 116 92
84 117 94
83 115 91
83 115 92
83 116 92
83 115 92
83 116 93
83 114 91
83 114 91
83 115 92
84 116 93
83 116 93
82 114 91
82 114 91
82 115 93
83 116 93
83 115 92
83 115 92
83 115 92
82 114 92
83 116 93
83 117 94
81 112 90
82 112 90
83 114 92
82 113 90
82 113 90
82 114 92
82 111 88
82 114 92
81 111 89
81 111 88
80 109 86
81 111 88
80 109 87
80 109 86
80 109 86
80 109 87
79 106 84
78 106 84
77 104 82
78 104 82
77 104 82
76 101 79
75 100 78
74 98 76
75 100 78
74 97 76
73 98 76
72 95 74
71 94 73
67 88 67
65 87 67
59 76 58
54 70 54
42 53 41
38 48 37
32 40 31
29 39 31
24 32 26
23 31 25
17 24 19
22 25 19
24 30 22
22 26 19
24 30 23
21 29 22
23 34 27
26 37 29
25 36 29
25 35 28
29 42 34
33 47 38
35 50 40
32 46 37
36 53 43
39 57 46
41 61 50
41 60 49
44 64 52
45 67 55
46 67 55
50 73 60
49 72 59
52 76 63
51 75 62
56 81 66
58 84 68
60 87 71
64 92 74
65 93 75
67 95 77
71 100 81
72 101 81
74 105 85
76 106 86
76 107 86
76 107 85
79 111 89
80 113 91
81 113 91
81 113 91
81 114 92
82 115 92
81 114 92
82 115 93
81 114 92
82 115 93
82 115 93
82 115 93
83 116 94
82 115 92
82 116 94
82 116 94
83 117 95
83 116 94
83 117 94
82 116 94
82 116 94
83 117 94
83 117 95
82 116 94
83 118 95
83 117 95
83 117 95
83 117 95
83 117 94
83 117 95
83 117 95
83 117 95
83 118 96
83 118 95
83 117 95
83 118 95
83 117 95
83 118 96
83 117 95
83 117 95
83 117 95
83 118 95
83 118 96
83 118 96
83 117 95
83 118 96
83 117 95
83 117 95
83 118 95
83 118 96
83 118 95
83 118 96
83 118 96
83 117 95
83 117 95
83 117 95
83 118 96
83 118 95
83 117 95
83 118 96
83 117 95
83 118 96
83 118 96
83 117 95
83 117 95
83 117 95
83 118 95
83 117 95
83 118 96
83 117 95
83 118 96
83 118 96
83 117 95
83 117 95
83 118 96
83 117 95
83 117 95
83 117 96
83 118 95
83 118 96
83 118 96
83 117 95
83 118 96
83 117 95
83 118 95
83 117 96
83 117 95
83 117 95
83 117 96
83 118 96
83 118 96
83 118 96
83 117 95
83 118 95
83 117 96
83 118 96
83 118 96
83 117 95
82 117 95
83 117 95
83 117 95
83 117 95
82 117 95
87 122 98
86 121 98
87 122 98
86 121 98
86 121 98
86 121 98
86 122 98
86 121 97
86 121 98
86 122 98
86 122 98
86 121 98
86 121 97
86 121 97
86 121 98
86 121 98
86 120 97
86 121 97
86 120 97
86 121 98
87 122 98
86 122 98
86 121 97
85 120 97
85 120 97
86 120 97
85 120 97
86 121 97
85 120 97
85 120 96
85 120 96
85 120 97
85 120 96
86 120 97
85 120 97
85 119 96
86 120 97
85 120 96
85 119 96
86 121 97
85 118 95
85 119 96
85 119 96
85 119 96
85 119 95
85 119 95
84 117 94
85 118 95
84 118 95
132 109 81
139 105 76
139 105 76
143 108 79
141 107 78
142 107 78
140 106 77
141 107 78
136 103 74
144 109 80
143 109 80
137 104 76
140 106 77
140 106 77
142 108 79
145 109 80
139 105 76
143 108 79
141 107 78
146 110 81
140 107 78
142 108 79
143 108 80
141 107 78
143 108 79
143 108 79
144 109 79
138 104 76
141 107 78
140 107 78
142 107 78
138 104 76
143 108 79
141 107 78
140 106 77
139 105 76
141 106 78
140 106 77
140 107 78
138 105 76
140 106 77
142 107 79
131 100 73
112 88 65
115 90 67
113 88 65
113 88 65
112 87 65
113 89 66
112 86 64
111 87 64
111 87 64
111 87 64
111 87 64
111 86 64
112 87 65
113 88 65
108 85 63
108 84 62
110 86 63
113 88 66
107 84 62
109 86 64
111 87 65
113 88 65
111 86 64
111 86 64
108 85 63
113 88 66
113 87 65
107 84 62
111 86 64
108 84 62
109 86 64
109 85 64
106 83 62
63 85 71
58 85 72
58 85 72
60 88 73
62 90 75
65 94 78
65 94 78
70 100 83
70 100 81
74 105 85
76 108 88
77 109 88
78 110 90
80 112 90
80 113 91
83 116 94
84 118 95
84 118 95
84 117 94
84 117 94
84 117 94
85 119 96
84 119 96
84 118 95
84 117 94
84 117 94
85 119 95
85 119 96
85 119 96
85 120 97
84 118 95
86 121 97
85 119 96
85 119 95
85 119 95
84 118 96
85 119 95
84 119 96
85 118 95
84 117 94
84 118 95
85 119 95
85 119 96
85 119 96
85 120 97
85 120 97
85 120 97
84 119 96
85 118 95
84 118 95
84 118 96
84 118 96
85 119 96
84 118 95
84 118 95
84 119 96
84 118 96
84 118 95
84 118 95
85 119 96
84 119 96
84 117 95
85 119 96
84 119 96
83 117 95
84 118 95
84 119 96
84 118 95
84 118 95
84 118 95
84 117 94
83 117 95
84 118 95
83 117 94
83 116 93
84 117 94
84 118 96
83 116 93
83 117 94
83 116 94
83 116 94
83 117 94
83 116 93
52 68 68
31 31 54
33 33 57
36 35 63
37 36 65
39 38 68
40 38 70
41 40 73
42 41 75
42 41 75
44 42 77
43 41 74
42 40 73
43 42 77
43 41 75
43 42 77
43 41 74
42 40 74
43 41 74
43 41 75
43 41 75
41 40 73
42 41 74
42 40 74
41 40 73
41 39 71
39 38 69
39 38 70
48 45 71
67 63 76
86 79 80
85 78 78
83 76 77
60 57 67
41 39 61
32 31 56
31 29 52
30 28 50
27 25 44
24 22 38
22 20 34
22 19 31
19 17 25
17 16 24
15 16 23
16 17 24
44 63 56
54 80 69
54 79 68
54 81 70
54 80 69
55 81 69
57 84 72
58 85 71
61 88 74
60 86 72
65 92 77
68 93 77
118 51 36
143 51 31
151 54 32
161 58 35
172 61 38
179 64 39
178 64 39
178 63 38
183 66 40
187 67 41
187 67 41
188 67 41
183 65 40
190 67 41
190 68 42
189 67 42
187 67 41
189 67 42
189 67 42
186 66 41
188 67 41
185 66 41
188 67 42
190 68 42
185 66 41
187 66 41
183 65 41
186 66 41
179 64 40
181 64 40
178 63 39
174 62 39
178 63 40
171 61 38
169 60 38
163 58 36
165 59 37
155 56 35
156 56 35
155 56 35
152 56 35
148 54 34
140 52 32
136 51 31
127 48 30
124 47 29
110 43 26
111 42 25
112 43 26
108 42 25
113 43 25
88 86 69
71 99 80
68 95 78
70 96 78
71 97 79
74 101 81
74 102 82
74 102 82
73 102 82
75 104 83
75 102 81
75 104 83
76 103 83
76 103 82
76 105 84
77 107 85
77 105 83
78 107 84
78 105 83
77 104 81
78 105 82
77 103 80
77 103 81
78 105 81
77 103 80
76 103 80
76 101 77
76 102 79
75 99 76
74 99 76
76 101 78
74 98 75
74 99 76
73 98 74
75 99 76
73 96 72
72 94 71
73 96 73
70 94 71
72 95 72
70 93 71
69 93 71
72 96 73
71 94 72
70 92 70
69 91 69
69 92 70
70 92 70
72 95 73
71 94 72
72 97 75
74 100 77
73 98 76
74 100 78
75 100 78
76 102 79
77 104 81
77 104 81
79 107 84
78 107 84
79 107 84
79 108 85
80 109 85
80 109 86
82 113 89
81 111 88
80 110 87
81 111 88
80 110 86
80 111 88
82 114 90
81 112 88
82 114 91
82 113 90
83 115 92
82 114 91
83 115 92
82 114 91
82 114 91
82 113 90
83 114 90
83 115 92
83 114 91
84 116 93
83 115 93
83 115 93
82 114 91
84 116 93
83 115 92
82 114 91
83 114 91
83 116 93
83 115 93
83 114 91
83 116 94
83 116 93
83 115 92
83 115 93
82 114 92
83 115 91
83 114 91
83 115 92
82 114 91
83 115 92
83 114 91
82 113 90
82 113 90
83 114 91
82 112 89
81 111 88
82 112 90
82 112 90
81 112 89
82 112 89
81 110 87
81 110 88
82 111 89
79 108 86
81 110 87
80 108 85
79 107 85
80 109 86
80 108 86
78 105 83
78 103 81
78 104 81
77 104 82
77 103 81
74 98 77
75 99 77
75 100 78
73 96 75
74 98 76
71 93 72
71 93 71
70 93 72
68 89 68
65 85 65
60 78 60
55 72 55
47 61 47
43 55 43
37 49 38
30 39 30
29 39 30
31 43 33
28 40 31
31 43 34
30 43 34
27 39 31
31 45 35
32 46 36
29 42 33
30 44 35
32 47 37
38 55 44
37 54 43
38 55 44
43 63 51
44 64 51
47 68 55
46 66 53
49 72 58
52 75 61
56 79 64
58 83 67
60 86 69
60 86 69
65 92 73
67 95 76
69 98 79
70 99 80
72 101 81
74 104 84
75 106 85
77 108 86
77 108 87
80 112 90
80 112 90
80 112 89
81 114 92
81 114 91
81 114 92
81 114 91
81 114 91
82 115 93
82 115 93
82 115 93
82 115 93
82 115 93
82 115 93
82 116 94
82 115 92
83 117 94
82 115 93
83 116 94
82 116 93
82 116 93
83 116 94
82 116 94
82 116 94
82 116 94
83 117 95
83 117 95
83 117 95
82 116 94
82 117 95
83 117 95
83 117 95
83 117 95
82 116 94
83 117 95
83 118 96
83 118 96
83 117 95
83 117 95
83 116 94
83 117 95
83 117 95
83 118 96
83 118 95
83 117 95
83 118 96
83 117 95
82 117 95
83 118 96
83 117 95
83 117 95
83 117 95
83 118 96
83 118 96
83 117 95
83 118 95
83 117 95
83 118 96
83 118 96
83 117 95
83 117 95
83 118 96
83 117 95
83 118 96
83 117 95
84 118 96
83 117 95
83 117 95
83 118 96
83 118 96
83 117 95
83 117 95
83 117 95
83 118 96
83 117 95
83 117 95
83 117 95
83 118 96
83 117 95
83 118 95
83 117 95
83 118 96
83 118 96
83 117 95
83 117 95
83 118 96
83 117 95
83 118 96
83 118 96
83 118 96
83 118 96
83 118 96
82 117 95
83 117 95
83 118 96
83 117 95
83 117 96
83 117 96
83 118 96
83 118 96
83 117 95
83 117 96
83 118 96
83 118 96
83 117 96
83 117 96
86 121 98
86 121 98
86 121 98
86 122 98
86 121 97
86 121 98
86 121 97
86 121 98
86 121 98
86 121 97
86 121 98
86 121 98
86 121 98
85 120 96
86 121 97
86 121 97
86 120 97
86 121 97
86 120 97
85 120 96
86 121 97
87 122 99
86 121 98
86 120 97
85 120 96
86 121 97
86 121 97
86 120 97
86 120 97
85 119 96
86 120 97
86 120 97
84 118 95
86 121 98
84 118 94
85 120 96
85 120 96
86 121 97
85 119 96
85 119 96
85 120 97
84 117 94
85 119 96
85 119 96
84 118 95
84 118 94
85 118 95
84 117 93
84 117 94
129 111 83
141 107 78
142 107 78
147 111 83
138 105 76
144 109 80
138 105 76
139 105 76
143 108 79
143 109 80
139 106 77
139 105 76
142 108 79
143 108 80
141 106 78
143 108 79
138 105 76
142 107 78
140 106 78
139 106 77
141 107 78
140 106 78
142 108 79
142 107 78
143 108 79
141 107 78
141 107 78
141 107 78
142 107 78
145 110 81
138 105 76
142 108 79
140 106 77
139 105 76
141 107 78
139 105 76
143 108 79
144 109 80
141 107 78
138 104 76
141 107 78
139 105 77
133 101 73
112 88 65
113 88 65
114 88 66
111 87 64
110 85 63
115 89 67
107 83 61
112 87 64
116 90 68
113 88 66
111 86 63
110 86 63
113 88 65
113 88 66
112 86 64
111 87 65
114 88 66
109 85 63
113 88 65
110 86 64
108 85 63
106 83 61
113 87 65
109 85 63
109 85 63
107 84 62
106 83 62
111 87 64
107 83 61
111 86 64
108 85 63
110 86 63
103 82 60
67 83 69
56 82 69
60 87 73
61 89 74
62 90 75
65 93 77
69 98 81
70 100 82
72 102 83
76 108 87
78 110 90
80 113 91
80 112 90
82 115 93
84 118 95
83 117 93
83 116 93
84 117 94
85 118 95
84 117 94
84 117 94
85 119 96
84 118 95
85 119 95
84 117 94
84 118 94
84 117 94
85 119 95
85 119 96
85 118 95
85 119 96
85 119 96
85 119 96
85 120 96
85 119 95
85 119 95
85 119 96
85 120 97
84 119 96
85 119 96
85 119 96
84 119 96
85 119 95
85 119 96
85 119 96
84 119 96
84 119 96
84 118 95
84 118 95
84 119 96
84 118 94
85 119 96
84 118 96
84 118 96
84 118 95
84 119 96
85 120 97
85 119 96
85 119 96
84 118 95
84 117 94
83 117 94
84 118 96
84 118 95
84 118 95
83 116 94
84 118 95
83 117 94
83 117 94
83 117 94
83 117 94
83 117 94
84 118 95
83 117 94
83 116 94
83 117 94
82 116 93
82 115 93
82 115 92
83 116 93
82 114 92
83 117 94
83 116 94
75 104 86
33 38 53
31 31 55
34 33 59
34 34 59
36 35 63
37 37 65
38 37 67
40 39 70
39 38 68
40 39 70
41 40 72
41 40 73
39 38 68
40 39 70
40 39 71
41 39 72
39 38 69
41 40 73
41 40 73
41 39 70
40 39 70
40 38 69
39 38 68
38 38 67
39 38 69
39 37 68
38 37 66
37 35 63
36 36 64
35 34 60
35 35 63
34 34 60
33 33 59
30 30 53
28 28 48
28 27 49
26 25 44
23 22 37
22 20 32
20 20 30
20 18 28
17 17 25
17 17 25
15 16 23
30 44 43
50 75 65
52 76 66
52 77 67
55 81 70
53 79 68
54 79 68
53 77 66
57 83 71
55 80 67
58 85 72
59 85 71
62 89 75
91 67 53
133 48 29
147 52 31
153 55 33
165 59 36
166 60 36
171 62 37
176 63 39
179 64 39
180 65 39
186 66 41
182 65 40
188 67 41
186 66 41
184 65 40
187 66 41
185 65 40
186 66 41
188 67 42
184 66 40
187 67 41
184 65 40
181 65 40
186 66 41
183 65 40
182 65 40
178 63 39
175 62 38
180 64 40
177 63 39
171 61 38
162 58 36
163 58 36
166 59 37
168 60 37
159 57 35
152 55 33
157 56 35
151 55 33
146 53 33
148 54 34
137 50 31
138 52 32
130 49 30
119 46 28
116 45 27
106 41 25
105 41 25
112 44 26
104 41 24
99 51 36
67 91 75
68 96 79
68 94 77
68 95 78
69 96 78
70 95 77
71 98 79
72 100 81
72 98 79
72 99 79
74 102 82
74 101 80
74 101 81
75 102 82
75 103 81
76 104 83
77 105 83
78 108 86
78 105 82
77 104 81
78 106 84
78 105 82
79 106 83
78 103 81
79 105 82
78 105 82
79 106 83
77 103 80
77 104 81
78 104 81
77 103 79
75 100 77
76 100 76
77 103 79
76 102 79
76 101 78
76 101 77
75 100 77
77 103 79
77 103 79
75 101 77
76 101 78
74 98 75
76 102 79
77 102 78
76 102 79
75 101 77
77 102 78
77 104 81
76 102 79
77 103 79
77 103 79
76 103 80
78 106 83
80 108 85
78 106 82
79 107 83
80 109 86
79 108 85
79 107 84
79 108 85
80 108 85
80 110 87
79 108 85
80 109 86
82 113 90
81 111 88
82 111 88
81 111 88
82 114 91
82 113 90
81 111 87
83 114 91
83 115 92
83 115 92
82 113 90
82 112 89
83 115 92
82 113 90
83 115 91
83 115 92
82 114 91
83 115 92
84 116 93
83 116 93
83 115 91
84 116 92
84 117 94
83 115 92
83 116 93
83 116 93
84 117 94
83 115 92
83 116 93
83 115 92
83 114 92
82 114 91
82 114 92
83 116 93
83 116 93
83 116 93
82 114 91
83 115 92
83 115 92
82 113 91
82 114 92
82 114 91
83 114 91
83 115 92
83 114 91
82 112 89
82 112 89
81 111 88
82 111 89
82 112 90
81 111 88
82 112 89
81 111 89
80 109 87
81 110 87
80 108 85
81 110 88
79 108 86
79 108 85
79 105 83
79 107 85
77 104 82
77 104 83
78 104 82
78 103 81
75 101 79
75 98 77
74 98 76
74 99 77
76 101 79
73 97 75
75 100 78
74 98 77
71 93 72
70 92 71
69 91 71
63 83 63
62 80 61
60 79 60
56 75 57
55 73 57
51 69 53
48 65 49
48 67 52
49 68 53
45 62 48
48 67 52
48 67 52
47 65 51
50 70 55
52 74 58
54 75 59
55 77 61
56 79 62
57 80 64
60 85 67
61 85 67
65 92 73
66 92 72
69 97 77
67 94 74
70 97 77
71 100 79
73 101 80
75 106 85
76 107 85
78 109 86
78 108 86
79 110 87
79 111 88
79 111 88
80 111 88
81 112 90
80 112 90
81 114 91
81 113 91
81 114 92
81 113 90
81 113 91
81 113 91
83 117 94
82 115 93
82 114 92
82 115 93
82 115 93
81 114 92
82 116 94
82 116 94
82 115 93
83 117 94
83 116 94
83 117 95
83 117 94
82 116 94
83 117 94
83 116 94
83 118 95
83 117 95
83 116 94
83 117 95
83 117 95
82 116 94
83 117 95
83 117 95
83 117 95
83 117 95
83 118 95
83 118 96
83 118 95
83 117 95
83 117 95
83 118 95
83 117 95
83 117 95
83 117 95
82 117 95
83 117 95
83 118 96
83 118 96
83 117 95
83 117 95
83 117 95
83 118 95
83 118 96
83 118 96
83 117 95
83 118 95
83 118 96
83 118 96
83 118 95
83 118 96
83 118 96
83 117 95
83 117 95
83 117 95
83 118 95
83 118 96
83 118 96
83 118 96
83 117 95
83 118 96
83 118 96
83 118 96
83 117 96
83 117 95
83 117 95
83 118 95
83 118 96
83 117 95
83 118 96
83 118 96
83 118 96
83 117 95
83 118 96
83 118 96
83 117 95
83 117 95
83 117 95
83 117 95
83 117 96
83 117 96
83 118 95
83 117 95
83 117 95
83 118 96
83 117 95
83 117 95
83 117 95
83 117 95
83 117 95
83 117 95
83 117 96
83 117 95
83 117 95
83 117 95
83 117 95
83 117 96
82 117 95
86 120 97
86 121 98
87 122 99
86 121 98
86 121 98
86 121 98
86 120 97
86 121 97
86 121 98
87 122 99
86 121 98
86 121 98
86 122 99
86 121 97
86 121 98
86 122 98
86 121 98
86 121 98
86 121 97
86 120 97
86 120 97
85 120 97
86 121 98
86 120 96
86 120 97
86 120 97
86 120 97
85 120 96
85 120 97
85 120 96
85 120 96
85 120 97
84 117 94
85 119 96
85 119 96
85 119 96
85 119 96
84 119 95
85 119 96
85 119 96
85 120 96
85 119 95
85 119 96
85 119 96
84 117 94
85 119 96
84 118 95
84 118 94
85 119 96
122 110 83
141 107 78
138 105 76
139 106 77
139 105 77
139 106 77
142 108 79
140 106 77
139 106 77
142 107 79
140 106 77
143 108 79
139 106 77
145 110 81
140 106 77
139 106 77
142 107 78
139 105 76
141 107 78
138 105 76
142 108 79
142 107 78
141 107 78
143 108 80
143 108 79
139 106 77
140 106 78
143 108 80
135 102 74
138 105 76
142 107 78
141 107 78
137 104 75
138 104 75
140 106 77
142 107 79
139 105 76
139 106 77
140 106 77
140 106 77
139 106 77
144 109 80
137 103 76
114 88 66
111 86 63
110 87 65
117 91 68
116 90 67
109 86 64
110 86 64
114 89 66
110 85 63
114 89 66
113 87 65
111 86 64
110 86 63
112 87 66
108 83 61
113 87 65
109 85 63
106 83 60
111 86 64
109 86 64
111 86 65
112 87 65
116 90 67
112 88 66
109 85 63
109 85 63
115 90 67
108 85 63
108 85 63
111 86 64
109 85 63
106 83 61
103 81 59
68 82 68
57 83 71
60 88 74
59 86 71
62 90 74
68 97 80
71 102 83
74 104 85
75 106 86
79 111 90
79 111 90
82 114 92
83 116 94
83 116 94
84 117 94
84 117 94
84 118 95
84 117 94
84 118 95
84 117 94
84 118 95
84 118 94
85 118 95
85 120 96
85 118 95
84 118 95
85 118 95
84 118 95
84 117 94
84 118 95
85 119 96
85 119 96
85 119 96
84 117 94
84 118 95
86 120 97
85 119 96
84 118 95
85 119 96
85 119 96
85 119 96
85 119 96
84 119 96
85 119 96
85 119 97
85 119 96
85 119 96
84 119 96
85 119 96
85 119 96
84 118 95
84 118 95
84 118 95
84 118 95
85 119 96
84 118 95
84 118 95
84 117 94
84 119 96
84 118 96
84 119 96
84 117 95
84 118 96
84 118 95
84 117 95
84 118 95
83 117 94
83 116 93
84 118 95
84 118 95
83 117 94
83 117 94
83 116 93
82 115 93
83 117 94
83 116 94
82 115 93
82 115 93
83 116 93
83 116 93
82 115 93
82 115 92
83 116 93
81 113 91
62 85 72
26 28 46
30 30 53
32 32 57
34 34 59
34 34 61
36 36 64
37 37 66
37 37 66
38 37 67
37 37 65
38 38 67
39 38 68
37 37 66
39 38 67
39 38 68
38 37 65
39 38 68
38 37 66
38 37 67
38 37 67
37 37 65
38 37 66
36 35 62
36 36 63
36 35 62
36 35 63
36 35 62
33 33 58
32 32 56
31 31 53
31 31 54
28 28 49
27 27 46
25 26 44
25 25 43
22 22 37
20 20 32
19 19 29
20 20 31
18 19 29
17 17 26
15 16 24
21 26 30
49 73 63
53 78 67
49 73 63
54 81 70
52 77 66
55 81 70
52 78 67
53 77 66
54 78 66
56 81 69
59 85 72
60 88 74
61 87 72
74 77 63
117 43 25
135 49 29
151 54 33
159 57 35
161 58 34
173 62 38
169 61 37
173 62 38
174 62 38
178 64 39
181 65 39
177 64 39
179 64 39
178 64 39
179 64 39
180 64 39
181 64 39
180 64 39
179 64 39
180 64 39
180 64 39
179 64 39
178 63 39
178 63 39
173 62 38
171 61 37
166 59 36
165 59 36
163 58 35
167 60 37
163 58 35
165 59 36
157 56 34
152 55 33
156 56 35
145 53 32
145 53 32
145 53 33
140 52 31
138 51 31
132 50 30
121 46 27
118 45 27
113 44 27
105 42 25
108 43 26
99 40 23
106 41 25
107 41 24
84 62 49
63 89 74
63 87 72
64 90 74
65 89 72
67 93 76
68 94 76
68 95 78
69 96 78
69 95 77
72 98 79
72 99 80
73 100 80
74 102 82
75 104 83
76 105 84
75 103 82
76 103 82
77 104 82
77 104 83
79 107 85
78 106 83
78 105 82
78 106 83
80 107 84
79 106 83
80 107 84
78 104 81
79 106 83
80 107 83
80 109 85
78 105 81
79 105 82
78 104 80
79 105 82
78 105 81
77 103 80
78 104 80
77 103 80
78 105 82
76 102 78
76 102 78
78 105 82
78 106 82
77 104 80
77 103 79
77 104 80
78 104 81
78 105 81
77 105 82
78 106 83
79 107 83
78 106 82
78 106 82
78 106 83
78 107 84
78 106 83
81 110 87
81 111 87
79 108 85
80 109 85
81 110 87
81 111 87
80 110 86
81 112 89
82 112 88
81 112 89
81 112 89
83 113 90
82 112 89
83 115 92
82 112 89
83 114 90
82 113 90
82 114 91
83 115 92
83 115 92
83 114 91
82 114 91
83 116 93
82 113 90
82 114 91
84 117 94
84 116 93
83 115 92
83 116 93
83 115 92
84 117 94
83 115 92
84 116 93
83 116 93
84 116 93
83 115 93
84 116 93
83 116 93
84 117 94
84 116 93
83 115 93
83 116 93
83 115 92
83 115 92
84 116 93
84 117 94
82 114 91
84 116 93
83 116 93
83 115 92
82 114 91
83 114 92
82 113 90
83 115 92
83 114 92
82 112 90
83 115 92
84 116 93
83 112 89
82 113 90
81 111 89
82 111 89
81 110 88
81 109 87
80 108 85
81 110 88
81 110 88
79 105 83
80 109 86
79 105 83
79 107 84
79 107 85
78 105 83
77 103 81
77 103 81
76 100 78
76 101 80
75 99 77
77 103 81
75 99 77
73 96 75
74 99 77
73 96 75
73 97 76
73 96 74
72 94 73
71 94 72
71 93 72
71 95 73
70 92 70
70 93 72
66 88 67
67 89 67
67 90 69
67 92 71
66 90 69
68 93 72
67 91 70
67 92 70
68 94 73
68 93 72
69 95 74
72 99 77
70 96 75
72 100 78
72 99 78
74 103 80
75 105 83
75 104 81
77 107 85
77 108 85
78 108 85
78 108 85
79 111 88
79 109 87
78 109 86
79 111 88
80 111 89
80 111 89
78 109 87
81 113 90
80 112 90
80 112 89
80 113 90
81 113 91
80 112 90
81 114 92
82 115 92
81 114 92
81 113 91
82 115 93
82 116 94
82 116 93
81 114 92
82 116 94
82 116 93
82 116 94
82 116 93
82 116 94
83 117 94
83 117 94
83 117 95
82 116 94
83 117 95
83 117 95
83 118 95
83 118 95
82 116 94
83 117 95
83 117 94
83 117 94
83 117 95
82 116 94
83 117 95
82 117 95
83 118 96
83 117 95
83 117 95
83 118 95
83 118 96
83 117 95
83 118 96
83 118 96
83 117 95
83 117 95
83 118 95
83 118 96
83 117 95
83 117 95
83 117 95
83 118 95
83 117 95
83 118 96
83 117 95
83 117 95
83 118 96
83 118 96
83 118 96
83 117 95
83 117 95
83 117 95
83 118 96
83 118 96
83 118 96
83 118 96
83 117 95
83 117 95
83 117 96
83 118 96
83 118 96
83 118 95
83 118 96
83 118 96
83 117 95
83 117 95
83 118 96
83 118 96
83 117 95
83 118 96
83 118 96
83 118 96
83 118 96
84 118 96
83 117 96
83 118 96
83 118 96
83 117 95
83 117 95
83 118 96
83 118 96
83 118 96
83 117 95
83 117 95
83 118 95
83 118 96
83 118 96
83 118 96
83 117 95
83 117 95
83 118 95
83 117 95
83 118 96
83 117 95
83 118 96
83 117 95
83 118 96
83 117 95
87 122 99
86 121 98
86 121 97
87 122 98
86 122 98
86 121 97
86 121 98
86 122 98
86 121 98
86 121 98
87 122 98
86 120 97
86 121 97
85 120 97
86 121 97
86 121 97
86 121 98
86 121 98
86 121 98
86 121 97
85 120 97
86 121 97
86 120 96
86 120 97
85 120 96
86 121 98
85 120 97
85 120 96
86 120 97
85 120 97
84 117 94
85 118 95
85 119 95
84 118 95
84 118 94
85 120 96
85 119 95
86 120 97
84 117 94
84 118 95
85 119 95
84 118 94
84 117 93
85 118 95
84 117 94
84 117 94
84 118 94
83 116 92
83 116 93
114 111 85
144 109 80
141 107 78
143 108 80
143 108 80
140 107 78
140 106 77
138 105 76
145 110 81
140 106 78
141 107 78
141 106 77
141 107 78
140 106 77
142 108 79
139 105 76
142 108 79
142 107 79
140 106 77
140 106 77
141 106 77
140 107 78
139 105 77
141 106 78
139 106 77
139 105 77
141 107 78
140 106 76
141 106 77
140 106 77
140 106 78
142 108 79
142 107 79
139 105 76
140 106 78
142 107 78
140 105 76
142 107 79
141 107 78
140 106 77
143 108 79
143 108 79
138 105 77
116 90 67
116 90 67
113 88 65
119 92 69
112 87 65
112 88 65
112 88 65
112 87 65
115 90 68
110 85 63
113 87 65
110 86 64
112 87 65
111 86 63
109 85 62
111 86 64
108 84 62
109 85 63
108 85 63
111 87 65
109 85 63
105 83 61
112 87 65
109 85 63
109 85 63
111 87 64
106 83 61
103 81 59
108 84 62
108 84 62
110 86 64
111 87 65
108 85 62
69 78 64
56 81 69
59 86 72
64 92 77
66 94 78
69 98 80
73 102 83
75 106 85
79 111 90
81 113 91
82 115 93
83 116 93
83 116 93
84 117 94
85 118 95
84 117 94
84 117 94
84 117 94
84 118 95
85 119 95
85 118 95
84 118 95
84 117 94
85 118 95
84 118 95
84 118 95
85 118 95
84 117 94
84 119 96
85 118 95
85 119 96
84 118 95
84 118 95
84 117 94
84 118 95
85 119 96
85 119 95
83 117 94
85 119 96
85 119 96
85 119 95
85 120 96
85 119 96
85 119 96
84 118 95
84 118 95
85 119 96
85 119 96
86 120 97
84 118 95
84 118 95
85 119 96
85 120 96
84 118 95
85 119 96
84 118 95
84 118 96
85 119 96
84 118 96
85 120 97
84 118 95
83 116 94
84 118 95
83 117 94
83 116 94
84 117 94
84 118 95
84 118 95
84 117 95
82 116 93
83 117 94
83 116 93
83 116 94
83 116 94
82 115 93
82 114 92
82 115 92
82 115 92
82 115 92
81 114 91
82 114 92
81 112 90
81 113 90
82 115 92
78 109 88
53 73 65
26 27 44
28 29 49
32 32 57
32 32 55
33 33 58
34 34 60
35 35 61
35 35 62
37 36 65
35 35 62
37 36 66
37 36 63
35 35 62
37 36 63
36 35 62
36 36 63
35 35 60
36 36 63
36 36 63
36 35 61
35 35 61
35 34 60
34 33 56
35 34 60
33 32 56
32 31 53
30 30 51
30 31 52
29 29 49
28 28 48
26 27 46
23 24 39
22 23 36
20 22 34
21 22 34
21 21 34
18 19 29
18 19 28
17 18 27
16 17 25
16 19 26
42 60 54
50 73 63
51 76 65
51 75 64
52 76 65
50 75 64
49 73 63
52 76 65
52 77 67
52 77 66
55 80 68
57 82 70
58 81 68
61 88 73
63 88 73
94 60 46
128 47 28
137 50 29
150 54 33
158 57 34
161 58 35
166 60 36
164 59 35
172 62 37
175 63 38
170 61 36
172 62 37
176 63 38
178 63 39
172 62 37
172 61 37
174 62 38
172 62 37
173 62 37
174 62 38
170 61 37
177 63 38
170 61 37
172 61 38
169 60 36
172 61 38
163 59 36
159 57 34
160 57 35
158 57 34
158 57 34
153 55 33
154 55 34
145 53 32
146 53 32
139 51 30
141 51 31
130 48 29
137 51 31
134 50 30
122 46 28
115 44 26
111 43 25
96 39 23
100 40 24
99 40 23
100 40 23
110 43 26
101 43 28
64 77 63
61 85 71
61 85 71
64 89 74
62 86 72
64 88 73
64 87 72
66 90 74
67 93 76
68 94 76
69 94 76
69 95 76
70 96 77
72 98 79
73 100 80
75 102 81
76 103 83
75 103 83
76 104 83
77 104 83
78 106 85
80 109 87
79 106 84
80 108 85
80 108 86
80 107 84
80 108 84
81 108 85
80 108 84
80 107 83
80 108 84
79 106 82
80 108 84
80 107 83
79 107 84
80 108 85
79 106 83
80 108 85
79 106 82
79 107 83
79 107 83
79 106 82
79 107 83
79 106 83
79 105 81
80 108 84
79 108 85
80 108 84
79 107 83
80 109 85
79 106 83
80 109 85
79 107 84
81 111 87
80 110 86
80 109 86
80 109 85
80 110 86
81 111 87
80 109 85
81 111 88
81 111 88
81 112 89
81 111 88
80 110 87
81 111 88
82 113 89
83 114 91
82 113 90
82 112 89
82 113 90
82 113 90
83 115 92
82 113 90
84 116 93
83 114 91
83 115 91
83 114 91
83 115 92
83 115 92
83 116 93
83 116 93
83 116 94
84 117 94
83 115 92
82 115 92
84 116 93
83 116 93
84 118 95
85 118 95
84 117 94
83 115 93
84 117 94
84 117 94
83 116 93
83 116 93
83 116 93
84 116 94
84 117 94
83 116 93
83 115 92
83 115 93
83 116 93
83 116 93
83 115 92
83 115 93
84 116 93
83 113 91
82 113 90
82 113 91
83 115 92
83 114 91
83 114 92
83 115 92
83 113 90
82 112 90
82 112 90
82 111 88
82 111 89
81 111 89
81 111 88
81 111 89
82 112 89
82 111 88
81 111 89
81 108 85
81 109 87
80 107 85
80 106 84
80 107 85
79 105 83
79 105 83
79 106 84
77 102 80
78 104 83
77 102 80
76 101 79
77 102 81
76 100 77
76 101 79
76 102 80
76 101 80
75 101 79
73 97 76
75 100 78
75 100 78
73 97 76
75 100 78
73 98 76
74 99 76
75 101 79
74 100 78
74 101 78
75 101 78
75 102 79
74 101 78
75 102 79
75 103 80
75 103 80
76 104 81
74 102 79
77 105 82
78 109 86
75 104 81
77 107 84
79 110 87
77 107 84
79 110 87
79 109 86
79 110 88
80 111 89
80 112 89
81 113 90
78 109 86
80 112 89
81 113 91
81 113 90
81 113 90
81 113 91
80 112 90
82 115 92
81 114 92
82 116 93
82 115 93
81 114 92
82 114 92
82 115 92
82 115 93
82 116 93
82 115 93
83 116 93
81 115 93
82 116 94
82 116 94
83 116 94
83 116 94
83 116 94
83 117 95
83 117 95
82 116 94
83 117 94
82 116 94
82 116 94
82 116 94
83 117 95
83 117 95
83 118 96
83 117 95
82 117 94
83 117 95
83 118 96
83 117 94
83 118 95
83 117 95
83 117 95
83 118 95
83 118 96
83 117 95
83 117 95
84 118 96
83 118 96
83 117 95
83 117 95
83 117 95
83 118 96
83 118 95
83 117 95
84 118 96
83 117 95
83 118 96
83 117 95
83 118 96
84 118 96
84 118 96
83 117 95
83 118 96
83 117 95
83 117 95
83 118 96
83 118 96
83 117 95
83 118 96
83 117 95
83 117 95
83 118 96
83 117 95
83 118 96
83 117 95
83 117 96
83 117 95
83 118 95
83 118 96
83 117 95
83 118 96
83 118 96
83 117 95
83 118 96
83 118 96
83 118 95
83 117 95
83 117 95
83 118 96
83 117 95
83 118 96
83 118 96
83 118 96
83 117 95
83 118 96
83 117 95
83 118 96
83 118 96
83 118 96
83 117 95
83 118 96
83 117 95
83 117 95
83 118 96
83 117 95
83 118 96
83 118 96
83 118 96
83 118 96
83 118 96
83 118 96
87 122 98
86 121 97
86 122 98
86 122 98
87 122 98
87 122 98
86 121 98
87 122 98
87 122 98
86 122 98
86 121 97
86 120 97
86 121 97
86 120 97
86 121 97
86 121 97
86 120 97
86 121 97
86 121 97
86 120 97
86 121 98
86 120 97
86 121 98
86 120 97
85 120 97
86 121 98
85 119 96
86 120 97
85 119 96
85 120 96
86 120 97
85 118 95
85 119 96
85 119 95
86 120 97
85 119 95
84 118 95
84 118 95
85 119 95
85 119 96
85 118 95
84 118 94
83 116 93
84 117 94
84 117 94
84 117 93
84 117 94
82 114 91
83 116 93
110 110 85
143 108 79
142 107 79
141 107 78
143 108 79
140 106 77
139 106 77
141 107 78
144 110 81
138 105 76
140 106 78
139 105 77
141 107 78
140 105 77
138 104 76
143 109 80
142 108 79
140 106 77
140 107 78
140 107 77
141 107 78
141 107 78
142 107 79
139 105 76
143 108 79
142 107 79
142 107 78
141 107 78
138 105 76
145 109 81
144 109 80
142 107 79
142 108 79
139 106 77
138 104 76
145 109 80
138 104 76
142 107 78
140 106 77
140 105 76
139 105 76
142 107 78
140 106 78
115 90 67
109 85 63
114 89 67
113 87 65
108 84 62
109 86 64
109 85 63
112 87 65
115 88 66
109 84 62
114 88 65
109 86 63
114 89 67
111 87 65
108 84 62
111 87 64
110 85 62
108 84 62
108 84 62
110 85 64
109 84 62
108 85 62
109 85 62
108 85 63
110 86 63
109 85 63
109 85 63
107 84 61
110 86 63
103 81 59
109 85 62
112 87 66
111 86 64
74 79 64
57 83 69
59 85 70
66 94 77
68 97 79
72 102 83
76 106 85
80 112 90
82 114 91
83 115 92
83 115 92
84 117 93
84 118 95
84 117 94
84 117 94
84 117 93
84 117 94
84 117 94
84 117 93
84 118 94
84 118 95
85 119 96
85 119 96
85 120 96
84 117 93
84 117 94
85 120 96
84 119 96
85 119 96
84 118 95
85 118 95
84 118 95
84 118 95
85 120 97
84 118 95
85 118 95
85 120 97
85 119 96
84 118 95
84 118 95
85 118 95
84 117 94
84 117 94
84 118 95
85 119 96
85 118 95
85 120 97
85 119 96
85 119 96
84 119 96
85 119 96
84 119 96
84 118 95
85 118 95
85 119 96
85 119 96
83 117 94
84 118 95
84 118 95
84 118 95
83 117 94
84 118 95
84 119 96
83 116 93
83 117 94
84 118 95
83 117 94
84 118 95
82 115 93
84 118 95
84 118 95
83 116 93
82 115 93
83 116 93
82 115 93
83 116 93
82 115 92
81 113 91
81 113 91
82 114 92
81 113 91
81 113 90
81 112 90
81 114 92
78 109 88
73 103 83
38 51 51
26 27 45
27 28 48
29 30 51
30 31 52
30 31 52
31 32 55
33 33 57
33 33 58
33 33 56
33 33 58
34 34 59
33 33 58
34 34 58
34 34 59
34 34 59
34 34 58
33 33 57
32 32 55
32 32 56
33 33 56
33 33 56
32 32 55
31 31 53
30 30 51
28 29 48
28 28 47
27 28 46
26 27 45
25 27 44
23 24 40
22 23 36
21 23 36
20 22 35
19 21 31
19 20 31
19 20 31
17 19 29
17 19 28
15 17 26
35 50 46
49 72 62
48 72 62
50 72 62
49 72 62
48 71 61
50 74 63
47 69 59
51 75 65
51 75 64
50 73 63
53 77 66
55 80 68
60 87 74
58 83 69
62 89 74
76 79 64
112 42 24
134 49 29
143 52 30
146 53 31
156 56 33
158 57 34
161 58 35
166 60 36
167 60 36
163 59 35
170 61 37
171 61 36
166 59 35
173 62 37
168 60 36
169 60 36
169 60 36
169 61 36
168 60 36
168 60 36
161 58 34
168 60 36
169 60 36
162 58 35
162 58 35
157 57 34
156 56 34
150 54 32
154 55 33
150 54 33
142 51 30
141 51 31
141 52 31
140 52 31
136 50 30
135 50 30
130 49 29
125 47 28
117 45 26
117 44 26
94 38 21
95 38 22
97 39 23
100 40 24
99 40 23
100 40 23
98 39 22
84 57 44
56 80 68
57 79 67
58 79 65
57 82 69
60 84 71
61 86 72
64 88 73
63 86 70
65 92 76
67 93 76
67 92 74
69 96 78
71 100 81
71 97 78
72 98 79
75 102 82
74 101 81
75 103 82
76 104 83
79 106 84
78 105 83
78 107 85
78 105 83
80 109 86
80 107 84
80 107 84
81 109 86
81 110 87
82 110 86
81 110 87
82 111 87
81 108 84
82 112 89
82 110 86
81 109 85
81 110 86
81 108 84
80 108 84
80 108 84
80 109 86
79 107 84
81 109 86
80 109 86
81 111 87
79 107 84
81 110 87
81 110 86
80 109 86
80 110 86
79 107 84
81 111 88
80 108 84
80 108 85
81 110 87
81 110 87
81 111 87
81 111 87
81 112 89
82 111 87
81 111 88
82 112 89
82 112 89
82 113 89
82 112 89
82 113 90
82 113 90
83 115 92
83 115 91
82 113 89
83 115 92
82 113 90
83 115 92
82 114 91
83 115 92
82 113 90
84 117 94
83 115 92
83 115 91
83 116 93
84 116 93
83 115 92
84 117 94
84 116 93
83 116 93
83 116 93
83 116 93
83 116 93
83 116 93
84 117 93
84 116 93
83 115 92
84 118 95
83 115 92
83 116 93
83 115 92
83 116 93
84 116 93
84 116 93
84 116 93
84 117 94
84 117 94
83 115 93
84 117 94
84 116 93
84 116 93
83 114 91
83 116 93
83 115 92
83 116 93
83 115 92
83 114 92
84 117 94
83 115 92
83 115 92
82 113 90
82 113 91
83 114 92
82 114 91
83 113 91
83 112 89
82 113 91
82 111 89
82 112 90
82 111 89
82 111 89
81 110 87
81 109 87
82 109 87
80 108 85
80 107 85
81 109 87
80 106 84
81 107 85
79 105 83
79 106 84
80 108 85
80 108 86
78 105 83
78 106 84
78 105 83
77 103 81
78 104 82
78 105 83
77 101 79
76 102 80
77 103 81
77 103 81
76 102 80
76 103 81
75 101 79
76 102 80
77 104 81
77 104 82
76 104 81
76 104 82
77 105 82
77 104 82
78 107 85
77 106 83
77 106 83
77 106 83
80 110 87
77 107 84
78 108 85
79 109 86
79 109 86
79 109 87
79 109 86
80 111 89
80 112 89
80 111 88
78 109 86
80 112 89
80 112 89
81 113 91
81 113 90
82 114 92
81 113 91
81 113 90
81 114 91
81 114 91
81 114 92
81 114 91
82 115 93
82 114 92
82 115 92
82 116 93
82 115 92
83 116 94
83 116 94
82 116 94
83 116 93
82 116 94
83 117 95
83 117 95
82 116 94
83 116 94
83 116 94
83 117 95
83 117 94
82 116 93
83 116 94
83 118 96
83 118 96
83 117 95
83 116 94
83 116 94
82 116 94
83 117 95
83 117 94
83 116 94
83 117 95
83 117 95
83 117 95
83 117 95
83 117 95
83 117 95
83 117 95
83 118 95
83 118 96
83 117 95
83 117 95
83 118 95
83 118 95
83 118 96
83 117 95
84 118 95
83 118 96
83 117 95
83 117 95
83 117 95
83 118 96
83 118 96
83 118 96
84 118 96
83 118 96
83 118 95
83 118 95
83 118 96
83 118 95
83 118 96
83 117 95
83 117 95
83 118 95
83 118 95
83 118 96
83 118 96
83 118 96
83 117 95
83 118 96
83 118 96
83 118 95
83 118 96
83 118 96
83 118 96
83 118 96
83 118 96
83 118 96
83 118 96
83 118 96
83 118 96
83 118 96
83 118 96
83 117 95
83 117 95
83 118 96
83 117 95
83 118 96
83 118 96
83 118 96
83 118 96
83 117 96
83 118 96
83 117 95
83 117 95
83 118 96
83 117 96
83 118 96
83 117 96
83 118 96
83 118 96
83 117 95
83 118 95
83 117 96
86 122 98
86 121 98
86 122 98
87 122 98
86 121 97
86 121 98
87 121 98
86 121 97
86 120 97
86 121 97
86 121 97
86 121 98
86 121 97
86 121 98
86 121 98
86 121 97
86 121 97
87 122 99
86 121 97
86 121 98
86 122 98
86 121 98
86 121 97
85 120 96
85 120 96
85 120 96
86 120 97
85 120 96
85 119 96
86 121 97
85 119 96
85 120 96
85 119 96
85 119 96
84 118 94
85 119 95
84 117 94
85 119 95
84 117 94
85 119 96
84 117 94
84 117 94
84 117 93
85 118 95
84 117 94
84 117 94
84 117 94
83 116 93
82 114 91
103 109 85
144 109 81
142 107 79
141 106 77
140 106 78
142 108 79
141 107 79
140 107 78
142 107 79
142 108 79
139 105 77
142 107 78
146 110 81
142 107 78
140 106 78
142 107 78
140 106 78
140 106 77
141 107 78
140 106 77
143 108 79
141 107 78
140 106 77
139 105 76
140 106 77
140 106 77
140 106 77
143 108 79
138 105 76
141 107 78
138 104 75
139 105 76
140 106 77
142 107 78
142 108 79
141 106 78
141 106 77
138 105 76
144 109 80
142 108 79
139 105 77
142 107 79
139 105 76
119 91 68
113 89 66
116 90 67
113 88 65
110 86 63
110 86 64
110 86 63
109 86 63
111 87 64
115 89 67
111 86 63
111 86 64
108 85 63
106 82 60
109 85 63
109 86 63
109 85 63
104 82 60
108 85 62
113 88 65
111 87 65
110 85 63
110 86 63
108 85 63
114 89 67
107 83 61
111 86 64
105 82 60
107 84 61
110 86 64
108 84 62
110 86 63
109 85 63
79 79 63
56 80 67
62 89 73
68 97 79
73 102 82
77 107 86
81 114 91
84 117 94
83 116 92
83 116 93
84 117 94
83 116 93
83 116 93
84 118 94
84 117 93
85 118 95
85 118 95
85 119 96
85 119 95
84 118 94
85 118 95
84 117 94
84 118 94
84 118 95
85 118 95
84 118 95
85 119 96
85 118 95
85 118 95
85 119 96
84 118 95
84 118 95
85 119 96
84 118 94
85 119 96
84 118 95
85 119 96
84 118 95
85 119 96
84 119 96
85 119 95
84 117 94
84 118 95
84 118 95
84 118 95
85 119 96
84 118 95
85 120 96
84 118 95
84 118 95
84 119 96
84 118 95
85 120 97
84 117 94
85 119 96
83 117 94
84 117 94
84 118 95
84 118 95
84 117 94
83 117 94
83 116 94
83 117 94
84 118 95
83 117 94
84 117 94
83 116 94
84 118 95
83 117 94
83 116 93
83 116 93
83 116 93
82 115 93
82 115 93
82 114 92
81 114 92
82 115 93
81 113 91
81 114 92
82 114 92
81 113 91
82 114 91
81 113 91
78 109 87
78 109 87
74 104 83
67 94 76
36 48 49
24 26 41
26 28 46
27 28 46
28 29 49
29 30 52
30 31 52
30 31 52
30 31 53
31 32 54
32 32 55
30 31 52
31 31 53
32 32 55
31 32 54
31 31 53
32 32 55
31 31 53
31 31 53
30 30 51
28 29 49
29 30 49
28 29 47
27 28 47
26 27 43
25 26 43
23 25 40
22 24 39
22 24 37
21 23 35
20 23 35
20 22 34
20 21 33
18 21 31
18 20 30
17 19 28
16 19 28
15 17 25
35 52 47
44 64 55
46 65 56
48 70 60
48 70 60
49 71 61
49 71 61
48 71 61
51 75 64
47 70 60
50 75 64
51 75 64
52 75 63
55 80 67
57 82 69
60 85 71
62 88 72
64 89 73
88 54 39
116 43 25
133 49 29
141 51 30
145 53 31
150 55 32
153 55 32
154 56 33
158 57 34
160 58 34
161 58 34
168 61 36
161 58 35
163 58 35
162 58 34
162 58 34
160 58 34
166 59 35
161 58 34
157 56 33
162 58 35
155 56 33
157 56 33
155 56 33
154 56 33
153 55 33
151 55 32
147 53 31
140 50 29
140 50 29
138 51 30
137 50 30
132 49 29
125 47 27
129 48 29
126 47 28
120 45 26
114 43 25
112 43 25
110 42 25
102 40 24
102 40 24
94 38 22
98 39 22
90 36 20
95 38 22
91 42 27
59 72 60
56 79 68
56 79 67
55 80 69
57 83 71
56 80 67
59 83 69
60 83 69
61 85 70
63 89 74
65 91 76
66 91 75
66 92 75
68 94 76
70 96 78
70 96 77
73 98 79
74 101 81
74 101 81
75 102 81
77 106 85
78 108 86
80 107 85
80 109 87
80 108 86
81 109 87
82 112 89
81 110 87
82 110 87
82 112 89
83 112 89
82 110 87
83 111 88
81 109 86
82 111 88
82 111 87
82 112 89
81 110 86
82 111 87
82 110 87
82 111 87
81 112 88
81 110 86
81 110 86
83 112 88
82 111 87
82 111 87
82 111 88
82 112 88
81 110 87
81 110 87
82 113 90
81 111 88
82 112 88
83 113 89
81 112 89
82 112 89
82 111 87
82 113 90
83 114 91
82 113 90
82 112 88
83 114 90
83 114 91
83 114 91
83 114 91
84 115 91
82 112 89
83 114 91
83 114 91
82 114 91
83 115 92
83 115 92
83 115 92
83 115 92
83 115 92
84 116 93
83 114 91
83 116 93
83 116 93
83 115 92
83 116 93
83 116 93
84 117 94
84 117 94
84 116 93
84 116 93
83 115 92
83 115 92
83 116 93
84 117 94
84 117 94
84 117 94
84 117 94
85 118 95
84 117 94
84 117 94
84 116 93
83 116 93
84 116 93
84 116 93
84 116 93
83 116 93
84 117 94
83 116 94
84 117 94
84 116 93
84 117 94
84 117 94
83 115 93
84 117 94
83 116 94
84 114 91
84 115 92
83 115 93
83 115 92
83 113 90
83 114 92
84 116 93
83 114 91
83 114 91
82 112 89
83 114 91
82 113 91
83 113 90
82 112 89
82 113 90
83 113 90
82 111 88
82 111 89
82 111 89
81 109 87
81 108 86
80 108 86
79 107 85
81 107 85
79 106 84
80 108 86
80 106 84
81 108 86
79 105 82
80 107 85
79 106 84
77 104 82
80 108 85
79 105 83
78 105 83
79 107 84
79 106 84
77 103 81
77 104 82
77 104 82
77 104 82
79 108 85
79 108 85
78 107 84
78 107 84
77 105 82
78 106 84
78 108 85
79 108 86
78 107 85
78 108 86
79 108 86
79 109 86
79 109 87
79 110 87
81 113 90
81 111 89
79 110 88
80 111 89
81 113 90
81 113 90
80 111 88
81 113 90
80 112 90
81 113 91
81 113 90
82 114 92
81 114 91
81 114 92
82 114 92
81 114 92
81 114 91
82 116 93
82 116 93
82 115 93
82 114 92
82 116 94
82 115 93
82 115 93
83 116 94
83 117 95
82 114 92
82 116 93
83 117 94
83 117 94
82 117 95
82 116 93
82 116 94
82 116 94
83 117 95
83 117 94
83 117 95
83 117 95
83 117 95
83 117 95
83 117 95
83 116 94
83 117 94
84 118 96
83 117 95
84 118 95
83 117 94
83 117 95
83 117 95
83 117 95
83 117 95
83 118 96
83 117 95
83 118 96
83 117 95
83 117 95
83 117 95
84 118 95
83 118 95
83 117 95
83 117 95
83 117 95
84 118 96
83 118 95
83 117 95
83 118 96
83 118 96
83 118 96
83 117 95
83 118 96
83 118 96
83 116 94
83 117 95
83 118 95
83 117 95
83 118 96
83 117 95
83 118 95
83 118 95
84 118 96
84 118 96
83 117 95
84 118 96
83 118 96
83 117 95
83 118 96
83 118 96
83 117 95
83 117 95
83 117 95
83 117 95
83 118 96
83 118 96
83 118 96
83 118 96
83 118 96
83 118 96
83 117 96
83 118 95
83 118 96
83 117 95
83 117 96
84 118 96
83 118 96
83 118 95
83 117 96
83 117 95
83 117 95
83 118 96
83 118 96
83 117 95
83 118 96
83 117 95
83 117 96
83 118 96
83 117 95
83 117 95
83 117 96
86 121 98
86 121 97
86 121 98
86 121 97
87 122 98
87 122 98
86 122 98
86 121 98
86 121 97
86 121 98
86 121 98
87 122 98
86 122 98
86 120 97
86 121 97
86 121 97
86 121 98
86 121 97
87 122 98
86 121 97
86 120 96
85 120 96
86 120 97
85 119 96
86 120 97
85 120 96
85 120 96
85 120 96
85 119 96
85 120 96
85 119 96
85 120 97
85 119 95
84 117 94
85 119 96
85 119 95
85 119 95
85 119 95
84 117 93
84 117 93
85 119 95
85 120 96
84 117 93
83 116 92
84 117 93
84 116 93
83 115 92
82 114 91
83 116 93
102 111 87
143 109 80
141 107 78
143 108 79
143 108 79
141 107 79
141 107 78
138 104 76
142 108 79
143 108 79
141 107 78
140 106 77
139 106 77
141 107 79
146 110 81
144 109 80
138 105 76
140 106 77
142 108 79
141 107 78
142 107 79
142 107 78
139 105 77
142 108 79
143 108 80
141 107 78
142 107 78
141 106 78
141 107 78
141 107 78
135 103 74
140 106 77
141 107 78
142 107 79
142 108 78
143 108 79
139 105 77
138 105 76
143 108 80
142 107 79
140 106 77
143 107 79
143 108 80
118 91 67
114 89 66
112 87 64
113 87 64
108 84 62
111 87 65
111 86 64
111 87 64
108 85 62
111 87 64
108 84 62
109 84 63
111 87 64
113 88 65
111 86 63
108 85 63
108 85 63
109 85 64
111 87 65
110 86 63
109 85 63
110 86 64
109 86 64
108 85 62
111 87 64
110 86 64
108 85 63
107 85 63
112 87 65
108 85 63
108 84 62
110 86 63
106 83 61
82 80 63
60 86 72
68 96 78
75 104 84
80 111 89
83 115 92
82 114 91
83 115 92
84 117 94
82 114 91
83 116 92
84 117 94
84 118 94
84 117 93
85 118 95
84 117 93
84 118 94
85 118 95
84 116 93
84 117 94
85 119 96
86 120 97
85 118 94
85 118 95
85 119 95
85 119 96
85 120 96
84 118 94
85 120 97
85 118 95
85 119 96
84 118 94
84 118 95
84 118 94
84 117 94
85 119 95
85 119 96
85 119 96
85 119 95
85 119 96
84 117 94
84 117 94
85 119 96
85 120 97
85 119 96
85 119 96
85 119 95
84 118 95
83 117 94
84 117 94
85 120 97
85 119 96
85 119 96
85 119 96
84 118 95
83 117 94
85 119 96
84 118 95
84 118 95
84 118 95
84 117 94
83 117 94
84 118 95
84 117 95
83 117 94
83 116 93
83 117 94
83 116 94
83 116 93
83 117 94
82 116 93
82 115 92
82 115 93
82 114 92
81 113 90
81 113 91
82 115 92
82 114 91
82 114 91
82 114 91
81 114 91
80 112 89
79 110 88
78 108 87
76 107 86
74 103 83
71 100 81
67 94 77
36 49 49
21 24 37
23 25 40
26 27 45
26 27 44
26 28 46
28 29 48
27 28 47
28 29 48
29 30 49
29 30 50
29 30 50
28 30 49
30 31 51
29 30 50
29 30 49
28 29 48
27 29 47
27 29 47
27 29 46
26 28 44
25 26 42
24 26 42
23 25 40
22 25 39
22 24 37
20 23 35
21 24 36
19 22 34
19 22 34
19 22 33
19 21 32
17 20 29
17 20 29
16 18 27
16 18 27
30 43 40
43 64 55
45 66 56
44 65 55
45 67 58
44 65 56
47 69 59
45 65 55
48 69 59
47 68 59
51 74 63
47 69 59
50 73 63
52 75 63
52 74 63
56 80 67
60 84 70
61 85 69
65 91 75
69 86 70
95 43 27
113 42 24
126 47 27
136 50 29
143 52 30
146 54 31
150 55 32
153 56 33
151 55 32
152 55 32
152 56 33
153 56 33
152 55 32
158 57 34
157 56 33
153 55 32
152 55 32
153 55 32
155 56 33
151 55 32
156 56 33
150 54 31
149 54 31
151 54 32
143 52 30
145 52 30
137 50 29
139 51 30
133 49 28
130 48 28
126 47 27
130 48 28
125 46 27
122 46 26
109 42 24
111 43 25
104 40 23
93 37 20
99 40 23
91 38 21
92 37 21
96 39 22
97 39 22
89 36 20
91 37 21
64 60 49
56 79 67
55 78 66
55 77 65
54 78 66
56 77 65
57 81 69
56 79 67
56 77 65
60 85 72
59 82 68
62 87 72
65 89 73
66 90 73
67 93 76
69 96 78
69 96 78
72 100 81
72 100 81
74 103 83
77 103 82
77 105 84
78 106 85
79 109 87
80 109 87
80 111 89
80 109 86
83 113 90
82 111 88
82 111 88
83 112 88
82 112 88
82 112 89
83 113 90
84 115 92
82 112 89
83 113 90
82 112 88
81 111 87
82 112 88
82 111 87
82 111 88
82 111 88
82 111 88
83 112 89
82 112 89
82 112 88
83 113 90
82 112 88
83 113 89
82 113 90
82 112 88
81 112 89
83 112 88
81 111 87
83 114 90
82 111 87
82 113 89
82 113 90
83 113 89
83 113 90
83 114 90
83 114 91
83 114 91
83 115 92
82 112 89
83 115 92
83 115 92
83 115 92
83 115 92
84 117 93
83 114 90
83 116 93
83 114 91
83 115 92
83 115 92
84 116 93
83 115 92
83 115 93
84 117 93
83 116 93
84 117 94
83 117 94
83 115 92
84 115 92
84 117 94
84 116 92
84 117 94
83 115 92
83 116 93
84 117 94
85 117 93
84 117 94
84 117 93
85 117 94
84 117 93
84 118 95
84 117 94
84 117 94
84 118 95
84 117 94
84 116 93
84 117 94
83 116 93
84 117 94
84 116 94
83 115 92
85 118 95
84 116 93
84 116 94
84 117 94
83 115 93
84 116 93
84 117 94
84 116 93
83 115 92
84 114 91
84 116 93
83 114 91
84 115 93
83 115 92
83 114 91
83 114 91
83 114 92
82 112 90
83 113 90
83 113 90
83 113 90
82 112 89
83 113 91
83 113 90
84 114 91
83 113 91
81 109 87
82 111 89
81 110 88
81 111 89
81 108 86
82 111 89
82 111 89
80 108 86
81 110 88
81 110 88
79 107 85
80 108 86
80 107 85
79 107 84
80 109 87
79 106 84
79 107 85
79 105 83
78 106 84
80 107 85
78 106 84
79 108 85
80 109 87
79 108 86
79 108 86
79 108 86
80 109 87
78 106 83
79 109 87
80 110 87
80 108 86
80 111 88
79 108 86
80 110 87
81 112 89
80 110 88
80 110 88
80 111 89
81 112 89
81 112 90
81 113 90
81 112 89
81 113 91
81 113 90
82 114 91
82 113 91
82 114 91
82 114 91
82 114 92
81 113 90
82 115 92
83 116 94
82 115 93
82 115 93
82 116 93
83 115 93
82 115 93
82 114 92
83 116 94
83 117 94
83 117 95
83 116 93
83 116 94
83 116 94
82 115 93
83 117 95
83 117 94
83 117 94
82 116 94
83 117 94
83 117 95
82 116 94
83 117 95
84 118 96
83 117 95
84 118 96
83 117 95
83 118 95
83 117 95
83 117 95
84 118 96
83 118 95
83 117 95
83 118 95
83 117 95
83 117 95
83 117 95
82 116 94
83 118 96
83 117 95
83 118 96
84 118 95
83 117 94
83 117 95
83 118 95
83 118 95
83 117 95
83 118 96
84 118 95
83 118 95
83 117 95
83 118 96
83 118 96
83 118 96
83 118 96
83 118 95
83 118 96
83 118 96
83 118 96
83 118 95
83 117 95
83 118 96
83 118 96
84 118 95
83 118 96
84 118 96
83 118 96
83 118 96
84 118 96
83 118 96
83 117 95
83 117 95
83 118 96
83 118 96
83 118 96
83 118 96
83 118 96
83 118 96
83 117 95
83 118 96
83 117 96
83 118 95
83 118 96
84 118 96
83 117 95
83 118 96
83 117 95
83 117 96
83 118 96
83 118 96
83 117 95
82 117 95
83 117 96
83 118 96
83 117 95
83 118 96
83 117 95
83 117 95
83 118 96
83 118 95
83 117 95
83 118 96
83 118 96
86 122 98
86 122 98
87 122 98
86 122 98
86 121 98
86 121 97
87 122 99
87 122 99
86 121 98
86 122 98
86 121 97
87 122 98
86 122 98
86 121 98
86 121 98
86 121 97
85 119 96
86 121 97
86 121 97
86 121 97
86 120 97
86 120 97
86 121 97
86 120 97
85 119 96
86 121 97
86 120 96
86 121 98
85 119 96
86 120 97
85 119 95
85 119 95
85 119 96
84 118 94
85 119 95
85 119 96
85 118 94
84 118 94
84 118 94
85 119 96
84 118 94
84 117 93
85 118 95
84 117 94
84 118 94
84 116 93
84 117 93
82 115 91
82 114 91
97 112 88
139 106 77
142 107 78
140 106 77
143 108 79
140 107 78
141 107 78
141 106 77
141 107 78
144 108 80
143 108 79
144 109 80
145 109 80
137 104 75
142 107 78
140 105 76
141 106 77
141 107 78
141 107 79
143 108 79
142 107 79
140 106 77
140 106 78
141 107 79
136 103 74
140 106 77
139 105 77
139 105 76
143 108 79
141 107 78
140 106 77
137 104 76
142 108 79
138 104 76
141 107 78
142 108 80
142 108 79
140 106 78
143 108 80
142 107 79
140 106 78
141 107 77
142 108 79
116 90 66
109 86 64
114 89 66
111 87 65
113 88 66
110 85 63
109 86 63
110 86 64
113 87 65
109 85 63
112 88 65
107 84 62
110 85 63
110 86 63
112 87 65
108 84 62
105 82 60
112 87 65
110 86 64
109 85 63
110 86 64
108 84 63
105 82 61
112 88 65
108 85 64
107 84 62
106 83 61
106 83 61
103 81 58
104 82 60
107 84 62
108 84 62
105 82 60
84 83 66
63 89 73
76 105 84
81 114 91
83 115 91
83 116 92
83 116 93
84 117 93
85 118 94
84 117 94
84 116 92
83 115 92
83 116 92
85 118 95
84 118 94
84 117 94
85 118 94
84 117 93
84 118 94
85 118 95
85 119 95
84 117 94
84 117 94
85 119 95
84 118 95
85 118 94
85 119 96
85 118 95
84 118 95
85 120 97
85 118 95
84 118 95
85 119 96
85 118 95
85 119 96
85 120 97
85 118 95
84 118 95
85 119 96
85 119 96
85 118 95
84 118 95
85 120 96
85 119 96
84 117 94
85 119 96
84 118 95
84 117 94
84 119 96
85 119 96
85 119 96
83 117 94
84 118 95
84 118 95
84 118 95
84 117 94
84 117 94
84 118 95
84 117 95
83 117 94
85 119 95
84 118 96
84 118 95
83 115 93
83 116 93
83 116 93
83 116 93
82 115 93
83 116 93
82 116 93
82 115 93
82 115 93
82 115 93
83 116 93
82 115 92
82 115 92
81 113 90
81 113 91
82 115 92
79 110 88
79 110 88
80 111 89
79 109 87
78 108 86
76 106 85
72 101 81
70 99 80
65 92 75
58 83 68
31 42 43
21 24 37
21 23 36
22 24 38
23 25 39
23 26 41
25 27 43
25 27 43
25 27 43
26 28 45
26 28 45
26 28 45
26 27 44
25 27 44
26 28 45
25 27 43
25 27 43
25 27 42
24 26 41
22 25 39
22 25 38
21 24 37
20 23 35
20 23 35
19 23 34
22 24 36
19 22 34
19 22 34
21 23 35
19 21 31
18 21 31
19 21 32
17 20 30
17 19 28
34 49 44
41 60 51
40 58 49
45 67 57
44 64 55
44 65 56
44 63 54
45 66 57
43 63 54
45 65 56
47 68 58
47 69 59
47 68 58
49 71 61
51 72 60
54 77 65
60 84 70
62 87 72
64 88 72
68 96 78
68 94 76
77 76 60
97 37 21
116 43 24
120 45 25
132 49 28
136 50 29
141 52 30
141 52 30
146 53 31
146 53 31
152 55 32
149 54 31
144 53 30
149 55 32
150 55 31
148 54 31
142 52 30
148 54 31
143 52 30
149 54 31
147 53 31
145 52 30
147 53 31
139 50 29
138 50 29
132 48 28
129 47 27
126 47 26
129 47 27
120 44 25
117 44 25
114 43 24
108 41 23
105 41 22
99 39 21
94 38 21
86 36 19
86 36 19
81 35 19
85 35 19
97 39 22
93 38 22
93 38 21
96 38 21
78 47 34
55 76 64
54 75 64
54 76 65
56 79 67
54 73 61
53 76 65
56 80 68
55 78 66
56 80 67
58 82 69
57 81 68
61 84 70
63 88 73
65 91 75
68 95 78
67 93 76
69 96 78
71 99 81
72 100 81
75 101 81
77 105 84
78 106 85
78 107 86
79 108 86
80 109 87
81 111 88
81 110 88
80 108 86
82 112 89
83 113 89
84 114 90
83 113 90
83 112 89
83 113 89
83 114 90
84 114 90
83 113 90
83 113 90
82 112 89
83 113 90
83 115 92
84 113 90
84 113 89
83 113 89
82 112 88
83 113 89
82 113 90
83 114 90
84 115 91
83 114 91
83 114 90
83 114 90
83 114 90
83 115 91
83 114 90
84 115 92
82 112 89
83 113 90
83 114 90
84 114 90
83 114 92
83 115 92
84 116 93
83 115 92
83 115 92
84 117 93
83 115 92
83 115 92
83 116 93
84 116 93
84 115 92
83 115 92
84 116 93
84 117 94
84 117 94
84 117 94
84 117 94
83 116 93
83 115 92
84 117 94
84 117 94
84 116 93
84 117 94
83 115 92
84 118 95
84 117 94
84 117 93
83 116 94
83 116 93
83 116 93
84 117 94
84 117 95
84 117 94
84 118 95
85 118 95
84 117 94
84 117 94
84 118 95
84 118 95
84 116 93
84 119 96
84 118 95
84 115 92
84 118 95
83 116 93
83 117 94
84 117 94
83 116 93
84 117 94
84 116 93
84 116 93
84 116 93
84 117 94
84 115 92
84 115 92
83 115 92
84 117 94
84 116 93
83 115 92
84 117 94
84 117 94
83 115 93
83 115 92
83 116 93
83 115 92
83 115 92
83 115 92
81 112 90
83 112 90
83 113 90
83 113 91
83 113 91
83 113 91
82 110 88
83 114 92
82 112 90
82 111 89
81 110 88
82 112 90
81 110 88
81 110 88
82 110 88
81 111 89
82 109 87
81 109 87
82 110 88
80 110 88
80 109 86
80 109 87
81 109 87
82 110 87
81 111 89
81 110 88
81 111 88
80 108 85
80 109 86
80 110 88
79 107 85
80 109 87
80 111 88
81 111 89
80 109 87
80 112 89
80 111 89
81 111 89
81 112 89
81 112 89
81 113 90
81 111 89
81 113 91
82 114 91
82 113 91
81 112 90
82 114 92
81 113 91
81 113 91
82 115 92
82 113 91
82 115 92
82 115 92
83 116 93
81 113 91
82 115 93
82 114 92
83 115 93
82 115 93
82 115 93
83 117 94
82 115 93
82 115 93
83 116 94
83 116 94
83 116 94
83 116 94
83 116 94
83 116 93
83 116 94
83 117 94
83 117 95
83 117 94
83 117 95
83 116 94
83 117 95
83 116 94
83 117 95
83 117 95
83 116 94
84 118 95
83 117 95
83 117 94
83 117 95
83 117 95
83 117 95
83 117 95
83 118 95
83 117 95
84 118 96
83 117 95
83 117 95
84 118 95
83 117 95
83 118 96
84 118 96
83 117 95
84 118 96
82 116 94
83 117 95
83 117 95
83 118 95
83 117 95
84 118 96
84 118 96
83 117 95
83 118 96
84 118 96
83 117 95
83 118 96
83 118 95
84 118 96
83 118 96
83 118 95
84 118 96
83 118 96
83 117 95
83 117 95
84 118 96
84 118 96
84 118 96
84 118 96
83 117 95
84 118 96
83 118 96
83 118 95
83 118 96
83 118 96
83 118 96
83 118 96
83 117 95
83 118 96
83 118 95
83 117 95
83 118 96
83 118 96
83 118 96
83 118 96
83 118 96
83 118 96
83 118 96
83 118 96
83 117 95
83 118 96
83 118 96
83 118 95
83 117 95
83 118 96
83 117 96
84 118 96
83 118 96
83 118 96
83 118 96
83 117 95
83 118 96
83 118 96
83 118 96
83 118 96
83 118 96
87 122 99
87 122 98
86 122 98
86 122 98
86 121 98
86 121 98
86 121 98
86 121 97
86 121 98
86 121 98
86 121 97
86 120 97
86 121 97
85 120 97
86 121 97
86 120 97
86 121 98
86 121 97
86 122 98
85 119 96
85 120 97
86 120 97
85 119 96
86 120 97
85 119 96
85 119 96
85 119 95
85 120 96
84 118 95
85 119 96
85 120 96
85 118 95
85 119 96
85 119 96
85 118 95
85 120 96
84 118 94
84 116 93
85 118 95
83 116 92
84 118 94
84 118 94
84 117 93
83 116 92
83 116 92
83 116 92
84 116 93
83 115 92
82 113 90
91 112 89
141 108 79
141 107 78
138 104 76
139 105 77
136 103 75
142 107 79
143 108 79
136 103 75
139 105 77
140 106 77
143 108 79
141 106 78
143 108 79
139 105 77
136 103 74
140 106 77
141 106 78
140 106 77
139 105 76
142 108 79
139 105 76
138 105 76
141 106 78
139 106 77
140 105 76
139 105 76
142 108 79
140 106 78
139 105 77
140 106 77
141 107 78
139 105 76
141 107 78
139 106 77
139 105 77
141 106 78
141 106 78
141 106 78
138 105 76
140 106 77
141 108 79
140 106 77
122 94 69
109 85 63
108 85 62
114 87 65
110 87 64
109 85 63
108 84 62
108 85 63
113 89 66
109 86 63
110 86 63
115 89 67
113 88 65
112 87 65
106 83 61
111 87 64
106 83 60
110 86 64
105 82 60
106 83 61
110 86 64
111 86 64
109 85 63
102 80 58
108 85 63
110 86 65
107 84 62
102 80 57
106 83 61
106 83 61
111 86 64
106 83 60
104 82 60
89 84 66
79 110 88
82 114 91
84 117 93
83 115 92
84 116 93
84 116 93
85 118 94
84 116 93
83 116 92
84 117 94
84 117 93
84 116 93
85 119 95
84 117 94
85 118 94
85 118 95
84 118 94
84 118 95
85 119 95
84 117 94
85 118 94
84 116 93
84 118 94
84 117 93
84 118 94
85 118 95
85 119 96
85 119 95
85 119 95
84 118 95
84 118 95
85 119 96
84 118 95
85 119 96
84 118 95
85 119 96
84 118 95
85 120 97
85 119 96
85 118 95
84 118 95
85 119 96
84 118 95
85 119 96
84 118 95
85 119 96
85 119 96
85 120 97
84 118 95
85 119 96
84 118 95
85 120 97
84 117 94
84 118 95
84 119 96
85 119 96
83 116 93
84 118 95
84 118 95
83 117 95
83 116 93
84 118 95
84 118 95
83 115 93
83 116 94
83 117 94
82 115 93
83 117 94
82 115 92
82 115 93
83 116 93
82 114 91
82 114 92
80 111 89
81 113 91
81 114 91
80 111 89
80 112 89
80 111 88
80 112 89
80 112 89
77 107 85
76 106 84
76 105 84
73 102 82
68 95 76
65 92 75
58 82 67
53 76 63
37 53 49
22 26 36
20 23 35
20 23 35
19 23 35
20 24 36
22 25 38
22 25 38
22 25 39
23 26 40
22 25 39
24 26 41
23 26 40
22 25 39
22 25 38
21 24 37
21 24 37
21 24 36
21 24 36
20 23 35
20 23 34
21 24 36
20 23 34
21 23 35
20 22 34
19 22 33
19 22 33
19 22 33
18 20 30
18 21 32
16 19 28
17 22 28
35 51 45
36 53 45
36 51 44
42 60 52
43 64 54
40 56 48
44 65 55
45 66 56
43 62 52
46 66 57
44 64 55
45 66 56
47 69 59
48 67 56
51 72 60
54 76 63
57 81 67
63 88 72
63 87 71
67 93 75
69 95 77
70 97 77
72 99 79
79 57 43
100 38 21
107 41 22
124 46 26
129 48 27
132 49 28
134 50 28
134 50 28
138 51 29
139 51 29
133 50 28
140 51 29
143 52 30
137 50 28
139 51 29
139 51 29
135 50 28
139 51 29
138 51 29
136 50 28
137 50 28
133 48 27
134 49 28
132 48 27
124 46 25
120 45 25
123 45 25
121 45 25
119 44 24
108 41 22
104 40 21
105 40 22
95 38 20
91 36 20
90 37 20
79 34 18
87 36 19
83 35 19
86 36 20
87 36 20
87 36 19
90 36 20
85 39 25
62 71 59
55 77 65
54 76 65
53 74 62
55 75 64
54 76 64
57 80 68
57 80 67
56 79 67
56 78 66
58 82 68
58 80 67
60 85 71
61 87 72
64 89 74
66 92 76
69 95 77
71 98 80
71 97 79
74 102 82
75 102 82
76 104 84
78 107 85
78 108 87
80 108 86
80 111 89
82 111 88
83 113 90
83 114 91
82 113 89
83 113 89
83 114 90
85 114 90
83 114 90
83 114 91
84 115 91
84 114 91
84 116 92
83 113 89
83 114 91
84 114 91
84 115 91
84 115 91
84 115 92
83 114 91
83 113 89
83 113 90
84 115 92
83 113 90
84 114 91
84 115 91
83 114 91
83 113 89
84 114 90
84 114 91
83 115 92
83 113 90
84 115 92
84 116 92
84 116 92
82 113 90
84 116 92
83 115 92
83 115 91
83 115 91
83 116 93
84 116 93
84 116 93
84 116 93
84 115 92
83 115 92
83 116 93
84 116 93
84 118 94
83 116 93
83 115 92
84 116 93
84 117 94
84 117 93
84 117 94
84 116 93
85 118 94
84 116 93
84 118 95
83 117 94
84 117 93
84 116 93
83 116 93
84 117 94
83 116 94
85 118 95
84 117 95
84 116 93
84 118 95
84 117 94
84 117 95
85 119 95
84 119 96
84 117 94
84 116 93
84 118 95
84 117 94
83 116 93
84 117 94
85 118 95
83 116 93
84 118 95
84 117 94
84 118 95
83 116 93
84 118 95
84 117 94
84 118 95
84 117 95
83 115 92
84 117 94
84 117 94
84 116 94
84 117 94
83 115 93
83 114 92
83 116 94
84 115 93
84 117 94
84 116 93
83 114 91
84 116 93
83 114 91
83 114 91
84 114 91
83 114 91
82 113 91
83 114 92
83 114 91
83 115 92
83 114 92
82 112 89
83 113 90
83 114 91
83 112 90
83 113 90
82 110 88
83 113 90
81 111 89
81 111 88
82 111 89
82 111 89
82 110 88
81 111 89
82 112 90
81 110 88
81 110 88
82 112 90
81 110 88
81 111 89
81 111 89
81 110 88
81 111 89
81 110 88
81 111 89
80 111 89
81 111 88
80 110 88
81 112 90
81 111 89
82 112 90
81 113 91
82 112 90
82 113 91
81 113 90
82 114 91
82 113 91
82 115 92
82 115 93
82 113 91
82 114 91
81 113 90
82 115 92
82 115 92
83 115 93
82 114 92
82 114 92
82 115 92
82 116 94
83 115 92
83 117 94
82 115 93
82 115 93
83 115 93
83 116 94
83 116 94
83 117 94
83 117 94
83 116 93
83 116 94
83 117 94
83 117 94
83 117 95
83 118 95
83 117 95
83 116 94
83 117 95
83 117 95
83 116 94
83 117 95
83 117 94
83 117 95
83 117 94
83 117 95
83 117 95
83 118 96
83 118 95
83 118 96
84 118 95
84 118 96
83 117 95
83 117 95
83 117 95
83 117 95
83 117 94
83 118 95
83 117 95
83 117 95
84 118 96
83 118 96
83 117 95
83 118 95
83 118 96
83 118 95
83 118 96
83 117 95
83 118 96
83 117 95
84 118 96
83 118 96
83 118 96
83 117 95
83 118 95
83 118 96
83 118 96
83 118 96
83 118 95
84 118 96
83 118 96
83 118 95
84 118 96
84 118 95
83 117 95
83 118 95
83 118 96
83 117 95
83 118 96
83 118 96
83 118 96
84 118 95
83 118 95
83 117 95
83 117 95
83 118 96
83 118 96
83 118 95
84 118 96
83 118 96
83 117 95
82 116 94
83 118 96
83 117 96
83 118 96
83 118 96
83 118 96
83 118 96
83 118 96
83 118 96
83 117 95
83 118 96
83 117 95
83 118 96
83 118 95
83 118 96
83 117 95
83 117 95
83 117 95
83 117 95
83 118 96
83 117 95
83 118 96
83 118 96
87 122 98
87 122 98
87 121 98
87 122 98
86 121 98
87 122 98
87 122 99
86 121 98
86 121 97
86 121 98
86 122 98
87 122 98
86 120 97
86 121 98
86 121 97
86 121 98
86 120 97
85 120 96
85 120 96
86 121 98
86 121 97
85 119 95
85 120 96
85 120 96
86 121 97
85 120 96
86 121 97
85 119 96
85 119 96
85 119 96
86 120 97
85 119 95
85 119 95
85 119 95
85 118 94
83 116 92
85 118 94
84 118 94
85 119 95
84 117 94
84 117 93
84 117 93
84 117 93
84 117 93
84 116 92
83 116 92
84 116 93
82 114 91
83 115 91
84 112 88
136 106 77
142 107 78
141 107 78
142 108 79
139 106 77
143 108 80
138 104 76
140 106 78
141 106 78
142 107 78
137 104 76
140 106 77
140 106 77
141 106 78
140 106 77
140 106 77
137 104 75
140 106 77
141 106 77
141 107 78
139 105 76
141 106 78
140 106 77
142 108 79
141 106 78
141 106 77
141 107 78
141 106 78
141 107 78
143 108 79
140 106 77
141 107 78
143 108 80
139 105 76
140 106 77
143 107 79
140 105 77
139 105 76
141 106 78
143 108 79
142 107 78
141 107 79
126 96 71
116 90 68
112 87 65
108 84 62
109 85 63
112 87 64
110 86 64
111 85 63
110 86 64
111 87 65
111 87 64
113 87 65
109 85 63
107 84 62
109 85 63
108 84 62
111 87 65
107 83 61
111 86 64
109 84 62
109 85 64
110 86 63
111 87 65
108 84 63
107 84 61
111 87 65
108 84 62
107 83 61
109 85 62
109 85 63
110 86 64
102 82 60
98 94 71
83 108 85
83 114 90
82 113 89
84 115 92
84 117 93
84 116 92
84 116 92
85 117 93
84 117 93
85 118 94
85 118 94
84 116 92
85 118 94
84 117 94
84 117 93
84 116 93
84 118 95
84 117 93
85 118 95
84 118 95
84 118 94
84 118 95
84 117 93
85 118 94
84 118 95
85 118 95
85 118 95
84 118 94
85 119 96
85 119 96
84 118 95
85 118 95
84 118 95
85 120 96
85 119 96
85 119 95
85 119 95
85 119 95
85 118 95
84 119 96
85 119 96
84 118 94
84 118 95
84 117 94
85 119 96
84 118 95
85 119 96
84 118 95
85 119 96
84 118 96
85 119 96
84 118 95
85 119 96
84 118 96
85 119 96
84 118 95
84 118 95
84 118 95
85 119 96
83 115 92
85 119 96
83 117 94
84 117 94
83 117 94
84 118 95
82 115 92
82 114 92
83 115 93
83 117 94
82 115 92
81 114 91
82 115 93
82 115 92
82 115 92
83 115 93
79 110 88
79 110 88
79 110 88
81 113 90
79 111 88
79 109 87
80 112 90
78 109 87
76 105 83
76 106 85
72 100 79
69 96 77
61 86 69
55 78 63
51 72 58
46 66 55
41 59 52
25 33 38
19 22 34
20 23 35
21 23 36
21 24 36
21 24 36
20 23 35
21 24 36
20 23 35
19 23 34
20 23 35
21 24 36
20 23 35
20 23 35
20 23 34
20 23 35
21 24 36
21 24 36
21 24 36
19 23 34
20 23 34
21 23 35
18 22 32
18 21 32
19 21 32
18 21 31
18 20 31
17 19 28
22 29 30
34 48 41
34 47 39
32 46 39
38 55 46
39 56 47
41 59 50
39 55 47
43 63 53
41 58 50
43 63 54
40 58 50
44 64 55
41 61 52
49 71 60
48 70 59
53 75 62
59 82 68
59 84 69
65 90 73
67 93 75
68 95 76
70 96 77
71 97 77
72 98 78
72 92 73
78 45 31
98 38 20
106 41 22
115 44 24
119 45 25
122 46 26
123 46 26
130 49 27
126 47 27
127 47 27
132 49 28
129 48 27
131 49 27
130 48 27
130 48 27
134 49 28
125 47 26
129 48 27
131 48 27
129 47 26
125 46 25
121 45 25
119 44 24
117 44 24
114 43 24
115 43 23
108 41 22
103 40 21
103 39 21
96 38 20
90 36 19
86 35 18
80 34 17
78 33 17
78 33 17
80 34 18
79 34 18
80 35 18
80 34 18
76 33 17
83 34 19
61 63 52
54 77 65
54 74 62
54 76 64
53 76 65
55 79 67
57 81 68
55 77 65
56 79 66
56 79 67
56 81 69
56 78 66
58 82 69
59 83 70
61 84 70
63 88 74
65 91 75
67 95 78
70 97 79
72 99 81
73 101 82
74 102 83
78 106 85
79 108 87
78 107 86
81 110 88
80 110 88
82 112 89
82 113 90
83 114 91
83 112 89
84 115 92
83 113 89
84 114 91
84 116 93
83 115 92
85 115 91
84 114 91
84 114 90
83 115 92
83 115 92
83 114 91
84 115 91
84 116 92
83 114 91
83 113 89
84 115 92
84 115 91
84 114 90
84 116 93
83 115 92
84 116 93
83 114 91
83 115 92
85 117 93
83 113 90
84 116 93
84 115 91
84 116 93
84 116 92
84 115 92
84 117 93
84 116 93
83 115 92
84 116 93
84 116 93
84 116 92
84 116 92
83 116 93
84 115 92
84 116 93
84 118 94
84 117 94
84 117 94
84 116 93
85 118 95
84 117 94
84 117 94
84 115 92
84 116 93
84 117 94
85 118 94
83 116 93
83 115 93
84 117 94
84 117 95
84 117 94
84 117 94
84 117 95
85 118 94
85 119 96
85 118 95
84 117 94
85 119 95
84 118 95
84 118 94
85 119 96
84 117 95
84 117 95
84 118 95
84 116 93
84 117 94
84 117 94
84 117 94
84 117 95
84 118 95
84 117 95
84 118 95
85 119 96
84 117 94
84 115 92
84 118 95
84 117 94
84 117 94
84 116 93
83 116 93
84 117 94
84 117 94
84 116 93
84 117 94
84 117 94
84 116 94
84 117 94
84 116 93
84 115 92
84 117 94
85 117 94
84 115 92
84 116 93
83 115 92
83 113 91
83 115 92
83 114 91
84 116 93
83 115 92
83 114 92
83 113 90
82 113 90
82 113 91
83 113 91
83 114 92
83 114 92
83 113 90
83 113 90
83 114 91
82 112 89
82 113 91
82 112 90
83 113 91
83 114 91
82 113 91
82 113 91
82 112 90
82 112 89
83 113 91
82 112 90
82 113 91
82 114 92
81 112 90
82 112 90
82 112 90
81 110 87
82 112 90
82 113 91
82 112 90
82 113 90
82 113 91
81 112 89
82 114 91
82 115 92
81 113 90
81 112 90
82 115 92
83 114 92
81 113 91
83 115 92
82 114 92
82 114 92
82 114 92
82 114 92
82 114 92
83 114 92
83 116 93
83 115 93
83 115 93
82 115 93
82 116 94
82 116 94
83 115 92
83 116 93
83 116 94
83 117 95
83 116 94
83 116 94
83 116 93
82 116 94
83 117 95
83 117 94
83 117 94
82 116 94
83 117 95
83 117 94
84 118 95
83 117 94
84 118 95
83 118 95
83 117 95
84 117 95
83 117 94
84 118 96
84 117 95
83 117 95
83 117 95
83 117 95
84 117 95
83 118 95
83 117 95
83 117 94
83 118 96
83 117 95
84 118 95
83 118 95
83 118 95
84 118 96
84 118 96
83 116 94
83 117 95
84 118 96
83 117 95
83 117 95
83 118 95
83 118 95
84 118 96
83 117 95
83 118 96
84 118 96
83 118 96
83 118 96
83 118 95
83 118 95
84 118 96
83 118 95
83 118 96
84 118 96
83 118 96
84 118 96
83 118 96
83 118 96
84 119 96
83 118 96
84 118 96
83 118 96
83 117 95
83 118 96
83 118 96
83 118 95
84 118 96
83 118 96
83 117 95
83 117 95
83 117 95
83 118 96
83 118 96
83 118 96
83 118 96
83 118 96
83 117 95
83 118 96
83 118 96
83 117 95
83 118 96
83 118 96
83 117 96
83 117 95
83 118 96
83 118 95
83 118 96
83 117 96
83 117 95
83 118 95
83 118 96
83 117 95
83 117 96
83 118 96
83 118 96
83 117 96
83 117 95
83 118 96
86 121 98
86 122 98
87 122 98
86 122 98
86 121 98
86 121 98
87 122 98
86 121 97
86 121 97
86 121 98
86 121 97
86 121 97
86 121 97
86 121 98
86 121 97
86 121 97
86 120 96
86 121 97
86 120 97
87 122 98
86 120 96
86 121 97
86 120 96
87 122 98
86 122 98
85 119 96
84 118 94
85 119 95
85 119 95
86 120 96
85 119 96
85 119 95
85 119 95
84 117 94
85 119 96
84 117 93
84 117 94
84 117 94
85 118 95
84 118 94
83 116 92
84 117 93
84 117 93
84 116 93
84 116 92
84 117 93
82 114 91
82 114 90
82 113 90
83 112 89
132 106 78
138 105 76
141 106 77
137 104 75
142 108 79
139 106 77
140 106 77
141 107 78
145 109 80
140 106 77
140 106 77
140 106 78
139 105 77
140 106 77
138 105 76
139 105 76
145 109 80
141 107 79
140 106 77
139 106 77
143 108 79
143 108 80
142 107 78
140 106 77
136 104 75
140 106 77
138 105 76
140 106 77
141 106 77
140 106 77
142 107 79
136 104 75
142 108 79
137 104 75
142 107 79
142 108 79
141 106 77
140 106 77
141 106 77
143 107 79
140 105 77
141 106 78
122 95 69
110 86 63
110 86 63
107 85 62
108 84 62
107 85 62
112 87 64
112 88 65
110 86 63
111 87 64
107 85 62
106 83 61
105 83 61
108 84 62
113 87 64
108 84 62
110 85 63
111 87 64
108 85 63
110 86 64
106 83 61
102 80 59
106 83 60
109 85 63
108 84 62
108 84 62
110 86 64
107 83 62
109 85 64
110 88 65
96 96 73
88 108 84
80 109 85
81 111 88
82 112 88
82 113 89
83 114 90
84 115 91
83 115 92
85 118 93
84 116 92
84 116 92
84 117 94
84 116 92
84 116 93
84 117 94
84 117 93
84 117 93
84 117 94
85 118 95
84 117 94
84 117 93
83 116 92
85 118 94
85 119 96
84 117 93
85 119 96
84 118 94
85 119 95
85 119 96
84 117 94
85 119 95
83 116 93
85 119 96
84 118 94
84 118 94
85 119 95
85 118 95
85 118 95
85 119 96
85 119 96
84 117 94
84 118 95
85 119 96
84 118 95
85 119 96
85 119 96
85 119 96
84 118 95
84 117 94
85 119 96
84 118 95
85 119 96
84 117 94
85 119 96
84 118 94
84 118 95
84 117 94
84 118 95
83 116 94
84 118 95
84 117 94
83 117 94
83 116 93
84 117 94
83 116 93
83 115 93
83 116 93
83 117 94
83 116 94
82 115 92
84 117 94
81 114 91
81 113 91
82 115 93
81 113 90
80 112 90
80 112 90
81 114 91
79 109 87
79 111 88
79 110 88
79 110 88
79 110 88
80 112 89
78 109 87
75 103 82
75 104 82
73 101 81
69 95 76
64 89 72
60 84 67
55 77 63
47 68 56
40 59 49
38 55 47
27 39 37
20 25 33
19 22 34
19 22 33
20 23 34
19 22 33
19 22 34
20 23 34
20 23 34
20 23 34
19 22 34
20 23 35
20 23 34
20 23 34
20 22 34
20 22 33
19 22 33
19 22 33
19 22 33
18 21 32
18 21 31
19 21 32
19 22 32
18 20 29
16 19 27
18 23 28
25 33 30
29 38 32
32 44 37
33 47 39
35 50 42
38 56 47
38 55 46
38 54 45
41 60 51
41 59 50
44 62 52
40 57 49
43 60 51
44 63 54
48 68 57
53 74 61
54 75 61
58 81 66
62 87 71
64 88 71
66 92 74
70 97 77
70 95 76
72 99 79
73 100 79
74 101 80
74 100 79
70 88 69
78 38 24
92 37 19
98 39 20
108 42 22
111 43 23
114 43 24
118 45 24
115 44 24
121 46 25
122 46 25
121 46 25
126 47 26
124 46 25
121 46 25
125 47 26
119 44 24
123 46 26
120 45 25
119 45 24
112 42 23
111 42 23
109 42 22
111 42 23
105 41 22
105 40 21
103 40 22
92 37 19
91 37 19
78 33 16
81 34 17
78 33 17
76 33 16
75 33 16
79 34 18
77 34 17
75 33 17
74 33 16
76 33 17
75 31 17
66 60 49
53 73 61
50 68 57
55 77 65
55 76 64
52 72 61
53 74 63
54 75 63
56 78 66
55 77 65
55 77 65
56 79 67
56 80 68
56 79 66
59 83 70
60 84 71
63 87 72
66 91 75
69 97 80
70 97 79
73 100 81
74 101 82
75 105 85
77 105 84
78 106 85
80 111 89
82 111 89
82 112 90
82 113 91
83 114 91
83 113 90
83 113 90
84 115 92
84 116 93
84 116 93
84 114 91
84 113 89
84 114 90
84 116 92
85 117 93
84 115 92
84 117 93
84 115 92
85 115 92
84 115 92
85 117 93
84 116 92
84 115 91
84 115 92
83 114 91
85 116 93
85 117 93
84 115 92
83 116 93
84 116 93
84 116 93
84 116 92
84 116 92
84 117 94
85 116 93
91 119 96
96 122 100
105 126 103
119 133 113
115 132 110
114 130 108
106 126 106
84 112 93
84 115 93
84 117 94
84 117 94
84 117 94
84 115 92
84 117 94
84 117 94
85 117 93
84 116 93
84 117 94
85 117 94
85 118 95
84 117 94
84 116 92
84 116 93
84 118 95
84 117 94
84 118 95
85 118 95
84 117 94
84 118 95
84 117 94
85 118 95
84 118 95
84 118 94
84 117 94
85 119 95
84 118 95
84 117 94
84 118 95
85 118 95
84 117 94
84 117 94
84 118 96
85 118 95
84 118 95
84 118 95
84 118 95
84 117 94
84 118 95
84 117 94
84 118 95
84 118 95
85 117 94
84 117 94
84 116 94
85 119 96
84 118 96
84 118 95
84 117 94
84 118 95
85 118 95
84 117 94
84 117 95
84 116 93
84 116 93
84 117 94
85 118 95
84 116 94
84 117 94
84 117 94
84 118 95
84 116 93
83 115 92
84 116 94
84 116 93
84 116 94
84 115 92
83 115 93
83 114 91
83 113 90
84 114 92
83 115 92
84 113 90
83 115 93
83 114 91
83 115 92
83 112 90
82 112 90
83 114 92
83 115 92
83 115 93
82 112 90
83 113 90
82 112 90
82 112 89
82 111 89
81 112 90
83 114 91
82 112 90
83 114 92
82 114 92
82 113 91
82 113 91
82 113 91
83 115 92
82 114 91
82 114 92
83 113 91
83 114 91
83 114 92
82 114 92
82 114 92
83 114 91
82 114 91
82 114 91
82 114 92
82 114 92
83 115 92
83 115 92
82 114 92
82 116 93
83 116 93
83 116 94
83 116 93
82 115 93
83 116 93
83 115 93
83 116 94
83 116 93
83 117 95
83 115 93
83 115 92
82 115 93
83 115 93
84 117 95
84 117 95
83 117 95
83 116 93
83 117 95
83 117 94
83 117 95
83 116 94
84 118 95
84 117 95
84 118 96
83 117 95
84 118 95
83 117 94
83 117 95
83 116 94
83 117 95
84 118 96
83 118 96
83 118 95
84 118 95
83 118 95
83 117 95
84 118 95
83 117 95
84 118 96
84 118 95
83 117 95
83 118 96
84 119 96
83 117 94
83 117 95
83 118 95
83 118 95
84 118 96
83 117 95
84 118 96
84 118 96
84 118 96
83 118 96
84 118 95
84 119 96
84 118 96
84 118 96
83 117 95
83 118 96
84 118 96
84 118 96
84 118 95
83 117 95
83 118 96
83 118 95
83 117 95
83 118 96
83 117 95
84 118 96
84 118 96
84 118 96
83 118 95
83 118 96
83 118 96
83 117 95
84 118 96
84 118 96
83 117 95
83 118 96
83 118 96
83 118 96
83 118 96
83 118 96
83 117 95
83 117 95
83 118 96
84 119 96
83 118 96
84 118 96
83 118 96
83 118 96
83 118 96
83 118 96
83 118 95
83 118 96
83 117 95
83 118 96
83 117 95
83 118 96
83 117 95
83 117 95
83 118 96
83 118 96
83 118 96
83 117 95
83 118 96
83 118 96
83 118 96
83 118 96
86 121 98
87 122 98
86 120 97
86 121 98
86 121 98
86 122 98
86 120 97
86 120 97
86 121 98
87 122 98
86 121 97
86 121 98
86 121 97
86 121 97
86 121 98
86 121 98
86 121 98
86 120 97
86 120 97
85 119 96
86 120 96
85 119 96
85 119 95
86 120 97
86 120 96
86 120 97
85 119 96
86 120 97
85 120 96
85 119 96
84 118 94
85 119 96
84 118 94
84 118 94
85 119 95
84 118 95
85 119 95
84 118 94
86 120 96
84 117 94
84 117 93
84 117 93
84 117 93
84 116 93
82 114 91
83 114 90
82 114 91
83 114 90
83 114 91
80 111 88
133 109 82
141 106 77
139 105 76
139 105 76
140 106 77
140 106 78
141 107 79
138 104 75
139 106 77
138 104 75
141 107 79
139 105 77
138 105 76
138 104 75
139 105 77
138 104 75
140 106 78
139 105 76
140 106 78
142 108 79
137 104 75
142 107 78
141 107 78
139 105 76
139 105 77
138 104 76
142 107 78
140 106 77
140 106 77
137 104 75
143 108 79
140 106 77
141 106 78
141 107 78
143 108 79
141 107 78
141 107 78
138 104 76
144 109 80
139 105 77
140 105 76
137 103 75
127 97 71
108 85 62
111 87 64
113 88 65
109 85 62
112 86 63
109 84 62
109 85 63
111 87 65
110 85 63
108 84 62
106 84 62
111 87 64
112 87 65
110 86 64
108 84 62
107 84 62
110 86 64
108 84 63
110 86 64
107 84 62
109 85 63
103 81 59
106 83 61
110 85 63
107 83 62
107 83 61
106 84 62
95 93 70
84 104 81
80 107 83
81 111 87
81 110 86
81 110 86
81 111 87
82 113 89
82 113 89
83 113 89
84 115 91
84 115 91
84 117 93
84 116 92
84 116 93
84 117 93
84 117 93
84 116 93
84 118 94
85 118 94
84 117 94
84 116 93
84 118 94
84 117 93
84 117 93
84 118 95
84 116 93
84 118 95
85 118 95
85 118 95
84 118 94
84 118 95
85 119 96
84 117 94
85 118 95
85 119 96
84 117 94
85 119 96
85 120 96
85 119 96
84 118 95
85 119 96
85 119 96
85 119 96
84 118 95
84 118 95
85 120 96
84 118 95
84 117 94
85 120 97
84 118 96
85 118 95
84 117 94
84 117 94
85 118 95
84 118 95
84 119 96
84 118 95
84 118 95
84 117 94
85 119 96
84 118 96
84 119 96
84 117 94
84 118 95
83 116 93
83 117 94
84 117 94
83 116 93
83 116 93
82 115 92
83 116 94
83 116 93
83 116 93
82 114 91
83 116 93
82 115 92
81 114 91
81 113 91
82 114 91
80 111 89
81 113 90
80 111 89
81 113 90
79 109 87
79 110 88
77 107 84
79 110 88
77 107 85
76 105 83
75 104 82
70 97 77
67 92 73
63 88 71
56 78 63
51 72 58
47 67 55
35 51 43
31 45 38
29 43 37
24 34 34
18 22 29
19 22 32
19 22 34
19 22 33
18 21 31
20 22 34
19 22 32
19 22 33
19 22 33
20 22 33
19 21 31
19 21 32
19 22 33
19 21 32
19 21 31
19 21 32
18 21 31
18 20 30
17 19 28
15 17 25
20 25 26
23 31 28
28 39 33
30 42 35
27 37 31
34 47 39
30 43 36
35 49 41
33 45 38
38 52 43
37 53 45
34 48 40
40 57 49
42 60 51
44 63 53
44 63 53
48 68 56
53 73 60
55 77 63
57 78 63
61 84 67
66 91 73
68 94 74
69 94 74
71 98 78
73 99 77
75 102 80
75 103 82
74 101 80
72 98 77
69 94 75
69 82 65
72 36 22
83 34 17
91 36 19
98 39 20
99 39 21
104 41 22
108 42 22
110 43 23
112 43 23
116 44 24
116 44 24
114 44 24
111 42 23
114 44 24
112 43 23
109 42 23
106 41 22
105 41 22
106 41 22
105 41 22
100 39 21
100 40 21
93 37 19
94 38 20
86 35 18
87 36 18
80 33 16
74 32 16
74 33 16
76 33 16
75 33 16
79 34 17
78 33 17
74 32 16
70 31 15
76 33 17
71 32 17
65 57 45
52 72 61
50 70 59
51 70 59
53 74 62
53 74 63
53 72 61
52 71 60
55 76 65
52 72 61
55 77 65
56 77 65
55 76 64
56 80 68
58 80 67
60 83 70
62 85 70
64 90 74
66 92 76
69 97 79
72 98 79
74 101 81
75 104 84
77 107 86
