P3
200 133
255
19 42 39
19 43 40
19 43 39
19 43 40
19 43 39
19 43 39
19 43 40
20 44 41
20 44 40
19 42 39
20 44 41
19 43 40
19 43 40
20 44 40
20 44 41
20 44 40
19 43 40
19 43 39
19 42 39
20 44 41
19 43 39
19 43 40
20 44 40
19 43 40
20 44 41
19 43 40
19 43 40
20 44 40
19 43 40
19 43 40
20 45 42
19 43 40
20 44 40
19 44 40
19 43 40
20 44 41
19 42 39
19 43 40
20 44 40
20 44 40
19 43 40
19 44 40
20 44 40
20 44 41
19 42 38
20 45 41
20 45 41
20 44 40
20 44 41
19 43 39
20 44 40
20 45 41
20 44 40
20 44 40
20 44 41
19 43 40
20 44 40
20 44 41
20 44 40
20 44 41
20 45 41
20 44 40
20 44 41
19 43 40
20 44 40
20 44 41
20 44 40
19 43 40
19 43 40
20 45 41
20 44 41
19 43 40
20 44 40
20 44 41
20 44 41
20 43 40
20 44 40
20 45 41
20 45 41
20 44 40
20 45 41
20 44 40
20 44 40
20 44 40
21 46 42
19 42 39
20 44 40
20 45 41
20 44 41
20 45 41
20 44 40
20 44 41
20 45 41
20 44 41
20 44 40
20 44 40
19 43 39
20 44 41
20 45 41
19 43 40
20 45 41
20 44 40
20 44 40
20 44 40
19 43 40
20 44 41
20 44 40
19 43 40
20 45 41
20 44 40
20 44 41
20 45 42
20 44 40
20 45 41
20 45 41
20 44 40
20 44 41
20 45 41
20 44 40
19 43 40
20 44 40
20 44 40
20 44 41
20 44 41
20 45 41
20 44 40
20 44 40
20 44 40
20 44 40
20 45 41
20 45 41
20 44 40
20 44 41
20 45 41
20 44 40
20 45 41
21 46 42
20 45 41
20 44 40
20 45 41
20 45 41
20 45 41
20 45 41
19 43 40
20 45 41
20 45 41
20 44 40
20 45 42
20 44 41
20 45 41
20 44 41
20 44 41
20 44 41
20 44 40
20 45 41
20 45 41
20 45 42
20 45 41
20 44 41
20 44 40
20 44 40
20 45 41
20 44 41
20 44 41
20 44 41
19 43 40
20 44 40
20 45 41
20 44 40
20 44 41
19 43 40
20 44 41
20 45 41
20 44 40
20 44 41
20 45 41
20 45 42
19 43 40
20 45 42
20 43 40
20 45 41
20 44 40
20 44 40
20 45 41
20 44 41
19 43 40
20 44 41
20 44 40
20 44 40
21 46 42
20 44 41
19 43 39
20 44 41
20 45 42
20 45 41
20 45 41
21 45 42
20 45 41
20 44 40
20 45 41
19 43 39
19 42 39
19 43 40
19 43 40
19 43 40
20 44 41
20 44 41
19 43 40
20 44 40
19 44 40
20 44 41
19 43 40
20 44 40
20 44 41
20 44 40
19 43 40
20 44 40
19 43 39
19 43 40
19 43 40
20 44 40
19 43 40
19 43 39
19 43 40
20 44 40
19 43 40
20 44 41
19 43 40
20 44 40
20 44 41
20 44 40
19 43 40
19 43 40
19 43 40
20 44 40
20 44 41
20 44 41
19 43 40
19 43 40
20 44 41
19 43 40
20 44 40
20 44 41
20 44 41
20 44 41
20 44 41
19 42 38
19 43 39
20 44 41
19 43 39
20 44 41
20 44 41
20 44 41
20 44 41
20 44 40
20 44 41
20 44 41
20 44 40
20 44 40
20 45 41
20 45 41
19 43 40
20 44 41
20 44 41
20 44 40
20 44 41
20 44 40
20 44 41
20 44 41
20 44 41
20 44 41
19 43 39
20 45 41
20 44 41
20 44 40
20 45 41
20 44 40
20 44 41
19 42 39
19 43 40
20 45 42
20 44 40
20 44 40
20 44 40
20 45 42
20 45 41
19 43 40
20 44 41
20 45 41
20 44 40
20 44 41
20 44 41
20 44 41
20 44 41
20 45 41
20 45 41
20 44 41
20 44 40
20 44 41
20 44 40
21 46 42
20 45 41
20 45 42
20 44 40
19 43 40
20 44 40
20 44 41
20 44 41
20 44 40
20 44 41
20 44 40
20 44 40
20 43 40
20 45 41
20 44 40
20 43 40
20 43 40
20 45 41
20 45 41
20 44 40
20 45 41
20 44 40
20 44 40
20 44 40
20 44 41
20 44 41
20 44 41
20 44 41
20 44 40
20 44 40
20 45 41
20 45 41
21 46 42
19 43 40
20 44 41
20 43 40
20 44 40
20 45 41
20 44 41
19 43 40
20 45 41
20 44 40
20 44 40
20 44 40
20 45 41
20 45 42
20 44 40
21 47 43
20 44 41
20 44 40
20 45 42
20 44 41
20 45 42
20 45 41
20 44 41
20 43 40
20 44 41
20 45 41
20 44 41
20 44 40
20 44 40
20 44 40
20 45 41
20 44 41
20 44 40
20 45 42
20 44 40
20 45 41
20 44 41
20 45 41
20 44 40
20 44 40
20 45 41
20 45 41
20 45 41
20 44 40
20 45 42
20 45 41
20 45 41
20 43 40
20 44 40
20 44 41
20 44 41
20 45 42
20 45 42
19 43 39
20 45 41
20 45 41
20 45 41
20 44 40
20 45 41
20 45 41
20 45 41
20 45 42
20 45 41
20 45 42
20 44 40
20 45 41
20 44 40
20 44 40
20 44 40
20 44 40
19 43 40
19 43 39
20 44 40
20 45 41
20 43 40
19 43 40
19 43 40
19 43 39
19 42 39
20 44 41
20 45 41
20 44 40
20 44 40
20 44 41
19 43 40
19 43 39
19 43 40
19 43 39
20 44 40
20 44 40
20 44 41
19 43 40
19 43 40
19 42 39
20 44 41
19 43 40
20 45 41
20 44 41
19 43 40
19 43 39
20 44 41
20 45 41
20 45 41
20 44 41
20 45 41
20 44 41
20 44 40
20 43 40
20 44 41
20 44 41
20 44 40
20 44 40
19 42 39
20 44 40
20 44 40
20 44 41
20 45 42
19 43 39
20 44 40
20 44 41
20 45 42
19 43 40
20 44 41
20 44 41
20 44 40
20 43 40
20 44 41
19 43 39
20 45 41
20 45 41
19 43 40
20 44 40
20 44 41
20 44 40
20 44 41
20 44 40
20 44 40
20 45 41
20 44 40
20 44 41
20 44 40
20 45 41
19 43 40
20 45 41
20 45 41
20 44 40
20 45 42
20 45 41
20 45 41
19 43 39
20 44 41
20 45 41
20 44 41
20 44 41
19 43 40
20 45 41
20 45 41
20 44 40
20 44 41
20 44 41
20 44 41
20 44 40
20 44 41
20 45 41
20 44 40
20 44 40
20 44 40
20 45 41
20 44 40
20 44 41
20 44 40
20 44 40
20 44 41
20 45 41
20 44 40
20 45 41
20 45 41
20 44 41
20 45 41
20 45 41
20 44 41
20 45 41
20 45 42
20 45 41
20 44 41
20 44 41
20 44 41
20 45 41
20 44 40
21 46 42
20 44 40
20 44 40
20 44 41
20 44 41
19 43 40
20 45 42
20 44 40
20 44 40
20 45 41
20 45 42
20 44 40
19 43 39
20 44 41
20 44 41
21 46 42
20 44 40
20 45 42
20 44 41
20 45 41
20 45 41
20 45 41
19 43 40
20 44 41
21 46 42
20 44 41
20 45 41
20 44 41
19 43 40
20 45 41
20 45 41
20 45 41
20 44 41
20 45 41
20 45 41
20 45 42
20 45 41
20 45 42
20 44 41
20 44 41
20 44 41
20 44 41
20 44 40
20 44 40
20 44 40
20 44 40
20 45 41
20 45 41
20 44 41
20 44 40
20 43 40
20 44 40
20 45 41
20 45 41
20 44 41
20 44 41
20 44 40
21 46 42
20 44 40
19 43 40
20 44 40
20 45 41
20 44 41
20 45 41
20 44 40
20 44 41
20 45 42
20 45 42
20 44 41
20 45 41
19 43 40
20 45 41
20 44 41
20 44 41
20 45 42
20 44 41
19 43 40
20 45 41
20 45 41
20 44 41
20 45 41
19 43 39
20 45 41
19 43 40
19 43 40
20 44 40
20 44 41
20 44 41
20 44 40
19 43 40
19 44 40
20 44 41
19 43 39
20 44 41
20 44 41
20 44 40
19 43 39
19 43 39
20 44 41
20 44 41
19 43 40
20 44 40
20 44 40
20 44 40
19 43 40
20 44 41
19 43 40
19 44 40
20 44 40
20 44 41
20 45 42
20 44 40
19 43 40
20 44 40
20 45 42
20 45 41
20 45 41
20 44 40
19 43 40
20 44 41
20 44 41
19 43 40
19 42 39
20 45 41
20 45 41
20 45 41
20 44 40
20 44 40
20 45 41
19 43 40
20 45 41
20 44 41
19 42 39
20 44 40
20 44 41
20 44 40
20 44 40
20 45 41
20 45 41
19 43 40
20 45 41
20 45 41
20 44 40
20 44 40
20 44 41
20 44 40
20 45 41
19 43 39
20 45 42
20 44 40
20 44 40
20 44 41
20 44 41
20 44 41
20 45 41
20 44 40
20 44 41
19 43 40
20 45 41
20 44 41
19 43 39
19 43 40
20 45 42
19 43 40
20 45 42
20 45 41
20 45 41
19 43 40
20 45 42
20 44 41
20 45 41
20 45 41
20 44 41
20 45 41
20 44 40
20 44 41
20 44 40
20 43 40
20 45 42
20 45 41
20 45 41
20 45 41
20 44 40
20 44 40
20 45 41
20 45 41
20 44 40
20 46 42
19 43 40
20 44 40
20 45 41
20 44 40
20 44 41
20 44 41
20 44 41
20 44 41
20 44 41
20 44 40
20 43 40
20 45 41
20 44 41
20 45 41
20 45 42
20 44 40
20 44 41
19 43 40
20 44 40
20 45 41
20 44 41
20 45 41
20 45 41
20 44 41
20 45 41
20 44 40
20 44 40
20 44 41
21 46 42
21 46 42
20 44 40
19 43 40
20 45 41
20 44 41
20 44 40
20 45 42
21 46 42
20 44 40
20 43 40
21 46 42
20 44 41
20 45 42
20 44 41
19 43 40
20 45 41
20 45 41
20 44 41
20 45 41
20 45 41
21 46 42
20 45 41
20 44 40
20 44 40
20 44 41
20 45 42
20 45 41
20 45 41
20 44 41
20 44 41
20 45 41
20 45 41
20 44 41
20 45 41
20 45 42
20 44 40
20 45 41
20 44 41
20 43 40
19 43 40
20 44 41
21 46 42
19 43 40
20 44 40
21 46 42
20 45 41
20 45 41
20 45 41
20 45 41
20 44 40
20 45 41
20 44 41
20 44 40
20 44 40
20 45 41
20 45 41
20 44 40
21 46 42
20 46 42
20 44 40
20 44 40
20 45 41
20 44 40
19 43 39
19 43 40
19 42 39
20 44 41
19 42 39
19 43 40
20 45 41
19 44 40
19 43 40
19 42 39
19 43 40
19 43 40
19 43 40
20 45 41
19 43 40
20 44 40
19 43 40
19 43 40
20 44 40
19 43 40
20 44 41
20 44 40
19 42 39
19 42 39
19 43 40
20 45 42
19 43 40
19 43 40
19 43 40
20 44 40
20 45 41
20 45 41
19 43 40
20 44 41
20 45 41
20 44 40
20 44 40
20 44 41
20 44 40
20 44 41
20 45 41
20 44 40
19 43 40
20 44 40
19 43 39
20 44 40
20 44 41
19 43 40
20 45 41
20 44 40
20 44 40
20 44 41
20 44 40
20 43 40
20 44 41
20 45 41
20 44 40
20 44 41
20 44 40
20 44 40
20 44 41
20 45 41
20 44 41
20 45 41
20 43 40
20 43 40
20 44 40
20 45 42
20 44 41
20 46 42
20 44 41
20 44 41
19 43 39
20 44 40
20 44 41
20 44 41
20 45 41
21 46 42
20 45 41
20 44 40
20 44 41
20 44 40
20 44 41
20 45 41
20 46 42
20 45 41
20 44 40
20 45 41
20 45 42
20 45 41
20 44 40
20 45 42
20 44 41
20 44 41
20 45 41
21 46 42
20 45 41
20 44 40
20 44 40
20 45 41
20 44 40
20 44 41
20 44 41
20 45 41
20 44 41
20 44 40
21 46 43
20 45 42
20 45 41
20 44 40
21 46 42
20 44 40
20 45 41
20 44 41
20 45 41
20 45 41
20 44 41
20 44 41
20 45 41
21 46 43
20 44 41
20 44 41
21 46 42
21 46 42
20 45 41
20 44 41
20 44 41
20 44 40
20 44 40
20 44 41
20 44 40
20 45 41
19 43 39
20 44 41
20 45 41
19 43 40
20 45 41
20 44 41
20 45 42
21 46 42
20 44 41
20 45 42
20 45 41
21 46 42
20 44 41
20 44 40
20 44 41
20 44 40
20 45 41
21 46 42
20 44 41
20 44 40
20 44 40
20 45 41
20 45 41
20 45 41
20 44 40
21 46 42
20 44 41
20 44 41
20 44 41
20 44 41
20 45 41
21 46 42
19 43 40
21 46 42
20 45 41
20 45 41
20 45 41
20 45 41
21 46 42
20 45 41
21 46 42
20 45 42
20 45 41
20 45 42
21 46 42
20 44 40
20 45 41
20 45 42
20 44 41
20 44 41
20 45 42
20 44 41
20 45 42
20 44 40
20 45 41
20 45 41
20 44 40
20 45 41
20 45 41
20 45 41
20 45 41
20 44 41
19 43 39
20 44 41
20 45 42
20 45 41
20 45 41
20 44 40
20 44 41
19 44 40
19 43 40
20 44 41
20 44 41
20 44 41
20 44 41
19 43 40
20 44 40
19 43 40
20 44 40
20 44 40
19 43 39
20 44 41
20 44 41
19 43 39
19 43 40
20 44 40
20 44 40
20 44 40
20 44 41
20 44 41
19 43 40
19 43 40
19 43 40
20 44 40
20 45 41
20 44 40
19 43 40
19 43 40
19 43 40
20 44 40
20 44 41
20 44 41
20 45 41
19 43 39
19 43 39
20 44 40
20 44 40
19 43 40
20 45 41
20 45 41
20 45 41
20 44 40
19 43 40
20 45 41
19 43 40
20 45 41
21 46 42
20 44 41
20 45 41
19 43 40
19 43 39
20 44 40
20 44 40
20 44 41
20 44 41
20 44 40
20 44 41
20 45 41
20 44 40
20 44 40
19 43 40
20 44 40
20 45 42
20 45 41
20 44 41
20 46 42
20 44 40
20 45 41
20 44 41
20 44 40
20 44 40
20 44 41
20 44 40
20 44 41
20 45 41
20 45 42
20 45 41
20 45 41
20 45 41
20 44 41
19 43 39
21 46 43
20 45 42
20 45 41
20 45 41
20 45 41
20 44 41
20 45 41
20 44 40
20 44 40
20 44 40
20 44 41
20 45 41
20 45 42
21 46 42
20 45 41
19 43 40
20 45 41
21 46 42
20 44 41
20 45 41
20 45 41
20 45 41
20 45 42
20 44 41
20 45 41
20 45 42
20 45 42
20 44 41
20 45 41
20 45 41
20 45 41
20 44 41
20 44 40
20 45 41
20 45 41
20 44 40
20 45 41
20 44 41
20 44 40
20 45 41
20 43 40
20 45 41
20 44 40
20 45 41
20 44 41
20 44 41
20 45 42
20 44 41
20 45 41
20 45 41
20 45 41
20 44 40
20 44 41
20 44 40
20 45 41
20 44 41
20 44 40
20 45 41
21 47 43
20 45 41
20 43 40
20 45 41
20 44 40
20 45 41
20 45 41
20 44 40
21 46 42
21 46 42
20 45 41
20 44 40
20 44 40
20 45 41
20 46 42
20 44 41
20 45 41
20 45 41
20 44 40
20 45 42
20 44 41
20 44 40
20 45 41
20 45 41
20 44 40
21 46 42
21 46 42
21 46 42
20 44 41
20 45 41
21 46 42
20 44 40
20 45 42
20 45 42
20 44 40
20 46 42
20 45 41
20 45 42
20 45 42
21 46 43
20 45 41
21 46 42
20 44 41
20 45 42
20 45 42
20 45 41
21 46 42
20 45 41
20 45 41
20 45 41
21 46 42
20 44 41
20 45 41
20 45 41
20 45 41
20 45 41
20 45 41
20 45 41
19 43 40
19 43 40
19 43 40
20 44 40
19 43 40
19 43 40
20 44 40
20 44 41
20 44 41
20 44 41
19 43 40
19 43 40
19 42 39
20 45 42
20 44 40
20 44 40
19 43 39
19 43 40
20 44 41
19 43 40
20 44 40
19 43 40
19 43 39
19 43 40
19 43 40
19 43 40
20 44 41
19 43 40
20 44 41
20 44 41
20 45 41
20 44 41
19 43 40
20 45 41
20 45 41
19 43 39
19 42 39
19 43 40
20 45 41
20 44 40
20 45 42
20 44 40
20 44 41
19 43 40
20 43 40
20 44 40
20 45 41
20 44 41
20 45 41
20 44 40
20 44 41
20 44 41
19 43 40
20 45 41
20 45 41
19 43 40
20 45 41
20 44 41
20 44 41
20 43 40
20 44 41
20 45 42
20 44 40
20 45 41
21 46 42
20 44 41
20 44 40
20 44 40
20 44 41
20 44 41
19 43 40
20 45 41
20 45 41
19 43 40
20 44 40
19 43 39
20 45 41
20 44 40
20 44 40
20 44 41
20 44 40
20 45 41
20 44 40
20 44 40
19 43 40
20 44 40
20 45 41
20 44 40
20 45 41
20 45 41
20 44 41
21 46 42
19 43 39
20 45 41
20 44 41
20 45 41
20 45 41
20 44 41
20 44 41
19 43 40
20 45 41
20 45 41
20 45 41
20 44 41
21 46 42
20 44 41
20 45 41
20 45 41
20 45 41
20 45 42
20 44 40
20 45 41
20 43 40
20 45 41
20 45 41
21 46 42
20 44 41
20 44 40
21 46 42
20 45 41
20 44 41
20 44 41
21 47 43
20 44 41
20 44 41
20 45 41
20 45 42
20 45 42
20 45 41
20 44 41
20 45 41
20 44 41
20 45 42
20 45 41
20 44 40
20 45 41
20 45 41
21 46 42
21 46 42
20 44 40
21 46 42
20 45 41
20 44 40
20 45 41
20 44 41
20 45 41
20 45 41
21 46 42
20 45 42
20 45 41
20 45 41
20 45 41
21 46 42
20 45 42
20 45 41
20 45 42
20 44 41
20 45 41
20 45 41
20 44 41
21 46 42
20 45 41
20 44 41
20 44 40
20 44 41
20 45 41
21 46 42
21 46 42
21 46 42
20 45 41
20 45 41
20 45 41
20 45 41
20 44 41
20 44 41
20 44 40
20 45 41
20 45 41
21 45 42
20 44 40
20 44 41
20 44 40
20 44 41
20 45 41
20 45 42
20 45 41
20 45 42
20 44 41
20 45 41
20 45 41
20 44 41
20 44 40
20 44 41
21 46 42
20 44 41
20 45 41
20 45 41
21 45 42
20 45 41
20 44 41
19 43 40
19 43 40
19 42 39
20 44 40
20 44 41
19 43 40
20 44 41
19 43 40
19 43 40
20 44 40
19 43 40
19 43 40
20 44 41
20 44 40
20 45 41
20 44 41
19 43 39
20 44 40
20 45 41
20 45 41
20 44 41
19 43 40
20 45 41
20 44 41
20 44 40
20 44 41
20 44 40
20 45 41
20 45 41
20 45 42
20 44 40
20 44 41
20 44 41
20 44 40
20 45 42
19 43 40
20 45 41
19 43 40
20 45 41
20 44 40
20 44 41
20 44 40
20 44 41
20 44 40
20 44 41
20 45 41
19 43 40
20 44 40
20 44 40
20 44 41
20 45 41
20 44 41
20 44 41
20 45 42
20 44 40
19 43 40
20 44 40
20 44 41
19 43 40
20 45 41
20 44 41
20 45 42
20 44 40
20 44 40
20 44 41
20 43 40
20 44 40
20 45 41
20 45 42
19 43 40
20 45 41
20 44 40
20 44 41
20 45 41
20 44 41
20 44 41
20 44 40
20 44 41
20 44 40
20 45 41
20 44 40
20 44 40
20 44 40
20 45 41
20 45 41
20 45 41
21 46 42
20 45 41
20 44 40
20 45 42
20 44 40
20 45 41
20 44 40
20 44 41
20 45 41
20 44 40
20 45 41
20 44 41
20 45 41
20 44 41
20 45 42
20 45 41
20 44 40
20 45 41
20 44 41
21 46 42
20 44 40
20 44 41
20 44 40
20 44 41
20 44 41
20 44 40
20 44 40
20 44 40
20 45 41
20 45 42
20 45 41
20 45 41
20 44 41
20 44 41
20 44 41
21 46 42
20 44 41
20 44 40
20 45 41
20 44 41
20 45 41
20 45 41
20 45 41
19 43 39
20 45 41
20 45 41
20 44 41
20 44 40
20 43 40
20 45 42
20 45 42
20 45 41
20 45 41
20 45 41
20 44 40
21 46 42
20 45 41
20 45 41
20 44 41
20 45 41
20 45 41
20 44 41
20 45 41
20 44 41
20 45 41
20 45 42
20 45 42
20 45 41
20 45 41
20 45 41
20 44 40
20 45 41
20 44 40
20 45 41
20 44 40
20 44 41
20 45 41
21 46 42
20 45 41
20 45 41
21 46 42
20 44 41
20 44 41
20 45 41
20 44 41
20 45 41
20 45 41
20 45 41
20 45 42
20 45 41
20 45 41
20 44 40
20 45 41
20 45 41
20 45 41
20 45 41
20 44 40
20 45 41
20 45 41
20 44 41
20 45 41
20 44 40
20 45 41
20 44 40
21 46 42
20 45 41
20 45 41
20 45 41
20 45 41
20 44 41
20 44 40
20 44 41
20 45 41
20 45 41
19 43 40
19 43 40
20 44 40
20 45 41
20 44 40
19 43 40
20 45 42
20 44 40
20 44 40
19 42 39
20 44 40
20 44 41
19 43 40
19 43 39
20 44 41
20 45 41
20 45 41
20 44 41
19 43 40
20 44 40
20 44 40
20 44 40
20 45 41
20 44 41
20 44 40
19 43 40
20 45 41
20 44 40
20 45 41
20 44 41
21 46 42
20 45 41
20 44 40
20 44 41
20 44 40
20 44 40
20 45 42
20 45 41
20 44 40
19 43 40
20 45 42
20 44 40
20 45 41
20 45 41
21 46 42
20 46 42
20 45 41
20 44 41
19 43 40
19 43 40
19 43 40
20 45 41
20 44 41
20 44 41
20 44 40
20 45 42
20 44 41
20 44 40
20 44 40
20 45 41
20 45 41
20 44 40
20 44 41
20 44 41
20 44 41
20 45 41
20 44 41
20 45 41
20 44 40
20 45 41
20 45 41
21 46 42
20 44 41
20 44 40
20 44 41
20 44 41
20 45 41
20 44 40
20 44 40
20 45 41
20 45 41
20 44 41
20 45 42
20 44 41
20 45 41
20 44 40
20 44 41
20 45 41
20 44 41
20 45 41
20 44 41
20 45 41
20 45 41
20 45 41
20 45 41
21 47 43
20 44 40
20 45 41
20 44 41
20 44 41
20 45 42
20 45 41
20 45 41
20 44 41
21 46 42
21 46 42
20 44 41
20 44 40
21 46 42
20 44 40
20 45 41
20 45 41
20 45 41
20 44 41
21 46 42
20 45 42
20 45 42
20 44 41
20 44 41
21 46 42
20 45 41
20 45 42
20 44 41
20 45 41
20 45 41
20 44 41
20 45 42
20 45 41
20 45 41
21 46 42
20 45 41
20 45 41
21 45 42
20 45 41
20 45 41
20 44 41
21 46 42
20 45 41
20 44 40
20 45 41
21 46 42
20 45 41
21 46 42
20 45 41
20 44 41
20 45 41
21 46 42
21 46 42
21 46 42
20 44 40
20 45 41
21 46 42
20 44 41
20 45 41
20 44 40
21 46 42
20 45 41
20 45 42
20 45 41
20 45 41
20 45 41
21 46 42
20 45 41
20 45 42
20 45 41
21 46 42
20 44 41
20 45 41
20 45 41
21 46 42
20 44 40
20 44 40
20 43 40
20 45 41
21 46 42
20 45 41
20 45 41
20 45 41
20 45 41
20 44 40
21 46 42
20 45 41
20 44 41
20 44 41
21 46 42
20 44 41
20 45 42
20 45 41
21 46 42
20 45 42
20 45 42
20 44 40
21 46 42
20 45 41
20 45 41
20 45 41
20 45 42
20 44 41
20 45 41
20 45 42
20 45 41
19 42 39
20 44 40
20 44 41
20 44 41
20 44 40
20 44 40
20 44 41
20 45 41
20 44 40
20 44 40
19 43 40
20 44 40
20 44 40
20 44 41
20 44 40
20 44 41
20 44 41
19 43 40
20 44 41
19 43 40
20 44 40
20 45 41
20 45 41
20 44 40
20 44 41
20 44 41
20 44 41
20 44 41
20 44 40
20 43 40
20 44 40
20 44 41
20 45 41
21 46 43
20 45 41
20 45 41
20 45 41
20 44 41
20 44 40
20 44 41
20 45 41
20 44 41
20 44 41
20 44 41
20 44 41
20 44 40
20 45 41
20 44 41
20 44 41
20 44 40
20 44 40
20 44 40
20 45 42
20 44 41
20 45 41
20 45 41
19 43 39
20 45 41
20 45 41
20 44 40
20 44 40
20 46 42
20 45 41
20 43 40
20 44 41
20 45 41
20 45 41
20 45 41
20 44 41
20 44 41
20 44 41
21 46 43
20 44 41
19 43 39
20 44 41
20 45 41
20 45 41
20 44 41
21 46 42
20 44 41
20 44 41
20 44 41
20 45 41
20 45 41
20 45 41
21 47 43
20 45 41
20 44 41
20 44 41
20 45 41
20 44 40
20 45 41
20 44 40
20 44 40
20 45 41
21 46 42
20 45 41
20 44 41
20 45 41
20 45 41
20 44 41
20 44 41
20 45 41
20 45 41
21 46 42
21 46 42
20 44 40
20 45 41
20 45 41
20 45 41
21 45 42
21 46 42
20 45 41
20 45 41
20 45 42
20 45 41
20 45 42
20 44 41
21 46 42
21 46 42
21 47 43
21 46 42
20 45 42
20 45 41
20 45 41
19 43 40
20 45 42
20 45 42
20 45 41
20 44 40
20 45 41
20 45 41
20 45 41
20 44 41
21 45 42
20 46 42
20 45 41
20 45 41
20 44 41
20 45 41
21 46 42
20 45 42
20 45 41
20 44 40
20 45 41
21 46 42
21 46 42
20 45 41
20 45 41
20 44 41
19 43 40
21 46 42
20 44 41
20 45 41
20 45 42
20 44 41
21 46 42
21 47 43
20 45 42
21 46 42
20 45 41
21 45 42
20 45 41
20 45 42
21 46 42
21 46 42
20 45 41
20 45 41
21 46 42
20 44 41
21 46 42
20 44 41
20 45 41
21 46 42
20 45 41
21 46 42
20 44 41
20 45 41
21 46 42
20 45 41
20 45 41
20 45 41
20 45 41
21 46 42
20 45 41
20 45 41
20 45 42
21 46 42
21 46 42
20 45 41
20 44 40
20 45 41
21 46 42
20 45 41
20 45 41
20 45 41
21 46 42
20 45 41
20 45 42
19 42 39
19 43 40
20 44 40
20 44 41
20 44 40
20 44 40
20 44 41
20 44 41
19 43 40
20 44 41
19 43 40
20 44 41
20 44 40
20 44 41
20 44 40
19 43 40
20 45 41
20 44 41
20 44 41
19 43 40
19 43 40
20 44 41
20 44 41
20 44 40
21 46 42
20 44 40
20 45 41
19 42 39
20 45 42
20 44 41
20 45 41
20 44 40
20 45 41
19 43 40
20 44 41
20 45 41
20 44 40
20 45 41
19 43 40
20 45 41
21 47 43
20 44 40
20 44 41
20 44 40
20 44 41
20 45 41
20 44 40
20 45 41
20 43 40
20 44 40
20 45 41
20 45 41
20 44 40
20 45 42
20 45 41
20 46 42
20 44 40
20 45 42
20 45 42
20 45 41
21 46 42
21 46 42
20 45 41
20 44 41
20 45 41
20 44 40
20 45 41
20 45 41
20 44 40
20 45 41
20 45 41
20 44 40
21 46 42
20 45 41
20 44 41
20 44 41
20 45 42
20 44 41
20 45 41
20 45 41
20 45 41
20 45 42
20 45 42
21 46 42
20 45 41
20 45 41
20 45 41
20 45 41
20 45 41
20 44 41
20 44 41
21 46 42
20 45 41
20 45 41
20 45 42
21 46 42
20 44 40
20 44 40
21 46 42
21 46 42
21 46 42
20 44 41
20 44 41
20 45 41
20 45 41
20 45 41
20 45 41
20 45 41
21 46 42
21 46 42
20 44 40
21 46 42
20 44 40
20 45 41
20 45 42
20 45 41
21 46 42
21 46 42
21 46 42
21 46 43
20 44 41
20 45 41
20 45 42
20 45 41
21 45 42
20 45 41
21 45 42
20 44 41
20 44 41
20 44 41
20 44 41
20 45 41
20 45 41
21 46 42
21 46 42
20 45 42
20 44 41
21 46 42
21 46 42
21 46 43
20 45 41
20 45 41
20 45 41
21 46 42
20 45 41
20 45 41
20 45 41
20 45 41
20 45 41
20 45 42
20 45 41
20 45 41
21 46 42
20 44 41
20 45 42
20 45 41
21 46 42
20 45 41
21 47 43
20 45 41
20 45 41
20 45 41
20 45 41
20 45 41
21 46 42
20 45 41
20 45 41
20 45 41
21 46 42
20 44 40
20 45 41
21 46 42
20 44 40
20 45 41
20 45 41
21 46 42
21 46 42
20 45 41
21 46 43
21 46 42
20 45 41
20 45 41
20 44 40
21 46 43
20 44 40
20 44 40
20 45 41
21 46 42
21 46 42
20 45 41
21 46 42
20 45 41
20 45 41
21 47 43
20 45 42
21 46 42
21 45 42
21 46 42
21 47 43
21 46 42
20 45 41
20 44 41
19 43 40
20 45 41
20 44 41
19 43 40
20 45 41
20 44 41
20 44 41
20 44 40
20 44 41
20 44 40
19 43 40
19 43 40
20 44 40
20 44 41
19 43 40
20 44 41
20 44 41
19 43 40
19 43 40
20 45 42
21 46 42
20 44 41
19 43 39
20 45 41
20 45 41
20 44 40
19 43 40
20 44 41
20 44 40
20 45 41
20 45 41
20 45 41
20 44 40
20 45 41
20 44 41
20 45 42
20 45 42
20 45 41
20 44 41
20 45 41
20 44 40
20 45 42
20 44 41
20 45 41
20 45 41
20 45 41
20 45 41
20 45 41
20 45 41
20 45 41
20 44 40
20 44 41
20 44 40
20 45 41
20 45 41
20 45 41
20 44 41
20 44 40
20 44 41
20 44 40
20 46 42
20 45 42
20 44 41
20 44 40
20 44 40
20 45 41
20 44 40
21 46 42
20 44 41
20 44 40
20 44 41
20 44 40
20 44 41
20 43 40
20 44 40
20 44 40
20 45 41
20 45 41
20 45 42
20 45 41
20 44 40
21 46 42
20 45 41
20 44 40
21 46 42
20 44 41
20 45 41
20 44 41
20 45 41
20 44 40
20 45 41
20 45 41
20 45 41
21 46 42
20 45 41
21 47 43
20 45 41
20 45 41
20 45 41
20 45 41
20 45 41
20 45 41
20 44 40
20 44 41
21 45 42
20 45 41
20 45 41
20 44 40
20 45 41
20 44 40
20 45 41
20 46 42
20 45 42
20 45 41
21 46 42
20 45 41
21 46 42
20 45 41
20 45 41
21 47 43
20 45 42
20 44 40
20 45 41
20 45 41
20 45 41
20 45 41
20 44 40
20 45 41
21 46 42
20 45 41
20 45 42
20 45 41
20 45 41
20 45 41
20 44 40
20 45 41
20 45 41
20 45 41
21 45 42
20 45 41
20 45 41
20 45 41
20 45 41
21 46 42
21 46 42
21 46 42
21 45 41
21 46 42
20 44 40
20 45 42
20 45 41
20 44 41
21 46 42
21 46 42
20 44 41
21 46 42
21 45 42
21 46 42
20 45 41
20 45 41
20 45 41
21 46 42
20 45 41
20 45 41
21 46 42
20 45 41
21 46 42
20 45 41
20 44 40
20 45 41
20 45 41
21 47 43
20 44 41
20 44 40
21 46 42
20 45 41
20 45 41
20 45 41
21 46 42
21 46 42
20 45 41
21 45 42
20 45 41
21 46 42
20 45 41
21 46 42
20 45 41
20 45 41
21 46 42
20 45 41
21 47 43
21 46 42
20 44 41
20 44 40
21 46 42
20 44 40
20 45 42
21 46 42
20 44 41
20 44 40
20 44 40
19 43 40
20 44 40
20 44 40
19 43 40
20 44 40
20 44 40
20 44 41
20 44 40
20 44 41
20 45 41
20 45 41
20 44 41
20 45 41
20 44 40
20 45 41
19 43 40
19 43 40
20 46 42
20 45 41
20 45 42
20 44 40
20 44 40
20 45 41
20 44 40
20 45 41
20 45 41
19 43 40
20 44 41
20 44 41
20 44 41
20 44 41
20 45 41
20 44 40
20 44 40
20 44 40
19 42 39
20 45 41
20 45 41
20 44 40
20 44 40
20 44 41
20 45 42
20 43 40
20 44 40
20 45 41
20 44 40
20 45 41
20 44 40
20 44 41
20 45 41
20 44 41
20 44 40
20 44 41
20 45 41
19 43 40
20 45 42
20 45 41
20 45 41
20 44 40
20 45 41
20 45 41
20 45 42
20 44 41
21 47 43
20 45 41
20 44 41
20 45 42
20 43 40
21 46 42
20 44 40
21 46 42
20 45 41
20 45 41
20 44 41
21 46 42
20 44 41
20 44 40
20 44 40
20 45 42
21 46 42
20 45 41
20 44 40
20 44 40
20 44 41
20 45 41
20 44 41
20 45 41
21 46 42
21 46 42
20 45 41
20 44 41
20 45 41
20 45 41
20 44 41
21 47 43
20 45 41
20 45 41
21 46 42
20 45 42
20 45 41
21 46 42
20 44 40
20 44 41
20 45 41
20 45 41
20 45 41
20 45 41
20 45 41
20 44 40
20 44 41
21 46 42
20 45 41
21 46 43
20 45 41
20 45 41
20 44 41
21 46 42
20 44 41
20 45 41
20 44 41
20 45 41
20 45 41
21 46 42
20 45 41
20 44 40
21 46 42
20 44 40
21 47 43
20 45 41
21 47 43
21 46 42
21 46 42
20 45 41
21 46 42
21 46 42
21 46 42
21 46 42
20 45 41
20 45 41
21 46 42
20 45 41
20 45 41
20 45 41
20 45 41
20 45 41
20 45 41
21 46 42
21 46 42
20 45 41
20 45 41
21 46 42
20 45 41
21 46 42
21 46 42
21 46 42
20 45 41
20 45 41
20 45 41
21 46 42
21 46 42
21 46 42
21 46 42
21 45 42
20 45 41
21 46 42
20 45 41
21 45 42
21 47 43
20 45 41
20 45 42
21 46 42
20 44 40
21 46 42
20 44 41
20 45 42
21 46 42
21 46 42
21 46 42
20 45 41
20 45 41
20 44 40
20 45 41
20 45 41
21 46 42
21 46 42
21 46 42
20 45 41
21 46 42
21 46 42
20 45 41
20 45 41
21 46 42
20 45 41
20 45 41
21 45 42
20 45 41
20 44 41
20 44 40
19 43 40
20 44 41
20 44 41
20 44 40
20 44 40
20 45 41
20 45 41
20 45 41
20 44 41
19 43 40
20 44 40
20 44 40
20 45 41
20 45 41
20 45 42
20 44 40
20 44 41
20 44 41
20 43 40
19 43 40
19 43 40
20 44 40
20 45 41
20 44 41
21 46 42
20 45 41
19 43 40
20 44 40
20 45 42
20 44 41
20 44 40
19 43 40
20 45 41
20 44 41
20 44 40
20 45 41
20 44 40
20 44 41
20 45 41
20 45 41
20 45 41
20 45 41
21 46 42
20 45 41
20 43 40
20 44 41
20 45 42
21 46 42
21 46 42
20 45 41
20 44 41
20 45 42
20 46 42
20 45 41
21 46 42
20 44 40
20 44 40
20 45 41
20 44 41
20 44 41
20 44 41
21 46 42
20 45 41
20 45 42
21 46 42
20 45 41
20 44 40
20 45 41
21 46 42
20 44 40
20 45 41
20 45 41
21 46 42
20 45 42
21 46 42
20 45 42
21 46 42
20 45 41
20 44 40
20 45 41
20 45 41
20 45 41
20 44 40
21 46 42
20 45 41
20 45 41
20 44 41
20 45 41
21 46 42
20 45 41
20 45 41
20 45 41
20 45 41
20 44 40
21 46 42
20 45 41
21 45 42
20 45 42
20 45 41
20 44 41
20 45 41
20 45 41
20 45 41
20 44 41
21 46 42
20 45 41
21 45 42
20 45 41
21 47 43
20 45 41
21 46 42
20 44 40
21 46 42
20 45 41
20 45 41
20 45 41
19 43 39
20 44 40
20 45 41
20 45 41
20 45 41
21 46 42
21 46 42
21 46 42
20 44 40
20 45 41
20 45 41
20 45 41
20 45 41
20 44 41
20 45 41
20 45 41
21 46 42
21 46 42
20 45 41
21 46 42
21 47 43
21 46 43
22 48 44
20 45 41
21 46 42
21 46 42
21 46 42
21 47 43
21 45 41
21 46 42
20 45 41
21 45 42
21 46 42
20 45 41
20 45 41
20 45 41
20 45 41
20 45 41
20 45 41
20 45 41
20 45 41
21 46 42
20 45 41
21 46 42
21 46 42
20 45 41
21 46 42
20 45 41
20 45 41
20 45 41
21 46 42
21 46 42
20 45 41
20 45 41
21 46 43
20 45 42
20 45 41
20 45 41
20 45 41
21 46 42
20 45 41
21 47 43
20 45 41
20 45 41
20 45 41
20 45 41
20 44 40
20 44 40
21 46 42
21 46 42
20 44 40
20 45 41
20 44 40
21 46 42
20 45 41
21 46 42
21 46 42
21 46 42
20 45 42
21 47 43
21 46 42
20 45 41
20 45 41
19 43 40
20 44 41
20 44 40
20 44 40
20 44 40
20 44 40
20 44 40
20 44 41
20 44 40
20 44 41
20 44 41
20 43 40
20 45 41
20 45 41
20 45 41
20 44 40
20 45 41
20 44 41
20 44 41
20 44 40
20 45 41
20 45 41
20 44 40
21 46 42
20 44 40
20 45 41
20 44 41
20 44 40
20 45 41
20 44 40
20 44 40
20 45 41
20 45 41
20 44 41
20 45 41
20 45 41
20 45 41
20 44 41
20 44 40
20 44 40
20 45 42
20 44 40
20 45 42
20 45 41
20 44 40
20 45 41
20 45 41
20 44 40
21 46 42
20 45 42
20 44 41
20 44 41
20 45 41
20 45 41
20 45 41
21 46 42
20 45 41
20 45 41
20 44 40
20 45 41
20 44 40
20 46 42
21 46 42
20 45 41
20 45 42
20 45 41
21 46 42
20 45 41
20 45 41
20 44 41
20 44 40
20 45 41
20 45 42
21 46 42
20 45 41
21 46 42
20 44 41
20 45 41
20 45 41
20 45 41
21 46 42
21 46 42
20 45 41
20 45 41
20 45 41
20 45 41
20 45 41
20 45 41
20 45 41
21 46 42
20 45 41
20 44 41
21 46 42
20 44 40
20 44 40
20 44 41
20 45 41
21 46 42
21 45 42
20 45 41
20 45 41
20 44 41
21 45 42
21 47 43
21 46 42
21 46 43
20 45 42
20 45 42
20 45 41
21 45 41
21 46 42
20 45 41
21 45 42
21 46 42
20 45 41
20 45 41
20 45 41
20 45 41
20 45 41
21 46 42
20 45 41
21 46 42
20 45 41
20 45 41
21 46 42
21 46 42
20 45 41
21 45 41
20 45 41
21 46 42
21 45 42
20 45 41
20 44 40
20 45 41
21 46 42
20 44 40
21 47 43
21 46 42
20 45 41
21 46 42
20 45 41
20 45 41
21 47 43
21 46 42
20 45 41
20 45 41
21 46 42
21 46 42
21 47 43
20 45 41
21 46 42
20 45 41
20 45 41
21 46 42
20 45 41
21 47 43
20 45 41
21 45 42
21 46 42
21 46 42
21 46 42
20 45 41
20 45 41
20 45 41
20 45 41
21 46 42
21 46 42
20 45 41
21 46 42
21 46 42
21 46 42
21 46 42
20 45 41
20 44 41
20 45 41
20 45 41
21 46 42
21 46 42
20 45 41
20 45 41
20 45 41
21 46 42
21 46 42
21 46 42
21 46 42
20 45 41
21 46 42
21 46 42
20 44 41
21 45 41
20 45 41
20 45 41
21 46 42
20 45 41
20 44 40
21 46 42
21 46 42
21 46 42
20 44 40
20 44 41
19 43 40
20 44 41
20 44 40
20 45 41
20 44 40
20 44 41
20 45 42
20 44 41
20 45 41
20 44 40
20 44 40
20 44 40
20 44 41
20 44 40
20 44 41
20 46 42
19 43 40
20 45 42
20 45 42
20 44 40
20 45 41
20 45 41
20 44 41
20 43 40
20 44 40
20 44 40
20 44 40
20 45 41
20 45 41
20 45 41
20 45 42
20 45 41
20 45 41
21 46 42
20 44 41
20 44 41
20 44 41
20 43 40
20 44 40
20 45 42
20 44 41
20 45 41
20 45 41
20 46 42
20 45 42
20 45 41
20 45 41
20 45 41
21 47 43
21 46 42
20 45 41
20 45 41
20 45 42
20 45 41
21 46 42
20 44 41
20 45 41
20 45 41
20 45 41
21 46 42
21 47 43
20 45 42
20 44 40
20 45 41
20 44 40
20 44 41
20 44 40
20 45 41
20 44 41
20 45 41
21 46 42
20 44 41
20 44 41
20 44 41
20 45 41
21 46 42
20 45 41
21 46 42
20 45 41
20 45 41
20 45 41
20 45 41
21 46 42
21 46 42
20 45 41
21 46 42
20 45 41
20 45 41
20 44 40
21 47 43
20 45 41
20 45 41
20 44 41
21 47 43
20 45 41
20 45 41
21 46 42
20 44 41
20 45 41
21 46 42
20 45 41
20 45 41
20 45 41
21 46 42
20 45 41
21 46 42
21 45 42
21 46 42
20 45 41
20 45 41
20 45 41
21 46 42
21 46 42
21 46 42
20 45 41
21 45 42
20 44 41
20 45 41
20 45 41
20 45 41
21 46 42
21 45 41
20 45 41
20 45 41
21 46 42
21 47 43
21 46 42
20 45 41
21 46 42
20 45 41
21 46 42
20 45 41
20 45 41
20 45 41
21 46 42
20 45 41
21 46 42
20 45 41
20 45 41
20 45 41
20 45 41
21 46 42
21 47 43
20 45 41
21 46 42
21 46 42
20 44 40
21 46 42
20 45 41
21 46 42
21 46 42
20 45 41
20 45 41
21 46 42
21 46 42
21 46 42
21 46 42
21 47 43
21 46 43
21 46 42
21 45 42
21 47 43
21 45 41
21 46 42
20 45 41
20 45 41
20 45 41
21 46 42
21 45 42
20 45 41
21 46 42
20 44 40
20 44 41
20 45 41
21 46 42
21 46 42
20 44 40
21 45 42
20 45 41
20 45 41
21 46 42
20 45 41
20 45 41
21 46 42
21 46 42
20 45 41
21 46 42
20 45 41
21 46 42
21 46 42
21 45 42
20 45 41
20 45 41
21 47 43
20 45 41
21 46 42
20 44 40
20 45 41
20 45 41
21 46 42
20 45 41
20 44 41
20 44 40
19 43 40
20 44 41
20 44 40
20 44 41
19 43 39
20 44 40
20 45 41
20 44 41
20 44 40
20 45 41
20 44 40
20 44 40
20 44 41
20 44 40
20 44 41
20 44 41
20 44 41
20 45 41
20 44 41
20 45 41
20 44 40
20 45 42
20 45 42
20 44 40
20 44 41
20 45 41
20 45 41
20 45 41
20 44 40
20 45 41
20 45 42
21 45 42
21 46 42
20 45 41
20 45 41
20 45 41
20 45 41
21 46 43
20 45 41
20 44 41
20 44 40
21 46 42
20 45 41
20 45 42
20 45 41
20 45 41
20 45 41
20 45 41
20 45 41
20 45 41
20 44 40
20 45 41
20 45 41
20 44 40
20 45 41
20 44 40
21 46 42
20 45 41
21 46 42
20 45 41
20 45 41
21 46 42
20 45 41
20 45 42
20 45 41
21 46 42
20 44 41
20 45 41
20 44 40
21 46 42
20 44 40
21 46 42
20 45 41
21 46 42
20 45 41
21 46 43
20 45 41
20 44 40
20 44 41
21 46 42
21 46 42
20 44 40
20 45 41
20 45 41
20 45 41
21 46 42
20 45 41
21 46 42
20 45 41
20 45 41
20 45 41
20 43 40
20 45 41
20 44 40
20 45 42
21 45 41
20 44 40
20 45 41
20 45 42
20 45 41
21 46 42
20 45 41
21 46 42
20 45 41
21 46 42
21 46 42
21 46 42
21 46 42
20 45 41
20 45 41
20 45 41
21 46 42
20 43 40
21 47 43
21 46 42
21 46 42
20 45 41
20 45 41
21 46 42
21 46 42
20 45 41
20 45 41
21 46 42
21 46 42
21 46 42
20 45 41
20 45 41
21 46 42
20 44 41
20 45 41
21 46 42
20 45 41
21 46 42
21 46 42
21 47 43
21 47 43
20 45 41
20 44 40
21 46 42
21 46 42
21 46 42
20 45 42
21 47 43
20 45 41
21 47 42
21 46 42
21 46 42
20 45 41
20 45 41
21 45 42
20 45 41
21 47 43
20 45 41
20 44 41
21 46 42
20 45 42
21 46 42
21 47 43
20 45 41
21 46 42
21 46 42
20 45 41
21 45 42
21 45 42
21 46 42
21 46 42
21 46 42
21 46 42
21 46 42
21 45 42
20 45 41
21 46 42
21 46 42
21 47 43
21 46 42
21 47 43
21 47 43
20 45 42
20 45 41
21 46 42
20 45 41
21 46 43
20 45 41
21 47 43
21 46 42
21 46 42
20 45 41
21 46 42
20 45 41
20 45 41
20 45 41
21 46 42
20 45 41
20 45 42
21 45 42
20 45 41
21 46 42
20 44 40
20 44 41
20 45 41
20 44 40
20 44 40
20 45 41
20 44 40
20 44 40
20 44 40
20 45 41
20 44 40
20 45 41
20 45 41
20 45 41
20 44 41
20 44 40
20 45 42
19 43 39
20 44 40
20 43 40
20 45 41
20 44 41
20 45 41
20 44 41
19 43 40
20 45 41
20 44 41
20 43 40
20 45 41
20 44 40
20 44 40
20 44 40
20 45 42
20 44 40
20 45 41
20 45 41
20 44 41
20 44 40
20 45 41
21 45 42
19 43 40
20 45 42
20 45 42
20 45 41
20 44 41
20 44 40
20 44 41
20 44 41
20 45 41
20 44 40
20 45 41
20 45 41
21 46 42
20 45 41
20 43 40
20 45 41
20 45 41
20 45 42
21 46 42
20 45 41
21 46 42
21 46 42
20 45 41
20 44 41
20 45 41
20 45 41
20 45 41
20 45 42
20 45 41
20 45 41
20 44 40
20 44 41
20 44 40
20 45 41
20 44 41
20 45 41
21 46 42
20 45 41
20 45 41
20 44 40
20 45 41
21 46 43
21 47 43
20 45 41
20 45 42
21 46 42
20 45 41
20 45 41
20 45 41
21 46 42
20 45 41
20 44 40
21 46 42
20 45 41
20 45 42
20 45 41
21 46 42
21 46 42
21 46 42
21 46 42
21 46 42
20 45 41
21 46 42
20 44 41
21 46 42
21 45 42
21 46 42
20 45 41
21 46 42
21 46 42
21 46 42
20 44 41
21 46 42
21 46 42
21 46 42
21 46 42
21 46 42
21 45 42
21 47 43
21 46 42
20 45 41
20 45 41
21 47 43
20 45 41
21 46 42
20 45 42
20 45 41
20 45 41
20 45 41
20 45 41
20 45 41
20 45 41
20 45 41
20 45 41
21 47 42
21 47 43
21 46 42
21 46 42
21 46 42
20 45 41
20 44 41
21 46 42
21 46 42
21 46 42
20 45 41
21 47 43
21 47 43
21 46 42
21 46 42
21 46 42
20 45 41
20 45 41
20 45 41
21 47 43
21 46 42
21 47 43
20 45 41
21 46 42
21 45 42
21 46 42
21 47 43
21 46 42
21 46 42
20 45 41
20 45 41
21 45 41
21 46 42
21 46 42
21 46 42
21 45 41
20 45 41
21 46 42
21 46 42
21 47 43
21 46 42
21 46 42
21 46 42
21 46 42
21 46 42
20 45 41
21 46 42
20 45 41
21 47 43
20 44 40
21 45 42
20 45 41
21 47 43
21 46 42
21 45 42
21 46 42
21 46 43
20 45 41
20 44 41
21 46 42
21 46 42
21 45 41
21 47 43
21 46 42
20 45 41
20 45 41
20 45 41
20 44 40
20 44 40
20 45 41
21 46 42
20 44 40
20 44 41
20 44 41
20 44 40
20 45 41
20 44 40
20 45 41
20 44 40
20 44 41
20 44 41
20 44 41
21 46 42
20 44 40
20 44 41
20 44 41
20 45 41
20 45 41
20 44 40
20 44 41
20 44 40
20 44 41
20 45 41
20 45 41
20 45 41
20 45 41
20 45 41
20 45 41
21 46 42
20 44 41
20 44 40
20 44 41
20 45 41
20 43 40
21 46 42
20 44 40
20 45 41
20 44 41
20 44 41
20 44 41
20 44 41
20 45 41
21 46 42
20 45 41
20 44 40
20 44 40
20 45 41
20 45 41
20 45 41
20 45 42
20 45 41
20 45 42
20 45 41
20 45 41
20 45 41
20 44 40
20 44 40
20 45 41
20 45 41
21 46 42
21 46 42
20 45 41
21 46 42
20 45 41
20 45 41
20 44 40
20 43 40
20 45 41
20 45 41
20 45 41
21 46 42
21 45 42
21 46 42
20 45 41
20 45 41
20 45 41
20 45 41
21 46 42
21 45 42
20 45 42
21 46 42
21 45 42
20 45 42
21 45 42
21 45 41
21 45 42
21 46 42
21 46 42
21 45 42
20 45 41
21 46 42
21 45 42
20 45 41
20 45 41
21 46 42
21 46 42
20 45 41
21 46 42
21 46 42
21 46 42
20 45 41
21 47 43
20 45 41
21 46 42
20 45 41
20 45 41
20 45 41
20 45 41
21 46 42
21 45 42
20 44 40
21 46 42
20 45 41
20 45 41
20 45 41
20 45 41
21 45 42
21 46 42
21 46 42
21 46 42
20 45 41
20 45 41
20 45 41
20 45 41
21 45 42
20 44 40
21 46 42
21 46 42
20 45 41
20 45 41
21 47 43
20 45 42
21 46 42
21 46 42
21 46 42
21 47 43
21 46 42
21 47 43
21 46 42
21 47 43
20 45 41
21 47 43
21 46 42
20 45 41
20 45 41
21 47 43
21 47 43
20 44 40
21 46 42
21 46 42
20 44 40
21 46 42
21 47 43
20 45 41
20 45 41
20 44 41
20 45 41
21 46 42
21 46 42
20 45 42
20 45 41
21 45 41
21 45 41
21 46 42
20 44 41
21 46 43
21 46 42
21 47 43
21 46 42
21 46 42
21 47 43
21 46 42
21 46 42
21 45 42
20 44 41
21 46 42
22 48 43
21 46 42
21 46 42
20 45 41
21 47 43
21 46 42
21 45 42
20 45 41
21 45 41
21 47 42
21 46 42
20 45 41
21 46 42
20 45 41
20 44 41
21 47 43
21 46 42
21 47 43
21 47 42
21 46 42
20 44 40
20 45 41
20 44 40
21 46 42
20 45 42
20 44 41
20 45 42
20 44 41
19 43 40
20 44 41
20 44 40
20 45 41
21 46 42
20 44 41
20 44 40
21 46 42
20 45 41
20 45 41
20 43 40
20 45 42
20 45 41
21 46 42
20 45 41
21 46 42
20 45 42
20 44 40
20 44 41
20 45 41
20 44 41
20 44 41
20 45 41
20 45 42
20 44 40
21 46 42
20 45 42
19 43 40
20 45 42
20 45 42
20 45 41
20 45 41
20 44 41
20 45 42
20 44 40
20 45 41
20 45 41
21 47 43
20 45 41
21 46 42
21 46 42
21 45 42
20 45 41
20 44 40
20 44 40
20 45 41
21 46 42
21 47 43
20 45 42
20 45 41
20 45 41
20 44 40
21 46 42
20 45 41
20 45 41
20 45 41
20 44 41
20 45 41
21 46 42
21 46 42
20 45 41
20 44 40
20 45 41
21 46 42
21 46 43
20 44 40
20 45 41
20 45 41
21 46 42
20 45 41
20 45 41
21 46 42
20 45 41
21 46 42
20 45 41
20 45 41
20 45 41
21 46 42
21 46 42
21 46 42
21 45 42
20 45 41
20 45 41
20 45 41
21 45 41
21 46 42
20 45 41
20 45 41
21 46 42
20 45 41
21 46 42
21 47 43
21 47 43
21 46 42
20 45 41
21 46 42
20 45 41
21 46 42
20 44 40
20 44 40
20 44 40
21 46 42
21 46 42
21 46 42
20 45 41
20 45 41
21 46 42
20 45 41
20 45 41
20 45 41
20 45 41
21 46 42
21 45 42
21 47 43
21 47 43
20 44 40
20 44 40
21 45 41
21 46 42
21 46 42
20 45 41
20 44 40
21 46 42
21 46 42
20 45 41
21 46 42
21 46 42
20 45 41
21 46 42
21 46 42
20 45 41
21 46 42
21 46 42
20 45 41
21 46 42
20 45 41
21 46 42
21 46 42
21 46 42
21 46 42
20 45 41
21 46 42
21 46 42
21 46 42
21 46 42
21 47 43
21 46 42
21 47 43
22 48 44
21 46 42
20 45 41
20 44 41
21 46 42
20 45 41
20 45 41
21 46 42
21 47 43
20 45 41
20 45 41
21 46 42
21 46 42
21 46 42
20 45 41
21 46 42
21 47 43
21 46 42
21 47 43
20 45 41
21 45 41
21 46 42
20 45 41
21 46 42
20 45 41
21 47 43
21 47 43
21 46 42
21 46 42
21 46 42
21 47 43
21 47 43
20 45 41
21 47 43
21 46 42
20 45 42
21 46 42
20 45 41
20 45 41
20 45 41
20 45 41
21 46 42
21 45 42
21 46 42
19 43 40
20 44 41
20 44 41
20 44 41
20 45 41
20 45 42
20 45 41
21 46 42
20 44 41
20 44 41
20 45 41
20 44 41
20 45 41
20 44 41
20 44 41
20 45 41
20 45 41
20 45 42
20 45 41
20 44 41
21 46 42
20 45 42
20 45 41
20 45 41
20 44 40
20 45 41
20 44 41
19 43 40
20 44 40
20 46 42
21 46 42
20 45 41
20 44 40
21 46 42
20 45 41
20 45 41
20 45 41
21 46 43
21 46 42
21 46 42
20 45 41
20 45 41
20 45 41
20 45 41
20 44 40
20 45 41
20 45 41
20 45 41
20 45 41
20 45 41
21 46 42
21 46 42
20 44 40
21 46 42
20 45 41
20 45 41
20 44 40
20 45 42
21 46 42
20 45 41
21 46 42
21 46 42
21 46 42
20 45 41
21 46 42
20 45 41
20 45 41
20 45 42
20 45 41
20 44 40
20 45 41
21 46 42
21 45 42
20 45 41
21 46 42
20 44 41
20 45 41
20 45 41
21 46 42
20 44 41
21 46 42
21 46 42
20 45 42
21 46 42
20 45 41
21 47 43
21 46 42
21 45 41
21 47 42
21 46 42
21 46 42
20 45 41
21 46 42
20 45 41
20 45 41
21 46 42
21 46 42
21 46 42
21 46 42
20 44 40
21 46 42
21 46 42
20 45 41
20 45 41
21 47 43
21 46 42
21 46 42
21 45 42
21 46 42
20 45 41
21 46 42
20 45 41
20 45 41
21 46 42
21 46 42
21 45 41
21 46 42
21 46 42
21 46 42
20 45 41
21 46 42
20 45 41
21 46 42
21 46 42
40 46 42
115 53 44
158 61 47
174 66 51
182 94 81
150 109 98
92 90 83
20 45 41
21 46 42
21 46 42
21 45 42
21 46 42
21 46 42
20 45 42
21 46 42
21 46 42
21 45 42
20 45 41
21 46 42
20 45 41
21 46 42
21 46 42
21 46 42
21 46 42
21 46 42
21 46 42
21 46 42
21 46 42
21 46 42
21 46 42
21 46 42
21 46 42
21 46 42
21 45 41
20 44 41
20 45 41
20 45 41
21 46 42
21 46 42
21 46 42
21 47 43
21 46 42
20 45 41
21 46 42
21 46 42
21 46 42
21 46 42
22 48 43
20 45 41
21 46 42
21 46 42
21 46 42
21 45 41
20 45 41
21 47 43
21 47 43
21 47 42
21 46 42
21 46 42
21 47 42
21 46 42
21 46 42
21 47 43
21 46 42
21 46 42
21 45 42
21 45 41
20 45 42
21 46 42
21 46 42
20 45 41
20 45 41
20 45 41
20 45 41
21 45 41
20 45 41
20 44 40
20 44 41
20 45 41
19 43 40
20 45 41
20 44 40
20 44 41
20 45 41
20 45 41
20 45 41
20 44 40
20 43 40
20 45 41
20 45 41
20 44 41
20 45 41
20 44 40
20 45 41
20 45 41
20 43 40
20 44 40
20 45 41
20 45 41
20 43 40
20 45 42
20 43 40
20 45 41
20 45 41
20 44 40
20 45 42
21 46 42
20 44 40
21 45 42
20 45 41
19 43 40
20 44 41
20 45 41
20 45 41
21 47 43
20 45 41
20 44 41
20 45 42
20 44 40
21 46 42
20 45 41
21 46 42
21 46 42
20 45 41
20 45 41
21 46 42
21 46 42
21 46 42
20 45 41
20 44 41
21 46 42
20 45 41
20 45 41
21 46 42
21 46 42
21 46 42
20 45 41
21 46 42
20 45 41
20 45 42
20 45 41
20 45 42
21 45 42
20 45 41
20 45 41
20 45 42
21 45 42
20 45 41
21 46 42
21 46 42
20 45 41
21 46 42
21 46 42
21 46 42
21 46 42
21 46 42
21 46 42
21 45 42
21 46 43
21 46 42
21 46 42
21 46 42
20 45 41
21 47 42
20 45 41
21 46 42
21 46 42
21 47 43
21 46 42
21 47 43
21 46 42
21 46 42
20 45 42
20 44 40
21 46 42
21 46 42
21 46 42
21 46 42
20 45 41
21 47 43
21 46 42
21 47 43
20 45 41
20 45 41
20 45 41
20 45 41
21 45 42
21 46 42
21 46 42
21 46 42
21 47 43
20 44 40
21 46 42
21 46 42
20 45 41
21 46 42
21 47 43
21 46 42
21 46 42
117 54 44
201 69 50
225 75 54
231 77 55
235 78 56
237 79 56
238 80 58
235 137 120
205 172 156
117 110 100
25 47 43
20 45 41
21 46 42
21 46 42
21 46 42
21 46 42
20 45 41
21 46 42
20 44 41
21 46 42
21 46 42
21 47 43
21 46 42
21 47 43
21 46 42
21 47 43
21 47 43
21 46 42
21 47 43
20 44 40
21 46 42
21 47 42
21 46 42
21 46 42
20 45 41
21 46 42
20 45 41
21 46 42
21 46 42
21 46 42
21 47 43
21 46 42
21 46 42
21 46 42
21 46 42
21 46 42
20 45 41
21 45 42
21 46 42
21 47 43
21 46 42
21 46 42
21 47 42
21 47 42
21 46 42
21 47 43
21 47 43
20 45 41
21 46 42
21 45 41
21 47 43
21 46 42
21 46 42
21 47 43
21 46 42
21 47 43
20 44 41
21 46 42
20 45 41
21 46 42
21 46 42
21 46 42
21 46 42
21 46 42
21 46 42
20 45 41
21 46 42
20 45 41
20 44 40
20 44 41
20 45 41
20 45 41
20 45 41
20 45 41
20 45 42
20 44 41
21 46 42
20 44 40
20 44 41
21 46 42
20 44 41
20 45 41
21 46 42
20 45 41
20 45 41
20 44 41
20 45 41
20 45 42
20 45 42
20 44 41
20 45 42
20 45 41
20 43 40
20 44 41
20 44 41
20 45 41
20 44 41
20 45 41
20 45 41
20 44 40
20 45 42
20 45 41
20 45 41
21 46 42
21 46 42
21 46 42
20 45 41
20 45 41
21 46 42
21 47 43
21 46 42
21 46 42
20 45 41
20 45 42
20 44 40
21 46 42
21 46 42
21 46 42
20 45 42
20 45 41
20 45 41
22 48 44
20 45 41
20 45 41
20 45 41
21 46 42
20 45 41
20 44 40
21 46 42
20 45 41
20 45 41
20 45 41
20 45 41
21 46 42
21 46 42
20 45 41
20 45 41
20 45 41
21 47 43
20 44 40
20 45 41
20 45 41
20 45 41
21 46 42
21 46 42
21 45 42
21 46 42
21 46 42
21 46 42
21 46 42
21 46 42
21 46 42
20 45 41
21 46 42
21 45 42
20 45 41
21 46 42
20 45 41
20 44 40
21 46 42
20 45 41
21 47 43
20 45 41
21 46 42
21 47 43
20 45 41
21 46 42
21 46 42
21 46 42
20 45 41
21 47 43
20 45 41
20 45 41
20 45 41
21 46 42
20 45 41
21 46 42
21 47 43
21 46 42
21 46 42
21 46 42
20 45 41
21 46 42
21 47 43
21 47 43
20 45 41
20 44 40
21 46 42
32 46 42
151 58 45
217 72 52
227 75 54
233 77 55
238 79 56
241 80 57
243 80 57
244 81 57
245 81 57
243 109 90
231 190 171
140 128 116
23 47 42
20 45 41
21 47 43
21 46 42
21 45 41
21 46 42
21 47 43
20 45 41
21 46 43
21 47 43
21 46 42
21 46 42
21 47 43
20 45 41
21 46 42
20 45 41
22 48 44
21 46 42
21 46 42
20 45 41
21 46 42
21 45 41
21 46 42
20 45 41
21 47 43
21 47 43
21 46 42
21 45 41
21 46 42
21 46 42
20 45 41
21 46 42
22 48 43
21 47 43
21 46 42
21 47 43
21 46 42
21 46 42
21 46 42
21 46 41
21 46 42
21 46 42
20 45 41
21 46 42
21 46 42
21 46 42
21 46 42
21 46 42
21 46 42
21 46 42
21 46 42
20 45 41
21 46 42
21 47 43
21 46 42
21 47 43
21 46 42
21 46 42
20 45 41
21 46 42
21 46 42
21 45 41
21 47 43
21 47 43
21 46 42
21 46 42
20 43 40
20 44 41
20 44 40
20 43 40
20 44 40
20 44 40
20 45 41
20 44 41
21 47 43
20 44 40
20 44 40
20 45 41
21 46 43
21 46 43
20 44 41
20 45 41
20 45 41
20 44 41
20 44 41
21 47 43
20 45 42
20 44 41
20 44 40
20 44 40
21 46 42
20 45 41
20 45 41
21 46 42
20 45 42
20 45 41
20 45 42
20 45 41
20 45 41
20 45 41
20 45 41
20 44 41
20 45 41
21 46 42
20 45 41
20 45 41
20 44 40
20 45 41
20 44 40
20 45 41
20 45 41
21 46 42
20 45 41
20 45 41
20 45 42
20 45 41
21 46 42
21 45 42
21 46 42
21 46 42
20 45 41
21 46 42
20 45 41
20 45 41
20 45 41
20 45 41
21 46 42
21 45 42
21 47 43
20 45 41
20 44 40
21 47 43
20 45 41
21 46 42
21 46 42
20 45 41
20 45 41
21 46 42
20 45 41
21 46 42
20 45 41
20 45 41
20 44 41
21 46 42
20 45 41
20 45 41
21 46 42
21 46 42
21 46 42
21 46 42
21 46 42
21 46 42
20 45 41
21 47 43
20 45 41
21 47 43
20 45 41
20 45 41
21 45 42
20 45 41
21 47 43
21 46 42
21 47 42
21 46 43
21 47 43
20 45 41
21 47 43
20 45 41
20 45 41
21 45 42
21 46 42
20 45 41
21 47 43
21 47 43
20 45 41
20 45 41
20 45 41
20 45 41
20 44 40
21 46 42
20 45 41
20 45 41
21 47 42
20 45 41
21 47 43
21 46 42
24 45 41
147 56 43
210 70 50
225 75 53
232 77 55
237 78 56
241 80 57
244 80 57
246 81 58
248 82 58
248 82 58
248 81 58
244 106 86
233 191 172
125 115 104
20 45 41
21 46 42
21 46 42
21 47 43
21 46 42
21 46 42
20 45 41
21 46 42
21 46 42
21 46 42
21 45 41
21 47 42
21 46 42
21 46 42
21 47 43
21 47 43
21 46 42
21 47 43
21 45 41
21 47 43
21 46 42
21 46 42
21 46 42
21 46 42
21 47 43
21 45 42
21 46 42
20 45 41
21 46 42
21 45 41
21 47 43
21 46 42
21 46 42
20 45 41
21 46 42
21 46 42
21 46 42
21 46 42
21 45 41
21 46 42
21 46 42
21 46 42
21 46 42
21 46 42
21 46 42
21 47 43
22 48 44
21 46 42
20 45 41
21 47 43
21 46 42
21 46 42
21 46 42
21 46 42
21 45 41
20 45 41
21 47 43
21 46 42
21 46 42
21 46 42
21 46 42
22 48 44
21 46 42
21 46 42
21 47 42
20 44 40
20 44 41
21 46 42
20 44 41
20 45 41
20 45 41
20 45 42
20 44 40
20 44 40
20 45 41
21 46 42
20 45 41
20 44 40
20 44 41
20 45 41
20 44 41
21 46 42
20 45 41
20 45 41
21 46 42
20 45 41
20 45 41
20 45 41
20 44 40
20 45 41
21 46 42
21 46 42
21 46 42
21 46 42
20 45 41
20 45 41
20 45 41
21 46 42
20 44 40
20 45 42
20 44 41
20 44 41
20 45 41
21 45 42
20 44 40
20 44 40
21 46 42
20 45 41
20 44 41
21 46 42
20 45 41
21 45 41
20 44 40
20 44 40
21 46 42
21 46 42
21 47 43
20 44 41
21 47 43
20 45 41
21 46 42
21 46 42
20 45 41
20 44 41
20 45 41
21 46 42
20 45 41
21 46 42
21 45 41
20 45 41
21 45 42
20 45 41
20 45 41
21 46 42
20 45 41
20 45 41
21 45 41
21 46 42
20 45 41
20 45 41
20 45 41
21 46 42
21 46 42
20 44 41
21 47 43
20 45 41
21 46 42
20 45 41
21 46 42
20 45 41
20 45 41
20 45 41
20 45 41
20 44 40
21 45 41
21 47 43
21 46 42
21 46 42
20 45 41
21 47 43
20 45 41
21 46 42
21 46 42
20 45 41
21 45 41
21 46 42
21 46 42
21 46 42
21 46 42
21 45 41
21 46 42
20 45 41
21 46 42
21 47 43
20 45 41
21 46 42
21 46 42
20 45 41
22 48 43
20 45 41
22 47 43
21 47 43
21 46 42
20 45 41
21 46 42
86 49 42
190 75 59
213 85 68
228 75 54
235 77 55
239 79 56
244 80 57
247 81 58
249 82 58
251 82 58
251 82 58
251 82 58
249 81 57
240 115 95
212 182 164
61 67 61
21 47 43
21 47 42
21 47 43
21 47 43
21 46 42
21 46 42
21 47 43
21 47 43
21 46 42
21 47 42
20 45 41
21 47 43
21 46 42
21 46 42
21 46 42
21 47 43
21 47 43
21 47 43
21 46 42
22 48 44
22 48 44
21 47 43
21 46 42
20 45 41
21 46 41
20 45 41
21 46 42
21 47 43
21 46 42
21 46 42
21 47 43
22 49 45
21 46 42
21 45 41
21 46 42
20 45 41
21 47 43
21 47 43
21 46 42
21 46 42
21 46 42
21 47 43
21 47 43
22 48 43
21 46 42
21 47 43
21 46 42
21 46 42
22 47 43
21 46 42
21 46 42
21 46 42
21 46 42
22 48 44
21 46 42
21 46 42
21 47 43
20 44 40
22 48 44
21 46 42
21 46 42
21 46 42
21 46 42
21 47 43
20 44 41
20 44 40
20 45 42
20 45 41
20 45 41
20 44 41
20 43 40
20 44 41
20 45 41
20 45 42
20 45 41
20 45 41
20 45 41
20 45 41
20 45 41
20 45 41
20 45 41
20 45 41
20 45 41
21 46 42
20 44 41
20 44 40
20 45 41
20 45 41
20 45 41
21 46 42
20 45 42
20 45 41
20 45 41
20 45 41
20 45 41
20 45 41
20 45 41
20 45 41
21 46 42
21 46 42
20 44 41
20 44 41
21 47 43
20 45 41
21 46 42
20 45 41
20 45 41
21 46 42
20 45 41
21 46 42
20 45 41
20 45 41
21 46 42
21 45 42
20 45 41
20 44 40
20 45 41
20 45 42
20 45 41
21 46 42
20 44 41
21 46 42
20 45 41
20 45 41
21 46 42
20 45 41
20 45 41
20 44 40
21 45 42
21 45 42
21 45 42
21 46 42
21 47 43
21 47 43
21 46 42
21 47 43
20 45 41
21 46 42
21 46 42
21 46 42
20 45 41
21 46 42
20 44 40
21 47 43
20 45 41
21 46 42
20 45 41
21 46 42
21 46 42
21 46 42
20 45 42
20 45 41
21 46 42
21 46 42
20 45 41
21 46 42
21 46 42
20 45 41
21 46 42
21 47 43
21 47 43
21 46 42
21 46 42
20 45 41
20 45 41
21 47 42
21 46 43
21 46 42
20 45 41
21 46 42
20 45 41
21 46 42
22 47 43
20 44 40
21 46 42
21 47 43
21 46 42
21 47 43
21 46 42
22 48 44
21 46 42
21 46 42
21 46 42
21 46 42
144 119 109
196 174 160
215 189 172
225 185 167
237 139 121
241 82 59
245 80 57
249 85 61
255 110 84
255 106 80
253 85 60
252 82 58
248 81 57
240 78 55
228 139 121
143 130 117
21 46 42
21 45 41
20 45 41
21 46 42
21 45 41
21 46 42
21 47 43
21 47 43
21 46 42
21 47 43
21 46 42
21 46 42
21 46 42
21 47 43
21 46 42
21 46 42
21 47 43
21 47 43
21 46 42
21 45 41
21 46 42
21 46 42
21 46 42
22 48 43
21 46 42
21 47 43
21 46 42
21 45 41
21 47 43
21 45 41
21 47 43
21 46 42
21 46 42
21 46 42
21 45 41
21 46 42
21 46 42
21 46 42
21 46 42
22 48 44
21 47 42
21 46 42
21 47 43
21 46 42
21 46 42
21 46 42
21 45 41
21 46 42
22 48 43
21 47 43
21 46 42
21 46 42
20 45 41
21 46 42
22 49 44
21 46 42
21 46 42
21 46 42
21 46 42
21 46 42
20 45 41
22 47 43
20 45 41
21 46 42
20 44 41
21 46 42
21 46 42
21 47 43
20 45 41
20 45 41
20 45 41
20 45 41
21 46 42
20 44 40
20 44 40
20 45 41
20 45 41
20 45 42
21 46 42
20 45 41
20 44 40
21 46 42
20 45 41
20 44 41
21 46 42
20 45 41
20 45 41
20 45 41
21 46 42
21 46 42
20 44 41
20 44 41
20 45 42
20 45 41
21 46 42
20 44 41
20 44 40
20 45 41
21 46 42
20 44 41
21 46 42
20 45 41
21 46 42
20 45 41
21 47 43
20 45 41
21 46 42
21 47 43
20 45 41
20 45 41
20 45 42
20 44 40
21 47 43
21 46 42
21 46 42
20 45 41
21 46 42
20 44 40
21 46 42
20 45 41
21 45 41
21 46 42
21 46 42
21 47 43
20 45 41
20 45 42
21 47 43
21 46 43
20 45 41
21 46 42
21 46 42
20 45 41
21 45 41
21 46 42
21 46 42
21 46 42
20 45 41
21 46 42
20 45 41
21 46 42
21 46 42
21 46 42
21 46 42
21 47 43
20 44 40
20 45 41
21 46 42
21 45 41
21 45 41
21 47 43
21 45 42
21 46 42
21 47 43
20 45 41
21 47 43
21 47 42
21 45 41
21 46 42
20 44 40
21 46 42
21 45 41
21 46 42
22 48 44
20 45 41
21 46 42
21 46 42
21 46 42
21 46 42
20 45 41
21 47 43
21 46 42
20 45 41
21 46 42
21 45 42
21 45 41
21 47 42
21 46 42
21 46 42
20 45 41
20 45 41
21 46 42
21 46 42
21 46 42
50 61 57
161 146 134
193 173 157
213 189 171
222 196 177
233 205 185
238 189 169
245 88 65
254 95 70
255 162 131
255 159 129
255 92 67
249 81 57
245 80 56
237 77 54
221 76 56
184 148 131
26 47 43
21 45 41
21 46 42
21 46 42
21 46 42
21 46 42
20 45 41
21 47 42
21 47 43
21 46 42
21 46 42
21 46 42
21 46 42
22 48 44
20 45 41
21 46 42
21 46 42
22 47 43
21 47 42
21 46 42
20 45 41
21 46 42
21 46 42
21 46 42
21 47 43
21 47 43
21 47 43
21 47 43
21 47 43
21 47 43
20 45 41
21 46 42
20 45 41
21 46 42
21 46 42
21 46 42
21 46 42
21 47 42
21 46 42
21 46 42
21 47 42
21 46 42
21 46 42
21 46 42
21 47 43
21 46 42
21 46 42
21 46 42
20 45 41
21 47 43
21 46 42
21 46 42
21 45 41
21 46 42
21 46 41
21 46 42
20 44 40
21 46 42
21 45 41
21 46 42
21 47 43
21 46 42
20 45 41
21 45 41
20 44 40
21 46 42
20 44 41
20 44 40
20 44 40
20 45 42
20 44 40
20 45 41
21 46 42
20 45 41
20 45 42
20 45 41
20 44 40
21 46 42
20 45 41
21 46 42
21 46 42
20 44 41
19 43 40
20 45 41
20 45 41
20 44 40
20 45 41
21 46 42
20 45 42
20 45 41
21 46 42
21 46 42
20 45 41
20 44 41
21 47 43
20 45 41
21 46 42
20 45 41
20 44 41
20 45 41
21 46 42
20 45 41
20 45 41
21 45 42
20 45 41
21 46 42
21 47 43
21 46 42
20 45 41
20 45 41
20 45 41
20 45 42
21 46 42
21 46 42
20 45 41
20 45 41
21 46 42
20 44 40
21 46 42
20 45 41
21 46 42
20 45 42
21 46 42
21 47 43
21 45 42
21 46 42
20 45 41
20 45 42
21 46 42
20 44 41
20 45 41
20 45 41
21 46 42
20 45 41
21 46 42
20 45 41
21 47 43
21 45 42
21 46 42
21 45 41
20 45 41
21 47 43
21 46 42
21 47 43
21 45 41
21 46 42
21 47 43
21 46 42
21 46 42
21 46 42
21 46 42
21 46 42
21 46 42
21 46 42
21 46 42
20 45 41
21 46 42
21 47 43
21 46 42
21 46 42
20 45 41
20 45 41
21 46 42
20 45 41
21 46 42
21 45 41
21 46 42
21 46 42
21 47 43
21 47 43
21 46 42
21 46 42
21 46 42
20 45 41
21 46 42
21 45 41
21 46 42
21 45 41
21 46 42
20 45 41
22 47 43
21 46 42
21 46 42
76 78 72
154 139 127
188 168 152
202 179 161
213 188 169
225 197 177
231 203 182
237 191 170
245 104 83
255 114 88
255 120 94
247 84 60
241 78 54
236 80 57
222 113 94
207 108 90
195 127 110
33 51 46
21 46 42
21 47 43
21 46 42
21 47 43
21 46 42
22 47 43
21 46 42
22 47 43
21 46 42
21 46 42
21 46 42
21 47 43
21 46 42
21 46 42
21 46 42
21 46 42
21 46 42
21 46 42
21 47 42
21 46 42
21 47 43
21 46 42
21 46 42
21 46 42
21 47 43
21 46 42
21 47 43
21 46 42
21 46 42
21 46 42
21 46 42
21 47 43
21 47 43
21 47 43
21 47 43
21 47 43
21 47 43
21 46 42
21 46 42
21 47 43
21 46 42
21 46 42
20 45 41
21 45 41
21 47 43
21 46 42
22 47 43
21 47 43
21 46 42
21 47 43
21 47 43
21 47 43
21 46 42
21 47 43
21 46 42
21 46 42
21 47 43
21 47 43
21 46 42
21 47 43
21 47 43
21 46 42
21 46 42
20 45 41
20 45 41
20 45 41
20 44 41
20 45 41
20 45 41
21 46 42
20 45 41
20 44 40
20 45 41
20 45 41
20 45 41
20 45 42
20 45 41
20 45 41
21 45 42
20 45 41
21 46 42
20 45 42
20 44 40
20 45 41
21 47 43
20 44 41
20 45 41
20 45 41
20 45 41
21 46 42
20 44 40
20 44 40
21 46 42
20 44 41
21 46 42
21 46 42
20 45 41
20 45 41
20 44 41
21 47 43
20 45 41
20 45 41
21 46 42
21 46 42
21 46 42
21 46 42
20 44 41
20 45 41
20 45 42
21 46 43
21 46 42
20 45 41
21 46 42
21 47 43
21 46 42
21 46 42
21 46 42
21 46 43
21 47 43
21 46 42
20 45 41
21 46 42
21 47 43
20 45 41
21 46 42
21 45 41
21 46 42
21 46 42
20 45 41
21 45 41
21 46 42
21 46 42
21 47 43
21 46 42
21 46 42
21 46 42
21 45 41
21 46 42
21 46 42
21 46 42
21 46 42
20 45 41
22 47 43
21 46 42
21 45 42
20 44 40
21 46 42
21 47 43
21 45 42
21 45 42
21 46 42
21 45 42
21 46 42
21 46 42
21 46 42
21 46 42
21 47 42
22 47 43
21 46 42
21 46 42
20 45 41
21 46 42
21 47 43
21 46 42
21 46 42
21 46 42
21 47 43
20 45 41
21 46 42
21 46 41
21 46 42
21 46 42
21 46 42
21 46 42
21 47 43
21 47 42
21 47 43
21 46 42
21 46 42
21 46 42
20 45 41
21 46 42
84 84 78
146 132 120
171 152 137
193 170 152
202 177 159
215 188 169
224 196 175
229 200 178
232 191 169
234 91 70
235 77 54
232 75 52
232 79 57
196 130 113
181 158 140
174 152 134
169 110 95
47 57 51
21 47 43
21 46 42
21 46 41
21 47 42
21 46 42
21 47 43
21 46 42
21 47 42
22 47 43
21 47 42
21 47 43
21 46 42
21 46 42
21 45 41
21 46 41
21 47 43
21 46 42
21 46 42
21 47 43
21 47 43
21 47 42
21 46 42
21 46 42
21 45 41
21 46 42
20 45 41
21 46 42
21 47 43
21 47 43
21 47 42
21 47 43
21 47 43
21 47 43
21 46 42
21 46 42
22 48 43
21 46 42
21 45 41
21 46 42
21 47 43
20 45 41
22 48 43
21 45 41
21 46 42
21 46 42
21 47 43
21 46 42
21 45 41
20 45 41
21 47 43
21 47 43
21 46 42
21 47 43
21 47 43
21 46 42
21 47 43
22 48 43
21 46 42
21 47 43
21 46 42
21 46 42
21 46 42
20 45 41
20 45 41
20 44 41
20 43 40
20 45 41
20 45 41
21 46 42
20 44 41
21 46 42
20 45 41
20 44 41
20 44 41
21 46 42
20 45 41
20 45 41
21 46 42
20 44 41
21 46 42
21 46 42
21 46 42
21 46 42
21 47 43
20 45 42
20 45 41
21 47 43
20 44 40
21 46 42
20 45 41
20 45 41
20 45 41
20 45 41
20 45 42
20 45 42
21 47 43
20 45 41
21 46 42
20 45 41
20 45 41
20 45 41
20 45 41
21 46 42
21 46 42
21 46 42
20 45 41
20 45 41
21 46 42
21 46 42
20 45 41
20 45 41
21 46 42
20 43 40
21 46 42
20 45 41
20 45 41
21 46 42
21 45 42
21 46 42
21 46 42
20 45 41
20 45 41
20 45 41
20 45 41
21 46 42
20 45 41
21 45 41
21 46 42
21 46 42
21 46 42
21 45 41
21 47 42
20 44 40
20 45 41
21 46 42
21 46 42
21 46 42
20 45 41
20 43 40
21 46 42
21 46 42
21 46 42
21 46 42
21 46 42
21 46 42
21 46 42
21 46 42
21 46 42
21 46 42
20 45 41
21 46 42
21 46 42
21 47 42
21 46 42
21 47 43
20 45 41
21 45 41
21 45 41
21 45 41
21 46 42
20 45 41
21 46 42
20 45 41
21 47 43
21 46 42
21 46 42
20 45 41
22 48 44
21 46 42
21 45 41
21 46 42
21 46 42
21 46 42
20 45 41
21 46 42
21 47 43
21 46 42
20 45 41
20 44 40
20 44 40
20 44 40
19 43 39
60 64 59
126 115 105
162 144 130
176 154 137
186 163 145
204 178 157
208 181 161
219 191 169
219 191 169
222 157 137
225 78 56
219 71 49
207 103 85
184 161 142
209 182 160
182 159 141
163 119 104
37 50 45
22 47 43
21 46 42
21 45 41
22 48 43
21 47 43
21 45 41
21 46 42
22 47 43
21 46 42
21 47 42
21 47 42
21 47 43
21 46 42
20 45 41
21 45 41
21 46 42
21 47 43
21 46 42
21 46 42
21 47 43
21 46 42
21 47 43
21 46 42
22 48 44
21 47 43
22 48 44
21 46 42
21 47 43
22 48 44
22 48 43
21 46 42
21 46 42
21 46 42
21 46 42
21 46 42
21 47 42
22 48 43
21 47 43
21 47 43
21 47 43
21 46 42
21 47 43
21 46 42
21 46 42
21 46 42
21 47 42
21 47 42
21 46 42
21 47 43
21 46 42
22 48 44
21 46 42
21 47 43
21 46 42
21 47 43
21 46 42
22 47 43
21 47 43
21 46 42
21 47 43
21 46 42
21 47 43
21 47 42
20 45 41
20 44 40
20 44 40
20 44 41
20 44 40
20 44 41
20 45 41
20 45 41
20 45 41
20 45 41
20 45 41
20 45 41
21 46 42
20 44 40
20 45 42
20 45 42
21 46 42
20 45 41
20 45 41
20 45 41
20 45 41
20 44 41
20 45 41
20 44 40
20 45 41
20 45 41
21 46 42
21 46 42
20 45 41
20 44 41
21 46 42
20 44 40
21 46 42
21 47 43
21 45 42
20 45 41
21 46 42
21 46 42
20 44 40
21 46 42
20 45 41
20 45 41
20 45 41
21 45 42
21 45 42
21 46 42
20 45 41
21 47 43
20 45 41
20 45 41
22 48 44
20 45 41
21 45 42
21 47 43
21 46 42
20 45 41
21 45 42
20 45 41
20 45 41
21 46 42
21 46 42
21 45 42
21 46 42
21 47 43
20 45 41
21 46 42
21 47 43
21 46 42
21 46 42
21 46 42
21 47 43
20 45 41
21 46 42
21 46 42
21 45 41
21 47 43
21 47 43
21 47 43
21 47 43
21 47 43
21 46 42
21 46 42
21 46 42
21 46 42
21 45 42
21 46 42
21 46 42
20 45 41
21 45 41
21 46 42
21 47 43
22 48 44
21 47 43
21 47 43
21 46 42
21 46 42
21 46 42
21 46 42
21 46 42
21 47 43
20 45 41
22 47 43
21 46 41
20 45 41
20 45 41
21 47 43
21 46 41
21 46 42
22 47 43
20 45 41
20 45 41
21 46 42
21 46 41
21 46 42
20 45 41
20 43 40
19 42 39
19 42 39
18 40 37
55 59 55
114 105 96
137 122 110
162 143 127
175 153 135
176 153 135
193 169 149
200 173 152
199 172 150
203 176 154
211 115 96
213 69 47
166 113 97
199 173 152
167 145 127
114 100 87
128 96 84
25 46 42
21 46 41
21 46 42
21 46 42
20 45 40
21 45 41
21 46 42
21 46 42
21 46 41
22 48 43
21 47 43
21 47 42
21 47 42
21 46 42
21 47 43
21 47 42
21 47 43
21 46 42
21 47 43
21 47 43
21 46 42
21 46 42
21 47 43
21 46 42
21 46 42
21 47 43
21 46 42
21 46 41
21 47 42
21 47 43
21 47 43
21 47 43
21 46 42
22 48 43
21 46 42
21 47 43
21 46 42
21 46 42
22 48 43
21 47 43
22 48 43
20 45 41
21 47 43
21 45 41
22 49 44
21 47 43
21 47 43
21 45 41
21 47 42
21 47 42
21 46 42
21 47 43
22 47 43
21 47 42
21 47 43
21 47 43
21 46 41
21 47 43
21 46 42
21 46 42
22 48 44
21 47 43
22 47 43
22 47 43
20 45 41
21 46 42
20 44 41
21 46 42
21 46 42
21 46 42
20 45 41
20 45 41
21 46 42
20 45 41
21 46 42
21 46 42
21 46 42
20 44 41
21 46 42
21 46 42
20 44 41
20 44 40
20 45 41
20 45 42
20 45 41
21 46 42
21 46 42
20 44 41
20 44 41
20 44 41
20 45 41
21 46 42
20 45 41
20 45 41
21 47 43
21 46 42
21 46 42
20 45 41
20 45 41
20 44 41
21 46 42
21 46 42
21 46 42
20 45 41
20 45 41
21 46 42
21 45 42
21 46 42
21 46 42
21 46 42
20 45 41
20 45 41
21 46 42
20 45 41
21 46 42
21 47 43
21 47 43
21 47 43
21 46 42
21 47 43
21 46 42
21 46 42
21 46 42
21 46 42
21 46 42
21 46 42
20 45 41
21 47 42
21 46 42
21 46 42
21 46 42
21 46 42
21 46 42
20 45 41
20 45 41
20 45 41
21 46 42
21 46 42
21 46 42
21 46 42
21 46 42
21 47 42
21 47 43
21 46 42
21 46 42
21 47 43
21 46 42
20 45 41
21 47 43
21 46 42
21 46 42
21 47 43
21 46 42
21 45 41
21 47 42
21 46 42
20 45 41
20 45 41
21 46 42
21 46 42
22 48 43
21 45 41
21 46 42
21 46 42
21 45 41
21 47 43
21 47 43
21 47 43
21 45 41
20 45 41
21 45 41
21 46 42
21 46 42
20 45 41
21 46 42
20 45 41
21 46 42
20 45 41
20 44 40
19 43 40
18 41 38
17 39 36
16 37 35
24 39 37
90 85 77
120 108 97
133 118 104
147 129 113
166 145 127
174 151 131
177 153 133
190 164 143
189 163 141
194 151 130
190 64 44
158 124 107
163 141 121
116 101 88
149 129 112
103 73 63
20 44 40
21 47 42
21 46 42
21 46 42
21 46 42
21 47 43
21 46 42
21 47 43
21 46 42
21 45 41
21 46 42
22 48 43
21 47 43
21 47 43
21 46 42
22 48 44
21 46 42
21 45 41
21 45 41
21 46 42
21 47 42
21 46 42
21 45 41
21 47 42
22 48 43
21 46 42
20 45 41
21 47 43
21 47 43
21 46 42
21 46 42
21 47 43
21 46 42
21 47 43
21 46 42
21 46 42
22 48 43
21 47 43
21 47 42
21 47 43
21 47 43
21 46 42
21 47 43
21 47 42
21 46 42
21 47 43
21 46 41
21 47 43
21 47 43
21 47 42
22 48 43
21 46 42
21 47 43
21 46 42
22 48 43
21 46 42
21 47 43
21 46 42
21 46 42
22 48 43
22 48 43
21 46 42
22 48 44
21 46 42
20 45 41
21 46 42
20 45 41
21 46 42
20 45 42
20 43 40
20 45 41
20 44 41
20 44 41
20 45 42
20 44 40
21 46 42
20 45 42
20 45 41
20 44 40
20 44 41
20 45 41
20 44 41
21 46 42
20 45 41
21 46 42
21 46 42
21 46 42
20 45 41
21 46 42
21 46 42
21 46 42
21 47 43
21 45 42
21 47 43
20 45 41
21 46 42
20 45 41
21 46 42
20 45 41
20 45 41
20 45 41
21 45 42
20 45 41
20 45 41
21 45 42
20 45 41
21 46 42
21 46 42
20 44 40
20 45 41
21 46 42
20 45 41
21 46 42
21 47 43
21 45 42
21 45 41
21 46 42
21 46 42
21 46 42
21 47 43
21 46 42
20 45 41
21 46 42
21 46 42
20 45 41
21 45 42
20 45 41
20 45 41
21 48 43
21 47 43
21 46 42
21 46 42
21 46 42
20 44 40
21 47 42
21 45 41
21 46 42
20 45 41
21 46 42
21 47 43
21 46 42
21 46 42
21 46 42
20 45 41
21 46 42
21 46 42
21 46 42
21 46 42
21 46 42
21 46 42
20 44 41
21 46 42
21 46 42
21 46 42
21 47 43
21 47 43
21 45 41
21 47 43
21 46 42
21 46 42
22 47 43
21 46 42
21 47 43
20 45 41
21 46 42
22 48 43
22 47 43
21 46 42
21 45 41
20 45 41
20 44 40
21 46 42
21 45 41
21 45 41
20 45 41
21 45 40
21 46 42
20 44 40
19 42 39
19 41 38
18 41 38
16 37 34
15 33 31
14 32 31
45 49 44
79 75 67
100 90 79
124 109 95
138 120 104
157 136 118
162 140 121
170 147 126
166 142 121
174 150 129
176 81 64
142 98 83
159 138 118
151 131 112
117 95 82
49 44 39
20 43 39
21 46 41
20 44 40
21 47 42
21 47 43
21 45 41
21 46 42
20 45 41
21 46 42
21 46 42
21 46 42
22 47 43
21 47 42
21 47 42
21 47 43
22 49 44
22 48 43
21 45 41
21 46 42
22 47 43
21 46 42
22 48 43
22 47 43
21 46 42
22 47 43
21 47 43
21 47 43
21 46 42
21 46 42
21 47 43
22 48 44
21 46 42
21 46 42
21 46 42
22 48 43
21 46 42
21 46 42
21 47 43
21 47 42
21 47 43
21 47 43
21 46 42
21 47 43
21 46 42
22 48 44
21 47 42
22 48 43
21 47 43
22 48 44
22 47 43
22 47 43
21 47 43
21 47 43
21 46 42
21 46 42
21 47 43
21 46 42
21 47 43
21 46 42
21 47 43
21 46 42
21 46 42
22 48 44
21 46 42
20 45 41
21 46 42
21 46 42
20 45 41
20 45 41
21 46 42
20 45 41
21 47 43
20 44 40
20 44 41
21 46 42
21 46 42
21 46 42
21 46 42
21 46 42
20 45 41
21 46 42
21 46 42
21 47 43
20 45 41
21 46 42
21 46 42
21 46 42
21 46 42
21 46 42
21 46 42
20 44 41
21 46 43
21 46 42
20 45 41
21 46 42
21 46 42
21 45 41
20 45 41
21 46 42
21 46 42
20 45 41
21 46 42
21 46 42
21 46 42
21 46 42
20 45 41
21 46 42
21 47 43
21 46 42
21 45 41
20 45 41
21 46 42
21 45 42
20 45 41
21 46 42
20 45 41
21 47 42
21 45 41
21 45 41
22 48 44
21 46 42
20 44 41
21 47 43
20 44 41
20 45 41
20 45 41
22 47 43
21 47 43
20 45 41
21 47 42
21 46 42
21 47 43
21 46 42
21 46 42
21 46 42
21 46 42
20 45 41
21 46 42
21 46 42
21 47 43
21 46 42
22 48 44
21 46 42
21 46 42
21 46 42
21 47 43
21 46 42
21 46 42
21 46 42
21 46 42
21 47 42
21 46 42
21 46 42
21 47 43
22 47 43
21 46 42
21 46 42
20 45 41
22 48 43
21 47 43
21 46 42
21 47 42
21 46 42
21 47 43
20 45 41
21 46 42
21 46 42
21 46 41
20 44 40
21 45 41
21 46 42
21 46 42
26 48 44
40 54 50
35 52 47
21 45 41
21 45 41
21 45 41
20 44 40
19 43 39
17 37 34
16 35 33
14 32 31
14 31 30
13 29 28
57 57 51
70 67 59
84 76 65
105 92 77
123 106 88
133 114 95
140 120 102
147 127 108
149 129 109
151 98 81
140 63 48
98 73 61
104 75 63
64 43 36
20 43 39
21 45 41
21 46 42
21 45 41
21 47 42
21 46 42
21 47 42
20 44 40
20 44 40
21 46 41
21 46 42
21 47 43
21 46 42
21 47 43
21 46 42
21 47 43
21 46 42
22 47 43
21 47 42
21 46 42
21 47 43
21 46 42
20 45 41
22 48 44
22 48 43
21 47 42
21 46 42
21 46 42
22 47 43
21 46 42
22 48 44
22 48 43
21 47 43
21 46 42
21 47 43
21 46 42
22 48 44
21 46 42
21 46 42
21 47 43
22 48 43
21 46 42
21 45 41
21 47 43
21 47 43
21 46 42
21 46 42
21 46 42
22 48 43
21 47 43
22 48 43
21 46 42
21 47 43
21 47 42
21 47 43
21 47 43
21 46 42
21 47 42
21 46 42
21 47 43
21 47 42
21 47 43
21 46 42
22 48 44
21 47 43
20 45 41
20 44 41
21 46 42
20 45 42
20 45 41
21 46 42
20 44 40
20 45 41
20 44 41
21 46 42
20 45 41
20 43 40
21 46 42
20 45 42
20 45 41
20 45 42
20 45 41
21 46 42
21 45 42
21 46 42
21 46 42
21 47 43
20 45 41
21 46 42
20 45 41
21 45 42
21 46 42
21 46 42
21 46 42
20 45 41
20 45 41
20 45 41
20 45 41
20 45 41
20 44 40
21 47 43
21 47 43
21 47 43
21 46 42
20 45 41
21 46 42
21 47 43
21 46 42
20 45 41
21 46 42
20 44 41
21 46 42
21 47 43
21 47 43
21 46 42
20 45 41
21 46 42
21 46 42
21 47 43
21 46 42
20 44 40
20 45 41
20 45 41
21 46 42
21 46 42
21 46 42
21 46 42
21 46 42
21 47 43
22 47 43
21 47 43
21 46 42
21 46 42
21 46 42
21 46 42
21 45 41
21 47 42
20 45 41
21 46 42
22 48 43
21 46 42
21 46 42
21 46 42
20 45 41
21 46 42
21 46 42
21 47 43
21 46 42
21 47 43
21 47 43
21 47 43
21 46 42
21 46 42
21 46 42
21 47 42
22 47 43
22 48 44
21 46 42
21 46 42
21 47 43
21 45 41
21 46 42
21 46 42
21 47 43
21 46 42
21 46 42
20 45 41
21 47 43
20 45 41
21 47 42
46 58 54
138 128 118
185 167 153
217 195 179
221 198 182
224 199 182
206 183 167
171 155 140
92 89 81
20 44 40
20 43 39
18 40 37
16 36 34
14 32 30
12 28 27
13 30 29
26 33 31
32 36 29
44 46 37
62 56 44
84 74 60
94 82 66
112 97 81
110 96 80
115 100 82
113 71 56
109 35 23
93 31 20
52 30 25
23 40 36
20 43 39
20 44 39
20 44 40
20 44 40
21 46 42
21 45 41
21 46 42
21 46 42
21 46 41
21 46 41
21 46 42
21 46 42
21 46 42
21 47 43
21 47 43
21 46 42
21 46 42
22 49 44
22 47 43
21 47 42
21 47 42
22 47 43
21 47 43
22 47 43
21 46 42
21 46 42
21 47 42
22 47 43
21 46 42
22 48 43
22 48 44
21 47 42
22 48 43
21 46 42
22 48 44
21 47 43
21 46 42
21 47 42
22 48 44
22 47 43
21 47 43
21 46 42
21 46 42
21 46 42
21 47 43
21 46 42
21 47 43
20 45 41
21 47 42
21 47 43
21 47 43
22 48 44
21 46 42
21 47 43
21 45 41
22 49 44
22 48 44
22 47 43
21 47 43
22 48 44
21 47 42
21 47 42
21 46 42
21 46 42
21 47 43
20 44 41
21 45 42
20 45 41
20 45 41
21 46 42
21 47 43
20 44 40
21 46 42
20 44 40
20 45 41
21 46 42
20 45 42
20 45 41
20 45 41
20 45 41
21 45 42
20 45 41
20 45 41
21 46 42
21 46 42
20 44 41
21 46 42
21 46 42
20 44 40
21 46 42
20 44 41
20 44 40
20 45 41
21 46 42
21 47 43
20 45 41
20 45 41
20 45 41
21 46 42
21 46 42
20 45 41
20 45 41
21 46 42
21 46 42
21 46 42
21 47 43
21 46 42
21 46 42
21 46 42
21 46 42
21 47 43
21 47 43
20 45 41
21 45 41
21 46 42
21 46 42
20 45 41
20 45 41
21 46 42
20 44 41
21 46 42
21 46 42
21 46 42
21 46 42
21 47 43
21 47 43
21 46 42
20 45 41
21 46 42
21 46 42
21 46 42
21 46 42
21 46 42
21 46 42
20 45 41
21 46 42
21 47 43
21 45 41
21 47 43
21 47 43
21 46 42
21 47 43
21 46 42
21 46 42
20 45 41
21 47 43
21 47 43
21 47 43
21 46 42
21 47 43
21 47 42
21 46 42
21 47 43
21 46 42
21 45 41
21 46 42
21 45 41
21 46 42
21 46 42
21 47 42
21 45 41
21 47 43
21 46 41
21 47 43
21 46 42
22 48 44
22 47 43
21 46 42
28 49 45
128 120 110
202 181 167
205 182 171
190 167 162
187 163 161
183 158 158
199 174 168
200 174 168
225 199 184
233 207 188
176 157 142
47 58 52
19 42 38
18 39 36
16 37 34
14 32 30
13 29 27
12 26 25
13 24 22
22 29 23
42 42 30
49 46 34
49 48 37
58 54 42
71 64 50
70 63 49
62 40 30
56 20 12
31 23 19
19 35 31
19 41 37
20 42 38
20 44 39
20 44 40
21 45 40
21 45 41
21 45 41
20 45 40
21 46 42
21 46 42
21 46 42
22 47 43
21 46 42
21 47 43
21 47 42
21 46 42
21 46 42
21 47 43
22 47 43
21 47 43
20 45 41
21 47 43
21 46 42
22 48 44
21 47 43
22 48 44
21 47 43
22 48 44
21 47 43
21 46 42
21 46 42
21 47 42
21 46 42
21 46 42
21 46 42
21 46 41
21 47 42
22 48 44
22 48 44
21 47 43
21 46 42
22 48 43
21 46 42
22 48 43
21 46 42
21 47 43
21 47 43
21 47 43
21 46 42
21 46 41
22 47 43
22 48 44
22 48 44
22 48 43
21 47 42
21 47 43
21 47 43
22 48 43
22 48 44
21 47 43
22 48 44
22 47 43
22 48 43
21 46 42
21 47 43
21 47 43
21 46 42
20 45 41
21 46 42
21 46 42
21 46 42
20 44 41
20 45 41
21 46 42
21 46 42
21 46 42
20 45 42
21 46 42
21 47 43
21 45 41
20 44 41
20 45 41
21 46 42
21 47 43
20 45 41
21 47 43
21 46 42
21 46 42
21 46 42
21 46 42
21 46 42
21 47 43
20 45 42
20 45 41
22 48 44
20 44 40
21 47 43
21 46 42
20 45 41
21 46 42
20 45 41
20 45 41
21 46 42
20 45 41
21 46 42
20 45 41
20 45 41
21 47 43
21 45 42
21 46 42
21 46 42
21 45 41
21 46 42
21 47 43
21 46 42
21 47 42
21 46 42
20 45 41
21 47 43
21 47 43
21 46 42
21 47 43
21 45 41
21 47 43
21 46 42
21 46 42
21 46 42
21 47 43
21 46 42
21 46 42
21 46 42
21 46 42
21 47 43
20 45 41
21 47 43
20 44 41
21 46 42
21 47 43
21 46 42
21 47 43
21 47 42
21 47 43
21 46 42
21 46 42
21 47 43
21 46 42
21 46 42
21 47 42
21 47 43
21 46 42
21 47 43
21 45 41
21 46 42
21 47 43
21 47 43
21 46 42
21 47 43
21 46 42
21 46 42
21 46 42
22 48 43
21 47 43
22 48 43
22 48 44
21 45 41
21 47 43
21 47 43
21 47 43
23 47 43
118 107 106
142 120 128
106 78 109
97 65 105
99 66 107
101 67 109
102 68 110
103 68 111
104 68 111
104 69 111
116 83 117
160 133 142
184 160 150
56 62 57
20 44 40
19 41 37
18 39 36
15 34 31
13 28 26
11 25 23
9 21 20
21 23 19
27 28 21
38 37 26
37 37 26
37 36 26
34 29 21
26 15 12
14 24 22
14 30 27
18 38 33
20 42 37
20 42 38
20 43 38
20 44 39
21 44 40
21 45 40
21 45 41
21 45 40
21 46 41
21 45 41
21 47 42
21 47 42
22 47 43
21 46 42
21 47 42
20 45 41
22 48 43
22 49 44
22 48 44
21 46 41
21 46 42
21 46 42
21 47 42
22 48 44
22 48 43
21 46 42
22 48 43
21 47 43
22 48 43
22 48 43
21 47 43
21 47 43
21 46 42
22 48 43
22 48 43
21 46 42
21 47 43
22 48 43
21 45 41
22 48 44
22 48 44
22 48 44
21 47 43
22 47 43
21 47 43
22 48 44
21 46 42
21 47 43
21 46 42
22 48 43
22 48 44
22 47 43
21 46 42
21 47 43
21 47 43
21 47 42
21 47 42
22 50 45
21 47 43
22 47 43
22 48 43
22 47 43
21 46 42
21 47 43
22 47 43
21 47 42
20 44 40
21 45 42
20 45 41
20 45 41
20 45 41
20 45 41
21 47 43
21 46 42
21 47 43
21 46 42
21 45 41
20 45 41
20 45 41
20 45 41
20 45 41
21 45 42
21 46 42
20 45 41
21 46 42
20 45 41
20 45 42
20 45 41
21 46 42
20 44 41
20 45 41
20 45 41
20 45 41
21 47 43
21 47 43
20 44 40
20 45 41
21 46 42
21 46 42
20 45 41
21 46 42
21 46 42
21 46 42
20 45 41
20 45 41
21 47 43
20 45 41
21 46 42
21 47 43
21 46 42
21 45 41
21 47 43
21 46 42
21 46 42
21 46 42
21 45 41
21 46 42
22 48 44
22 48 44
21 46 42
21 46 42
21 46 42
21 46 42
21 46 42
21 46 42
21 47 42
21 47 43
21 47 43
21 46 42
21 47 43
21 46 42
21 47 43
21 46 42
21 46 42
21 46 42
20 45 41
21 46 42
20 45 41
21 46 42
21 46 42
21 47 43
21 47 43
21 46 42
22 48 44
21 46 42
21 46 42
21 47 43
21 47 43
21 47 42
21 47 42
21 46 42
21 46 42
22 47 43
22 48 43
21 47 43
21 46 42
21 46 41
21 46 42
21 47 42
21 45 41
21 46 42
21 47 42
21 47 42
21 47 42
21 47 43
20 45 41
20 45 41
21 46 42
69 62 74
90 63 96
92 62 101
96 64 104
98 65 106
100 66 108
102 67 109
103 68 110
104 69 111
104 69 112
105 69 112
105 69 111
105 69 110
103 69 107
101 78 96
23 45 41
20 42 38
19 42 37
19 41 37
18 39 35
17 37 33
15 32 28
14 30 27
12 26 23
11 24 21
9 19 17
11 23 21
13 29 25
15 31 27
17 36 32
18 38 34
19 41 36
20 41 36
20 43 38
20 42 37
20 43 38
22 46 42
21 45 41
21 45 41
21 45 41
21 46 42
21 46 42
21 46 42
21 46 41
21 45 41
21 45 41
21 46 42
21 47 42
21 46 42
21 46 42
22 47 43
20 45 41
21 45 41
22 48 44
21 47 43
22 48 44
21 47 42
21 46 42
21 47 43
22 48 43
21 47 42
21 47 43
21 47 43
21 47 43
21 47 43
22 47 43
21 46 42
21 47 43
21 46 42
22 49 44
21 46 42
21 46 41
22 48 44
21 47 43
21 47 43
21 47 43
21 47 43
21 47 43
22 48 44
22 48 43
22 49 44
21 47 43
21 47 43
21 47 43
21 46 42
22 48 44
21 46 42
22 48 43
22 49 44
21 47 43
22 48 44
22 48 44
22 48 43
21 47 42
22 47 43
21 47 43
21 47 43
21 47 42
20 44 40
20 45 41
21 46 42
21 46 42
21 46 42
21 46 42
20 45 42
20 44 40
21 46 42
21 47 43
20 45 41
20 45 41
20 45 41
20 45 41
20 45 41
20 45 41
20 45 41
21 46 42
20 45 41
21 46 42
21 46 42
21 46 42
21 47 43
21 46 42
21 46 42
21 46 42
20 44 40
20 44 40
20 45 41
21 47 43
21 46 42
21 46 42
20 45 41
20 44 40
21 46 42
20 45 41
21 46 42
21 46 42
21 46 42
21 46 42
21 47 43
21 45 41
21 46 42
21 46 42
21 46 42
21 46 42
21 47 43
20 45 41
20 45 41
20 45 41
21 46 42
21 46 42
21 47 43
21 46 42
21 46 42
21 46 42
21 46 42
21 47 43
21 46 42
21 46 42
21 47 43
21 46 42
21 46 42
21 45 41
21 46 42
21 46 41
21 47 42
21 46 42
21 47 43
21 46 42
21 46 42
21 46 42
21 46 42
21 47 43
21 47 43
20 45 41
21 46 42
20 44 40
21 46 42
21 46 42
21 45 41
21 47 43
21 46 42
21 47 43
21 46 42
21 46 42
21 46 42
22 48 43
21 45 41
21 46 42
21 46 42
21 46 42
21 46 42
21 47 43
21 46 42
22 47 43
21 46 42
21 47 43
21 46 42
21 46 42
21 45 41
39 45 52
77 52 85
88 58 95
94 62 101
97 64 104
99 65 106
100 67 108
102 67 109
104 69 111
106 71 112
106 71 112
106 69 112
106 69 112
105 69 111
103 68 108
97 64 102
61 52 69
20 44 40
20 44 39
20 44 39
20 43 38
20 42 37
19 42 37
19 41 36
19 41 36
19 42 37
18 39 35
19 39 34
18 39 34
20 41 37
19 40 35
19 41 36
20 43 38
20 42 37
21 46 41
20 44 39
20 44 40
21 47 42
21 47 42
21 46 41
21 46 42
21 45 41
21 47 43
20 45 41
21 45 41
21 46 42
21 46 42
21 46 42
21 47 43
22 47 43
21 46 42
21 47 43
22 49 44
21 46 42
21 46 42
21 47 43
21 47 42
22 48 44
21 47 43
21 47 42
21 46 42
22 48 43
21 47 42
22 48 44
21 47 43
22 49 44
21 47 43
22 48 44
21 47 42
21 45 41
21 47 42
22 48 44
22 48 44
22 47 43
22 48 43
21 45 41
21 47 42
21 47 43
22 48 43
21 46 42
21 47 43
21 46 42
21 46 42
22 48 44
21 46 42
22 47 43
22 48 43
22 48 44
21 47 42
22 49 44
22 48 44
22 48 44
21 47 43
22 49 44
21 47 43
22 48 44
21 46 42
21 46 42
21 47 42
20 45 41
20 45 41
21 46 42
20 45 41
20 44 40
21 46 42
20 45 41
20 45 41
21 47 43
21 46 42
21 46 42
21 45 42
21 46 42
20 45 41
21 47 43
21 46 42
21 46 42
21 47 43
20 45 41
20 45 41
20 44 40
21 45 41
21 45 41
21 46 42
21 45 42
21 46 42
21 46 42
21 45 41
21 46 42
21 46 42
20 45 41
21 47 42
20 45 41
21 46 42
21 46 42
21 47 43
21 47 43
21 46 42
21 46 42
20 45 41
21 47 43
20 44 40
21 46 42
21 47 43
21 46 42
20 45 41
21 46 42
20 45 41
21 47 43
21 47 42
21 45 42
21 46 42
21 47 43
21 47 43
20 45 41
21 47 43
21 47 43
21 47 42
20 45 41
22 48 43
20 45 41
21 45 42
21 46 42
21 47 42
21 46 42
21 45 41
21 46 42
21 46 42
21 46 42
21 46 42
21 46 42
20 45 41
21 46 42
21 45 41
21 47 43
21 46 42
21 46 42
21 46 42
21 47 43
21 47 43
22 47 43
21 46 42
21 46 42
21 46 42
22 48 43
21 46 42
21 46 42
21 47 43
21 47 43
21 47 42
21 47 43
21 46 42
21 47 43
21 47 43
21 46 42
22 47 43
22 47 43
21 46 42
21 46 42
21 45 41
21 46 42
59 48 67
79 53 87
86 57 93
93 62 100
97 64 104
99 65 106
101 67 108
102 67 109
110 76 113
144 114 135
145 115 135
112 77 115
106 70 111
106 69 111
103 68 108
99 65 103
83 56 87
22 46 42
21 45 40
21 46 41
20 43 39
20 44 39
20 43 38
20 43 38
20 42 38
20 43 38
20 43 38
20 44 39
19 41 36
21 44 40
20 44 39
20 43 39
21 45 41
20 43 39
21 45 40
21 45 40
20 44 40
21 46 41
21 45 41
22 48 43
21 46 41
21 46 42
21 46 42
21 46 42
21 46 41
22 48 43
21 47 42
22 47 43
21 47 42
21 46 42
22 49 44
22 48 44
21 46 42
22 47 43
21 47 42
21 47 42
22 48 44
21 46 42
22 48 43
21 47 43
21 47 42
22 48 43
22 49 45
22 48 43
21 47 43
22 47 43
22 47 43
21 47 43
21 46 42
21 47 43
21 47 42
21 46 42
22 48 43
21 47 43
22 48 43
21 47 43
22 49 45
22 48 43
21 47 43
21 46 41
22 47 43
22 48 44
21 46 42
21 47 43
21 47 43
22 48 44
21 47 43
21 47 43
22 48 44
21 47 43
21 47 43
22 48 43
22 48 44
22 47 43
21 46 42
22 48 43
21 46 42
21 47 43
22 48 43
20 45 41
21 46 42
21 46 42
20 44 41
20 44 40
20 44 40
21 46 43
20 45 41
22 48 44
20 45 41
20 45 41
20 45 41
21 47 43
21 46 42
21 46 42
21 46 42
21 46 42
21 46 42
22 48 44
21 46 42
21 46 42
21 46 42
21 46 42
21 46 42
21 46 42
21 46 42
21 47 43
21 47 43
21 47 43
21 45 41
20 44 41
21 46 42
20 45 41
21 46 42
21 47 43
20 44 41
20 45 41
21 46 42
20 45 41
21 45 42
20 45 41
21 47 43
21 47 43
21 46 42
21 46 42
22 48 43
21 47 43
21 46 42
21 47 43
21 47 43
20 45 41
21 46 42
21 46 42
21 47 43
20 44 41
21 46 42
21 46 42
21 46 42
21 46 42
21 45 41
21 45 41
21 47 43
21 46 43
21 46 42
21 46 42
21 46 42
20 45 41
21 46 42
21 46 42
22 48 43
21 46 42
21 46 42
21 46 42
21 47 43
21 47 43
22 47 43
21 45 41
21 45 41
21 47 43
21 47 43
21 47 43
21 47 43
21 47 42
21 46 42
21 47 42
22 48 43
21 47 43
22 48 43
21 46 42
21 46 42
21 46 42
21 45 41
21 47 43
22 48 43
21 46 42
21 46 42
20 45 41
21 46 42
21 46 42
21 46 42
33 51 46
76 59 78
78 52 85
86 57 92
91 60 97
96 63 101
98 64 104
101 66 107
102 67 108
115 82 116
181 153 159
197 168 170
123 90 121
105 69 110
104 68 108
101 66 105
97 63 100
91 59 94
46 48 57
21 46 41
21 45 40
21 45 41
21 45 40
20 44 39
20 44 40
20 44 39
21 45 40
21 46 41
21 44 40
21 45 41
21 45 40
21 44 39
21 46 41
21 45 41
21 44 40
22 47 43
21 45 41
21 45 41
21 45 41
21 46 42
20 44 40
21 46 42
21 46 42
21 47 42
21 46 42
21 47 43
21 47 42
21 46 42
21 47 42
22 48 43
21 46 42
21 46 42
22 47 43
22 48 44
21 47 42
21 47 43
21 47 43
21 46 42
21 46 42
22 49 44
21 46 42
21 46 42
21 47 43
22 47 43
21 46 42
21 46 41
21 47 43
22 48 44
22 48 43
21 45 41
22 47 43
22 48 43
22 48 44
22 49 45
22 47 43
21 47 42
21 47 42
22 48 44
21 46 42
21 47 43
22 47 43
22 47 43
21 47 43
22 47 43
21 47 43
22 48 44
22 47 43
22 48 43
22 48 43
22 47 43
21 46 42
21 47 42
22 48 43
21 47 42
21 47 43
21 47 43
22 48 44
22 49 44
21 47 42
22 48 43
21 46 42
20 45 41
20 45 41
20 45 41
21 46 43
21 46 42
20 44 40
21 46 42
21 47 43
20 45 41
20 45 41
21 46 42
21 46 42
21 46 42
21 46 42
21 47 43
21 46 42
20 45 41
21 47 42
20 45 41
21 46 42
21 47 43
21 46 42
21 47 43
20 45 41
20 45 41
21 46 42
21 46 42
20 45 41
21 45 41
20 45 41
21 46 42
21 46 42
21 46 42
21 46 42
21 46 42
21 46 42
21 46 42
20 45 41
21 47 43
21 46 42
21 46 42
21 47 42
21 46 42
21 46 42
21 46 42
21 46 42
21 46 42
21 46 42
21 46 42
21 46 42
21 46 42
21 47 43
21 46 42
21 47 43
20 45 41
21 46 42
21 46 42
21 46 42
21 46 42
22 48 44
21 46 42
21 47 43
21 47 43
21 46 42
21 45 41
21 47 43
21 46 42
21 47 42
21 46 42
21 46 42
21 46 42
21 47 43
21 47 42
20 44 41
21 47 43
21 46 42
21 47 42
21 47 43
21 46 42
21 45 41
21 46 41
21 47 42
21 47 43
22 48 44
21 46 42
21 45 41
21 46 42
21 47 43
21 46 41
21 46 42
21 47 42
21 46 42
21 46 42
21 46 42
21 47 43
21 46 42
21 46 42
21 45 41
21 46 42
67 72 66
81 65 81
75 50 81
83 54 88
88 58 94
93 61 97
97 63 102
99 65 104
102 66 106
105 71 109
132 101 125
142 112 131
110 77 111
102 67 106
102 66 105
99 65 103
96 62 99
89 58 92
54 49 62
21 46 41
21 45 40
21 46 42
21 45 41
21 45 41
20 44 40
21 45 41
21 46 41
21 46 41
21 46 41
21 45 40
21 46 42
21 46 41
21 45 40
20 45 40
21 46 42
22 47 42
21 47 42
22 47 42
20 44 40
21 45 41
21 47 43
21 46 42
21 46 41
22 48 43
22 48 43
21 45 41
22 47 43
22 48 43
22 48 43
22 49 44
22 48 43
21 47 43
21 46 41
21 47 42
22 47 43
21 47 43
21 47 43
22 47 43
21 46 42
21 47 43
21 46 42
22 48 43
21 47 43
22 49 44
22 48 43
22 48 43
22 48 44
21 46 42
21 47 42
22 48 44
21 47 42
21 47 43
22 48 44
22 48 44
22 49 44
21 47 42
21 47 43
21 46 42
21 47 43
21 46 41
21 47 43
21 47 43
22 48 43
21 46 42
21 47 43
22 47 43
21 46 42
21 47 42
22 48 43
21 47 43
21 47 43
22 47 43
21 46 41
21 47 43
21 46 42
22 48 44
21 47 42
21 47 43
21 47 43
22 48 43
21 46 42
21 47 42
21 46 42
21 47 43
21 46 42
20 45 41
21 47 43
21 46 42
21 47 43
21 46 43
21 46 42
21 46 42
21 46 42
21 45 41
21 46 42
20 45 41
21 45 41
20 45 41
21 46 42
21 46 42
21 46 42
21 46 42
21 45 42
21 46 42
21 46 42
21 47 43
21 47 42
21 46 42
21 46 42
21 46 42
21 46 42
21 47 43
21 45 42
21 47 43
21 46 42
22 49 44
21 46 42
20 44 40
21 47 43
20 45 41
21 46 42
20 45 41
21 47 42
21 47 43
21 47 43
20 45 41
21 46 42
21 46 42
21 46 42
21 46 42
20 45 41
21 47 43
21 46 42
21 46 42
21 46 42
21 46 42
21 47 43
21 45 41
21 47 43
21 47 42
21 47 42
21 46 42
21 46 42
22 49 44
22 47 43
21 47 43
20 45 41
22 48 43
21 45 41
21 47 42
22 47 43
21 46 42
21 47 43
21 47 42
21 46 42
21 46 42
21 47 43
21 46 41
21 46 42
21 47 43
21 46 42
21 47 43
21 46 42
21 46 42
21 46 42
22 48 44
21 47 43
21 46 42
21 45 41
21 46 42
21 46 42
21 46 42
21 47 43
21 45 41
21 45 41
22 48 43
22 48 43
20 45 41
21 45 41
22 47 43
82 83 77
71 55 72
72 48 78
81 53 86
85 55 87
90 59 95
93 61 97
96 63 100
98 63 101
99 64 102
101 66 104
102 68 105
99 64 101
100 65 103
98 64 101
94 61 97
91 59 93
86 56 88
64 50 69
21 47 42
21 46 42
21 46 41
22 48 44
21 46 42
21 46 41
21 46 41
21 47 42
21 46 41
22 47 43
21 46 41
21 47 42
22 48 43
21 46 42
21 45 41
21 46 41
21 46 42
22 47 43
21 46 41
21 47 43
21 46 42
22 48 44
22 47 42
22 48 44
22 47 43
21 46 42
22 48 43
21 47 42
22 48 43
21 47 43
21 47 42
21 47 42
21 46 42
21 46 42
22 48 44
22 48 43
22 48 43
22 48 43
21 46 42
22 47 43
22 49 45
22 48 44
22 48 43
22 48 44
21 46 42
21 46 42
21 47 43
22 48 43
22 48 44
21 47 43
22 48 44
21 47 43
21 46 42
22 48 44
21 47 43
22 48 43
21 47 43
22 48 43
21 47 43
21 45 41
22 48 44
21 47 42
21 47 43
21 46 42
22 47 43
22 48 44
22 47 43
22 47 43
22 49 44
22 49 44
22 48 44
22 47 43
21 46 42
21 47 42
22 47 43
21 47 43
22 48 43
22 48 43
21 47 43
21 46 42
21 46 42
20 45 41
20 45 41
21 46 42
21 46 42
21 46 42
21 46 42
20 45 41
21 46 42
21 45 42
21 46 42
21 45 42
21 46 42
21 46 42
21 47 42
21 47 43
20 45 41
20 45 41
21 46 42
21 46 42
21 46 42
20 45 41
21 46 42
21 46 42
21 46 42
21 47 42
21 46 42
21 46 42
22 48 44
21 46 42
21 46 42
21 47 42
21 46 42
21 46 42
21 47 43
21 46 42
21 47 43
20 45 41
21 46 42
21 46 42
21 45 42
21 46 42
21 46 42
21 46 42
21 47 43
21 47 43
21 46 42
21 46 42
21 47 43
21 47 43
21 46 42
21 47 43
21 47 43
21 47 43
21 45 41
22 48 43
21 46 42
20 45 41
21 47 42
21 46 42
21 47 43
21 47 43
21 45 41
21 46 42
21 47 43
22 47 43
21 46 42
21 46 42
22 47 43
22 48 43
21 46 42
21 47 43
22 47 43
21 46 42
21 46 42
21 46 42
21 47 43
21 46 42
21 46 42
22 47 43
22 47 43
22 47 43
22 48 44
20 45 41
22 48 44
22 47 43
21 46 42
21 46 42
21 47 43
21 45 41
21 46 42
22 48 44
21 46 42
21 46 42
21 46 42
21 47 43
22 48 44
21 46 42
22 47 43
21 46 42
20 45 41
72 74 68
73 60 71
64 42 68
74 49 78
75 49 78
83 54 86
93 64 94
102 74 98
120 92 110
124 96 112
117 86 109
105 74 103
96 64 98
94 61 96
92 60 94
90 58 92
88 57 89
82 53 83
57 47 63
21 46 42
21 47 42
21 46 42
23 49 44
21 46 42
22 48 43
21 47 42
22 47 43
21 46 42
21 45 41
22 47 43
21 46 42
21 46 42
21 46 42
21 47 43
21 45 41
21 47 43
21 46 42
22 48 43
21 46 42
21 46 42
21 47 42
21 46 42
21 46 42
22 48 44
22 47 43
22 48 44
21 45 41
22 48 44
22 47 43
21 47 42
21 46 42
22 47 43
22 48 43
22 48 43
22 48 44
22 47 43
22 48 43
21 47 43
21 47 42
22 49 44
21 46 41
22 48 44
21 47 43
22 47 43
22 48 43
22 47 43
21 47 43
23 49 45
22 48 43
22 47 43
22 48 44
21 47 43
21 47 42
21 46 42
21 47 43
22 47 43
22 49 45
22 48 43
22 49 45
22 47 43
22 48 43
22 47 43
21 47 42
22 48 43
22 48 44
22 48 44
21 47 43
21 47 43
21 47 43
21 47 42
22 49 44
22 47 43
21 47 43
21 46 42
22 48 43
22 48 43
21 47 43
22 48 43
22 48 43
22 48 43
20 45 41
21 46 42
20 44 40
21 47 43
21 46 42
21 46 42
20 45 41
21 46 42
20 45 41
20 45 41
21 46 42
20 45 41
21 46 42
21 46 42
20 44 40
21 46 42
21 46 42
21 47 43
21 46 42
20 45 41
21 46 42
21 46 42
21 46 42
20 45 41
20 45 41
22 48 44
21 46 42
21 46 42
21 46 42
21 46 42
21 46 42
21 46 42
20 45 42
20 45 41
21 46 42
20 45 41
21 46 42
21 47 43
20 45 41
21 46 42
20 45 41
21 46 42
21 46 42
21 46 42
21 47 42
21 46 42
21 46 42
20 45 41
21 46 42
21 46 42
21 46 42
21 46 42
21 46 41
21 46 42
21 46 42
20 45 41
21 46 42
21 46 42
22 48 44
21 45 41
21 47 43
21 47 43
21 46 42
21 47 43
21 46 42
22 48 44
22 49 44
21 47 42
21 46 42
20 45 41
21 46 42
21 47 43
21 46 42
21 46 42
21 46 42
22 48 43
22 48 43
21 47 43
21 46 42
21 46 42
21 47 43
21 47 43
21 47 43
22 47 43
21 46 42
21 47 43
20 44 40
21 47 43
21 46 42
21 47 42
22 48 43
21 46 42
21 46 42
21 47 42
20 45 41
20 44 40
20 44 41
20 44 40
19 43 39
18 40 37
54 60 55
57 45 58
57 38 61
81 60 78
131 110 110
161 138 127
186 162 145
200 174 155
205 178 157
212 185 164
209 181 159
208 182 161
205 178 161
180 154 142
141 115 118
94 66 92
80 52 81
74 48 76
49 46 57
21 46 42
21 47 42
21 46 42
22 48 43
21 46 42
22 47 43
21 46 41
21 47 42
22 47 42
21 46 42
21 46 42
22 47 43
22 48 43
21 47 42
22 47 42
21 47 42
21 46 42
21 46 42
22 48 44
22 47 43
22 47 43
22 48 43
22 48 44
22 48 43
22 47 43
21 47 43
22 48 43
21 47 42
22 48 43
21 47 43
21 47 43
22 49 44
22 47 43
21 45 41
21 46 42
22 48 43
22 48 43
22 48 43
21 46 42
21 47 42
22 48 43
22 48 44
22 47 43
21 47 42
22 48 44
21 47 43
21 47 42
22 48 44
21 47 43
21 47 43
22 48 44
22 48 44
22 48 43
21 47 43
22 47 43
22 48 43
23 50 45
22 48 43
22 48 43
21 47 42
22 48 44
22 48 44
22 48 44
22 48 43
22 48 44
22 47 43
22 49 44
22 48 44
21 47 42
22 49 45
22 48 44
21 47 42
22 48 43
21 47 42
21 47 42
22 49 44
22 48 43
22 48 44
21 47 43
22 48 44
22 48 43
21 46 42
20 45 41
21 47 43
21 46 42
20 45 41
21 47 42
21 46 42
21 46 42
21 47 43
20 45 41
21 46 42
21 47 43
21 47 42
21 47 43
21 46 42
21 46 42
21 47 43
21 46 42
20 45 41
20 45 41
21 46 42
21 46 42
21 47 43
20 45 41
21 46 42
21 47 43
21 46 42
21 46 42
21 47 43
21 46 42
20 45 41
20 45 41
21 46 42
21 46 42
21 47 43
21 47 43
21 46 42
21 45 41
21 47 43
21 47 43
21 46 42
21 47 43
21 47 42
21 46 42
21 47 43
21 46 42
21 46 42
21 46 42
21 46 42
21 46 42
21 47 42
21 47 43
21 46 42
21 47 43
21 46 42
21 46 42
21 47 43
21 47 43
21 47 42
20 45 41
21 47 43
21 46 42
21 47 43
21 47 43
22 47 43
21 47 43
21 46 42
22 49 45
21 46 42
21 46 42
22 48 44
22 48 43
21 46 42
21 47 42
21 46 42
21 45 41
21 46 42
22 47 43
21 45 41
22 47 43
21 46 42
21 47 42
22 48 43
21 46 42
22 48 43
21 47 42
22 48 44
21 46 42
21 46 42
21 47 43
21 47 43
21 46 42
21 47 43
21 45 41
20 45 41
20 44 41
19 42 39
19 42 39
18 40 38
17 39 36
35 46 42
45 34 49
75 65 70
140 124 112
155 135 120
163 142 125
180 157 139
187 163 144
191 166 147
193 166 146
196 170 149
193 168 148
197 172 152
194 169 148
190 165 144
183 159 140
126 104 104
65 42 65
37 45 49
21 47 42
21 46 41
21 47 42
21 46 41
21 46 42
21 45 41
21 46 42
21 45 41
21 47 42
22 47 43
21 47 43
22 49 44
21 46 42
21 46 42
21 46 42
21 46 42
21 46 42
22 48 43
22 47 43
22 48 43
22 47 43
21 46 42
22 48 43
21 46 42
22 47 43
22 49 44
22 47 43
21 46 42
22 49 44
22 48 44
22 48 44
21 47 42
21 47 42
22 48 43
22 47 43
22 47 43
22 47 43
21 46 42
21 47 43
22 49 45
22 48 44
22 47 43
22 48 44
22 47 43
22 48 43
22 48 43
22 48 44
21 47 42
21 47 43
21 47 43
22 47 43
22 48 43
21 47 42
21 46 42
22 48 44
21 46 42
22 47 43
22 48 43
21 47 43
22 49 44
22 47 43
22 47 43
22 47 43
22 48 43
22 48 44
22 49 44
22 48 43
22 48 43
22 49 44
21 47 43
21 47 43
21 47 43
22 48 43
21 47 42
21 47 43
21 47 42
23 50 45
22 49 44
22 49 44
22 48 43
21 47 42
20 44 41
20 45 41
21 46 42
21 46 42
20 45 41
21 47 43
21 46 42
20 44 40
21 46 42
20 44 40
21 46 42
21 46 42
22 48 43
20 45 41
20 44 40
21 47 43
21 46 42
20 45 41
21 47 42
21 47 43
21 46 42
21 47 43
21 46 42
21 46 42
21 46 42
21 47 43
21 46 42
20 45 41
21 47 43
21 46 42
21 46 42
21 47 43
22 48 44
21 47 43
20 45 41
21 47 43
21 47 43
21 46 42
21 47 43
21 45 41
21 46 42
20 44 41
21 46 42
21 47 42
21 47 43
21 45 41
21 47 43
21 46 42
21 46 42
21 47 43
21 47 43
21 47 43
22 48 44
21 46 42
21 47 43
21 46 42
21 46 42
21 46 42
21 47 43
21 47 43
21 47 43
21 47 42
21 46 42
22 48 43
21 47 43
21 46 42
22 48 44
21 47 43
21 46 42
21 47 42
21 46 42
22 48 44
21 46 42
21 47 43
21 46 42
21 47 43
21 47 43
21 46 42
22 49 44
22 48 44
21 47 42
21 46 42
22 47 43
21 47 43
21 46 42
21 47 43
21 47 42
21 46 42
21 46 42
22 48 43
21 46 41
21 47 43
20 44 40
21 45 41
20 45 41
19 43 40
19 42 39
17 38 36
17 37 35
15 34 32
15 35 34
50 47 50
87 82 74
108 98 88
133 118 104
146 127 112
159 138 121
170 147 129
167 144 126
176 152 133
179 156 136
182 158 138
176 153 133
175 151 130
181 158 138
170 148 128
155 135 116
78 64 67
21 46 41
21 46 42
21 45 41
21 47 42
21 46 42
22 47 43
21 46 42
21 45 41
21 47 43
21 46 42
22 47 43
21 45 41
22 47 43
20 45 41
21 46 42
21 46 41
22 48 43
22 47 43
21 47 42
21 46 42
22 48 43
22 47 43
21 46 42
22 48 44
22 47 43
22 47 43
22 48 43
22 47 43
21 46 42
21 47 42
22 48 44
21 47 43
22 47 43
22 48 44
22 47 42
22 48 44
22 48 43
21 47 42
22 48 43
21 47 42
22 48 43
22 48 44
22 47 43
22 49 44
21 46 42
22 48 43
21 47 43
22 47 43
22 47 43
22 48 43
21 47 43
21 47 43
22 48 44
22 49 44
21 46 42
22 48 43
21 47 43
22 48 44
22 48 43
22 48 44
22 47 43
21 47 42
22 49 44
21 46 42
22 47 43
22 48 44
22 47 43
21 47 43
22 48 43
21 47 42
23 49 45
22 49 44
21 47 43
21 47 43
22 48 44
22 48 44
22 48 44
22 48 43
21 47 42
22 48 44
22 49 44
21 46 42
21 46 42
21 46 42
21 47 43
21 46 42
20 44 40
21 46 42
20 45 41
21 46 42
21 46 42
21 46 42
21 47 42
21 45 41
21 46 42
21 45 41
20 45 41
20 45 41
21 47 43
21 46 42
21 46 42
21 46 42
20 45 41
21 46 42
22 48 43
21 47 43
21 47 43
21 47 43
21 47 43
21 46 42
21 46 42
21 45 41
21 46 42
21 46 42
20 45 41
20 45 41
21 47 43
20 45 41
22 47 43
21 46 42
21 46 42
21 46 41
21 46 42
21 47 43
20 45 41
21 45 42
21 47 43
21 47 43
21 45 41
21 47 43
21 47 42
21 47 43
21 46 42
21 46 42
21 46 42
21 47 43
21 47 43
21 47 42
21 46 42
21 46 42
21 46 42
21 46 42
22 48 43
21 46 42
22 48 44
21 47 43
21 47 43
21 46 42
21 47 43
21 46 42
21 47 43
21 47 43
21 46 42
21 46 42
21 47 42
21 47 42
22 48 44
21 46 42
21 47 43
21 47 43
22 49 44
21 47 42
23 50 46
21 46 42
21 46 41
22 47 43
21 47 42
21 46 41
21 47 42
21 46 41
21 46 41
21 46 42
21 45 41
22 49 45
21 47 43
20 45 40
20 43 39
19 42 39
18 40 37
17 38 36
15 35 33
15 35 33
13 30 29
39 44 41
75 72 65
76 71 63
98 89 79
110 98 85
137 120 105
139 120 103
146 126 108
155 134 115
157 136 117
164 143 123
164 142 123
161 139 120
157 137 118
149 130 111
135 119 103
61 63 56
20 44 40
21 45 40
21 46 42
21 47 43
22 47 43
21 46 41
21 46 41
22 47 42
21 45 41
22 48 43
21 47 42
21 47 43
21 47 43
21 47 42
21 46 42
21 46 42
22 48 43
22 47 42
21 45 41
21 46 41
22 48 43
22 48 44
22 48 44
21 47 42
22 47 43
22 47 43
22 49 44
21 47 42
21 47 43
21 46 42
21 46 42
21 47 42
22 48 43
22 48 44
21 47 43
22 47 43
21 46 42
22 48 43
23 50 45
21 47 42
22 47 43
22 48 44
22 48 44
21 47 42
21 47 42
22 49 45
21 47 43
21 46 42
21 46 42
21 46 42
22 48 44
22 48 43
22 48 43
22 48 44
21 47 42
22 47 43
21 47 43
22 49 44
22 49 44
22 49 44
22 48 43
22 48 43
21 46 42
21 47 43
22 48 44
22 47 43
21 46 42
22 49 44
22 48 43
21 47 42
22 48 44
21 47 42
21 47 42
22 47 43
22 47 43
22 48 43
21 47 43
22 48 43
22 49 44
22 49 44
22 47 43
22 48 43
22 48 44
21 46 42
21 46 42
21 46 42
21 46 42
20 45 41
20 44 41
20 44 40
21 46 42
21 46 42
21 47 43
21 46 42
21 47 43
21 46 42
21 45 42
20 45 41
20 45 41
21 46 42
20 45 41
21 46 42
20 45 41
21 47 43
21 46 42
21 47 43
21 46 42
22 48 43
21 46 42
21 47 43
21 46 42
21 47 43
21 46 42
21 47 43
21 47 43
22 48 44
21 46 42
21 46 42
21 46 42
22 48 44
22 47 43
21 47 42
21 47 43
21 46 42
20 45 41
21 47 43
21 46 42
21 46 42
21 47 43
21 46 42
21 47 43
21 46 42
22 48 43
21 47 43
21 46 42
20 45 41
21 46 42
20 45 41
21 47 43
21 46 42
21 47 43
21 46 42
21 46 42
21 47 43
22 48 43
21 46 41
21 46 42
21 47 43
21 47 43
21 46 42
22 48 44
21 46 42
21 46 42
21 47 43
21 46 42
21 47 43
22 48 43
21 46 42
21 46 42
21 47 42
21 46 42
22 47 43
21 47 43
22 47 43
21 46 42
21 46 41
21 47 43
22 48 44
21 46 42
21 47 42
21 46 42
21 45 41
22 48 43
21 46 42
21 46 42
21 45 41
20 43 40
20 43 40
18 40 37
17 38 36
15 34 32
13 31 30
14 32 30
13 29 28
44 48 42
67 64 56
61 59 51
59 57 47
105 91 77
116 100 84
122 105 88
128 111 94
135 117 98
139 121 103
136 118 100
135 118 100
128 112 95
118 104 89
81 76 65
19 42 37
20 44 40
21 45 41
21 45 41
20 45 40
21 45 41
21 45 41
21 45 41
21 47 42
22 47 43
21 45 41
22 48 44
21 46 41
21 47 42
21 46 42
22 48 43
22 48 43
22 47 43
21 47 42
21 46 41
22 47 43
21 46 42
22 48 43
22 49 45
21 47 42
22 48 43
22 49 44
22 48 44
21 46 42
22 47 43
22 48 43
21 46 41
21 47 42
23 50 45
23 49 45
21 47 42
22 47 43
21 47 43
22 47 43
22 48 43
22 48 43
22 48 44
21 47 43
22 48 44
22 48 43
23 49 45
21 47 43
22 47 43
21 46 42
22 48 43
22 49 45
22 48 44
22 48 44
22 49 44
22 48 43
21 47 43
22 48 43
22 49 44
21 47 42
22 49 45
22 48 43
21 47 43
22 48 44
22 49 44
21 47 43
22 48 43
21 47 43
22 48 43
22 49 45
22 48 44
21 47 43
22 48 43
22 48 43
22 49 44
22 48 44
22 48 43
22 48 44
21 47 42
22 48 43
22 47 43
22 48 43
22 48 44
22 48 43
21 46 42
20 45 41
21 46 42
21 46 42
21 46 42
20 44 41
21 47 43
20 45 41
21 46 42
21 46 42
21 47 42
21 46 42
21 46 42
21 47 43
21 47 43
21 47 43
21 47 43
21 46 42
21 46 42
21 46 42
21 46 42
21 45 41
21 46 42
21 45 41
21 47 43
21 47 43
20 45 41
21 47 43
21 47 43
20 45 41
22 48 44
20 45 41
21 47 43
21 46 42
21 46 42
21 47 43
22 48 44
21 46 42
21 46 42
22 48 43
21 46 42
20 45 41
21 46 42
21 46 42
21 47 43
21 46 42
21 46 42
21 47 43
21 46 42
21 46 42
20 44 40
22 49 44
21 46 42
21 47 43
21 46 42
21 46 42
21 47 43
21 47 43
21 46 42
22 47 43
21 46 42
21 47 43
21 47 42
20 45 41
21 46 42
22 48 44
21 45 41
22 48 44
21 47 42
21 47 43
22 48 44
21 46 42
22 48 43
21 47 42
21 47 43
21 47 43
21 46 42
21 46 42
21 47 43
21 47 42
22 48 43
21 46 42
21 46 41
21 46 42
21 46 42
22 47 43
21 47 42
21 47 42
22 48 43
21 46 42
21 45 41
21 46 41
21 45 41
22 47 43
20 45 41
20 43 40
18 40 36
17 37 35
15 34 33
13 31 30
13 31 29
12 28 27
12 26 25
36 39 34
39 43 34
36 41 34
49 48 38
67 61 48
86 76 63
95 83 67
99 88 73
100 88 72
97 86 71
94 83 69
82 74 60
58 56 46
20 39 35
19 41 37
20 43 39
20 43 39
20 44 40
20 44 39
20 45 40
21 45 41
21 45 41
21 46 41
21 47 42
21 46 42
21 46 42
21 46 42
21 46 42
22 48 44
21 47 42
22 47 43
22 48 44
22 47 43
22 48 44
21 46 42
21 47 42
21 47 43
22 48 43
22 48 44
22 48 43
22 48 44
21 47 42
22 48 44
21 47 42
22 49 44
22 48 44
21 47 42
22 48 43
22 48 43
22 48 44
21 47 42
21 47 43
22 48 43
21 47 42
21 47 43
21 46 42
22 49 44
21 47 42
21 47 42
22 48 44
21 46 42
22 49 44
22 48 43
21 47 42
21 47 43
22 47 43
22 47 43
21 47 42
22 48 43
22 48 44
22 49 44
22 49 44
21 47 43
22 48 43
22 48 44
22 48 44
22 48 43
22 49 45
22 48 43
22 47 43
22 48 44
22 48 44
21 47 42
22 49 44
21 46 42
22 49 44
21 47 43
22 48 43
22 47 43
22 48 44
22 48 44
22 48 44
22 48 43
22 47 43
23 50 45
22 49 44
22 48 43
20 44 40
21 46 42
21 46 42
20 45 41
21 46 42
22 47 43
21 45 41
21 46 42
21 46 42
21 46 42
21 46 42
21 46 42
21 47 43
21 46 42
21 45 41
20 45 41
21 46 42
20 45 41
21 46 42
21 46 42
21 47 43
21 46 42
21 47 43
21 47 43
21 47 43
20 45 41
21 46 42
21 46 42
22 48 43
21 47 43
20 45 41
21 46 42
20 45 41
21 46 42
21 47 43
22 48 43
21 47 43
21 47 43
21 47 43
21 47 43
21 46 42
21 47 42
21 47 42
21 45 41
22 48 43
21 47 43
21 46 42
21 46 42
22 47 43
21 47 43
21 46 42
21 47 43
21 46 42
21 47 43
21 46 41
21 47 43
22 48 43
22 48 43
22 48 43
21 47 43
21 47 43
21 47 43
21 47 42
21 46 42
21 47 43
21 47 43
21 47 43
21 46 42
21 47 43
21 47 43
22 48 44
22 48 43
21 47 43
21 47 42
21 47 43
21 46 42
22 47 43
21 47 43
21 46 42
22 47 43
21 46 42
21 45 41
21 46 42
22 47 43
74 57 46
140 77 52
182 93 59
175 89 57
170 88 57
126 72 51
97 62 47
21 47 42
21 46 41
21 45 41
20 44 40
20 44 40
20 43 39
18 40 37
17 38 35
14 33 31
13 29 28
12 28 27
10 24 23
10 23 22
17 25 21
42 41 30
40 41 30
41 42 31
46 46 33
52 50 37
55 52 39
55 52 39
46 47 35
42 43 32
25 31 25
17 34 30
18 40 36
20 42 38
20 43 39
20 44 39
21 46 41
21 46 41
21 46 41
20 45 40
20 44 40
21 46 41
21 47 42
21 46 42
21 46 42
21 46 42
21 47 42
22 48 43
22 48 44
21 47 43
22 47 43
22 48 44
22 47 43
22 47 43
22 47 43
21 46 41
22 49 44
22 47 43
22 49 44
22 48 44
21 46 42
22 48 43
22 48 44
22 48 43
22 47 43
22 48 43
21 47 43
23 50 45
22 47 43
22 49 44
22 48 44
22 49 44
23 49 45
22 48 44
22 48 44
22 47 43
21 47 43
21 47 43
21 46 42
22 48 43
22 47 43
21 47 43
22 48 43
22 49 44
21 47 42
21 47 42
22 48 43
22 48 43
21 47 43
22 48 43
22 48 43
21 47 42
22 48 44
22 48 43
22 48 44
22 48 44
22 48 44
22 48 43
22 49 44
21 46 42
22 48 43
22 48 44
21 46 42
22 48 43
21 47 43
21 47 42
21 46 42
21 47 43
23 49 45
22 49 44
22 48 43
22 49 44
22 48 43
21 47 43
22 49 44
22 49 44
21 46 42
21 47 43
20 45 41
21 45 41
21 46 42
21 47 42
21 46 42
21 47 43
21 46 42
21 46 42
21 47 43
21 47 43
21 47 43
21 46 42
20 45 41
21 46 42
21 47 43
21 47 43
21 46 42
21 46 42
21 47 43
21 46 42
21 47 43
22 48 43
22 49 44
21 47 42
21 46 42
20 45 41
21 46 42
21 47 43
22 47 43
21 47 43
21 46 42
21 47 43
20 45 41
21 47 43
22 48 44
21 47 42
21 47 43
21 46 42
21 46 42
22 47 43
21 47 42
21 47 43
21 46 42
21 46 42
20 45 41
22 47 43
22 48 43
21 47 42
22 47 43
21 46 42
21 46 42
22 48 43
20 45 41
21 47 43
21 46 42
22 47 43
22 48 43
21 47 42
21 46 42
21 46 42
22 47 43
21 47 43
21 47 43
21 46 42
21 47 42
22 48 43
21 46 42
22 48 43
21 46 42
21 46 42
21 46 42
21 47 42
21 47 43
21 46 41
21 47 43
21 47 42
21 47 43
22 48 43
21 47 43
21 46 42
96 63 47
186 93 58
240 115 69
248 119 71
253 121 72
255 123 73
255 124 73
255 124 73
255 123 72
202 102 65
114 95 83
21 45 41
21 46 42
20 44 40
21 45 41
20 43 39
19 42 38
17 37 34
15 33 30
13 30 28
11 25 24
10 23 22
8 20 19
14 20 17
21 24 18
30 31 23
33 35 26
40 40 29
37 38 28
33 35 25
25 29 22
11 21 19
12 27 24
17 37 33
19 41 37
20 42 37
20 43 38
20 43 38
20 44 40
20 45 40
21 46 41
21 45 41
21 45 41
21 45 41
21 46 41
21 46 42
21 45 41
21 47 42
22 48 43
21 47 42
22 48 43
21 47 43
22 47 43
21 46 42
22 47 43
22 47 43
21 47 42
22 48 43
21 47 42
22 48 43
21 47 43
21 47 42
22 48 43
22 47 43
22 47 43
22 48 43
23 50 45
22 48 44
22 49 44
22 49 44
22 48 44
22 48 44
22 48 44
21 47 42
22 47 43
22 47 43
22 47 43
22 47 43
22 48 44
22 47 43
22 48 44
22 48 43
22 48 43
22 49 45
22 49 44
22 48 44
22 49 45
22 48 44
21 46 42
22 48 44
22 49 44
22 47 43
22 48 43
21 47 43
22 49 44
22 49 44
22 49 44
22 47 43
22 49 44
22 48 43
21 47 43
21 46 42
21 47 43
22 48 44
22 48 44
21 47 43
22 49 44
22 48 43
23 50 45
22 48 44
21 47 43
22 47 43
22 48 43
21 47 42
22 47 43
22 48 44
22 49 44
22 49 44
21 47 43
21 46 42
21 47 43
21 46 42
21 46 42
21 46 42
20 45 41
21 46 42
21 46 42
21 45 41
22 47 43
20 45 41
21 46 42
21 46 42
20 45 41
22 48 44
21 47 43
21 46 42
21 46 42
21 46 42
21 47 43
21 46 41
21 46 42
21 46 42
20 45 41
21 47 43
20 45 41
21 46 42
21 47 43
21 47 43
21 46 42
22 47 43
21 47 43
21 46 42
21 46 42
21 47 43
21 47 43
22 48 43
20 45 41
21 47 43
21 47 43
21 46 42
21 46 42
21 46 42
21 47 43
21 47 43
22 47 43
21 47 42
21 47 43
21 47 43
21 45 41
21 47 43
21 46 42
21 47 43
21 46 42
21 47 43
21 47 43
21 47 43
22 48 44
22 48 44
21 47 43
21 47 43
22 48 43
21 46 42
21 47 42
21 45 41
22 48 44
22 48 43
21 46 42
21 47 43
22 47 43
21 46 42
21 46 42
22 47 43
21 46 42
21 47 42
22 48 44
21 47 43
22 48 43
21 47 43
28 48 43
154 91 69
227 110 66
242 116 69
248 119 71
252 121 72
255 123 73
255 124 74
255 126 74
255 126 74
255 127 74
255 127 74
255 138 97
184 159 142
42 55 50
20 44 39
20 44 40
21 46 42
22 47 43
20 44 39
19 42 38
17 38 34
16 35 32
13 30 27
12 27 25
11 25 23
10 22 20
9 20 19
7 15 14
10 18 16
11 18 16
9 21 19
12 27 24
15 32 28
18 38 33
19 40 35
19 42 37
20 43 38
20 44 39
20 44 39
21 45 41
21 45 40
21 45 41
21 47 42
21 46 41
21 46 41
22 47 43
22 48 43
21 46 41
22 47 43
22 47 43
21 47 43
21 47 42
22 49 44
22 47 43
22 47 43
21 47 42
21 47 43
22 48 43
22 48 43
22 48 44
21 46 41
21 46 42
21 47 43
22 48 43
22 48 43
21 47 43
22 48 43
23 50 45
22 47 43
21 47 42
22 48 44
22 47 43
22 47 43
21 47 43
22 47 43
22 49 44
22 48 43
22 48 43
22 48 44
22 48 44
22 48 43
22 49 44
22 48 44
23 50 45
22 49 44
22 48 43
21 47 43
21 47 43
22 48 43
22 47 43
22 48 43
23 50 45
22 48 43
22 47 43
21 47 43
22 47 43
22 49 45
23 51 46
23 49 45
22 48 43
22 47 43
22 49 44
22 47 43
21 47 43
21 47 43
22 49 44
22 48 44
22 48 43
22 49 44
22 49 44
22 48 44
23 50 45
22 48 44
22 49 44
22 48 43
22 48 44
22 48 44
22 48 44
22 48 44
21 46 42
21 45 41
20 45 41
21 46 42
21 46 42
21 46 42
20 45 41
21 46 42
21 47 43
20 45 41
21 47 43
21 47 43
21 46 42
21 47 43
20 45 41
21 47 43
21 45 41
21 46 42
21 46 42
21 46 42
21 46 42
21 47 43
20 44 40
21 46 42
21 47 43
21 46 42
22 48 44
21 46 42
22 48 43
21 46 42
20 45 41
21 47 43
22 48 43
21 47 42
21 46 42
22 47 43
21 46 42
21 46 42
22 48 43
21 46 42
22 47 43
21 47 43
22 48 44
21 47 43
21 47 43
21 47 43
22 48 43
21 47 43
21 46 42
21 47 43
21 47 43
21 46 42
21 46 42
21 47 42
21 46 42
21 46 42
22 47 43
22 48 43
22 47 43
21 47 43
21 46 42
20 45 41
21 46 42
21 46 42
22 48 43
21 46 42
21 46 42
21 47 42
21 47 43
21 47 43
21 47 42
21 47 43
21 47 43
21 47 43
21 47 42
21 47 43
21 46 42
22 48 43
22 48 44
28 49 45
150 137 127
209 187 172
222 184 165
243 133 95
250 120 71
254 122 72
255 124 73
255 125 74
255 126 75
255 127 75
255 128 75
255 128 75
255 127 74
254 165 133
186 165 148
42 55 50
20 44 40
20 44 40
21 46 41
20 44 40
20 44 39
20 44 39
19 42 37
19 42 38
19 40 36
18 39 35
17 36 32
17 36 31
16 35 31
17 37 33
18 38 33
18 39 34
19 40 35
19 40 35
20 43 38
20 43 38
20 42 37
20 44 39
20 44 39
21 45 40
21 45 40
21 45 40
21 46 41
21 46 42
21 46 41
21 47 43
21 47 42
22 47 43
22 47 43
22 48 43
21 46 42
21 45 41
21 46 42
23 49 45
21 47 43
21 47 42
21 47 43
21 46 42
21 46 41
23 50 45
21 47 42
22 48 44
22 48 44
23 50 45
22 49 44
21 47 43
22 47 43
22 48 44
22 48 44
22 48 43
22 48 44
21 47 42
23 50 45
22 48 43
22 47 43
22 49 44
22 48 43
22 49 45
22 48 44
22 49 44
22 47 43
22 47 43
22 49 44
22 49 45
22 48 43
21 47 43
21 47 42
21 46 42
21 46 42
23 50 45
22 49 44
22 48 44
22 49 44
22 48 44
22 47 43
22 48 44
22 48 44
22 49 45
22 48 43
22 48 43
22 48 43
22 48 43
22 48 44
22 49 44
22 47 43
22 48 44
22 48 43
22 48 44
22 49 44
22 49 44
22 48 44
22 49 44
22 48 44
22 48 43
22 47 43
22 48 43
22 49 44
22 48 43
21 47 43
22 49 45
21 46 42
21 46 42
21 46 42
21 46 42
21 46 42
21 46 42
20 45 41
21 45 41
21 46 42
21 47 43
21 47 43
21 46 42
21 46 42
21 47 43
21 47 43
21 47 43
21 47 42
21 46 42
20 44 40
21 46 42
21 47 43
20 45 41
22 48 44
21 47 43
21 47 43
21 46 42
21 47 43
21 47 43
22 49 44
21 45 41
21 47 42
21 45 41
21 46 42
21 46 42
21 45 41
21 47 43
21 46 42
21 46 42
21 46 42
21 45 41
21 46 42
20 44 40
21 46 42
21 47 43
21 46 41
21 47 42
22 48 44
21 46 42
22 47 43
21 47 43
21 47 43
21 47 43
21 46 42
21 47 43
21 47 43
21 47 43
21 47 43
21 47 43
21 46 42
21 47 42
21 46 42
21 47 42
22 47 43
22 49 45
22 48 44
21 46 42
22 48 43
22 48 43
21 46 42
21 47 42
22 48 43
22 48 44
22 48 43
22 47 43
21 47 42
21 46 42
21 47 42
22 48 44
21 47 43
120 114 106
196 176 163
213 191 176
222 199 182
229 196 178
249 128 84
255 122 72
255 124 73
255 125 74
255 126 75
255 127 75
255 128 75
255 128 75
255 128 75
255 130 79
243 196 172
164 146 130
21 46 41
21 45 41
21 45 40
20 44 40
21 46 41
21 46 41
20 44 39
20 44 39
20 44 39
20 44 39
19 42 37
21 44 39
20 42 37
20 43 38
20 43 38
19 41 37
20 43 38
21 44 39
21 46 41
20 44 39
20 44 39
21 46 41
21 46 41
22 47 42
21 45 41
21 45 41
21 47 42
21 46 42
21 46 41
21 47 42
21 46 41
21 46 42
21 47 42
22 48 43
21 46 41
22 47 43
22 49 44
22 48 43
22 48 43
22 47 43
21 46 42
22 48 44
22 48 43
22 49 44
22 49 44
22 48 43
22 47 43
22 48 44
21 46 42
22 47 43
22 48 44
22 48 44
22 47 43
22 48 43
22 47 43
22 49 45
21 47 43
21 46 42
22 48 44
22 48 44
22 47 43
21 47 43
22 48 44
22 48 43
22 48 43
22 48 44
21 47 42
22 49 44
22 47 43
23 50 45
22 49 44
22 48 43
21 47 42
22 48 44
22 48 43
22 48 44
21 47 42
22 49 44
22 48 44
22 48 43
22 49 44
22 49 45
22 49 44
22 48 44
22 48 43
22 48 44
22 48 43
22 48 43
22 49 44
22 48 43
22 49 44
22 49 44
22 48 43
22 49 44
22 48 43
21 47 42
22 49 44
23 49 45
21 47 42
23 50 45
22 47 43
22 49 44
22 48 43
22 49 44
21 45 41
20 45 41
21 46 42
21 47 43
21 46 42
21 47 43
20 45 41
21 46 42
20 45 41
22 48 44
21 46 42
20 45 41
21 46 42
21 46 42
20 44 40
20 45 41
21 47 43
21 47 43
21 46 42
21 46 42
21 47 43
21 47 43
21 46 42
21 46 42
21 47 43
21 46 42
21 46 42
21 47 43
21 45 41
22 48 44
21 46 42
21 47 42
22 48 44
21 47 43
21 45 41
21 47 43
22 48 44
21 46 42
21 46 42
21 47 43
21 46 42
21 46 42
20 45 41
20 45 41
21 46 42
21 46 42
22 48 44
21 47 43
21 46 42
22 48 44
21 46 42
22 47 43
21 47 42
21 46 42
21 46 42
22 48 44
21 47 43
21 47 43
22 47 43
21 46 42
22 47 43
22 48 43
21 46 42
21 45 41
20 45 41
21 47 43
21 47 42
21 47 43
22 48 43
22 48 43
21 47 43
21 46 42
22 48 44
21 47 42
21 46 42
21 46 42
21 46 42
21 46 42
65 72 67
172 157 145
202 182 167
213 191 176
223 199 182
226 203 186
239 182 159
255 122 72
255 124 73
255 126 74
255 130 79
255 133 82
255 129 77
255 128 75
255 129 75
255 127 74
254 163 131
227 199 178
94 90 81
21 46 41
21 45 41
21 46 42
21 45 41
20 44 40
21 46 41
21 45 40
21 45 40
19 42 38
20 43 38
21 46 41
20 44 39
20 44 39
21 45 40
21 45 40
21 45 40
21 46 41
21 45 40
21 46 42
22 47 42
20 44 40
21 46 41
21 46 41
21 46 42
21 45 41
21 46 42
21 47 42
21 46 42
22 47 43
22 47 43
21 47 42
21 45 41
21 46 42
22 48 43
21 46 42
22 47 43
22 47 43
21 47 42
21 47 43
21 47 42
21 47 43
22 48 43
21 46 42
22 47 43
22 47 43
21 47 42
21 47 42
22 48 43
21 47 42
21 47 43
22 48 43
22 47 43
22 47 43
23 50 45
23 50 45
22 48 43
21 47 43
22 49 44
22 48 44
22 48 43
22 47 43
22 49 44
22 48 44
22 49 44
22 48 43
22 49 44
22 49 44
22 48 43
22 49 44
22 48 44
22 48 44
22 48 43
22 48 44
22 48 43
22 48 43
22 47 43
22 48 43
23 50 45
22 48 43
22 47 43
22 47 43
23 50 46
22 47 43
22 49 45
22 48 43
23 50 45
22 48 44
22 48 43
22 48 44
22 48 44
22 48 43
22 49 44
21 47 42
22 48 44
22 48 43
22 48 43
21 47 42
22 49 44
21 47 43
22 49 44
22 48 43
23 50 45
23 50 46
21 46 42
21 46 42
21 46 42
21 46 42
20 45 41
21 46 42
21 46 42
21 46 42
20 45 41
21 46 42
21 45 41
21 45 41
21 46 42
21 47 43
21 46 42
21 46 42
21 47 43
21 46 42
20 45 41
21 47 43
21 47 43
21 46 42
21 47 42
21 47 43
21 47 43
21 47 42
21 47 43
21 46 42
21 47 43
22 48 44
21 47 43
21 47 43
21 46 42
21 47 43
21 47 43
21 46 42
21 46 42
21 47 43
21 47 43
21 47 43
21 47 43
21 47 43
21 46 42
21 46 42
21 47 42
21 46 42
22 47 43
21 47 43
21 46 42
21 46 42
21 46 42
21 47 42
22 47 43
21 46 42
21 45 41
22 48 43
21 47 43
22 48 44
21 46 42
21 46 42
21 47 43
20 45 41
22 47 43
21 46 42
22 47 43
22 48 44
21 46 42
21 46 42
22 48 44
21 47 42
21 47 43
21 47 43
22 48 44
21 46 42
22 49 45
21 45 41
21 46 41
22 49 44
123 117 109
182 165 152
197 177 163
212 191 175
222 199 182
227 203 185
232 205 187
251 144 108
255 123 73
255 128 78
255 156 107
255 182 132
255 151 101
255 129 76
255 128 75
255 126 73
255 132 87
230 199 177
172 153 136
21 46 42
22 47 43
22 47 43
21 45 41
21 46 42
21 46 42
21 46 41
21 45 40
21 46 41
21 45 41
22 47 42
21 45 40
22 47 42
21 46 41
21 46 41
21 46 41
21 45 40
21 47 42
21 46 41
22 47 42
21 45 40
22 47 42
22 48 43
22 47 43
21 46 42
21 45 41
22 48 43
22 48 43
21 46 42
21 45 41
22 48 43
22 49 44
22 48 43
22 48 44
22 48 44
21 46 42
21 47 42
22 47 43
21 47 43
22 47 43
22 48 44
22 47 43
21 47 43
22 49 44
21 47 43
22 48 43
22 48 44
22 48 43
22 48 43
22 47 43
23 49 45
22 49 44
22 48 43
22 49 44
22 48 43
23 50 45
21 47 42
21 46 42
22 48 44
22 48 44
22 48 43
22 48 44
22 48 43
22 47 43
22 47 43
22 49 44
21 47 42
22 48 44
22 48 43
22 48 43
22 49 44
22 48 44
22 48 44
22 48 43
21 46 42
22 49 44
22 49 44
21 47 43
23 50 45
22 48 43
22 48 43
22 47 43
22 48 44
22 49 44
22 48 44
22 49 44
22 47 43
22 48 44
22 48 43
21 47 42
22 48 44
23 50 45
22 49 44
22 49 45
22 49 44
21 47 43
22 48 43
22 48 43
23 50 45
22 49 45
23 50 45
22 48 44
22 49 44
21 45 41
21 47 43
21 47 43
22 48 44
21 46 42
21 46 42
21 47 43
21 46 42
21 45 42
21 47 43
20 45 41
20 45 41
21 46 42
21 46 42
21 47 43
20 45 41
21 46 42
21 45 41
21 46 42
21 46 42
21 46 42
21 46 42
21 46 42
21 47 43
21 46 42
21 46 42
22 48 44
21 47 43
21 46 42
21 47 43
21 47 43
21 46 42
21 47 42
21 46 42
21 47 43
21 46 41
21 46 42
21 45 41
21 47 43
22 48 43
21 46 42
21 46 42
21 46 42
21 47 43
21 47 42
21 45 41
21 46 42
22 48 44
21 47 43
21 46 42
22 48 44
20 44 40
21 47 42
22 47 43
21 46 42
21 47 43
21 46 41
21 47 43
21 46 42
20 45 41
22 48 44
22 48 44
21 46 42
22 48 43
21 46 42
21 47 43
21 46 42
21 47 43
21 46 42
21 46 41
21 47 43
22 48 44
22 48 43
21 46 42
21 47 43
21 46 42
21 47 42
29 49 45
142 131 122
180 163 151
196 176 161
208 185 169
217 194 177
225 201 183
231 205 187
243 180 155
255 123 72
255 127 76
255 163 114
255 206 155
255 168 119
255 131 78
255 125 73
255 125 72
255 121 70
235 180 155
210 184 164
55 64 58
22 47 43
21 46 42
21 47 42
21 45 40
22 47 43
21 45 41
21 45 41
21 45 41
22 47 42
21 46 42
21 47 42
22 47 42
22 47 43
22 47 42
21 46 41
22 47 42
21 46 41
22 47 42
21 46 41
22 47 43
21 46 42
22 47 42
22 47 42
21 47 42
21 46 42
22 47 43
22 48 43
22 48 43
21 47 43
22 49 44
22 48 43
22 48 43
21 47 43
22 47 43
22 49 44
22 49 45
21 47 42
22 48 44
22 48 44
21 47 42
22 48 43
22 48 43
21 46 41
22 49 44
21 47 42
22 48 43
21 47 43
22 47 43
22 49 44
21 47 43
22 48 44
22 49 44
22 48 43
22 47 43
22 49 44
22 49 44
23 49 45
21 47 43
22 47 43
22 48 43
22 48 44
22 48 43
22 49 44
22 49 45
22 48 43
22 49 44
22 48 43
21 46 42
22 48 43
22 49 44
21 46 42
22 48 43
22 47 43
22 48 44
22 49 44
22 49 44
21 47 43
22 48 44
22 49 44
22 48 43
22 48 43
22 49 44
22 48 44
22 48 43
22 48 43
22 48 43
22 48 43
23 50 45
22 48 43
22 49 44
22 49 44
22 48 44
22 48 43
22 49 44
22 49 44
21 47 43
22 49 44
22 48 43
22 49 44
22 49 44
22 49 45
22 47 43
21 46 42
21 46 42
21 46 42
21 46 42
20 45 41
20 45 41
21 45 41
21 46 42
21 47 43
20 45 41
21 47 43
21 47 43
22 47 43
21 47 43
21 47 43
21 45 41
21 47 43
20 45 41
21 46 42
20 45 41
21 46 42
21 47 43
22 47 43
21 46 42
21 46 42
21 47 43
22 48 43
21 47 43
21 47 43
21 46 42
21 46 42
21 47 43
22 48 43
21 47 43
21 47 43
21 46 42
21 47 43
21 47 43
21 46 42
21 47 42
20 45 41
21 47 43
21 46 42
21 47 43
21 47 43
21 47 43
21 47 42
22 48 44
21 46 41
21 45 41
21 47 43
21 46 42
21 47 42
21 46 42
21 47 42
21 47 43
21 47 43
21 47 42
21 46 42
21 47 42
22 48 43
22 49 44
21 47 43
21 46 41
21 46 42
21 47 42
21 46 42
21 46 42
22 48 44
22 49 44
21 46 42
21 47 43
21 46 42
22 47 43
21 46 42
21 46 42
21 47 42
74 78 72
147 136 127
173 156 144
185 167 153
200 179 163
212 188 171
220 196 179
224 199 180
232 203 184
255 126 78
255 123 72
255 133 83
255 148 99
255 139 89
255 124 73
255 123 71
255 120 69
250 117 67
238 154 123
212 186 165
98 94 84
20 44 40
22 48 43
21 45 41
22 48 43
21 47 42
21 47 42
21 47 42
21 46 42
21 46 41
22 47 43
22 47 42
21 46 41
21 45 41
22 48 43
22 47 43
22 48 43
22 47 42
21 46 41
22 47 43
22 48 43
21 45 41
22 47 43
21 45 41
22 47 43
22 48 43
22 47 43
22 47 43
22 48 44
22 48 43
22 49 44
22 48 44
22 48 43
22 47 43
22 48 44
21 46 41
21 47 42
22 49 44
22 48 43
22 47 43
21 47 42
22 47 43
22 48 44
22 48 44
22 48 43
22 47 43
22 47 43
22 48 43
22 48 43
22 49 44
22 48 44
22 48 44
22 47 43
22 49 44
23 50 45
21 47 43
22 49 44
22 48 44
22 48 44
22 49 44
23 50 45
22 48 44
22 48 43
21 47 42
22 49 44
21 46 42
22 49 44
22 48 43
22 48 44
22 48 44
22 48 43
22 48 43
22 49 44
22 49 44
22 49 44
22 49 44
22 48 43
23 49 45
22 47 43
22 48 44
23 50 45
22 47 43
21 46 42
22 48 43
22 48 43
22 49 44
22 49 44
22 49 44
22 49 44
22 49 44
22 48 43
22 49 44
22 48 43
22 48 43
22 48 44
22 48 43
22 48 44
22 48 44
22 47 43
23 49 45
22 48 43
22 47 43
22 48 44
21 47 43
21 46 42
21 45 41
20 45 41
21 46 42
22 47 43
21 45 42
21 46 42
21 46 42
21 46 42
21 47 42
21 46 42
21 46 42
21 46 42
20 45 41
21 46 42
21 47 42
21 47 42
21 47 43
21 46 42
22 47 43
21 46 42
21 47 43
21 46 42
20 45 41
21 47 43
21 47 43
21 46 42
20 45 41
21 46 42
21 46 42
20 45 41
22 48 43
22 48 43
21 46 42
21 47 42
21 47 43
21 47 43
21 47 43
21 47 43
22 48 43
22 48 44
21 47 43
21 47 42
21 46 42
21 47 43
21 47 43
22 48 43
21 47 43
21 45 41
21 47 42
21 46 42
21 45 41
21 47 43
21 45 41
21 47 43
22 48 43
21 47 43
21 47 42
21 46 42
21 46 42
21 46 42
21 47 42
22 47 43
21 45 41
22 48 43
21 47 42
22 48 44
21 45 41
21 47 43
21 47 43
21 46 42
21 47 42
21 46 42
22 47 43
22 48 44
21 47 43
84 85 78
136 126 118
164 148 137
179 161 147
195 174 158
202 180 163
210 186 168
219 193 174
224 198 180
241 150 118
251 119 69
255 121 71
255 122 72
255 121 70
254 120 69
252 118 68
245 115 66
239 112 64
232 139 106
208 183 162
127 116 103
22 49 44
21 46 42
22 47 42
21 46 41
21 47 42
21 45 41
22 47 43
22 48 43
22 48 43
21 46 42
22 47 43
21 47 42
22 48 44
21 46 42
21 45 41
21 46 42
22 47 43
21 46 42
22 48 43
22 48 44
21 46 42
22 49 44
21 46 41
22 48 43
21 47 42
21 47 42
22 47 43
21 46 41
21 47 42
22 48 43
22 48 44
22 48 43
22 49 44
22 48 44
22 47 43
22 47 43
21 47 42
22 49 44
21 47 42
21 46 42
22 48 44
22 47 43
21 47 43
22 48 43
21 47 42
22 47 43
21 47 42
22 48 44
23 50 45
22 48 43
22 49 45
22 48 44
21 47 42
22 48 44
22 49 44
22 48 44
23 49 45
22 48 44
22 48 43
22 48 43
22 48 44
21 47 42
23 49 45
22 47 43
22 47 43
22 48 43
22 47 43
24 51 47
22 47 43
22 49 45
22 48 43
22 49 44
22 48 44
21 46 42
22 48 43
22 49 44
22 48 44
22 47 43
22 48 44
22 48 44
22 49 45
22 49 44
22 47 43
22 49 45
21 47 42
22 48 44
21 47 42
21 47 42
22 49 44
22 49 44
22 49 44
21 47 42
22 48 43
22 48 43
22 49 44
22 48 43
23 49 45
22 47 43
22 48 44
23 50 45
22 49 45
21 47 43
21 46 42
21 47 43
22 48 43
21 47 43
21 46 42
21 45 41
20 45 41
21 46 42
21 47 43
21 46 42
21 47 43
21 46 42
21 47 43
21 47 43
21 45 41
21 47 43
21 46 42
21 46 42
21 46 42
21 46 42
21 47 43
21 47 43
21 47 43
21 46 42
21 47 42
21 46 42
22 47 43
21 47 43
21 46 42
21 46 42
22 47 43
21 47 43
21 47 43
22 48 43
21 45 41
21 46 42
21 47 43
21 46 42
22 47 43
21 47 42
21 46 42
21 46 42
21 47 43
21 47 43
21 47 42
22 48 44
21 46 41
22 48 44
21 47 43
21 46 42
22 48 44
21 46 42
22 48 43
22 48 44
21 46 42
22 48 44
21 47 42
21 47 42
22 47 43
22 49 45
21 46 41
21 47 42
21 46 42
21 47 42
21 46 42
22 48 44
22 47 43
21 46 42
21 46 42
21 45 41
21 46 42
21 46 42
21 46 42
21 47 43
22 47 43
21 46 42
21 46 42
86 86 79
135 125 116
150 136 125
171 154 141
180 161 146
192 171 155
198 175 158
207 183 165
217 192 173
226 160 134
242 114 66
245 115 67
249 117 68
250 118 68
245 115 66
241 113 65
241 113 65
233 109 62
227 114 73
202 176 156
121 110 97
21 46 42
22 49 44
22 47 43
22 48 43
21 46 41
21 47 42
22 47 43
21 47 42
22 47 42
22 47 43
22 47 43
22 48 43
21 46 42
21 47 42
21 46 42
21 46 42
22 48 43
22 47 43
22 48 44
21 45 41
22 49 44
22 48 43
22 48 43
21 47 42
22 49 44
22 47 42
22 47 43
21 47 42
21 46 42
22 48 44
21 47 43
22 48 43
21 46 42
21 46 42
21 47 42
22 48 44
22 49 44
23 49 44
22 48 43
22 48 44
22 48 43
22 49 44
22 48 44
21 47 42
22 49 44
21 47 42
22 48 44
22 49 44
21 46 42
22 48 43
22 47 43
22 48 44
22 48 43
22 48 43
23 50 45
23 50 45
22 48 43
22 48 44
22 47 43
22 48 43
22 48 44
22 48 44
22 49 44
21 47 43
21 47 42
22 48 44
22 49 44
22 48 44
22 49 44
22 49 44
22 48 44
22 47 43
22 49 44
21 47 43
22 47 43
22 49 44
22 49 44
22 48 43
22 49 45
22 47 43
22 49 44
22 49 44
22 49 44
22 48 43
21 47 43
22 48 43
22 49 44
22 48 43
22 48 44
22 49 45
23 49 45
22 48 44
22 49 44
23 50 45
22 47 43
22 48 43
23 50 45
22 49 44
22 49 44
22 48 43
22 49 45
22 48 44
22 49 44
21 47 43
22 47 43
20 45 41
20 45 41
20 45 41
22 48 44
21 46 42
21 46 42
22 47 43
21 46 42
21 46 42
22 48 44
21 46 42
21 46 42
21 46 42
21 46 42
21 47 42
21 47 43
21 45 42
21 46 42
22 48 44
21 46 42
21 46 42
22 47 43
21 46 42
21 46 42
21 46 42
22 48 43
22 48 43
21 47 43
21 46 42
22 48 43
21 47 43
22 48 44
22 47 43
21 47 43
21 47 42
22 47 43
21 46 42
21 46 42
22 48 43
22 48 44
21 47 43
21 47 43
21 46 42
21 47 42
21 46 42
22 48 44
21 46 42
22 49 44
22 47 43
21 47 43
21 46 42
22 48 43
21 47 42
21 46 42
21 47 43
21 46 42
21 46 42
21 46 42
20 45 41
21 46 41
21 47 42
21 46 42
22 49 44
21 46 42
22 48 43
21 46 42
21 47 43
22 48 43
21 46 42
21 46 42
21 46 41
21 46 42
20 44 40
20 44 41
71 73 67
123 114 105
141 128 118
150 135 122
165 147 133
179 159 144
187 166 150
199 175 157
204 179 160
208 168 148
234 110 64
235 111 64
233 109 63
238 112 64
232 109 62
229 107 61
225 105 60
226 106 61
210 99 58
186 161 141
106 99 87
21 46 42
22 47 42
21 45 40
22 47 43
21 46 41
21 46 42
23 50 45
22 47 42
22 48 43
22 48 44
21 46 42
21 47 42
22 48 43
21 47 42
21 46 42
21 47 42
22 48 43
21 46 42
22 47 43
22 48 43
22 48 44
22 47 43
22 49 44
22 49 45
22 48 44
21 47 42
21 46 42
22 47 43
22 47 43
22 48 43
22 47 43
22 48 44
21 47 43
21 47 42
22 48 43
21 47 43
22 49 45
22 47 43
22 49 44
22 48 43
22 49 44
22 48 43
22 47 43
22 49 44
22 49 44
22 48 44
23 50 46
22 48 44
22 48 44
22 48 44
22 48 44
22 48 43
22 47 43
21 47 43
22 48 44
22 49 44
22 48 43
22 48 44
22 48 43
21 47 42
22 48 43
22 49 44
22 49 45
22 47 43
22 48 44
22 48 43
22 48 44
22 48 43
22 48 43
21 46 42
22 49 45
22 48 43
22 49 44
22 48 43
23 50 45
22 48 44
23 50 45
22 48 44
21 45 41
22 48 43
22 49 45
22 48 43
22 47 43
22 48 44
22 48 43
22 48 44
22 49 44
22 48 43
22 49 45
22 48 43
22 48 44
22 49 44
22 48 43
22 49 44
22 48 43
22 48 44
22 49 44
22 48 44
22 49 44
22 49 45
23 50 45
23 50 45
21 47 43
21 45 41
21 46 42
21 46 42
22 48 44
21 47 43
21 46 42
21 46 42
21 46 42
21 46 42
22 48 44
22 48 44
21 47 43
21 46 42
21 47 42
21 47 43
21 47 43
21 46 42
21 47 43
21 46 42
21 47 43
22 48 44
21 46 42
21 46 42
21 46 42
21 47 43
21 47 42
21 47 43
21 46 42
21 47 43
21 47 43
21 46 42
21 47 43
21 47 43
23 50 45
22 48 43
21 47 42
22 47 43
22 48 44
22 48 44
21 47 43
21 47 43
21 46 42
21 47 43
21 47 43
21 47 43
21 46 42
21 47 43
21 46 41
21 47 42
22 47 43
22 48 44
21 47 43
22 48 43
21 46 42
21 45 41
22 48 44
22 48 44
22 48 43
21 47 42
21 46 42
22 47 43
21 47 43
21 46 41
22 48 44
21 45 41
22 47 43
21 45 41
21 47 42
22 48 44
21 46 41
21 47 42
21 46 42
20 45 41
20 44 40
19 42 39
19 42 39
56 61 57
103 96 89
117 108 100
129 118 107
151 135 123
163 145 130
170 151 135
177 156 139
186 163 145
199 170 151
221 105 61
222 104 60
219 103 59
221 104 59
215 101 57
216 101 57
213 100 57
210 98 56
195 91 51
170 145 126
79 77 68
21 45 41
22 48 43
22 47 42
21 45 41
22 48 44
22 48 43
22 49 44
22 48 43
21 47 42
22 49 44
22 48 44
22 48 44
21 46 42
21 47 42
22 48 43
21 47 42
21 47 43
21 47 43
21 47 43
22 47 43
22 47 43
21 46 42
21 47 42
22 47 42
21 46 42
22 48 44
22 48 44
22 47 43
22 48 43
22 47 43
22 47 43
22 48 44
22 48 44
21 46 42
21 47 42
22 48 44
21 47 42
22 49 44
22 49 44
22 49 44
22 48 43
22 49 44
22 48 44
22 47 43
21 46 42
22 48 43
21 46 42
22 48 43
22 47 43
22 48 43
22 48 44
23 49 45
22 49 44
23 49 45
22 48 44
22 48 44
21 47 42
22 48 44
22 49 44
22 49 44
22 48 43
22 49 44
22 49 44
22 48 44
23 50 45
22 49 44
22 48 43
22 48 44
22 48 44
23 49 45
23 49 45
22 48 43
22 48 43
21 47 43
22 48 43
23 50 45
22 47 43
22 48 43
22 48 44
22 47 43
21 47 42
22 48 43
22 48 44
22 47 43
22 48 43
22 48 44
22 49 45
22 49 44
22 49 44
22 49 44
22 48 43
22 48 43
22 49 44
22 48 44
22 48 43
23 50 46
22 49 44
23 51 46
22 48 43
22 48 43
23 50 45
22 49 44
21 47 43
21 45 41
20 45 41
21 45 41
21 46 42
21 47 43
21 45 41
21 46 42
21 46 42
20 45 41
22 49 44
21 46 42
21 46 42
22 48 43
21 46 42
22 48 43
21 46 42
20 45 41
21 46 42
21 46 42
21 46 42
21 46 42
22 47 43
22 48 44
22 48 44
22 48 44
21 46 42
22 49 44
21 47 43
21 46 42
22 48 43
22 48 43
21 47 43
21 47 42
21 46 42
21 46 42
22 48 43
22 48 43
21 46 42
22 48 44
21 46 42
21 47 42
22 48 44
22 47 43
22 47 43
21 46 42
22 48 43
21 47 43
22 47 43
22 48 44
21 46 42
21 46 42
22 48 43
22 48 43
21 46 42
21 46 41
22 49 44
22 48 43
22 47 43
21 47 43
21 46 42
21 47 42
22 49 44
21 46 42
22 48 44
22 47 43
21 46 42
21 47 42
22 47 43
21 46 42
20 45 41
21 45 41
19 43 39
19 43 39
18 41 38
18 39 36
17 39 37
20 37 34
90 85 78
108 100 91
109 99 90
124 112 101
144 128 115
159 141 125
170 150 134
169 148 131
176 153 136
197 99 64
205 97 55
200 94 53
207 97 55
205 96 55
199 93 53
203 95 54
191 89 50
181 87 52
151 130 113
36 53 48
21 46 41
21 47 42
21 46 42
21 46 42
22 48 43
21 46 42
22 48 43
22 48 43
22 48 44
22 48 44
22 48 44
22 47 43
22 48 44
22 47 43
22 47 43
22 47 43
22 48 43
21 47 43
22 48 44
22 48 43
21 46 42
22 49 45
23 50 45
22 48 44
22 48 44
22 49 44
22 47 43
22 48 44
22 48 43
22 47 43
22 49 44
22 48 44
22 49 44
22 49 44
22 48 43
22 49 44
21 47 42
23 50 45
22 48 43
21 47 43
22 48 44
22 48 43
22 49 44
22 48 44
22 47 43
23 50 45
22 48 43
22 49 45
22 48 43
22 48 44
23 50 46
22 49 44
22 48 43
23 50 45
23 50 45
22 49 45
22 47 43
22 48 44
22 48 44
23 50 46
22 49 45
22 49 44
22 48 44
23 50 45
22 48 44
22 48 44
22 48 44
21 47 42
23 50 45
22 48 43
22 48 43
22 48 44
23 49 45
22 49 44
22 48 43
23 50 45
22 49 44
22 48 43
22 47 43
22 49 44
23 50 45
22 47 43
23 50 45
22 49 44
22 49 44
22 49 45
22 49 45
22 49 44
21 47 42
22 49 45
22 49 44
23 50 45
22 49 45
22 49 44
22 49 44
22 49 44
23 50 45
23 50 45
22 47 43
22 48 43
22 48 43
22 48 44
20 45 41
21 46 42
21 47 43
22 48 43
21 47 43
21 46 42
21 47 42
22 48 44
21 47 42
21 47 43
21 47 43
20 45 41
21 46 42
21 46 42
22 48 44
21 46 41
20 45 41
20 45 41
21 45 41
21 46 42
21 47 43
21 46 42
21 45 41
21 46 42
21 47 42
22 48 43
21 46 42
21 46 42
22 47 43
21 47 42
21 47 43
22 48 43
21 46 41
21 46 42
21 47 43
22 48 44
22 48 43
21 47 43
22 49 44
21 47 43
20 45 41
21 47 42
21 47 43
22 48 43
21 47 43
22 47 43
21 46 42
21 47 43
22 49 44
21 47 43
21 47 43
21 46 42
21 46 41
22 48 44
22 48 43
21 46 42
22 48 44
21 46 42
21 47 43
22 48 43
21 46 42
22 47 43
21 47 43
21 47 43
21 47 43
22 47 43
22 47 43
21 47 42
21 46 41
21 46 42
19 43 39
20 43 40
19 42 38
18 41 38
17 39 36
17 37 35
15 35 33
14 32 31
64 64 58
86 81 73
91 86 79
104 96 87
123 111 100
128 115 102
145 129 115
149 132 117
159 139 122
181 93 60
180 84 48
182 85 48
188 88 50
186 87 49
188 88 49
183 85 48
169 79 44
163 82 51
95 85 73
21 46 42
21 46 41
21 47 42
22 47 43
21 46 42
21 45 41
22 47 43
22 47 43
21 46 42
21 46 42
22 48 43
23 50 45
22 49 44
22 48 43
21 47 43
22 48 43
21 47 42
22 48 44
22 47 43
22 47 43
22 48 43
22 49 44
22 49 44
22 47 43
22 48 44
21 46 42
22 48 44
22 47 43
22 48 44
23 49 45
23 50 46
22 48 43
22 48 44
22 49 45
22 49 44
22 48 43
22 48 44
22 48 43
23 50 45
22 49 44
23 50 45
22 48 43
22 47 43
23 50 45
22 49 44
22 48 43
22 48 43
21 47 42
22 48 43
22 47 43
22 48 43
22 47 43
22 48 43
22 49 45
22 47 43
22 48 43
22 48 43
22 49 44
22 47 43
22 48 43
22 48 44
23 50 45
23 49 45
21 47 42
22 48 44
22 48 44
22 48 44
22 48 44
22 49 44
23 49 45
22 49 44
22 49 44
21 47 43
23 50 45
22 49 44
23 49 45
21 47 43
22 48 44
22 47 43
22 49 44
22 49 44
22 48 44
22 49 44
22 48 44
22 49 44
23 50 45
23 50 45
22 48 43
22 48 43
21 47 42
22 48 44
22 48 43
22 48 43
22 48 44
22 47 43
22 48 44
22 48 43
22 49 44
23 50 45
22 49 44
23 50 45
23 50 45
23 51 46
22 48 44
21 47 43
21 47 43
21 47 42
21 46 42
22 48 43
21 47 42
21 47 43
21 47 43
21 47 43
22 48 43
22 48 44
21 47 43
21 46 42
22 48 43
21 45 41
22 47 43
22 47 43
21 45 41
21 47 43
22 48 44
21 46 42
21 47 42
21 47 43
21 47 43
22 48 44
22 48 43
21 46 42
21 47 43
21 47 43
21 46 42
21 46 42
22 47 43
21 46 42
21 46 42
20 45 41
21 46 42
22 48 43
21 47 43
22 48 43
21 46 42
22 48 44
21 46 42
21 47 43
22 48 44
21 46 42
21 46 42
21 47 43
20 45 41
21 47 42
21 46 42
21 46 42
22 47 43
21 47 43
22 49 44
21 47 42
21 46 41
22 47 43
22 48 43
21 47 43
22 48 43
22 48 44
21 45 41
22 48 44
22 49 44
22 47 43
22 47 43
21 47 42
21 46 41
21 45 41
20 44 40
20 43 39
18 41 38
17 38 36
17 38 36
15 36 34
14 32 31
14 32 31
18 31 29
75 72 65
75 72 64
78 74 66
90 84 75
108 98 88
118 106 94
128 114 100
140 123 108
160 84 56
168 79 44
168 79 44
171 80 45
163 76 42
166 77 43
164 77 42
146 69 38
119 68 47
43 55 49
21 45 40
21 46 41
21 46 41
21 46 41
22 47 42
21 47 42
21 46 42
21 47 42
22 47 42
22 48 43
22 48 43
23 49 45
21 47 42
22 47 43
22 48 43
21 47 42
22 47 43
22 48 44
21 47 42
22 48 43
22 49 44
22 48 43
22 49 44
22 49 44
22 48 44
23 50 45
22 49 44
22 49 44
22 47 43
22 47 43
22 47 43
22 49 44
22 48 44
22 48 44
22 49 44
22 48 43
22 47 43
22 48 43
22 47 43
22 48 43
22 48 44
22 48 43
22 48 44
22 48 43
22 49 44
22 49 44
22 49 44
22 48 44
22 48 44
22 48 43
22 49 45
22 47 43
23 51 46
22 49 44
22 49 44
22 48 43
23 49 45
22 48 44
22 48 43
22 48 44
21 46 42
22 48 44
22 48 44
23 51 46
22 48 44
22 47 43
22 49 44
23 50 45
22 49 44
22 49 44
23 49 45
23 50 45
23 50 45
22 49 44
22 49 44
22 48 43
22 49 44
22 49 44
22 48 43
22 48 44
22 49 45
22 48 44
21 47 42
22 49 44
22 49 44
22 48 43
23 50 45
22 49 44
22 48 44
23 50 45
23 49 45
23 50 45
22 48 44
21 47 42
22 49 44
22 48 44
22 48 43
22 49 44
22 49 44
23 50 46
22 48 43
22 49 44
23 49 45
21 47 42
21 46 42
21 46 42
21 47 43
21 47 42
21 45 41
21 46 42
21 46 41
20 45 41
21 47 43
21 46 42
21 47 43
21 47 42
21 46 42
21 47 43
21 46 42
21 47 43
21 46 42
21 47 43
21 47 43
22 48 43
22 48 44
21 46 42
22 48 43
21 45 41
21 46 42
21 46 41
21 46 42
21 47 43
21 46 42
21 46 42
22 48 44
22 49 44
21 47 43
22 47 43
21 47 43
21 46 42
21 47 42
22 48 43
21 47 43
21 47 42
21 47 42
22 49 44
21 47 42
21 46 42
21 47 42
21 47 43
21 46 42
22 48 44
21 47 43
22 49 44
21 47 42
21 46 42
21 45 41
21 46 42
22 48 44
22 48 43
22 47 43
21 46 42
21 47 43
21 47 42
21 46 42
21 47 43
21 46 42
22 48 44
20 45 41
21 46 42
21 47 42
21 46 42
21 46 42
20 44 40
19 41 38
18 40 37
17 38 35
15 34 32
14 32 31
14 31 30
14 32 31
13 29 28
26 35 32
68 66 58
63 62 55
63 62 54
65 63 55
81 74 64
102 92 81
119 104 90
131 64 37
131 62 34
136 64 36
140 65 36
130 61 33
136 64 35
126 59 32
108 52 28
60 50 42
21 46 41
21 45 40
21 45 41
21 46 41
21 46 41
22 47 42
21 46 41
22 47 42
21 45 41
22 47 42
21 47 42
21 46 42
22 48 44
21 46 42
22 48 43
22 48 43
22 48 43
22 48 44
22 49 44
22 48 43
21 46 42
22 47 43
22 48 44
21 47 42
22 48 43
22 49 44
22 48 43
23 49 45
22 48 43
21 47 43
22 47 43
22 47 43
22 47 43
22 48 44
21 47 43
22 49 44
22 48 43
22 48 44
22 48 44
22 48 43
21 47 42
22 48 43
22 48 44
22 48 43
23 50 45
22 49 44
22 49 45
22 48 44
22 49 44
22 48 43
22 48 43
22 48 43
22 48 43
22 48 44
21 47 42
22 48 44
22 48 43
23 49 45
23 50 45
22 48 43
23 50 45
22 49 44
22 49 44
22 49 44
22 48 44
22 48 43
22 48 43
22 49 44
22 48 43
22 47 43
21 47 42
22 49 44
22 49 44
22 49 44
22 49 44
22 48 44
22 48 43
22 49 45
22 48 44
23 49 45
22 48 43
22 49 44
22 49 44
23 51 46
22 48 44
22 47 43
21 47 42
22 48 44
22 49 44
22 49 44
22 48 43
23 50 45
22 48 43
22 48 43
21 47 43
23 50 45
22 49 44
22 49 44
23 50 45
23 49 45
22 48 44
22 48 44
22 49 44
22 48 43
22 48 44
21 47 43
21 47 43
22 48 44
21 47 43
21 47 42
21 46 42
21 46 42
21 46 42
21 47 42
21 46 42
22 48 43
21 46 42
21 47 43
21 47 43
21 46 42
21 46 42
21 46 42
21 47 43
21 46 42
21 47 43
21 46 42
21 47 43
22 48 43
22 48 44
21 46 42
21 45 41
20 45 41
21 46 42
21 46 42
22 48 44
21 46 42
22 48 44
21 47 42
22 48 44
21 46 42
22 47 43
21 46 42
21 47 43
21 47 43
21 46 42
21 47 43
22 48 43
21 47 43
21 46 42
22 48 44
22 48 43
21 46 42
21 46 41
22 48 44
22 47 43
21 47 42
22 47 43
21 46 42
21 46 42
21 46 42
22 48 43
21 47 42
21 47 43
21 47 43
21 46 42
21 46 42
21 46 41
21 46 42
22 49 44
21 46 42
22 47 43
21 45 41
20 45 40
21 46 41
20 44 40
19 42 38
18 41 38
17 38 36
14 33 31
14 32 30
13 30 29
13 31 30
12 28 27
12 28 27
39 43 39
40 45 37
44 47 39
39 43 33
47 49 41
56 54 44
79 68 57
97 46 25
100 48 26
104 50 27
107 51 27
93 45 24
96 47 25
78 39 21
47 36 27
20 42 37
20 44 39
20 42 38
21 45 40
21 46 41
21 46 41
22 48 43
22 47 43
21 46 42
21 47 42
21 46 42
22 47 42
21 46 41
21 47 42
22 47 43
22 48 43
22 49 44
22 48 44
22 47 43
21 46 42
22 48 43
22 48 43
21 47 42
22 47 43
22 48 43
22 48 43
22 47 43
22 49 44
22 47 43
22 48 44
22 48 44
22 48 43
22 48 43
21 47 43
21 46 42
22 48 44
22 49 44
22 48 44
22 47 43
22 48 43
22 48 44
22 48 43
22 48 44
22 48 44
22 48 44
22 48 43
22 48 43
21 47 43
22 48 44
22 48 44
23 50 45
22 48 43
22 48 44
22 48 44
21 47 42
22 49 44
23 50 45
22 48 43
22 48 44
22 48 44
23 49 45
22 47 43
22 49 44
22 48 43
23 50 45
22 48 43
23 50 45
22 48 44
22 48 43
22 49 44
22 49 44
23 50 45
23 50 45
22 47 43
23 50 45
22 49 44
22 48 43
22 48 44
22 48 43
22 49 44
22 47 43
22 47 43
22 48 44
22 49 44
23 49 45
23 51 46
23 51 46
22 48 43
21 47 43
22 49 44
23 49 45
23 51 46
22 48 43
23 50 45
22 48 43
22 48 44
23 50 45
22 48 44
22 48 44
22 48 44
22 48 44
22 49 44
22 48 43
22 49 44
22 48 44
21 47 43
21 46 42
21 46 42
22 48 43
21 47 42
21 47 43
21 47 43
21 47 43
21 47 43
21 46 42
21 46 42
22 48 44
21 47 43
21 47 43
21 47 43
21 47 43
22 47 43
20 45 41
21 46 42
22 47 43
21 46 42
21 46 42
21 46 42
21 46 42
21 47 43
22 48 43
21 47 42
22 48 43
20 45 40
21 47 43
21 47 43
22 47 43
22 48 44
21 46 42
21 46 42
21 47 43
22 48 43
21 47 43
22 48 44
21 45 41
21 46 42
21 46 42
21 46 42
21 47 42
21 47 42
22 48 43
21 47 43
21 47 43
22 47 43
21 47 43
21 46 42
21 46 42
21 47 43
22 48 43
21 46 42
21 47 43
21 46 42
22 48 43
20 45 41
21 46 42
21 46 42
22 48 43
21 46 41
21 47 43
21 47 42
21 47 43
21 46 41
21 46 42
21 47 42
21 47 42
20 45 41
20 44 40
19 41 38
17 38 35
16 36 34
15 33 31
13 31 30
13 30 29
13 30 28
12 28 27
11 24 23
13 24 21
26 34 26
34 38 28
36 40 30
56 52 38
37 31 20
46 26 12
58 30 15
53 28 13
49 27 13
47 26 12
44 25 13
24 27 22
17 36 32
19 40 36
20 44 38
21 45 40
21 45 40
21 44 40
20 43 39
21 45 41
21 46 42
22 47 43
21 45 41
22 47 42
22 48 43
21 46 42
22 47 43
21 47 42
22 47 43
22 48 44
21 47 42
21 47 42
21 47 42
22 49 44
22 48 44
22 47 43
22 48 43
22 48 44
22 48 43
22 48 43
22 48 44
22 49 44
22 47 43
22 48 43
22 49 44
21 47 42
22 48 44
22 48 44
23 49 44
22 48 43
22 48 43
22 48 43
22 49 44
22 48 44
22 49 44
23 50 45
22 48 44
23 51 46
22 48 43
22 49 44
22 49 44
23 50 45
22 47 43
21 46 42
22 48 44
22 49 44
22 48 44
23 49 45
22 49 44
22 49 44
23 50 45
23 50 45
22 48 44
22 49 44
22 48 44
22 49 44
23 50 45
22 48 44
22 48 44
23 49 45
22 48 44
22 49 44
22 49 44
22 47 43
22 49 45
21 47 42
22 47 43
22 49 44
22 48 44
22 48 43
23 49 45
22 49 44
22 49 44
23 50 45
22 48 44
22 48 44
23 49 45
22 49 44
22 48 44
22 48 43
22 49 44
23 50 45
23 50 45
22 48 44
22 48 43
23 49 45
21 47 42
21 47 42
22 49 44
22 48 44
22 48 44
22 49 44
22 48 44
22 49 44
24 52 47
22 48 43
22 49 44
22 49 44
21 47 43
21 47 42
21 46 42
21 47 43
21 47 43
21 46 42
21 46 42
21 46 42
21 46 42
21 46 42
21 46 42
21 46 42
22 48 43
21 46 42
21 46 42
21 46 42
22 47 43
21 46 42
21 47 42
22 48 43
22 47 43
21 47 43
21 46 42
21 46 42
21 47 43
21 47 43
22 47 43
22 47 43
21 47 43
21 47 43
21 46 42
22 48 44
21 46 41
20 45 41
21 47 42
22 48 43
20 45 41
22 49 44
21 47 43
22 48 43
22 48 43
21 47 42
21 46 42
22 47 43
21 46 42
21 45 41
21 46 42
21 45 41
22 48 43
21 46 42
22 49 45
21 46 42
22 48 43
21 46 42
21 47 42
21 47 43
22 47 43
22 48 43
21 46 42
21 46 41
21 47 42
21 47 42
22 47 43
21 46 41
21 46 42
21 46 41
22 47 43
21 46 42
22 48 43
21 46 42
21 45 41
21 45 41
21 45 41
18 41 37
18 40 36
16 37 34
14 32 30
13 30 29
12 28 27
12 27 26
10 24 22
10 22 21
10 21 19
21 26 21
31 33 24
39 34 23
41 23 11
33 21 10
46 24 11
44 24 11
38 22 11
18 17 13
16 24 22
14 31 27
17 37 33
19 40 35
19 41 37
21 44 39
21 46 41
21 45 41
22 47 42
22 47 42
21 46 41
21 47 42
21 45 41
21 46 41
21 46 41
21 46 41
22 48 43
22 49 44
22 47 42
23 49 45
22 49 44
22 47 43
22 48 43
22 49 44
22 47 42
22 47 42
22 48 44
22 48 43
22 49 44
22 48 44
22 49 44
23 49 45
22 47 43
22 49 44
22 48 44
22 47 43
23 50 45
21 47 42
22 49 44
22 48 43
22 48 44
22 49 44
22 48 44
22 49 44
22 48 44
22 47 43
21 46 42
22 49 44
22 49 44
21 47 43
22 49 44
22 49 44
22 49 44
22 48 44
22 49 45
22 49 44
23 50 45
22 48 44
22 48 43
23 49 45
22 48 43
22 49 44
22 49 44
22 48 43
22 48 43
22 48 43
22 48 44
22 48 44
23 50 45
22 48 43
21 47 42
22 49 44
22 48 44
22 48 44
22 48 44
22 49 44
22 48 44
22 48 43
23 50 45
22 49 44
22 49 44
22 48 43
23 50 45
23 51 46
22 48 44
22 48 43
23 50 46
23 50 45
23 50 45
23 50 45
22 48 44
22 48 44
22 48 43
22 49 44
22 47 43
23 50 45
23 51 46
23 50 46
22 49 44
22 48 44
22 48 44
22 47 43
22 48 43
23 50 45
22 48 44
22 48 43
22 49 44
22 48 43
21 47 43
21 47 43
21 47 43
21 47 43
21 45 41
21 47 43
21 47 42
22 48 44
21 47 43
21 47 42
21 46 42
22 48 43
20 44 40
21 46 42
21 46 42
21 47 42
21 46 42
22 48 44
21 46 42
22 49 45
21 46 42
22 48 43
21 46 42
21 47 43
22 48 44
21 47 43
21 47 43
21 47 43
21 47 42
22 47 43
21 46 42
21 47 43
21 45 41
21 46 42
21 46 42
21 47 43
22 47 43
22 48 44
22 47 43
22 49 44
22 48 44
22 49 44
21 46 42
21 47 43
22 48 43
21 46 41
22 47 43
21 46 42
22 48 44
22 49 45
22 47 43
21 47 43
21 46 41
21 47 43
21 46 42
21 47 43
21 47 42
30 51 46
72 77 69
106 102 92
122 115 104
100 97 88
68 72 65
22 47 43
23 50 45
21 46 42
22 47 43
20 45 40
20 45 40
21 46 42
21 47 42
21 47 42
20 45 40
20 43 39
19 41 37
18 41 37
17 37 33
15 34 32
13 30 28
11 25 23
11 26 24
11 25 24
10 23 21
8 19 18
7 17 15
14 16 14
15 15 13
20 16 13
26 16 11
14 13 11
7 15 14
11 24 21
15 33 29
17 37 32
19 41 36
20 43 38
22 46 41
21 45 39
21 46 40
20 44 40
21 44 40
20 44 40
22 47 42
22 47 42
21 46 42
21 47 42
22 47 42
22 48 43
22 48 43
21 47 42
22 47 43
22 47 42
22 48 43
22 49 44
22 48 44
21 47 42
22 48 43
21 47 42
21 46 42
23 49 44
23 49 45
23 50 45
22 49 44
21 47 42
21 47 42
22 49 44
22 48 43
23 49 45
22 48 44
22 49 44
22 48 44
22 49 44
22 48 43
23 50 45
21 47 42
22 49 44
22 49 44
22 48 44
23 50 45
22 49 44
22 49 44
23 50 45
22 48 43
22 49 44
22 49 44
22 49 44
23 50 45
22 48 43
22 48 44
22 49 44
22 47 43
23 50 45
21 47 42
23 50 45
22 48 43
22 49 44
22 49 44
22 48 43
22 49 44
23 49 44
22 47 43
22 47 43
22 48 44
22 49 44
22 48 44
22 48 44
23 50 45
22 49 44
22 49 45
22 48 44
23 49 45
22 48 44
23 49 45
22 48 44
22 49 44
22 49 44
22 48 43
22 49 44
22 48 44
22 48 44
22 48 43
22 49 44
23 50 45
22 49 44
23 50 45
23 51 46
22 48 44
22 49 44
22 49 44
22 48 44
22 48 44
22 48 44
22 49 44
23 50 45
22 48 44
22 48 43
23 49 45
23 49 45
23 50 45
23 50 46
21 46 42
22 49 45
21 46 42
21 47 43
21 46 42
20 45 41
22 48 43
22 48 43
21 46 42
21 47 43
21 46 42
22 48 43
22 48 44
21 45 41
21 46 42
22 47 43
21 47 43
22 48 44
21 46 42
22 48 44
21 46 42
21 47 42
22 48 44
22 47 43
21 47 43
21 46 42
21 47 43
22 48 43
21 46 42
22 48 44
22 48 43
22 48 44
21 47 42
22 47 43
21 47 43
21 47 43
22 48 44
22 48 44
22 48 43
21 47 42
21 47 43
22 48 43
21 45 41
21 47 43
22 47 43
21 47 43
21 47 42
21 46 41
22 48 44
21 47 42
21 47 43
21 46 42
21 47 42
21 46 42
22 48 43
101 98 89
160 146 134
213 191 175
229 204 187
234 208 190
237 211 192
239 213 193
240 212 192
214 190 172
172 154 138
55 65 59
21 46 41
21 47 43
21 46 42
22 47 42
21 45 41
21 45 41
21 45 40
21 46 41
20 45 40
20 44 40
19 42 38
19 42 38
18 39 35
16 35 32
15 33 31
12 28 25
11 25 23
11 25 23
11 24 22
11 24 22
9 21 19
10 23 20
11 25 22
13 29 26
15 32 28
18 37 33
19 40 35
20 43 38
20 42 37
20 44 39
21 45 39
21 45 40
21 45 40
21 46 42
21 45 40
21 45 40
22 47 42
22 47 42
22 47 42
22 48 43
22 48 43
22 47 43
22 49 44
22 48 43
22 47 43
23 49 45
22 48 43
22 48 44
22 48 43
22 48 43
22 48 43
22 48 43
22 48 43
23 50 45
22 48 44
23 51 46
22 48 43
22 48 43
22 47 43
22 48 44
22 49 44
22 47 43
23 50 45
22 48 43
22 48 43
23 49 44
23 49 44
22 48 44
22 49 44
22 47 43
22 48 44
22 49 44
22 48 43
23 50 45
22 49 44
22 48 43
22 49 44
22 49 44
23 50 45
23 50 45
22 47 43
22 48 44
22 48 43
22 49 44
22 49 44
22 49 44
22 49 44
23 49 45
22 49 44
22 48 43
22 48 44
21 47 42
23 50 45
22 48 44
22 48 44
23 49 44
22 48 43
22 48 43
22 49 44
23 50 45
22 49 44
22 48 43
22 49 44
22 48 44
22 48 44
22 49 44
22 48 43
22 48 43
22 48 43
22 48 43
22 48 43
23 50 46
23 49 45
22 49 44
22 49 44
22 49 44
22 49 44
22 49 44
22 49 44
23 49 45
23 49 45
22 48 44
23 50 45
22 48 43
21 47 43
22 48 44
22 49 44
21 47 43
22 48 43
23 49 45
23 50 45
22 47 43
23 51 46
22 49 44
21 46 42
21 47 43
22 48 44
22 48 44
21 47 43
21 47 43
21 47 43
22 48 44
21 47 42
22 47 43
21 47 43
21 46 42
21 46 42
21 47 43
22 48 43
21 47 42
21 47 43
21 45 41
21 47 43
22 48 44
21 46 42
21 46 41
21 46 42
22 48 43
22 48 43
22 47 43
22 48 44
21 47 43
21 47 43
21 46 42
21 46 42
21 47 43
21 46 42
21 47 43
22 48 44
21 47 43
21 47 43
22 47 43
21 47 42
21 47 43
21 46 42
21 46 42
21 47 42
21 47 43
21 47 43
22 48 43
21 46 42
21 47 42
21 46 42
21 46 42
21 47 42
22 47 43
22 48 43
59 68 62
160 146 134
213 191 176
224 201 184
228 205 188
232 208 191
236 211 193
239 214 195
241 215 196
244 217 197
245 218 198
247 218 197
237 209 188
157 141 127
26 48 44
21 46 42
22 47 43
22 47 43
21 47 42
21 46 42
21 46 41
21 45 40
20 44 40
20 44 40
21 45 40
20 43 39
20 43 38
19 42 38
18 39 35
19 41 36
17 38 33
18 40 35
18 38 34
18 39 34
17 37 32
18 39 34
19 40 35
20 42 37
20 43 38
20 42 37
20 41 36
20 43 38
20 43 39
22 46 41
20 43 39
21 45 40
21 45 41
22 47 42
22 47 42
21 46 41
21 46 42
21 47 42
21 46 41
21 46 42
22 48 43
22 47 43
22 49 44
22 49 44
22 49 44
22 48 44
22 48 43
22 49 44
22 48 43
22 47 42
23 49 45
22 47 43
22 49 44
21 47 42
22 48 43
22 48 44
22 49 44
22 49 44
22 48 43
23 49 45
23 50 45
22 49 44
22 48 44
23 50 45
23 49 44
22 48 43
22 49 44
23 50 45
22 49 44
22 49 44
22 48 43
23 50 45
23 51 46
23 50 46
23 50 46
22 48 43
22 48 44
22 47 43
22 49 44
22 48 43
23 50 45
22 49 44
22 48 44
23 50 45
22 49 44
22 48 43
23 50 45
22 49 44
22 49 44
22 49 44
22 47 43
22 47 43
22 49 44
22 48 44
23 49 45
21 47 43
22 48 44
22 48 44
22 48 44
22 49 44
21 47 42
22 49 44
22 47 43
23 51 46
22 48 43
23 51 46
22 49 44
23 50 45
23 50 46
22 47 43
23 50 45
22 49 44
22 49 44
22 47 43
22 49 44
22 49 44
23 50 45
23 50 45
23 51 46
23 49 45
24 52 47
22 48 44
22 48 43
23 50 45
23 50 45
23 50 45
22 48 44
22 49 44
22 49 44
22 49 44
23 50 45
22 48 44
23 49 45
21 47 42
21 45 42
21 47 43
21 47 42
21 47 43
22 48 43
21 47 43
21 47 43
21 46 42
22 48 44
22 49 44
21 46 42
21 47 42
22 48 43
21 47 43
21 47 43
21 46 42
21 47 42
21 46 42
22 47 43
21 47 42
21 47 43
21 46 42
23 49 45
22 48 43
21 47 43
21 47 43
22 48 44
21 47 42
22 48 44
21 47 42
21 47 43
21 47 43
22 47 43
21 47 42
22 48 43
22 47 43
21 46 42
21 46 42
22 48 44
22 49 44
21 46 42
22 48 44
22 48 44
22 47 43
22 48 43
21 47 42
21 47 43
22 48 44
22 48 43
21 46 42
21 47 43
76 79 73
179 163 151
213 192 177
220 198 183
225 202 186
230 206 189
234 209 192
237 212 194
240 214 196
243 216 197
245 218 198
247 219 199
248 220 199
249 220 198
245 216 194
180 160 144
27 48 43
22 47 43
22 48 43
22 49 44
22 47 43
21 47 42
21 45 41
21 45 41
21 46 41
21 45 40
22 48 43
21 46 41
21 44 40
20 44 39
21 45 40
20 43 38
20 44 39
20 44 39
21 44 39
20 43 38
20 43 39
20 43 38
19 42 37
20 43 38
21 44 40
21 46 41
21 44 39
22 46 41
21 45 41
20 44 40
21 45 40
21 46 41
21 46 41
22 47 43
22 48 43
22 46 41
21 46 41
22 48 44
22 48 43
22 48 43
22 48 43
22 48 43
22 48 43
22 47 43
22 49 44
22 49 44
22 49 44
21 47 42
22 48 43
22 48 43
22 48 43
22 49 44
22 47 43
22 48 43
21 46 41
22 49 44
22 49 44
22 48 44
23 49 45
23 50 45
22 48 44
22 47 43
22 48 43
22 49 45
22 47 43
22 48 44
21 47 42
22 48 44
22 49 44
23 50 45
23 50 45
22 48 44
23 50 45
22 48 44
22 49 44
22 49 44
22 49 44
22 47 43
22 49 44
22 47 43
23 50 45
21 47 42
22 49 44
23 50 45
23 50 45
23 50 45
23 49 45
23 50 45
23 49 45
23 49 44
22 48 44
22 49 44
22 49 44
23 50 45
23 50 45
22 49 44
23 50 45
22 48 43
22 49 44
22 47 43
23 49 45
22 47 43
23 49 45
22 48 43
22 48 44
22 48 43
23 50 46
22 49 44
23 50 45
23 50 46
23 50 45
23 50 45
22 49 44
23 49 45
23 51 46
22 48 43
23 50 45
22 49 44
22 48 44
22 49 44
22 48 43
22 47 43
22 49 44
23 49 45
23 50 45
22 49 44
23 50 45
23 49 45
23 51 46
23 49 45
22 49 44
23 50 46
21 46 42
21 46 42
21 46 42
22 47 43
21 46 42
21 47 43
22 48 43
22 48 44
22 48 43
22 48 44
21 47 42
21 46 42
22 48 44
21 46 42
21 47 42
21 46 42
22 48 44
21 47 43
22 49 45
21 47 42
21 46 42
22 48 43
21 47 43
22 48 43
22 48 44
22 48 43
22 49 45
22 49 45
21 47 42
21 46 42
21 47 43
22 48 43
21 46 42
21 47 42
21 47 43
21 46 42
22 49 44
22 49 45
21 47 42
22 48 43
22 48 44
21 45 41
22 47 43
22 47 43
22 48 43
21 47 43
21 47 43
23 50 45
22 48 43
22 47 43
21 47 43
53 63 58
180 163 151
208 187 173
217 195 179
221 199 183
226 203 187
230 207 190
234 210 192
237 212 194
240 214 196
243 217 198
245 218 199
247 219 199
249 220 200
250 221 200
249 220 198
243 213 192
173 154 138
21 45 41
21 47 42
21 46 42
21 46 42
21 45 41
21 47 42
21 46 42
21 45 41
21 45 40
21 45 40
22 47 43
22 47 42
20 44 39
20 44 40
20 44 39
21 45 40
21 46 41
20 44 39
21 45 40
21 44 39
21 46 41
21 45 40
20 43 38
21 45 40
21 45 40
22 46 41
21 45 40
22 46 41
21 44 40
21 45 41
21 46 42
22 46 42
23 49 44
22 47 42
21 47 42
22 48 43
22 49 44
22 47 43
22 47 43
21 46 41
22 47 43
22 48 44
23 49 45
22 47 42
22 48 43
22 48 43
22 49 44
22 48 43
22 48 43
23 49 44
22 48 43
22 48 44
22 48 43
23 50 45
23 49 45
22 49 44
21 47 43
22 49 44
22 48 43
22 48 44
22 49 44
22 48 43
22 48 44
22 48 43
22 49 44
22 48 44
23 50 45
23 49 45
23 50 46
22 49 44
23 50 45
22 48 43
22 49 44
21 47 43
22 49 44
22 49 44
23 50 45
22 48 43
22 48 44
23 50 45
22 48 43
22 49 44
23 50 45
22 49 44
22 48 43
22 49 44
22 48 43
23 51 46
22 48 44
22 49 44
23 50 45
22 49 45
22 48 44
22 48 43
23 50 45
22 48 43
23 50 45
22 49 44
22 49 44
22 48 43
22 48 44
22 49 44
22 48 43
22 49 44
23 50 45
22 48 44
22 49 44
22 48 43
22 49 44
22 49 44
23 50 45
22 49 44
22 48 43
22 49 44
22 47 43
22 49 44
23 50 45
22 48 44
21 46 42
22 49 45
22 48 43
22 48 43
23 50 45
23 49 45
22 48 44
23 50 45
23 50 45
22 49 44
22 48 43
21 47 42
22 48 43
21 47 43
21 46 42
21 46 42
21 47 43
21 47 43
21 46 42
21 47 43
21 46 42
21 45 41
21 46 42
21 46 42
21 46 42
21 47 43
21 47 43
22 48 44
21 47 43
22 48 44
22 48 43
21 47 42
22 47 43
22 48 43
21 46 42
22 48 43
21 47 43
22 48 44
22 48 44
22 47 43
21 46 42
21 47 43
21 47 43
21 46 42
21 47 43
22 47 43
22 48 43
22 47 43
22 48 44
22 48 43
22 48 43
21 47 43
21 47 43
22 48 43
22 49 45
23 50 46
21 46 42
21 47 43
22 47 43
21 47 42
22 47 43
21 47 43
22 48 43
22 47 43
138 127 118
195 176 163
209 189 174
216 195 180
222 199 184
226 203 187
230 206 189
234 209 192
237 212 194
240 214 196
243 216 197
245 218 199
248 220 199
249 221 200
249 221 200
250 221 199
245 216 193
236 207 185
94 89 80
22 48 43
22 48 44
21 46 41
21 46 42
21 47 42
21 47 42
21 46 41
22 47 43
21 45 40
22 47 42
21 46 42
22 47 42
21 45 40
20 44 40
21 45 41
22 47 42
22 47 42
21 45 40
21 45 40
21 46 41
22 46 41
22 48 43
21 45 40
21 46 41
22 47 42
21 46 41
22 47 42
21 45 40
22 48 43
22 48 43
22 47 42
21 46 42
22 47 42
23 49 44
22 47 43
22 47 43
22 47 43
21 46 42
22 48 44
23 49 44
23 50 45
23 49 44
23 49 44
21 46 42
22 48 43
23 49 44
22 47 43
23 50 46
22 49 44
22 48 43
21 47 42
22 48 43
22 49 44
22 48 44
23 49 45
22 49 44
22 48 44
22 49 44
22 48 43
23 50 45
22 49 45
22 48 43
22 48 44
21 47 42
23 50 45
22 48 44
22 49 44
22 49 44
23 51 46
23 50 45
23 49 45
23 50 45
22 48 43
22 49 44
22 49 45
22 49 44
23 50 45
22 48 44
22 48 43
22 47 43
22 49 44
22 49 45
23 50 45
21 47 43
23 51 46
23 49 45
22 47 43
22 48 43
22 49 44
22 49 44
22 49 44
22 48 44
22 49 44
23 50 45
22 49 44
21 47 42
22 48 43
22 49 44
23 49 45
22 48 43
22 47 43
23 49 45
22 48 43
23 49 44
22 48 43
23 49 45
22 49 44
23 50 45
22 48 43
22 48 43
22 49 44
23 50 45
23 49 45
22 48 43
22 48 43
22 49 44
22 49 44
22 48 43
22 49 44
22 49 44
23 51 46
22 48 44
22 48 43
23 50 45
22 49 44
22 49 44
22 49 44
23 51 46
23 49 45
22 49 44
21 47 43
21 46 42
21 47 43
21 47 43
22 47 43
21 46 42
21 46 42
21 45 41
21 46 42
22 48 44
21 45 41
21 47 43
20 45 41
22 49 45
22 47 43
22 48 44
21 46 42
22 48 43
21 47 43
21 47 43
21 46 41
22 47 43
22 48 43
21 47 43
22 47 43
21 47 42
21 47 42
20 44 40
22 48 43
21 47 42
21 47 43
22 48 43
21 47 42
22 49 44
22 47 43
21 46 42
22 48 43
21 46 42
21 46 42
22 48 43
21 46 42
22 48 44
21 47 42
22 48 44
21 46 41
22 48 43
21 47 42
22 48 44
21 47 42
22 47 43
50 56 53
179 163 151
200 181 167
209 189 174
216 195 179
220 198 183
225 202 186
229 205 189
233 208 191
237 211 193
240 214 195
247 221 201
255 229 207
255 227 204
249 221 200
250 220 199
250 221 199
246 216 194
241 212 190
181 159 142
27 46 43
21 45 41
22 48 43
22 48 43
22 48 43
21 46 41
22 47 43
21 46 42
22 48 43
21 46 42
20 45 40
22 48 43
21 46 41
21 47 42
21 46 41
22 47 42
21 45 40
21 46 42
22 48 43
21 46 41
21 46 41
21 45 41
22 47 42
22 46 42
23 49 44
22 47 43
22 47 42
22 47 42
22 47 42
22 47 42
22 47 42
23 49 44
22 48 43
22 47 42
22 47 43
22 48 43
22 48 43
22 48 43
22 48 43
22 49 44
22 48 44
22 48 44
21 46 42
22 49 44
22 48 43
23 50 45
23 50 45
23 49 44
22 47 43
23 49 44
22 48 43
22 48 44
22 48 43
22 48 43
22 48 43
23 49 45
22 49 44
22 49 44
22 48 43
22 49 44
23 50 45
23 49 45
22 48 44
22 49 44
23 49 45
22 49 44
22 48 43
23 49 45
22 49 44
22 49 44
22 49 44
22 48 44
22 48 43
22 48 43
23 49 45
22 48 43
23 49 45
23 50 46
23 50 45
22 48 44
22 49 44
23 49 44
22 49 44
22 48 44
22 49 44
23 51 46
22 48 44
22 48 43
22 48 44
22 49 44
24 51 46
23 49 45
23 49 45
22 48 43
23 50 45
22 49 44
23 50 45
22 48 44
22 48 44
22 48 44
22 49 44
22 49 44
22 48 44
22 49 44
22 49 44
23 49 45
23 49 45
23 50 45
22 48 44
23 50 45
23 50 46
22 49 44
22 49 44
22 49 44
22 49 44
22 49 44
23 50 45
23 50 45
23 49 45
23 51 46
22 48 44
23 50 45
22 49 44
22 49 45
23 50 45
22 48 44
22 49 44
22 48 44
23 50 45
22 48 44
21 47 43
22 49 45
21 46 41
21 47 43
21 47 43
21 46 42
21 47 43
21 45 41
21 46 42
21 45 41
21 46 42
21 46 42
21 47 43
21 46 42
22 47 43
21 47 43
22 49 44
22 48 43
22 49 44
22 48 44
21 46 42
21 47 42
22 49 44
22 49 44
21 47 43
21 47 43
21 46 42
21 47 43
22 48 44
22 48 44
22 47 43
21 46 42
21 47 43
21 46 42
22 48 43
21 46 42
21 47 43
22 48 44
21 46 42
22 48 44
22 47 43
21 47 43
22 48 43
21 47 42
21 47 42
21 46 42
21 46 42
21 46 42
21 47 42
22 46 42
103 96 90
177 161 149
199 180 166
209 189 174
216 194 178
220 198 182
226 202 185
228 204 187
232 207 190
235 210 192
240 214 195
255 234 210
255 255 236
255 255 228
254 225 203
250 220 198
248 218 196
244 215 193
236 207 184
213 187 166
84 80 73
22 48 43
21 47 42
20 44 40
21 46 41
21 47 42
22 47 43
21 46 41
22 48 43
21 46 42
21 46 41
22 48 43
22 47 42
21 46 42
21 47 42
22 47 42
22 47 42
23 51 46
22 48 43
22 47 42
22 48 43
21 46 41
21 46 41
22 47 42
21 46 41
23 49 44
21 46 41
22 47 43
22 47 43
22 49 44
22 47 43
22 48 43
22 47 42
21 47 42
22 47 43
21 46 42
22 49 44
23 50 45
22 48 43
22 49 44
22 48 44
22 47 43
21 46 42
22 48 44
22 47 43
22 49 44
22 48 44
22 48 43
22 48 43
22 48 43
22 48 43
22 49 44
22 47 43
22 48 44
22 49 44
22 49 44
22 49 44
22 48 43
23 49 45
22 49 44
22 49 44
23 49 44
22 47 43
23 50 45
23 49 44
23 51 46
21 47 42
22 48 43
23 49 45
23 50 45
23 49 45
22 48 44
22 49 44
22 49 44
22 49 44
22 49 44
22 49 44
22 49 44
22 49 44
22 48 43
23 50 45
22 49 44
22 48 44
22 49 44
22 49 44
22 49 45
23 50 45
22 49 44
22 48 43
22 49 44
22 48 43
23 50 45
22 49 44
23 51 46
22 49 44
24 52 46
22 49 44
22 48 44
23 50 45
23 49 45
22 48 43
23 50 45
23 50 45
22 49 44
22 49 44
22 49 45
22 49 44
22 49 44
22 48 44
22 49 44
22 48 43
22 48 44
23 50 45
23 51 46
23 49 45
23 50 45
23 50 46
23 50 45
23 49 45
23 49 45
22 48 44
22 48 43
22 48 43
23 50 45
22 48 44
22 49 44
23 50 45
22 49 44
23 50 45
23 50 45
21 47 42
21 46 42
21 46 42
21 47 43
21 46 42
22 48 44
21 47 42
21 47 42
21 46 42
21 46 41
22 48 43
20 45 41
22 48 44
22 48 43
22 48 44
22 48 44
21 46 42
21 45 41
22 48 44
22 49 44
21 46 42
21 46 42
22 49 44
21 46 42
21 46 42
22 49 44
22 47 43
21 47 43
21 46 42
21 45 41
22 47 43
21 46 42
22 48 44
21 47 43
21 47 43
22 48 43
21 47 42
21 45 41
21 46 42
21 47 43
21 47 43
21 46 42
21 45 41
21 46 42
22 49 44
21 45 41
21 47 42
21 46 42
22 48 43
22 41 38
130 120 112
178 162 151
194 176 163
205 184 169
216 193 177
219 196 180
222 200 183
228 203 186
230 206 188
234 209 190
239 212 193
253 226 204
255 255 228
255 255 226
255 227 204
247 218 196
244 215 193
239 210 188
236 207 185
228 200 179
114 99 89
49 61 54
22 49 44
22 49 44
22 47 43
22 47 43
22 47 43
21 47 42
21 45 41
22 48 43
22 47 43
21 47 43
21 46 41
21 47 42
21 47 42
21 46 41
22 47 42
21 45 41
22 46 42
22 47 42
21 46 41
22 48 43
22 47 42
22 47 43
22 48 43
21 47 42
21 46 42
22 48 43
22 48 43
22 49 44
22 48 43
22 47 42
22 47 43
21 46 42
22 49 44
22 48 43
22 49 44
22 47 42
22 48 43
21 45 41
21 46 42
23 49 45
23 50 45
22 48 43
22 49 44
22 48 43
22 48 43
23 50 45
23 50 45
22 47 43
23 49 45
23 49 44
22 47 43
22 49 44
22 48 43
23 50 45
23 50 45
22 49 44
23 50 46
23 49 45
23 50 46
23 51 46
21 46 42
22 48 43
22 48 44
22 49 44
23 50 45
22 48 44
23 50 45
23 50 45
23 49 45
22 49 44
22 48 44
23 49 45
22 49 44
23 50 45
22 48 43
22 49 44
22 48 44
22 48 43
22 49 44
22 49 44
23 49 45
22 48 44
22 49 44
22 49 44
22 48 43
22 49 45
22 48 43
23 50 45
23 49 45
22 49 44
23 50 45
23 50 45
23 50 45
23 50 45
22 47 43
22 49 44
22 49 45
22 48 44
22 48 43
23 49 44
22 49 44
22 49 44
22 49 44
23 51 46
22 49 44
23 50 45
23 50 45
22 49 44
23 50 45
23 51 46
22 49 44
23 49 45
22 48 44
23 50 45
23 50 45
23 49 44
22 49 44
23 50 45
22 49 44
23 49 44
23 50 45
23 50 45
22 48 44
23 49 44
22 49 44
22 49 44
23 49 45
22 49 44
21 47 42
21 46 42
21 47 42
21 47 42
22 47 43
21 47 42
21 47 43
21 47 43
22 49 44
21 47 43
21 46 42
20 45 41
21 47 43
22 49 44
21 45 41
21 46 42
21 47 42
22 48 44
21 47 42
21 47 43
20 45 41
21 47 43
21 47 43
21 46 42
22 47 43
21 46 42
21 47 42
21 47 42
22 49 44
22 48 43
21 47 43
21 47 43
22 48 44
21 47 43
21 47 43
21 46 42
22 48 44
22 48 44
22 48 44
22 48 44
22 47 43
22 48 44
21 46 42
22 47 43
22 48 44
21 46 42
21 47 43
22 48 43
22 49 44
23 36 36
123 114 107
172 157 145
190 171 158
198 178 164
209 187 172
214 192 176
222 198 181
225 201 184
230 204 186
233 207 188
235 209 190
241 214 193
250 222 199
251 222 200
244 216 194
239 210 189
240 210 188
233 204 182
229 200 178
220 193 172
97 87 79
74 75 67
22 48 43
21 46 42
21 46 41
22 47 43
21 47 42
21 46 41
22 48 43
21 46 41
23 50 45
21 46 41
22 47 42
22 48 43
21 46 42
21 47 42
21 47 42
22 49 44
21 46 42
22 49 44
22 47 43
21 46 42
22 47 42
22 47 42
23 50 45
23 50 45
22 47 42
22 49 44
22 48 44
22 47 42
23 49 44
23 49 44
22 48 43
22 49 44
22 47 43
22 47 43
22 49 44
21 47 42
23 50 45
22 48 44
22 48 43
22 48 44
22 49 44
22 48 43
22 48 44
22 48 43
22 49 44
22 49 44
22 49 44
22 47 43
22 48 43
22 47 43
23 50 45
22 48 43
23 50 45
23 50 45
22 49 44
22 48 43
22 49 44
22 49 44
22 48 44
23 50 45
22 49 45
23 50 45
23 49 45
22 48 43
21 47 42
22 49 45
22 47 43
22 49 45
22 49 44
23 50 45
22 49 44
22 48 44
23 49 44
22 47 43
21 46 42
22 48 44
23 51 46
22 49 44
22 49 45
22 48 43
23 50 45
22 48 44
22 49 44
23 50 45
22 47 43
23 50 45
23 50 45
22 49 44
22 49 44
22 48 43
22 49 44
23 50 46
22 48 43
22 49 44
22 48 43
22 47 43
22 48 44
22 48 44
23 49 45
23 51 46
23 50 45
22 49 44
23 49 45
22 48 44
23 50 45
22 48 43
23 49 45
23 49 45
22 48 44
23 50 45
23 51 46
22 49 44
22 48 44
22 48 43
23 50 45
22 49 44
22 49 44
23 50 45
22 48 43
22 49 44
22 48 43
22 49 44
23 50 45
22 48 43
22 48 44
23 50 46
22 48 44
23 50 45
21 46 42
21 46 42
21 46 42
21 46 42
21 46 42
21 46 41
21 46 42
21 47 42
21 46 42
22 48 43
22 48 44
21 45 41
21 47 43
21 47 43
21 47 43
21 47 43
21 46 42
21 47 43
21 46 42
22 48 44
22 48 43
21 47 43
21 46 42
21 46 42
21 46 42
21 47 43
21 46 42
21 47 43
21 47 42
21 46 42
21 47 43
21 46 42
21 47 42
21 46 42
21 46 42
22 48 43
22 48 43
21 47 42
22 48 43
21 47 42
22 48 43
22 48 44
21 46 42
21 47 42
21 45 41
21 47 42
21 47 42
21 47 43
21 47 42
22 30 30
107 99 93
166 151 140
184 167 154
194 174 160
202 181 166
210 188 172
215 192 175
221 196 179
225 200 182
229 203 185
232 205 186
233 206 186
235 208 188
233 206 185
235 207 186
234 206 185
232 204 182
229 201 179
220 192 171
197 173 154
85 76 69
101 93 82
21 46 41
21 47 42
21 46 41
22 47 43
22 47 43
21 46 42
22 48 43
22 48 43
21 46 42
21 46 42
22 48 43
22 48 43
22 48 43
21 47 42
23 49 44
21 46 42
21 46 42
22 47 43
21 47 42
22 47 42
23 49 44
22 48 43
22 47 43
22 47 42
22 48 44
22 49 44
22 49 44
22 49 44
22 47 43
22 47 43
22 47 43
22 49 44
23 49 45
22 49 44
22 49 44
22 47 43
22 49 44
23 50 45
22 48 43
22 47 43
22 48 44
23 50 45
21 47 42
21 47 42
22 47 43
22 48 43
23 49 44
23 50 45
22 48 44
23 49 44
22 48 43
23 50 45
23 51 46
23 50 45
22 49 44
23 49 45
23 50 45
22 48 44
22 48 44
22 48 43
22 48 44
23 49 45
22 49 44
22 48 44
23 50 45
23 50 45
22 49 44
22 48 44
23 51 46
23 50 45
22 47 43
23 51 46
22 49 44
22 49 45
22 48 44
21 47 43
21 47 42
23 50 45
23 49 45
22 49 44
22 48 43
23 50 45
22 49 44
23 50 45
23 51 46
23 51 46
22 49 44
23 49 45
23 49 44
22 48 44
22 48 43
23 50 45
23 50 45
22 49 45
22 48 44
23 49 45
24 52 47
23 50 45
23 50 45
23 50 45
22 49 44
22 48 43
23 50 45
23 49 45
22 48 44
22 49 44
22 49 44
22 48 44
23 50 45
22 48 44
23 49 45
22 48 44
22 48 44
22 49 44
22 48 43
22 48 43
22 49 44
22 49 44
23 51 46
22 49 44
22 48 44
22 49 44
22 49 44
23 50 45
23 50 45
23 49 45
23 49 45
22 49 44
22 47 43
21 47 43
20 45 41
21 47 43
21 47 43
21 47 42
22 48 43
21 47 43
21 47 43
22 48 43
21 47 43
22 48 44
21 47 42
22 47 43
21 47 42
21 46 42
21 46 42
21 46 42
21 47 43
21 45 41
21 46 42
22 48 43
22 47 43
21 47 42
21 47 43
22 48 43
22 47 43
21 47 43
21 47 42
22 48 44
21 46 42
21 47 42
21 46 42
21 47 42
21 46 42
22 48 44
22 48 44
22 49 44
22 49 44
22 48 44
21 46 41
21 45 41
22 48 44
21 47 42
22 48 43
22 48 43
21 47 43
21 46 42
22 47 43
22 29 30
57 54 53
152 139 130
170 154 142
185 167 154
192 172 157
198 177 161
207 184 168
215 191 174
217 193 174
222 197 178
223 198 179
227 200 181
227 200 181
228 201 181
226 199 178
228 200 179
225 197 175
222 194 172
218 191 169
145 127 113
69 63 58
115 105 92
21 46 41
21 46 42
21 47 42
21 46 42
22 47 42
22 47 43
22 48 43
21 47 42
21 46 42
22 47 42
21 46 42
21 46 41
23 50 45
22 48 44
21 46 41
22 48 43
22 49 44
21 46 42
22 47 43
22 48 43
22 47 42
22 47 42
22 47 43
22 47 43
22 47 43
22 49 44
22 48 43
22 47 43
23 50 45
22 48 43
22 47 42
22 48 43
22 49 44
23 49 45
22 49 44
22 48 43
22 49 44
22 48 43
22 48 43
22 49 44
22 48 43
22 49 44
22 48 43
23 49 45
23 49 45
22 49 44
22 48 43
23 49 45
22 48 44
22 48 44
22 49 44
22 48 43
22 48 44
22 49 44
22 48 43
22 49 44
22 49 44
22 49 44
22 49 44
22 48 43
22 49 44
23 50 45
22 48 44
23 50 45
22 49 44
23 50 45
22 48 43
22 49 44
22 48 43
23 50 46
22 48 44
23 50 45
22 48 43
22 48 43
22 49 44
23 49 44
22 49 44
23 50 45
23 49 44
22 48 44
22 48 44
23 50 45
23 50 45
23 49 44
23 50 45
22 48 43
22 49 44
23 50 45
23 49 45
21 47 42
22 48 43
23 50 45
22 49 44
23 50 45
23 50 45
22 49 44
22 49 44
23 49 45
22 48 44
22 49 44
22 47 43
23 49 45
23 49 45
23 49 45
22 49 44
23 49 44
22 49 45
22 49 44
22 49 44
23 49 45
23 49 44
22 48 43
23 49 45
23 50 45
22 48 43
23 49 45
22 49 44
22 48 44
23 50 45
23 49 45
23 49 45
22 49 45
23 49 45
21 47 43
23 50 45
23 50 45
23 50 45
23 50 46
21 46 42
21 47 42
22 48 43
22 48 43
21 47 42
21 46 42
21 47 43
21 47 42
21 47 42
21 47 43
21 47 43
21 47 43
21 46 42
22 48 44
21 46 42
21 46 42
21 46 42
21 46 42
21 45 41
21 46 42
21 47 43
22 47 43
22 48 44
21 47 43
21 47 43
21 47 42
21 46 42
22 47 43
22 48 43
22 48 43
22 48 44
21 47 43
21 47 43
21 47 42
22 48 43
22 49 44
21 47 42
22 48 43
22 47 43
21 46 42
21 46 42
21 46 42
21 47 43
21 47 42
22 48 43
22 47 43
21 47 43
22 48 43
21 46 42
20 26 27
20 22 25
119 110 103
157 143 131
175 158 145
181 162 148
188 168 152
196 174 158
203 181 164
206 183 165
212 187 169
214 189 171
219 193 173
219 193 173
221 194 174
214 187 167
222 195 174
216 189 168
218 191 170
203 177 157
61 57 53
74 67 61
98 90 79
22 47 43
21 45 41
21 47 42
21 46 41
21 47 42
22 48 43
22 49 44
21 47 42
21 46 42
22 48 44
22 49 44
21 46 42
23 49 44
21 47 42
22 47 42
22 47 42
22 47 43
22 48 43
22 47 43
23 49 45
22 48 43
22 48 43
21 46 42
21 46 42
22 48 44
22 48 44
22 48 43
22 47 43
22 47 42
22 48 44
22 48 44
22 48 43
23 50 45
22 48 44
22 49 44
22 49 44
22 48 44
22 49 44
21 47 42
22 49 44
22 47 43
21 46 42
22 47 43
22 48 44
22 47 43
22 48 44
23 50 45
22 48 44
22 49 44
23 49 45
22 48 43
22 47 43
23 51 46
22 48 43
23 50 45
23 50 45
23 50 45
22 47 42
23 50 45
22 49 44
23 49 45
23 49 45
23 50 45
22 48 44
23 50 45
22 48 44
22 48 43
22 48 44
22 48 44
22 48 44
22 47 43
22 48 43
22 49 44
23 50 45
23 51 46
22 49 44
22 47 43
23 50 45
22 49 44
22 49 44
21 47 42
22 48 43
23 50 45
23 50 45
22 48 44
22 48 44
23 49 45
23 49 45
22 48 44
23 50 45
22 48 43
22 49 44
22 49 44
22 49 44
23 50 45
21 47 43
22 47 43
23 50 45
22 49 44
23 50 45
22 49 44
22 49 44
23 49 45
22 49 44
23 49 45
22 49 44
23 50 45
22 49 44
23 50 45
23 50 45
23 50 45
23 50 45
22 48 43
23 50 45
22 49 45
22 48 43
23 50 45
24 52 47
24 52 47
23 50 45
22 48 43
23 50 45
22 49 44
23 50 45
22 49 44
23 50 45
22 49 44
23 49 44
21 47 43
20 45 41
22 48 43
21 47 43
21 46 42
22 48 44
22 48 44
21 46 42
22 47 43
21 47 43
21 46 42
21 46 42
21 46 42
21 47 42
21 46 42
21 47 43
20 45 41
21 47 43
22 47 43
21 46 42
21 46 42
21 47 43
21 47 43
21 46 42
22 49 44
21 47 43
21 46 42
21 47 43
21 47 43
21 46 42
21 46 42
21 45 41
22 49 44
22 48 44
21 46 42
21 46 42
21 45 41
21 46 41
20 45 41
22 48 43
21 46 42
21 46 42
22 49 44
21 46 42
21 47 42
20 44 40
21 46 42
20 44 40
20 44 40
19 28 28
19 22 24
49 47 46
140 128 119
160 145 133
174 156 143
182 163 148
186 165 150
193 172 156
195 173 156
198 175 157
202 179 160
207 182 163
208 183 164
211 185 165
209 183 164
206 181 161
207 181 160
204 179 158
122 107 96
31 33 35
66 60 55
66 68 59
21 46 41
22 48 43
21 45 41
22 48 43
22 47 42
22 47 42
21 46 41
22 48 43
21 46 41
21 47 43
22 48 43
20 45 40
22 47 43
21 46 42
22 47 43
21 47 42
22 48 44
21 46 41
22 49 44
22 47 43
22 48 43
22 48 44
22 49 44
22 48 44
22 48 43
22 47 43
22 47 43
22 47 42
22 48 43
22 47 43
22 48 44
22 48 43
22 49 44
22 48 44
22 48 44
22 48 43
21 47 42
21 47 43
22 48 43
22 49 44
22 48 43
22 48 44
22 47 43
22 49 44
23 49 45
23 49 45
21 47 43
22 49 44
22 48 43
22 48 44
22 48 43
23 51 46
22 49 44
23 50 45
22 48 43
22 49 44
23 51 46
21 47 43
23 49 45
22 49 44
22 48 44
22 48 44
22 48 44
22 49 44
22 48 43
23 49 45
22 48 44
23 50 45
22 49 44
22 48 43
22 48 43
22 48 43
22 48 43
22 48 44
22 48 44
23 50 45
22 48 43
23 50 45
22 48 43
24 52 47
21 47 42
22 49 44
22 49 44
23 50 45
23 50 45
22 49 44
23 50 46
22 48 44
23 50 46
23 51 46
22 48 43
23 49 45
22 48 43
22 48 44
22 48 44
23 50 46
23 49 45
23 51 46
23 50 45
22 49 45
22 48 43
23 49 44
22 49 44
23 50 45
22 47 43
22 49 44
23 50 45
23 50 45
23 49 45
23 50 45
22 48 44
22 49 44
22 49 44
22 49 44
22 49 44
22 49 44
23 49 45
22 49 44
23 51 46
22 49 44
23 50 45
22 49 44
23 49 44
22 49 44
23 50 45
22 48 43
22 48 44
22 48 43
22 48 44
22 48 43
22 48 44
21 47 43
21 46 42
21 47 43
21 47 43
21 46 42
21 47 42
22 48 44
21 47 43
21 46 42
21 47 43
21 47 43
21 47 43
21 47 42
22 48 43
22 48 43
22 47 43
21 47 43
22 48 44
21 47 43
21 46 42
22 47 43
21 46 42
22 48 44
22 48 44
21 46 42
21 45 41
22 48 44
21 46 42
21 47 43
21 46 42
22 47 43
22 48 44
22 48 43
21 46 42
20 45 41
21 47 42
21 46 42
21 46 41
21 47 42
21 47 43
21 46 42
19 43 39
20 44 40
19 42 39
19 42 39
18 40 37
18 31 30
19 21 23
19 22 24
73 68 64
143 130 120
151 136 124
163 147 133
171 153 138
183 163 147
183 163 146
191 169 151
191 169 151
194 171 153
198 174 155
196 172 153
200 175 156
197 173 153
194 169 150
133 117 104
30 31 33
29 31 32
56 51 47
39 54 48
22 47 43
22 48 43
21 45 40
21 46 42
22 48 43
21 47 42
22 48 43
21 46 42
21 47 42
22 48 43
22 49 44
22 47 43
21 47 42
21 46 41
23 49 44
22 47 43
22 48 44
21 47 42
22 48 43
21 47 42
22 49 44
22 47 43
22 47 43
23 50 45
22 47 42
22 49 44
22 48 44
22 48 43
23 50 45
22 48 43
22 48 44
23 49 45
22 49 44
22 49 44
22 48 43
21 46 41
22 48 44
22 49 44
22 48 44
23 50 45
22 49 44
22 49 44
22 47 43
23 50 45
22 48 43
23 50 45
23 50 45
22 49 44
22 48 44
22 47 42
23 50 45
21 46 41
21 47 42
22 49 44
23 51 46
23 50 45
22 49 44
21 47 42
22 48 44
22 49 44
23 49 45
23 49 45
22 49 44
22 49 44
21 47 42
23 50 45
22 49 44
24 52 47
22 48 43
22 48 43
22 48 43
23 49 45
22 49 44
22 47 43
22 49 44
22 47 43
23 49 44
22 49 44
22 47 42
23 49 45
22 49 44
23 49 44
23 51 46
23 51 46
23 51 46
21 47 42
22 48 43
22 48 44
22 48 44
23 51 46
23 49 45
22 49 44
22 48 43
23 50 45
22 49 44
22 49 44
22 49 44
22 48 44
23 50 45
23 49 45
23 50 45
23 50 45
22 48 43
23 51 46
22 49 44
22 48 44
23 49 44
23 50 45
23 50 45
24 52 47
23 50 45
22 47 43
23 50 45
22 48 43
22 49 44
23 51 46
22 49 44
23 51 46
23 51 46
23 51 46
23 50 45
23 50 45
22 48 43
23 51 46
24 51 46
23 50 45
23 49 44
23 51 46
21 47 43
21 47 43
21 47 43
21 47 42
21 46 41
22 48 43
21 47 43
21 47 42
21 47 43
21 47 43
20 45 41
21 46 42
22 47 43
22 48 43
21 46 42
21 47 43
22 48 43
22 48 43
22 49 44
22 48 43
21 45 41
21 47 42
20 45 41
22 47 43
22 48 43
21 47 42
21 46 42
21 46 42
21 47 42
21 45 41
21 46 42
21 46 42
22 47 43
21 47 43
22 47 43
22 47 43
22 48 43
21 47 42
22 47 43
20 45 40
20 44 40
20 45 41
19 43 39
20 44 40
18 41 37
19 42 39
17 39 36
17 39 37
16 36 34
16 32 30
14 16 18
18 20 22
21 23 25
58 54 51
122 112 102
150 135 123
155 139 125
162 145 130
168 149 134
170 150 134
182 161 144
180 159 141
178 157 139
180 158 140
184 161 142
167 146 129
98 88 79
29 30 31
27 28 29
26 27 28
24 30 29
22 47 42
21 45 41
21 46 42
21 45 40
21 46 42
22 48 43
21 47 42
22 48 43
21 47 42
22 48 43
21 46 41
22 48 43
22 48 43
22 48 44
22 48 43
22 48 43
22 48 43
22 48 43
22 48 44
22 47 43
23 50 45
22 49 44
22 48 44
23 50 45
22 49 44
22 48 43
22 48 44
22 47 42
22 49 44
22 48 43
22 49 44
21 47 43
22 49 44
22 48 43
22 47 43
22 47 42
22 47 43
22 48 43
22 49 44
22 49 44
22 49 44
21 47 42
23 50 45
22 47 42
22 48 43
22 48 43
22 48 44
22 47 43
21 46 42
22 48 44
22 48 44
22 48 43
22 48 44
23 49 44
23 50 45
21 47 42
22 49 44
22 49 44
22 49 44
22 48 43
23 50 45
23 49 44
22 47 43
22 48 44
23 50 45
22 47 43
22 49 44
22 47 43
22 48 43
22 49 44
22 48 43
22 49 44
22 48 44
22 49 44
22 48 44
23 50 46
21 47 42
23 50 45
23 50 45
22 49 44
23 50 46
22 48 44
23 50 45
23 50 45
23 51 46
22 49 44
23 50 45
22 48 43
22 48 43
22 48 43
23 50 45
22 48 44
22 49 44
23 50 45
23 50 45
23 50 45
23 50 45
23 50 45
22 49 44
23 49 45
22 49 44
23 50 45
22 49 44
23 49 45
23 49 45
22 48 43
22 48 43
23 50 46
22 49 44
22 47 43
23 50 46
23 49 45
22 49 44
22 49 44
22 48 44
23 50 45
23 49 44
22 49 44
22 48 43
22 48 44
22 49 44
23 50 45
23 50 45
24 51 46
23 49 45
23 50 45
22 49 44
23 50 45
22 48 44
22 48 44
22 48 43
22 49 44
22 49 44
22 48 43
21 46 42
21 46 42
22 48 44
21 46 42
21 47 43
21 47 42
21 46 42
21 46 42
21 47 43
21 46 42
21 46 42
22 48 44
22 48 44
21 46 42
22 48 44
21 47 43
21 46 41
22 49 44
22 47 43
23 50 46
21 47 43
22 48 44
20 45 40
22 48 43
21 47 43
21 47 42
23 50 46
21 47 42
22 47 43
21 46 42
21 45 41
22 48 43
22 47 43
20 45 41
21 46 42
21 47 42
20 44 40
19 42 38
18 41 37
18 40 36
17 38 36
16 37 35
15 33 32
14 33 31
14 33 31
15 19 20
17 19 21
17 19 21
18 20 22
26 27 28
69 64 59
121 109 99
143 128 115
149 133 119
151 135 120
163 145 130
164 145 129
164 145 128
150 132 117
110 97 86
39 37 36
27 28 29
26 28 29
25 26 27
22 23 24
20 37 34
21 46 41
21 45 40
21 45 41
21 46 41
21 46 41
22 48 44
22 48 43
21 46 42
22 48 43
22 48 44
21 46 41
21 46 41
22 48 43
22 48 43
22 47 42
22 47 43
22 48 43
22 49 44
22 47 43
22 49 44
22 48 43
22 49 44
22 48 44
21 46 42
22 48 43
21 47 42
22 48 44
22 48 43
22 49 44
22 48 43
22 48 43
23 50 45
23 49 45
22 48 43
22 47 43
22 48 43
22 47 43
22 49 44
22 48 43
22 48 44
22 48 44
22 48 43
23 50 45
23 50 45
22 49 44
22 48 43
22 48 43
23 50 45
22 47 43
23 49 45
22 48 44
22 49 44
22 49 44
22 48 44
21 47 42
23 50 46
23 49 45
23 50 45
22 49 44
21 47 42
23 50 45
22 49 44
22 47 43
22 48 43
22 49 44
22 49 44
22 47 43
23 50 45
23 50 45
22 49 44
23 50 45
22 48 43
23 50 45
22 48 44
23 49 45
23 51 46
22 49 44
23 50 45
23 50 45
22 47 43
21 47 43
22 48 44
22 47 43
23 50 45
22 48 44
22 48 44
23 51 46
23 50 45
22 48 43
22 48 44
22 48 43
22 48 43
22 49 44
21 47 42
23 50 45
22 49 44
22 49 44
23 49 44
23 50 45
22 49 44
23 49 45
22 48 43
22 49 44
22 48 43
22 48 44
22 48 44
23 49 45
22 49 44
23 50 45
22 48 43
22 48 44
22 49 44
24 52 47
23 50 45
23 51 46
22 47 43
23 50 45
23 51 46
23 50 45
22 49 44
23 51 46
23 50 45
22 49 44
23 50 45
23 50 45
22 48 44
23 50 45
22 49 44
23 50 45
23 50 46
22 48 43
21 46 42
21 46 42
22 48 44
21 47 43
22 48 43
21 47 42
22 48 44
22 48 44
22 47 43
21 46 42
21 47 43
22 47 43
22 48 44
21 47 43
21 47 43
21 45 41
22 48 43
22 48 44
22 47 43
22 48 43
22 49 45
21 47 43
22 48 43
21 46 42
22 48 43
22 48 43
22 49 44
22 48 44
22 47 43
22 48 44
21 47 43
21 46 42
22 47 43
21 47 42
21 46 42
22 48 43
21 46 42
21 46 42
20 45 41
19 42 38
18 41 38
17 38 35
17 38 36
16 36 34
15 34 32
14 32 30
13 32 30
13 31 30
14 27 26
14 16 18
14 16 17
14 16 18
16 18 20
17 19 20
18 20 21
34 33 33
57 53 48
84 76 69
64 57 51
70 64 58
37 35 34
25 26 28
24 25 27
25 26 27
23 25 25
23 24 25
21 22 23
17 24 23
20 44 39
20 44 39
21 45 40
21 45 41
21 45 40
21 45 41
22 47 43
22 47 43
22 47 42
21 47 42
22 48 44
22 47 42
22 47 42
22 47 43
22 48 44
22 48 43
21 46 42
22 49 44
23 50 45
22 48 43
22 48 43
22 48 44
21 46 42
22 48 44
24 51 46
21 47 42
22 49 44
23 50 45
22 48 44
21 47 42
23 49 44
21 46 41
22 48 43
22 48 44
22 49 44
22 49 44
23 50 45
24 51 46
22 47 43
22 49 44
22 48 43
22 49 44
23 50 45
21 47 42
22 48 43
22 49 44
22 49 44
23 50 45
22 48 43
22 47 43
23 50 45
22 49 44
23 50 46
22 49 44
22 47 43
22 49 44
23 50 45
23 49 45
23 50 45
23 50 45
22 48 43
22 49 44
22 49 44
22 48 44
23 50 45
22 49 44
22 49 44
23 50 46
23 50 46
22 49 44
23 51 46
22 48 44
22 49 44
22 49 44
23 50 45
23 50 45
23 50 46
22 49 44
22 48 44
22 49 44
22 49 44
23 50 45
22 48 44
23 50 45
23 50 45
22 49 44
22 48 43
23 50 45
23 50 45
22 48 43
22 49 44
22 49 44
23 51 46
23 50 45
22 48 44
23 49 44
23 51 46
22 49 44
23 50 45
22 48 43
24 52 47
22 49 44
23 49 45
23 50 45
22 49 44
22 48 43
23 49 45
23 50 45
23 50 45
23 51 46
22 48 44
23 50 46
21 47 42
22 48 43
23 50 45
22 48 43
23 49 45
23 51 46
23 50 45
23 51 46
22 47 43
23 50 45
23 50 45
22 47 43
22 49 44
22 49 44
23 50 45
23 49 44
23 50 45
23 50 45
22 48 44
22 48 44
21 47 43
21 46 42
20 44 40
21 47 43
22 48 43
22 48 44
21 46 42
21 47 43
21 46 42
22 49 45
21 47 43
22 48 43
21 46 42
21 47 43
22 48 44
21 46 42
22 49 45
22 49 45
21 46 42
21 47 42
22 48 44
21 47 42
22 48 43
21 45 41
22 48 44
21 47 43
21 47 43
22 47 43
22 48 43
22 48 43
21 45 41
21 47 43
22 49 44
21 47 43
21 47 43
21 46 42
20 45 41
20 44 40
19 42 39
19 41 38
18 40 37
18 41 38
16 36 34
15 34 33
14 32 31
14 33 31
13 31 30
14 32 30
13 29 28
11 19 19
13 15 16
13 15 16
13 15 16
14 16 17
15 17 19
15 17 18
16 18 19
18 20 21
18 20 21
21 22 23
20 22 23
22 23 24
21 22 23
20 21 21
19 20 20
17 18 19
15 18 17
20 42 37
21 45 40
21 45 40
21 45 40
21 45 40
21 47 42
21 45 41
22 47 42
22 47 42
21 46 41
22 48 43
22 47 42
22 48 44
22 48 43
22 49 44
21 46 41
22 48 43
22 47 42
22 48 43
21 47 43
22 48 43
22 48 43
22 49 44
22 47 43
22 49 44
22 49 44
22 49 44
22 47 43
21 47 42
22 47 43
23 49 44
23 49 44
23 50 45
23 51 46
22 48 43
22 49 44
22 48 43
23 50 45
22 49 44
22 48 43
22 48 43
22 47 43
22 49 44
22 48 43
22 48 43
22 48 44
22 47 43
23 50 45
22 48 44
22 48 43
22 48 43
22 49 44
22 48 43
22 48 43
22 48 43
22 48 43
22 49 44
23 50 45
23 50 45
23 49 45
23 49 45
23 50 45
22 49 44
22 49 44
23 50 45
22 49 44
22 48 44
23 50 45
22 48 44
22 49 44
23 50 45
23 50 45
22 49 44
23 50 45
23 50 45
23 50 45
23 50 45
22 49 44
22 49 44
23 49 45
22 49 44
23 50 45
23 50 45
23 50 46
22 49 44
22 49 44
22 49 44
22 49 44
22 49 44
23 50 45
23 50 45
23 51 46
23 50 45
22 49 44
22 49 44
22 48 43
23 51 46
22 49 44
23 49 44
23 50 45
23 49 45
23 50 45
24 52 47
22 49 44
22 48 44
23 49 45
22 49 44
23 50 45
22 49 44
23 51 46
23 49 44
23 50 45
23 50 45
23 50 45
23 50 45
23 50 45
22 49 44
22 48 43
23 50 45
22 48 44
23 50 46
22 48 44
23 49 45
23 50 45
23 50 45
22 48 43
23 49 45
22 49 44
23 50 45
23 51 46
23 50 46
21 47 42
23 50 46
21 46 42
21 46 42
21 47 43
21 47 42
20 45 41
21 47 43
20 45 41
22 48 43
21 45 41
21 46 42
21 47 43
22 47 43
22 48 43
21 47 42
22 49 44
21 46 41
21 46 42
22 49 44
22 48 43
21 46 42
21 46 42
21 47 42
22 49 44
22 49 44
21 46 42
21 45 41
21 47 43
21 47 42
21 47 42
21 47 42
20 45 41
22 48 44
22 47 43
21 46 42
21 47 43
19 43 39
20 45 41
21 46 42
20 44 41
19 43 40
18 41 38
17 38 36
15 35 33
14 32 31
13 31 30
13 31 29
14 32 30
13 30 29
13 30 29
12 29 27
12 18 18
10 12 13
12 14 15
12 14 15
15 17 18
12 14 15
13 15 16
13 15 16
14 15 16
15 17 17
16 17 17
17 18 19
16 17 17
14 15 15
13 14 14
12 14 14
14 30 26
20 42 37
20 44 39
21 45 40
20 43 39
21 46 41
21 46 41
22 47 42
21 47 42
21 45 41
22 48 43
21 46 41
22 48 43
22 48 43
22 47 42
21 46 42
21 47 42
22 47 42
21 46 42
22 48 43
21 47 42
22 48 43
22 48 43
22 49 44
22 49 45
21 47 42
22 48 43
23 49 45
22 49 44
22 49 44
23 50 45
22 48 44
22 49 44
23 49 44
22 49 44
23 50 45
23 50 46
23 50 45
23 49 45
23 50 45
22 48 43
22 49 44
22 47 43
23 49 45
22 47 43
23 50 45
21 47 42
22 48 44
22 49 44
23 50 45
22 48 44
22 48 44
22 49 44
23 51 46
23 51 46
23 50 45
23 49 45
22 48 44
23 50 45
22 47 43
22 49 44
22 49 44
21 47 42
22 48 44
22 49 44
23 49 45
22 48 44
22 49 44
22 49 44
23 50 45
23 51 46
23 49 45
22 47 43
23 49 45
23 49 45
23 49 45
22 49 44
23 50 45
23 49 45
22 49 44
22 49 44
22 48 44
23 49 45
23 50 45
22 49 44
23 51 46
22 48 43
23 50 45
23 49 45
22 48 44
22 48 43
23 49 45
22 49 44
23 50 45
24 51 46
22 49 44
24 52 47
23 51 46
22 48 44
22 49 44
22 49 44
23 50 45
23 51 46
22 49 44
22 49 44
22 49 44
22 49 44
22 48 43
22 49 44
22 49 44
23 50 45
23 49 45
23 50 45
22 49 44
22 48 44
23 50 45
23 50 45
23 49 45
23 49 45
23 50 45
24 53 48
22 49 44
22 49 44
23 49 44
23 50 45
23 50 45
23 49 44
23 50 45
23 51 46
24 51 46
22 48 44
23 50 45
22 49 44
22 49 44
21 46 41
21 47 43
22 47 43
21 46 42
22 49 45
22 48 43
22 49 44
20 45 41
22 48 43
22 48 43
21 46 42
21 46 41
21 47 43
21 47 43
21 45 41
22 49 44
22 48 44
21 46 42
21 47 43
21 46 42
21 46 42
22 49 45
22 47 43
21 47 42
21 47 43
22 48 43
21 47 43
22 48 43
22 48 43
22 48 43
21 47 43
22 47 43
21 47 42
21 47 43
20 45 40
21 46 42
21 46 42
20 45 41
19 42 38
18 41 37
18 40 37
17 38 36
15 35 33
15 34 32
13 31 30
13 31 30
13 30 29
12 29 28
13 29 28
12 27 25
11 25 24
7 15 14
8 10 10
7 9 9
7 10 10
8 10 10
9 11 11
10 11 11
11 12 13
9 11 11
10 12 11
9 11 10
8 9 8
9 10 10
6 10 9
12 25 22
18 38 34
20 44 38
20 42 37
20 43 38
21 46 41
21 45 40
21 47 42
21 45 41
21 45 41
21 46 41
21 47 42
22 47 42
21 47 42
21 46 41
22 47 42
22 48 43
22 47 42
22 48 44
23 49 44
22 49 44
22 48 44
22 49 44
22 49 44
22 48 43
22 47 43
23 50 45
22 48 44
22 47 43
22 49 44
23 50 45
23 49 45
22 48 44
22 48 43
22 48 43
22 48 43
22 49 44
22 49 44
22 49 44
22 48 44
22 48 43
22 49 44
22 48 44
23 49 45
22 48 44
22 47 43
22 49 44
22 49 44
22 49 44
23 49 44
23 50 45
22 49 44
22 48 43
22 48 43
22 47 43
22 49 44
22 48 43
22 48 43
23 49 45
22 48 43
23 50 45
23 50 45
23 50 45
22 47 43
22 48 43
23 49 45
22 49 44
22 49 44
23 49 45
22 48 44
23 50 45
22 49 44
23 51 46
23 50 45
22 49 45
22 49 44
23 51 46
22 49 44
22 49 44
23 51 46
23 50 45
23 50 45
23 49 45
23 50 45
23 50 45
22 49 45
22 48 43
23 51 46
22 49 44
22 48 43
22 49 44
23 49 45
22 49 44
22 49 44
22 48 43
23 49 45
23 51 46
22 49 44
22 49 44
22 49 44
22 48 44
22 48 44
23 50 45
23 51 46
23 51 46
23 50 45
22 48 43
22 48 44
23 50 45
23 50 45
22 48 44
23 51 46
23 49 44
23 50 45
22 48 43
23 50 45
23 50 45
22 49 44
22 48 44
23 50 45
23 50 45
23 49 45
22 49 44
22 49 44
22 49 44
22 49 44
23 50 45
22 48 43
22 48 44
24 51 46
23 49 45
22 48 43
23 49 45
21 46 42
21 47 42
21 46 42
21 46 42
21 47 42
22 49 44
21 47 42
21 46 42
21 47 43
22 48 43
21 46 42
21 47 43
21 47 43
22 48 43
22 48 44
22 48 44
21 47 43
21 47 43
21 47 42
22 48 44
22 48 44
22 48 44
21 46 42
21 46 42
22 48 43
22 48 43
21 46 42
21 46 42
21 47 43
22 48 43
21 47 43
22 48 43
21 46 42
21 47 43
21 46 42
21 47 42
21 47 43
22 48 44
21 45 41
21 45 41
19 43 39
19 43 40
18 41 37
17 39 36
16 36 33
15 34 32
14 33 31
13 31 30
12 29 28
12 27 26
12 28 27
11 26 24
11 25 23
11 25 24
8 19 18
4 10 9
6 8 7
6 8 7
7 8 7
8 9 8
7 8 7
8 9 8
6 8 7
6 8 7
7 9 7
7 14 13
11 24 21
16 34 30
19 39 34
20 43 38
19 42 37
21 44 39
21 45 40
21 45 40
20 44 39
21 46 41
21 46 41
22 47 43
21 46 42
21 47 42
22 47 42
21 46 42
21 46 42
23 49 44
21 46 42
23 49 44
22 48 43
22 48 44
22 49 44
22 48 43
22 48 43
22 48 44
21 47 42
21 46 42
23 50 45
23 51 46
22 48 43
23 50 45
22 48 44
22 49 44
22 48 43
22 48 43
22 48 43
22 49 44
22 49 44
22 49 44
22 48 44
22 49 44
21 47 42
23 50 45
22 48 44
22 48 43
21 46 42
23 50 45
22 48 43
22 48 43
23 50 45
23 50 45
22 49 44
22 49 44
22 48 43
23 50 45
22 49 44
22 47 43
22 48 43
22 49 44
23 50 45
23 49 45
22 49 44
22 48 43
23 50 45
23 50 45
23 50 45
22 49 44
23 50 45
23 50 45
23 49 45
23 51 46
22 48 44
22 48 43
22 48 44
22 49 44
22 48 44
23 50 45
22 48 44
22 47 43
22 48 43
23 49 45
23 49 45
22 48 44
22 48 43
22 49 45
23 50 45
23 50 45
23 50 45
22 49 44
22 49 44
23 50 45
23 49 45
23 50 45
23 50 46
24 51 47
23 50 45
22 48 43
22 48 44
23 50 46
23 50 45
22 48 43
23 50 45
23 50 45
23 51 46
22 49 44
22 49 44
23 50 45
23 51 46
22 49 44
23 50 45
22 49 44
23 50 45
23 49 44
23 50 45
22 49 44
23 49 45
23 50 45
23 50 45
22 49 44
23 49 45
22 49 44
23 49 45
23 49 45
22 49 44
23 49 44
23 50 46
23 50 45
22 49 44
23 49 45
23 50 45
23 51 46
23 50 45
22 47 43
21 45 41
22 47 43
21 46 42
21 47 43
22 48 43
22 47 43
21 46 42
21 46 42
22 48 43
21 47 43
22 48 44
21 46 42
21 46 42
22 48 44
22 48 43
21 46 41
22 48 43
21 47 42
21 47 43
21 46 42
21 46 42
22 49 44
21 47 42
21 47 43
21 46 42
22 48 43
21 47 42
22 47 43
22 47 43
21 46 42
22 48 44
22 47 43
22 48 44
22 47 43
21 47 43
21 47 42
22 48 43
21 46 42
21 46 42
21 45 41
20 45 41
20 45 41
19 41 38
18 40 37
16 36 34
16 36 34
14 33 31
13 31 29
12 29 28
13 29 28
12 29 27
11 26 25
11 25 24
11 26 24
10 24 23
9 20 18
8 17 16
5 10 9
6 11 10
6 10 9
5 7 6
5 8 7
6 8 7
7 14 12
7 17 15
11 25 23
15 31 28
18 39 34
20 43 38
20 42 37
22 46 41
20 44 39
21 46 41
21 45 41
20 44 40
21 45 40
22 47 42
22 48 43
22 47 42
22 47 42
21 46 41
22 48 44
21 46 42
23 50 45
23 50 45
22 49 44
21 47 42
22 48 43
21 47 42
23 49 45
22 49 44
21 47 42
23 50 45
22 48 44
22 48 44
22 48 43
22 49 44
22 49 44
22 49 44
22 48 43
21 47 42
21 46 42
22 47 43
21 47 42
22 48 44
23 49 45
23 50 45
23 49 45
23 49 45
23 49 44
22 49 44
22 48 44
23 49 44
24 51 46
23 50 45
22 48 44
22 49 44
23 50 45
22 48 43
22 48 44
22 48 43
23 50 46
22 49 44
22 48 43
22 48 43
22 48 43
21 46 42
22 48 43
23 50 45
22 49 44
21 46 42
22 48 44
23 49 45
22 49 44
22 48 43
22 48 43
22 48 43
22 49 44
23 50 45
23 49 45
24 52 47
23 50 45
22 49 44
22 49 44
22 49 44
22 49 44
24 52 47
23 49 45
23 49 45
23 51 46
23 50 46
22 49 44
22 48 43
23 49 45
23 50 45
22 49 44
22 48 43
22 48 44
23 50 45
24 52 47
22 48 44
23 49 45
23 50 45
23 50 45
23 50 45
22 48 43
22 49 44
22 49 44
23 50 46
23 49 45
23 51 46
23 49 45
23 50 45
22 48 44
23 50 45
23 49 44
22 49 44
23 50 45
23 50 45
22 49 44
23 49 44
22 48 44
23 50 45
22 48 43
22 49 44
22 48 44
22 49 44
23 50 45
23 49 45
23 50 45
23 49 45
24 53 48
23 50 45
23 50 45
22 48 44
22 48 44
23 51 46
23 49 45
24 52 47
22 48 43
21 47 42
22 48 44
21 47 43
21 46 42
21 47 42
21 46 42
22 48 44
22 48 44
22 48 43
21 46 42
22 48 43
22 48 44
22 48 44
21 45 41
21 46 42
22 48 44
22 49 44
22 48 43
22 48 43
21 46 42
21 46 42
21 47 43
22 48 43
21 47 43
21 47 43
21 46 42
22 48 44
22 49 45
21 47 42
22 47 43
21 47 43
20 45 41
21 46 41
22 47 43
21 46 42
22 47 43
21 47 43
21 46 42
21 47 42
22 47 43
21 46 42
20 44 40
20 45 41
18 41 37
18 40 37
17 39 36
15 34 32
15 34 32
14 32 31
13 30 29
12 28 27
12 28 27
12 27 26
11 26 25
10 23 21
9 22 21
8 20 18
7 16 15
8 18 17
7 16 15
7 16 14
8 18 17
8 18 17
8 19 17
12 26 23
15 32 29
18 38 33
19 42 37
19 41 36
20 44 39
20 43 38
20 43 38
20 44 39
21 46 41
21 45 40
21 45 41
21 46 41
21 46 41
21 46 42
21 47 42
21 47 42
22 48 43
22 48 43
21 46 42
21 47 42
22 47 43
21 46 41
22 47 43
22 48 44
21 47 42
22 47 43
22 48 43
22 47 43
22 48 43
22 49 44
22 47 43
22 48 44
22 48 43
22 48 43
23 50 45
23 51 46
22 48 43
22 47 43
22 48 43
22 48 43
23 49 44
22 49 44
23 50 45
22 49 44
23 51 46
22 48 43
22 48 43
23 50 45
22 48 44
23 50 46
23 51 46
22 49 44
22 49 44
22 49 44
23 49 44
22 48 44
22 49 44
23 50 45
22 47 43
22 49 44
22 49 44
22 49 44
22 47 43
22 49 44
22 48 43
23 50 45
23 50 45
23 51 46
23 49 45
22 49 44
22 48 44
23 49 44
22 47 43
23 50 45
23 50 45
23 50 45
23 49 45
23 49 45
22 49 44
22 48 44
23 49 45
22 49 44
22 47 43
23 49 45
23 50 45
23 50 45
22 47 43
22 49 44
22 48 43
22 49 44
23 50 45
22 47 43
23 50 46
22 49 44
23 50 45
23 50 45
22 48 43
22 49 44
22 48 43
22 48 43
23 50 45
22 48 44
22 49 44
23 50 45
23 50 45
22 48 43
22 47 43
23 49 44
24 52 47
23 50 45
23 50 45
23 50 46
23 50 45
22 48 44
23 50 45
23 50 45
22 48 44
23 51 46
23 50 45
22 48 44
22 49 44
22 49 44
23 50 45
23 50 45
24 52 47
22 48 43
23 51 46
23 51 46
23 51 46
23 51 46
22 48 43
22 48 43
23 51 46
23 50 45
23 50 45
22 48 43
21 47 42
22 47 43
21 47 43
21 46 42
21 47 43
22 48 44
21 46 42
22 47 43
22 48 44
21 45 41
21 47 42
22 48 43
22 49 44
22 49 45
21 47 42
22 48 43
21 46 42
22 47 43
21 47 42
21 46 42
21 46 41
22 48 43
21 47 42
21 45 41
21 47 42
21 47 42
21 46 42
21 46 42
22 48 44
21 46 42
21 47 42
22 48 44
21 46 41
22 48 43
22 47 43
21 47 42
22 48 43
21 47 42
21 46 41
21 45 41
21 47 42
20 45 40
20 44 40
19 43 39
19 42 38
18 40 36
17 39 35
16 36 34
15 33 31
14 32 30
13 30 28
13 29 27
12 29 27
10 23 22
10 23 22
10 24 23
10 23 22
9 21 20
9 20 18
10 22 21
11 26 24
13 29 26
15 32 28
17 37 33
19 40 35
19 40 35
20 43 38
20 43 38
21 45 40
19 42 38
21 45 40
21 44 40
20 44 39
21 45 41
21 46 41
21 46 42
22 48 43
21 46 41
22 48 43
22 48 43
21 45 41
22 48 43
22 47 43
22 48 44
22 48 43
21 46 42
21 47 42
23 49 45
21 47 42
21 47 42
23 50 45
23 51 46
22 48 44
22 49 44
22 49 44
22 49 45
23 50 46
22 49 44
21 47 42
22 47 43
22 48 43
22 47 43
22 47 43
23 50 45
23 49 45
22 48 43
22 49 44
22 48 43
22 48 43
22 48 44
23 49 44
21 47 42
23 50 45
22 47 42
22 48 44
22 47 43
23 50 45
22 49 44
22 49 44
23 49 45
22 49 44
22 48 44
22 49 44
22 49 44
22 49 44
22 48 43
22 48 43
23 50 45
24 52 47
23 50 45
22 48 43
23 50 46
22 48 44
23 50 45
22 48 44
22 49 44
23 50 45
22 49 44
23 49 45
22 49 44
23 50 45
23 50 46
23 50 45
22 47 43
23 50 45
23 50 45
22 49 44
22 48 43
23 51 46
23 49 45
22 48 43
23 50 45
23 50 45
23 49 45
24 53 48
22 49 44
24 51 46
23 49 44
23 50 45
23 49 45
23 50 45
22 49 44
22 49 44
22 48 44
23 49 44
22 48 43
22 49 44
23 50 45
22 49 44
22 48 44
23 49 45
22 49 44
23 50 45
23 49 45
23 49 45
23 51 46
22 48 44
23 51 46
23 50 45
24 52 47
23 50 45
22 47 43
22 49 44
23 49 45
23 49 45
22 49 44
24 52 47
23 51 46
23 50 45
23 49 44
23 51 46
22 49 44
23 49 45
24 51 46
23 50 46
23 50 45
22 47 43
22 49 44
21 46 42
21 47 42
21 47 43
21 47 42
22 49 45
21 47 43
22 48 43
21 46 41
21 47 43
21 45 41
22 48 44
21 45 41
22 48 44
22 49 44
21 47 42
23 50 45
21 46 41
21 47 43
21 46 42
21 47 42
21 47 43
22 48 43
21 47 43
23 50 45
21 46 41
21 46 42
21 45 41
22 48 44
21 47 43
22 48 44
21 46 41
21 47 43
21 46 41
21 47 42
21 47 43
22 48 44
22 48 44
21 46 42
21 47 42
21 47 42
22 47 43
21 46 42
21 46 41
22 47 43
21 47 42
21 46 41
21 46 42
20 43 39
20 44 39
18 40 36
18 40 36
17 37 34
17 37 34
16 35 33
16 36 33
15 33 30
14 31 28
13 30 27
14 30 28
15 33 30
15 33 30
15 33 29
18 38 34
18 38 34
19 42 37
20 43 38
19 42 37
19 41 37
20 44 39
20 44 39
20 43 38
21 45 40
21 46 41
21 45 41
20 45 40
22 48 43
20 44 40
21 47 42
21 45 41
21 47 42
21 46 41
22 48 44
22 48 43
21 47 42
22 49 44
22 48 43
21 45 41
22 47 43
23 50 45
22 48 44
22 48 43
21 47 42
22 49 44
23 49 45
22 48 44
22 48 43
23 49 45
22 49 44
22 49 44
23 50 45
23 49 45
22 49 44
23 50 45
22 49 44
22 47 43
22 48 43
22 49 44
22 49 44
22 49 44
23 49 45
22 48 43
23 50 45
23 50 45
22 48 44
22 47 43
22 48 43
22 49 44
23 50 45
22 48 44
22 48 43
22 48 44
22 48 43
22 47 43
23 49 45
23 50 45
22 48 43
22 49 44
23 50 45
23 51 46
22 48 44
23 49 45
22 49 44
23 50 45
22 48 43
22 49 44
23 50 45
22 48 44
22 48 44
22 49 44
22 49 44
23 50 45
22 49 44
23 49 45
22 49 44
23 50 45
23 50 45
23 49 45
22 48 43
22 48 43
22 49 44
23 49 45
23 49 45
22 48 43
22 48 44
22 49 44
23 50 45
23 50 46
22 49 44
22 49 44
22 49 44
23 50 45
23 50 45
23 49 45
23 50 46
22 48 43
23 51 46
24 52 47
23 50 45
23 49 45
22 48 43
23 50 45
23 51 46
24 52 47
23 50 45
22 49 44
23 51 46
23 50 45
23 50 45
22 49 44
22 48 44
22 49 44
22 47 43
23 50 45
22 48 43
23 51 46
23 50 45
22 49 44
23 50 45
23 50 45
23 50 45
22 49 44
23 49 44
23 50 45
23 49 44
23 51 46
24 52 47
22 49 44
23 50 45
23 50 45
23 50 45
23 49 45
21 47 42
21 47 43
21 46 42
23 50 45
22 48 43
21 46 41
21 47 43
22 49 44
21 47 42
22 48 43
21 47 43
22 48 43
22 48 44
22 48 44
22 47 43
22 49 44
21 46 42
21 46 42
21 46 42
21 47 43
22 48 43
21 46 42
22 48 44
21 47 43
22 49 44
21 47 43
22 48 44
22 49 44
22 47 43
21 47 42
23 50 45
22 48 43
22 48 44
21 45 41
21 45 41
21 46 42
22 47 43
21 46 42
21 47 42
21 45 41
21 46 42
22 47 43
21 47 42
21 47 42
21 45 41
21 47 42
20 45 40
20 44 40
20 45 40
20 44 39
20 44 39
19 42 38
20 43 39
18 40 36
19 41 37
20 44 39
19 41 37
19 41 37
19 41 37
18 40 35
20 43 38
20 43 39
20 43 38
20 43 39
20 43 38
20 44 39
21 46 41
21 45 40
21 45 40
21 45 40
20 43 39
20 44 40
22 47 42
21 46 41
21 46 41
22 47 43
21 46 41
21 46 42
22 49 44
21 46 41
22 49 44
21 46 42
22 49 44
22 48 43
22 48 44
22 48 43
23 50 45
21 46 42
22 48 43
22 48 44
21 46 41
22 47 43
23 49 45
22 48 44
24 52 47
23 50 45
22 49 44
22 49 44
23 50 45
22 48 43
22 47 43
22 48 43
22 48 43
23 51 46
22 49 44
22 49 44
22 49 44
22 47 43
22 49 44
22 48 44
22 48 43
23 50 45
22 49 44
23 50 45
22 47 43
22 48 44
22 49 44
22 49 44
22 49 44
23 50 45
22 49 44
22 49 44
22 48 44
23 49 45
22 48 44
22 48 43
22 48 44
22 48 44
23 50 45
22 49 44
22 49 44
23 51 46
23 50 45
23 50 45
23 51 46
22 49 44
22 48 43
22 49 44
22 48 43
22 47 43
22 49 44
23 50 45
23 49 44
22 48 43
23 50 45
23 50 45
23 50 45
23 50 45
22 49 44
23 50 45
23 49 45
23 50 45
23 50 45
22 48 43
23 50 45
22 49 44
22 49 44
23 50 45
23 50 45
22 49 44
23 51 46
23 50 45
23 50 45
23 50 45
22 49 44
23 50 45
23 50 45
23 51 46
23 51 46
22 48 44
23 49 44
22 48 43
23 50 46
23 50 45
23 50 45
22 48 44
23 50 45
22 49 44
23 50 45
22 49 44
23 50 45
23 51 46
23 49 45
23 50 45
22 49 44
22 49 44
22 48 43
23 50 45
23 50 45
23 49 45
22 49 44
22 49 44
23 49 45
22 49 44
22 49 44
22 48 44
23 49 45
23 50 46
22 49 44
23 51 46
22 49 44
21 47 43
22 48 43
22 48 43
22 49 45
22 48 43
21 45 41
22 48 43
21 46 42
21 47 42
21 47 42
22 47 43
22 48 44
22 48 44
20 45 41
22 47 43
21 47 43
22 48 43
21 46 42
21 47 43
21 46 42
20 45 41
21 47 43
22 48 43
21 46 42
21 47 42
22 49 44
22 47 43
22 48 43
21 46 42
22 48 43
21 46 41
22 49 44
21 47 43
22 48 44
22 48 43
21 46 42
22 47 43
22 48 43
21 46 42
21 45 41
22 48 43
21 47 43
22 47 43
21 46 42
21 46 41
21 46 42
21 46 41
21 45 41
22 47 43
21 46 42
22 48 43
20 44 39
21 46 41
20 44 40
20 44 39
20 43 38
20 43 38
20 44 39
20 44 40
21 45 40
20 44 40
20 44 39
21 45 40
20 44 40
20 44 39
21 46 41
21 46 41
21 47 42
20 45 40
20 45 40
21 45 41
20 44 40
21 46 41
21 46 41
21 45 41
23 49 44
22 47 42
23 49 44
22 48 43
23 49 45
22 49 44
23 49 44
21 47 42
21 47 42
22 49 44
22 47 43
22 49 44
22 48 44
22 48 43
22 47 43
23 49 44
23 51 46
22 49 44
22 49 44
22 48 43
22 49 44
22 48 44
21 47 42
23 50 45
22 48 44
22 48 43
23 50 45
22 48 44
23 50 45
23 50 45
23 50 45
22 49 44
23 51 46
22 48 43
23 50 45
23 50 45
23 51 46
22 49 44
23 50 46
22 49 44
23 49 45
22 48 44
23 49 45
22 47 43
22 49 44
23 50 45
22 48 44
22 49 44
22 48 44
22 49 44
23 49 45
22 48 43
22 48 44
21 47 42
23 50 45
22 48 43
22 47 43
23 49 45
22 49 44
23 50 45
22 47 43
23 50 45
22 47 43
23 50 45
23 49 44
22 48 43
23 49 44
22 48 43
23 49 45
24 52 47
22 48 44
22 48 44
23 50 45
23 51 46
22 47 43
22 49 44
23 49 44
22 48 44
21 47 42
23 51 46
22 49 44
23 49 45
23 50 45
23 49 44
23 50 45
22 48 44
23 50 45
22 47 43
22 49 44
22 49 44
22 49 44
23 50 46
23 50 45
23 50 45
23 50 45
22 48 44
22 48 43
22 49 44
22 49 44
23 50 45
23 49 44
23 49 45
23 50 45
23 50 45
22 48 44
23 49 45
22 49 44
23 50 45
22 48 44
23 50 45
22 49 44
23 51 46
23 50 45
23 50 45
23 51 46
23 50 45
23 50 45
22 49 44
23 49 44
22 48 44
23 50 45
23 50 45
23 51 46
23 50 45
21 46 42
21 46 42
22 49 45
22 47 43
21 46 41
21 47 42
22 48 44
22 48 43
22 48 44
21 47 43
21 47 43
22 48 44
22 49 44
22 48 44
21 46 42
20 45 41
21 46 42
22 48 44
21 47 43
22 48 43
21 47 43
21 47 43
22 49 44
22 48 43
21 47 43
21 46 42
22 48 43
21 46 42
21 46 42
21 46 42
21 47 43
22 48 43
20 44 40
22 48 43
22 48 43
21 47 42
21 45 41
22 47 43
21 47 43
22 49 44
21 47 42
21 46 42
21 47 42
20 44 40
21 46 41
21 46 42
21 46 42
21 46 42
21 46 41
21 46 42
22 48 43
21 45 40
21 47 42
21 46 41
21 46 42
20 45 40
21 45 40
21 45 40
20 44 39
22 47 42
20 44 39
22 47 42
21 45 40
20 44 40
21 45 40
21 46 41
22 47 42
20 44 39
21 47 42
22 48 43
21 45 41
21 47 42
21 46 41
21 46 42
21 45 40
22 48 43
21 46 42
22 48 43
22 49 44
22 49 44
23 50 45
21 46 42
22 47 43
22 48 43
21 47 42
23 49 45
22 48 43
22 48 43
22 47 43
22 48 43
22 48 44
22 49 44
23 51 46
23 50 45
23 50 45
22 48 44
23 50 45
22 49 44
22 49 44
22 48 43
22 47 43
22 49 44
24 51 46
22 49 44
23 50 45
23 50 45
23 50 45
22 48 44
23 50 45
24 52 47
22 49 44
22 48 44
23 49 45
22 48 44
23 50 45
22 47 43
23 51 46
22 49 44
23 49 45
22 48 44
23 51 46
22 49 45
22 48 43
23 50 45
22 48 44
22 47 43
22 48 43
23 50 45
22 49 45
22 49 44
22 49 45
23 49 45
23 50 45
22 49 44
21 47 42
21 47 43
22 49 44
22 48 44
23 49 45
22 49 44
22 48 44
23 50 45
23 50 45
23 50 45
23 50 46
23 51 46
21 47 43
22 49 44
23 49 45
23 51 46
23 50 45
23 50 45
23 51 46
22 47 42
22 48 43
22 47 43
22 49 44
23 49 45
22 48 44
22 48 43
23 50 45
23 50 45
22 49 44
22 49 44
23 50 45
23 50 45
23 50 45
23 51 46
22 48 43
24 51 46
23 51 46
23 50 45
23 49 45
22 48 43
23 50 45
22 49 44
22 48 43
22 48 43
22 48 44
22 48 43
22 48 44
23 50 45
22 49 44
22 48 43
23 49 45
23 49 45
23 50 45
23 51 46
23 51 46
22 49 44
24 52 47
23 50 45
22 49 45
23 49 44
23 50 45
23 49 45
23 51 46
23 50 45
23 50 45
23 51 46
22 47 43
22 48 44
21 45 41
21 46 42
21 47 43
21 46 42
22 48 43
22 48 43
20 45 41
21 47 42
21 46 42
21 46 42
21 47 43
22 48 44
22 47 43
22 49 44
21 47 43
21 46 42
21 47 43
21 47 43
23 50 45
21 47 43
21 47 43
22 48 43
22 48 44
21 46 42
21 46 42
22 48 44
21 46 42
22 49 44
21 47 42
21 46 42
22 47 43
21 47 42
21 47 43
22 49 44
21 46 42
21 46 42
22 48 43
21 46 41
21 46 41
21 47 42
22 47 43
20 45 40
21 46 42
20 45 40
21 47 42
21 47 42
22 48 43
22 47 43
21 46 41
21 47 42
21 46 41
21 46 42
21 47 42
21 45 41
21 46 41
21 45 41
21 46 42
21 45 41
21 46 42
22 49 44
20 45 40
21 47 42
21 45 40
21 47 42
21 46 42
21 47 42
21 45 41
22 47 43
21 47 42
21 47 43
20 44 40
22 47 42
22 48 43
22 47 43
21 47 42
22 48 43
22 49 44
22 48 43
22 48 43
22 48 43
22 48 44
22 48 43
22 47 43
23 50 45
21 47 42
22 48 43
21 47 42
22 48 43
23 50 45
22 47 43
23 49 44
22 48 43
21 47 42
22 48 44
23 50 45
22 49 44
22 49 44
23 49 45
23 51 46
22 49 44
23 50 45
22 48 43
22 49 44
23 50 45
22 48 43
22 48 44
23 49 45
23 50 45
22 49 44
23 51 46
22 49 44
23 49 45
23 51 46
22 49 44
23 50 45
22 48 44
23 49 45
22 48 44
22 47 43
22 49 44
23 50 45
22 49 44
22 48 43
22 48 44
23 50 45
23 49 44
22 48 43
22 48 44
22 48 43
23 49 45
23 50 45
22 49 44
23 49 45
23 50 45
23 51 46
23 50 45
22 49 44
22 49 44
23 49 44
22 48 43
23 51 46
23 50 45
21 46 42
22 49 44
22 48 43
23 50 45
22 49 44
22 48 44
22 49 44
23 51 46
23 49 45
22 49 44
23 50 45
23 50 45
23 50 45
23 49 45
22 49 44
23 49 45
23 50 45
22 47 43
23 50 45
22 49 44
23 50 45
23 50 45
23 50 45
23 50 45
22 49 44
22 49 45
23 49 44
22 47 43
23 51 46
23 50 45
23 51 46
23 50 45
23 50 45
22 48 44
23 50 45
24 52 47
23 51 46
23 50 45
22 48 43
23 50 46
23 50 45
23 49 45
22 48 44
24 51 47
23 50 45
23 49 44
23 50 45
24 52 47
23 51 46
22 49 44
23 50 45
24 51 46
23 51 46
23 50 45
23 50 45
23 50 45
22 47 43
22 49 45
21 46 42
22 48 44
22 48 44
22 48 44
21 47 43
21 46 42
21 47 43
22 48 44
21 47 43
22 49 44
21 46 42
22 48 43
22 49 44
22 48 44
21 46 42
22 47 43
22 48 44
21 47 42
21 46 41
21 46 42
20 45 41
22 47 43
21 45 41
22 49 45
22 48 43
22 48 44
21 46 42
21 47 42
22 47 43
22 49 44
21 46 42
22 47 43
21 45 41
22 49 44
22 47 43
22 48 43
22 48 43
22 48 44
22 48 43
22 48 44
22 47 43
22 47 43
21 46 41
22 47 43
21 47 42
21 47 42
22 48 43
20 44 40
22 49 44
21 45 41
21 46 41
22 47 42
22 47 43
20 44 40
21 45 41
22 47 43
21 46 41
21 46 42
21 45 41
21 47 42
22 47 43
21 46 42
22 48 43
22 48 44
21 45 41
21 46 41
22 47 42
21 47 42
22 48 43
22 48 43
21 46 42
22 49 44
23 49 44
22 47 43
22 47 43
21 47 42
22 47 43
22 48 43
22 48 44
22 48 43
22 49 44
23 49 45
22 49 44
22 48 43
22 48 43
22 48 43
22 49 44
22 48 44
22 48 44
23 51 46
21 47 42
22 49 44
21 46 42
21 47 42
23 50 45
22 48 43
22 49 44
23 49 44
22 49 44
23 51 46
23 49 45
22 48 43
22 48 44
22 49 44
22 48 44
22 49 44
22 47 43
23 49 45
23 50 45
22 49 44
23 50 45
23 50 45
23 50 45
22 49 44
23 50 45
21 47 42
23 51 46
22 49 44
22 48 43
22 49 44
23 51 46
23 50 45
22 48 44
22 49 44
22 49 44
23 49 45
22 48 43
22 49 44
22 48 43
23 50 45
23 50 45
22 48 44
23 50 45
23 49 45
22 48 44
23 50 45
23 50 45
23 49 45
23 50 45
23 49 44
23 49 44
23 51 46
22 48 44
23 50 45
22 49 44
22 48 43
22 49 44
23 50 45
22 49 44
23 49 45
23 50 45
22 48 44
23 50 45
22 48 44
23 49 44
24 51 46
23 49 45
22 49 44
22 49 44
23 51 46
23 49 45
24 51 46
22 48 43
22 49 44
23 50 45
23 51 46
23 49 44
23 50 45
21 47 42
22 48 44
23 50 45
22 49 44
23 51 46
22 49 44
23 51 46
22 48 44
23 50 45
23 50 45
23 50 45
22 49 44
24 53 48
23 49 45
22 49 44
23 50 45
23 50 45
22 49 44
22 48 43
23 49 45
23 50 45
23 51 46
23 51 46
22 49 44
23 49 44
23 50 45
23 50 45
23 50 45
22 49 44
23 51 46
21 47 43
22 48 43
21 46 42
21 46 42
21 47 42
22 47 43
22 49 45
22 48 44
21 47 43
21 47 43
22 48 44
22 48 44
22 48 44
22 48 43
21 46 42
22 47 43
21 47 42
21 46 42
22 48 44
21 46 41
21 46 42
22 47 43
21 47 42
22 48 44
22 48 43
21 45 41
22 48 44
22 48 43
22 48 43
21 47 43
21 46 42
21 47 43
22 48 43
21 46 42
21 46 42
21 47 42
22 49 44
21 46 42
22 47 43
21 46 42
22 48 43
22 47 43
21 47 42
21 46 42
22 48 44
22 49 44
23 50 45
22 48 43
21 46 42
21 46 42
22 47 43
22 47 43
22 47 43
22 48 43
22 47 43
21 47 42
21 46 42
21 47 42
22 48 43
21 45 41
22 49 44
20 45 40
21 47 42
22 48 43
21 46 42
22 47 42
21 46 42
21 46 41
21 46 41
22 48 44
22 48 43
22 47 43
23 49 44
22 48 43
22 47 43
22 47 43
22 47 43
22 47 43
21 47 43
22 47 43
22 48 43
22 47 43
23 49 44
21 47 43
21 46 42
22 48 44
22 47 43
23 50 45
22 48 43
21 47 42
23 50 45
22 49 44
22 49 44
22 49 44
22 48 44
23 51 46
23 49 45
22 47 43
22 48 43
22 48 44
22 49 44
23 49 45
22 49 44
22 48 43
23 49 45
22 49 44
22 48 44
22 49 44
23 49 45
23 50 45
22 48 43
23 50 45
23 50 45
22 48 43
23 51 46
22 49 44
23 49 44
23 49 45
22 48 44
22 49 44
23 51 46
22 48 43
23 49 45
23 50 45
23 49 45
22 49 44
22 48 43
22 48 43
23 50 46
23 49 45
23 50 45
23 49 44
22 49 44
22 48 43
22 48 44
23 50 45
22 48 44
24 53 48
23 50 45
23 50 45
22 48 44
23 49 45
22 49 44
22 49 44
23 51 46
22 49 44
23 49 44
22 49 44
22 48 43
24 52 47
23 49 44
23 51 46
22 47 43
23 51 46
23 50 45
22 49 44
23 51 46
22 49 44
23 51 46
24 51 46
22 48 43
23 50 45
22 48 43
22 48 43
23 50 45
23 50 45
23 51 46
22 49 44
22 49 44
21 47 42
22 49 44
23 50 45
23 49 45
22 49 44
23 50 45
23 50 45
22 48 43
23 49 44
22 49 44
23 50 45
23 50 45
22 48 44
24 51 46
23 50 45
22 48 43
23 50 45
23 50 46
23 50 45
23 50 45
23 51 46
23 50 45
22 49 44
23 50 45
23 50 45
23 51 46
22 48 43
23 50 45
23 50 45
23 50 45
22 49 44
22 48 43
21 47 43
22 49 44
22 48 44
23 50 45
22 48 43
21 46 42
22 48 43
22 48 44
23 49 45
22 48 44
22 49 44
22 49 44
21 47 43
21 47 42
21 47 42
22 48 43
22 49 44
22 48 44
21 46 42
21 47 43
21 47 43
22 48 43
22 48 44
22 49 44
22 48 44
22 47 43
21 47 42
21 46 42
22 49 44
22 49 45
21 47 42
22 47 43
21 47 43
21 47 42
21 47 42
22 47 43
21 47 43
21 47 43
21 46 42
21 45 41
22 49 44
21 46 42
21 46 42
21 47 42
21 47 43
22 47 43
22 47 43
22 48 43
21 46 42
21 46 42
22 47 43
22 48 43
22 48 44
21 46 42
22 48 43
21 46 42
22 48 43
22 49 44
21 46 41
22 47 43
22 48 43
21 47 42
22 47 42
21 46 41
21 47 42
21 46 41
22 48 43
22 48 43
21 47 42
22 47 42
21 46 42
22 48 43
23 49 44
22 48 43
21 46 42
23 50 45
21 47 42
22 48 44
23 50 45
23 49 45
23 51 46
22 49 44
22 47 43
21 47 42
22 47 43
22 48 43
21 47 42
22 49 44
23 51 46
21 47 42
23 49 45
23 50 45
21 46 41
23 51 46
23 50 45
22 48 44
22 49 44
23 49 45
23 49 44
23 51 46
22 48 43
21 47 42
23 49 45
21 47 43
23 50 45
22 49 44
23 49 45
22 49 44
22 49 44
23 50 45
23 50 45
24 52 47
23 51 46
23 50 46
22 48 43
23 49 44
22 48 43
22 49 44
23 50 45
22 49 44
23 50 45
22 48 43
22 48 44
24 52 47
22 49 44
22 49 44
23 51 46
23 51 46
23 50 45
22 48 44
23 50 45
23 51 46
22 49 44
22 49 45
22 49 45
23 50 45
23 51 46
22 48 44
22 47 43
22 48 43
23 51 46
22 49 44
23 50 45
23 51 46
22 49 44
23 50 45
23 50 45
23 49 45
22 48 43
23 50 45
22 49 44
23 50 45
23 49 44
23 50 45
22 49 44
22 49 44
23 49 44
22 49 44
22 49 44
22 49 44
23 49 44
22 49 44
23 51 46
22 49 44
23 50 45
24 52 47
23 49 44
23 50 45
22 47 43
22 48 44
22 47 43
23 49 45
23 50 46
22 49 44
22 49 44
23 49 44
24 52 47
23 49 45
22 49 44
23 51 46
23 50 45
23 50 45
22 49 44
22 48 43
22 49 44
23 50 45
21 47 42
23 49 44
23 49 45
22 49 44
23 49 45
23 50 45
24 52 47
22 48 43
23 50 45
23 49 44
22 49 44
23 50 45
22 49 44
22 48 44
21 47 43
22 48 43
22 48 44
22 48 44
21 47 42
21 47 43
21 47 42
21 47 42
22 48 44
21 46 42
22 48 44
22 48 44
22 48 43
22 49 44
21 46 42
22 48 44
23 50 45
21 46 41
22 48 44
21 47 43
22 47 43
21 46 42
21 47 43
21 46 42
21 47 43
22 48 43
22 48 43
21 47 42
21 47 42
21 47 43
21 46 42
21 46 42
22 48 43
22 48 44
22 49 44
22 49 44
22 48 43
21 46 42
22 49 44
22 48 44
22 48 44
22 48 44
22 47 43
21 46 42
22 48 43
22 48 43
21 47 42
22 49 44
21 46 42
21 46 42
22 47 42
23 49 45
22 48 43
21 46 42
22 49 44
22 49 44
22 47 43
22 48 43
21 47 42
22 47 42
22 48 43
21 47 42
23 51 46
21 47 42
22 47 43
21 46 42
22 48 44
23 50 45
21 47 42
22 47 43
22 48 43
22 49 44
22 49 44
22 48 44
22 48 44
22 47 43
22 47 42
22 47 43
22 49 44
23 49 44
23 51 46
23 50 45
22 47 43
23 49 44
22 48 44
23 50 45
23 49 45
22 49 44
22 49 44
22 49 44
21 47 43
22 48 43
22 49 45
22 48 43
23 49 45
22 48 44
23 50 45
23 50 45
22 48 43
23 50 45
22 47 43
22 48 43
22 49 44
23 51 46
22 49 44
22 48 43
21 47 42
23 50 45
23 50 45
22 47 43
22 49 44
23 50 45
23 51 46
22 48 44
22 48 43
22 48 43
23 50 45
22 48 43
24 52 47
22 48 44
23 49 45
22 49 44
23 49 44
23 50 46
22 48 43
23 49 44
23 50 45
22 48 43
22 49 44
22 49 44
24 52 46
23 49 45
22 48 44
22 48 43
22 48 43
23 50 45
23 50 45
24 51 46
23 50 46
23 50 46
23 50 45
23 50 45
23 49 44
22 48 44
23 51 46
22 47 43
24 52 47
22 48 43
23 49 44
23 51 46
23 49 44
23 50 45
23 50 45
22 48 43
22 48 44
22 48 44
23 49 45
21 47 42
22 48 44
22 49 44
22 49 44
23 49 45
23 50 45
22 48 44
23 50 45
23 51 46
22 49 44
23 50 45
23 51 46
22 48 44
23 51 46
23 51 46
22 49 44
22 48 43
23 50 45
22 49 44
23 50 45
23 50 45
22 49 44
23 50 45
23 50 45
22 49 44
22 49 44
22 48 43
23 50 45
22 49 44
23 50 45
23 50 45
23 50 45
22 49 44
23 50 45
23 49 45
23 50 45
22 49 44
23 50 45
22 48 43
22 49 44
22 49 44
22 48 44
23 50 45
21 47 43
22 48 44
21 47 43
22 48 44
21 47 42
22 47 43
21 47 42
21 47 42
22 49 45
22 48 44
22 48 43
21 47 42
22 48 43
21 46 42
22 48 43
22 49 45
22 48 43
21 47 43
22 47 43
22 48 44
21 47 43
22 48 44
22 48 43
22 49 44
22 47 43
22 48 43
21 47 43
22 48 43
22 49 44
21 47 42
21 46 42
22 48 43
22 49 44
21 47 42
21 46 42
21 46 41
21 46 42
22 49 45
22 49 45
22 47 43
22 48 43
22 48 43
21 46 42
21 47 43
22 49 45
21 46 42
21 47 42
22 47 43
23 49 44
21 47 42
21 46 42
21 47 42
21 45 41
22 48 43
21 47 42
22 49 44
22 48 43
22 48 43
22 47 43
21 46 42
22 49 44
22 49 44
22 48 43
21 47 42
23 50 45
22 47 43
22 49 44
23 49 45
22 49 44
23 50 45
22 48 44
22 47 43
22 47 43
22 48 43
21 46 42
21 47 42
22 47 43
22 48 44
23 51 46
22 49 44
22 48 44
22 48 43
22 47 43
22 48 43
23 49 45
21 47 42
23 50 45
22 48 43
23 49 45
22 48 43
23 49 44
21 47 43
23 49 45
22 48 44
22 49 44
21 47 42
22 49 44
22 49 44
22 49 44
22 48 43
23 49 45
22 48 44
23 49 45
23 50 45
22 48 43
22 48 43
22 48 44
22 48 43
23 50 45
22 48 43
22 49 44
22 48 43
23 50 45
23 50 45
23 49 45
22 48 43
22 48 43
21 47 42
23 50 45
22 49 44
23 49 44
23 50 45
23 51 46
23 50 45
22 48 43
22 48 44
23 50 45
22 48 43
23 50 45
21 46 42
23 50 45
23 49 45
22 49 44
22 49 44
23 51 46
22 49 44
22 49 44
23 51 46
23 50 45
22 48 43
23 51 46
23 50 46
23 50 45
23 50 45
23 50 45
23 50 45
22 48 43
23 51 46
23 50 45
22 48 43
22 48 43
22 49 44
23 50 45
23 49 44
22 48 44
23 50 45
23 51 46
23 51 46
22 49 44
23 49 45
24 52 47
22 48 44
23 51 46
22 48 43
23 50 45
23 50 45
23 51 46
23 51 46
23 50 45
23 50 45
23 51 46
22 48 43
23 50 45
23 50 45
23 49 45
22 49 44
22 49 44
22 49 44
22 49 44
22 48 43
23 49 45
23 51 46
22 49 44
23 50 45
23 51 46
23 50 45
23 50 45
23 49 45
22 47 43
23 49 45
23 49 45
23 51 46
23 51 46
23 50 45
23 50 45
23 51 46
24 52 47
23 50 45
23 50 45
22 49 45
22 48 44
22 49 45
22 48 44
22 49 44
22 48 43
21 47 43
21 47 42
21 46 42
21 46 42
22 48 43
21 47 42
22 48 44
22 49 44
22 48 44
22 48 43
21 47 42
22 47 43
21 47 42
22 48 44
22 49 44
21 47 43
22 48 43
22 48 43
21 46 42
22 49 45
22 48 44
21 45 41
23 50 45
22 47 43
21 47 42
21 46 42
21 47 42
21 47 43
22 48 43
22 48 43
21 46 42
21 47 43
21 46 41
22 48 44
21 46 42
21 47 42
22 47 43
22 47 43
22 48 43
22 49 44
22 47 43
22 48 43
22 48 43
22 48 43
21 45 41
22 48 43
22 48 43
22 47 43
23 50 45
22 48 43
21 47 42
23 51 46
22 48 43
22 48 43
21 46 41
21 47 42
22 48 43
22 47 43
22 48 44
21 46 41
22 48 43
22 47 43
23 49 44
22 48 44
22 48 43
22 48 43
22 47 43
21 46 42
22 48 44
22 48 43
21 47 42
23 51 46
22 48 43
21 46 42
22 49 44
22 48 44
22 48 44
21 47 43
21 47 42
23 50 45
22 48 44
22 48 44
21 47 42
22 49 44
22 48 44
23 49 44
22 49 44
22 48 44
21 46 42
23 49 45
22 48 44
22 48 43
23 49 44
23 50 45
22 49 45
22 48 44
23 51 46
23 51 46
23 50 45
22 49 44
22 47 43
23 50 45
22 49 44
23 51 46
22 47 43
22 48 44
22 49 44
23 50 45
22 49 44
23 51 46
22 48 43
22 49 44
22 49 44
23 51 46
22 48 44
22 49 44
22 48 43
22 49 44
22 49 44
22 48 44
23 51 46
23 49 45
23 49 44
22 49 44
23 50 45
22 49 44
23 50 46
22 49 44
22 48 43
22 49 44
22 48 43
23 50 45
23 50 45
23 50 45
23 50 45
23 50 45
23 50 45
23 51 46
22 49 44
23 50 45
22 48 43
24 51 47
23 50 45
23 50 45
23 50 45
23 50 45
23 50 45
22 48 43
23 50 46
23 51 46
23 50 45
22 49 44
23 50 45
22 48 43
22 48 44
23 50 46
22 48 44
23 50 45
23 51 46
23 50 46
23 50 45
24 52 47
23 50 45
22 48 43
23 50 45
23 51 46
22 49 44
22 48 43
22 48 43
23 50 45
23 50 45
22 48 43
23 51 46
23 50 45
23 49 45
23 51 46
22 49 44
23 50 46
22 49 44
23 50 45
22 47 43
22 49 44
23 50 45
23 51 46
22 49 44
22 49 44
22 48 43
23 51 46
23 50 45
23 50 45
23 49 44
23 50 45
22 48 44
22 48 44
22 49 45
22 48 44
21 47 43
21 46 42
22 49 44
22 49 45
21 47 43
21 46 41
21 47 43
22 48 44
21 47 42
22 47 43
21 46 42
21 47 43
21 47 43
21 47 43
22 47 43
21 47 43
22 49 44
22 48 43
22 48 44
22 48 43
22 49 44
22 49 45
22 49 44
22 48 43
22 48 44
22 47 43
22 49 44
21 46 42
21 46 42
22 49 44
22 47 43
21 46 42
22 47 43
22 48 43
23 49 45
22 47 43
22 48 44
21 47 43
22 48 44
22 47 43
21 47 42
21 47 43
21 46 42
21 47 42
22 48 43
22 48 43
21 46 41
22 48 44
23 50 45
21 46 42
22 49 44
22 48 43
22 47 43
22 48 44
21 46 41
23 49 45
22 48 43
22 47 43
22 48 44
22 48 43
22 49 44
22 47 43
21 47 42
21 47 42
22 48 43
22 48 44
23 49 44
22 47 43
22 48 44
22 48 43
22 49 44
22 48 43
22 49 44
21 46 41
23 49 45
23 51 46
22 48 43
22 48 44
22 47 43
21 47 42
23 50 45
22 49 44
22 49 44
22 48 44
21 47 42
22 49 44
22 47 43
23 51 46
22 48 43
22 47 43
23 50 45
23 50 45
21 47 42
22 49 44
21 47 42
22 48 43
22 49 44
23 50 45
22 49 44
23 51 47
22 49 44
23 49 45
23 50 45
22 48 43
22 49 44
21 47 43
23 50 45
23 49 45
22 48 43
22 49 44
22 48 43
23 49 45
22 49 44
22 48 44
22 48 44
23 50 45
23 50 45
22 49 44
23 49 44
22 49 44
22 49 44
22 48 43
22 49 44
23 50 45
23 50 45
23 50 45
22 49 44
23 50 45
22 48 43
22 49 44
22 48 43
23 51 46
22 48 44
22 48 44
23 51 46
23 51 46
23 50 45
23 49 44
23 51 46
23 50 45
23 51 46
24 51 46
23 50 45
22 47 43
22 48 44
21 47 42
22 48 44
22 48 44
22 49 44
22 49 44
22 48 44
23 50 45
23 51 46
23 50 45
22 49 44
22 49 44
23 50 45
23 51 46
23 50 45
24 52 47
24 52 47
22 49 44
22 49 44
23 51 46
24 51 46
23 49 44
23 50 45
24 52 47
23 49 45
22 49 44
23 50 45
23 50 45
23 51 46
23 50 45
23 50 45
23 50 45
23 50 45
22 47 43
23 50 46
23 50 45
22 49 44
24 52 47
23 51 46
23 51 46
22 49 44
23 51 46
23 51 46
23 50 45
23 50 45
23 50 45
23 50 45
22 49 44
23 50 45
24 52 47
22 49 44
22 48 43
23 50 45
23 50 45
21 47 43
22 48 44
21 47 43
21 46 41
22 48 43
22 48 43
21 46 42
22 47 43
22 49 44
22 49 44
22 48 44
22 47 43
21 47 43
22 48 44
22 49 44
21 46 42
21 47 43
21 47 43
22 49 44
21 46 42
22 49 45
22 48 43
22 49 44
22 48 44
21 46 42
22 49 44
22 49 45
21 46 42
21 47 42
22 48 43
22 48 44
22 48 43
23 49 45
21 47 43
22 48 44
22 48 44
22 48 43
22 49 45
22 47 43
22 47 43
22 49 44
22 49 44
22 49 44
22 48 43
22 47 43
21 47 43
22 48 44
22 49 44
22 48 44
22 49 44
21 47 42
22 47 43
22 48 44
22 48 44
21 46 41
21 47 43
23 50 45
22 47 43
22 48 44
22 48 43
22 48 43
22 48 43
22 48 43
23 50 45
22 47 43
22 48 44
21 45 41
22 48 43
23 49 45
22 48 44
22 47 43
21 46 42
22 48 44
23 49 45
22 49 44
22 49 44
22 49 44
22 47 43
22 47 43
22 47 43
22 48 44
22 47 43
23 51 46
22 48 43
23 50 45
23 50 46
23 50 45
22 48 43
23 50 45
24 52 47
22 48 43
22 48 44
23 49 45
22 48 44
22 49 44
23 49 45
23 49 45
23 50 45
22 49 44
23 51 46
22 49 44
23 50 45
23 51 46
23 51 46
22 49 44
23 51 46
22 49 44
22 48 43
22 49 44
22 49 44
22 48 44
23 51 46
22 48 44
22 49 44
23 50 45
23 49 45
22 48 44
23 51 46
22 47 43
22 48 44
22 48 44
21 46 42
22 49 44
22 49 44
22 48 43
22 48 43
24 52 47
23 49 45
22 49 44
22 49 44
23 50 46
24 51 46
22 49 44
22 49 44
24 53 48
24 51 46
23 50 45
22 49 44
22 49 44
23 50 45
23 50 45
23 50 45
22 48 43
23 51 46
22 48 43
22 49 44
23 50 45
22 49 44
23 51 46
23 50 45
22 48 43
23 50 45
23 50 45
23 51 46
24 52 47
23 49 45
22 49 44
23 50 45
23 51 46
23 50 45
23 51 46
23 51 46
24 51 46
22 49 44
23 51 46
23 49 45
22 48 44
23 49 45
23 49 45
22 49 44
23 50 45
23 50 45
23 49 44
23 50 45
22 49 44
23 51 46
23 50 45
23 50 45
23 51 46
22 49 44
23 50 45
23 50 45
23 50 45
23 50 45
22 49 44
23 50 45
22 48 44
23 50 45
23 51 46
23 50 45
22 47 43
23 51 46
23 49 45
24 53 48
23 50 45
23 50 45
23 50 45
23 49 44
23 50 45
23 50 45
22 48 44
21 47 43
22 49 44
22 48 43
21 46 42
22 49 44
22 48 44
21 47 43
22 47 43
22 49 45
22 48 43
22 48 43
21 46 42
22 47 43
21 46 42
22 48 43
22 49 44
21 46 42
22 49 44
21 47 43
21 46 42
21 47 43
22 47 43
21 47 42
21 47 43
21 47 43
22 48 43
21 47 43
22 48 44
22 48 44
21 47 43
22 49 44
22 48 43
22 48 43
22 48 44
22 49 44
22 47 43
23 49 45
22 48 43
22 47 43
22 48 43
21 46 41
21 47 42
22 49 44
21 47 42
22 47 43
22 49 44
21 46 41
22 48 43
22 47 43
22 48 43
22 48 43
22 48 43
22 48 43
23 50 45
22 47 43
22 48 43
22 48 44
21 46 42
22 47 43
22 48 44
22 47 43
23 50 45
23 49 45
22 47 43
21 47 43
21 47 42
22 48 43
22 48 43
22 49 44
24 51 47
23 49 45
22 48 43
22 48 43
22 47 43
22 48 44
22 48 43
22 48 43
23 51 46
22 49 44
22 48 43
22 49 44
22 47 43
21 47 43
22 48 44
23 50 45
22 48 44
23 50 45
22 49 44
23 50 45
22 49 44
21 46 42
22 48 44
21 47 42
23 49 45
22 49 44
22 49 44
23 50 46
22 49 44
23 50 45
23 49 45
22 49 44
23 50 45
22 49 44
23 50 45
22 49 44
23 50 45
23 50 45
23 50 45
22 49 44
21 47 43
23 49 45
22 48 44
22 49 44
22 49 45
22 49 44
22 49 44
23 50 45
22 48 44
22 49 44
22 49 44
21 47 42
22 48 43
24 51 46
23 50 45
22 47 43
22 49 44
22 48 43
24 51 46
22 48 44
23 50 45
22 49 44
23 49 44
23 51 46
23 49 45
22 49 44
22 49 44
22 49 44
23 50 46
23 50 45
22 48 44
22 49 44
22 49 44
23 49 45
22 47 43
22 48 44
23 50 45
22 48 43
23 50 46
23 50 45
23 50 45
23 50 45
23 50 45
23 50 45
22 48 43
23 49 45
22 48 43
22 49 44
24 52 46
22 49 44
22 49 44
23 50 45
22 48 43
23 49 44
22 49 44
22 48 43
23 50 45
23 50 45
23 51 46
23 51 46
22 49 44
23 50 45
23 49 45
22 48 44
23 50 45
23 51 46
23 50 45
22 49 44
22 48 44
23 51 46
23 50 45
22 49 44
23 51 46
24 51 46
22 48 43
23 49 44
23 50 45
23 49 45
23 51 46
22 49 44
22 48 44
23 50 45
23 50 45
22 49 44
22 47 43
23 49 45
23 49 45
22 49 44
24 52 46
23 50 45
22 49 44
22 48 43
21 46 42
21 46 42
22 48 43
21 47 43
22 48 44
22 49 44
21 47 42
22 48 44
22 47 43
22 49 45
22 48 44
21 47 42
21 47 43
23 50 46
22 48 43
22 48 44
21 47 42
21 46 42
22 49 44
21 47 42
22 49 44
21 46 42
22 49 45
22 49 44
22 48 43
22 47 43
22 48 43
21 47 42
22 48 43
21 47 42
22 48 44
21 47 42
22 49 44
22 47 43
22 48 44
22 47 43
22 48 43
22 49 44
22 48 43
21 47 43
21 47 43
22 47 43
21 46 42
22 48 43
22 48 43
22 47 43
23 49 45
22 48 44
23 50 45
23 51 46
22 48 43
22 48 44
21 47 43
22 48 43
22 48 44
22 47 43
22 48 44
23 50 45
22 49 44
22 48 43
22 48 44
22 48 44
23 50 45
21 46 42
23 50 45
22 49 44
21 47 42
22 48 43
22 48 43
22 49 44
22 49 44
23 49 45
22 49 44
23 50 45
22 48 43
22 48 43
22 48 43
23 50 45
22 49 44
22 48 43
23 49 45
23 50 45
22 48 43
22 49 44
22 48 44
21 46 41
22 48 43
21 47 42
23 50 45
23 50 45
23 50 45
22 49 44
22 48 43
23 50 45
23 50 46
23 50 45
22 47 43
23 50 45
22 49 44
23 50 45
22 47 43
23 50 45
22 47 43
22 49 44
22 48 44
23 51 46
22 48 43
22 49 44
23 50 45
23 50 45
22 48 44
23 50 45
23 51 46
23 51 46
22 49 44
23 50 45
23 49 44
23 50 45
22 48 44
22 49 44
22 48 43
22 49 44
22 49 44
22 48 44
22 48 44
23 49 45
21 47 42
23 50 45
23 49 45
22 49 44
23 50 45
24 51 46
22 49 44
23 51 46
22 48 44
22 49 44
22 49 44
23 50 46
23 50 45
22 49 44
22 48 43
23 50 45
22 48 44
23 50 45
23 51 46
23 50 45
23 49 44
23 50 45
23 49 45
22 47 43
22 49 44
23 50 45
23 50 45
23 50 45
22 49 44
22 49 44
22 49 44
23 49 45
23 50 45
22 49 44
23 49 45
24 51 46
23 49 45
23 50 45
23 49 44
22 48 44
22 49 44
22 49 44
23 50 45
22 49 44
22 48 44
23 50 45
22 49 44
23 51 46
22 48 43
23 50 45
22 49 44
23 50 45
23 51 46
23 50 45
22 48 43
23 50 45
23 49 44
23 50 45
23 51 46
22 48 43
23 50 45
23 50 45
23 50 45
22 49 44
22 49 44
22 49 44
23 49 45
22 49 44
22 49 44
23 50 45
22 49 44
22 49 44
21 46 42
21 47 43
22 48 44
20 45 41
22 47 43
22 48 44
21 47 42
22 48 43
22 49 44
22 48 44
21 47 43
21 47 43
21 46 42
22 47 43
22 48 44
22 49 45
22 48 44
22 48 44
22 48 44
22 48 43
22 47 43
21 46 42
22 48 43
22 47 43
22 47 43
22 48 43
21 47 42
22 48 44
21 46 42
22 47 43
21 47 42
22 48 43
21 46 41
23 50 45
21 47 43
22 48 43
21 47 42
22 48 44
22 49 44
22 48 44
22 49 44
22 48 44
22 48 43
22 48 44
21 47 43
21 47 43
22 48 43
21 47 42
22 48 44
21 47 42
21 47 42
22 49 45
22 48 44
22 48 44
23 50 45
23 50 45
22 48 43
22 48 43
22 48 43
22 48 43
21 46 42
22 48 43
22 47 43
22 48 43
23 50 45
23 50 45
23 49 45
22 48 43
23 49 45
23 50 45
22 48 43
22 47 43
23 50 45
23 50 46
23 49 45
23 50 46
22 48 43
22 48 44
21 47 42
22 48 44
22 49 44
22 48 44
22 47 43
22 49 44
23 50 45
22 48 44
22 49 44
22 49 44
23 50 45
23 50 45
23 50 45
22 49 44
22 48 43
23 51 46
22 49 44
21 46 42
23 49 45
23 50 45
23 50 45
23 50 45
22 49 44
23 50 45
23 49 45
22 48 43
22 48 43
23 50 45
23 51 46
22 48 43
22 48 43
23 50 45
23 51 46
23 50 45
22 49 44
23 49 45
22 49 44
23 50 45
23 50 45
23 50 45
22 49 44
23 49 45
22 49 44
22 47 43
23 50 45
22 49 44
23 50 45
22 48 43
23 51 46
23 51 46
22 49 44
24 52 47
22 49 44
23 49 44
24 52 46
23 49 45
22 49 44
23 49 45
23 50 45
23 50 45
22 48 43
22 48 43
23 51 46
23 50 45
23 51 46
23 50 45
23 50 46
23 51 46
22 48 44
22 49 44
23 51 46
23 50 46
22 48 44
22 48 43
23 49 45
23 50 45
23 49 44
22 49 44
22 48 44
24 51 46
23 50 45
23 51 46
23 49 44
24 52 47
23 50 45
23 49 45
22 48 43
23 50 45
22 48 44
22 47 43
23 51 46
22 49 44
23 50 46
23 51 46
23 50 45
23 51 46
23 50 45
23 50 45
23 50 45
23 50 45
23 50 46
24 52 47
23 50 45
23 50 45
23 50 45
23 51 46
24 52 47
22 48 43
23 49 44
22 47 43
24 53 48
23 50 45
22 48 44
23 49 44
23 50 45
23 49 44
22 49 44
22 48 43
23 51 46
24 52 47
23 50 45
23 50 45
22 48 44
21 46 42
23 50 46
21 47 42
21 46 42
21 47 43
22 48 43
22 49 44
22 48 44
22 49 44
21 47 43
22 49 45
22 48 43
21 46 42
22 48 44
22 48 44
22 48 44
22 48 44
22 49 44
21 47 42
22 48 43
21 46 42
22 48 43
21 47 43
21 47 42
22 49 45
21 47 43
22 48 44
22 47 43
22 48 44
22 49 44
22 49 44
21 46 42
22 48 43
22 49 44
22 48 43
21 47 43
22 48 43
22 48 44
22 48 44
21 47 42
22 48 44
22 49 44
21 47 43
22 48 44
21 46 42
22 47 43
22 47 43
22 48 43
22 49 44
22 49 44
21 47 43
21 47 42
22 47 43
21 47 42
22 47 43
22 47 43
23 50 45
22 48 43
21 47 42
21 46 42
22 49 44
21 46 42
22 47 43
22 49 44
22 48 44
22 48 44
22 49 44
22 49 44
21 47 42
21 47 42
22 49 44
22 48 43
22 47 43
23 50 45
22 49 44
22 48 43
22 48 44
22 47 43
22 48 43
22 49 44
23 49 45
22 48 44
22 49 44
22 47 42
22 48 44
23 49 45
22 49 44
22 48 43
22 48 43
22 47 43
22 48 43
22 49 44
22 49 44
22 48 44
22 49 44
23 50 45
22 49 44
22 48 43
22 49 44
23 49 45
22 49 44
23 51 46
22 48 43
22 47 43
22 49 44
23 50 45
23 50 45
23 49 44
23 50 45
22 48 43
23 50 45
23 49 44
22 48 43
23 49 45
23 49 44
22 48 43
22 47 43
22 49 44
22 48 44
23 50 45
23 50 46
22 49 44
23 50 45
22 48 43
22 47 43
23 50 45
23 49 45
22 49 44
22 49 44
23 50 45
23 49 44
23 49 45
23 51 46
21 47 42
22 47 43
23 51 46
23 49 45
23 49 45
22 49 44
23 51 46
23 50 45
22 49 44
24 52 47
23 51 46
23 49 44
23 49 44
23 50 45
22 49 44
22 48 43
22 49 44
22 47 43
22 49 44
22 49 44
23 51 46
22 49 44
24 52 47
22 49 44
22 49 44
23 49 45
23 49 44
23 51 46
23 51 46
22 49 44
22 48 43
23 51 46
23 50 45
22 49 44
23 49 45
23 51 46
23 49 45
23 50 46
23 51 46
22 49 44
22 48 44
23 50 45
22 48 43
23 49 44
23 51 46
23 50 45
23 51 46
23 49 45
23 50 45
22 49 44
22 49 44
23 50 46
23 49 45
24 53 48
22 49 44
22 48 43
23 51 46
22 48 43
23 50 45
23 50 45
22 49 44
22 49 44
23 50 45
23 50 45
24 51 46
22 49 44
22 47 43
22 49 44
22 47 43
22 47 43
22 48 44
22 48 44
21 47 43
22 49 44
22 48 44
23 50 45
21 46 42
22 48 44
23 51 46
21 47 42
22 48 44
22 48 43
23 50 45
22 48 44
21 47 43
22 49 44
21 47 42
22 48 43
22 48 43
21 47 42
23 50 45
21 47 43
21 47 42
22 48 44
22 48 43
21 47 42
21 46 41
22 48 43
21 47 42
22 49 44
22 49 45
22 48 43
22 49 45
21 46 42
21 47 42
21 47 43
21 47 42
22 49 44
22 47 43
22 48 43
22 48 44
23 50 45
22 49 45
22 48 44
22 48 43
22 48 43
23 50 45
21 46 42
22 47 43
22 49 44
23 49 45
22 48 44
22 49 45
22 48 43
22 49 44
22 47 43
22 47 43
22 49 44
22 47 43
22 48 44
23 49 45
22 48 44
21 47 42
22 48 44
22 48 43
22 47 43
24 52 47
22 49 44
22 48 43
23 50 45
22 48 43
23 49 45
23 50 45
22 49 44
22 49 44
22 49 44
22 47 43
23 49 44
21 46 42
22 47 43
21 46 42
22 48 43
22 47 43
22 48 44
22 48 43
23 50 45
22 48 44
23 49 45
23 49 44
22 48 44
22 48 44
22 49 44
22 48 44
23 50 45
23 49 45
22 49 44
23 50 45
21 46 42
22 49 44
23 50 45
23 50 45
22 48 44
22 48 44
23 50 45
22 49 44
22 48 44
23 50 45
22 48 43
23 50 45
22 49 44
22 49 44
22 49 44
22 47 43
22 49 44
22 49 44
22 49 44
23 49 45
22 48 43
23 50 45
22 49 44
22 48 44
23 50 46
22 49 44
21 47 43
22 48 44
21 47 42
23 50 45
23 49 45
22 48 44
22 49 44
23 50 45
23 51 46
22 48 44
22 49 44
22 49 44
23 50 45
22 48 43
23 49 44
21 46 42
23 49 44
22 48 43
21 46 42
22 49 44
23 51 46
23 51 46
24 51 46
23 50 45
22 47 43
23 50 45
23 51 46
22 49 44
22 48 44
23 50 45
23 49 44
23 49 44
23 50 45
23 50 45
23 50 45
23 50 45
23 50 45
23 51 46
22 49 44
23 50 45
23 49 44
22 48 44
22 49 44
23 50 46
23 51 46
23 51 46
23 49 44
22 49 44
23 49 44
23 49 45
23 50 45
23 50 45
22 48 43
23 50 45
23 50 45
22 49 44
22 48 43
22 48 43
22 48 43
23 51 46
23 51 46
23 50 45
22 48 43
22 48 44
24 51 46
23 50 45
23 49 45
23 49 44
23 49 45
23 51 46
24 51 46
23 50 45
23 51 46
22 47 43
23 50 45
22 49 44
22 48 44
22 48 43
21 46 41
22 48 44
22 48 44
21 46 42
22 48 44
21 47 43
22 48 43
22 47 43
22 49 44
21 47 43
21 47 43
22 48 43
23 51 46
22 48 43
22 48 43
22 48 43
22 48 44
22 48 43
22 48 43
21 47 43
22 48 44
22 49 44
22 48 43
22 49 45
22 48 43
21 47 43
21 47 43
21 47 43
21 47 43
22 48 43
22 49 45
21 47 43
22 48 44
21 47 43
21 47 42
22 48 43
23 50 45
23 49 45
22 48 44
22 48 43
22 48 43
22 48 44
22 49 44
22 47 43
21 46 42
22 48 44
21 47 42
23 49 45
22 48 43
21 47 42
21 47 42
23 50 46
23 51 46
22 47 43
22 49 44
22 49 44
23 50 45
21 46 42
22 49 44
22 48 44
22 48 43
22 47 43
22 48 44
22 48 43
21 47 43
22 48 44
23 51 46
23 49 45
23 50 45
21 47 43
23 49 45
22 48 43
21 47 43
22 47 43
22 48 43
21 47 43
23 49 45
22 47 43
22 48 44
22 48 44
22 48 44
23 51 46
22 47 43
22 49 44
22 47 43
22 49 44
21 47 42
22 49 44
22 49 44
23 49 45
22 49 44
22 49 44
22 49 44
22 47 43
22 49 44
23 51 46
22 47 43
23 49 45
23 51 46
22 49 44
22 48 44
22 49 44
23 49 44
22 49 44
23 49 45
23 49 44
23 50 45
22 49 44
22 49 44
23 49 45
22 48 43
22 48 44
21 47 42
21 46 42
22 49 44
23 50 45
22 49 44
23 50 45
22 49 44
23 50 45
22 48 44
23 50 45
23 49 44
22 47 42
22 48 44
22 48 44
23 51 46
23 50 45
22 47 43
23 51 46
23 50 45
22 48 43
23 49 44
23 50 45
22 48 43
22 48 44
22 49 44
23 50 45
22 47 43
23 51 46
23 50 45
22 49 44
23 50 45
23 51 46
23 50 45
22 49 44
22 48 44
23 50 45
23 49 45
22 49 44
22 48 43
23 51 46
23 51 46
23 50 45
23 49 45
22 49 44
23 50 45
23 50 45
23 50 45
23 49 45
22 49 44
22 49 44
23 50 46
22 49 44
23 50 45
23 50 45
23 50 45
23 50 45
23 51 46
23 50 45
23 50 45
22 49 44
23 51 46
24 52 46
23 50 45
22 48 43
22 49 44
23 50 45
23 50 45
22 49 44
22 49 44
23 51 46
23 50 45
23 49 45
22 49 44
23 49 44
23 50 45
23 49 45
22 49 44
22 49 44
23 51 46
22 48 43
23 51 46
22 49 44
24 52 47
21 47 43
22 48 44
22 49 45
21 47 43
21 47 43
21 47 42
22 48 43
22 48 44
21 47 43
21 47 43
21 45 41
22 48 43
22 48 44
22 47 43
22 49 44
22 49 45
21 47 43
21 47 43
22 49 44
21 47 42
21 47 42
21 47 42
21 46 42
21 47 43
21 46 42
23 49 45
22 49 44
21 47 43
22 48 44
21 47 42
22 48 43
22 48 44
22 49 44
21 47 42
22 48 43
23 50 46
22 48 44
21 47 42
23 49 45
22 48 43
21 46 42
23 49 45
21 47 43
22 48 44
22 49 44
22 48 44
22 48 43
22 48 43
22 48 43
22 49 45
21 46 42
21 46 42
22 48 43
22 47 43
22 48 44
23 50 45
22 48 44
22 48 44
22 47 43
23 50 45
21 47 42
22 48 43
23 51 46
22 49 44
22 49 44
21 47 43
23 49 45
21 47 42
24 52 47
22 48 43
22 48 43
23 49 45
22 49 44
22 47 43
22 49 44
21 47 43
21 46 42
21 46 42
22 48 43
22 48 43
23 49 45
22 48 44
23 50 45
22 48 44
22 49 44
23 50 45
22 49 44
23 50 45
23 50 45
22 49 44
23 51 46
22 48 44
22 48 43
23 50 45
22 48 43
21 47 42
23 49 45
22 49 44
23 50 45
22 49 44
23 49 44
22 47 43
22 49 44
23 50 45
22 49 44
22 48 44
23 49 45
23 50 45
21 47 42
23 49 45
22 49 44
22 47 43
23 51 46
22 48 43
22 49 44
22 48 43
21 47 42
23 51 46
23 49 45
23 50 45
22 48 44
22 48 43
22 49 44
23 50 46
23 50 45
22 49 44
23 51 46
23 51 46
23 51 46
22 48 43
23 51 46
22 49 44
23 51 46
22 49 44
22 48 43
22 48 43
23 49 44
22 49 44
22 48 43
23 50 46
23 49 44
22 49 44
22 48 43
24 52 47
23 49 45
22 48 43
23 49 44
23 50 45
23 50 45
22 49 44
23 51 46
23 49 44
22 48 43
22 49 44
23 50 45
22 48 44
22 49 44
21 47 42
24 52 47
23 50 45
25 53 48
23 50 45
22 49 44
22 49 44
23 51 46
23 50 45
22 47 43
23 50 45
23 49 45
23 50 45
24 51 46
22 48 44
23 49 45
23 49 44
22 48 44
23 49 44
22 47 43
22 48 44
24 51 46
23 49 44
23 51 46
23 50 45
22 49 44
23 51 46
22 49 44
23 50 45
22 49 44
23 50 45
22 49 44
22 49 44
22 49 44
23 50 45
22 48 43
23 49 44
23 50 45
23 50 45
23 50 45
23 50 45
23 49 45
23 49 44
22 48 44
22 48 44
22 48 44
22 49 45
21 47 43
21 46 42
21 46 42
22 49 44
21 46 42
22 48 43
21 47 42
22 48 44
22 48 44
22 48 43
22 48 44
22 48 44
22 49 45
22 48 43
22 48 44
21 46 42
22 49 44
22 48 44
23 50 45
22 48 44
22 48 43
22 48 44
22 48 43
22 48 44
22 48 44
22 47 43
22 49 44
22 48 44
22 48 43
22 47 43
22 49 44
23 50 45
21 45 41
22 48 43
22 48 43
22 48 44
22 49 44
24 52 47
23 50 45
22 48 44
22 49 44
22 49 44
21 47 42
22 48 43
22 48 43
22 48 44
22 48 44
22 48 44
21 47 42
22 49 44
23 50 46
22 48 43
21 47 42
22 48 43
22 49 44
22 48 44
22 49 44
22 49 44
22 49 44
22 49 45
22 49 44
21 47 42
22 48 44
21 46 42
21 46 42
21 47 42
22 48 44
22 47 43
22 48 44
22 49 44
22 48 44
22 49 44
21 47 43
22 49 44
22 48 44
22 49 44
23 50 45
22 47 43
22 49 44
23 49 45
23 50 45
22 49 45
22 49 44
22 48 44
23 50 45
24 52 47
22 48 43
22 49 44
22 49 44
23 49 45
21 47 42
22 49 44
22 49 44
23 49 44
23 49 45
23 50 45
22 48 44
22 48 44
22 47 43
23 49 45
22 49 45
23 50 45
23 51 46
23 49 44
22 49 44
22 48 43
22 48 44
22 48 44
23 51 46
23 51 46
23 49 45
22 49 44
22 49 44
22 49 44
22 49 44
22 48 43
22 49 44
23 50 45
22 48 43
23 50 45
23 50 45
22 49 44
22 49 44
23 50 45
22 48 43
23 51 46
24 52 47
23 50 45
23 50 45
22 49 44
22 48 43
22 48 43
22 48 43
22 48 43
23 50 45
22 48 43
23 51 46
23 50 45
23 50 46
23 49 44
22 49 44
24 51 46
22 49 44
23 50 46
23 50 45
23 51 46
23 51 46
23 50 45
22 49 44
23 50 45
22 49 44
22 49 44
22 49 44
23 50 45
23 50 45
23 51 46
23 51 46
23 50 45
23 50 45
22 48 43
22 49 44
22 48 44
23 50 45
23 49 45
22 49 44
23 51 46
23 50 45
23 50 45
23 50 45
23 50 46
23 51 46
24 52 47
23 50 45
22 48 43
24 53 48
23 50 45
23 50 45
23 51 46
23 50 45
24 52 47
23 51 46
23 51 46
23 50 45
23 50 45
22 49 44
23 50 46
23 51 46
24 51 46
23 50 45
23 49 44
24 52 47
23 50 45
22 48 43
23 50 45
21 47 42
23 51 46
21 46 42
22 47 43
22 47 43
21 46 42
22 49 44
22 48 43
21 47 43
22 48 43
21 47 43
22 48 44
20 45 41
22 49 44
22 48 44
24 52 47
22 49 44
22 49 44
22 49 44
22 49 44
22 48 43
22 48 43
23 49 45
22 47 43
21 46 42
22 48 44
21 46 42
21 46 42
22 49 44
21 45 41
21 47 43
22 49 44
23 49 45
23 49 45
22 48 44
21 46 42
23 49 45
22 49 45
22 48 44
22 49 44
22 49 45
22 49 44
22 49 44
23 50 46
21 47 42
21 46 42
22 49 44
22 49 44
22 49 44
22 49 45
21 46 42
23 50 45
23 49 45
22 48 43
22 47 43
21 47 42
22 47 43
22 49 44
22 48 44
22 49 44
22 48 43
22 49 44
22 49 45
22 48 43
22 48 43
22 48 44
22 48 43
22 48 44
23 49 45
23 51 46
22 48 44
22 49 44
22 49 45
23 50 45
21 46 42
23 50 45
22 48 43
22 48 44
22 48 44
22 48 44
23 50 45
23 49 44
22 48 44
22 48 43
22 49 44
23 51 46
22 49 44
22 48 43
22 48 43
21 47 43
22 49 44
21 47 42
22 48 43
22 48 43
22 48 43
22 48 43
22 49 44
21 47 42
23 50 45
22 47 43
21 47 42
23 49 44
23 50 45
22 49 44
22 48 44
23 50 45
23 50 45
22 49 44
22 49 44
22 49 44
22 49 44
22 48 44
22 48 44
22 48 43
22 49 44
24 52 47
23 49 45
22 49 44
23 50 45
22 49 44
23 49 44
23 51 46
23 50 45
23 50 45
22 48 44
24 51 46
23 50 45
23 50 45
23 49 45
22 49 44
23 50 45
22 48 43
23 50 45
24 51 46
22 48 43
23 51 46
22 47 43
21 46 42
22 48 44
22 48 44
22 48 43
23 50 45
23 50 45
23 50 45
22 49 44
23 50 45
23 51 46
23 50 45
22 48 43
22 49 44
23 49 44
23 50 45
23 50 45
23 49 45
22 49 44
23 50 45
22 49 44
23 51 46
22 48 43
23 50 45
24 53 48
22 48 44
24 51 46
23 50 45
23 50 45
23 51 46
23 49 44
22 49 44
22 49 44
23 49 45
22 49 44
24 52 47
23 50 45
23 50 45
23 51 46
24 52 47
24 53 47
23 50 45
23 49 45
23 50 46
22 49 44
23 49 45
22 49 44
23 51 46
24 53 47
22 49 44
23 50 45
22 49 44
22 49 44
23 50 45
22 48 43
23 51 46
23 50 45
22 48 44
23 50 45
22 49 44
22 48 43
23 49 44
23 50 45
22 49 44
23 50 45
24 52 46
22 49 44
21 46 42
21 47 42
22 48 43
22 48 44
21 47 42
22 49 45
21 47 42
21 45 41
23 50 46
21 47 43
21 46 42
22 47 43
22 49 45
22 49 44
22 48 44
21 47 43
22 49 45
22 48 44
21 46 42
22 48 44
22 49 44
22 49 45
22 48 44
22 47 43
22 49 44
22 48 43
22 48 43
22 47 43
23 51 46
22 48 43
22 48 43
22 48 44
22 48 43
22 49 45
22 47 43
22 48 43
21 46 42
22 48 44
22 48 44
22 49 44
22 49 44
22 48 43
22 49 44
22 48 43
23 50 45
22 48 43
22 47 43
22 47 43
21 46 42
22 48 43
21 47 43
22 48 43
22 48 44
23 49 45
21 47 42
22 47 43
23 50 45
22 49 44
22 48 43
22 47 43
22 47 43
22 49 44
21 47 42
22 47 43
22 49 44
22 48 43
23 50 45
21 46 41
22 49 44
23 50 45
22 49 44
22 48 44
22 48 44
22 48 43
22 47 43
22 47 43
23 50 45
22 48 43
21 47 42
23 51 46
22 49 44
23 50 45
22 48 44
22 48 43
23 50 45
23 49 45
22 49 44
22 49 44
23 49 45
22 47 43
22 49 44
22 49 44
22 48 44
22 49 44
22 49 44
21 47 42
22 49 45
22 49 44
22 49 44
23 50 45
23 50 45
22 47 43
22 49 44
22 49 44
22 48 44
23 49 45
22 49 44
22 48 43
22 48 44
22 48 43
23 51 46
23 50 45
22 49 44
22 49 44
23 50 45
22 49 44
23 50 46
23 50 45
22 49 44
23 50 45
22 48 44
23 51 46
24 51 46
23 51 46
23 50 45
21 47 42
22 49 44
22 49 44
22 49 44
23 51 46
22 48 43
22 48 43
23 50 45
22 49 44
22 49 44
23 50 45
22 48 44
22 47 43
22 49 44
23 49 45
22 48 43
22 48 43
23 51 46
23 49 44
23 50 45
23 51 46
22 49 44
23 50 45
22 48 44
21 47 42
23 49 45
23 50 45
23 49 45
23 50 45
22 48 44
22 49 44
22 48 43
23 51 46
22 48 43
22 48 43
22 48 43
23 50 45
23 51 46
23 51 46
23 50 45
23 49 44
23 51 46
23 51 46
24 52 47
22 48 43
23 50 45
23 50 45
23 50 45
23 51 46
23 51 46
22 48 43
24 51 46
22 48 43
23 51 46
23 49 44
23 50 45
24 52 47
23 50 45
24 51 46
24 51 46
23 50 45
22 49 44
22 49 44
22 49 44
23 49 44
22 48 43
23 50 45
24 52 47
22 48 43
22 49 44
23 50 45
22 49 44
22 48 43
23 50 45
21 46 42
21 47 43
21 46 42
22 48 44
22 49 44
21 47 43
21 47 43
21 46 42
21 47 43
22 48 43
22 48 44
22 47 43
23 50 45
22 49 44
22 48 44
22 48 44
22 49 44
21 46 42
21 47 42
21 46 42
23 49 45
22 48 43
21 46 42
22 49 44
22 49 44
21 47 43
21 46 42
21 46 42
21 46 42
23 49 45
22 48 43
22 49 44
22 47 43
22 49 44
22 48 43
22 47 43
21 47 42
22 49 44
22 49 44
22 49 44
23 50 45
22 49 44
22 49 44
22 49 44
23 50 45
22 48 44
22 48 43
22 49 44
22 49 44
21 47 42
22 49 44
21 46 42
22 48 43
22 49 44
22 48 44
22 48 44
22 48 44
22 48 43
22 48 43
22 49 44
23 50 45
21 47 42
22 48 43
22 49 44
23 50 45
22 48 43
22 48 43
22 49 44
22 49 44
22 47 43
22 49 45
22 48 43
21 47 42
22 48 44
23 50 45
23 50 45
23 49 45
23 49 45
21 46 42
22 48 43
22 48 43
23 49 45
22 47 43
21 47 42
22 49 45
22 49 44
22 49 44
23 50 45
23 50 45
22 48 44
22 48 43
23 50 46
23 50 45
23 49 44
23 49 45
22 48 43
22 49 44
23 51 46
23 51 46
22 49 44
22 48 43
22 49 44
22 49 45
23 50 46
22 48 43
22 49 44
22 48 44
22 48 44
22 49 44
23 50 46
23 50 45
23 50 45
23 50 45
23 51 46
22 48 43
23 51 46
22 49 44
22 49 44
22 48 43
23 49 45
23 50 45
22 49 44
22 49 44
22 49 44
22 48 43
23 51 46
23 50 45
22 49 44
22 49 44
23 50 45
23 49 45
22 49 44
22 48 44
22 49 44
23 50 45
23 49 44
23 51 46
22 48 43
23 50 45
23 50 45
22 48 44
22 49 44
22 49 44
23 50 45
23 49 44
23 49 45
23 50 45
23 51 46
23 51 46
23 50 45
23 50 45
24 52 47
23 50 45
22 48 43
23 51 46
23 50 45
24 52 46
23 49 45
24 52 47
23 50 46
23 50 45
22 49 44
22 47 43
22 49 44
22 49 44
23 50 45
22 47 43
24 52 47
23 50 45
23 49 44
23 51 46
22 48 43
23 51 46
24 51 46
23 49 44
22 49 44
22 47 43
22 48 44
22 49 44
23 50 45
23 50 45
23 50 45
23 50 45
23 51 46
22 48 44
23 50 45
22 49 44
23 51 46
22 48 44
22 48 43
23 50 45
24 51 46
23 51 46
23 50 45
23 51 46
23 50 45
23 51 46
22 49 44
22 49 44
23 50 45
21 46 41
22 48 44
22 49 44
22 48 43
22 48 43
21 46 42
22 48 43
22 48 44
23 50 46
22 49 45
21 47 43
22 47 43
21 47 43
22 48 44
22 48 44
22 49 44
21 47 43
22 48 44
22 48 44
22 48 43
23 50 45
21 47 42
22 48 44
22 48 43
23 49 45
23 50 45
21 47 42
21 47 42
22 49 44
22 49 44
21 47 43
21 47 42
22 48 43
23 50 45
21 47 42
22 49 44
22 47 43
23 50 46
22 48 44
22 47 43
24 51 47
22 48 44
22 47 43
23 49 45
22 48 44
22 49 44
22 49 44
23 50 45
22 49 44
22 49 44
21 47 43
22 48 44
21 47 43
21 46 42
21 47 42
23 51 46
22 49 44
22 49 44
22 48 43
22 49 44
22 49 44
23 51 46
22 48 43
22 48 43
23 50 45
23 50 45
22 48 43
22 48 43
22 49 44
23 49 45
22 48 43
23 51 46
23 50 45
21 47 43
23 50 46
22 49 44
21 47 43
22 49 44
22 48 44
22 49 44
22 47 43
22 48 44
22 49 44
22 48 43
23 49 45
21 47 42
22 49 44
23 50 46
22 48 44
22 49 44
23 50 45
22 48 43
22 48 43
22 47 43
22 48 44
22 49 44
22 49 44
22 49 45
22 49 44
23 50 45
23 51 46
23 49 45
23 50 45
23 50 45
22 49 44
23 51 46
22 49 44
22 48 43
23 51 46
23 50 45
23 49 45
23 51 46
22 48 43
23 50 45
23 50 45
22 49 44
23 49 45
23 50 45
23 49 45
23 50 45
23 51 46
23 49 44
22 49 44
22 47 43
22 48 43
23 50 45
22 49 44
22 49 44
22 48 43
23 50 45
23 50 45
22 48 43
22 48 43
22 48 43
23 50 45
22 48 43
22 49 44
23 49 45
23 51 46
22 49 44
23 50 45
22 48 43
23 50 45
23 49 44
22 49 44
23 51 46
22 49 44
22 49 44
23 51 46
23 50 45
23 49 45
22 48 43
22 49 44
23 50 45
22 49 44
22 48 43
23 49 45
23 49 44
23 51 46
23 49 44
23 50 45
23 50 45
22 48 44
23 50 45
24 52 47
23 50 45
23 49 44
23 50 45
23 51 46
23 51 46
22 47 43
22 47 43
22 48 43
23 49 45
23 49 45
23 50 45
22 48 44
23 49 45
23 51 46
24 53 47
23 51 46
22 49 44
24 52 47
23 50 45
24 52 47
23 50 46
22 48 43
24 52 47
24 51 46
23 49 45
23 49 44
23 49 44
24 52 47
22 49 44
23 50 45
23 49 44
22 49 44
23 51 46
23 49 45
23 51 46
21 47 42
23 50 45
22 49 44
21 47 42
21 47 42
21 45 41
22 48 43
22 48 44
22 48 44
22 48 44
22 49 44
21 47 43
21 47 42
22 48 43
22 48 44
22 49 44
22 47 43
21 47 42
22 48 44
22 47 43
22 48 43
22 48 44
22 48 43
22 49 44
21 47 43
22 48 44
22 47 43
23 51 46
22 47 43
21 47 43
22 49 44
22 49 44
22 48 43
22 49 45
22 48 44
22 49 44
21 47 43
22 49 45
22 48 44
21 47 43
23 50 46
22 48 44
22 49 44
23 51 46
22 47 43
23 50 45
22 47 43
22 48 44
22 47 43
23 51 46
22 49 44
21 47 42
22 49 44
22 48 43
22 49 44
22 47 43
22 49 44
23 50 45
22 49 44
23 50 46
22 49 45
22 48 44
22 47 43
21 47 42
22 48 43
22 48 44
22 48 44
23 50 45
22 49 44
23 50 46
24 52 47
22 48 44
23 49 45
22 48 44
23 51 46
22 48 44
22 47 43
21 47 42
22 47 43
23 50 45
22 49 44
22 49 44
23 50 45
23 49 45
22 49 44
22 49 44
23 50 45
22 48 43
23 50 45
22 48 44
22 48 43
22 48 44
23 50 45
22 48 44
23 50 45
22 49 44
22 48 43
21 47 42
23 49 45
23 50 45
23 50 45
21 47 42
22 48 43
22 48 44
23 50 45
22 48 44
22 49 44
22 47 43
22 49 44
23 51 46
23 51 46
23 51 46
22 48 44
22 49 44
22 49 44
23 51 46
23 50 46
23 51 46
23 50 46
23 50 45
23 50 45
22 49 44
23 50 45
23 50 45
22 48 43
23 50 46
23 50 45
22 48 43
23 51 46
22 49 44
22 49 44
22 49 44
22 49 44
23 50 45
23 50 45
22 49 44
22 49 44
22 49 44
23 50 45
23 50 45
22 48 43
23 51 46
23 50 45
22 48 44
23 50 45
22 47 43
22 49 44
23 50 45
23 50 45
23 49 45
22 48 43
23 49 44
22 48 44
22 49 44
24 52 47
22 48 43
23 50 45
23 50 45
23 50 45
23 49 44
23 50 45
23 49 44
23 50 45
24 52 47
23 50 45
22 48 43
23 50 45
22 49 44
22 49 44
23 51 46
23 50 45
23 51 46
22 48 44
23 50 46
24 52 47
22 48 44
22 49 44
22 49 44
24 51 46
23 49 45
23 50 45
23 51 46
22 49 44
24 52 47
23 49 45
23 50 45
23 50 45
22 48 43
24 52 47
22 48 43
24 51 46
23 49 45
23 49 45
23 50 45
23 51 46
22 49 44
23 50 45
23 49 44
23 50 45
23 50 45
23 51 46
22 47 43
23 50 46
22 47 43
21 46 41
22 48 44
21 46 41
22 49 45
22 48 43
22 47 43
22 49 44
22 48 44
22 49 45
22 48 44
21 47 43
22 48 43
22 48 44
23 50 46
22 47 43
22 49 44
23 50 45
22 47 43
22 48 44
21 46 42
22 49 44
22 48 44
22 49 44
22 49 44
22 47 43
22 48 43
22 49 44
21 46 41
22 47 43
21 46 42
23 50 45
22 47 43
22 47 43
21 47 43
22 48 44
22 49 44
21 47 42
23 50 45
22 49 45
23 49 45
23 51 46
23 50 45
22 49 44
21 46 42
22 48 43
21 46 42
21 46 42
22 48 43
23 50 45
22 49 44
22 48 43
23 49 45
22 49 44
22 48 43
22 49 44
22 49 44
22 48 44
22 49 45
23 49 45
22 49 44
22 49 45
23 51 46
23 49 45
21 47 42
23 50 45
23 49 45
23 50 45
23 50 45
23 50 45
22 48 44
22 48 44
23 49 45
22 47 43
22 49 44
23 50 45
23 50 45
22 48 43
22 47 43
23 50 46
22 48 44
22 49 44
22 48 43
23 49 45
22 49 44
23 50 45
23 50 45
23 50 45
22 47 43
25 54 48
22 48 43
23 49 45
22 49 44
21 47 42
23 49 45
23 50 45
22 49 44
23 50 45
22 49 44
22 48 43
23 50 45
23 50 45
23 50 45
22 48 43
23 51 46
22 48 43
23 51 46
23 50 45
22 49 44
22 47 43
22 48 43
22 48 44
23 49 44
23 51 46
22 49 44
23 51 46
23 51 46
23 50 45
23 50 45
23 50 45
23 51 46
22 48 44
23 50 45
23 50 45
22 48 43
23 50 45
22 48 43
23 50 45
22 48 43
22 48 43
23 49 45
22 48 44
22 49 44
23 49 45
23 51 46
23 50 45
23 50 45
23 50 45
22 49 44
23 51 46
22 48 44
22 49 44
23 50 45
24 52 47
22 49 44
24 53 48
24 52 47
22 49 44
22 48 44
23 50 45
23 49 45
22 48 44
22 49 44
24 51 46
23 50 45
23 50 45
23 50 45
23 50 45
22 48 44
24 53 47
23 50 45
23 50 45
23 50 45
23 50 45
23 50 45
24 51 46
22 49 44
23 50 45
22 49 44
23 49 44
22 49 44
23 49 45
23 51 46
22 48 43
22 49 44
23 50 45
23 50 45
24 51 46
23 51 46
23 51 46
24 52 47
23 51 46
22 48 43
23 50 45
23 50 45
23 51 46
23 50 45
23 50 45
23 50 45
23 49 45
22 49 44
23 50 45
22 49 44
22 49 44
23 51 46
23 51 46
24 52 47
22 48 43
23 50 45
22 48 44
23 50 46
21 46 42
21 47 43
21 47 43
22 48 43
22 47 43
22 48 44
23 50 45
21 46 42
21 46 42
22 48 43
21 47 43
21 47 43
22 49 45
22 47 43
21 46 42
22 47 43
21 46 42
21 47 43
22 47 43
22 48 44
21 46 42
22 48 44
23 50 46
22 48 44
21 47 43
21 47 42
22 48 44
23 50 45
23 50 45
21 47 42
21 46 42
23 50 46
21 47 42
22 49 44
21 46 42
22 49 44
22 48 44
21 47 43
23 51 46
22 48 43
22 48 44
21 47 43
22 48 44
22 49 44
23 50 45
23 49 45
22 48 43
22 49 44
23 49 45
22 49 44
21 47 42
22 48 43
21 46 42
22 49 45
22 49 44
23 50 45
23 51 46
23 49 45
23 50 45
22 49 44
23 50 45
22 49 44
22 47 43
23 50 45
22 48 43
21 47 42
22 49 44
22 48 44
23 49 45
22 48 43
23 50 45
22 49 45
22 48 43
22 48 44
23 49 45
23 50 45
22 48 43
23 50 45
22 48 44
22 48 43
22 48 44
23 50 46
23 49 45
22 49 44
22 48 44
23 51 46
23 50 45
22 47 43
22 47 43
22 49 44
22 48 43
23 50 45
23 50 45
23 50 45
23 50 45
23 51 46
23 50 45
22 48 43
22 48 44
23 51 46
22 48 43
22 49 44
23 49 45
23 51 46
22 48 43
22 48 43
23 51 46
22 47 43
23 51 46
22 49 44
22 48 43
22 48 43
23 50 46
23 50 45
23 50 46
21 47 42
23 49 44
22 49 44
23 49 45
22 49 44
23 50 45
23 50 45
24 52 47
22 49 44
23 50 46
22 49 44
22 48 44
21 47 42
22 49 44
23 50 45
23 50 45
23 50 45
23 49 45
23 50 45
22 49 44
23 50 45
23 50 45
24 51 46
23 49 45
22 49 44
23 49 44
22 48 43
24 52 47
24 52 47
24 52 47
23 50 45
23 50 45
23 50 45
23 49 44
22 49 44
23 50 45
22 48 43
23 50 45
24 52 47
23 51 46
22 48 44
22 49 44
23 49 45
22 49 44
24 52 47
22 48 43
24 53 47
23 50 45
23 50 45
23 51 46
22 49 44
22 49 44
23 51 46
24 52 46
23 51 46
23 51 46
22 49 44
23 49 44
23 50 45
24 52 47
22 49 44
22 48 43
22 49 44
24 52 47
23 51 46
23 51 46
23 49 45
23 51 46
23 51 46
22 48 44
23 50 45
24 52 47
22 49 44
24 52 46
23 50 45
23 49 45
22 48 44
22 47 43
23 50 45
22 49 44
22 48 43
22 48 44
21 46 42
21 46 42
22 48 44
22 48 43
22 48 44
22 48 44
21 47 43
21 45 41
22 48 43
22 48 44
21 47 43
22 48 44
22 47 43
22 49 44
21 47 43
21 47 42
22 48 44
21 46 42
22 47 43
20 44 40
21 46 42
21 47 42
22 49 44
21 47 43
22 48 44
22 48 44
21 47 42
23 50 45
22 49 44
22 49 44
23 50 45
22 48 44
22 49 44
22 49 45
23 50 45
23 50 45
21 47 42
22 47 43
22 47 43
22 48 43
22 48 44
22 48 43
21 46 42
21 47 42
22 48 44
21 46 42
22 48 44
21 47 42
23 50 45
22 49 45
23 50 45
22 48 44
22 49 44
23 49 45
23 50 45
23 50 45
22 49 44
21 47 42
22 49 44
23 51 46
22 49 44
22 48 43
22 49 44
23 50 45
23 50 45
22 48 43
22 47 43
22 49 44
22 49 44
23 51 46
23 49 45
22 48 44
21 47 42
22 49 44
22 49 44
22 48 44
22 47 43
22 48 43
23 50 45
21 47 42
21 47 42
22 49 44
22 49 44
22 48 44
23 51 46
22 48 43
22 48 43
22 48 43
22 49 44
22 48 43
21 47 42
24 52 47
22 48 43
22 47 43
23 50 45
23 50 45
22 48 43
22 48 44
21 47 42
22 48 44
22 49 45
22 48 44
22 49 44
23 51 46
22 47 43
23 51 46
22 47 43
23 50 46
24 52 47
22 48 43
22 48 43
23 51 46
22 48 43
23 49 45
23 51 46
23 50 45
24 52 47
22 47 43
23 50 45
23 49 45
24 51 46
23 51 46
23 49 44
22 49 44
22 48 44
23 50 45
23 49 45
24 52 47
22 49 44
23 50 45
23 50 45
22 49 44
23 50 45
22 49 44
23 50 45
23 50 45
23 50 45
23 50 45
22 49 44
22 48 44
22 48 43
23 50 45
23 51 46
22 49 44
23 51 46
22 49 44
23 50 45
23 49 44
23 51 46
23 50 45
23 49 45
23 51 46
22 49 44
24 52 47
23 51 46
22 49 44
24 52 47
23 50 45
22 49 44
22 48 43
23 51 46
23 51 46
22 48 43
22 49 44
22 49 44
23 50 45
22 49 44
23 50 45
23 51 46
23 50 45
22 47 43
23 50 45
23 51 46
23 49 44
22 49 44
23 50 45
23 50 45
23 51 46
23 50 45
23 50 45
24 53 47
22 49 44
22 49 44
23 51 46
23 50 45
22 47 43
23 51 46
22 48 43
23 50 45
23 51 46
22 48 44
23 51 46
23 50 46
23 51 46
23 50 45
22 49 44
22 48 43
23 50 45
23 50 45
21 46 41
23 50 45
21 47 43
22 49 45
22 48 44
22 49 44
21 46 42
21 47 43
22 48 44
22 47 43
21 47 43
21 47 43
22 49 44
23 49 45
23 50 45
21 47 43
23 50 45
22 49 45
21 46 42
22 48 44
22 48 43
21 47 42
22 49 44
21 47 42
21 46 41
21 46 42
22 48 44
22 48 43
23 51 46
22 49 45
21 47 43
22 49 44
22 49 44
22 49 45
22 48 44
22 47 43
21 46 42
23 49 45
22 48 44
22 49 45
22 47 43
22 49 44
21 47 42
22 49 44
22 48 43
22 49 44
22 47 43
24 52 47
21 47 42
22 48 44
23 51 46
22 48 44
21 47 42
22 48 43
22 48 44
22 48 44
22 49 45
22 47 43
22 48 43
21 46 42
23 50 45
22 49 44
22 48 43
23 51 46
22 49 45
22 49 44
21 46 41
22 48 44
22 48 44
21 47 43
22 48 44
21 47 43
22 48 43
22 49 44
22 48 43
22 48 44
22 49 44
22 49 44
22 49 45
22 48 44
22 47 43
22 48 43
23 49 45
22 49 44
22 48 43
22 49 44
23 51 46
21 47 42
23 50 45
23 49 45
22 47 43
23 50 45
22 48 44
22 49 44
22 47 43
22 49 44
22 48 43
22 48 43
22 49 44
22 49 44
22 49 44
23 51 46
23 50 45
22 48 43
23 50 46
22 48 44
22 48 44
22 48 44
23 49 45
22 49 44
23 49 45
22 49 44
22 49 44
22 48 43
23 50 45
22 47 43
23 50 45
22 48 43
22 48 44
22 48 44
23 50 45
22 49 44
23 50 45
23 50 45
23 49 44
23 49 45
22 48 43
22 48 43
23 49 45
23 49 45
22 48 44
22 49 44
23 50 46
23 50 45
24 52 47
23 50 45
23 50 45
24 51 46
23 49 45
22 47 43
23 50 45
23 50 45
23 50 45
23 50 45
24 52 47
22 49 44
23 50 46
23 51 46
22 47 43
22 49 44
22 48 44
22 48 43
22 48 44
23 50 45
23 50 45
23 50 45
23 49 44
22 49 44
23 50 45
23 50 45
23 50 45
23 51 46
24 52 47
23 51 46
22 48 43
23 50 45
22 49 44
22 49 44
22 48 44
22 49 44
22 48 43
23 50 46
24 52 47
22 49 44
22 48 44
22 49 44
22 48 43
23 51 46
22 49 44
24 52 47
22 48 44
22 48 43
24 53 47
23 51 46
23 51 46
23 50 45
24 53 48
23 50 45
23 50 45
23 50 45
23 51 46
22 48 43
23 49 45
23 50 45
23 49 44
24 52 47
23 50 45
23 50 45
23 50 45
23 50 45
21 47 43
21 46 42
21 47 42
21 47 42
21 47 43
21 46 42
22 49 44
22 48 44
23 50 46
22 47 43
21 47 43
21 46 42
22 48 44
23 51 46
22 48 44
22 48 44
22 49 44
21 46 42
22 48 43
22 48 44
21 45 41
21 47 42
21 47 42
21 45 41
22 48 44
22 47 43
21 47 43
22 49 44
22 48 43
21 46 42
22 49 44
23 50 45
22 49 44
21 47 42
22 49 44
23 49 45
22 48 43
21 47 43
21 47 43
22 49 44
23 50 45
22 48 44
22 49 44
22 48 43
21 46 42
22 48 43
22 47 43
22 49 44
23 49 45
23 49 45
22 48 44
22 49 44
22 48 43
21 47 42
23 50 45
21 46 42
21 45 41
22 48 43
22 49 44
22 48 44
21 47 43
22 49 44
22 49 44
22 49 44
22 48 43
21 47 43
22 48 44
22 49 44
22 48 44
22 49 44
22 47 43
22 48 44
23 49 45
22 49 44
23 50 45
22 48 44
22 49 44
22 47 43
21 47 42
22 49 44
22 49 44
24 52 47
23 50 45
22 49 45
22 49 44
22 49 44
23 51 46
22 48 44
22 48 44
22 49 44
22 47 43
24 53 48
22 48 43
23 50 45
21 47 42
22 48 43
22 48 44
22 48 43
22 49 44
23 50 45
22 49 44
22 47 43
21 47 42
23 50 45
22 48 44
22 49 44
22 49 44
22 48 44
23 51 46
23 50 45
22 49 44
23 49 44
23 50 45
23 50 45
23 50 45
22 48 44
22 49 44
22 49 44
22 48 44
24 53 48
24 52 47
22 49 44
23 49 44
23 51 46
22 49 44
22 48 43
21 46 42
23 50 45
23 50 45
22 49 44
23 49 45
22 47 43
23 49 44
22 49 44
22 49 44
23 51 46
23 50 45
23 50 45
23 51 46
23 51 46
22 48 44
22 48 43
22 48 43
23 51 46
23 51 46
22 49 44
23 50 45
23 50 45
23 51 46
23 51 46
22 49 44
23 51 46
23 50 45
23 50 45
22 48 44
23 50 45
23 50 45
22 48 44
23 49 44
23 50 45
22 48 43
23 50 45
23 49 44
22 49 44
23 50 45
22 48 44
22 49 44
23 50 45
23 50 45
23 50 45
24 52 47
23 51 46
23 51 46
23 51 46
23 50 45
22 49 44
22 49 44
23 50 45
23 49 45
23 51 46
23 50 45
22 49 44
23 49 44
23 49 45
23 51 46
23 50 45
23 51 46
22 49 44
22 48 43
23 50 45
23 51 46
23 51 46
24 52 47
23 50 45
23 50 45
23 51 46
23 50 45
23 50 45
23 51 46
23 50 45
21 46 42
21 46 42
21 47 43
22 48 44
23 49 45
21 46 42
21 47 43
22 48 44
22 48 44
22 49 44
21 46 42
22 47 43
21 46 42
22 49 45
21 47 42
22 48 44
21 46 42
21 46 42
21 47 42
21 47 43
22 48 44
21 47 43
22 49 44
22 49 44
22 48 44
23 50 46
22 48 43
22 49 44
22 49 44
21 47 43
21 47 42
22 49 45
21 46 42
21 47 43
22 47 43
21 47 43
23 49 45
21 46 42
21 46 41
23 50 45
21 47 42
21 47 43
21 47 42
22 48 44
23 49 45
22 49 44
22 48 43
22 48 43
22 49 44
22 48 44
22 48 44
21 46 42
22 49 44
22 48 43
21 47 42
22 48 44
22 48 44
22 49 44
22 48 43
23 50 45
21 47 43
23 50 45
22 49 44
23 50 45
21 46 41
22 48 43
23 51 46
22 49 44
21 47 42
22 49 44
21 47 43
22 48 43
22 48 44
22 48 44
23 50 45
23 49 45
22 48 43
22 48 44
22 48 43
22 48 43
23 51 46
22 48 44
22 49 44
23 49 45
22 48 43
23 50 45
23 50 45
22 49 44
23 50 45
23 51 46
21 47 43
22 48 44
22 48 43
22 48 43
22 47 43
23 49 45
22 48 44
22 49 44
22 49 44
23 49 44
23 49 45
23 50 45
23 50 46
22 49 44
23 50 45
23 50 45
22 49 44
23 49 45
22 48 43
22 48 44
23 50 45
22 49 44
23 51 46
23 50 45
22 49 44
22 47 42
24 52 47
22 49 44
23 51 46
22 48 43
23 51 46
22 48 43
22 49 44
23 50 45
23 51 46
23 49 45
22 48 44
22 49 44
23 51 46
23 50 45
22 49 44
21 46 41
22 49 44
23 51 46
23 50 45
23 51 46
22 48 44
22 49 44
23 50 45
23 50 45
23 50 45
23 50 46
23 50 45
22 48 43
24 52 47
23 51 46
23 50 45
22 48 43
22 48 44
22 48 43
23 51 46
23 51 46
23 49 44
22 48 43
23 49 44
23 49 45
23 49 44
23 49 45
24 52 47
22 48 44
23 50 45
23 51 46
23 51 46
23 49 44
23 51 46
22 49 44
22 49 44
23 51 46
23 50 45
24 51 46
22 49 44
24 52 47
23 49 45
24 53 48
23 50 45
23 51 46
22 48 43
22 48 43
23 51 46
24 52 47
23 49 45
23 49 45
22 49 45
23 50 45
23 50 45
22 48 44
23 50 45
23 50 45
23 49 45
23 51 46
23 49 45
23 49 44
23 51 46
22 48 43
23 50 45
22 48 44
24 51 46
22 47 43
23 51 46
23 49 45
21 47 43
21 46 42
22 48 44
22 48 43
22 48 44
22 47 43
21 47 43
21 46 42
21 47 42
21 47 43
21 47 43
22 49 45
22 48 44
21 47 43
21 47 42
22 49 44
22 48 43
22 48 43
23 50 46
22 47 43
21 46 42
22 47 43
22 48 43
22 48 43
22 48 43
22 48 43
21 47 42
21 47 43
22 48 44
22 49 45
22 48 43
22 49 45
21 46 42
21 47 42
22 49 45
22 48 44
23 51 46
22 47 43
22 47 43
22 48 44
23 50 45
21 47 42
23 51 46
23 50 46
22 48 43
21 46 42
24 51 46
22 49 44
22 48 43
22 49 44
22 48 44
22 48 44
23 49 45
22 48 44
22 49 44
21 47 42
22 49 44
22 48 44
22 47 43
22 48 44
22 48 44
22 48 44
22 49 44
22 49 44
23 51 46
22 49 44
23 50 45
22 48 44
22 48 43
22 48 43
22 49 44
23 49 45
23 50 45
22 48 43
22 48 44
22 48 44
23 50 45
23 51 46
22 48 43
22 49 45
22 48 44
23 51 46
22 47 43
23 51 46
22 48 43
22 49 44
23 49 45
22 49 44
22 48 44
23 50 45
22 49 44
22 48 43
22 49 44
23 50 45
23 49 45
22 49 44
23 51 46
22 48 44
23 49 45
22 48 44
23 51 46
23 50 46
23 50 45
23 50 46
23 49 45
23 50 45
22 49 44
23 50 45
22 49 44
23 49 44
23 49 44
23 50 46
23 50 45
22 48 44
22 49 44
23 50 45
22 49 44
23 50 45
23 51 46
23 50 45
22 49 44
23 49 44
23 51 46
23 51 46
22 48 43
23 49 45
23 50 45
22 49 44
22 49 44
23 51 46
22 49 44
23 49 45
24 52 47
22 48 43
22 49 44
24 52 46
23 50 45
23 50 45
21 46 41
23 50 45
22 49 44
23 51 46
23 51 46
22 48 43
23 51 46
22 49 44
23 50 45
22 47 43
22 49 44
22 49 44
23 51 46
22 49 44
23 50 45
23 49 44
23 51 46
23 51 46
22 49 44
23 51 46
23 50 45
23 49 44
23 49 44
23 50 45
23 50 45
23 51 46
22 49 44
22 47 43
23 51 46
24 51 46
23 49 44
24 52 47
22 49 44
24 51 46
23 50 45
24 52 47
23 50 45
25 54 49
22 48 43
22 49 44
22 49 44
24 51 46
23 50 45
23 50 45
23 51 46
22 47 43
22 47 43
23 51 46
22 49 44
22 49 44
23 50 45
23 51 46
22 49 44
23 50 45
22 49 44
23 50 45
22 48 44
22 49 44
22 49 44
22 48 43
23 50 45
23 51 46
22 48 44
21 47 42
21 47 43
22 47 43
23 49 45
21 47 42
23 50 45
22 47 43
22 48 44
21 47 43
23 50 45
22 47 43
22 48 43
21 46 42
22 49 44
21 47 42
22 49 44
23 50 45
22 48 44
21 47 42
23 50 45
22 48 43
22 49 44
22 48 43
22 49 44
20 45 41
21 46 42
22 48 43
23 49 45
22 49 44
21 45 41
22 48 44
22 49 45
22 49 44
21 46 42
22 48 44
22 48 44
21 47 42
22 47 43
22 48 44
22 49 44
21 46 41
22 49 44
22 48 44
21 47 42
21 46 41
22 48 44
23 50 45
23 50 45
22 48 43
22 47 43
22 48 43
22 49 44
22 48 43
22 48 43
22 48 43
22 48 43
23 50 45
21 47 43
21 47 42
23 49 45
23 51 46
22 48 44
23 50 45
22 48 43
22 47 43
22 49 44
23 50 45
22 47 43
22 49 44
22 48 43
23 50 46
22 49 44
22 49 44
22 49 44
22 48 44
22 48 43
22 49 44
23 49 45
21 47 42
21 47 42
22 48 44
22 48 43
22 49 44
23 50 45
22 49 44
22 48 44
21 47 42
22 48 44
23 50 45
23 51 46
22 49 44
21 47 43
23 50 45
23 50 45
23 51 46
23 50 45
22 49 45
24 52 47
23 50 45
23 50 46
22 48 44
24 51 46
23 50 45
22 48 44
22 49 44
22 48 43
22 49 44
22 49 44
22 49 44
22 48 43
23 50 45
23 50 45
23 49 45
22 47 43
23 50 45
22 49 44
22 49 44
22 49 44
23 50 45
23 50 45
22 48 44
22 49 44
23 50 45
22 48 44
22 48 43
23 51 46
23 49 45
23 49 45
23 51 46
24 52 46
23 50 45
22 48 44
22 48 43
23 50 45
22 49 44
23 50 46
23 51 46
23 51 46
22 49 44
23 49 44
22 47 43
23 50 45
23 50 45
23 50 45
22 49 44
23 51 46
23 50 45
23 50 45
23 50 45
23 49 44
23 51 46
23 51 46
23 49 45
23 50 45
22 49 44
23 50 45
23 51 46
25 54 48
23 50 45
22 49 44
22 47 43
23 49 45
22 48 43
23 50 45
22 48 44
23 51 46
23 50 46
23 50 45
23 50 45
22 48 43
24 52 47
23 50 45
23 50 45
23 49 45
24 52 47
23 50 45
23 50 45
23 50 46
22 49 44
22 49 44
22 48 44
23 49 44
22 49 44
22 49 44
23 51 46
23 50 45
23 50 45
23 49 44
23 50 45
23 50 45
23 49 45
22 49 44
21 47 42
22 48 43
23 51 46
24 52 47
22 49 44
23 50 45
23 49 45
22 48 44
21 47 42
23 50 45
21 47 42
22 48 43
22 49 45
21 47 42
22 49 44
21 46 42
22 49 44
22 48 44
22 48 43
22 48 44
21 47 42
20 45 41
21 46 42
22 49 44
21 47 43
22 49 44
23 49 45
21 45 41
22 49 44
21 46 42
22 48 43
22 48 44
21 46 42
21 47 42
22 47 43
22 48 43
23 50 45
22 48 43
23 50 45
22 47 43
22 48 44
21 47 43
23 51 46
21 46 42
22 48 43
22 48 44
22 48 43
21 47 42
22 48 44
22 48 44
23 51 46
22 49 44
21 47 42
22 49 44
22 48 44
22 47 43
22 48 43
22 47 43
23 50 45
22 49 44
22 48 43
21 47 42
23 50 46
23 50 45
22 48 43
23 50 45
22 48 43
22 49 44
22 48 44
23 50 45
22 47 43
21 47 42
22 49 44
22 49 44
22 49 45
23 49 45
22 47 43
21 47 43
22 48 44
22 49 44
22 49 44
22 48 43
23 50 45
22 48 43
23 50 45
24 52 47
22 49 44
22 47 42
21 46 42
22 49 44
23 50 45
23 50 45
22 49 44
23 49 45
22 48 43
23 49 45
23 50 45
22 48 43
22 48 43
23 50 45
22 49 44
22 48 43
22 48 44
23 49 45
22 47 43
21 47 42
23 50 46
22 48 44
23 51 46
23 50 45
22 47 43
21 47 42
23 50 45
22 49 44
22 48 44
22 47 43
22 49 44
23 50 45
22 49 44
23 49 45
22 47 43
23 51 46
23 49 45
24 51 47
23 50 46
22 47 43
22 49 44
22 48 43
23 50 45
22 48 43
23 50 45
22 49 44
22 48 43
23 49 45
22 49 44
22 49 44
24 52 47
23 50 45
22 49 44
22 49 44
23 50 45
23 50 45
24 52 47
23 50 45
23 51 46
23 50 45
22 49 44
24 52 47
24 53 48
22 49 44
23 50 45
22 48 43
22 48 43
23 49 45
24 52 47
24 52 47
23 50 45
22 48 43
24 51 46
22 48 43
23 51 46
22 48 43
23 49 44
22 48 44
23 50 45
22 47 43
23 49 44
23 50 46
22 49 44
23 51 46
23 50 45
22 48 44
23 51 46
23 50 46
24 52 46
23 50 45
23 50 45
23 50 45
23 50 45
23 50 45
23 50 45
23 51 46
22 48 43
23 49 44
22 49 44
23 51 46
23 50 45
22 48 44
23 49 44
22 49 44
23 49 44
22 48 44
22 49 44
24 52 47
23 51 46
23 50 45
23 50 45
24 52 47
24 51 46
22 48 43
23 49 45
23 50 45
22 49 44
23 51 46
22 49 44
22 47 42
23 50 45
22 48 44
21 47 43
22 48 44
22 48 44
22 48 43
21 46 42
22 48 44
22 48 43
22 48 43
22 48 44
21 47 43
21 47 43
21 46 42
23 49 45
23 50 45
22 49 44
22 48 44
22 48 44
21 46 41
21 47 43
23 50 45
22 48 43
22 48 44
22 49 44
23 49 45
22 49 44
22 48 43
23 51 46
22 47 43
23 50 45
22 47 43
21 46 42
21 47 42
22 47 43
23 50 45
22 48 43
22 48 43
22 49 44
22 49 44
21 47 43
22 49 44
22 49 44
23 50 45
22 48 43
22 48 43
22 49 45
23 49 45
22 47 43
22 48 43
22 49 44
22 49 44
22 47 43
22 49 44
23 50 46
21 46 42
21 47 42
22 48 43
23 50 45
22 49 45
23 51 46
22 49 44
22 49 44
22 48 43
23 50 46
23 50 45
21 46 42
22 48 43
22 49 44
21 47 42
22 49 44
23 50 46
22 48 43
22 49 44
22 48 43
21 47 42
22 48 44
22 47 43
22 48 44
22 49 44
22 49 44
23 51 46
22 49 44
22 47 43
22 48 44
23 50 45
22 49 45
22 49 44
22 49 44
23 50 45
22 47 43
22 48 43
22 49 44
23 50 45
22 49 44
22 49 44
22 47 43
23 51 46
23 50 45
22 49 44
23 50 46
22 48 43
23 50 46
22 49 44
22 49 44
22 49 44
23 51 46
22 49 44
22 48 43
22 48 43
22 49 44
22 48 44
21 46 42
23 50 45
22 49 44
24 53 48
23 50 45
23 49 45
23 50 45
23 50 45
23 50 45
23 50 45
23 49 44
23 50 45
22 49 44
22 49 44
23 51 46
24 51 46
22 49 44
22 48 44
23 50 45
22 49 44
23 49 44
23 49 45
23 50 45
23 50 45
23 50 45
23 50 45
23 49 45
22 49 44
24 52 47
23 51 46
22 49 44
21 47 43
23 50 45
23 50 45
22 49 44
22 49 44
21 47 42
23 50 45
23 51 46
22 48 43
22 49 44
23 50 45
23 50 46
23 50 45
23 50 46
23 49 45
23 50 45
22 48 44
23 51 46
23 51 46
23 50 45
24 52 47
22 47 43
22 48 43
23 50 45
23 50 45
23 50 45
24 51 46
23 49 44
22 49 44
24 52 46
23 51 46
22 48 43
22 48 44
23 49 44
22 48 43
23 51 46
23 51 46
22 48 44
24 53 48
24 52 47
24 52 47
23 51 46
22 49 44
22 48 43
23 50 45
23 51 46
24 51 46
22 48 43
23 51 46
22 49 44
22 49 44
23 50 45
22 47 42
22 49 44
22 48 43
22 48 43
22 48 43
23 50 45
21 46 42
22 47 43
22 48 44
22 48 44
22 48 43
21 47 43
21 47 43
23 50 45
22 49 45
22 48 44
21 46 42
21 47 43
22 49 44
21 47 43
21 47 42
21 46 42
22 49 44
22 47 43
21 46 42
22 48 44
21 47 43
22 48 44
21 47 42
21 47 42
22 48 43
21 47 43
22 49 44
22 48 44
23 51 46
22 48 43
22 48 43
21 46 42
22 47 43
21 46 41
21 47 43
23 49 45
22 48 44
22 49 44
22 48 44
21 47 43
22 49 44
22 48 43
22 48 44
22 47 43
21 47 43
22 49 44
22 48 43
22 48 44
23 50 45
21 47 42
22 47 43
22 49 44
22 49 44
21 47 42
22 48 44
22 49 44
22 49 44
22 49 44
22 48 44
23 50 45
22 48 44
22 48 44
21 46 42
21 47 42
22 49 44
23 50 45
22 48 44
23 50 45
23 49 45
22 49 44
22 49 44
23 51 46
22 49 45
23 49 45
23 50 45
22 49 44
23 49 45
22 49 45
23 51 46
22 47 43
23 50 45
23 50 45
23 50 46
23 51 46
23 49 45
22 49 44
23 50 45
22 49 44
22 49 44
22 48 43
22 49 44
22 49 44
22 48 43
22 48 43
23 51 46
23 50 45
23 50 45
21 46 42
23 50 45
21 47 42
22 49 44
23 51 46
22 48 43
23 51 46
22 49 44
22 48 44
22 49 44
23 49 45
23 50 45
22 47 43
22 49 44
22 49 44
23 49 44
22 48 44
22 48 43
22 47 43
22 49 44
24 51 46
22 49 44
22 48 44
22 49 44
23 50 45
24 52 47
22 48 44
22 49 44
23 50 45
22 48 43
22 49 44
21 47 42
22 49 44
22 48 44
23 49 45
23 51 46
22 48 43
23 50 45
22 48 44
22 49 44
23 50 46
23 50 45
23 50 45
22 47 43
23 50 45
23 50 45
23 51 46
22 48 43
23 50 45
23 51 46
23 49 45
22 49 44
22 48 43
23 50 45
23 49 44
22 49 44
23 50 45
22 48 43
23 49 45
22 48 43
24 51 46
23 50 46
22 48 43
23 49 45
23 50 45
23 49 44
23 49 45
22 49 44
22 48 43
23 50 45
22 48 43
22 49 44
23 49 45
23 50 45
23 51 46
23 51 46
23 50 45
23 51 46
22 49 44
22 49 44
23 51 46
23 51 46
22 49 44
22 49 44
23 51 46
23 49 44
24 51 46
24 52 47
23 49 44
23 51 46
23 50 45
24 52 47
22 48 43
24 52 47
22 49 44
23 49 44
23 50 45
22 48 43
22 49 44
23 50 45
22 49 44
24 51 46
23 49 44
22 48 44
22 48 43
22 48 43
21 45 41
22 48 44
22 48 44
21 46 42
22 48 43
21 46 42
21 47 43
22 48 43
22 48 44
22 49 44
21 46 42
22 49 45
21 47 42
22 49 45
22 47 43
21 47 42
22 49 44
21 47 43
22 48 43
22 49 45
22 49 44
22 49 44
22 48 44
22 49 45
23 50 45
21 47 43
22 49 44
22 48 43
21 46 41
21 47 43
22 48 44
22 49 44
21 47 42
22 48 44
23 50 45
22 48 43
22 49 44
22 48 44
22 48 44
23 50 45
23 50 45
22 48 43
23 50 45
23 49 45
21 47 42
22 47 43
23 49 45
22 48 44
22 48 44
23 49 44
22 47 43
21 46 41
22 49 44
23 49 45
22 49 44
22 48 44
23 49 45
23 50 46
22 48 43
22 49 45
22 48 44
22 48 43
23 51 46
23 50 45
21 47 42
22 48 44
21 47 42
23 50 45
22 49 45
23 51 46
23 51 46
23 50 45
23 50 45
22 47 43
22 48 43
22 48 44
23 50 45
22 49 44
23 49 45
23 51 46
22 47 43
23 49 45
22 48 43
22 48 44
23 49 45
23 50 45
23 50 45
23 50 45
21 47 42
22 49 44
22 47 43
22 49 44
23 51 46
22 49 44
23 50 45
22 49 44
22 48 44
23 51 46
22 49 44
22 49 44
22 48 44
22 49 44
23 51 46
22 49 44
22 48 43
23 51 46
22 48 43
23 49 45
23 51 46
21 47 42
22 49 44
23 50 45
23 50 45
22 49 44
23 50 45
23 50 46
23 50 45
23 49 45
22 48 43
22 49 44
22 49 44
23 50 45
23 51 46
23 50 45
22 48 44
22 48 43
23 50 45
22 48 43
23 49 44
23 50 45
23 50 45
23 49 45
23 50 45
22 48 44
22 48 43
22 49 44
22 49 44
22 49 44
23 50 45
22 48 44
23 51 46
22 49 44
23 49 45
23 50 45
23 50 45
23 49 45
22 49 44
23 50 45
23 51 46
22 48 44
23 49 45
23 49 44
23 50 45
22 48 43
22 48 44
22 49 44
23 49 45
23 50 46
21 47 42
22 49 44
22 48 43
23 50 45
22 49 44
23 51 46
24 53 48
22 48 43
24 52 47
23 49 44
23 50 45
23 49 45
22 48 43
23 50 45
23 50 46
23 50 45
23 51 46
23 49 45
24 51 46
23 49 44
23 50 45
22 48 43
23 50 45
22 48 44
22 48 43
23 49 45
23 50 45
23 51 46
22 49 44
22 49 44
23 50 45
22 48 44
24 51 46
24 52 47
22 49 44
23 51 46
23 49 45
22 48 44
22 48 44
