P3
200 133
255
20 45 41
20 45 42
21 46 42
20 45 41
20 45 42
20 45 41
21 46 43
20 45 41
20 45 41
20 44 41
20 45 41
20 45 41
20 45 41
20 43 40
20 45 41
21 47 43
20 44 41
20 45 41
20 45 41
20 45 41
20 45 41
20 45 42
20 45 41
21 46 42
21 46 42
20 45 41
20 45 41
21 46 42
20 45 41
20 45 41
20 45 42
20 45 41
20 45 41
21 46 42
20 44 41
20 45 41
20 45 42
20 45 41
21 46 42
21 46 42
20 44 41
21 46 42
20 45 41
21 46 42
20 45 41
20 45 42
20 44 40
21 46 42
21 46 42
20 45 41
20 45 41
20 44 41
20 44 40
20 44 41
20 45 41
20 44 41
20 44 41
20 45 41
21 47 43
20 45 41
20 45 41
20 45 41
20 45 42
20 45 42
20 44 40
20 45 41
19 43 39
20 44 41
20 44 41
20 44 40
21 46 42
20 45 41
20 44 41
20 44 40
20 44 40
21 46 42
21 46 42
20 45 42
20 44 41
21 46 42
20 45 41
20 45 41
20 45 41
20 45 41
20 44 40
20 44 41
20 45 41
20 44 40
20 45 41
20 45 41
20 44 41
20 45 41
20 45 42
19 43 40
20 44 41
20 44 40
20 45 42
20 45 41
20 44 40
20 44 41
20 44 41
20 45 41
20 44 40
20 44 40
20 45 41
21 46 42
20 45 41
20 44 41
20 45 41
19 43 40
20 44 40
20 45 41
20 45 42
20 45 41
20 44 41
20 45 41
20 44 41
20 44 40
20 44 41
20 45 41
20 44 40
20 44 41
20 44 40
20 45 41
20 45 41
20 44 41
20 44 40
20 45 41
20 44 41
20 45 41
20 45 42
20 44 40
20 44 41
20 44 41
19 43 40
20 45 41
20 44 40
20 45 41
21 46 42
19 43 39
19 43 40
20 44 40
20 44 41
20 44 41
19 43 40
20 45 41
20 44 41
20 44 40
19 43 40
19 43 40
20 44 40
20 44 41
20 45 41
20 45 41
20 44 41
20 45 41
20 43 40
20 44 41
19 43 40
20 44 40
19 43 40
19 43 40
19 43 40
19 43 40
20 44 40
20 44 41
20 44 41
20 44 40
20 44 40
19 43 40
20 45 41
20 45 41
19 43 39
20 44 40
19 43 40
20 44 40
19 43 40
20 44 40
19 43 39
20 44 41
19 43 40
20 44 40
20 44 40
20 44 41
20 44 41
20 44 40
19 43 40
20 45 41
19 42 39
19 42 38
20 44 41
19 42 39
19 43 40
19 42 39
20 44 40
19 43 40
19 43 40
19 43 40
19 43 40
19 43 40
20 44 41
20 45 42
20 45 41
20 44 40
20 45 41
21 46 42
20 45 41
21 46 42
20 44 41
20 44 40
20 45 41
20 45 41
20 45 42
20 45 41
20 45 41
19 43 39
20 45 41
21 46 42
20 45 41
20 45 41
21 46 42
21 46 42
21 46 42
20 45 41
21 46 42
20 44 40
21 46 42
21 46 42
20 45 42
20 44 40
21 46 42
20 45 42
20 45 41
20 45 42
20 44 40
20 44 40
20 45 41
20 44 40
20 45 41
21 45 42
20 44 40
20 45 41
20 44 41
20 45 41
21 46 42
21 46 42
20 45 41
21 46 42
20 45 41
20 44 41
20 45 41
20 45 41
20 45 42
20 45 41
20 45 41
20 45 41
20 44 40
21 46 42
20 44 40
20 45 41
20 45 42
21 46 43
20 45 42
20 43 40
20 44 41
20 44 40
20 44 41
19 43 39
20 45 42
21 46 42
20 45 41
20 45 41
20 44 40
20 45 41
21 46 42
21 46 42
20 45 41
20 44 40
20 44 40
20 44 41
20 44 41
21 46 42
20 45 41
21 46 42
20 45 41
20 45 41
20 45 41
21 46 42
20 44 41
20 45 41
20 44 40
20 44 40
20 44 40
20 45 41
20 44 41
20 44 40
20 44 41
20 45 41
20 45 41
20 45 41
20 45 41
20 44 41
20 45 42
20 44 41
20 44 41
20 45 41
20 44 40
20 45 42
20 44 41
21 46 42
20 44 40
20 44 41
20 43 40
20 44 41
20 45 41
20 45 41
20 44 41
20 45 41
20 45 41
20 45 41
20 45 41
20 44 41
20 44 40
20 45 42
20 44 41
20 44 40
19 43 40
20 45 41
20 45 41
20 44 40
20 45 41
20 44 41
20 44 40
20 44 41
20 44 41
20 45 41
20 44 40
20 44 41
19 43 39
21 46 42
20 44 40
20 45 42
19 43 40
19 43 39
20 44 40
20 44 40
20 44 41
19 43 40
20 44 40
20 44 40
19 43 39
19 43 40
20 44 41
20 44 40
19 43 40
20 44 40
20 45 41
20 44 40
20 44 40
19 43 40
20 45 41
20 45 41
19 43 40
20 45 41
20 44 40
20 44 40
19 43 40
19 42 39
20 45 41
19 43 40
20 44 40
20 44 41
20 45 41
19 43 40
20 45 41
19 43 39
19 43 40
19 42 39
19 43 40
19 43 40
20 44 40
19 43 40
20 44 40
20 44 40
20 44 40
19 43 40
19 43 39
19 43 39
19 43 39
19 43 40
19 43 40
19 43 40
20 44 40
19 43 40
20 45 41
20 44 40
19 42 39
18 41 38
19 43 40
19 43 40
21 46 42
21 46 42
20 44 41
20 44 40
21 46 42
19 43 40
20 45 41
21 45 41
21 46 42
20 44 41
21 46 42
21 46 42
21 46 42
21 46 42
20 45 41
20 45 41
20 45 41
20 45 41
21 45 42
20 45 41
20 45 41
20 45 41
21 46 42
20 45 41
20 44 41
20 45 42
21 46 42
20 44 40
21 46 42
20 45 41
20 45 42
20 45 41
20 45 41
20 45 41
20 45 41
21 46 42
20 44 41
20 45 41
20 45 41
20 45 41
21 45 42
20 45 41
20 45 41
20 44 40
20 45 42
20 45 41
21 46 42
20 44 41
20 44 40
20 45 42
21 46 42
20 45 42
20 45 41
20 45 41
20 45 41
20 45 41
20 45 41
20 45 41
20 44 41
19 43 39
21 45 42
20 45 42
20 45 42
20 44 41
21 46 42
20 45 41
20 45 41
20 45 42
20 44 40
20 45 41
20 45 41
21 46 42
20 45 42
20 45 41
20 45 41
20 43 40
20 45 41
20 45 41
20 45 41
20 45 41
20 45 41
20 45 41
20 45 41
20 44 40
20 45 41
21 45 42
20 45 41
20 44 41
21 46 42
20 45 41
20 44 41
20 45 41
20 45 41
20 45 41
20 45 41
20 44 40
20 45 41
20 45 41
20 44 41
20 44 41
20 44 41
21 46 42
20 45 42
20 45 41
20 44 40
20 44 41
20 44 41
20 44 41
20 45 41
20 45 42
20 45 41
20 45 41
20 45 41
20 43 40
20 45 41
20 45 41
20 44 41
20 44 40
20 44 41
20 44 40
20 45 41
20 45 41
20 45 41
20 44 40
20 44 40
20 43 40
20 45 41
20 45 41
20 45 41
20 45 41
20 44 40
20 45 41
20 46 42
19 43 39
20 44 41
20 45 41
19 43 40
20 45 41
19 43 40
20 45 42
20 44 41
20 44 41
20 44 40
20 44 41
19 43 40
20 44 40
20 45 41
20 45 41
20 44 40
20 45 41
20 44 41
20 44 40
20 44 40
20 44 41
20 44 40
20 44 41
20 45 41
19 43 40
20 44 41
20 44 41
20 45 41
20 44 41
20 45 41
20 44 41
20 44 41
20 46 42
20 44 41
20 43 40
20 44 40
20 44 41
19 43 39
20 44 40
20 45 41
20 43 40
20 45 42
20 44 40
19 43 40
20 44 41
19 43 39
20 45 41
20 44 41
20 45 41
20 44 41
19 43 40
19 43 40
20 44 40
20 44 41
20 44 40
20 45 41
19 43 40
19 43 39
19 43 40
19 43 39
20 44 41
20 45 41
19 43 40
19 43 40
19 43 40
19 43 40
20 44 40
20 45 41
20 45 41
21 46 42
20 44 41
21 46 42
20 45 41
20 45 41
20 45 41
21 46 42
21 46 42
20 45 41
21 46 42
21 47 43
20 45 41
20 45 41
20 44 41
20 45 41
21 46 42
20 45 42
21 46 42
21 47 43
20 44 41
20 45 41
20 45 41
20 45 41
20 45 41
20 45 41
20 45 41
20 45 41
21 46 42
20 44 41
20 45 41
21 46 42
20 45 41
20 44 41
21 46 42
20 44 40
21 46 42
21 46 42
20 45 41
20 45 41
20 45 41
21 45 42
20 45 41
20 45 41
20 45 41
21 46 42
20 45 41
21 46 42
20 44 41
21 46 42
20 44 41
20 44 41
20 45 41
21 45 42
20 45 41
21 46 42
20 45 41
20 45 41
21 45 42
20 44 40
20 45 41
21 46 42
20 44 41
20 45 41
20 45 41
20 45 41
21 46 42
20 45 41
20 44 41
21 46 42
20 45 41
20 45 41
21 46 42
20 45 41
21 46 42
20 45 41
21 46 42
20 45 42
20 44 41
21 47 43
20 45 41
20 44 41
20 45 41
20 44 41
20 45 42
20 44 40
20 45 42
20 45 41
21 46 42
20 45 41
20 45 41
20 43 40
20 45 41
20 44 41
21 46 42
20 45 41
21 46 42
20 43 40
21 45 42
21 46 42
20 45 41
20 45 41
20 45 41
20 44 41
19 43 39
20 44 40
20 44 41
20 45 41
20 45 41
19 43 40
21 46 42
20 44 40
20 44 41
20 44 40
20 45 41
20 45 41
20 45 42
20 44 41
20 44 40
20 44 41
20 44 40
20 44 41
21 46 42
20 45 41
20 44 41
20 44 41
20 44 40
21 46 42
20 44 41
20 45 41
20 44 41
20 44 41
20 44 41
20 44 40
20 45 42
20 45 41
20 44 41
20 45 41
20 44 41
20 45 41
20 44 40
20 44 41
20 45 41
20 44 40
20 44 41
20 44 40
20 44 40
20 45 41
20 45 41
20 44 40
20 44 40
20 44 41
20 45 41
20 45 42
20 44 40
20 44 41
20 44 41
20 45 41
20 44 40
20 45 41
20 44 40
20 45 41
19 43 40
20 44 41
19 43 40
20 44 41
19 43 39
20 44 40
20 45 41
20 44 40
20 45 41
20 44 41
20 44 41
20 44 40
20 45 41
21 46 42
20 44 41
20 44 41
20 44 40
20 45 41
20 45 41
20 45 42
20 43 40
20 44 40
19 43 40
20 44 40
19 43 40
20 45 41
20 45 41
20 44 40
19 43 40
20 44 40
20 45 41
19 43 40
19 43 40
20 45 41
20 44 41
19 43 40
20 44 41
20 45 41
20 45 41
20 45 41
20 45 41
21 47 43
20 45 41
20 45 41
21 46 42
20 44 41
20 45 41
20 45 41
21 47 43
20 45 41
20 45 41
21 46 42
20 45 41
20 45 41
21 46 42
21 46 42
21 46 42
20 44 40
20 45 41
21 46 42
20 45 41
21 47 43
21 46 42
20 45 41
21 45 42
20 45 41
21 46 42
21 45 42
21 46 42
20 45 41
20 45 41
21 46 42
20 44 40
21 46 42
20 45 41
20 45 41
20 45 41
21 47 43
20 44 40
21 46 42
20 45 42
20 45 41
20 45 41
20 44 40
20 44 40
21 45 42
21 46 42
20 44 40
21 46 42
21 46 42
20 44 40
20 45 42
20 44 40
21 46 42
20 44 41
20 45 41
21 46 42
20 45 41
20 45 41
20 45 42
20 45 41
20 44 41
20 44 41
21 45 42
20 45 41
20 45 41
20 45 42
21 46 42
21 46 42
20 45 41
20 45 41
21 46 42
20 45 41
20 45 41
20 45 41
20 45 41
20 45 42
20 45 42
20 45 41
20 44 40
20 45 41
20 44 40
20 45 41
20 45 41
20 44 41
20 45 42
21 46 42
20 45 41
21 46 42
21 46 42
21 46 42
20 43 40
20 45 42
21 46 42
21 46 42
20 45 41
20 45 42
20 45 41
20 45 41
20 44 41
20 45 41
20 45 41
20 45 41
20 45 41
20 45 41
20 45 41
20 44 41
20 44 40
20 45 42
20 44 40
20 45 41
20 45 41
20 44 41
20 44 40
20 45 42
20 44 41
20 44 40
20 44 41
20 45 41
21 46 42
21 46 42
20 45 42
19 43 40
20 45 41
20 45 41
20 45 41
20 43 40
20 44 40
20 45 41
20 44 40
20 44 41
20 45 41
20 45 41
20 44 40
20 45 42
20 45 41
20 45 41
20 44 40
20 44 41
19 43 39
20 44 40
20 44 40
20 44 41
20 45 41
20 45 41
20 45 42
20 45 41
20 44 40
21 46 42
19 43 40
20 44 40
20 44 40
19 43 40
20 45 41
20 45 41
20 44 41
20 44 40
20 44 41
20 44 40
19 42 39
20 44 41
20 44 41
20 44 40
19 43 39
20 44 40
20 44 41
19 43 40
20 44 40
19 43 40
20 45 42
20 44 40
20 44 40
20 44 40
20 44 40
20 44 40
20 44 40
20 44 41
20 44 40
19 43 40
20 45 41
19 43 40
19 43 40
20 43 40
20 44 40
20 44 41
20 44 41
19 43 39
19 43 40
19 43 40
20 44 40
19 43 40
20 44 41
20 44 41
19 43 40
19 43 40
19 43 39
20 44 40
20 44 41
20 44 41
20 45 41
20 45 41
21 46 42
20 44 41
21 47 43
21 47 43
20 45 41
20 45 41
20 45 41
21 46 43
21 46 42
21 46 42
21 46 42
21 46 42
20 45 41
20 45 41
21 47 43
20 44 40
21 46 42
20 45 41
20 45 41
21 46 42
20 44 41
20 45 41
20 45 41
20 44 40
21 46 42
20 45 41
21 46 42
20 45 42
21 46 42
20 45 41
20 45 41
20 45 41
21 46 42
21 46 42
21 46 42
21 46 42
20 45 41
21 46 42
21 46 42
20 45 41
21 45 42
20 44 40
20 45 42
20 45 41
20 45 41
21 46 42
21 45 42
20 45 41
20 45 41
21 46 42
21 46 42
20 45 41
20 45 41
20 45 41
20 44 40
20 45 41
20 44 40
20 45 41
21 48 44
20 45 41
20 45 42
20 45 41
20 45 42
21 46 42
20 45 41
20 45 41
21 46 42
20 45 41
20 44 40
21 46 42
20 45 41
21 46 42
20 45 41
20 45 41
21 46 42
20 45 41
21 46 42
21 45 42
21 46 42
21 46 42
20 45 41
21 46 43
20 45 41
20 44 40
20 44 40
20 44 41
20 45 41
20 45 42
21 46 42
21 46 42
20 44 40
20 45 41
21 46 42
20 45 41
20 45 42
20 45 42
20 44 40
20 44 41
20 45 41
21 46 42
20 45 42
21 46 42
20 44 41
20 44 40
20 45 41
20 45 41
21 46 42
20 45 41
20 45 41
20 44 41
20 45 41
20 44 40
20 44 40
20 45 41
20 45 41
21 46 42
20 44 41
19 43 40
20 45 42
21 45 42
20 44 40
20 45 41
20 44 41
20 44 40
20 45 41
20 43 40
20 44 41
20 45 41
20 45 41
20 45 41
20 45 41
20 44 40
20 45 41
20 44 41
20 45 41
20 44 41
20 44 41
20 43 40
20 43 40
20 44 41
20 44 40
20 44 41
20 45 41
20 44 40
20 45 41
20 44 40
20 45 41
20 44 41
20 45 41
20 45 41
20 44 40
20 44 40
20 44 40
20 44 41
20 45 41
20 44 40
20 44 40
20 44 41
20 45 41
20 44 41
20 44 41
20 44 41
20 45 41
20 44 41
20 45 41
20 44 41
20 44 40
20 44 41
20 44 40
19 43 40
20 44 40
20 44 40
20 44 40
20 44 40
20 44 41
20 44 41
20 44 41
20 44 40
20 44 40
20 44 40
20 44 41
20 45 41
20 44 40
21 46 42
20 44 40
20 44 40
20 45 41
19 43 40
20 45 41
20 44 41
19 44 40
20 44 41
20 44 40
20 45 41
19 43 40
20 44 40
21 46 42
20 45 41
20 45 41
21 46 42
20 44 41
20 45 41
21 47 43
21 46 42
20 45 41
21 46 42
20 45 41
21 47 43
20 45 41
21 47 43
21 45 41
20 44 40
20 44 40
20 45 41
21 46 42
20 45 41
20 45 42
20 45 41
20 45 41
21 46 42
21 47 43
21 46 42
20 45 41
21 45 42
20 45 42
21 46 42
21 46 42
21 46 42
20 45 41
21 46 42
20 44 40
21 46 42
20 44 41
21 46 42
21 46 42
21 46 42
21 46 42
21 46 42
21 46 42
21 46 42
20 45 41
20 45 41
20 44 40
21 46 43
20 45 41
20 45 41
21 45 42
21 46 42
20 45 41
21 45 42
21 46 42
20 45 41
21 46 42
21 46 42
20 44 40
21 46 42
21 47 43
20 45 41
21 46 42
21 46 42
20 44 41
21 46 42
21 46 42
20 45 41
20 45 41
21 45 42
20 45 41
20 45 41
20 45 41
21 46 42
21 46 42
20 45 41
21 46 42
20 45 41
21 46 42
21 47 43
20 45 41
21 46 42
21 46 42
20 45 41
21 45 42
21 46 42
20 45 42
20 45 41
20 45 41
21 46 42
20 45 41
20 45 41
20 45 41
20 45 41
20 45 41
20 44 40
20 45 41
20 45 41
20 45 41
20 45 41
20 45 41
20 44 40
20 45 41
20 45 41
20 44 40
20 45 41
21 46 43
20 45 41
21 46 42
20 44 40
20 45 41
20 45 42
21 46 42
21 46 42
20 44 40
20 45 41
21 46 42
21 47 43
20 45 41
20 44 41
20 45 41
20 44 40
20 45 41
20 44 40
20 45 42
19 43 40
21 46 42
20 44 41
20 44 41
21 46 42
20 45 41
20 44 40
21 46 42
20 45 41
20 44 40
20 44 40
20 45 41
21 46 42
20 45 41
21 46 42
21 46 42
20 45 42
20 45 41
20 44 41
20 45 41
20 44 41
20 44 41
19 43 39
20 44 40
20 45 41
19 43 40
20 44 41
20 44 40
20 44 41
20 43 40
19 43 40
20 45 41
20 45 41
19 43 40
20 44 41
20 45 41
20 44 40
20 44 41
20 44 40
20 45 42
20 44 40
20 44 40
20 44 41
19 43 40
20 44 40
21 46 42
20 44 40
20 45 41
20 44 40
20 44 41
20 45 41
20 44 40
20 45 41
19 43 40
20 45 41
19 43 40
20 44 40
20 44 41
20 44 40
19 43 40
19 43 40
20 44 41
20 44 41
20 44 40
20 44 41
20 45 41
20 44 40
20 44 40
19 42 39
20 45 41
20 44 40
20 44 40
19 43 40
19 43 40
20 43 40
21 46 43
21 46 42
21 46 42
21 46 42
21 47 43
21 45 42
21 46 42
20 45 41
20 45 41
20 45 41
21 46 42
21 46 42
20 45 41
21 46 42
20 45 41
20 45 41
20 45 41
21 45 42
20 45 41
21 46 42
21 46 42
20 45 41
21 46 42
21 46 42
20 45 41
21 46 42
21 46 42
21 46 42
20 45 42
21 46 42
21 46 42
20 45 41
20 45 41
20 45 41
20 45 41
20 45 41
20 45 41
21 46 42
21 45 42
21 46 42
20 44 41
20 45 41
20 45 41
21 46 42
20 45 41
20 45 41
20 45 42
20 45 41
21 46 42
21 46 42
20 45 42
21 46 42
20 45 41
21 47 43
21 46 42
21 46 42
20 45 41
20 44 40
20 45 41
20 45 41
21 46 42
21 46 42
21 46 42
21 46 42
20 45 41
20 44 41
21 46 42
21 46 42
21 47 43
21 46 42
21 46 42
20 45 41
20 45 41
21 46 42
20 45 41
21 46 42
21 46 42
21 46 42
20 45 41
21 45 42
21 46 42
21 46 42
21 46 42
21 46 42
20 45 41
20 45 41
21 46 42
20 44 41
20 45 41
20 44 41
20 45 41
20 44 41
20 44 40
21 46 42
20 45 41
20 45 41
20 45 41
20 44 41
20 45 41
21 46 42
20 45 41
21 46 42
21 45 42
20 45 41
20 45 41
20 45 41
20 45 41
21 47 43
20 45 41
20 45 42
21 46 42
20 45 42
20 45 41
20 44 40
20 44 40
20 45 41
20 44 40
20 45 41
21 47 43
20 45 41
20 44 40
20 44 40
20 45 41
20 44 40
20 44 41
20 44 40
20 44 40
20 45 41
20 45 41
21 46 43
20 44 41
20 45 41
20 45 41
20 44 40
20 44 40
20 45 41
20 45 41
20 44 40
20 45 41
20 45 41
20 45 41
20 44 41
20 44 40
20 44 41
20 44 41
19 43 39
20 44 40
20 45 41
20 45 41
20 44 41
20 45 41
20 44 41
20 44 41
20 45 41
21 46 42
20 44 41
20 44 41
20 45 42
20 45 41
20 45 41
20 45 41
20 44 41
20 44 41
20 45 42
20 45 41
20 44 40
20 43 40
20 45 41
20 44 40
19 43 40
20 45 41
19 43 40
20 45 41
20 44 41
20 45 41
20 44 41
20 44 41
20 44 41
19 43 40
19 43 40
20 44 40
20 44 41
20 44 41
19 43 39
19 43 40
20 45 41
19 43 39
20 44 40
19 43 40
20 44 41
20 44 41
20 44 41
20 45 41
20 44 40
20 44 40
19 43 40
19 43 40
20 44 40
20 45 41
20 44 40
20 44 40
21 46 42
21 46 42
20 45 41
21 46 42
21 47 43
21 46 42
21 46 42
20 45 41
20 45 41
21 47 43
21 46 42
20 45 41
21 46 42
20 44 41
21 46 42
20 45 41
20 45 42
21 47 43
20 45 41
21 45 41
20 45 41
21 47 43
21 46 42
21 46 42
20 45 41
21 46 42
21 46 42
21 46 42
20 45 41
20 45 41
21 46 42
20 45 41
21 46 42
20 44 40
20 45 41
21 45 41
21 46 42
20 45 41
21 46 42
21 45 41
20 45 41
21 46 42
21 46 42
21 46 42
21 46 42
21 46 42
21 47 43
21 46 42
21 46 42
21 47 43
20 45 41
20 45 42
21 46 42
20 45 41
21 46 42
21 46 42
20 45 41
21 46 42
20 45 41
21 46 42
21 46 42
20 45 41
20 44 41
21 46 42
20 45 41
20 45 41
20 45 41
20 45 41
20 45 41
21 45 42
21 46 43
20 45 41
20 45 41
21 46 42
21 46 42
20 45 41
21 46 42
21 46 42
20 44 41
20 45 41
20 44 41
20 45 41
21 46 42
20 44 40
21 46 42
20 44 41
20 45 41
21 46 42
21 46 42
21 47 43
20 44 40
20 45 41
20 44 40
20 44 41
21 46 43
20 45 41
20 45 41
20 45 41
20 45 41
21 46 42
21 46 42
20 44 40
20 44 40
20 45 41
21 46 42
20 45 42
20 45 41
20 45 41
20 45 41
20 45 42
20 44 40
21 46 42
20 45 41
20 45 42
20 44 41
20 45 42
20 45 41
20 45 41
21 46 42
20 45 41
20 45 41
20 45 41
21 45 42
21 46 42
21 46 42
20 45 41
20 45 41
20 44 41
21 46 42
20 45 42
21 46 42
20 44 40
20 44 40
20 45 41
20 44 41
20 44 40
20 44 41
20 45 42
20 45 41
20 45 41
20 45 42
20 44 40
20 45 42
20 44 40
20 45 41
20 45 41
20 44 40
20 44 41
20 44 41
20 44 40
20 44 41
20 45 42
20 45 41
20 44 41
20 44 40
20 45 41
20 45 41
20 45 41
20 44 40
20 46 42
20 44 40
20 45 41
20 45 41
20 44 40
20 44 41
20 45 42
20 44 41
20 45 41
20 44 41
19 43 40
20 44 41
20 44 40
20 44 41
20 44 40
20 45 42
20 44 40
20 44 41
20 44 40
19 43 39
20 44 41
20 46 42
20 45 41
20 44 41
20 45 42
20 44 40
20 45 41
19 43 39
20 44 41
20 45 41
20 44 41
19 43 40
19 43 39
20 45 41
20 44 41
20 44 40
20 44 41
20 45 42
19 43 40
20 45 41
21 46 42
21 46 42
21 45 42
21 47 43
21 46 42
21 46 42
20 45 41
21 46 42
21 46 42
21 46 42
21 46 43
20 45 41
21 46 42
21 45 42
21 46 42
21 47 43
21 46 42
21 46 42
21 46 42
21 46 42
21 45 41
21 46 42
20 45 41
21 46 42
20 45 41
20 44 41
21 46 42
21 46 42
21 47 43
21 46 42
21 45 42
20 45 41
21 46 42
21 46 42
20 45 41
20 44 41
21 46 42
20 44 40
21 45 41
20 45 41
20 45 41
20 45 41
21 46 42
21 46 42
21 47 43
20 45 41
21 46 42
21 46 42
20 45 41
20 44 41
21 46 42
21 45 42
20 45 41
21 47 43
21 47 43
21 46 42
21 45 42
21 46 42
21 46 42
20 45 42
21 46 42
20 45 41
21 46 42
20 45 41
20 45 41
21 46 42
21 46 42
21 46 42
20 45 41
21 46 42
21 46 42
21 46 42
21 47 43
20 44 41
20 45 41
20 45 41
21 46 42
21 45 42
21 46 42
20 45 41
20 45 41
21 46 42
20 45 41
21 45 42
21 46 42
20 45 41
21 46 42
20 44 41
21 46 42
21 46 42
21 46 42
20 45 41
20 45 42
21 46 42
20 44 41
21 46 42
21 47 43
21 46 42
20 45 41
20 44 40
20 45 41
21 46 43
20 44 40
21 46 42
20 44 40
21 46 42
20 45 41
21 46 42
20 44 40
20 44 40
21 46 42
20 45 41
20 45 41
20 45 41
21 46 42
20 44 40
21 46 42
20 45 41
20 44 40
21 46 42
20 45 41
21 46 42
20 44 40
20 45 41
20 45 41
20 45 41
20 45 41
20 45 41
20 45 41
20 45 42
20 43 40
20 44 40
20 45 41
20 45 41
20 44 41
20 45 42
20 45 41
21 46 43
20 45 41
20 45 42
20 44 41
20 45 41
20 45 41
20 45 41
20 44 41
21 46 42
20 44 41
21 46 42
20 44 41
20 44 40
20 44 40
20 44 41
20 44 41
20 45 41
20 44 41
20 44 40
19 42 39
20 45 42
20 45 41
20 45 41
20 45 41
20 44 41
19 43 40
20 44 40
20 44 40
20 45 41
20 45 41
21 46 42
20 45 41
20 45 41
20 44 41
20 45 41
20 44 40
19 43 40
19 43 40
20 45 41
20 45 41
20 44 40
20 44 41
20 45 41
20 44 40
20 44 40
20 44 41
19 43 40
20 45 41
20 44 40
20 44 40
20 44 40
20 44 41
19 43 39
20 44 40
20 44 41
20 45 41
20 44 40
20 45 41
20 44 41
19 43 40
19 43 40
20 44 40
20 44 40
20 44 40
21 46 42
20 44 41
21 46 42
21 46 42
21 47 43
20 45 41
21 47 43
21 46 42
21 46 42
20 45 41
21 46 42
21 47 43
21 46 42
20 45 41
21 46 42
20 44 40
21 46 42
20 44 40
21 47 43
21 46 42
21 47 43
21 47 43
21 46 42
20 45 41
21 46 42
20 45 41
21 46 42
21 46 42
21 46 42
21 46 42
21 47 43
21 46 42
21 46 42
21 45 41
21 46 42
21 47 42
21 46 42
21 46 42
21 46 42
21 46 42
20 45 41
20 45 41
21 46 42
21 46 42
20 45 41
21 46 42
20 45 41
21 46 42
21 46 42
21 46 42
20 45 41
21 46 42
20 45 41
21 46 42
20 45 41
20 44 41
20 45 41
21 46 42
20 45 41
21 46 42
20 45 41
20 45 41
20 44 40
21 46 42
20 45 41
20 45 41
21 46 42
21 46 43
20 45 41
21 47 43
21 46 42
21 46 42
20 45 41
21 46 42
21 46 42
20 45 41
21 46 42
21 46 42
20 45 41
21 46 42
20 45 41
21 46 42
20 45 41
20 45 41
20 44 40
21 45 42
21 46 42
21 46 42
20 45 41
21 47 43
22 48 43
20 45 41
21 45 42
20 45 41
20 45 42
20 44 40
21 46 42
21 45 42
20 44 41
21 46 42
20 45 42
21 47 43
21 46 42
20 45 41
21 46 42
21 46 42
20 45 42
20 44 41
21 46 42
21 46 42
20 45 41
21 46 42
21 46 43
20 45 41
20 45 42
20 44 41
20 44 41
20 44 40
21 47 43
20 45 41
21 46 42
20 45 41
20 44 40
20 44 40
20 45 41
20 45 42
21 47 43
20 45 41
20 44 41
20 45 41
21 47 43
21 46 42
20 45 41
20 45 41
20 45 41
20 45 41
20 45 41
20 45 42
20 44 41
20 45 42
20 44 40
20 45 41
20 44 41
20 44 41
20 45 41
20 45 41
20 45 41
20 45 41
21 45 42
20 45 41
20 45 41
20 45 42
21 46 42
20 43 40
21 47 43
20 45 42
21 46 42
20 44 41
20 45 41
20 44 40
20 45 41
20 45 41
20 45 41
20 44 41
20 44 41
20 45 42
20 44 41
20 45 41
20 44 41
20 44 40
20 44 40
19 43 40
20 45 41
20 44 40
20 45 42
19 43 40
20 45 42
20 45 41
20 44 40
19 43 40
19 43 39
20 44 40
19 43 40
20 44 41
20 43 40
20 44 40
20 44 41
20 45 41
20 45 41
20 45 41
20 44 41
19 43 39
20 44 40
20 44 41
20 45 41
19 43 39
20 44 41
20 44 41
19 43 40
21 46 42
20 45 41
21 46 42
21 45 41
21 46 42
21 47 43
21 46 42
21 46 42
20 45 41
21 46 42
21 46 42
20 45 41
21 46 42
21 46 42
20 45 41
21 46 42
21 46 42
21 46 42
21 46 42
20 45 41
21 46 42
21 46 42
21 46 42
21 46 42
21 45 41
21 45 41
20 45 41
20 45 41
21 47 43
21 47 43
21 45 41
21 47 43
21 46 42
21 47 43
21 47 43
21 47 43
21 46 42
21 46 42
21 46 42
21 47 43
21 46 42
21 47 42
20 45 42
21 46 42
21 47 43
21 46 42
21 45 41
21 45 41
21 46 42
21 47 43
20 45 41
20 44 40
20 45 41
21 46 42
20 45 41
21 46 42
21 46 42
21 46 42
21 46 42
20 45 41
20 45 41
20 45 41
20 45 41
21 47 43
20 44 40
20 45 41
21 46 42
20 45 41
20 45 41
21 46 42
21 46 42
21 46 42
21 45 42
21 45 41
21 47 43
21 46 42
20 45 42
20 45 41
21 46 42
21 45 42
21 47 43
20 45 41
20 45 41
20 45 41
21 46 42
20 45 41
21 46 42
21 46 42
21 45 42
21 47 42
21 46 42
21 46 42
21 46 42
20 45 41
21 47 43
20 45 41
21 46 42
21 46 42
20 45 41
21 46 42
21 47 43
20 45 41
21 45 42
20 45 41
20 45 41
20 45 41
21 46 42
21 46 42
20 44 41
20 44 40
21 45 42
19 43 40
20 45 41
20 45 41
21 46 42
20 45 41
21 46 42
20 45 41
20 45 41
20 44 41
21 46 42
21 46 42
21 46 42
20 45 41
20 45 41
20 44 40
20 45 41
20 45 41
21 46 42
21 45 42
20 45 41
21 46 42
21 46 42
20 45 41
20 45 41
20 45 41
21 46 42
20 45 42
20 45 42
21 46 42
20 45 41
20 45 41
20 44 40
20 44 41
20 45 41
21 46 42
20 44 41
21 46 42
20 44 41
19 43 40
20 45 41
20 45 41
20 46 42
20 45 42
20 45 41
20 44 40
20 44 40
20 44 41
20 45 41
20 44 41
20 44 41
20 45 41
20 45 41
20 45 42
20 45 42
20 44 41
20 44 41
20 44 40
20 44 40
20 44 40
20 45 41
20 44 40
20 44 40
20 45 41
20 44 40
20 44 40
20 45 41
20 44 40
20 44 40
20 44 40
20 45 41
19 43 40
20 45 42
20 44 40
20 44 41
20 44 41
20 44 41
19 43 40
20 45 41
20 44 40
20 44 40
19 43 39
20 44 40
20 44 40
20 44 41
20 44 41
20 44 40
20 44 40
19 43 40
20 45 41
21 46 42
20 45 41
20 45 41
21 47 43
21 46 42
21 47 43
21 47 43
21 46 42
21 47 43
20 45 41
21 45 41
21 47 43
21 47 43
21 46 42
21 46 42
21 45 42
21 47 43
22 48 44
20 45 41
21 46 42
21 46 42
21 47 43
21 46 42
21 46 42
20 45 41
21 45 42
21 46 42
21 46 42
21 47 43
20 45 41
21 46 42
21 46 42
21 46 42
21 46 42
21 46 42
21 46 42
22 48 44
21 46 42
21 46 42
21 46 42
21 45 41
21 46 42
21 46 42
21 46 42
20 45 41
21 47 43
21 46 42
21 46 42
21 47 43
20 45 41
21 46 42
20 45 41
21 46 42
21 47 43
21 46 42
20 45 41
21 45 41
21 46 42
20 45 41
21 46 42
20 45 41
21 46 42
22 48 44
20 45 41
20 45 41
21 46 42
21 46 42
21 47 43
20 45 41
21 47 43
21 47 43
21 47 42
20 45 41
21 46 42
20 45 41
20 45 41
20 44 41
21 46 42
21 46 42
20 45 41
20 45 41
20 45 41
21 46 42
21 47 43
21 45 42
20 45 41
21 47 43
21 46 42
21 45 42
21 46 42
20 45 41
21 46 42
21 47 43
21 46 42
21 47 43
21 46 42
21 46 42
21 46 42
21 46 42
21 46 42
21 45 42
20 45 41
20 45 41
21 46 43
20 45 41
21 46 42
21 47 43
21 46 42
20 45 42
21 46 42
21 46 42
21 45 42
20 44 41
20 45 41
20 45 41
20 45 41
21 46 42
20 45 41
20 45 41
20 45 41
21 46 42
21 46 42
20 45 41
20 45 41
20 45 41
21 46 42
20 45 41
21 46 42
20 45 41
20 45 41
21 46 42
21 46 42
21 46 43
20 45 41
20 44 40
20 45 41
20 45 42
20 45 41
20 45 41
20 45 41
20 45 41
20 44 41
21 46 42
20 45 41
20 44 41
21 46 42
20 45 41
20 45 42
20 45 41
20 45 41
21 46 42
21 46 42
20 45 41
20 45 41
20 44 41
20 45 42
20 45 41
20 44 41
20 45 42
20 45 41
20 45 41
20 44 41
20 44 41
20 45 41
20 45 42
20 45 42
19 43 40
20 45 42
20 45 41
20 44 40
20 44 41
20 44 40
20 45 41
20 45 41
20 44 40
19 43 39
20 45 42
20 44 41
20 44 40
20 45 42
20 45 41
20 45 41
20 44 40
20 45 41
20 44 40
20 44 40
20 44 40
20 44 41
20 45 41
20 44 41
20 45 41
20 44 40
20 44 41
20 44 40
20 44 40
20 44 40
20 44 40
20 43 40
20 44 40
19 43 40
20 45 41
21 46 42
20 45 41
21 46 42
21 46 42
21 45 41
21 46 42
21 46 42
21 47 43
20 44 40
21 47 43
21 46 42
21 47 43
21 46 42
21 46 42
22 48 44
21 46 42
21 46 42
21 45 41
21 46 42
21 45 41
21 46 42
21 46 42
21 46 42
21 46 42
21 46 42
21 46 42
20 45 41
21 47 43
21 47 43
20 45 41
20 45 41
21 47 43
22 49 45
21 47 43
20 45 41
21 46 42
20 45 41
21 46 42
21 47 43
21 47 42
21 47 43
21 46 42
21 46 42
21 46 42
21 46 42
21 45 41
21 47 43
21 47 43
21 46 42
21 46 42
21 46 42
21 47 43
21 46 42
20 45 41
21 46 42
22 48 44
20 45 41
21 46 42
21 46 42
21 46 42
20 45 41
21 46 42
21 46 42
21 46 42
20 45 41
21 46 42
20 45 41
21 45 41
21 46 42
21 46 42
21 47 43
21 46 42
21 46 42
22 48 44
20 45 41
21 46 42
21 47 43
21 45 42
20 45 41
20 45 41
21 46 42
21 47 43
20 44 41
22 48 44
20 44 41
20 45 41
21 46 42
21 46 42
20 45 41
20 45 41
21 46 42
21 47 43
21 46 42
20 45 41
21 46 42
20 45 41
21 46 42
21 46 42
21 46 42
20 45 41
21 46 42
20 45 41
21 46 42
21 46 42
20 45 41
21 46 42
21 46 42
21 46 42
21 46 42
21 46 42
20 45 41
20 44 40
21 47 43
20 45 41
21 46 42
21 46 42
20 45 41
21 45 42
20 45 41
21 46 42
20 45 42
21 45 42
21 46 42
21 46 42
21 46 42
21 46 42
20 45 42
20 45 41
20 45 41
20 45 41
20 45 41
20 45 41
20 45 41
20 44 40
20 45 41
21 46 42
20 45 41
20 44 40
20 44 40
20 45 41
20 45 41
20 44 40
21 46 42
20 44 40
20 45 42
20 44 41
20 45 41
20 44 41
20 45 41
20 45 42
20 45 41
20 44 40
20 45 41
20 45 41
20 44 41
20 44 41
20 45 41
20 45 41
20 44 40
20 44 41
20 44 40
20 44 41
20 45 41
20 44 41
20 44 41
20 45 42
20 44 41
20 44 41
19 43 40
20 44 40
20 44 41
20 45 41
20 44 41
20 43 40
20 45 41
20 44 40
20 44 40
20 45 41
20 45 41
20 44 41
20 45 41
20 45 42
20 45 41
20 45 41
20 44 40
20 44 41
20 43 40
20 44 41
21 46 42
21 46 42
20 45 41
20 45 42
19 43 40
19 42 39
20 45 41
20 44 41
20 45 42
20 44 40
20 44 40
21 46 42
21 47 43
21 46 42
21 47 43
21 46 42
21 46 42
21 47 42
21 46 42
21 46 42
21 47 43
20 45 41
21 46 42
21 46 42
21 46 42
22 48 43
21 47 43
20 45 41
21 45 41
21 46 42
21 46 42
21 46 42
20 45 41
20 45 41
21 47 43
21 46 42
21 46 42
20 45 41
20 45 41
21 47 43
21 46 42
21 46 42
21 46 42
20 45 41
21 47 43
20 45 41
21 45 41
22 48 43
21 46 42
21 46 42
20 45 41
21 47 43
21 46 42
21 46 42
21 47 43
21 46 42
21 47 43
21 46 42
21 46 42
21 46 42
21 47 43
21 46 42
21 47 43
21 46 42
21 46 42
21 47 42
21 46 42
20 45 41
21 46 42
21 46 42
21 46 42
21 47 42
21 46 42
21 46 42
21 46 42
21 45 41
22 48 43
21 47 43
22 48 44
21 46 42
21 45 42
21 46 42
20 45 41
20 45 41
21 46 42
21 46 42
21 46 42
20 45 41
21 46 42
21 47 43
21 47 43
21 46 42
21 45 41
21 46 42
20 45 41
21 46 42
20 45 41
20 45 41
21 46 42
21 46 42
20 45 41
21 46 42
20 45 41
21 45 42
20 45 41
20 45 41
21 46 42
21 47 43
20 45 41
21 45 42
20 45 41
21 47 43
20 45 41
21 46 42
20 45 41
21 46 42
21 45 41
21 45 42
21 46 42
21 46 42
20 45 42
20 45 41
21 46 42
21 47 43
21 46 42
21 46 42
20 44 41
21 46 42
20 45 41
21 46 42
20 45 41
20 45 41
20 45 41
20 45 41
20 45 41
20 45 42
20 45 41
21 46 42
21 46 42
21 47 43
20 45 41
20 45 41
21 47 43
21 45 42
21 46 42
20 45 41
20 45 41
20 45 41
20 45 41
20 45 42
21 46 42
20 45 41
20 45 41
20 45 41
20 45 41
20 45 41
20 44 41
20 45 42
20 44 41
20 45 42
20 45 41
20 45 41
20 45 41
21 45 42
20 45 41
21 46 42
20 45 41
20 44 41
20 44 41
20 44 40
21 46 42
21 46 42
20 45 41
20 43 40
20 44 40
20 46 42
20 46 42
20 45 41
20 45 42
20 45 41
20 44 40
20 45 41
21 46 42
20 45 41
20 45 41
20 45 41
20 44 41
20 44 40
20 45 41
20 45 41
20 44 40
21 46 42
20 44 41
20 44 41
20 45 41
20 45 41
20 45 41
21 46 42
19 43 40
20 44 41
20 43 40
20 44 40
20 45 41
21 46 42
20 44 41
20 44 40
20 44 41
20 44 40
19 43 40
20 45 41
20 44 40
21 47 43
21 46 42
21 46 42
20 45 41
21 46 42
21 47 42
21 47 43
21 47 43
22 48 43
21 47 43
21 46 42
21 46 42
21 47 43
21 46 42
21 46 42
21 46 42
21 47 43
21 46 42
21 46 42
21 46 42
21 47 43
20 45 41
21 47 43
21 46 42
21 46 42
21 46 42
22 48 44
21 47 43
21 45 41
21 47 43
21 45 41
21 46 42
21 46 42
21 47 43
21 46 42
21 46 42
21 47 43
21 46 42
21 46 42
21 47 43
21 46 42
21 47 43
21 46 42
21 46 42
21 47 43
21 46 42
21 46 42
21 46 42
21 46 42
21 46 42
21 46 42
21 45 42
21 47 43
21 46 42
21 47 43
21 47 42
21 46 42
21 46 42
21 46 42
21 47 43
21 46 42
21 47 43
21 47 43
20 45 41
21 45 41
21 46 42
20 44 41
21 47 43
21 46 42
21 47 43
21 47 42
20 45 41
21 46 42
21 46 42
21 47 42
21 47 43
21 47 43
21 46 43
20 45 41
21 46 42
21 46 42
20 45 41
21 47 43
20 45 41
22 48 44
21 47 43
21 46 42
21 47 43
21 47 43
21 47 43
21 46 42
21 47 43
21 46 42
20 45 41
21 45 41
21 46 42
21 46 42
21 46 42
21 45 42
21 45 42
21 46 42
20 45 41
20 45 41
21 46 42
20 44 41
20 45 41
21 46 42
21 46 42
21 46 42
21 46 42
21 47 43
21 46 42
20 45 41
22 48 44
20 45 41
21 47 43
20 45 42
21 46 42
21 47 43
20 45 42
20 45 41
20 45 41
21 46 42
20 44 40
20 45 41
20 45 41
20 44 41
20 45 41
21 46 42
20 45 41
21 46 42
20 45 41
20 45 41
20 45 41
21 46 42
21 47 43
21 46 42
20 45 41
20 45 41
20 45 41
20 45 41
20 45 41
20 45 41
20 45 42
21 46 42
20 45 41
21 46 42
20 45 41
20 45 41
20 45 41
20 45 42
20 44 41
20 44 41
20 45 41
20 45 41
20 45 41
20 45 41
20 45 41
20 45 41
20 45 41
20 44 41
20 44 41
20 45 41
20 45 41
20 44 41
20 45 42
20 44 40
20 46 42
20 45 41
20 45 41
20 44 40
20 45 41
20 45 41
21 46 42
20 44 41
20 45 41
20 44 40
20 45 41
20 44 40
19 43 40
20 46 42
21 46 42
20 45 41
20 44 40
20 44 41
20 45 41
20 44 40
20 45 41
20 45 41
20 44 40
20 45 41
20 45 41
20 44 41
20 45 41
20 45 41
21 46 42
20 44 40
20 45 41
20 44 40
20 45 41
21 46 42
22 48 44
22 48 44
21 46 42
21 46 42
22 47 43
21 46 42
21 47 43
21 46 42
21 47 42
21 47 42
21 46 42
21 47 43
21 46 42
21 46 42
21 47 43
21 47 43
21 46 42
21 47 43
21 45 41
21 46 42
21 47 43
21 46 42
21 47 43
21 47 43
21 47 43
22 48 44
22 49 45
21 47 43
21 47 43
21 46 42
21 46 42
21 46 42
21 46 42
21 47 43
21 45 42
21 47 43
21 47 43
21 46 42
21 47 42
21 46 42
21 46 42
21 46 42
21 46 42
21 46 42
21 46 42
22 48 44
21 46 42
21 46 42
21 46 42
21 46 42
21 46 42
21 46 42
21 47 43
21 45 41
20 44 41
21 46 42
21 46 42
21 46 42
20 45 41
21 46 42
21 47 43
21 47 43
21 45 41
20 45 41
21 47 43
21 47 43
21 46 42
21 45 41
21 46 42
21 46 42
21 46 42
21 46 42
21 46 42
21 46 42
21 47 42
21 46 42
21 45 41
21 46 42
21 46 42
21 46 43
20 45 41
21 46 42
20 45 41
21 46 42
21 46 42
21 46 42
21 46 42
20 45 41
21 46 42
21 46 42
21 46 42
21 45 42
21 46 42
21 47 43
21 46 42
21 46 42
21 47 42
20 45 41
20 45 41
21 46 42
20 45 41
20 45 41
21 46 42
21 45 41
21 46 42
21 47 43
21 46 42
21 47 43
21 45 41
21 45 42
21 47 43
20 44 40
21 46 42
21 47 43
20 44 40
21 46 42
20 45 41
21 45 41
20 44 40
21 46 42
21 47 43
21 46 42
20 45 41
20 44 40
20 45 41
20 45 41
20 45 41
21 46 42
21 46 42
21 46 42
21 46 42
20 45 41
20 45 41
20 44 41
21 46 42
21 46 43
21 46 42
20 45 41
20 44 40
21 46 42
20 45 41
20 45 41
20 44 40
21 45 42
20 45 41
21 45 42
21 46 42
21 46 42
20 45 41
20 44 40
20 45 41
20 44 40
20 45 41
21 46 42
20 45 41
20 43 40
20 45 41
20 45 42
20 45 41
20 45 41
21 46 42
20 45 41
20 44 41
20 45 41
20 44 40
20 45 42
20 45 41
20 45 41
21 45 42
20 44 41
21 46 42
21 46 42
21 46 42
20 44 41
20 45 41
20 44 41
20 45 41
20 45 41
20 45 41
20 45 42
20 45 42
20 45 41
20 44 41
19 43 40
20 45 41
20 44 41
20 45 41
20 44 41
20 44 41
20 45 41
20 45 41
20 44 41
20 45 41
20 44 41
20 45 41
20 44 40
20 44 40
20 45 41
20 44 40
21 47 43
22 48 44
21 46 42
21 47 42
21 47 43
21 46 42
21 46 42
21 47 42
21 47 43
21 46 42
21 46 42
21 47 43
21 46 42
21 45 41
21 47 43
21 47 43
21 46 42
21 46 42
21 47 42
21 45 41
21 46 42
21 46 42
20 45 41
21 46 42
20 45 41
21 46 42
21 47 43
21 47 43
20 45 41
21 46 42
21 46 42
21 47 43
20 45 41
21 46 42
21 46 42
21 46 42
21 46 42
21 46 42
22 48 44
21 47 42
21 47 43
21 47 42
21 47 43
22 48 43
21 47 42
21 47 43
21 46 42
21 46 42
21 46 42
21 47 43
21 46 42
21 46 42
21 47 43
21 46 42
21 45 41
21 45 41
21 46 42
21 46 42
21 46 42
21 46 42
21 46 42
21 47 43
21 46 42
21 47 43
21 46 42
21 46 42
21 47 43
21 47 43
21 47 43
21 46 42
21 46 42
21 46 42
21 47 43
21 46 42
21 46 42
21 46 42
21 47 43
21 47 43
21 46 42
21 46 42
21 46 42
20 45 41
21 46 42
21 46 42
21 45 41
21 46 42
22 48 43
21 47 43
21 46 42
21 45 42
20 45 41
21 47 43
20 45 41
21 46 42
21 46 42
20 44 40
21 45 41
20 45 41
20 45 41
20 45 41
21 46 42
21 46 42
21 46 42
21 46 42
21 46 42
20 45 41
21 46 42
21 46 42
21 46 42
21 46 42
20 45 41
21 45 42
21 47 43
21 46 42
20 45 41
20 45 41
21 47 43
21 46 42
21 47 43
21 46 42
20 45 41
21 46 43
20 45 41
21 46 42
20 45 41
21 45 41
21 46 42
21 45 42
21 46 42
21 46 42
21 46 42
21 46 42
21 46 42
21 47 43
21 46 42
21 46 42
21 46 42
20 45 42
21 46 42
20 45 41
20 44 41
20 45 41
20 45 42
20 45 41
21 46 42
20 44 41
20 45 42
21 46 42
21 46 42
20 45 41
21 46 42
20 45 42
20 44 41
20 45 41
20 45 41
20 45 41
20 44 41
20 45 41
20 45 41
20 45 41
20 45 41
20 44 40
20 45 41
20 45 41
20 45 41
20 45 42
20 44 40
20 44 41
20 45 41
20 44 41
21 46 43
20 45 41
19 43 40
20 45 42
21 45 42
21 46 42
21 46 42
20 45 41
20 44 40
20 44 40
20 43 40
20 44 40
20 44 41
19 43 40
19 43 40
21 46 42
20 44 40
20 44 41
20 44 41
20 44 40
20 45 42
20 45 41
20 45 41
20 44 41
21 46 42
20 44 40
20 45 41
20 45 42
20 44 40
20 45 42
21 46 42
21 47 43
21 46 42
21 46 42
21 46 42
21 46 42
22 48 44
21 46 42
21 47 43
21 47 43
21 46 42
21 47 43
21 47 43
21 47 43
21 47 43
21 47 43
22 48 44
21 47 43
21 47 43
21 47 43
22 48 44
22 47 43
21 46 42
21 46 42
21 47 43
21 47 43
21 47 43
21 46 42
21 47 43
21 46 42
21 47 43
21 46 42
21 46 42
21 46 42
21 47 43
21 46 42
21 46 42
22 48 43
21 47 43
21 46 42
21 47 43
21 47 43
21 45 41
21 46 42
21 46 42
21 45 41
20 45 41
21 46 42
22 48 44
21 47 43
21 46 42
20 45 41
21 47 43
21 46 42
21 46 42
21 46 42
21 47 43
21 46 42
21 47 43
20 45 41
21 47 43
21 45 41
21 46 42
21 46 42
21 46 42
21 46 42
20 45 41
21 47 43
21 46 42
21 46 42
21 47 43
21 46 42
21 46 42
21 46 42
21 47 43
21 46 42
21 46 42
22 48 44
21 46 42
20 45 41
21 46 42
21 47 43
21 46 42
21 46 42
21 46 42
21 46 42
21 46 42
21 46 42
21 46 42
21 47 43
21 46 42
20 45 41
21 45 41
20 45 41
21 47 43
20 45 41
21 46 42
21 46 42
21 45 42
21 46 42
21 46 42
21 45 42
21 47 43
21 46 42
21 46 42
21 45 42
20 45 41
21 45 41
21 46 42
21 47 43
21 45 42
20 45 41
20 45 41
21 46 42
20 45 41
21 46 42
20 44 40
21 47 43
21 45 41
21 46 42
20 45 41
21 45 41
20 45 41
20 45 41
21 47 43
21 46 42
21 46 42
21 46 42
21 46 42
21 46 42
21 46 42
21 45 42
20 45 41
21 46 42
20 45 41
21 45 42
21 46 42
21 46 42
20 45 41
21 46 42
21 45 42
20 45 42
20 45 41
21 46 42
21 46 42
21 46 42
21 45 42
20 44 41
21 46 42
21 46 42
20 45 41
20 45 41
20 45 41
20 45 41
20 45 41
20 45 41
21 46 42
20 45 41
21 45 42
20 45 41
20 45 42
20 45 41
20 45 41
20 44 41
20 45 41
20 44 41
21 46 42
20 44 41
20 45 41
20 44 41
21 46 42
20 44 41
20 44 41
20 45 41
20 45 41
20 44 41
20 45 41
20 44 40
21 46 42
20 45 41
20 45 41
20 45 41
20 45 42
20 43 40
20 45 41
20 45 41
20 45 41
20 45 41
20 44 41
20 44 40
20 45 41
20 44 41
20 44 41
20 44 41
20 45 41
20 44 40
20 44 40
20 45 41
20 44 40
20 44 40
20 45 41
21 46 42
21 47 43
21 46 42
21 47 43
21 47 43
21 46 42
21 47 43
21 47 43
22 47 43
21 46 42
21 47 42
21 47 43
21 46 42
21 47 43
21 46 42
21 46 42
21 47 43
21 47 43
21 46 42
21 46 42
21 46 42
21 47 43
21 46 42
21 46 42
21 47 43
21 46 42
21 47 43
21 47 42
21 46 42
21 46 41
21 46 42
21 47 42
22 48 43
21 47 43
21 47 43
21 47 43
21 46 42
21 46 42
21 46 42
21 46 42
21 46 42
21 46 42
21 47 43
21 46 42
21 47 43
21 47 43
21 47 43
21 47 42
21 46 42
21 46 42
21 47 43
20 45 41
21 46 42
21 46 42
21 46 42
21 46 42
21 47 42
20 45 41
21 46 42
21 47 43
21 46 42
21 46 42
21 47 42
21 46 42
21 47 42
21 46 42
21 46 42
21 46 42
22 48 44
21 46 42
21 46 42
21 47 43
20 45 41
21 47 43
21 46 42
21 46 42
21 46 42
21 46 42
22 47 43
20 45 41
21 47 42
21 46 42
21 46 42
21 46 42
21 47 43
21 46 42
21 46 42
20 45 41
21 46 42
21 46 42
21 47 43
20 45 41
21 46 42
21 46 42
21 47 43
21 46 42
21 47 42
20 45 41
21 46 42
21 47 42
21 46 42
21 46 42
21 46 42
21 47 43
20 45 41
21 46 42
21 46 42
21 46 42
21 45 42
20 45 41
21 45 42
21 46 42
20 45 41
21 46 42
21 47 43
20 45 41
21 46 42
21 46 43
20 45 42
21 46 42
21 46 42
21 46 42
21 46 42
21 46 42
20 45 42
20 44 41
20 45 41
21 46 42
21 45 42
20 45 41
21 46 42
20 45 41
21 46 42
20 45 41
20 44 40
21 46 42
20 44 41
20 45 41
21 46 42
21 46 42
21 47 43
21 46 42
21 46 42
21 46 42
21 45 42
21 46 42
20 44 41
20 45 41
20 45 41
20 45 42
21 46 42
21 46 42
21 46 42
20 44 40
20 45 41
21 46 42
20 44 41
20 45 41
20 45 41
20 45 41
20 45 41
20 44 40
21 45 42
20 45 41
20 45 41
20 45 41
20 45 41
20 45 41
21 46 42
20 45 41
20 45 41
20 44 40
20 44 41
20 44 40
20 45 41
21 46 42
20 44 41
20 45 41
20 45 42
20 45 41
20 45 41
20 45 41
20 45 41
20 44 40
20 44 41
20 44 41
20 44 40
20 45 42
20 44 40
20 43 40
20 43 40
20 45 41
20 44 41
20 44 41
20 45 42
20 44 40
20 44 40
20 44 40
19 43 40
21 47 43
21 46 42
21 47 43
21 46 42
21 47 43
22 48 43
21 45 41
21 47 42
21 46 42
21 46 42
22 48 44
21 46 42
21 47 43
21 46 42
21 47 43
21 46 42
21 47 43
21 47 43
20 45 41
21 47 43
21 47 43
21 46 42
21 47 42
21 47 42
21 46 42
21 46 42
21 47 43
21 47 43
21 46 42
21 47 43
21 46 42
21 46 42
21 47 43
20 45 41
21 47 43
21 46 42
21 46 42
20 45 41
21 46 42
21 47 43
22 48 43
21 45 41
21 46 42
21 46 42
22 48 43
21 47 43
22 48 43
21 46 42
21 46 42
21 46 42
20 45 41
21 46 42
21 46 42
22 47 43
21 46 42
21 47 43
21 46 42
21 47 43
21 47 43
22 48 44
22 48 43
21 47 43
21 46 42
21 46 42
21 47 43
22 48 43
21 46 42
21 46 42
21 45 41
21 46 42
21 47 43
21 46 42
21 46 42
20 45 41
21 46 42
21 46 42
21 47 43
21 47 43
21 47 43
21 46 42
21 46 42
21 46 42
21 45 41
21 46 42
22 48 44
21 47 43
21 46 42
22 48 44
21 46 42
22 48 44
21 46 42
21 46 42
21 47 43
20 44 41
21 46 42
21 46 42
21 47 43
21 47 43
21 47 42
20 44 41
21 46 42
21 47 43
21 46 42
20 45 41
21 46 42
21 46 42
21 45 42
21 46 42
21 46 42
21 46 42
21 45 41
20 45 41
20 45 41
21 45 41
20 45 41
20 45 41
21 46 42
20 45 41
21 47 42
21 45 42
21 46 42
21 46 42
20 45 41
21 45 42
21 46 42
21 46 42
21 46 42
21 46 43
21 46 42
20 45 41
21 47 43
21 46 42
21 46 42
20 45 41
21 46 42
20 45 41
21 46 42
21 46 42
20 45 41
20 45 41
21 46 42
20 45 41
21 46 42
20 45 41
21 46 42
20 45 41
20 45 41
20 45 41
21 46 42
21 46 42
20 44 40
20 45 41
20 45 41
20 45 42
20 44 40
20 45 41
20 44 40
20 45 41
20 44 40
21 46 42
21 46 42
20 44 40
20 44 41
20 44 41
20 45 42
21 46 42
20 45 41
20 45 41
21 46 42
20 44 41
20 45 42
20 45 41
20 45 41
20 45 42
20 45 41
20 45 42
20 45 41
20 44 41
20 45 41
20 45 41
20 45 42
20 45 41
20 45 41
20 44 41
20 45 41
20 45 42
20 44 41
20 45 41
20 45 42
20 44 40
20 44 41
20 44 41
20 45 41
20 45 41
20 44 41
20 44 40
20 44 41
20 45 41
21 46 42
20 45 42
20 45 41
21 47 42
21 47 43
22 48 44
21 46 42
21 47 43
21 46 42
21 46 42
21 47 43
21 46 42
21 46 42
21 46 42
21 47 43
21 47 43
21 46 42
21 47 42
22 48 43
21 46 42
21 46 42
22 47 43
21 47 43
21 46 42
21 47 43
21 47 43
21 46 42
22 47 43
21 46 42
21 47 42
21 47 43
21 45 41
21 46 42
22 48 43
21 46 42
21 46 42
21 47 43
21 47 43
21 47 43
21 46 42
21 46 42
22 47 43
21 47 43
22 47 43
21 47 43
21 46 42
21 47 43
22 47 43
21 47 43
21 46 42
21 46 42
21 46 42
21 47 43
20 45 41
22 47 43
21 47 43
21 46 42
21 47 43
22 48 43
21 46 42
21 47 43
21 46 42
20 45 41
21 46 42
21 47 43
21 46 42
21 46 42
21 46 42
21 47 43
21 46 42
21 46 42
21 45 41
21 47 43
21 46 42
21 45 41
21 47 43
21 47 43
21 46 42
21 47 42
21 46 42
21 46 42
21 46 42
21 46 42
21 47 43
21 47 43
21 46 42
21 46 42
21 46 42
21 46 42
20 45 41
21 46 42
21 46 42
21 46 42
21 46 42
21 46 42
21 46 42
21 46 42
21 46 42
21 45 41
21 45 41
21 47 43
20 45 41
21 46 42
21 46 42
21 46 42
21 46 42
21 46 42
21 46 42
21 46 42
21 47 43
21 47 43
21 47 43
21 46 42
20 45 41
21 47 43
20 45 41
21 46 42
21 47 43
20 45 41
21 46 42
21 47 43
21 46 42
21 47 43
21 46 42
20 45 41
20 44 40
20 45 41
21 46 42
21 46 42
21 45 42
21 47 43
21 46 42
21 46 42
21 46 42
21 46 42
20 45 41
20 45 41
21 46 42
21 47 43
21 46 42
20 45 41
20 45 41
20 45 41
20 45 41
21 46 42
20 45 41
21 46 42
20 44 41
20 45 42
21 46 42
20 45 41
20 44 40
20 44 41
21 47 43
20 45 41
20 45 41
20 45 41
20 45 41
21 46 42
20 44 40
20 44 41
21 46 42
21 46 42
20 45 41
20 45 42
20 45 41
20 45 41
20 45 41
20 44 41
20 45 41
20 45 41
20 45 42
20 44 41
20 44 41
20 44 40
20 45 41
20 45 42
20 45 41
20 44 41
20 45 41
21 46 43
20 44 40
20 45 41
20 45 42
20 45 41
21 46 42
20 45 41
21 46 42
20 45 41
20 45 41
20 44 41
20 45 42
20 44 40
20 45 41
20 45 41
20 45 42
20 44 41
21 46 42
20 45 41
21 46 42
21 46 42
20 44 40
21 47 43
21 47 43
21 47 43
21 47 43
21 46 42
21 47 42
21 47 43
21 46 42
21 46 42
21 47 43
22 48 44
22 48 44
21 47 43
22 47 43
21 46 42
21 47 43
21 46 42
21 46 42
21 47 43
21 47 43
21 47 43
21 46 42
22 48 44
21 46 42
21 46 42
21 46 42
21 47 43
21 47 43
21 47 43
21 46 42
22 48 44
22 48 43
21 46 42
22 47 43
21 46 42
21 46 42
21 46 42
21 46 42
21 47 43
21 47 43
21 47 42
21 45 41
21 46 42
21 47 43
21 47 43
21 47 43
21 46 42
21 47 43
21 46 42
21 46 42
22 48 43
21 45 41
21 47 43
21 47 43
22 48 44
21 47 43
21 46 42
21 47 42
22 48 44
21 46 42
21 47 43
21 46 42
21 47 43
22 48 44
22 49 44
20 45 41
21 47 43
21 47 42
21 46 42
21 46 42
21 47 43
21 47 43
21 46 42
21 47 43
22 48 43
21 46 42
21 46 42
21 47 43
21 47 43
21 47 43
21 47 43
20 45 41
21 46 42
21 46 42
20 45 41
21 46 42
21 46 42
21 46 42
21 46 42
21 47 43
21 46 42
21 46 42
21 46 42
21 46 42
21 47 43
20 45 41
22 48 43
21 46 42
21 46 42
20 45 41
21 46 42
21 46 42
21 47 43
20 45 41
20 45 41
21 46 42
20 45 41
21 45 41
21 47 43
21 46 42
21 47 43
20 45 41
21 47 43
21 46 42
21 47 43
21 45 41
21 46 42
21 45 41
21 47 42
21 46 42
21 46 42
21 46 42
22 48 43
21 46 42
21 47 43
21 46 42
20 45 41
21 47 43
20 45 41
20 44 40
21 45 41
20 45 42
20 45 41
21 47 43
20 45 41
20 45 41
21 46 42
21 46 42
21 45 42
20 45 41
20 45 41
21 45 42
21 46 42
21 45 42
20 45 41
21 46 42
21 46 42
21 46 42
21 46 42
21 47 43
20 45 41
21 45 42
21 46 42
20 45 41
20 45 41
21 46 42
21 46 42
21 46 42
20 44 40
21 46 42
21 46 42
20 45 41
21 46 42
21 46 42
20 45 41
21 46 42
20 44 41
20 45 41
21 46 42
21 46 42
20 45 41
20 45 41
20 45 42
20 45 41
20 45 41
20 45 41
20 44 40
20 43 40
21 45 42
20 45 41
20 45 42
20 44 41
20 45 41
20 45 41
21 46 42
20 45 41
20 45 41
21 46 42
20 44 41
20 44 41
20 44 40
20 44 41
20 45 42
20 45 42
20 45 41
20 45 41
20 44 40
20 44 41
20 45 42
20 44 41
21 47 43
22 48 44
21 47 43
22 48 44
21 46 42
21 46 42
21 46 42
21 46 41
21 47 43
21 47 43
22 48 43
22 48 43
21 47 43
21 46 42
21 47 43
21 46 42
21 47 42
21 47 43
21 45 41
21 47 43
22 48 43
21 46 42
21 45 41
21 46 42
21 46 42
21 46 42
22 48 43
22 48 43
21 45 41
22 47 43
21 47 43
22 47 43
21 47 42
21 47 43
21 47 43
22 47 43
22 48 44
21 47 43
21 47 43
22 47 43
22 48 44
21 46 42
21 47 43
21 47 43
21 47 43
21 46 42
21 47 42
21 47 43
21 46 42
21 47 43
21 47 43
21 47 42
21 47 43
21 47 43
21 47 43
21 46 42
21 46 42
21 46 42
21 47 43
22 48 43
21 47 42
21 47 43
21 47 43
21 46 42
21 47 43
21 46 42
21 47 43
22 47 43
22 48 44
21 46 42
21 46 42
21 46 42
21 46 42
22 48 44
21 46 42
21 46 42
21 47 43
22 48 44
21 46 42
21 47 43
21 47 43
22 48 43
21 47 43
21 46 42
21 46 42
21 47 43
21 47 43
21 46 42
21 46 42
21 47 42
21 46 42
21 46 42
21 46 42
21 47 43
21 47 43
20 45 41
21 47 43
21 46 42
21 46 42
21 47 43
21 46 42
21 46 42
21 47 42
21 46 42
21 47 43
21 47 43
21 46 42
21 45 41
20 45 41
21 46 42
21 47 43
21 46 42
21 46 42
21 47 43
20 45 41
21 46 42
21 46 42
21 47 43
21 46 42
20 45 41
20 45 41
21 46 42
21 46 42
21 46 42
21 46 42
21 47 43
21 46 42
21 46 42
21 46 42
21 46 42
21 46 42
20 44 40
20 44 40
21 46 42
21 46 42
21 46 42
21 47 43
20 45 41
20 44 41
20 45 41
21 46 42
20 45 41
21 47 43
20 44 40
21 47 43
20 45 42
20 45 41
20 45 41
21 46 42
20 45 41
21 46 42
21 46 42
21 47 43
21 46 42
20 45 41
20 45 41
21 46 42
21 46 42
21 46 42
21 46 42
20 45 41
20 44 41
20 45 41
20 45 41
20 44 41
21 46 42
20 45 41
20 45 41
20 45 41
20 44 41
21 46 42
21 46 42
20 44 41
20 45 41
20 44 40
20 45 41
20 45 42
20 44 40
20 45 41
20 45 41
21 46 42
20 45 41
20 44 41
20 45 41
20 45 41
20 45 42
20 45 41
20 45 42
20 45 42
20 45 42
20 45 42
20 44 41
20 45 42
20 44 40
20 44 40
20 45 42
21 46 42
20 45 41
20 44 40
20 45 41
21 47 43
21 47 43
21 47 42
21 47 43
21 47 43
21 46 42
21 47 43
21 46 42
21 47 43
21 46 42
22 48 43
21 47 43
21 46 42
21 46 42
22 48 44
21 46 42
22 48 44
21 46 42
22 47 43
22 48 43
21 46 42
21 46 42
21 47 43
21 47 43
22 48 43
21 46 42
22 48 43
22 48 44
21 47 42
22 48 44
22 47 43
22 48 43
21 47 42
20 45 41
21 47 42
21 46 42
21 46 42
21 47 43
21 47 43
21 46 42
21 46 42
21 46 42
21 47 43
22 47 43
21 47 43
21 46 42
21 46 42
21 47 42
22 48 43
21 46 42
21 47 42
21 46 42
21 47 42
22 48 44
21 47 43
21 47 43
21 46 42
21 47 42
21 47 43
21 46 42
21 46 42
21 47 43
21 47 43
21 46 42
21 47 43
21 47 43
21 47 43
21 47 43
21 46 41
21 46 42
21 45 41
21 47 43
21 46 42
21 46 42
21 46 42
21 47 42
21 46 42
21 46 42
21 47 42
21 47 43
21 46 42
21 47 43
21 46 42
21 46 42
21 47 43
21 46 42
21 46 42
21 47 43
21 45 42
21 47 43
21 46 42
21 47 43
21 47 43
21 46 42
21 47 43
22 48 43
21 47 43
21 46 42
21 46 42
21 47 43
21 47 43
21 47 43
21 46 42
22 48 44
21 45 41
21 46 42
21 46 42
21 47 43
21 47 43
21 47 43
21 46 42
21 46 42
21 45 41
21 46 42
21 46 42
21 46 42
21 46 42
21 47 43
20 45 41
21 46 42
21 46 42
20 45 41
21 46 42
21 46 42
21 46 42
21 47 42
21 46 42
20 45 41
20 44 40
21 46 42
21 46 42
21 46 42
21 47 43
20 45 41
21 46 42
21 46 42
21 45 42
21 46 42
21 46 42
21 46 42
21 46 42
21 46 42
21 46 42
21 46 42
21 46 42
21 46 42
20 45 41
21 46 42
21 46 42
21 46 42
21 46 42
21 46 42
20 45 41
20 45 41
20 45 41
20 45 41
21 46 42
20 44 41
21 46 42
21 47 43
21 46 42
19 43 39
20 45 41
20 45 42
21 46 42
21 46 42
20 45 41
20 45 41
20 45 41
21 47 43
20 45 41
20 45 41
21 46 42
20 45 42
20 45 42
21 47 43
20 44 40
20 44 40
21 46 42
20 44 40
21 46 42
20 45 41
20 45 41
20 45 41
20 45 41
21 46 42
20 45 41
20 44 41
20 45 41
20 44 40
20 44 41
20 44 40
20 45 41
20 45 41
20 45 41
20 43 40
20 45 41
20 45 41
20 45 41
20 45 41
21 46 42
21 46 42
21 47 43
21 46 42
21 46 42
22 49 45
21 47 43
22 48 43
22 48 43
21 47 43
21 47 42
22 47 43
22 48 43
21 47 43
22 47 43
22 48 43
21 47 43
21 47 43
21 46 42
21 46 42
21 47 43
22 48 44
21 47 42
22 48 44
22 48 43
21 47 43
22 48 43
21 46 42
21 47 43
21 47 43
21 47 43
22 48 44
21 47 43
21 46 42
21 46 42
21 47 43
22 48 44
22 48 43
22 48 43
22 48 44
21 46 42
22 48 44
21 46 42
21 46 42
21 47 43
21 47 43
21 47 43
21 47 42
21 47 43
21 47 43
21 47 42
21 47 42
21 46 42
21 47 43
21 46 42
21 47 43
22 48 43
21 47 42
21 47 43
21 46 42
20 45 41
21 47 43
21 47 43
21 46 42
21 46 42
22 48 43
21 46 42
21 46 42
21 46 42
21 46 42
21 46 42
21 47 43
21 46 42
21 47 43
21 46 42
21 47 43
21 47 43
21 45 41
21 46 42
22 48 44
21 47 43
21 47 43
20 45 41
21 46 42
21 47 43
21 47 42
21 47 43
21 46 42
21 45 41
21 47 43
22 48 43
20 45 41
21 47 43
21 46 42
21 46 42
21 46 42
22 47 43
21 47 43
21 45 41
21 46 42
21 46 42
21 46 42
21 47 43
21 47 43
22 48 44
21 47 43
21 45 41
21 46 42
21 46 42
22 48 44
21 46 42
21 46 42
21 46 42
21 46 42
21 46 42
21 46 42
21 46 42
21 47 43
21 46 42
21 47 43
21 47 43
21 45 41
21 47 43
21 46 42
21 46 42
20 45 41
20 45 41
21 47 43
21 46 42
21 46 41
21 46 42
21 47 43
20 45 41
21 47 43
21 47 43
20 45 41
21 47 43
21 46 42
20 45 41
21 46 42
21 46 42
21 46 42
20 45 41
21 46 42
20 45 41
21 46 43
21 46 42
20 45 41
21 46 42
20 45 42
20 45 41
21 46 42
21 46 42
21 46 42
20 45 42
21 45 42
21 46 42
20 44 41
20 45 41
20 45 41
21 46 42
20 45 41
21 46 42
20 44 41
21 46 42
21 46 42
21 46 42
20 45 41
20 45 42
20 45 41
20 45 41
21 46 42
20 44 40
21 47 43
21 46 42
21 46 42
21 45 42
20 45 41
20 45 41
20 45 41
21 46 42
21 46 42
20 45 41
21 46 42
20 45 41
20 43 40
20 44 40
20 44 40
20 45 41
20 45 41
20 44 40
21 47 43
20 45 41
20 45 41
20 45 41
20 44 40
20 44 40
20 45 41
20 44 41
20 45 41
22 47 43
21 47 43
22 48 44
22 48 44
22 48 43
21 47 43
21 46 42
21 47 43
21 47 43
21 46 42
22 48 44
22 48 43
22 48 43
21 47 43
21 46 42
22 48 44
22 48 44
21 47 42
21 46 42
22 47 43
21 47 42
21 47 43
22 47 43
21 47 42
21 47 43
21 47 42
21 47 43
21 46 42
21 46 42
21 47 42
21 47 42
21 47 43
22 48 43
22 49 45
21 47 42
21 47 42
21 47 43
21 47 43
22 48 43
22 48 44
22 49 44
21 47 43
21 47 43
21 47 43
21 47 43
22 48 44
21 47 43
22 48 44
21 47 43
21 46 42
22 48 43
22 48 43
22 48 44
22 47 43
22 48 43
21 47 43
21 46 42
21 47 42
22 48 44
22 47 43
21 47 42
21 46 42
21 46 42
21 47 43
21 47 43
21 47 43
21 47 43
21 46 42
21 47 43
21 47 43
22 48 43
21 47 43
21 47 43
21 47 43
21 46 42
22 47 43
21 47 43
22 47 43
21 47 43
20 45 41
22 49 44
21 47 43
21 46 42
21 46 42
21 46 42
21 47 43
21 47 43
21 46 42
21 45 41
21 46 42
22 48 44
21 47 43
21 45 42
21 46 42
20 45 41
21 46 42
21 45 41
21 46 42
21 46 42
21 46 42
21 46 42
21 46 42
21 45 41
21 47 43
22 49 44
21 47 43
21 46 42
21 46 42
21 46 42
22 48 43
21 45 41
21 47 43
20 45 41
21 46 42
21 45 41
22 48 44
21 47 43
21 47 43
21 46 42
21 46 42
21 47 43
21 46 42
21 46 42
21 46 42
21 46 42
21 47 43
21 45 41
21 47 43
21 47 43
20 45 41
20 45 41
20 45 41
20 45 41
21 46 42
21 47 43
21 46 42
20 45 41
21 46 42
21 46 42
21 46 42
21 46 42
20 45 41
21 47 43
20 45 41
21 46 42
21 46 42
20 45 41
20 45 41
21 46 42
20 45 41
21 46 42
21 46 42
20 45 41
21 45 42
21 46 42
20 45 41
20 45 41
21 47 43
20 45 41
20 44 41
21 46 42
21 45 42
20 45 41
21 47 43
21 47 43
20 45 41
20 45 41
21 46 42
21 46 42
21 46 42
20 45 41
21 46 42
20 45 41
21 46 42
20 45 41
20 44 40
20 44 41
20 45 41
20 44 40
21 46 42
21 46 42
21 46 42
20 45 41
20 44 40
20 45 42
20 45 41
20 44 40
20 45 41
20 45 41
20 45 41
20 44 41
20 45 41
20 45 41
20 44 40
20 44 41
21 46 42
21 45 42
20 45 41
20 45 41
20 45 41
22 48 43
21 46 42
21 47 43
21 46 42
22 48 44
22 48 43
21 47 43
21 47 43
22 48 44
22 47 43
21 47 43
21 47 43
21 47 42
22 48 44
21 47 43
22 48 43
22 48 43
21 47 43
21 46 42
21 47 43
21 46 42
21 47 42
22 48 43
21 47 42
21 47 43
22 48 44
22 47 43
21 47 43
21 47 43
21 46 42
21 46 42
21 47 42
22 48 43
21 46 42
21 47 43
21 47 43
21 47 43
21 47 43
22 48 44
22 48 44
21 47 43
22 48 44
22 49 44
21 47 43
21 47 43
21 46 42
21 47 42
22 48 44
21 46 42
21 46 42
21 47 42
22 48 44
22 48 44
22 48 43
21 46 42
22 47 43
21 47 43
21 46 42
21 47 43
22 48 44
22 47 43
21 46 42
21 47 43
21 46 42
21 46 42
21 47 43
21 47 43
21 47 43
21 46 42
21 47 42
21 46 42
22 47 43
21 47 43
21 46 42
22 47 43
21 46 42
21 47 43
21 46 42
21 46 42
21 47 43
21 45 41
21 47 43
21 46 42
21 47 43
21 46 42
21 46 42
21 46 42
21 47 43
21 46 42
22 48 43
21 46 42
21 47 43
21 46 42
21 46 42
21 47 43
21 46 42
21 47 43
21 47 42
21 46 42
21 45 41
21 46 42
21 46 42
21 46 42
21 46 42
22 48 43
21 47 43
21 46 42
21 46 42
21 47 42
21 46 42
21 47 43
21 46 42
20 45 41
20 45 41
21 47 43
21 47 43
21 47 43
21 46 42
22 48 44
21 46 42
21 46 42
21 45 41
21 46 42
21 46 42
21 45 41
21 46 42
21 46 42
21 46 42
21 46 42
21 47 43
21 46 42
21 46 42
21 47 43
21 46 42
21 46 42
20 45 41
21 46 42
21 47 43
21 47 43
21 46 42
21 46 42
21 47 43
20 44 41
21 46 42
21 46 42
21 46 42
20 45 41
20 45 41
21 46 42
20 45 41
21 46 42
20 44 41
21 45 41
21 46 42
21 46 42
20 45 41
21 47 43
21 46 42
21 46 42
21 47 43
21 46 42
21 46 42
20 45 41
22 48 44
20 45 41
21 46 42
20 45 42
21 47 43
21 46 42
20 45 41
20 45 41
21 46 42
21 46 42
21 45 42
20 45 41
20 45 41
20 45 42
20 45 41
20 45 41
20 45 42
21 46 42
21 47 43
21 46 42
21 45 42
21 46 42
20 44 41
20 45 42
20 45 41
21 47 43
20 44 40
20 44 40
19 43 40
20 45 41
20 45 41
20 45 41
20 44 41
20 45 41
20 45 41
20 44 40
20 45 41
21 47 43
21 47 43
21 46 42
21 47 43
22 47 43
22 49 44
22 48 44
22 48 44
21 47 43
21 47 43
21 47 42
21 47 42
21 47 43
22 48 43
22 48 44
21 47 43
21 46 42
21 47 42
22 48 44
21 46 42
21 47 43
21 45 41
21 46 42
22 48 44
23 49 45
22 47 43
21 47 43
22 47 43
22 47 43
22 48 44
21 46 42
22 48 43
21 46 42
22 48 44
21 47 42
22 49 44
21 47 43
22 48 43
21 47 42
21 46 42
22 48 44
21 47 42
21 46 42
22 48 43
22 48 44
22 48 43
22 48 43
21 46 42
21 46 42
22 48 44
22 48 43
22 48 43
22 48 44
21 47 43
21 46 42
21 47 43
22 48 43
21 45 41
21 47 43
21 47 43
21 46 42
21 47 43
21 47 43
21 47 42
21 47 43
21 47 43
22 48 43
22 48 44
21 46 42
21 47 43
22 48 44
21 46 42
21 47 43
21 47 43
21 47 43
21 47 43
21 47 43
21 47 43
21 47 43
21 47 42
22 48 43
21 47 43
22 48 43
21 47 43
21 47 42
21 47 43
21 47 43
21 47 43
21 46 42
21 47 42
21 46 42
21 46 42
21 46 42
21 46 42
21 47 43
21 46 42
21 47 43
21 47 43
22 47 43
21 47 43
21 47 43
21 47 43
21 46 42
21 46 42
21 46 42
21 47 43
21 46 42
21 47 42
21 46 42
20 45 41
21 47 42
21 47 43
21 46 42
21 46 42
21 45 41
21 46 42
21 46 42
21 47 43
22 48 43
21 46 42
21 47 43
22 47 43
21 47 43
21 47 43
21 46 42
21 46 42
21 47 43
20 45 41
21 46 42
21 46 42
20 45 41
20 45 41
21 47 43
21 46 42
20 45 41
20 45 41
20 45 41
21 46 42
21 45 42
21 46 42
21 47 43
21 46 42
21 46 42
21 45 42
21 46 42
21 46 42
21 46 42
21 45 42
20 44 40
21 45 41
20 45 41
21 46 42
20 44 40
20 45 41
20 45 41
21 45 42
20 45 41
21 47 43
20 45 41
21 45 42
21 46 41
21 45 42
20 45 41
21 47 43
21 46 42
21 46 42
21 47 43
20 44 40
21 46 42
21 46 42
21 46 42
21 45 42
20 45 41
20 45 41
21 46 42
21 46 42
20 44 41
20 45 42
20 45 41
21 46 42
21 46 42
20 45 41
20 45 41
21 47 43
21 45 42
20 45 41
20 45 41
20 45 41
20 45 41
20 45 41
21 47 43
20 44 40
20 45 41
20 45 41
21 46 42
20 45 42
20 44 41
20 45 41
21 45 41
20 44 41
22 47 43
21 47 43
21 47 42
21 46 42
21 47 43
21 47 42
22 48 43
22 48 43
21 47 42
21 47 43
21 46 42
21 46 42
21 47 42
22 48 44
22 48 43
22 47 43
21 47 43
21 47 43
21 47 43
22 48 43
22 49 45
21 46 42
21 47 42
21 46 42
21 46 42
22 48 44
21 47 43
22 47 43
21 47 43
22 48 43
22 48 43
21 47 42
22 48 43
22 47 43
22 48 44
21 47 43
22 48 43
22 48 44
21 47 43
23 50 45
21 46 42
21 47 43
21 47 43
22 47 43
21 47 43
21 47 43
22 48 44
21 46 42
21 47 43
22 48 43
21 47 43
22 48 44
22 47 43
22 48 43
21 47 42
21 47 43
21 47 42
22 48 44
21 46 42
21 46 42
22 49 45
21 47 43
22 47 43
21 47 43
21 47 43
21 47 43
21 46 42
21 47 43
21 47 42
22 48 43
21 47 43
21 47 42
22 47 43
21 45 41
21 45 41
21 47 43
21 47 43
21 47 43
21 46 42
21 47 43
21 46 42
21 46 42
21 47 43
21 46 42
22 48 44
21 46 42
21 47 42
20 45 41
20 45 41
21 45 41
21 46 42
21 47 43
22 49 45
21 46 42
21 47 43
21 46 42
21 47 43
22 48 43
22 48 43
21 47 43
21 46 42
21 46 42
21 46 42
21 47 43
21 47 43
21 46 42
21 46 42
21 46 42
21 47 43
21 46 42
21 47 43
21 46 42
21 46 42
21 47 43
21 47 43
21 46 42
21 46 42
21 47 43
21 46 42
21 47 43
21 46 42
21 46 42
21 46 42
21 46 42
21 46 42
22 48 44
20 45 41
21 47 43
21 47 43
22 48 44
21 46 42
21 46 42
20 45 41
21 47 43
21 46 42
22 48 44
21 46 42
21 47 43
20 44 41
21 45 41
20 45 42
21 46 42
21 47 43
21 46 42
21 46 42
22 48 43
21 47 43
21 46 42
20 44 40
20 45 41
21 46 42
21 45 41
20 45 41
20 45 41
21 47 43
21 45 41
21 46 42
21 46 42
20 45 41
20 45 41
20 44 41
21 46 42
20 45 41
21 46 42
21 45 42
20 45 41
21 45 42
20 44 41
21 46 42
21 46 42
20 45 41
21 47 43
21 46 42
20 45 42
21 47 43
21 46 42
20 45 42
21 46 42
20 45 41
20 45 41
21 46 42
20 45 41
20 45 41
20 44 41
21 47 43
21 47 43
20 43 40
20 45 42
20 44 41
20 44 40
20 45 41
20 44 40
21 46 43
21 46 42
20 45 41
20 44 41
20 45 41
20 44 40
21 45 42
20 45 41
21 47 43
22 47 43
21 47 43
22 48 43
21 47 43
22 48 43
22 48 43
22 47 43
22 47 43
22 47 43
21 47 43
21 47 43
22 48 43
21 47 43
22 48 44
22 48 44
21 46 42
21 46 42
21 47 43
21 47 43
22 48 43
21 47 43
21 47 43
22 48 43
21 46 42
21 47 43
23 50 45
21 47 43
21 47 43
22 47 43
21 47 43
21 47 42
22 48 43
20 45 41
22 48 44
22 48 44
21 47 43
22 48 44
21 46 42
22 47 43
21 46 42
21 46 42
21 47 43
21 46 42
22 48 44
21 46 42
22 47 43
22 48 44
22 47 43
22 48 44
21 47 43
21 46 42
21 46 42
21 46 42
22 47 43
21 46 42
20 45 41
21 46 42
21 47 43
22 48 44
21 47 43
21 47 43
22 48 43
21 47 43
22 48 44
22 47 43
21 47 43
21 47 43
22 47 43
22 48 44
22 49 44
21 47 42
21 47 43
22 48 43
21 47 42
21 47 43
22 48 44
21 47 43
21 47 42
21 47 43
22 48 44
21 47 42
21 45 41
21 46 42
21 47 43
21 47 43
21 47 43
21 47 43
21 46 42
21 47 43
22 48 43
21 47 43
21 47 43
21 47 43
21 46 42
21 46 42
21 46 42
21 47 43
21 47 43
21 46 42
21 46 42
21 47 42
21 47 43
21 46 42
21 46 42
21 47 43
21 46 42
21 46 42
21 46 42
21 47 43
21 47 43
22 47 43
21 46 42
21 46 42
21 46 42
21 47 43
21 46 42
21 46 42
21 46 42
21 46 42
20 45 41
21 46 42
21 47 42
21 46 42
21 46 42
21 46 42
21 47 43
21 47 43
21 46 42
21 47 43
21 47 43
21 46 42
21 47 43
20 45 41
21 46 42
21 46 42
21 47 43
21 46 42
21 46 42
21 46 42
22 48 44
21 47 43
21 46 42
20 45 41
20 44 41
21 45 41
21 46 42
21 47 43
21 46 42
21 46 42
21 46 42
21 47 42
20 45 41
21 47 43
20 45 41
20 45 41
21 46 42
21 45 41
21 47 43
20 44 41
20 45 41
20 45 41
20 45 41
21 46 42
20 45 42
20 45 41
20 45 41
21 47 43
21 46 42
20 45 41
21 46 42
20 44 41
20 45 41
21 46 42
20 45 41
21 46 42
21 46 42
20 45 41
20 45 41
20 45 41
21 46 42
21 46 42
21 46 42
21 46 42
20 45 42
21 46 42
21 46 42
21 46 42
20 45 41
20 45 41
20 44 40
20 45 41
20 45 41
20 44 40
20 45 41
21 46 42
20 45 41
20 44 40
20 45 41
21 46 42
21 47 43
22 48 44
21 47 43
22 48 44
22 48 43
22 49 44
21 46 42
22 48 44
21 47 43
21 46 41
22 48 43
22 48 43
21 46 42
21 47 43
22 47 43
22 49 44
21 47 43
21 47 43
22 48 43
22 48 44
22 48 43
21 47 42
22 48 44
21 47 42
22 48 43
21 47 43
22 48 44
22 48 43
22 48 43
21 47 42
21 47 43
22 48 44
22 48 43
21 47 43
21 47 43
21 47 43
21 46 42
22 47 43
22 47 43
22 47 43
22 47 43
22 48 44
22 48 43
21 47 43
22 48 43
22 48 43
21 46 42
22 48 43
21 46 42
21 47 42
21 46 42
21 47 43
22 48 44
22 48 44
21 47 43
22 49 44
21 46 42
22 48 43
21 47 42
21 47 43
21 47 42
21 46 42
22 48 44
21 47 43
22 48 44
22 47 43
21 47 42
21 47 42
22 48 44
21 46 41
22 48 43
22 48 44
22 49 44
21 46 42
22 48 44
22 47 43
21 45 41
21 47 42
21 46 42
21 45 41
21 45 41
21 47 43
22 48 43
21 47 43
21 47 43
22 48 44
22 48 44
21 46 42
21 47 43
21 46 42
21 47 43
21 46 42
21 47 43
21 46 41
21 47 43
21 46 42
21 47 43
21 45 41
21 47 42
21 46 42
21 46 42
21 47 43
21 47 43
21 47 43
22 48 43
21 46 42
21 46 42
22 47 43
21 47 42
21 46 41
21 47 43
21 47 43
21 47 43
22 48 44
21 47 43
21 47 43
21 47 42
21 47 43
21 47 43
21 46 42
20 45 41
21 47 43
21 46 42
21 46 42
21 46 42
21 46 42
21 47 42
21 46 42
21 46 42
22 48 44
21 46 42
21 46 42
21 47 43
21 47 43
21 46 42
21 46 42
21 46 42
20 45 41
21 46 42
20 45 41
21 47 43
21 46 42
20 44 40
21 46 42
21 46 42
21 47 43
21 46 42
21 45 41
20 45 41
21 46 42
21 46 42
21 46 42
21 46 42
21 47 43
21 46 42
20 45 41
21 47 43
21 46 42
20 45 41
21 46 42
20 45 41
21 47 43
21 46 42
20 45 41
21 46 42
21 45 41
21 45 41
21 46 42
20 45 41
20 45 41
21 46 42
21 46 42
21 45 42
20 45 41
20 45 41
20 45 41
20 45 41
21 46 42
20 45 41
21 46 42
20 45 42
20 45 42
21 46 42
20 44 40
20 45 41
20 44 41
20 45 41
20 46 42
20 45 41
20 45 41
20 44 40
20 45 41
20 44 41
20 45 41
21 46 42
20 45 41
21 46 42
20 45 41
21 46 42
20 44 41
22 47 43
22 48 43
21 46 42
22 48 43
22 48 43
22 48 43
21 47 43
22 48 43
21 47 43
21 46 42
21 47 42
21 47 43
21 47 43
22 48 43
21 47 43
22 49 44
21 47 43
22 47 43
22 49 44
22 48 43
22 48 44
22 48 44
21 47 43
22 47 43
22 48 43
22 48 43
22 47 43
22 49 44
22 48 43
22 47 43
21 47 43
21 46 42
21 47 42
21 46 42
21 46 42
22 49 44
21 46 42
22 48 44
22 48 43
21 46 42
21 46 42
22 48 43
21 47 43
21 47 43
22 48 43
22 48 43
21 47 43
21 47 43
21 47 43
21 46 42
22 48 44
22 49 44
21 47 42
22 48 43
21 46 42
22 48 43
22 49 44
21 46 41
21 47 43
21 47 43
21 47 43
22 49 44
22 48 44
21 47 43
21 47 43
22 48 43
21 47 42
22 47 43
22 48 44
22 48 43
21 46 42
21 46 42
22 48 43
22 48 44
21 47 42
21 46 42
22 48 44
22 48 43
21 47 42
21 46 42
21 46 42
21 46 42
21 47 42
21 46 42
22 47 43
21 46 42
21 47 43
22 48 43
22 48 43
21 47 43
21 47 43
21 46 42
21 47 42
21 46 42
21 47 42
21 47 43
22 47 43
21 46 42
21 46 42
21 46 42
21 46 42
21 47 42
21 45 41
21 47 42
21 47 43
22 47 43
21 47 43
21 46 42
22 47 43
21 46 42
21 47 43
20 45 41
21 47 43
21 46 42
21 46 42
21 47 43
21 46 42
21 47 42
21 47 43
21 47 42
22 47 43
21 46 42
21 46 42
21 46 42
21 46 42
20 45 41
21 46 42
21 47 43
21 45 41
21 46 42
21 46 42
21 46 42
21 47 43
21 46 42
21 46 42
21 47 43
21 46 42
21 46 42
21 45 41
21 46 42
21 46 42
21 47 43
21 46 42
21 46 42
21 46 42
21 46 42
20 45 41
20 45 41
21 47 42
20 45 41
21 46 42
21 47 43
20 45 41
21 47 43
21 46 42
21 46 42
20 45 41
21 46 42
21 47 43
21 46 42
21 46 42
20 45 41
21 46 42
22 48 44
21 46 42
21 46 42
21 46 42
21 46 42
21 46 42
21 46 42
20 44 41
21 47 43
21 46 42
20 45 41
20 45 41
20 45 42
20 45 41
20 45 41
21 46 42
20 45 41
20 44 40
20 44 40
21 46 42
21 46 42
21 46 42
20 45 41
21 47 43
21 46 42
20 44 40
20 45 41
21 46 42
21 46 42
21 47 43
20 45 41
20 45 41
20 45 41
21 46 42
20 45 41
20 44 41
20 45 41
22 48 44
22 49 45
23 50 45
22 48 44
22 48 44
22 48 43
21 47 43
22 49 44
22 48 43
22 48 43
22 48 43
21 47 43
21 47 42
22 47 43
22 49 45
22 48 43
21 47 43
22 49 44
22 47 43
22 48 44
22 49 44
22 48 44
22 47 43
21 47 43
21 47 43
21 47 43
22 48 44
22 48 44
22 49 44
22 49 45
22 48 44
21 47 42
22 48 43
22 48 44
21 47 43
22 49 44
21 47 43
22 48 44
22 49 45
22 48 44
21 47 42
22 48 44
21 46 42
21 47 42
21 47 43
22 48 43
21 47 42
21 46 42
22 48 43
22 47 43
21 47 42
21 46 42
21 47 43
22 49 44
22 48 43
22 48 43
22 47 43
22 48 44
22 47 43
21 47 42
21 47 42
22 48 44
21 47 43
22 47 43
21 47 42
21 47 43
21 46 42
21 47 43
21 47 43
21 47 42
21 46 42
21 47 43
21 47 43
21 47 43
21 47 43
22 48 43
22 48 43
21 47 43
22 48 44
21 46 42
22 47 43
22 48 44
21 47 42
21 47 42
22 47 43
21 47 43
22 48 44
21 46 42
21 47 43
21 47 43
22 48 43
21 46 42
21 47 42
21 47 43
21 47 42
22 48 43
21 47 43
21 46 42
21 47 43
21 46 42
21 47 43
21 47 43
21 46 42
22 47 43
22 49 44
21 46 42
21 47 42
21 46 42
21 47 43
21 45 41
21 47 43
21 47 43
21 46 42
21 47 43
21 46 42
21 47 43
21 46 42
21 45 41
21 45 41
21 45 41
21 47 43
21 46 42
21 47 43
21 46 42
21 46 42
21 47 43
21 47 43
21 45 41
22 48 44
21 47 43
21 46 42
21 46 42
21 47 43
21 47 43
21 46 42
21 46 42
20 45 41
20 45 41
21 46 42
21 47 43
21 46 42
21 46 42
21 47 43
21 47 42
21 47 43
22 48 43
20 45 41
21 46 42
21 47 43
21 46 42
21 46 42
21 46 42
21 46 42
21 47 42
21 46 42
21 47 43
21 47 43
21 47 43
21 47 43
21 46 42
21 47 43
21 45 42
21 46 42
21 46 42
20 45 41
20 45 41
21 46 42
21 46 42
20 45 41
20 45 41
20 45 41
21 46 42
21 46 42
21 46 42
20 45 41
20 45 41
20 44 40
21 46 42
21 46 42
21 45 42
21 46 42
21 46 42
20 45 41
20 45 41
21 46 42
21 46 42
20 45 41
20 45 41
20 45 41
20 45 41
20 45 41
20 45 41
20 45 41
21 47 43
20 45 41
21 46 42
21 46 42
20 45 42
20 44 40
21 46 42
22 48 44
22 48 43
21 47 42
22 48 44
22 48 43
22 48 43
21 47 42
22 48 44
22 49 44
22 47 43
22 48 44
21 47 43
21 47 43
23 50 45
22 47 43
21 47 43
22 48 43
22 48 44
22 49 44
22 49 45
22 48 44
22 48 44
22 48 44
22 48 44
22 48 43
22 49 44
22 48 44
21 47 42
22 47 43
22 48 43
21 47 43
22 48 43
21 47 43
22 49 44
22 47 43
22 48 44
22 48 44
22 48 44
22 47 43
21 47 43
22 47 43
21 46 42
22 48 43
22 48 43
21 47 42
21 47 43
22 48 43
22 47 43
22 48 43
21 46 42
22 48 44
21 46 42
22 48 44
21 47 43
21 47 43
21 47 43
21 46 42
22 48 43
22 48 44
22 48 43
22 48 43
21 47 43
22 48 43
21 47 43
21 47 43
22 49 45
22 49 45
22 48 43
21 46 42
22 47 43
21 46 42
22 48 43
21 47 43
21 47 43
21 47 43
22 48 44
21 47 43
21 47 43
22 49 45
21 47 42
22 48 44
21 47 42
22 48 43
21 47 43
21 47 42
22 48 43
22 48 44
21 47 43
22 47 43
22 48 44
21 47 43
23 50 45
21 46 42
21 47 43
21 46 42
21 45 41
21 46 42
21 46 42
20 45 41
21 46 42
21 47 42
21 46 42
21 47 43
21 47 43
21 47 43
21 47 43
21 47 42
22 48 44
22 47 43
21 47 43
21 46 42
21 47 43
21 46 42
21 46 42
22 48 43
22 48 44
21 47 42
21 46 42
21 47 42
21 46 42
21 47 42
22 48 43
22 48 43
21 45 41
21 46 42
21 46 42
21 47 43
21 46 42
21 46 42
21 46 42
21 46 42
21 46 42
21 46 42
21 47 43
21 47 43
21 47 43
21 46 42
21 46 42
21 47 42
20 45 41
21 46 42
20 45 41
21 47 43
22 48 44
22 48 44
21 46 42
21 47 43
21 46 42
21 47 43
21 47 43
21 47 43
20 45 41
20 45 41
21 46 42
21 46 42
21 46 42
21 47 43
21 46 42
21 46 42
21 47 43
21 46 42
21 45 41
21 47 43
20 45 41
21 47 43
20 45 41
21 46 42
20 45 41
20 44 41
20 44 41
20 45 41
21 46 42
20 45 41
21 46 42
20 45 41
20 45 41
20 45 41
21 46 42
21 45 42
20 44 40
21 46 42
20 45 41
21 46 42
21 45 42
21 46 42
21 46 42
21 46 42
20 45 42
21 46 42
21 46 42
20 45 41
21 46 42
21 46 43
21 46 42
21 45 42
21 46 42
20 44 41
20 45 41
20 45 41
20 45 41
21 47 42
22 48 44
22 48 43
22 48 44
22 49 44
22 48 43
22 48 43
22 48 44
21 46 42
22 48 44
22 48 44
21 47 43
21 47 42
22 48 44
22 48 44
21 47 43
21 46 42
22 48 44
21 47 43
22 48 44
21 47 43
22 48 43
23 50 45
21 47 43
21 47 42
22 48 44
23 50 45
21 46 42
22 49 45
22 48 44
21 47 42
21 47 43
22 47 43
21 46 42
21 47 43
22 48 44
21 47 43
22 48 43
21 47 43
22 48 43
22 48 43
22 48 44
21 47 43
22 47 43
22 47 43
22 49 44
22 48 44
22 48 44
22 48 43
21 47 43
22 48 44
21 47 43
21 47 43
22 48 44
22 48 44
21 47 43
22 48 44
21 47 42
21 47 43
21 46 42
22 49 44
22 49 45
22 48 43
21 47 43
21 47 43
21 47 42
22 48 44
21 46 42
22 48 43
21 47 43
22 48 43
21 46 42
21 47 43
22 48 44
22 48 44
21 46 42
21 47 43
21 47 43
21 47 42
21 46 42
21 46 42
22 48 43
22 49 44
22 47 43
22 48 43
21 46 42
21 47 43
21 46 42
22 48 44
22 47 43
22 48 43
21 47 43
21 47 43
21 47 43
21 47 43
21 47 42
21 47 43
22 48 44
21 47 43
21 47 42
21 46 42
21 46 42
21 46 42
21 46 42
22 48 43
21 47 43
21 47 42
21 47 43
22 48 43
21 46 42
21 46 42
21 46 42
21 47 43
21 46 42
21 47 43
21 46 42
21 46 42
21 46 42
21 46 42
21 47 43
21 46 42
21 47 43
21 47 43
21 47 43
21 47 43
22 48 43
22 48 43
21 47 43
22 47 43
20 44 41
21 47 43
21 46 42
20 45 41
21 46 42
21 46 42
21 46 42
21 45 41
21 46 42
21 46 42
20 45 41
21 47 42
21 46 42
21 47 43
20 45 41
21 46 42
21 46 42
21 47 43
21 47 43
21 45 41
20 45 41
21 46 42
21 46 42
21 47 43
21 46 42
21 46 42
21 46 42
21 47 43
20 45 41
21 46 42
22 48 44
21 46 42
21 46 42
21 47 43
20 45 41
21 46 42
21 45 41
20 44 40
21 46 42
21 46 42
21 47 43
21 46 42
21 46 42
21 45 41
20 45 41
21 46 42
21 46 42
21 46 42
21 45 42
21 46 42
21 46 42
20 45 42
21 46 42
20 45 41
20 45 41
21 46 42
21 45 42
21 46 42
20 45 41
20 45 41
20 44 41
20 44 41
20 45 41
21 46 42
21 46 42
21 46 42
21 46 42
20 45 41
20 45 41
20 45 41
20 45 42
22 47 43
22 49 44
22 48 44
21 47 42
21 47 42
21 47 43
21 46 42
21 46 42
22 48 44
21 47 43
22 48 43
21 47 43
21 47 43
22 48 43
22 48 44
22 49 45
21 47 43
21 46 42
21 47 43
22 49 45
22 48 43
21 46 42
21 47 43
22 47 43
22 48 43
22 48 44
21 47 42
21 47 43
22 47 43
22 48 44
21 47 43
21 47 42
22 49 44
21 47 42
21 47 42
22 49 45
22 47 43
21 47 42
21 47 43
22 48 44
21 47 43
21 47 43
22 48 43
22 48 44
21 47 43
22 47 43
21 47 42
21 46 42
22 48 43
22 48 44
21 47 42
21 47 43
22 47 43
22 48 43
22 48 44
21 47 43
22 48 44
22 48 43
22 49 44
23 50 45
21 47 43
21 45 41
22 48 44
21 47 42
21 47 43
22 48 44
22 48 44
22 48 44
21 47 43
21 47 42
21 46 42
22 48 43
21 47 43
21 47 43
21 47 43
21 47 43
22 48 44
22 48 43
21 47 43
21 47 42
21 47 43
21 47 42
21 47 42
22 48 43
21 47 43
21 47 42
21 47 42
21 47 42
21 46 42
22 47 43
22 48 44
21 46 42
22 48 44
22 48 43
21 46 42
21 47 43
21 47 42
22 48 43
21 45 41
22 48 44
21 47 42
22 48 44
22 48 44
22 48 43
21 47 43
21 47 43
21 46 42
21 46 42
22 48 43
21 47 43
22 48 44
22 47 43
21 47 43
21 47 43
21 46 42
21 47 43
22 48 44
22 48 43
21 47 43
21 46 42
22 48 43
20 45 41
21 47 43
21 46 42
21 47 43
21 47 43
21 46 42
22 47 43
22 48 44
21 46 42
21 46 42
21 47 43
21 47 42
21 47 43
22 47 43
21 46 42
22 47 43
21 46 42
21 46 42
21 47 43
21 47 43
22 48 43
22 47 43
21 46 42
21 45 42
21 46 42
21 46 42
21 46 42
21 46 42
21 46 42
21 47 43
20 45 41
21 47 43
20 45 41
21 47 43
20 45 41
21 47 43
21 46 42
21 46 42
21 46 42
21 47 43
20 45 41
20 45 41
21 46 42
20 45 41
21 46 42
22 48 43
21 46 42
20 45 41
21 46 42
20 45 41
21 45 41
20 45 41
21 46 42
20 45 41
21 47 43
21 46 42
20 45 41
21 45 41
21 47 43
21 45 42
21 47 43
20 44 40
20 45 41
21 46 42
21 46 42
20 44 41
21 46 42
21 45 42
21 47 43
21 46 42
21 45 42
20 45 41
21 46 42
21 47 43
20 45 41
21 47 43
20 45 41
21 46 42
20 44 40
21 47 43
21 46 42
22 48 44
22 49 45
22 49 44
22 48 43
22 48 44
22 49 44
21 46 42
22 47 43
22 48 43
22 48 43
21 47 43
23 50 45
22 48 44
21 47 42
22 48 43
21 46 42
22 48 43
21 47 43
21 47 42
22 47 43
21 47 42
21 47 42
21 47 43
21 46 42
22 48 43
22 49 44
22 49 45
22 48 43
22 49 45
22 48 44
22 48 43
22 48 43
22 48 43
23 50 45
22 49 45
21 47 42
22 48 44
22 48 43
22 48 44
22 48 44
22 49 44
22 48 44
21 47 43
21 47 42
21 47 43
22 48 44
22 47 43
22 48 44
22 48 44
22 48 44
21 47 43
22 49 44
22 47 43
21 47 42
22 48 44
21 47 42
21 47 42
23 50 45
22 48 43
21 47 42
21 47 42
22 48 44
22 48 44
22 48 43
21 47 43
23 49 45
22 48 43
22 47 43
21 46 42
22 48 43
22 49 44
22 49 44
21 47 43
22 49 44
22 48 43
21 47 43
21 47 43
22 48 44
22 48 44
21 46 41
22 48 44
21 46 42
22 48 44
21 46 42
21 47 43
22 48 43
22 48 43
21 46 42
22 48 43
21 47 43
21 47 43
22 47 43
22 47 43
21 46 42
21 47 43
21 47 43
21 47 43
22 48 44
21 47 43
21 47 42
21 47 42
21 46 42
21 46 42
21 46 42
21 47 43
21 46 42
21 47 42
22 48 43
21 47 43
21 47 43
22 48 43
21 47 43
21 46 42
21 47 43
21 46 42
21 47 43
21 47 43
22 48 43
21 47 43
22 48 43
21 46 42
21 46 42
21 47 43
21 47 42
21 46 42
21 47 43
22 48 44
22 48 44
21 46 42
21 46 42
21 46 42
21 46 42
22 48 43
21 47 43
21 46 42
21 46 42
21 47 43
21 46 42
21 47 43
20 45 41
21 47 42
21 47 43
22 48 43
21 47 43
21 47 43
21 47 42
21 46 42
21 46 42
21 47 43
21 47 43
21 46 42
21 46 42
21 46 42
21 46 42
20 45 41
21 46 42
21 46 42
21 46 42
20 45 41
21 47 43
21 47 43
21 47 43
21 46 42
21 46 42
21 47 43
20 45 41
20 45 41
20 45 41
21 46 42
21 46 42
21 47 43
20 45 41
20 44 40
21 46 42
21 47 43
20 45 41
21 47 43
20 45 41
21 46 42
21 46 42
21 45 42
20 45 41
21 47 43
21 46 42
21 46 42
20 45 41
21 46 42
20 45 41
21 46 42
21 46 42
20 45 41
21 46 42
21 46 42
20 45 41
20 44 41
20 45 41
20 45 41
21 46 42
23 50 45
22 49 44
22 48 43
22 48 43
22 49 44
22 48 44
22 47 43
21 47 43
21 47 43
22 48 44
22 48 44
22 47 43
22 48 43
21 47 42
22 49 44
22 49 45
22 47 43
22 48 43
22 48 44
22 48 44
22 48 44
22 48 43
22 49 44
22 48 44
22 49 44
22 48 43
22 48 43
22 48 43
22 49 44
22 48 43
22 47 43
22 49 44
22 47 43
22 49 44
22 48 44
22 48 44
22 48 44
22 49 45
21 47 42
22 48 44
21 47 43
22 48 43
23 49 45
22 48 44
22 49 45
21 47 42
22 49 45
22 48 43
22 49 45
22 47 43
22 48 43
22 49 45
22 48 43
22 48 44
22 48 44
22 48 43
22 48 44
21 47 42
22 48 44
21 47 43
21 47 43
21 47 43
22 48 43
22 47 43
21 47 42
21 47 43
21 47 42
22 48 43
22 48 44
22 48 43
21 47 43
22 47 43
21 47 43
22 47 43
21 47 43
22 48 43
21 47 43
22 48 43
21 47 43
22 48 43
22 48 44
22 47 43
22 48 44
21 47 43
22 48 43
22 47 43
22 48 44
21 46 42
22 48 44
21 47 42
22 48 43
22 48 44
21 47 43
22 47 43
21 47 42
22 48 43
21 46 42
21 47 43
21 47 42
21 47 42
21 47 42
21 47 43
21 46 42
22 49 44
21 46 42
21 46 42
22 48 43
21 47 43
22 48 43
22 49 45
21 47 43
21 47 43
21 47 43
22 48 43
21 46 42
21 47 43
22 48 44
22 48 43
22 48 43
21 47 43
21 46 42
21 47 43
22 49 44
21 46 42
21 46 42
21 46 42
21 47 43
21 47 42
21 47 43
21 46 42
21 46 42
22 48 44
21 47 43
21 47 43
21 47 42
21 46 42
21 46 42
22 48 43
22 48 44
21 46 42
21 45 42
21 46 42
20 45 41
21 46 42
21 47 43
21 46 42
22 48 44
21 46 42
21 46 42
21 47 43
21 47 43
21 47 43
21 46 42
20 45 41
21 46 42
21 46 42
20 44 41
21 46 42
21 46 42
22 48 44
21 47 43
21 46 42
21 46 42
21 46 42
21 46 42
20 44 40
21 46 42
21 46 42
20 44 40
21 46 42
21 46 42
21 46 42
21 46 42
21 47 43
21 46 42
21 46 42
20 45 41
20 45 41
21 47 43
21 46 42
21 45 42
21 45 42
21 46 42
21 46 42
21 46 42
20 44 40
20 45 41
20 45 41
20 45 41
21 46 42
21 46 42
20 45 41
20 45 41
20 45 41
20 44 40
21 47 43
21 45 42
21 45 42
20 45 41
20 44 40
22 48 44
22 48 44
21 47 43
22 48 44
22 48 43
22 48 43
22 48 44
22 48 44
22 49 44
22 49 44
22 48 43
22 48 43
22 49 44
22 49 44
22 48 44
22 49 45
22 48 44
22 48 43
22 48 44
22 47 43
22 49 44
22 48 44
21 47 42
22 49 44
22 49 45
22 48 43
22 47 43
22 48 43
22 49 45
22 48 43
22 48 43
23 50 45
22 48 43
22 48 43
22 49 44
22 48 43
22 47 43
23 50 45
22 49 44
22 49 44
22 48 44
21 46 42
23 49 45
22 48 44
22 48 44
21 46 42
22 48 44
22 48 44
22 48 43
22 47 43
21 47 43
21 47 43
22 48 44
22 49 44
22 48 43
22 49 45
22 48 43
22 48 44
22 49 44
22 48 44
22 47 43
22 48 44
22 48 44
21 47 43
22 48 44
22 48 43
22 48 43
22 48 43
22 48 44
22 48 44
22 48 44
22 49 44
21 46 42
22 48 44
21 46 42
21 46 42
22 48 43
21 46 42
21 47 42
21 47 43
35 54 49
67 73 66
115 110 100
113 108 98
100 96 87
64 71 65
22 47 43
21 46 42
22 48 44
22 48 43
21 47 43
21 47 43
22 48 43
21 47 43
21 47 43
22 48 43
21 46 42
21 47 43
21 46 42
21 47 43
22 47 43
21 47 43
22 49 44
22 48 44
21 46 42
21 47 43
22 47 43
21 47 43
21 46 42
21 47 43
21 46 42
21 46 42
22 48 43
21 47 43
22 47 43
21 46 42
21 46 42
22 47 43
21 46 42
21 46 42
21 47 43
22 47 43
22 47 43
21 46 42
22 48 44
21 46 42
21 46 42
21 47 43
22 48 44
21 46 42
21 46 42
21 47 43
22 48 43
21 47 43
21 46 42
20 45 41
21 46 42
21 47 42
21 47 43
21 47 43
21 47 43
21 46 42
21 45 41
22 48 44
21 47 43
21 46 42
21 46 42
20 45 41
21 46 42
21 47 43
21 45 41
21 47 43
21 46 42
21 47 43
21 47 43
21 46 42
21 47 43
21 46 42
21 46 42
21 47 43
21 46 42
21 47 42
21 46 42
20 45 41
21 47 42
21 45 42
21 46 42
21 47 43
22 48 43
21 46 42
21 46 42
21 46 42
21 45 41
20 45 41
21 46 42
21 47 43
21 46 42
21 46 42
20 45 41
20 44 41
21 46 42
21 46 42
20 45 41
20 44 40
21 46 42
21 46 42
20 45 41
21 45 42
20 45 41
20 45 41
21 46 42
21 47 43
21 46 42
21 46 42
20 45 41
20 45 42
20 44 41
21 46 42
20 45 41
21 46 42
22 48 44
22 48 44
22 47 43
21 47 43
22 48 43
22 48 43
22 48 44
21 47 42
22 47 43
22 48 43
23 50 45
22 48 43
22 49 44
22 48 44
22 47 43
22 48 43
22 48 43
22 48 44
22 49 44
22 49 44
22 49 44
22 49 44
22 49 44
22 47 43
22 48 43
22 48 43
21 47 43
22 48 43
22 47 43
22 48 44
22 48 44
22 47 43
22 49 44
22 49 44
21 46 42
22 48 44
22 48 44
22 48 44
22 49 44
22 48 44
22 48 44
22 48 43
22 48 43
22 48 43
21 46 42
22 48 43
21 47 43
22 48 44
22 48 43
22 48 44
21 47 43
22 49 44
23 50 45
22 48 44
22 47 43
21 47 43
22 48 43
22 48 43
22 48 44
22 48 43
22 49 44
22 48 43
22 49 44
22 49 44
21 47 42
21 47 43
22 48 43
22 49 44
22 49 44
22 48 44
22 49 44
22 48 43
21 47 43
22 48 43
22 49 44
21 47 43
21 47 43
21 46 41
43 57 52
150 137 124
214 191 173
239 213 194
238 212 194
236 210 192
231 207 189
226 202 185
184 167 153
114 108 99
21 46 42
22 48 43
21 47 43
21 47 43
21 47 43
21 47 43
21 46 42
21 47 43
22 48 43
21 47 43
21 47 42
21 46 41
21 47 42
22 48 43
21 47 42
22 48 44
22 48 43
22 48 44
21 46 42
21 47 42
21 47 43
21 46 42
22 48 44
21 47 43
21 47 43
21 47 43
21 47 43
21 47 43
21 47 43
22 48 43
22 47 43
21 46 42
21 46 42
22 48 43
21 46 42
21 47 43
22 47 43
21 45 41
21 47 43
21 47 43
21 46 42
22 48 43
22 47 43
21 47 43
22 48 43
21 47 43
22 48 43
21 47 43
21 47 43
21 47 43
21 46 42
21 47 43
21 47 42
21 46 42
20 45 41
21 46 42
21 46 42
21 46 42
22 47 43
21 46 42
21 47 42
21 46 42
21 47 43
22 48 44
21 46 42
21 46 42
21 47 42
21 47 42
21 46 42
21 46 42
21 46 42
22 47 43
21 45 41
21 45 41
21 46 42
20 45 41
22 48 44
21 46 42
21 47 43
21 45 42
21 45 42
20 45 41
20 45 41
21 45 41
20 45 41
21 47 42
21 45 41
21 46 42
21 45 41
21 47 43
21 46 42
20 45 41
21 46 42
21 46 42
20 45 41
21 47 43
20 45 41
20 45 41
20 45 41
20 45 41
21 46 42
20 45 41
20 45 42
21 45 41
20 45 41
20 45 41
21 46 42
21 46 42
20 45 41
20 45 42
20 45 41
21 46 42
22 47 43
22 49 44
22 49 44
23 50 45
22 48 43
22 48 44
21 47 43
22 49 44
22 48 44
22 48 44
22 49 45
22 48 44
22 48 43
22 49 44
22 48 44
22 49 45
22 48 44
22 47 43
22 48 44
22 49 45
22 48 44
22 49 44
22 49 44
22 48 44
23 50 45
22 48 43
22 48 43
22 48 44
23 50 45
21 47 43
22 47 43
21 47 43
22 49 44
22 48 44
22 48 43
22 49 44
22 49 44
22 48 44
21 46 42
22 48 43
22 49 44
22 48 43
22 48 43
22 48 44
22 47 43
21 47 43
22 47 43
22 48 43
22 48 44
22 47 43
22 48 44
22 49 44
22 48 44
22 48 44
22 48 44
22 48 44
22 48 43
22 48 44
22 48 43
22 48 44
22 49 44
22 48 43
22 49 45
22 47 43
22 48 43
22 47 43
22 48 44
22 47 43
22 49 44
21 47 43
22 49 44
21 47 43
21 47 43
22 47 43
22 48 43
22 49 44
21 46 42
122 114 102
223 198 178
246 218 197
246 218 198
244 217 198
242 216 197
238 213 195
235 210 192
230 206 189
225 202 185
216 194 178
54 56 55
24 48 44
21 47 43
22 48 44
21 47 43
21 46 42
21 46 42
22 48 43
22 48 43
21 47 43
21 47 43
21 47 42
20 45 41
21 47 43
22 48 43
22 48 43
21 46 42
21 47 43
21 47 43
21 47 43
21 46 42
21 47 43
21 47 42
21 46 42
22 48 43
21 46 42
21 47 43
21 46 42
21 46 42
22 47 43
21 46 42
21 45 41
21 46 41
21 47 43
20 45 41
20 45 41
21 47 42
21 46 42
21 46 42
22 48 43
21 47 42
21 47 43
21 45 41
22 48 44
22 47 43
22 48 43
21 46 42
22 48 44
21 46 42
21 47 43
21 47 43
21 47 43
21 46 42
21 47 43
21 46 42
21 47 43
21 46 42
21 46 42
21 46 42
22 48 44
21 47 42
21 46 42
21 47 43
21 47 42
21 47 42
22 48 44
21 47 43
21 46 42
20 45 41
21 46 42
22 47 43
21 47 43
21 46 42
21 46 42
21 46 42
21 45 41
21 46 42
21 46 42
21 46 42
21 47 43
20 45 41
21 47 43
21 46 42
21 46 42
21 46 42
21 47 43
20 44 41
21 47 42
21 46 42
21 46 42
21 46 42
21 45 42
21 46 42
21 46 42
21 47 43
21 46 42
21 46 42
20 45 41
21 47 43
21 45 42
20 45 41
20 45 41
20 44 41
20 45 41
21 46 42
20 45 41
21 45 41
20 45 41
21 46 42
20 45 41
21 46 42
21 46 42
22 48 44
22 48 43
22 49 44
21 47 43
22 49 44
22 48 43
22 48 43
22 49 44
22 48 44
23 50 45
22 48 44
22 49 45
22 49 44
22 48 43
22 49 44
22 48 43
22 48 44
22 48 44
22 49 44
22 48 44
21 47 43
21 47 43
22 48 43
22 49 44
22 48 43
22 48 44
22 49 44
22 48 44
22 48 44
22 49 44
22 49 44
22 49 44
22 48 44
22 48 43
21 47 42
22 47 43
21 47 43
22 49 45
21 47 43
22 48 43
22 48 44
22 47 43
22 48 44
22 48 43
21 47 42
22 48 44
22 48 43
22 48 43
21 47 43
21 47 43
22 49 44
21 46 42
22 47 43
22 48 43
22 49 44
21 47 43
22 47 43
21 47 43
21 47 42
21 47 43
22 48 44
22 47 43
22 48 43
21 47 43
22 49 45
22 47 43
22 48 43
21 47 43
21 47 42
22 48 43
22 48 43
21 46 42
22 48 43
22 48 44
22 48 44
22 49 45
127 118 106
233 205 184
249 220 199
249 220 200
247 220 199
245 218 199
242 216 197
239 214 195
236 211 193
232 208 190
227 204 187
165 149 138
35 38 42
31 36 39
23 46 42
21 47 42
22 48 44
21 47 43
22 48 44
22 47 43
21 47 42
21 45 41
21 47 42
21 47 43
21 47 43
22 49 45
21 46 41
22 48 44
22 48 43
20 45 41
21 46 42
21 46 41
21 47 43
21 47 42
21 47 43
21 47 43
21 46 42
21 47 43
22 48 44
21 46 41
21 45 41
21 47 43
21 47 43
21 46 42
21 47 43
21 46 42
21 47 43
21 46 42
21 46 42
21 47 42
21 47 42
21 46 42
21 46 42
22 48 44
21 45 41
21 46 42
22 48 44
21 46 41
22 48 43
21 47 43
21 46 42
22 49 44
21 47 43
21 47 43
20 45 41
21 45 41
20 45 41
22 48 44
21 47 43
21 47 43
21 46 42
21 46 42
21 46 42
21 46 42
21 46 42
21 47 42
21 46 42
21 47 43
21 46 42
22 48 43
21 45 41
21 46 42
20 45 41
20 45 41
21 46 42
22 48 43
21 46 42
21 47 43
21 47 43
21 46 42
21 47 43
21 47 43
21 46 42
21 46 42
21 47 43
21 46 42
21 47 43
20 45 41
21 45 41
21 46 42
21 46 42
21 47 43
21 47 43
20 45 41
21 46 42
20 45 41
21 47 43
20 45 41
21 47 43
20 45 41
21 46 42
21 46 42
20 45 41
21 45 41
20 45 41
21 46 42
21 46 42
21 46 42
21 45 42
21 47 43
20 45 41
21 46 42
21 46 42
20 44 41
22 48 44
23 50 45
23 49 45
22 48 43
22 49 45
22 49 44
22 49 44
22 47 43
22 49 44
21 47 42
22 48 44
22 49 44
22 49 44
22 47 43
22 47 43
22 48 43
22 47 43
22 49 45
22 49 44
22 48 43
22 49 44
22 49 44
22 48 44
23 50 45
23 50 45
22 48 44
22 48 43
23 49 45
21 46 42
22 49 44
22 49 44
21 47 43
22 48 43
22 48 44
22 49 44
21 47 43
22 48 43
22 48 44
23 49 45
22 47 43
23 50 46
23 49 45
22 49 44
21 47 42
21 47 43
22 48 44
22 48 44
22 49 44
21 47 43
21 46 42
22 49 44
22 48 43
22 48 44
22 49 45
22 49 44
22 48 44
22 47 43
22 48 43
22 49 44
22 48 44
21 47 43
22 49 44
22 48 44
22 48 44
21 47 43
22 48 44
22 48 43
21 47 43
22 48 43
22 47 43
21 45 41
22 48 44
22 48 43
22 49 44
21 47 42
92 90 81
225 198 177
248 219 197
250 221 199
249 220 200
247 220 199
245 218 199
242 216 197
239 214 195
236 211 193
232 208 190
185 166 153
40 42 45
35 38 42
33 36 40
28 34 36
22 48 44
22 48 43
22 48 43
22 48 44
22 48 43
21 47 43
21 47 43
21 47 43
22 48 43
21 47 43
21 47 43
21 47 43
21 46 42
21 47 42
22 48 43
21 47 42
22 48 43
21 47 43
21 47 43
21 46 42
21 46 42
21 46 42
21 46 42
21 47 43
21 46 42
21 47 42
21 47 43
21 46 42
21 46 41
22 48 43
21 47 42
22 48 44
21 47 43
22 47 43
21 46 42
22 48 43
21 47 43
21 47 43
21 46 42
21 45 41
21 47 42
21 45 41
21 46 42
20 45 41
21 47 43
21 47 43
21 46 42
21 47 43
22 47 43
21 46 42
21 46 42
21 47 42
21 47 43
21 47 43
21 46 42
22 48 43
21 46 42
21 47 43
21 46 42
21 47 43
21 46 42
20 45 41
20 45 41
21 46 42
21 47 42
21 46 42
21 46 42
21 46 42
21 47 43
21 46 42
20 45 41
21 45 41
21 46 42
20 45 41
21 46 42
21 46 42
21 46 42
21 47 43
21 46 42
21 46 42
20 45 41
21 47 43
21 47 43
21 47 43
22 48 44
20 45 41
21 47 43
21 46 42
21 46 42
21 46 42
20 44 40
20 45 41
20 45 41
20 45 41
20 45 41
21 46 42
20 45 41
20 45 41
22 48 44
21 47 43
20 45 41
21 47 43
21 47 43
20 45 42
21 46 42
21 47 43
21 46 42
20 45 41
20 45 41
23 51 46
22 48 44
22 48 44
22 48 44
21 47 43
22 49 44
22 49 44
23 50 45
21 47 43
22 48 43
22 49 44
22 49 44
22 48 43
22 48 44
22 49 44
21 47 43
21 47 42
22 47 43
22 49 44
22 49 45
22 48 44
22 49 45
22 48 43
22 49 44
22 48 43
22 47 43
22 48 44
21 47 42
22 48 44
22 48 43
22 49 44
22 48 44
22 49 45
22 48 43
22 49 44
22 47 43
22 48 43
22 49 44
21 46 42
21 47 42
21 47 42
22 48 43
23 50 46
22 48 44
22 49 45
21 47 43
22 48 44
22 48 43
22 48 44
22 49 44
22 48 44
22 48 44
22 49 45
22 48 43
22 49 44
21 47 43
21 46 42
21 47 42
22 48 43
22 47 43
22 49 44
22 49 44
21 47 42
22 48 43
22 48 44
22 48 44
21 46 42
22 48 44
21 47 43
21 47 42
21 47 43
22 48 44
22 49 44
22 48 43
25 50 45
195 172 154
243 213 191
246 217 195
251 221 199
249 220 199
252 223 201
255 227 205
246 219 199
239 213 194
235 210 192
177 159 146
49 49 51
37 39 43
35 38 42
33 36 40
30 33 36
24 38 37
21 47 42
22 48 44
22 48 44
22 47 43
22 48 44
22 48 43
22 49 44
22 48 43
21 47 43
21 46 42
22 49 44
22 48 44
21 47 43
21 47 42
22 48 44
21 47 42
21 46 41
22 47 43
21 47 43
21 47 42
21 46 42
21 46 42
22 48 44
21 46 42
21 46 42
21 46 42
22 49 44
21 46 42
21 46 42
22 48 44
21 47 42
21 46 42
21 47 42
21 47 43
22 47 43
21 47 43
22 48 44
21 47 43
21 47 43
21 46 42
21 47 43
21 46 42
21 46 42
21 46 42
22 48 43
21 47 43
22 48 43
21 47 43
21 47 43
21 45 41
21 47 43
21 45 41
21 46 42
21 47 42
21 46 42
21 46 42
21 47 43
21 46 42
21 47 42
21 46 42
21 46 42
21 47 43
21 46 42
21 46 42
22 48 44
21 46 42
21 45 41
20 45 41
21 46 42
21 47 43
21 47 43
21 46 42
21 46 42
21 47 42
21 47 43
21 45 41
20 45 41
21 46 42
21 47 43
21 47 43
21 46 42
21 45 41
20 45 41
21 47 43
21 46 42
21 47 43
21 46 42
21 46 42
20 44 40
21 46 42
21 46 42
21 46 42
21 47 43
21 46 42
21 46 42
21 46 42
21 45 42
21 47 43
21 46 42
21 47 43
21 46 42
21 47 43
21 46 42
21 46 42
21 45 42
20 44 40
21 46 42
21 46 42
22 49 44
22 48 44
23 49 45
23 50 45
22 49 45
21 47 42
21 47 42
22 48 43
22 48 43
22 48 43
22 49 44
23 50 45
21 47 43
22 48 43
22 49 45
22 48 43
21 47 42
22 48 43
21 47 43
22 48 44
22 48 43
23 49 45
22 49 44
21 46 42
22 49 44
22 49 44
22 49 44
22 47 43
22 48 43
22 48 44
22 48 44
22 49 45
21 47 42
22 49 44
22 48 44
22 49 45
22 48 44
22 48 43
21 46 42
22 49 44
22 49 44
22 48 44
22 48 43
22 47 43
22 47 43
22 48 44
22 48 44
22 48 43
22 48 43
22 49 44
22 48 44
22 49 45
23 50 45
22 48 43
22 49 44
22 48 43
23 50 45
22 48 44
22 48 43
22 47 43
21 47 43
22 47 43
21 47 42
22 48 44
22 48 44
22 48 44
22 48 43
22 47 43
22 47 43
22 48 44
22 48 43
22 48 43
22 48 44
22 47 43
101 97 87
227 199 177
238 209 187
246 216 194
249 219 198
250 221 199
255 244 218
255 255 236
255 230 206
231 205 187
131 118 110
38 41 45
37 40 44
37 39 43
35 38 41
32 35 39
30 32 36
25 29 32
22 46 42
22 49 44
22 47 43
22 48 44
22 47 43
22 48 44
21 46 42
22 48 43
21 47 43
22 48 43
22 48 43
21 46 42
21 47 42
22 48 43
21 47 42
21 46 42
21 47 43
22 48 43
21 47 43
21 47 42
22 48 44
22 48 43
21 47 43
21 47 43
21 46 42
21 46 42
22 48 44
21 46 42
21 47 43
22 48 43
21 46 42
21 47 43
22 47 43
21 46 42
22 48 43
21 47 43
21 47 43
21 46 42
21 47 43
22 48 43
21 46 42
21 47 42
21 46 42
21 47 43
21 46 42
21 46 41
21 45 41
21 46 42
22 48 44
21 47 43
21 46 42
21 46 42
21 47 43
21 47 42
21 47 42
21 47 42
21 46 42
21 47 43
21 47 43
21 47 42
21 46 42
21 46 42
20 45 41
21 47 43
22 48 43
21 46 43
21 46 42
21 46 42
21 46 42
21 47 43
21 46 42
20 45 41
21 46 42
21 47 43
21 47 43
21 46 42
22 48 44
21 47 43
21 46 42
21 46 42
21 47 43
21 47 43
21 47 43
20 45 41
21 47 43
20 45 41
21 46 42
21 46 42
20 45 41
21 47 43
21 46 42
21 47 42
20 45 41
20 45 41
21 46 42
21 45 41
21 45 42
21 46 42
21 47 43
21 46 42
20 45 41
20 45 41
21 45 42
21 46 42
21 47 43
21 45 41
21 46 42
21 46 42
22 49 44
22 48 43
23 49 45
22 49 45
22 49 44
22 48 43
23 49 45
22 48 43
22 49 44
22 48 44
22 47 43
23 51 46
23 50 46
22 47 43
22 48 43
22 48 44
22 49 44
22 48 43
21 47 42
23 49 45
23 50 45
22 48 43
22 49 44
22 47 43
22 49 44
22 49 44
22 49 44
23 49 45
22 48 44
22 48 44
22 48 43
22 48 44
22 48 43
23 49 45
22 48 43
22 48 44
22 48 44
22 48 43
22 48 43
22 48 44
22 48 44
22 47 43
21 47 43
22 48 44
22 48 43
22 48 44
22 48 43
22 49 44
22 49 44
22 48 44
21 47 42
22 48 43
22 47 43
22 49 44
22 49 44
22 48 43
22 49 44
22 48 44
22 48 44
22 48 44
21 47 42
22 48 43
21 47 42
22 47 43
22 48 44
22 47 43
22 47 43
23 49 45
21 47 43
22 49 44
21 47 42
21 46 42
21 47 42
22 48 43
164 146 129
225 197 175
235 206 184
240 211 189
242 213 191
248 219 197
255 242 216
255 250 222
213 190 171
86 80 76
38 41 45
38 40 44
37 39 43
36 38 42
34 37 40
32 35 38
30 32 35
26 29 32
21 39 36
21 46 42
22 48 43
22 48 44
21 46 42
21 46 42
22 48 43
22 48 44
22 47 43
22 47 43
21 47 43
22 47 43
22 48 44
22 48 43
21 47 43
22 48 43
22 49 44
22 47 43
21 47 42
21 47 42
21 45 41
21 47 42
22 48 43
21 47 42
22 48 43
21 47 43
22 48 44
21 46 42
22 48 44
21 47 43
21 47 42
21 46 41
22 47 43
21 46 42
21 46 42
21 47 43
21 46 42
21 46 42
22 47 43
21 47 43
21 47 43
21 47 43
22 48 43
21 47 42
21 46 42
21 46 42
21 46 42
21 47 43
21 46 42
21 46 42
21 46 42
21 46 42
21 47 43
21 47 43
22 48 43
21 47 43
21 46 42
20 45 41
21 46 42
21 47 43
21 46 42
21 46 42
21 46 42
21 46 42
21 47 43
21 47 43
20 45 41
21 46 42
21 47 43
21 46 42
22 48 44
21 46 42
20 45 41
22 48 44
21 47 43
21 47 42
21 46 42
21 46 42
21 46 42
21 46 42
21 45 41
21 46 42
21 45 41
20 44 41
21 46 42
21 46 42
21 47 43
20 45 41
21 46 42
21 46 42
20 45 41
21 46 42
21 47 43
20 45 41
21 47 43
20 45 41
21 47 43
21 45 41
21 45 42
20 45 41
21 46 42
21 46 42
21 46 42
20 45 41
21 47 43
21 46 42
21 47 43
20 45 41
22 48 44
22 48 43
22 49 44
21 47 43
22 48 43
22 49 44
22 48 43
22 48 44
22 48 43
21 46 42
23 50 45
23 49 45
22 49 45
22 49 44
22 48 44
22 48 44
22 48 44
22 47 43
22 48 43
22 49 44
22 48 44
22 48 44
22 48 44
22 48 44
21 46 42
22 49 44
22 49 44
22 49 44
22 49 44
22 48 44
23 49 45
22 48 43
23 50 45
22 49 44
22 48 43
22 49 44
22 48 43
22 49 44
22 48 44
22 48 44
23 50 45
23 49 45
22 48 43
22 49 44
22 48 43
22 49 44
22 48 44
22 48 43
22 48 44
22 49 45
22 48 44
22 49 44
22 49 45
22 48 44
21 47 43
21 47 43
22 47 43
22 48 43
22 49 45
21 47 42
22 47 43
21 47 43
22 48 44
22 48 44
21 47 42
22 49 44
22 49 44
22 49 44
22 47 43
22 47 43
21 47 42
22 49 44
21 47 43
22 48 44
178 157 139
220 193 172
228 200 178
233 204 183
238 209 187
239 210 189
220 195 176
149 133 121
42 44 46
38 41 44
38 40 44
37 39 42
36 38 42
35 37 40
33 35 38
31 33 37
29 31 34
24 27 30
22 35 34
22 48 44
22 48 43
21 47 43
22 48 43
22 48 43
22 48 44
22 48 43
21 45 41
21 45 41
21 45 41
21 46 42
22 48 44
21 47 42
21 46 42
20 45 41
22 48 44
21 47 42
21 46 42
22 48 44
21 47 43
22 48 43
22 48 44
21 47 43
21 47 43
21 46 42
21 46 42
22 48 44
22 48 44
22 48 43
22 48 43
21 47 42
21 47 43
22 48 44
21 47 43
21 47 43
22 49 44
21 46 42
21 46 42
21 47 43
21 46 42
21 45 41
22 49 44
21 46 42
22 48 44
21 46 42
22 48 44
22 48 44
22 48 44
21 46 42
20 45 41
21 47 42
21 47 42
22 48 44
22 47 43
22 48 43
21 46 42
21 46 42
22 48 44
21 47 43
21 47 43
21 46 42
21 47 43
21 46 42
20 44 40
21 46 42
21 47 43
21 46 42
20 45 41
21 47 43
21 46 42
21 47 43
21 46 42
21 46 42
21 47 43
21 46 42
21 45 41
21 47 43
21 47 43
21 47 43
21 46 42
21 46 42
21 45 41
21 46 42
21 46 42
21 47 43
21 46 42
21 46 42
21 46 42
21 47 42
21 46 42
21 47 43
21 47 43
20 45 41
20 45 41
20 45 41
21 46 42
21 46 42
21 45 41
20 45 41
21 46 42
21 46 42
21 47 43
21 47 43
21 46 42
21 46 42
21 47 43
20 45 41
22 48 43
22 47 43
22 47 43
22 48 44
22 48 43
22 48 43
22 49 44
22 49 44
22 48 44
22 48 43
22 49 44
22 48 43
22 48 44
22 48 43
22 48 43
23 50 45
22 49 45
22 47 43
23 50 45
23 50 45
23 50 46
22 48 44
22 48 44
22 49 44
23 50 45
22 49 44
22 48 43
22 48 43
22 49 44
22 47 43
22 49 44
22 48 43
21 47 42
22 48 43
23 49 45
22 48 43
22 48 44
22 48 44
22 49 44
22 47 43
22 48 44
22 49 44
22 48 44
22 48 44
22 47 43
21 47 42
22 48 44
23 50 45
22 48 43
22 48 43
22 49 44
23 50 45
22 48 44
22 48 43
22 48 43
23 50 45
22 48 43
22 48 43
22 47 43
21 47 42
22 48 43
22 47 43
22 48 44
22 49 44
22 48 43
22 48 44
22 49 44
22 48 43
21 47 43
21 47 42
22 49 44
22 47 43
22 49 44
29 50 46
188 165 146
211 185 164
220 192 171
222 194 173
193 170 152
150 133 120
48 47 48
38 40 43
37 39 42
37 39 42
36 38 41
36 37 41
34 37 40
34 35 39
31 33 36
29 31 34
26 28 31
23 25 28
20 29 29
22 48 43
22 49 44
22 47 43
22 48 43
22 48 43
22 49 44
21 47 43
22 47 43
21 47 43
21 47 43
21 46 42
21 47 43
22 47 43
21 47 43
22 48 43
22 48 44
21 47 43
21 47 42
22 48 43
22 48 44
21 47 42
21 46 42
22 47 43
22 49 44
22 48 43
21 45 41
21 47 43
22 48 43
22 48 44
22 49 45
22 48 44
22 48 43
21 47 42
21 47 43
21 47 43
22 48 44
22 48 44
21 45 41
22 49 45
21 47 42
22 48 44
21 47 43
21 46 42
21 46 42
21 46 42
21 47 43
22 48 44
21 46 42
22 48 44
21 46 41
22 48 43
22 48 44
21 45 41
21 46 42
21 47 42
21 46 42
21 47 43
22 48 43
21 47 43
22 47 43
21 46 42
21 47 42
21 46 42
21 47 42
22 48 43
20 45 41
22 48 43
21 46 42
21 45 41
22 48 44
21 45 41
21 47 43
21 46 42
21 45 41
21 46 42
21 46 41
21 46 42
20 45 41
21 47 42
21 45 41
21 46 42
21 46 42
22 48 43
21 47 43
21 46 42
21 46 42
20 45 41
21 46 42
21 47 43
21 47 43
21 46 42
21 45 41
21 46 42
21 46 42
21 46 42
20 45 41
21 47 43
21 46 42
21 47 43
21 47 43
20 44 40
21 46 42
20 45 41
21 46 42
20 45 41
21 46 42
21 47 43
22 48 44
23 49 45
22 49 45
23 50 45
23 50 45
22 48 44
22 49 44
22 49 44
22 48 43
22 48 44
22 49 44
23 49 45
23 51 46
22 48 43
21 47 42
22 49 44
22 49 44
22 48 43
22 48 44
22 49 44
22 49 44
22 49 44
22 47 43
22 48 43
23 49 45
22 48 43
22 48 43
22 49 44
22 49 44
22 49 44
22 48 44
22 47 43
23 49 45
22 48 43
22 49 44
23 50 45
22 48 43
22 49 44
22 48 43
21 46 42
21 47 43
23 49 45
22 49 44
22 48 43
22 48 44
22 48 43
22 47 43
22 49 45
22 49 45
22 49 44
21 47 42
22 49 44
21 46 42
22 48 44
22 48 44
23 50 45
21 46 42
22 49 44
22 47 43
22 49 44
22 48 43
22 47 43
21 47 43
21 47 43
21 46 42
22 48 43
22 48 43
22 48 43
21 47 42
22 48 43
22 48 44
21 47 42
22 48 43
22 47 43
146 129 114
171 150 133
155 136 121
113 101 92
43 43 44
113 101 92
137 121 109
142 126 113
125 111 101
88 79 74
35 36 39
34 35 38
32 34 37
32 33 36
28 31 33
25 27 29
24 26 28
21 23 26
27 33 32
21 45 41
21 46 42
21 47 43
22 48 44
21 45 41
21 46 42
21 46 42
21 46 42
22 47 43
22 48 43
22 48 44
22 48 44
21 46 42
21 46 42
21 47 42
22 47 43
21 47 42
22 47 43
22 47 43
21 46 42
21 47 42
21 46 42
21 47 43
22 48 44
22 47 43
22 47 43
21 46 42
21 47 42
21 47 42
21 47 43
21 47 42
21 47 43
21 46 42
22 47 43
21 46 42
21 45 41
21 47 43
21 46 42
22 48 44
21 47 43
22 48 43
21 47 42
21 46 42
21 47 42
21 47 43
21 47 42
22 47 43
21 47 43
21 46 42
21 46 42
21 47 43
21 47 43
21 46 42
21 46 42
21 46 41
21 47 43
21 47 43
21 45 41
21 47 43
22 47 43
21 47 43
22 47 43
21 46 42
22 48 43
21 47 43
21 47 42
21 46 42
21 47 42
22 48 44
21 47 43
21 47 43
21 46 42
21 47 43
20 45 41
21 45 41
21 47 43
20 45 41
21 46 42
21 47 43
21 46 42
21 47 43
21 45 41
20 45 41
21 46 42
20 44 40
21 47 43
21 47 43
21 47 43
21 47 43
20 45 41
21 46 42
21 46 42
21 46 42
20 45 41
20 45 41
21 45 41
20 45 41
21 45 41
21 46 42
21 47 43
21 46 42
20 45 41
20 44 41
21 46 42
21 46 42
21 46 42
21 46 42
22 49 44
22 49 45
23 49 45
22 48 44
21 47 43
22 49 44
22 49 44
23 50 45
22 48 44
22 49 45
23 50 45
22 48 43
22 49 45
22 48 44
23 50 45
23 49 45
22 48 43
22 49 44
22 47 43
22 49 44
22 48 44
22 48 43
22 48 43
22 48 44
22 48 44
22 49 44
22 48 43
22 48 44
23 49 45
22 48 44
22 49 44
22 49 44
21 47 42
21 47 42
22 47 43
21 47 42
22 49 44
23 49 45
22 48 44
21 47 43
22 48 43
23 49 45
23 50 46
23 49 45
22 48 44
21 47 43
23 50 45
22 48 43
22 49 44
22 49 44
22 48 44
23 49 45
22 47 43
22 48 43
22 47 43
22 47 43
22 48 43
22 49 44
21 47 42
22 48 44
22 47 43
22 48 44
22 48 43
22 49 44
22 49 44
21 47 42
22 48 43
22 49 44
21 47 42
22 48 43
22 48 43
21 46 42
21 47 42
21 46 42
26 33 33
30 32 33
31 33 35
33 34 36
120 106 95
147 129 114
194 170 151
200 176 157
180 158 141
130 114 101
100 89 82
31 33 35
31 32 35
28 29 32
26 28 30
26 27 30
21 22 25
34 33 34
61 63 58
20 44 40
20 44 40
20 45 41
21 45 41
21 47 42
21 47 42
22 48 44
21 46 42
21 45 41
21 46 42
21 46 42
22 48 44
22 48 44
22 47 43
22 48 44
21 46 42
21 47 43
22 48 43
21 46 42
21 47 43
21 47 43
22 48 43
21 46 42
22 48 43
21 47 42
21 46 42
21 46 42
22 48 44
21 46 42
22 48 43
21 46 42
20 45 41
21 47 42
22 48 43
21 46 42
21 47 43
21 46 42
21 47 43
22 48 43
21 46 42
22 48 43
21 46 42
22 48 44
21 46 42
22 48 44
22 47 43
21 46 42
22 47 43
21 46 42
21 46 42
21 47 42
21 47 43
21 47 43
21 47 43
21 47 43
21 45 41
21 47 43
21 47 43
21 45 41
21 46 42
21 47 43
21 47 43
21 47 43
21 46 42
21 46 42
21 47 43
21 47 43
20 45 41
20 45 41
22 48 44
21 46 42
21 46 42
21 46 42
21 47 43
21 46 42
20 45 41
21 47 43
21 46 42
21 47 43
21 47 43
21 46 42
21 46 42
21 46 42
21 46 42
21 47 43
22 48 44
21 47 43
20 45 41
22 48 43
21 46 42
21 46 42
21 47 43
21 46 42
20 45 41
21 47 43
20 45 41
20 44 41
21 46 42
21 46 42
21 47 43
20 45 41
20 45 41
21 46 42
20 45 41
21 47 43
20 45 41
21 46 42
22 49 44
22 48 43
22 48 43
22 49 44
22 48 44
22 49 44
22 48 44
22 49 44
22 47 43
22 48 44
22 48 44
22 48 44
23 50 45
22 49 44
22 48 44
22 48 43
22 49 44
23 50 45
23 50 45
22 47 43
22 49 44
22 48 44
22 48 43
22 48 43
22 49 45
23 50 45
22 48 43
22 49 44
22 48 43
23 50 45
22 49 44
23 49 45
22 49 44
22 48 43
22 48 44
23 50 45
22 48 43
22 48 44
22 47 43
22 49 44
22 48 43
22 49 45
22 49 44
22 49 45
22 48 44
23 50 45
21 46 41
22 48 44
22 47 43
22 48 44
22 49 44
22 49 44
22 48 43
22 48 43
22 47 43
21 47 42
22 48 44
22 48 44
22 49 44
22 48 44
22 49 44
22 49 44
23 49 45
21 47 42
21 47 43
23 49 45
21 45 41
21 47 43
22 48 43
21 46 42
21 46 41
22 47 43
22 48 44
22 47 43
24 35 33
27 29 30
30 31 33
35 35 35
141 124 110
188 164 145
116 102 90
178 157 139
188 165 147
178 156 139
127 110 98
51 48 46
26 28 29
26 27 29
23 24 26
19 20 22
22 23 25
91 84 77
59 63 57
19 42 38
19 42 39
19 42 39
20 43 40
21 46 42
20 44 40
20 44 40
22 48 43
21 47 43
21 47 42
22 47 43
22 48 44
22 48 44
22 47 43
22 49 44
21 45 41
22 48 43
21 47 42
21 47 42
22 48 43
22 48 43
21 46 42
21 46 42
22 48 44
21 47 43
22 48 44
21 47 43
22 48 43
21 47 42
21 46 42
21 46 42
21 47 43
22 48 43
21 47 43
21 45 41
21 46 42
21 46 42
21 46 42
21 46 41
21 46 42
22 49 44
21 47 43
21 47 43
21 46 42
21 47 42
21 47 43
21 46 42
21 47 42
21 46 42
21 46 42
21 47 42
21 46 42
21 47 43
21 47 43
22 48 43
22 48 44
22 48 44
21 47 42
21 47 43
20 45 41
21 46 42
21 46 42
21 47 43
21 46 42
21 46 42
21 47 43
21 47 43
21 46 42
21 47 43
21 46 42
22 49 44
21 47 43
21 47 43
21 46 42
21 46 42
21 46 42
22 48 43
21 46 42
21 46 42
20 45 41
21 46 42
22 48 43
21 46 42
21 46 42
21 47 43
20 45 41
20 45 41
21 46 42
21 46 42
21 46 42
21 47 43
22 48 44
21 46 42
21 47 43
21 46 42
21 47 43
21 47 43
20 45 41
21 47 43
21 47 43
21 46 42
21 45 42
21 46 42
21 45 42
20 45 41
21 47 43
20 45 41
22 48 44
22 48 43
22 48 43
22 49 44
22 48 44
22 49 44
22 49 44
22 48 43
22 48 43
23 49 45
22 48 44
22 48 43
23 49 45
22 49 44
23 50 45
23 50 45
23 49 45
22 49 44
22 49 45
23 49 45
22 48 43
22 48 44
22 49 44
22 49 44
22 47 43
22 49 44
22 49 44
23 50 45
21 47 42
23 49 45
22 48 44
23 49 45
22 48 44
22 49 44
22 49 44
22 49 45
22 48 43
22 48 43
22 49 44
22 49 44
22 48 44
22 49 44
22 48 44
22 49 45
22 49 44
23 50 45
21 47 43
23 50 45
22 49 44
22 48 43
22 48 43
22 48 43
21 47 42
22 48 43
22 48 43
22 48 43
22 48 43
22 48 43
22 49 44
22 47 43
22 48 43
22 49 44
22 48 44
22 47 43
22 48 43
21 46 42
22 47 43
21 47 42
22 47 42
22 47 43
21 47 43
22 47 43
21 47 42
22 47 43
22 43 39
24 26 27
27 28 30
51 47 44
134 118 103
174 152 134
145 127 112
79 69 61
172 152 134
160 141 124
128 112 100
75 67 61
23 24 26
22 23 25
17 19 20
36 33 31
94 82 74
85 79 71
34 44 41
16 37 35
17 38 35
18 40 37
18 41 38
19 42 38
20 44 40
21 46 41
21 46 42
21 47 42
21 46 42
21 46 42
21 46 42
22 47 43
22 48 43
22 48 43
22 48 44
22 48 43
21 47 43
22 48 43
22 48 43
22 48 43
22 48 44
22 48 44
21 47 43
21 47 43
21 47 43
21 46 41
22 48 43
22 48 44
21 46 42
22 49 44
21 46 42
22 48 43
22 47 43
21 47 42
21 46 42
22 47 43
22 48 43
21 47 42
22 48 43
21 47 43
21 47 43
22 49 44
21 47 43
21 47 43
22 47 43
21 47 43
22 48 44
20 44 40
21 47 43
22 48 44
22 48 43
21 47 42
22 49 45
21 47 43
21 46 42
22 48 43
21 47 43
22 47 43
21 46 42
22 48 43
21 47 43
21 46 42
21 46 42
20 45 41
22 48 43
21 47 42
22 49 45
21 47 43
21 46 42
21 46 42
21 46 42
21 46 42
21 47 43
21 46 42
20 45 41
21 46 42
21 47 43
22 48 44
21 46 42
21 46 42
21 46 42
22 48 44
21 46 42
21 47 43
21 47 43
21 46 42
21 47 43
20 44 40
21 47 43
21 46 42
21 46 42
21 46 42
21 46 42
21 46 42
21 46 42
22 48 43
21 47 43
21 46 42
21 47 43
20 45 41
21 46 41
21 47 43
21 46 42
20 45 41
21 46 42
21 46 42
22 48 43
23 49 45
23 50 45
22 48 44
22 48 44
22 49 44
22 48 43
23 50 45
22 49 44
23 49 45
23 49 44
22 49 44
22 49 44
22 48 44
21 47 42
22 49 44
22 48 43
22 49 44
22 49 44
22 48 44
22 49 44
22 48 44
22 49 44
22 47 43
23 50 45
23 50 45
23 50 46
22 48 44
23 49 45
22 48 43
22 49 44
22 48 43
22 48 43
23 50 45
22 48 44
22 48 44
23 49 45
23 50 45
22 49 44
22 49 44
22 49 44
22 48 43
23 50 45
23 49 45
22 49 44
22 49 45
22 48 43
22 48 43
22 48 44
22 49 44
22 48 44
22 48 44
22 47 43
22 49 44
22 48 44
22 49 44
22 48 44
21 47 42
22 48 43
22 48 44
23 50 45
22 49 44
22 47 43
22 48 44
23 49 45
22 47 43
22 47 43
21 46 42
22 49 44
22 48 43
22 48 43
23 49 45
20 45 40
21 46 42
22 47 42
21 29 28
22 23 24
27 27 27
97 85 74
156 137 119
162 143 126
76 67 58
119 105 92
140 123 108
108 93 81
66 58 52
19 21 22
18 19 20
46 41 38
78 70 62
86 77 68
53 55 49
14 33 32
14 33 32
14 32 30
16 37 34
17 37 35
18 41 38
19 43 39
20 45 41
21 46 42
21 46 42
21 47 42
21 47 43
22 47 43
21 47 43
21 45 41
22 47 43
21 47 42
21 46 42
22 47 43
21 47 43
21 46 42
22 48 43
21 47 42
70 56 46
105 66 49
128 73 51
108 65 48
58 53 45
21 47 42
21 47 43
20 45 41
21 47 43
21 47 43
22 48 44
21 47 42
22 48 43
21 47 42
22 48 43
21 47 43
21 46 42
22 47 43
21 47 43
21 47 43
21 47 42
22 48 43
21 47 43
22 48 44
21 46 42
22 47 43
21 47 43
22 47 43
21 46 42
22 48 43
21 46 42
21 46 42
21 47 43
21 46 42
21 47 43
21 47 43
21 46 42
21 46 42
21 46 42
21 46 42
21 46 42
21 47 42
21 47 43
21 45 41
21 46 42
21 47 42
21 46 42
20 45 41
21 46 41
22 48 44
21 46 42
21 47 42
21 46 42
21 47 43
21 46 42
21 46 42
21 47 43
21 45 42
21 47 42
21 47 43
21 46 42
21 47 43
22 47 43
21 47 43
21 47 43
21 46 42
21 46 42
21 46 42
21 47 43
21 46 42
20 45 41
20 45 41
21 46 42
20 45 41
21 47 43
21 45 41
21 46 42
20 45 41
21 46 42
21 46 42
21 47 43
21 46 42
20 45 41
21 46 42
21 47 43
22 48 44
23 49 45
22 48 44
22 49 44
23 49 44
21 47 42
22 49 44
22 48 44
23 50 45
22 48 43
22 48 43
22 48 44
22 49 44
22 49 44
23 50 45
22 49 44
23 49 45
23 50 45
22 48 44
22 49 45
23 49 45
23 50 45
22 49 44
23 50 45
22 49 44
23 50 45
22 49 44
22 49 44
23 50 45
22 48 44
22 48 44
22 47 43
22 48 44
22 48 44
22 48 43
22 48 43
22 48 44
21 46 42
22 48 44
22 49 45
23 50 45
22 49 44
22 48 44
22 49 44
22 48 43
22 48 43
22 47 43
22 49 44
22 49 44
23 51 46
22 49 44
22 48 43
22 48 44
22 47 43
22 48 43
21 47 42
22 48 44
22 47 43
22 48 43
22 47 43
22 48 43
22 47 43
22 48 44
22 49 44
21 46 42
22 48 43
22 49 44
22 48 43
21 45 41
22 48 44
21 46 42
21 46 42
21 45 41
21 45 41
20 44 39
19 40 36
17 20 20
20 21 22
44 40 36
98 86 73
129 114 98
121 106 91
96 86 74
106 95 83
67 57 49
22 22 22
29 25 22
51 47 40
64 60 52
62 55 47
60 59 52
18 32 30
13 31 30
14 32 31
14 33 31
14 32 30
15 35 33
17 38 36
18 39 36
19 42 38
20 45 41
21 45 41
22 48 43
22 48 43
22 48 43
21 47 43
21 47 42
21 46 42
22 49 45
21 47 42
21 47 43
21 45 41
40 47 41
171 88 57
231 112 67
255 123 72
255 124 73
255 123 72
251 120 71
244 117 69
211 104 63
153 81 54
64 54 44
22 48 43
21 47 43
22 48 44
21 45 41
21 47 43
21 47 43
21 47 43
21 47 42
21 47 43
21 46 42
22 48 43
21 47 42
22 47 43
21 47 43
21 46 42
21 46 42
20 45 41
21 47 43
21 47 43
22 47 43
22 47 43
20 45 41
21 46 42
22 47 43
21 47 43
22 48 44
21 47 43
21 46 41
21 47 43
22 47 43
21 46 42
20 45 41
21 47 43
21 47 42
21 46 42
21 47 43
22 47 43
22 48 43
22 48 43
21 47 43
21 46 42
21 47 43
21 46 42
21 47 43
21 47 43
21 47 43
22 48 44
21 47 42
22 49 45
21 47 43
22 48 43
21 47 43
21 45 41
21 46 42
21 46 42
21 46 41
21 46 42
21 46 42
22 47 43
20 45 41
21 45 41
21 46 42
20 45 41
21 46 42
20 45 41
21 46 42
21 47 43
21 46 42
21 47 43
22 49 44
21 47 43
21 47 43
21 46 42
21 46 42
21 46 42
21 47 43
21 46 42
22 49 44
22 48 43
22 49 44
21 47 42
22 49 44
23 49 45
23 51 46
23 50 45
22 49 44
22 49 44
22 49 44
22 48 44
22 49 44
22 48 43
22 47 43
22 48 43
22 49 45
23 49 45
23 50 45
23 49 45
22 48 44
22 48 44
22 47 43
22 49 44
22 49 44
23 51 46
22 48 44
23 50 45
22 49 44
23 49 45
22 48 44
23 50 45
22 49 44
22 48 44
22 48 43
22 48 44
22 49 44
22 48 43
22 49 44
23 50 45
23 50 45
22 49 45
22 48 43
22 49 44
22 48 43
22 49 44
22 48 43
22 48 44
23 50 45
22 48 43
22 48 43
22 49 45
22 48 43
22 48 44
22 49 44
21 47 42
22 48 43
22 49 44
23 50 45
22 48 43
22 48 44
22 47 43
21 46 42
21 47 42
22 48 43
21 47 42
22 49 44
22 48 43
22 48 43
21 47 42
21 46 41
21 46 41
21 47 42
20 44 39
20 44 40
20 43 38
17 35 31
12 14 14
13 14 14
36 33 28
53 48 39
77 69 58
78 71 61
61 55 47
35 31 28
32 32 27
49 50 42
43 45 36
38 43 36
40 44 38
18 30 27
13 30 28
13 31 29
13 31 29
13 30 29
15 34 32
15 35 33
17 39 36
18 41 37
19 42 38
20 44 40
22 47 43
21 46 42
21 47 42
21 47 42
22 48 43
21 46 42
21 47 42
22 48 43
22 47 43
22 47 43
132 74 51
244 116 68
255 127 75
255 127 75
255 126 74
255 125 74
255 123 73
254 122 72
249 120 71
244 117 70
237 114 68
216 105 63
107 64 47
22 48 43
22 49 44
21 46 42
21 47 42
22 48 44
22 48 43
22 48 43
21 47 43
21 46 42
22 47 43
22 47 43
21 47 43
21 46 41
21 46 42
21 47 43
22 48 44
22 48 44
22 49 44
21 46 42
22 48 44
22 49 45
22 47 43
21 46 42
22 47 43
21 46 42
22 47 43
22 48 43
21 46 42
22 48 44
21 47 43
21 46 42
21 47 43
21 46 42
21 46 42
21 46 42
21 45 41
22 48 44
21 47 43
22 47 43
22 48 44
21 46 42
21 47 43
21 47 43
21 46 42
21 47 43
21 46 42
21 46 42
22 48 44
21 46 42
21 47 43
21 47 43
21 46 42
21 46 42
21 47 43
21 46 42
21 47 43
21 45 42
21 46 42
21 45 41
21 46 42
21 46 42
21 47 42
21 46 42
21 46 42
21 46 42
21 47 43
21 46 42
21 47 43
21 47 43
21 46 42
22 48 43
21 47 43
20 45 41
21 47 43
21 46 42
20 45 41
22 48 44
22 49 44
22 49 44
22 48 43
23 49 45
22 48 44
22 48 44
23 50 45
22 49 44
22 48 43
23 49 45
22 49 44
23 50 45
23 49 45
23 50 45
23 50 45
23 50 45
23 50 45
23 50 45
23 49 45
23 50 45
22 49 45
22 48 43
23 50 45
23 49 45
22 49 44
21 47 42
22 49 44
22 48 44
22 48 44
22 49 44
23 49 45
22 49 44
23 49 45
23 49 45
22 48 43
22 49 44
23 49 45
22 48 44
23 51 46
23 50 46
22 49 45
22 48 43
22 48 44
22 48 43
22 48 44
21 47 43
22 48 43
23 50 45
21 47 42
22 48 44
22 48 43
22 48 43
23 49 45
22 48 43
22 48 44
22 48 43
21 46 42
22 48 43
21 46 41
22 48 44
22 48 44
22 48 43
22 48 43
22 47 43
21 46 42
22 49 44
21 47 43
22 48 43
20 44 39
21 45 41
22 47 43
21 46 41
21 46 41
20 43 38
20 43 38
18 40 35
14 31 28
9 12 11
8 10 9
7 8 7
9 11 9
14 16 12
29 30 22
39 41 31
38 42 32
41 42 30
32 37 27
18 29 23
17 27 24
11 26 24
12 27 25
13 30 29
13 30 28
13 31 30
15 34 32
16 36 34
18 40 37
20 44 41
20 44 40
20 44 40
21 47 42
23 49 45
21 46 42
22 48 43
21 46 42
21 47 43
21 47 42
22 47 43
21 46 42
178 91 58
255 124 72
255 128 75
255 128 75
255 127 75
255 126 74
255 125 74
255 124 73
254 122 72
249 120 71
244 118 70
238 115 69
232 112 67
219 106 63
141 75 50
21 47 43
22 48 43
21 46 42
21 46 42
21 47 43
22 48 43
21 47 42
22 48 44
21 46 42
21 47 42
21 47 42
21 47 43
21 46 42
21 47 43
21 47 43
21 47 42
21 46 42
22 48 43
21 46 42
21 46 42
22 48 43
21 47 43
20 45 41
21 47 42
22 48 43
21 47 43
20 45 41
22 48 44
21 46 42
21 46 42
21 46 42
21 47 43
22 48 43
21 46 42
21 46 42
21 46 42
20 45 41
21 46 42
21 47 43
21 47 43
21 47 43
21 46 42
21 46 42
21 47 43
21 46 41
21 46 42
21 47 43
21 46 42
20 45 41
21 46 42
21 47 43
21 46 42
20 45 41
21 47 43
21 46 42
21 47 43
21 46 42
21 46 42
21 46 42
21 46 42
21 46 42
21 47 43
21 46 42
22 48 44
21 46 42
21 46 42
21 46 42
21 45 41
21 46 42
20 45 41
21 47 43
22 48 43
20 45 41
20 45 41
21 46 42
23 49 45
22 49 44
23 50 45
22 47 43
22 49 44
22 49 44
22 49 44
22 48 43
22 49 44
23 50 45
23 50 45
22 48 44
23 49 44
22 48 44
23 50 45
22 48 44
22 49 44
22 48 44
23 49 45
22 48 44
23 50 45
22 48 44
23 49 45
22 49 44
22 48 44
22 49 44
22 49 44
23 50 45
22 48 43
22 49 44
23 50 45
22 49 44
22 48 43
22 48 43
22 48 43
23 50 45
22 49 44
22 48 44
23 49 45
22 48 44
22 48 44
23 50 45
22 47 43
22 48 44
22 49 44
22 49 44
22 48 44
22 49 44
22 49 44
23 50 45
22 48 44
22 48 44
23 49 44
22 48 43
22 48 44
22 49 44
22 48 43
22 48 43
22 48 44
22 49 44
22 48 43
22 48 44
22 49 44
22 48 43
21 47 42
21 47 42
21 47 42
22 48 44
21 46 42
22 47 43
21 46 41
20 44 40
20 44 40
21 45 40
20 43 39
20 42 37
18 39 35
16 35 31
12 26 23
15 18 16
25 26 19
33 34 25
41 41 30
39 40 29
35 38 27
38 38 28
28 32 24
18 23 18
9 20 18
11 24 23
11 26 25
12 28 27
12 28 27
14 32 30
15 33 31
16 35 33
17 39 36
19 42 38
21 46 42
21 45 41
21 45 41
21 46 42
22 48 43
21 46 41
20 45 41
21 46 42
21 47 42
22 49 44
21 46 42
147 78 52
255 122 70
255 128 75
255 129 75
255 128 75
255 127 75
255 126 74
255 125 74
255 123 73
253 122 72
249 120 71
244 117 70
239 115 69
233 112 67
224 108 65
208 101 61
118 68 48
22 48 44
21 47 42
22 48 43
21 47 43
21 46 42
22 49 44
22 49 45
22 47 43
21 45 41
21 47 43
22 48 44
21 47 43
22 48 43
21 47 43
21 46 42
22 48 44
21 46 42
21 47 43
21 47 42
21 47 43
21 47 43
21 46 42
21 46 42
22 48 44
22 49 44
21 47 43
22 48 43
21 45 41
20 44 40
22 48 44
21 47 42
21 47 43
21 46 42
21 47 43
21 46 42
21 47 43
21 46 41
21 46 42
21 47 43
21 46 42
21 47 43
20 45 41
21 46 42
22 48 44
20 45 41
21 47 43
21 47 43
21 47 43
21 46 42
21 47 43
21 46 42
21 46 42
22 48 44
21 46 42
21 46 42
21 46 42
21 45 41
21 46 42
21 47 43
21 45 41
21 46 42
21 46 42
21 46 42
21 46 42
20 45 41
21 46 42
22 48 44
21 46 42
20 45 41
21 47 42
20 45 41
21 46 42
21 46 42
21 46 42
22 48 43
22 49 45
22 48 43
21 47 42
22 48 44
22 47 43
21 46 42
22 48 44
22 48 44
23 51 46
22 49 44
22 48 44
22 49 44
23 50 45
23 49 45
22 48 44
22 47 43
22 49 44
22 49 44
22 49 44
23 49 45
22 49 44
23 51 46
22 49 44
23 49 44
22 49 44
22 47 43
22 48 44
22 48 44
22 49 44
23 51 46
22 48 44
22 48 43
23 49 44
22 48 44
23 50 45
22 48 43
21 47 43
22 48 43
23 49 45
23 49 45
22 49 44
22 47 43
22 48 44
22 47 43
22 49 44
22 49 44
22 49 44
23 51 46
22 48 44
22 48 44
22 48 44
22 48 44
23 51 46
22 48 43
22 49 44
22 48 43
21 46 42
22 48 43
22 48 43
23 51 46
22 49 44
21 47 42
22 48 43
21 47 42
22 47 42
21 46 42
21 46 42
21 46 41
21 46 41
21 46 42
20 44 39
21 46 41
21 46 41
20 43 39
19 42 37
19 40 35
18 39 35
15 33 30
12 26 23
8 17 16
12 19 16
21 23 18
16 19 15
8 15 12
11 17 14
7 16 15
9 20 19
10 23 21
11 25 23
11 25 24
12 28 26
14 31 29
15 34 32
17 37 34
18 41 37
20 44 40
21 45 41
21 45 40
21 46 41
21 46 42
21 46 42
22 48 43
21 46 42
21 45 41
21 47 42
22 48 43
21 47 43
104 65 49
246 116 67
255 126 73
255 128 75
255 129 75
255 128 76
255 132 80
255 133 83
255 153 118
247 173 146
238 189 168
232 191 171
229 186 166
226 173 152
224 153 129
224 113 73
211 103 62
180 89 54
72 55 44
22 48 43
22 48 44
21 47 42
21 46 42
21 46 42
22 47 43
21 47 43
21 46 42
21 46 42
21 47 42
21 46 41
21 47 42
22 48 44
21 46 41
22 48 43
22 48 43
22 47 43
22 49 44
21 47 43
21 47 43
22 48 43
22 47 43
22 48 44
22 47 43
21 47 43
21 46 42
21 47 43
22 47 43
22 48 44
22 49 45
21 47 42
21 47 43
22 48 43
22 49 45
21 47 42
21 47 43
21 47 43
21 47 43
21 46 42
21 47 42
21 46 41
21 46 42
21 46 42
21 46 42
22 48 44
21 47 43
21 46 42
20 45 41
21 47 43
21 47 43
21 46 42
21 46 42
22 48 44
21 46 42
21 46 42
20 45 41
21 46 42
21 47 43
21 47 43
21 46 42
22 47 43
21 46 42
21 47 42
21 46 42
21 45 41
21 46 42
21 46 42
21 47 43
21 46 42
21 47 43
20 45 41
20 45 41
21 46 42
23 51 46
23 50 46
22 48 43
22 48 44
22 49 44
22 48 43
22 49 44
22 49 44
22 49 44
23 49 45
23 50 45
22 48 43
23 49 45
23 51 46
22 48 43
22 49 44
22 49 44
22 48 44
22 49 44
22 47 43
22 48 44
22 49 44
23 50 45
22 49 44
22 49 44
22 48 43
22 48 43
22 49 45
22 49 44
22 49 44
23 49 45
22 49 44
23 49 45
22 48 43
22 49 44
22 48 44
22 49 44
22 48 43
22 49 44
22 48 44
22 48 44
22 49 45
22 49 44
22 48 43
22 48 44
22 48 43
22 49 44
21 47 42
23 49 44
23 50 45
22 49 44
22 49 44
22 49 44
22 49 44
22 48 43
22 48 44
22 48 43
22 47 43
22 48 43
22 47 43
21 46 42
22 49 44
21 46 42
22 49 44
22 47 43
22 48 44
22 48 43
21 46 42
21 45 40
21 46 41
21 45 40
21 45 40
21 46 41
21 45 40
21 45 41
20 43 38
20 43 38
20 42 37
20 43 38
17 36 32
15 33 29
14 30 26
12 27 24
10 22 20
10 22 20
10 22 20
11 24 23
12 27 25
12 27 25
14 32 29
14 32 29
16 36 33
18 40 36
19 42 38
20 44 40
20 44 40
21 45 40
21 45 40
21 47 42
21 46 41
21 46 41
21 46 41
21 46 42
22 47 43
21 46 41
21 47 42
22 48 43
22 48 43
192 95 58
255 120 69
255 126 73
255 127 74
255 128 75
255 140 89
255 199 158
255 237 208
246 219 199
235 210 192
231 207 189
227 204 187
223 200 184
217 196 180
212 191 177
207 179 163
201 141 120
188 93 58
131 70 46
22 47 43
21 46 42
21 46 41
22 48 44
22 48 44
21 46 42
22 48 43
22 48 44
21 46 42
22 48 44
21 46 42
21 47 43
22 47 43
22 48 43
22 47 43
21 47 43
21 46 42
22 48 44
21 46 42
21 46 41
21 45 41
21 46 42
21 45 41
20 45 41
21 47 43
22 48 44
22 49 44
21 46 42
21 46 42
21 46 42
22 48 44
21 47 42
21 47 42
22 48 43
22 48 43
21 46 42
22 48 43
21 47 43
21 47 43
22 47 43
21 46 42
22 47 43
22 48 43
21 46 42
21 46 42
21 45 41
21 47 43
21 47 43
21 47 43
21 46 41
21 46 42
21 46 42
21 47 43
21 46 42
21 47 43
21 46 42
21 47 42
21 46 42
21 46 42
21 46 42
21 46 42
21 46 42
21 46 42
21 46 42
21 46 42
21 47 43
21 46 42
21 47 43
21 46 42
21 46 42
21 47 43
21 46 42
20 45 41
23 50 45
23 50 45
23 51 46
23 50 45
22 48 44
23 49 45
23 49 45
22 49 44
23 50 45
22 48 43
22 48 44
22 48 44
22 48 44
22 48 43
22 49 44
22 49 44
22 49 44
23 49 45
22 48 44
23 50 46
21 47 42
22 48 43
22 49 44
22 48 43
22 48 43
22 48 43
22 47 43
22 49 44
22 49 44
22 48 43
23 50 45
23 51 46
22 49 45
23 49 45
22 48 44
22 48 43
22 48 43
22 48 44
22 49 44
22 48 43
23 50 45
22 48 43
22 49 44
23 49 45
22 48 44
22 49 44
22 48 44
22 48 44
22 49 44
22 48 43
22 48 44
23 50 45
23 50 45
23 49 45
22 48 44
23 49 45
21 46 42
22 49 44
21 47 42
22 48 44
22 48 44
22 48 43
23 49 45
23 50 45
21 46 42
22 49 44
22 47 43
21 47 42
21 46 41
21 46 42
21 45 41
21 46 41
21 46 41
21 45 41
21 46 41
21 44 40
20 43 38
20 43 38
21 45 40
21 44 39
20 42 37
20 44 38
19 41 36
18 40 35
18 38 33
17 37 32
17 37 33
19 40 36
19 41 36
19 42 37
21 45 40
20 44 39
20 44 39
20 44 40
21 46 41
21 46 41
21 45 41
21 46 42
21 46 42
22 47 43
21 46 41
21 47 42
21 45 41
21 47 42
21 46 42
21 47 42
22 47 43
54 51 43
233 109 62
255 120 69
255 123 71
255 125 73
255 127 76
255 205 174
255 255 235
255 248 221
243 217 196
234 208 190
230 205 187
225 202 185
221 198 182
216 194 178
211 190 175
202 181 168
187 170 157
175 133 117
160 80 49
58 52 44
21 47 43
21 45 41
21 47 43
21 47 43
22 48 43
21 47 42
22 48 43
22 47 43
22 48 44
22 48 44
21 47 43
21 47 43
21 47 43
22 48 43
21 46 41
21 47 42
22 47 43
21 46 42
21 46 42
21 47 42
21 47 42
21 46 42
21 47 43
21 46 42
21 47 43
21 46 42
21 47 43
21 46 42
22 47 43
21 47 43
22 47 43
21 47 43
21 46 42
21 47 43
22 48 43
21 46 42
22 48 44
21 46 42
21 47 43
22 48 44
21 47 43
21 47 43
21 47 43
21 47 42
22 48 44
21 46 42
21 46 42
21 46 42
22 48 44
21 47 42
21 47 43
21 47 43
21 46 42
22 48 43
21 46 42
20 45 41
21 46 42
21 46 42
21 46 42
21 45 42
21 46 42
20 45 41
21 46 42
21 46 42
21 46 42
21 47 43
21 46 42
21 45 41
21 46 42
20 45 41
21 46 42
21 47 43
23 50 45
22 49 44
23 51 46
23 51 46
22 49 44
23 49 45
22 48 44
22 48 43
23 50 45
22 48 43
23 50 45
23 50 45
22 49 44
22 49 45
22 48 44
23 50 45
22 49 44
22 48 44
22 48 44
22 49 44
23 49 45
23 50 45
22 49 44
21 47 42
22 48 43
22 48 44
23 50 45
22 48 44
22 48 44
22 49 44
22 49 44
22 49 44
23 50 45
22 48 44
23 50 45
22 48 44
22 49 44
22 48 44
23 49 45
22 48 44
22 48 44
22 49 44
22 48 43
22 49 44
22 49 45
22 47 42
22 47 42
22 48 43
22 48 44
22 48 43
22 47 43
22 48 44
23 49 45
22 49 44
22 47 43
22 49 44
22 48 43
22 48 44
22 49 44
22 48 43
22 47 42
22 47 43
22 47 43
22 49 44
22 48 44
22 48 43
22 47 43
22 47 43
22 47 43
22 47 43
21 46 41
21 47 42
21 46 41
21 45 41
20 44 40
21 46 41
21 45 40
22 47 42
20 44 39
20 44 39
20 43 38
20 43 39
20 44 39
20 43 38
20 44 39
20 44 39
20 43 39
20 44 39
21 45 40
21 45 40
21 44 40
21 45 41
21 46 41
21 46 41
21 45 40
21 46 42
21 46 42
22 47 43
21 46 42
21 46 42
22 47 43
21 46 42
22 49 44
21 47 42
21 45 41
21 46 42
21 47 42
136 74 50
240 112 64
251 118 68
255 121 70
255 123 73
247 190 165
248 219 197
255 228 204
246 218 197
236 210 190
232 206 188
228 203 185
224 200 183
218 195 178
210 188 173
202 181 167
194 174 160
180 162 150
161 147 137
153 95 76
97 62 48
21 47 42
21 47 42
21 47 43
21 47 42
22 48 43
22 48 43
21 46 42
21 45 41
21 46 42
22 48 43
22 48 44
22 49 44
22 47 43
21 47 42
22 48 44
21 46 42
22 48 44
21 46 42
22 48 43
21 45 41
21 46 42
21 46 42
21 47 43
20 45 41
21 46 42
21 47 43
21 46 42
21 47 42
21 46 42
21 47 43
21 46 42
21 46 42
21 46 42
21 47 43
21 46 42
21 46 42
21 46 42
21 47 43
21 47 42
21 47 42
22 48 43
21 46 42
21 47 42
21 46 42
22 49 44
21 47 43
21 47 42
21 46 42
21 47 43
21 47 43
21 47 43
21 47 42
21 47 42
22 48 44
21 46 42
21 46 42
21 46 42
21 46 42
21 46 42
21 46 42
20 44 40
22 48 44
21 47 43
21 46 42
20 44 40
21 46 42
21 47 42
21 46 42
21 46 42
21 45 41
21 47 43
22 48 44
22 49 44
23 50 45
22 49 44
22 49 44
22 49 45
23 50 45
22 49 44
23 49 45
23 49 45
23 50 45
23 50 45
22 49 44
23 50 45
22 49 44
22 49 44
23 49 45
22 48 43
22 49 44
23 50 45
23 49 45
22 48 43
23 50 45
23 50 45
23 50 45
22 49 44
22 47 43
22 48 44
22 49 44
22 48 43
23 50 45
22 48 43
23 50 45
22 49 44
22 48 43
23 50 45
22 48 44
21 47 42
23 50 45
22 49 45
22 49 44
22 49 45
22 49 44
22 48 44
23 50 45
22 48 43
21 47 42
22 47 43
23 49 45
22 49 44
22 49 44
22 48 44
22 48 44
23 50 45
23 50 45
23 50 45
21 47 42
21 46 42
22 49 44
22 49 44
23 50 45
22 49 44
21 47 42
22 48 43
22 48 44
22 48 44
22 47 43
22 48 43
21 46 42
21 46 42
21 47 42
22 47 42
21 46 42
21 46 41
21 46 42
21 47 42
21 46 41
21 45 40
21 46 41
22 48 43
20 44 40
21 45 40
21 45 40
21 45 41
20 44 39
20 44 39
21 45 40
21 45 40
20 43 39
21 45 40
22 47 42
21 45 41
22 47 42
22 47 43
21 46 41
21 47 42
21 47 42
21 46 42
21 45 41
21 45 41
22 48 43
21 46 41
22 49 44
22 48 43
21 46 42
21 47 42
21 46 41
21 47 42
159 80 50
230 107 61
240 112 64
250 117 68
242 160 130
235 206 185
232 204 184
234 207 186
229 203 183
230 204 185
227 201 183
223 199 181
218 194 178
211 188 172
204 183 167
195 174 160
186 166 153
173 156 144
154 141 133
141 118 108
113 67 50
21 46 42
22 49 44
21 47 42
22 48 43
21 47 42
21 46 42
21 47 43
21 47 42
21 47 43
21 46 42
22 48 44
21 46 42
20 45 41
21 47 43
22 49 44
21 47 43
21 47 43
22 47 43
22 48 44
21 47 43
21 47 42
21 46 42
21 46 42
21 47 43
21 47 42
22 49 44
21 47 42
22 49 44
21 47 43
21 46 42
21 47 42
21 45 41
21 47 42
21 46 42
22 48 44
21 47 43
21 47 42
21 46 42
21 46 42
21 46 42
21 45 41
21 47 43
21 46 42
21 47 43
21 47 43
21 46 42
21 47 43
20 45 41
21 46 42
22 48 44
22 47 43
21 46 42
21 47 43
21 47 43
21 46 42
21 47 43
21 47 43
21 45 41
21 46 41
21 47 42
21 47 42
21 46 42
21 46 42
21 46 42
21 46 42
21 45 41
20 45 41
21 47 43
21 45 41
21 46 42
21 45 41
21 46 42
22 49 44
23 50 46
22 48 44
22 48 44
23 50 45
22 48 44
23 49 45
22 48 44
23 49 45
23 49 45
22 49 44
23 50 45
23 50 45
23 50 45
21 47 43
23 50 45
23 49 45
22 48 43
22 49 44
23 50 46
22 49 44
23 49 45
23 50 45
22 48 43
22 48 44
22 49 44
22 48 44
22 48 43
22 49 44
23 49 44
22 48 44
23 50 46
22 49 44
22 48 43
23 50 45
23 49 45
22 48 44
22 48 44
22 48 44
23 50 45
23 50 45
22 47 42
22 48 44
22 48 44
23 49 45
22 49 44
23 49 45
22 47 43
22 47 43
23 50 45
22 49 44
22 49 44
22 49 44
21 47 42
22 48 44
22 48 43
22 47 43
22 48 43
23 49 44
22 48 44
22 47 43
22 49 44
22 48 43
21 47 42
23 50 45
22 49 44
22 48 43
22 48 44
21 47 42
21 47 42
22 48 44
22 48 43
21 47 42
22 48 43
22 47 43
22 48 43
21 46 42
21 45 40
22 48 43
21 46 41
22 48 44
21 45 41
21 46 41
22 47 42
21 46 41
21 46 41
21 46 41
22 47 42
21 46 41
21 46 41
21 46 41
22 48 44
22 47 43
21 46 41
21 46 42
21 46 42
21 46 42
22 47 43
21 47 42
21 47 42
21 47 42
22 48 43
22 48 43
21 46 41
22 47 43
21 47 42
21 47 42
169 83 51
221 103 59
233 109 62
239 122 80
223 193 172
226 199 178
224 197 177
228 201 182
221 195 175
220 195 176
216 192 173
214 191 173
207 184 168
199 177 161
194 172 157
183 163 149
177 159 146
158 143 133
140 128 121
140 129 121
102 72 60
21 46 41
21 47 43
22 48 44
22 48 44
22 48 43
21 46 41
21 47 42
22 48 44
22 48 44
21 47 42
21 46 42
21 46 42
21 46 42
21 46 42
21 46 42
22 48 44
21 46 42
21 47 43
21 46 42
22 49 44
21 47 43
22 48 43
21 47 43
21 46 42
21 46 42
21 47 43
21 47 42
21 46 42
21 47 43
21 46 42
20 45 41
22 47 43
22 47 43
21 47 43
21 47 43
21 47 43
21 47 43
21 47 43
21 47 43
21 46 42
22 48 43
22 48 43
21 47 43
21 46 42
22 48 44
21 46 42
21 45 41
21 46 42
20 45 41
22 49 45
21 46 42
20 45 41
21 46 42
21 46 42
22 48 44
21 47 43
21 46 42
21 46 42
21 46 42
21 46 42
21 46 42
21 47 43
21 46 42
21 46 42
21 47 42
22 48 44
21 46 42
21 47 43
20 45 41
21 46 42
21 46 42
21 46 42
23 49 44
22 49 44
23 50 45
23 50 45
23 49 45
22 49 44
23 51 46
23 51 46
23 50 45
22 48 43
23 49 45
23 50 45
23 50 45
22 48 43
22 48 44
22 48 43
23 50 45
23 49 45
23 50 46
23 50 45
23 50 45
23 51 46
22 48 44
23 49 45
22 49 44
23 51 46
22 48 43
22 49 44
23 51 46
22 48 43
22 48 43
22 48 44
22 49 44
22 48 43
22 48 43
22 49 44
22 49 44
23 49 45
22 48 43
22 48 44
23 51 46
22 48 44
22 48 44
22 49 44
22 48 43
22 49 44
22 49 45
23 50 45
21 47 42
23 50 45
22 49 44
23 50 45
21 47 42
22 48 43
22 48 44
23 50 45
22 49 44
22 48 43
21 46 42
22 48 44
22 47 43
22 48 43
22 49 44
23 50 45
22 48 43
21 47 42
22 48 44
22 49 44
21 46 42
22 49 44
22 47 43
22 48 43
21 46 42
22 48 43
22 48 44
22 48 43
21 46 42
21 47 42
21 46 41
22 47 43
22 48 43
22 48 43
21 46 41
21 46 41
22 47 42
22 47 43
21 46 41
21 46 42
22 48 43
22 48 44
21 46 42
22 47 42
22 47 42
21 46 41
20 45 40
21 47 42
21 47 42
22 48 43
21 46 42
21 46 42
22 48 44
21 47 42
22 48 44
21 46 41
21 45 41
21 47 42
22 48 43
160 80 49
212 99 56
221 103 59
222 146 117
213 187 166
211 185 164
213 187 167
211 186 166
214 188 169
215 190 171
209 185 168
202 179 162
196 174 158
190 168 153
192 171 157
177 158 145
156 140 128
145 133 124
135 123 115
124 114 107
98 78 69
21 46 42
21 46 42
22 47 43
21 45 41
22 47 43
21 46 42
21 46 42
21 46 42
22 47 43
21 47 42
21 47 42
21 46 42
21 47 43
21 46 42
21 46 41
21 47 42
21 46 42
21 46 42
21 46 42
21 46 42
21 47 43
21 47 42
21 47 42
22 49 44
21 47 43
22 47 43
21 46 42
22 48 44
21 46 42
21 46 42
21 47 42
21 46 42
21 46 42
22 49 44
22 49 45
22 48 44
21 47 43
21 45 41
22 49 44
21 46 42
21 46 42
21 47 42
22 48 43
21 46 42
21 47 43
21 47 43
21 46 42
21 47 43
21 46 42
21 46 42
21 46 42
21 46 42
21 47 42
21 47 43
21 46 42
21 47 43
21 46 42
21 46 42
21 47 43
21 47 43
21 46 42
21 46 42
20 44 40
22 47 43
22 48 44
21 47 43
21 45 41
21 46 42
21 47 43
21 47 43
22 47 43
21 46 42
22 49 45
23 50 45
23 50 45
23 50 45
23 51 46
23 49 45
22 49 44
23 51 46
23 51 46
22 47 43
23 49 45
23 50 45
22 49 44
22 48 43
22 49 44
22 48 44
23 50 45
23 49 44
22 48 44
23 50 45
22 49 44
24 52 47
22 49 44
22 48 43
23 51 46
22 49 44
23 50 45
23 50 45
23 50 45
23 50 45
23 50 45
22 49 44
23 51 46
23 50 45
22 48 43
22 49 44
23 50 45
23 49 45
22 48 44
22 48 43
23 49 45
22 49 44
22 47 43
23 50 45
22 48 43
22 47 43
23 50 45
22 48 44
21 46 42
22 48 44
22 47 43
22 49 44
22 49 44
22 48 44
22 48 43
23 51 46
22 49 44
21 47 42
22 49 44
22 48 43
22 48 43
22 48 43
22 48 43
22 48 43
22 48 44
22 48 43
22 48 43
22 48 44
22 47 42
21 47 42
23 50 45
22 48 44
22 47 42
21 46 41
22 49 44
23 50 45
21 47 42
21 46 42
22 48 43
21 46 41
22 48 43
22 48 43
22 48 43
22 47 42
21 46 42
22 47 42
21 46 42
22 47 43
21 46 42
22 48 43
23 49 44
22 47 43
23 49 44
22 48 43
21 46 42
22 48 43
21 46 42
21 46 41
21 46 42
22 47 42
22 48 43
21 46 41
22 49 44
21 46 42
21 46 42
22 47 43
21 47 42
130 70 46
202 94 53
208 97 55
196 156 134
204 179 158
200 175 156
204 179 159
207 182 163
199 175 157
194 172 153
194 172 154
190 169 152
181 160 145
181 160 145
161 144 131
163 145 132
149 133 122
129 117 108
123 113 105
110 102 94
84 74 66
21 45 41
21 46 41
21 45 41
21 46 41
21 46 42
21 45 41
22 48 44
21 45 41
21 47 42
21 46 42
22 48 43
21 47 42
22 47 43
22 48 43
22 48 43
21 46 42
21 46 42
21 46 41
21 47 43
21 46 42
22 48 43
21 47 42
21 46 42
22 47 43
21 47 42
21 46 42
21 46 42
22 48 43
22 48 44
21 46 42
22 49 44
21 46 42
20 45 41
21 47 43
21 45 41
22 48 44
21 46 42
21 46 42
21 47 43
22 49 44
21 47 43
21 46 42
22 48 44
21 47 43
21 46 42
21 47 43
21 46 42
21 46 42
21 46 42
21 46 42
21 47 42
21 47 43
21 46 42
21 46 42
21 47 42
21 46 42
21 46 42
21 46 41
21 46 42
21 47 42
22 47 43
21 46 42
21 46 42
21 46 42
22 48 44
21 47 43
21 45 41
20 45 41
21 46 42
21 46 42
20 45 41
20 45 41
24 52 47
22 49 44
22 49 44
22 49 44
23 50 45
23 50 45
23 50 45
22 49 44
23 51 46
23 49 45
23 50 45
23 50 45
23 50 45
22 49 44
22 48 43
23 51 46
22 48 43
22 49 44
22 49 44
23 49 45
22 48 44
22 48 44
22 48 43
22 49 44
22 49 44
22 49 44
23 50 45
22 48 43
22 47 43
22 49 44
23 49 45
22 49 44
22 48 44
22 49 44
23 49 45
23 50 45
23 50 45
23 51 46
22 49 44
23 49 45
23 49 45
22 49 44
23 49 45
22 47 43
22 49 44
23 49 44
22 49 44
22 48 44
23 50 45
22 48 44
23 50 45
22 48 43
22 49 44
22 48 44
22 48 43
21 47 42
22 48 43
22 49 44
22 49 44
22 49 44
23 50 45
22 48 44
22 48 43
22 48 43
22 48 43
22 48 43
22 48 43
22 48 43
22 48 43
22 49 44
22 48 43
21 47 43
21 46 42
23 49 45
22 49 44
22 49 44
22 48 43
22 48 43
21 47 42
21 46 42
22 49 44
22 48 43
22 48 44
21 46 41
21 47 42
22 47 43
22 47 42
22 48 43
22 47 42
22 49 44
22 47 43
22 47 43
22 47 42
21 45 41
21 46 42
22 47 43
22 47 43
22 47 42
22 48 44
21 47 42
22 48 44
22 47 43
22 48 43
22 47 43
21 46 41
21 46 42
21 46 42
83 56 42
179 83 47
193 91 53
189 159 139
189 165 146
183 160 141
189 166 147
181 159 141
187 165 147
180 159 142
179 159 142
179 158 142
167 147 131
156 139 125
157 140 128
141 127 116
130 118 109
115 106 98
115 105 97
104 96 88
63 60 53
19 43 39
20 44 40
19 43 39
19 42 38
20 44 41
20 44 40
20 44 40
21 46 42
21 46 42
22 48 43
22 48 43
22 47 43
21 47 42
22 48 43
21 46 42
21 47 43
22 48 44
22 49 44
21 47 43
21 46 42
22 47 43
21 46 42
21 47 42
21 47 42
21 47 43
21 46 42
21 46 42
21 45 41
21 47 42
21 47 43
22 48 43
22 48 43
22 48 43
21 46 42
21 46 42
22 47 43
20 45 41
21 46 42
22 48 44
21 47 43
22 48 43
21 47 43
21 45 41
21 46 42
21 47 43
21 47 42
22 48 43
21 46 42
21 47 43
22 48 44
20 45 41
22 47 43
21 47 43
21 45 41
21 47 43
21 47 43
21 45 41
21 47 43
21 47 43
21 47 43
21 46 42
22 48 44
21 47 43
21 47 43
21 46 42
21 47 42
21 46 42
20 45 41
21 46 42
21 46 42
21 46 42
21 46 42
23 50 45
22 48 43
22 49 44
22 48 44
23 51 46
23 50 45
22 48 44
23 50 45
23 49 44
22 49 44
23 51 46
22 48 43
22 49 44
23 49 45
22 48 43
23 49 45
22 49 44
22 49 44
23 50 45
23 49 45
22 48 44
23 50 45
22 48 44
22 48 44
22 48 43
23 50 45
22 48 44
22 49 44
23 50 45
23 49 45
22 49 44
22 49 44
23 49 45
23 50 45
23 50 45
22 49 44
21 47 42
23 49 45
22 49 44
22 48 44
22 48 43
22 49 44
22 48 43
23 51 46
22 47 43
22 49 44
22 48 43
23 50 45
22 49 44
22 48 43
22 48 43
22 49 44
22 47 43
21 47 42
23 49 45
23 50 45
23 50 45
22 48 43
22 48 44
22 48 43
21 46 42
22 48 44
23 50 46
22 48 43
22 48 44
23 49 44
22 48 43
22 48 44
22 49 44
21 46 42
23 49 45
21 47 42
22 47 43
21 47 42
22 48 43
22 48 43
22 47 43
22 47 42
22 49 44
22 48 43
21 46 41
22 47 42
23 50 45
22 48 43
21 47 42
22 48 44
22 48 43
22 49 44
21 46 42
21 47 42
21 46 42
22 49 44
22 48 43
22 48 43
21 46 42
23 49 45
22 48 44
21 47 42
21 46 42
22 47 43
21 45 41
22 48 43
21 46 42
22 47 42
21 46 41
21 46 42
21 45 41
34 48 42
149 71 41
170 80 44
172 145 125
170 149 130
170 149 131
172 151 133
170 150 132
167 147 130
169 150 134
165 146 131
157 140 126
144 128 115
148 132 120
124 112 101
118 108 99
113 104 96
111 102 93
102 93 85
95 87 79
40 45 41
17 37 35
18 41 38
18 40 37
19 41 38
19 42 38
20 43 40
20 45 41
21 46 42
21 46 42
21 47 42
20 45 41
22 48 43
21 45 41
21 46 42
21 47 42
21 46 42
21 47 43
21 47 43
22 48 44
21 47 43
22 48 44
22 48 44
22 47 43
21 47 42
21 46 42
21 47 43
21 46 42
22 48 44
21 47 42
22 48 44
21 47 42
22 48 43
21 46 42
22 48 43
21 47 42
22 48 44
22 48 44
21 46 42
21 45 41
21 46 42
22 48 44
21 46 42
20 45 41
21 46 42
20 45 41
21 46 42
21 46 42
22 48 44
21 47 43
22 48 43
21 46 42
22 47 43
21 46 42
21 46 41
21 46 42
21 47 43
21 46 42
21 47 43
22 48 44
21 46 42
20 45 41
21 46 42
22 48 43
21 47 43
22 47 43
21 47 43
20 45 41
20 45 41
21 47 43
21 46 42
21 46 42
21 46 42
22 49 44
23 51 46
23 51 46
23 50 45
23 50 45
23 50 45
22 49 44
22 48 43
23 51 46
22 48 43
22 48 44
22 48 43
22 49 44
23 51 46
23 49 45
23 50 45
23 50 45
23 50 45
22 48 44
23 50 45
22 49 44
23 49 45
22 48 43
23 50 45
22 48 43
23 50 45
22 49 44
23 50 45
22 48 44
23 49 45
22 49 44
22 48 44
22 48 44
23 49 45
23 50 45
22 48 43
23 49 44
23 50 46
22 49 44
23 50 45
22 49 44
21 46 42
22 48 44
23 50 45
23 50 45
22 48 43
22 48 44
23 49 44
23 50 45
23 50 45
22 49 44
22 48 44
23 50 45
23 51 46
22 49 44
22 49 44
22 48 43
23 50 45
22 48 43
22 48 43
23 51 46
22 48 44
22 48 43
22 49 44
23 51 46
22 48 43
22 48 44
23 49 44
22 47 43
22 49 44
22 48 43
22 48 43
22 47 43
22 49 44
22 47 43
22 49 44
21 47 42
22 48 43
21 47 42
22 49 44
21 46 42
22 48 43
23 49 44
22 49 44
22 47 43
21 46 42
22 48 43
21 46 42
22 48 43
21 46 42
21 45 41
22 48 43
22 48 43
22 48 43
22 48 43
22 47 42
22 48 44
22 47 43
21 47 42
22 48 43
21 46 41
21 46 42
22 47 42
21 45 41
22 47 43
21 46 41
21 45 40
21 46 41
91 54 38
147 69 38
153 120 100
158 138 120
153 134 117
153 134 117
152 134 118
142 125 110
151 134 119
143 128 114
141 126 113
121 109 98
119 108 97
110 101 92
95 87 79
91 84 76
87 81 74
77 73 66
53 54 48
14 33 32
15 34 33
15 35 33
17 38 35
17 39 36
18 40 37
18 40 37
19 41 38
20 44 40
20 45 41
21 46 42
21 46 42
21 46 42
22 48 43
21 47 42
22 48 44
21 46 42
21 46 42
21 46 42
21 46 42
22 48 43
21 46 42
22 48 44
22 48 43
21 47 42
21 47 43
21 47 43
22 48 44
21 47 43
21 46 42
21 47 43
21 46 42
22 48 43
22 48 44
22 47 43
22 48 44
21 46 42
21 47 42
21 46 42
22 48 43
21 46 42
21 46 42
22 47 43
21 46 42
21 47 43
22 47 43
20 45 41
22 48 44
21 47 43
21 46 42
21 46 42
21 46 42
22 48 44
21 47 43
21 46 42
21 46 42
21 46 42
21 47 42
21 47 42
21 47 43
21 47 43
21 46 41
22 48 43
21 46 42
21 45 41
22 47 43
21 46 42
22 48 44
21 46 42
21 46 42
21 46 42
20 45 41
21 46 42
23 50 45
23 49 45
22 49 44
23 50 45
22 48 44
22 47 43
23 49 45
22 48 43
23 49 45
23 50 45
23 51 46
23 50 45
23 50 45
23 49 45
23 49 44
23 50 45
22 48 44
23 51 46
23 49 44
23 50 45
23 50 45
23 50 45
23 50 46
22 47 43
22 48 43
23 50 45
22 49 44
23 50 46
23 50 45
22 49 45
22 48 44
22 48 44
22 49 44
23 50 45
22 49 44
23 50 45
23 49 44
22 49 44
23 50 45
22 48 44
24 52 47
22 48 43
22 49 44
22 49 44
23 49 44
23 50 46
23 50 46
23 49 45
23 51 46
22 48 43
22 48 44
22 47 43
22 48 44
23 50 45
23 50 45
22 48 44
23 50 45
23 49 45
22 48 43
22 49 44
22 48 43
22 48 44
22 48 43
22 49 44
22 49 44
23 50 45
22 49 44
22 49 44
22 48 43
22 48 44
22 47 43
22 49 44
22 47 43
22 47 43
22 48 43
22 48 44
22 48 43
23 49 44
22 48 44
23 50 45
22 49 44
22 47 43
22 48 44
22 48 43
22 49 44
22 47 43
22 47 42
22 47 42
21 47 42
22 48 44
22 49 44
22 47 43
22 47 43
22 47 42
21 47 42
21 46 41
21 46 41
22 48 43
21 47 42
22 47 42
21 47 42
21 45 41
21 45 40
22 47 42
22 46 41
21 46 41
21 45 40
22 47 42
26 44 39
114 57 34
126 88 70
130 114 98
130 114 98
131 115 99
131 116 101
128 114 100
122 110 96
110 100 88
103 95 84
96 87 78
79 74 67
79 74 66
88 81 72
73 69 62
74 68 60
69 65 58
18 32 30
13 30 29
14 32 30
14 31 30
14 34 32
15 35 33
16 37 35
17 39 36
19 41 38
19 42 39
19 43 39
21 45 41
20 45 41
21 46 41
22 48 44
22 48 44
21 47 43
21 47 43
22 47 43
21 47 43
21 46 42
21 46 42
21 46 42
21 47 43
21 46 42
21 46 42
21 46 42
21 47 43
21 46 42
21 47 43
22 48 43
21 47 43
22 48 44
22 47 43
21 46 42
21 47 43
22 48 44
21 47 42
21 45 41
21 47 43
21 46 42
21 47 43
22 48 43
21 46 42
21 47 42
22 48 44
21 47 43
21 47 43
21 46 42
21 47 42
21 47 42
22 48 43
21 46 42
22 48 43
21 46 42
21 46 42
21 47 43
22 48 44
20 45 41
21 47 43
21 47 43
21 46 42
21 46 42
21 47 43
22 49 45
21 47 43
21 45 41
22 48 44
21 47 43
21 46 42
20 45 41
21 47 43
21 46 42
21 47 43
23 50 45
23 50 45
22 48 43
23 50 45
22 49 44
22 49 44
23 50 45
23 51 46
22 48 44
22 49 44
22 49 44
22 49 44
23 50 45
22 49 44
23 51 46
22 49 44
22 49 44
22 49 44
22 48 43
23 50 45
23 51 46
23 51 46
23 49 44
23 49 45
23 50 45
22 49 44
23 50 45
23 50 45
23 49 45
22 49 44
22 49 44
22 49 44
23 50 46
22 49 44
23 49 45
23 49 45
22 48 43
22 49 44
23 49 45
22 49 44
22 48 44
23 49 44
23 50 45
23 50 45
22 48 44
22 48 44
22 48 43
22 48 43
22 48 44
22 49 44
22 49 44
22 49 44
22 49 44
22 48 44
23 50 45
22 48 44
22 49 44
22 49 44
22 49 44
22 49 44
22 49 44
22 49 44
22 49 44
22 48 44
22 48 44
21 47 43
22 49 44
22 49 44
22 48 43
22 48 44
22 49 44
23 49 45
22 48 43
22 48 44
22 48 44
23 49 44
22 49 44
22 48 43
22 48 43
23 50 45
22 48 44
22 48 43
22 48 44
22 47 43
22 48 43
22 49 44
22 48 43
21 46 42
23 50 45
22 48 44
22 48 43
22 47 42
22 47 42
22 47 43
22 47 42
22 47 42
22 49 44
22 47 43
21 46 41
22 47 42
23 49 44
21 45 41
21 45 40
21 45 41
21 46 41
21 45 40
21 45 40
21 45 40
20 42 37
40 41 34
80 45 29
98 85 71
104 93 79
109 98 84
101 90 77
101 91 79
77 72 61
92 85 75
64 64 55
77 73 65
75 71 62
56 55 47
60 58 50
65 63 55
50 50 43
34 40 36
13 30 28
13 30 29
13 31 29
14 32 31
14 31 30
14 33 31
16 36 34
15 35 33
18 39 36
18 40 37
20 43 40
21 45 42
20 44 40
21 46 42
21 46 42
22 48 44
22 48 44
21 45 41
22 47 43
21 47 42
21 47 43
21 47 42
22 47 43
22 48 44
21 47 43
22 49 44
21 46 41
21 46 42
27 47 45
54 52 65
75 62 82
163 145 137
177 160 146
155 141 129
125 117 107
52 63 57
22 48 43
21 45 41
21 47 42
21 46 42
21 47 43
22 48 44
23 49 45
21 47 42
21 47 43
22 47 43
21 47 43
21 45 41
21 46 42
21 47 43
21 47 43
21 46 42
21 47 43
22 48 43
21 46 42
21 47 43
21 46 42
21 46 42
21 47 43
22 47 43
21 47 43
21 47 43
21 45 41
21 47 43
21 47 43
21 47 42
20 45 41
21 46 42
21 47 42
21 47 42
21 45 41
21 46 42
21 46 42
21 46 42
23 50 45
23 51 46
23 50 45
23 50 45
23 50 45
23 50 45
23 51 46
23 49 45
22 49 44
22 48 44
23 51 46
22 48 43
23 50 46
22 49 44
22 48 43
22 48 43
23 50 45
23 51 46
22 48 44
22 49 44
23 49 45
23 50 45
23 50 45
23 49 45
23 51 46
22 49 44
23 50 45
24 52 47
23 50 46
23 49 44
22 49 45
23 50 45
23 49 44
23 50 45
22 48 44
22 49 44
22 47 43
22 49 44
23 51 46
23 51 46
22 48 43
23 49 45
21 47 43
23 50 45
23 49 45
22 49 44
22 48 44
23 49 44
22 49 44
22 47 43
22 48 44
23 50 45
22 48 43
23 50 45
23 49 45
22 49 44
23 49 44
22 48 44
23 49 44
23 50 45
22 48 44
22 49 44
23 49 45
22 47 43
22 48 44
22 48 43
22 48 43
23 49 45
22 47 43
22 48 44
22 49 44
22 48 43
22 48 44
23 50 45
23 50 45
22 48 44
21 47 42
22 47 43
23 50 46
22 48 44
21 47 42
22 48 43
23 49 44
22 48 43
22 48 43
22 48 43
22 49 44
22 48 43
21 46 42
22 47 43
22 47 43
21 46 42
21 47 42
22 48 43
21 46 41
22 48 43
22 47 43
21 46 42
22 48 43
21 46 42
22 48 43
21 46 42
22 47 42
21 46 41
22 47 42
21 45 40
20 43 38
20 44 39
20 43 38
18 38 33
33 37 31
46 38 29
57 55 43
67 63 52
60 58 47
71 65 53
62 60 48
52 52 42
57 56 47
52 53 44
47 47 38
41 44 37
22 31 23
35 38 32
25 32 28
12 27 26
12 28 27
13 29 28
13 30 28
14 32 31
13 31 29
14 32 31
16 36 34
16 37 34
18 39 36
19 43 39
19 41 38
19 42 39
20 44 40
21 45 41
21 45 41
21 47 42
22 48 43
21 47 43
22 48 44
22 48 44
21 47 43
22 48 43
21 47 43
22 48 44
21 45 41
21 47 43
45 49 57
84 61 91
102 67 107
103 68 109
179 153 154
238 212 193
234 209 191
230 205 188
224 201 185
214 192 176
177 161 148
89 89 82
21 47 43
21 46 42
21 46 42
22 48 44
22 47 43
21 47 43
21 47 43
21 47 42
21 46 41
22 48 43
21 46 42
21 46 42
21 47 43
21 47 43
22 47 43
21 47 43
20 45 41
21 46 42
21 46 42
21 45 41
21 46 42
21 47 43
22 47 43
21 47 43
21 46 42
21 47 43
21 46 42
20 45 41
21 46 42
21 46 42
21 47 43
22 48 43
21 46 42
21 46 42
21 47 43
20 45 41
23 49 45
23 50 45
23 50 45
23 50 45
22 48 44
22 49 44
22 48 44
22 48 43
24 52 47
23 50 45
22 48 44
22 49 44
22 49 44
23 50 45
23 51 46
22 48 43
22 48 44
22 49 44
23 50 45
23 50 45
22 49 44
23 50 45
23 50 45
23 50 45
23 50 45
22 49 44
22 49 44
23 50 45
22 49 44
22 49 44
23 50 45
22 49 44
22 48 43
22 49 44
22 49 44
23 49 44
22 49 44
22 49 44
23 50 45
22 48 43
22 48 43
22 48 44
22 48 44
22 49 44
23 50 45
23 50 45
23 50 45
22 49 44
23 50 45
23 50 45
23 49 44
22 48 43
21 47 42
22 48 44
22 48 43
22 49 44
22 49 44
22 49 44
23 49 45
22 49 44
22 48 43
22 48 43
22 48 43
22 49 44
22 49 44
22 48 43
21 47 42
22 48 44
22 48 43
22 47 43
23 50 45
22 47 43
22 47 42
22 48 44
22 47 43
23 49 44
21 47 43
23 49 45
22 48 44
22 48 44
22 49 44
22 48 43
23 49 45
22 48 43
22 49 44
22 48 43
23 49 45
21 47 42
21 47 42
22 48 43
22 47 42
22 48 44
22 47 42
22 48 44
22 47 42
22 48 43
22 47 42
22 48 43
21 46 41
22 47 42
21 45 41
21 44 40
23 48 43
22 46 42
21 44 40
21 45 40
21 45 40
21 44 39
20 42 37
19 41 36
18 38 34
23 30 26
34 30 22
46 43 31
40 42 30
37 40 29
45 45 33
44 44 32
42 43 31
36 40 29
26 35 26
22 30 22
15 26 21
11 22 20
11 25 24
11 26 25
12 26 25
12 28 27
13 30 29
13 30 28
13 31 30
14 33 32
15 35 33
17 38 35
19 42 38
19 41 38
20 44 41
20 44 40
20 44 40
21 46 42
21 46 42
21 47 42
21 47 42
22 48 43
21 47 42
21 47 43
21 47 42
22 47 43
22 48 44
21 47 43
25 47 44
73 57 80
102 67 107
105 69 110
104 69 111
103 68 110
216 190 179
237 212 194
234 210 192
230 206 190
225 203 187
221 199 183
216 194 179
207 187 173
148 136 126
37 54 49
20 45 41
22 49 44
21 46 42
20 45 41
21 47 42
21 46 42
21 46 42
21 47 43
22 48 43
21 46 42
21 47 42
21 47 43
22 48 44
21 47 43
21 47 43
21 46 42
21 46 42
22 47 43
22 49 44
21 47 42
21 47 43
21 46 42
22 48 44
21 47 43
21 47 43
21 47 43
21 46 42
21 46 42
21 46 42
22 47 43
21 45 41
21 45 41
21 46 42
21 46 42
23 49 44
22 49 44
22 49 44
23 49 45
22 49 44
22 49 44
23 50 45
22 49 44
22 49 45
23 49 45
23 51 46
23 50 45
22 49 44
23 50 45
22 47 43
22 48 44
23 50 45
22 49 44
23 51 46
23 49 44
22 48 43
23 49 45
22 49 44
22 49 44
23 50 45
23 50 45
23 50 45
23 50 45
23 50 45
22 49 44
23 50 45
22 49 44
22 48 43
22 49 44
22 48 43
23 49 45
22 48 44
22 49 44
24 52 47
23 50 45
23 50 45
22 49 44
22 49 44
23 49 45
22 49 44
23 50 45
22 48 44
23 51 46
22 48 44
22 49 44
23 51 46
22 49 44
23 50 45
22 48 44
22 49 44
22 48 44
22 49 44
23 50 45
22 49 44
23 50 45
22 49 44
22 48 44
23 50 45
22 49 44
23 50 45
23 49 44
22 48 44
22 48 43
22 49 44
22 48 44
22 49 44
22 48 44
22 48 43
23 51 46
23 49 44
22 49 44
22 48 43
22 48 43
22 47 43
22 48 44
22 49 44
22 47 42
22 47 42
22 49 44
22 47 43
22 47 42
21 47 43
22 48 43
22 48 43
23 49 44
23 50 45
22 47 43
22 47 42
22 48 44
23 50 45
21 46 42
22 47 43
22 47 43
21 46 41
22 47 43
22 47 43
23 48 43
21 45 40
21 45 40
22 47 42
21 44 40
20 43 38
21 44 39
21 44 39
20 43 38
19 41 36
17 35 31
11 24 21
12 18 15
28 25 19
33 33 24
35 35 25
27 32 24
34 35 26
26 28 21
16 21 16
8 18 17
9 21 19
10 23 22
11 24 23
11 25 24
12 27 26
13 31 29
13 30 29
13 30 28
14 32 30
16 36 34
16 37 34
18 41 38
19 42 38
19 43 39
21 46 42
21 46 42
21 47 42
21 46 41
21 46 42
21 47 43
22 48 43
21 47 43
21 45 41
22 47 43
21 47 43
21 47 43
22 48 43
28 47 46
91 62 94
105 68 109
106 69 111
105 69 112
104 69 111
103 68 111
221 195 183
237 212 194
234 210 192
229 206 190
226 203 187
221 199 184
216 195 180
210 190 176
202 183 171
163 149 139
38 55 50
22 47 43
21 47 43
21 45 41
21 46 42
21 46 42
22 47 43
21 47 42
21 47 43
21 47 42
22 48 43
21 47 43
21 46 42
21 47 43
21 46 42
20 45 41
21 47 43
22 47 43
21 47 43
21 45 41
21 46 42
21 46 42
21 46 42
21 46 42
22 48 44
21 46 42
20 45 41
21 46 42
21 46 42
21 47 43
21 45 41
21 47 43
20 45 41
21 47 43
23 49 45
22 48 43
22 49 44
23 50 45
22 49 44
23 50 46
22 48 43
23 49 44
22 48 43
23 50 45
23 50 45
23 49 44
23 49 45
22 49 44
23 50 45
23 51 46
23 50 45
22 48 44
23 50 45
24 52 47
23 50 45
22 49 44
23 50 45
23 50 45
23 50 45
23 51 46
23 50 45
22 48 44
22 48 43
23 50 45
23 50 45
23 49 45
23 50 45
22 49 44
23 49 44
22 49 44
22 49 44
23 51 46
23 50 45
22 48 43
23 50 46
22 49 44
22 49 44
23 50 45
23 50 45
23 50 46
22 48 43
22 49 44
23 50 45
22 49 44
22 49 44
22 49 44
23 49 45
23 50 45
22 49 44
22 48 43
22 48 44
22 48 43
23 49 45
22 48 43
23 49 45
22 48 43
21 47 42
23 49 45
22 48 44
23 50 45
23 50 45
23 49 44
22 47 43
22 49 44
22 49 44
23 49 45
23 50 45
23 50 45
22 48 44
23 50 45
23 50 45
22 48 44
22 49 44
22 49 44
23 50 45
22 48 43
22 48 43
23 49 45
22 48 44
21 46 42
22 49 44
22 48 43
22 48 43
22 48 43
22 48 43
22 48 44
22 48 43
22 47 42
22 47 42
22 47 42
22 47 42
22 47 42
22 47 42
22 47 42
22 47 42
21 45 40
21 46 41
22 46 41
21 46 41
22 46 41
20 43 39
20 43 38
20 43 38
20 43 38
20 41 36
19 40 35
17 35 31
12 27 24
10 21 19
7 17 15
6 14 13
6 14 13
7 17 15
7 15 14
7 17 16
9 20 19
9 21 20
10 24 23
11 26 25
12 27 26
13 29 28
13 29 28
14 31 30
15 33 31
16 35 33
17 37 34
19 41 38
19 42 38
20 44 40
21 46 42
20 45 40
21 46 42
22 48 43
21 45 41
22 48 43
21 47 43
22 48 43
22 48 44
21 46 41
22 48 44
21 45 41
22 48 44
20 45 41
81 58 85
103 67 107
107 69 111
107 70 112
105 69 111
104 69 111
103 68 110
213 187 177
236 211 194
233 209 192
229 206 189
224 202 187
220 199 184
214 194 180
210 190 176
205 185 172
190 173 162
148 137 128
39 56 51
22 47 43
21 47 43
21 47 42
21 47 43
21 47 43
22 48 43
21 47 43
21 46 42
23 50 45
21 46 42
21 47 43
21 47 43
21 47 43
21 46 42
21 47 42
22 47 43
21 46 42
21 46 42
21 46 42
20 44 41
21 47 43
21 45 41
22 48 44
21 46 42
21 46 42
21 46 42
21 46 42
21 47 43
21 46 42
22 48 43
22 48 44
20 45 41
22 48 44
23 50 45
23 50 45
23 49 44
22 49 44
22 49 44
23 51 46
22 49 44
22 48 44
22 49 44
23 50 45
23 49 44
22 48 44
22 48 44
23 50 45
23 50 45
23 50 45
22 49 44
23 50 45
22 49 44
23 50 45
22 49 44
22 48 43
22 49 44
23 50 45
22 48 43
23 50 45
22 48 43
22 49 44
23 50 45
22 48 43
23 51 46
22 49 44
22 49 44
22 48 44
22 49 44
22 49 44
22 49 44
21 47 42
23 51 46
22 49 44
23 50 46
22 48 44
22 48 43
22 48 44
22 48 43
23 50 45
22 48 43
23 49 44
23 50 45
23 50 45
22 48 43
22 49 44
23 51 46
22 49 44
23 51 46
23 49 44
23 49 45
22 49 45
22 48 44
23 50 45
22 49 44
22 49 44
22 48 43
22 49 44
22 48 43
22 48 44
22 48 43
22 47 43
22 49 44
22 48 44
22 48 44
22 47 42
22 49 44
22 49 44
22 48 43
23 49 44
21 47 42
23 49 44
22 49 44
23 49 45
22 49 44
22 49 44
22 49 44
22 48 44
23 49 45
22 47 42
22 47 43
23 49 44
22 48 43
22 47 43
22 49 44
22 48 43
21 47 42
22 47 43
22 48 43
22 47 42
23 49 44
22 47 42
22 47 43
22 47 43
22 46 41
20 44 39
21 46 41
21 45 40
22 47 42
21 44 39
21 44 39
21 44 39
20 43 38
20 42 37
20 42 37
20 42 37
18 39 35
17 36 31
14 30 26
13 29 26
10 23 21
11 24 22
9 22 20
10 23 21
10 24 23
11 26 24
12 26 25
12 28 26
14 31 29
14 33 31
15 34 32
16 35 33
17 39 36
18 39 36
20 43 40
20 44 40
20 44 40
21 46 42
21 46 41
21 45 41
21 46 42
22 47 43
21 46 42
21 46 41
22 47 43
22 47 43
21 47 42
20 45 41
21 46 42
21 46 41
21 46 42
63 55 71
100 65 102
104 68 108
106 69 111
106 70 111
106 71 112
112 79 115
114 81 116
185 160 159
235 210 193
231 207 191
227 204 188
224 201 186
219 198 183
214 193 179
209 189 176
203 184 171
196 178 167
171 157 147
110 107 101
21 46 42
22 49 44
22 48 43
20 45 40
22 48 44
22 48 43
21 47 42
21 47 43
21 46 42
21 46 42
20 45 41
21 46 42
22 48 43
21 47 43
22 48 43
22 49 44
21 46 42
21 47 43
21 47 42
21 46 42
21 47 43
21 46 42
21 47 42
21 46 42
21 46 42
21 47 42
21 47 43
21 47 43
22 49 44
21 47 43
20 45 41
20 45 41
22 49 44
22 48 43
23 50 45
22 48 43
22 48 44
23 51 46
23 50 45
23 50 45
23 51 46
22 49 44
22 49 44
24 52 47
23 50 46
22 48 44
23 49 45
22 48 44
23 49 44
22 49 44
22 49 44
23 51 46
23 49 45
22 49 44
23 50 45
22 49 44
23 50 45
23 51 46
22 49 44
22 49 44
23 50 45
22 49 44
23 50 45
22 47 43
23 50 45
23 50 45
22 48 43
22 48 43
23 50 46
22 48 44
22 49 44
22 48 43
23 50 46
23 49 45
22 48 43
23 49 45
21 47 42
22 49 44
22 49 44
23 50 45
23 50 45
23 50 45
22 48 43
22 49 44
22 49 44
23 50 45
22 48 44
22 48 43
23 50 45
23 50 45
23 49 45
21 47 42
22 48 43
22 49 44
23 50 45
23 50 45
23 50 46
22 49 44
21 47 42
22 49 44
23 49 45
22 49 44
22 49 44
22 48 43
21 46 42
22 48 43
22 49 44
23 50 45
22 49 44
21 46 42
22 48 43
21 46 42
22 47 42
22 48 43
22 48 43
23 50 45
23 49 44
22 49 44
22 48 44
22 48 43
22 49 44
22 48 44
23 50 45
22 47 43
22 48 43
21 45 40
22 49 44
22 49 44
22 49 44
23 49 44
23 49 44
21 47 42
22 47 43
21 47 42
22 47 42
22 47 42
22 47 42
21 45 40
21 46 41
21 45 41
21 44 39
21 44 39
21 46 41
21 45 40
20 43 38
20 42 37
18 39 35
19 40 35
19 41 36
18 38 33
17 38 34
17 37 34
16 34 30
16 35 32
16 36 33
17 36 33
17 37 33
18 40 36
18 40 36
19 41 37
20 43 39
21 45 41
20 44 40
21 45 41
21 46 42
21 46 42
21 47 42
22 48 43
21 46 41
21 46 42
21 47 42
21 46 42
21 46 41
22 47 43
21 46 42
22 47 42
21 47 43
21 46 42
21 45 41
27 47 45
95 62 96
102 66 104
103 67 107
106 69 110
107 70 111
122 90 121
169 141 151
161 133 146
158 132 142
234 209 192
230 206 189
226 203 187
222 200 184
218 196 181
213 192 178
207 188 175
203 184 170
192 175 164
178 163 152
150 140 132
54 63 58
22 48 44
22 48 43
22 48 44
21 47 43
22 48 43
22 48 43
21 46 42
21 46 42
21 47 43
21 46 42
21 46 42
21 46 42
21 46 42
20 45 41
20 45 41
22 48 43
21 47 42
21 46 42
21 46 42
21 46 42
21 46 42
21 46 42
22 48 44
21 46 42
21 46 42
21 47 43
21 46 42
21 46 42
22 47 43
21 47 42
21 46 42
23 49 45
22 49 44
23 49 45
23 51 46
23 51 46
22 49 44
22 49 44
22 48 43
23 51 46
23 51 46
22 49 44
24 52 47
22 48 44
22 48 43
23 51 46
22 48 43
22 49 44
22 49 44
23 50 45
22 49 44
23 50 45
22 49 44
23 50 45
23 50 45
23 50 45
23 51 46
22 49 44
22 49 44
22 47 42
21 47 43
23 50 45
23 49 45
23 51 46
22 48 43
22 48 44
22 48 43
23 51 46
22 48 44
22 49 44
23 49 45
22 48 44
23 50 45
23 50 45
23 51 46
22 49 44
23 50 45
22 49 44
22 49 44
23 50 45
22 49 44
22 48 43
22 49 44
22 47 43
22 48 44
23 50 45
23 50 45
22 48 44
23 50 45
22 49 44
22 48 43
22 47 43
23 49 45
23 50 45
22 49 44
23 50 45
22 49 44
22 48 44
22 48 43
22 49 44
22 49 44
22 49 44
23 50 45
22 48 43
22 47 43
22 49 44
22 47 43
22 49 44
22 49 44
22 48 43
23 49 45
22 47 43
22 47 43
22 48 43
22 49 44
22 49 44
22 49 44
22 48 44
22 48 43
22 48 44
23 49 45
22 47 43
22 48 43
23 50 45
22 47 42
22 48 44
22 47 43
21 46 42
22 47 42
22 48 43
21 47 42
22 48 43
21 46 41
22 47 42
21 46 42
21 46 42
22 47 42
21 46 41
21 46 41
21 45 40
21 45 41
21 46 41
21 46 41
21 44 39
21 45 40
20 43 39
21 46 41
20 44 38
21 45 40
20 43 38
20 44 39
20 43 39
20 44 39
21 45 40
20 44 39
20 43 39
21 45 41
21 45 40
20 44 40
21 46 41
20 44 40
21 45 40
21 46 42
21 46 42
21 45 41
22 47 43
21 47 42
22 47 43
21 45 40
22 48 43
21 46 42
20 45 41
22 47 43
21 46 42
21 46 41
21 47 42
21 45 41
21 47 42
70 62 71
97 63 99
99 64 101
102 66 105
103 67 107
109 74 112
151 122 139
208 180 177
179 151 157
118 88 118
218 194 180
229 205 188
224 201 185
220 198 183
215 194 180
211 191 176
205 186 173
201 181 168
191 172 160
176 160 150
156 145 137
112 108 101
21 46 42
21 47 42
20 45 41
21 46 42
20 44 40
22 48 44
21 46 42
20 45 41
21 47 42
21 47 42
20 45 41
21 47 43
21 46 42
21 47 42
21 47 43
21 47 43
21 47 43
22 47 43
21 47 43
21 46 42
22 49 44
22 48 44
21 46 42
21 46 42
21 47 42
20 45 41
21 46 42
21 45 41
20 45 41
21 46 42
22 48 44
23 51 46
23 50 45
23 50 45
23 50 45
22 49 44
23 51 46
23 50 45
22 49 44
23 49 45
23 49 44
22 48 43
24 52 47
23 50 45
22 49 44
23 50 45
23 50 45
22 48 44
23 49 45
23 49 45
22 49 44
23 49 44
23 50 45
23 49 44
22 49 44
23 49 44
24 52 47
23 49 45
24 51 46
22 49 44
23 50 46
23 49 44
23 50 45
22 49 44
22 49 44
23 50 45
22 49 44
23 50 45
23 49 45
23 51 47
23 50 45
22 49 44
23 50 45
22 48 44
22 49 44
23 50 45
23 50 45
22 47 43
23 51 46
23 51 46
23 49 44
22 49 44
22 49 44
23 49 45
22 49 44
22 47 43
23 50 45
23 50 45
23 49 45
22 48 44
22 49 44
23 50 45
23 50 45
23 50 46
22 49 44
22 48 44
22 49 44
23 50 45
22 49 45
23 49 44
22 48 43
22 49 44
22 48 43
22 48 43
22 48 44
22 49 44
22 49 44
22 48 43
22 48 43
22 49 44
23 50 45
21 46 42
22 49 44
22 48 43
22 47 43
22 47 43
21 47 42
23 49 44
21 47 42
22 49 44
22 48 44
21 47 42
22 48 44
22 49 44
21 46 42
22 48 43
22 48 43
22 47 42
21 46 41
22 48 43
22 48 43
22 48 43
22 48 43
21 45 41
22 48 43
22 48 43
21 46 41
21 46 41
21 46 41
21 45 40
20 43 38
21 45 40
21 46 41
21 46 41
22 47 42
20 43 39
21 46 41
21 45 40
22 47 42
20 44 40
21 46 41
21 45 40
21 46 41
21 46 41
21 46 42
21 45 40
22 47 42
21 46 42
21 46 42
21 46 41
20 44 40
21 47 42
21 45 41
21 46 41
22 48 43
21 45 41
21 46 41
21 47 42
21 47 42
21 46 42
21 46 41
21 46 42
21 47 43
21 46 42
21 47 42
21 46 42
21 47 42
22 48 43
129 107 109
96 62 98
98 64 101
102 66 106
103 67 108
105 71 109
130 99 124
151 123 138
129 99 124
103 71 108
173 148 149
227 203 186
223 200 183
218 196 181
215 193 178
211 189 174
205 183 169
198 178 165
186 169 157
174 158 148
150 138 130
130 122 115
20 44 40
21 46 42
21 47 43
21 45 41
22 48 44
22 48 44
22 48 44
21 46 42
20 45 41
21 46 42
21 45 41
21 46 42
21 46 42
21 46 42
21 46 42
21 47 42
21 46 42
21 47 43
22 47 43
21 46 42
21 47 43
21 46 42
21 46 42
21 45 41
20 45 41
22 47 43
21 46 42
21 46 42
21 47 43
21 46 42
21 46 42
22 48 43
22 49 45
22 48 44
23 49 44
23 50 45
23 51 46
22 47 43
23 49 45
22 49 44
23 51 46
22 49 44
23 50 45
23 51 46
23 50 45
23 50 45
22 49 44
24 51 46
23 49 45
22 49 44
22 48 43
22 48 43
23 49 44
22 49 44
22 47 43
23 50 45
22 48 43
23 51 46
22 48 43
22 49 44
22 49 44
23 50 45
23 51 46
23 50 45
23 50 45
23 49 45
22 49 44
23 50 45
23 49 45
23 49 45
22 49 44
23 49 44
22 49 44
23 50 45
23 50 45
22 49 44
22 47 43
23 50 45
22 48 43
23 49 44
23 50 45
23 51 46
22 48 43
22 48 44
22 48 44
22 49 44
22 48 43
23 50 45
22 48 44
23 50 45
22 48 43
23 50 45
22 48 43
22 48 43
23 50 45
22 48 44
22 48 44
22 48 43
23 50 45
23 50 45
23 50 46
23 50 45
21 47 42
23 50 45
22 48 44
22 49 44
22 49 44
23 50 45
22 49 44
22 49 44
22 49 44
22 49 44
22 48 44
22 48 43
22 49 44
22 48 44
22 48 43
22 48 44
23 49 45
23 49 45
22 48 43
22 47 43
21 47 42
22 48 43
22 48 43
23 50 45
22 48 43
22 47 43
22 47 43
21 46 42
22 48 43
22 47 42
22 48 43
22 48 44
22 47 42
22 47 42
22 48 43
21 46 41
21 46 41
21 46 42
21 47 42
22 47 42
22 47 42
21 45 41
20 44 39
21 46 41
21 45 41
21 46 41
21 46 41
21 46 41
21 45 40
21 46 42
21 45 40
21 46 41
21 46 42
21 45 41
22 47 43
21 45 40
21 45 40
22 49 44
21 46 41
22 48 43
21 46 42
21 46 41
21 45 41
22 47 43
21 47 42
21 45 40
21 46 41
21 46 42
22 47 43
21 47 42
21 46 42
22 48 43
21 46 42
21 46 41
21 46 42
34 50 45
152 126 122
92 60 94
96 62 98
97 63 100
100 65 103
99 65 103
103 69 106
105 72 108
101 68 106
98 65 105
109 80 110
218 193 178
221 197 181
217 194 178
212 191 175
206 185 171
200 178 164
194 173 160
180 162 151
166 149 139
153 139 131
141 129 120
47 58 53
21 46 42
21 46 42
21 46 42
21 47 43
21 46 42
21 46 42
21 47 42
21 47 42
21 47 43
21 47 43
21 46 42
21 47 43
21 47 43
21 45 41
22 48 44
21 47 43
21 47 43
21 45 41
21 46 42
21 47 43
21 47 43
21 47 43
21 46 42
21 46 42
21 47 42
21 46 42
21 47 43
21 46 42
20 45 41
21 47 43
23 51 46
23 50 45
23 50 45
22 48 43
23 51 46
23 50 45
23 50 45
23 50 46
22 48 44
23 50 45
23 51 46
23 51 46
22 48 43
23 50 45
23 50 45
23 50 45
23 49 45
23 50 45
23 50 45
22 49 44
23 50 45
22 49 44
22 49 44
23 51 46
22 49 44
22 49 44
23 50 45
22 49 44
22 48 43
23 49 45
23 49 44
23 50 45
22 48 44
23 50 45
22 49 44
23 50 45
21 46 42
23 50 45
23 49 45
22 49 44
23 49 45
23 50 45
23 49 45
23 51 46
23 50 45
23 50 45
22 49 44
22 48 44
22 49 44
22 48 43
22 48 43
22 48 44
22 49 44
22 49 44
22 48 43
23 50 45
23 50 45
22 48 44
22 49 44
22 48 43
23 50 45
22 48 44
22 48 43
22 49 44
23 50 45
23 50 45
22 48 43
23 50 45
22 49 44
22 49 44
23 49 44
22 49 44
22 49 44
22 48 44
23 49 44
21 47 42
22 48 44
22 48 43
22 48 43
21 47 43
23 50 45
22 47 43
21 46 42
22 48 43
22 48 43
22 48 43
23 49 45
22 47 43
23 49 45
23 49 45
22 49 44
22 48 44
22 49 44
22 47 42
22 49 44
23 50 45
22 48 44
22 48 43
22 49 44
22 47 42
21 47 42
22 47 43
22 47 43
22 47 42
22 47 42
22 47 42
22 48 43
22 48 43
21 47 42
22 48 43
22 47 42
21 45 40
22 48 43
21 46 41
22 47 42
21 46 41
22 47 42
22 48 43
21 45 40
21 46 42
22 48 43
22 47 43
22 47 43
21 46 42
21 47 42
21 46 41
22 47 42
21 46 42
21 46 41
21 47 42
22 47 43
22 47 43
22 47 43
22 48 43
21 46 41
21 45 41
22 47 43
22 48 43
22 47 43
20 45 41
21 46 42
21 46 42
21 46 41
21 47 43
22 48 44
21 46 41
61 66 58
174 148 136
89 58 90
92 60 94
94 61 96
96 63 99
96 63 101
96 63 100
98 64 103
95 62 100
96 63 102
94 62 100
161 138 140
216 193 176
210 188 172
207 184 169
200 178 164
192 171 158
188 167 155
168 152 141
161 144 134
153 139 130
138 126 118
73 76 70
21 47 43
21 47 42
21 46 42
21 45 41
21 46 42
22 48 44
21 46 42
21 46 42
21 47 43
21 46 42
20 44 40
20 45 41
21 47 42
22 49 44
21 46 42
22 48 43
21 46 42
21 47 43
21 46 42
20 45 41
21 46 42
22 48 43
21 47 43
22 48 43
21 47 42
21 47 43
21 47 42
21 45 41
20 44 40
21 45 41
23 50 45
23 50 45
22 49 44
22 48 43
23 50 45
22 49 44
22 49 44
23 50 45
23 49 45
23 50 45
23 51 46
23 49 44
23 50 45
22 48 43
23 50 45
23 50 45
23 50 45
22 48 43
22 49 44
23 51 46
22 49 44
22 48 44
23 50 45
22 48 43
23 50 46
23 51 46
23 50 45
23 50 45
22 48 44
23 50 45
23 50 45
23 50 45
22 49 44
23 50 45
23 50 45
22 49 44
23 50 45
22 49 44
24 52 47
23 50 45
22 48 43
23 50 45
23 50 45
23 49 45
23 50 45
23 50 45
22 48 44
22 48 43
22 48 43
23 51 46
22 49 44
22 48 44
21 47 42
23 49 45
22 49 45
21 47 42
23 50 45
22 49 44
22 48 44
22 48 43
22 48 44
22 48 43
22 48 44
22 48 43
23 50 45
22 48 44
22 49 44
23 50 45
22 48 43
22 48 43
23 50 45
21 47 42
22 49 44
22 48 43
22 48 43
23 49 45
23 50 45
22 47 43
23 49 44
22 49 44
22 48 43
21 47 42
22 49 44
22 48 44
22 48 43
22 48 43
22 48 43
22 49 44
22 47 43
22 48 44
22 48 43
23 50 45
21 46 42
22 47 43
22 47 43
22 49 45
22 48 44
22 48 44
22 49 44
22 48 43
22 47 43
22 48 43
22 48 43
22 47 42
23 49 44
23 49 44
22 48 43
21 46 41
22 47 43
22 47 43
21 46 41
21 46 42
21 46 41
22 48 44
21 46 42
21 46 41
21 45 40
22 48 43
22 47 43
21 46 41
21 46 41
21 46 41
22 48 43
21 46 41
21 46 41
22 49 44
21 46 42
21 46 42
21 46 41
22 47 43
21 46 41
21 47 42
22 49 44
22 48 43
21 47 42
22 47 42
22 48 44
22 47 43
21 47 42
21 47 42
22 47 43
21 46 42
21 46 42
21 47 42
22 47 43
21 45 41
73 74 64
185 159 139
94 64 92
90 58 91
91 59 93
91 59 94
94 62 98
94 62 99
92 61 97
91 60 96
91 60 96
89 59 94
92 62 97
188 166 155
197 175 160
197 176 162
188 168 154
182 162 149
175 154 141
165 147 137
148 134 125
139 126 118
131 119 111
59 66 61
21 46 42
21 46 42
20 45 41
21 46 42
22 48 44
21 46 42
22 48 43
21 46 42
21 46 42
20 45 41
21 47 43
21 46 42
22 47 43
21 47 43
21 45 41
21 46 42
21 45 41
21 46 42
22 48 43
21 46 41
21 47 43
21 47 43
21 46 42
21 46 42
21 47 43
21 45 41
22 47 43
21 46 42
21 45 41
21 46 42
23 50 45
23 50 45
23 49 44
23 50 45
23 50 45
22 48 43
23 49 45
24 51 46
23 50 45
24 52 47
23 50 45
22 48 43
22 49 44
22 49 44
23 50 45
23 50 45
23 50 45
23 51 46
23 50 45
22 49 44
23 51 46
22 48 44
22 49 44
22 49 44
23 49 45
23 50 45
23 50 45
22 49 44
23 50 45
23 50 45
23 50 46
22 49 44
22 49 44
23 50 45
22 48 43
23 50 45
22 48 44
23 50 45
22 49 44
22 48 44
22 48 44
23 51 46
22 48 44
22 49 44
23 51 46
22 49 44
23 50 45
23 50 45
23 49 45
23 51 46
22 48 43
22 48 44
22 49 44
23 51 46
22 49 44
23 51 46
23 51 46
22 48 43
21 47 43
22 48 44
22 49 44
22 49 44
22 49 44
22 48 43
22 48 43
22 48 44
23 49 45
22 49 44
22 49 44
22 49 44
22 49 44
22 49 44
23 50 45
22 48 43
22 48 43
23 51 46
22 49 44
23 50 45
22 49 44
21 47 42
23 49 45
22 49 44
22 49 44
22 49 44
22 48 43
22 47 43
23 50 45
22 48 44
22 48 44
22 48 44
22 47 42
22 47 42
22 48 44
22 48 43
23 49 44
22 48 43
22 48 43
21 47 43
22 48 43
22 48 43
23 50 45
22 48 43
22 48 44
22 48 44
22 47 43
22 47 43
22 47 43
22 48 43
22 48 43
22 48 43
22 47 43
21 45 41
22 49 44
22 47 42
21 46 41
22 49 44
22 48 43
22 47 43
22 48 43
21 47 42
22 48 44
21 47 42
21 47 42
22 47 43
23 49 45
22 47 43
22 48 43
22 47 43
21 47 42
22 47 43
21 46 42
21 46 42
21 46 42
22 47 43
22 47 43
21 46 41
22 47 43
21 46 41
21 46 41
21 47 42
21 46 42
21 46 41
21 46 42
22 48 43
22 48 44
21 45 41
59 65 57
181 157 136
114 90 98
86 56 87
88 57 90
88 57 90
89 58 92
90 59 93
88 58 92
89 58 93
87 57 92
85 56 90
84 56 90
115 93 107
188 166 152
185 164 149
181 161 148
172 151 138
163 145 134
149 133 125
138 124 115
134 122 113
127 115 107
59 65 60
21 45 41
22 48 43
22 48 44
21 45 41
21 46 42
22 48 44
22 48 43
22 48 43
20 45 41
21 47 43
21 47 43
22 48 44
22 49 44
22 47 43
22 48 43
20 44 40
21 46 42
21 46 42
21 46 41
22 48 44
22 47 43
20 44 40
21 46 41
21 47 42
21 47 43
21 46 42
21 46 42
21 46 42
21 47 43
20 44 40
23 50 45
23 49 44
23 50 45
23 50 45
23 50 45
23 51 46
22 48 44
23 49 44
22 49 44
22 48 43
22 48 43
23 49 45
23 50 45
23 49 45
23 51 46
23 51 46
23 50 45
23 51 46
23 50 45
22 48 44
23 49 45
23 50 45
22 48 44
23 49 45
23 50 45
22 49 44
24 52 47
23 50 45
23 50 46
23 50 45
23 50 45
22 49 44
23 50 45
23 49 45
23 49 45
24 51 46
22 49 44
22 48 43
22 48 44
23 50 45
23 50 45
23 50 45
22 48 43
23 50 46
23 50 45
22 49 44
22 49 44
22 49 44
22 49 44
22 47 43
22 49 44
23 50 45
22 48 44
22 49 44
23 50 45
23 51 46
23 50 45
22 49 44
22 48 43
23 50 46
22 49 44
21 47 42
22 49 44
23 50 45
23 50 45
22 49 44
23 49 45
22 49 44
22 48 44
22 48 43
22 47 43
23 49 44
21 47 42
23 50 45
22 49 44
22 47 43
22 49 44
22 48 44
22 48 43
22 49 44
22 48 43
22 48 43
22 48 43
23 49 44
23 50 45
23 49 44
22 49 44
23 50 45
23 50 45
22 48 43
22 48 43
22 47 43
21 47 43
22 49 44
23 50 45
22 48 43
22 47 43
21 47 42
21 46 42
22 48 44
22 48 43
22 49 44
22 48 44
22 47 42
21 46 42
23 49 44
22 48 43
22 48 43
22 48 43
21 47 42
22 48 44
21 46 41
21 47 42
22 48 43
22 48 43
21 46 42
21 46 42
21 47 42
22 48 43
23 49 44
22 48 44
21 47 42
22 47 43
22 49 44
22 48 43
22 48 43
22 48 43
21 47 42
21 46 42
22 48 43
22 49 45
21 46 41
21 46 42
21 47 42
21 47 42
21 45 41
21 46 41
22 48 43
21 46 42
22 48 44
21 46 42
21 46 41
21 46 42
21 47 42
22 48 43
21 46 41
35 51 46
169 147 128
160 137 124
81 52 82
81 53 82
83 54 85
82 53 84
83 54 86
84 55 87
85 55 88
82 54 86
83 55 88
80 53 85
80 53 85
128 108 112
174 153 139
169 149 136
156 139 128
145 130 121
133 120 112
131 119 111
123 114 105
116 107 99
51 61 56
20 44 40
20 43 39
22 48 43
21 46 42
20 44 40
21 47 43
21 45 41
21 46 41
21 46 42
21 45 41
20 45 41
22 48 44
21 47 43
21 47 43
22 48 44
21 46 42
21 47 43
21 45 41
21 46 42
21 46 42
21 46 42
21 47 43
20 45 41
21 46 42
21 47 42
22 48 43
20 45 41
21 46 42
21 47 43
21 47 43
22 48 43
22 48 44
22 49 44
22 49 44
24 51 46
23 51 46
23 49 45
23 49 44
23 50 45
22 48 43
22 49 44
23 50 45
23 50 45
22 49 44
22 49 44
22 49 44
23 50 45
22 48 44
22 48 44
23 49 44
23 50 45
22 49 44
22 47 43
23 51 46
22 48 44
23 51 46
22 48 43
22 49 44
22 48 44
23 49 45
23 51 46
23 50 45
23 50 45
23 50 45
23 50 45
23 50 45
23 49 45
23 50 45
23 49 45
23 50 45
23 50 45
23 51 46
22 48 43
22 48 44
24 51 46
22 49 44
22 48 43
21 47 42
23 49 44
23 50 45
23 50 45
22 48 43
22 49 44
22 49 44
23 50 45
23 51 46
23 49 44
22 49 44
22 48 43
23 50 45
22 48 44
22 47 43
23 50 45
23 51 46
22 49 44
22 49 44
22 49 44
22 49 44
23 50 45
22 48 43
22 48 43
22 48 43
23 49 45
23 50 45
21 47 42
22 47 43
23 50 45
22 49 44
23 49 45
22 48 43
22 48 43
23 49 44
22 48 44
23 50 45
22 47 43
21 47 42
22 49 44
22 49 44
22 48 44
22 47 43
22 49 44
22 47 43
22 49 44
23 50 45
22 48 44
23 49 44
22 47 43
21 47 42
22 48 43
22 48 43
22 49 44
22 49 44
22 48 44
22 49 44
22 48 43
22 49 44
23 50 45
21 46 42
22 48 43
22 49 44
23 49 45
22 48 43
23 51 46
21 47 42
21 47 42
22 49 44
21 47 42
21 46 42
21 47 42
21 46 42
22 48 43
22 48 44
22 48 44
22 49 44
22 47 43
22 47 43
22 48 43
21 47 42
21 47 42
21 46 42
21 46 42
22 48 43
21 45 41
23 49 45
22 47 43
21 47 42
22 47 43
21 46 42
21 47 43
21 46 42
22 47 43
21 45 41
21 46 41
22 47 42
21 45 40
22 48 43
21 46 41
123 110 94
170 147 128
92 68 84
77 50 78
78 51 80
77 50 78
80 52 82
79 51 82
80 52 83
76 50 80
75 50 79
73 48 77
70 46 74
70 47 76
120 100 101
148 129 116
141 127 118
143 129 120
130 116 107
124 113 104
115 101 91
98 90 83
19 42 38
19 43 39
19 42 39
19 43 39
20 44 40
20 44 40
20 45 41
20 44 40
20 45 40
21 46 42
21 46 42
21 47 43
20 43 39
21 46 42
21 46 42
20 45 41
21 46 42
21 47 43
21 47 43
21 46 42
23 50 45
21 47 43
21 47 42
20 45 41
21 46 42
21 46 42
20 45 41
21 47 43
21 47 43
21 46 42
21 46 42
23 50 45
22 49 44
22 49 44
23 50 45
23 50 45
23 50 45
22 48 44
22 48 44
23 50 45
22 49 44
23 49 44
23 51 46
23 50 45
23 50 46
23 49 44
23 50 45
23 51 46
22 49 44
23 49 44
23 50 46
23 50 45
23 49 45
23 49 44
23 50 45
23 50 45
23 50 46
23 51 46
22 48 44
22 48 44
22 47 43
23 49 45
24 52 47
23 50 46
23 50 45
23 50 45
23 49 45
23 50 45
23 50 45
22 49 44
22 48 44
23 50 45
23 50 46
22 48 44
22 49 44
23 51 46
23 50 45
22 49 44
23 49 44
22 49 44
22 48 43
23 50 45
22 49 44
22 47 43
23 49 45
23 49 44
23 49 45
22 49 44
22 48 43
23 49 44
23 50 45
22 49 44
23 50 46
22 49 44
22 48 43
22 47 43
22 49 44
22 49 44
23 50 45
22 49 44
23 50 45
23 50 45
22 48 43
22 48 44
23 50 45
23 49 45
22 48 44
22 48 43
23 50 45
23 49 44
23 50 45
22 48 44
22 49 44
21 47 42
22 47 43
22 49 44
22 49 44
22 49 44
22 49 44
23 49 44
22 49 44
22 49 44
22 49 44
21 46 42
22 48 43
21 47 42
22 47 43
23 49 44
23 49 45
22 47 43
22 48 44
23 50 45
22 48 44
21 47 43
21 46 42
21 46 42
22 48 43
22 48 44
22 48 44
22 48 43
21 47 42
22 47 43
22 47 42
21 46 42
21 46 41
23 50 45
22 49 44
21 46 42
22 48 44
21 47 42
22 48 43
22 47 43
21 46 42
22 49 44
22 49 45
21 47 43
21 46 42
22 47 42
22 49 44
21 46 42
22 48 44
21 46 41
22 48 44
22 47 43
21 45 41
22 48 43
22 47 42
22 48 43
21 46 41
22 47 43
21 46 41
21 46 41
21 46 42
21 46 41
22 48 43
21 46 41
21 45 40
20 44 39
88 83 72
146 127 108
144 123 113
68 44 68
73 47 74
73 48 75
71 46 73
74 49 77
72 47 75
71 47 75
69 46 73
64 42 67
66 43 70
60 40 64
61 40 65
104 90 89
121 108 99
118 106 97
118 103 94
117 106 97
106 94 85
68 67 61
17 38 36
17 38 35
18 40 37
18 40 37
19 42 39
18 41 38
19 42 38
20 44 41
20 43 40
21 46 42
20 44 40
21 47 42
21 45 41
21 46 42
21 46 42
21 46 42
21 47 43
22 48 43
21 46 42
22 47 43
21 46 42
20 44 40
21 47 43
21 47 43
21 46 42
21 46 42
21 46 41
21 46 42
20 44 40
21 46 42
21 46 42
23 50 45
23 50 45
23 49 45
23 49 45
23 49 44
23 50 45
23 50 45
23 50 45
23 50 45
23 50 45
23 50 45
22 49 44
22 49 44
23 49 45
22 48 43
22 49 44
22 49 44
23 50 46
22 48 43
22 49 44
23 50 45
23 50 45
23 51 46
21 47 42
24 52 47
23 50 45
22 49 44
22 49 44
23 50 45
22 49 44
22 48 44
22 49 44
22 49 44
23 50 45
22 48 43
22 48 43
23 50 45
22 48 43
23 49 45
22 48 44
23 50 45
23 49 44
22 48 44
22 49 44
23 50 46
22 48 44
23 50 45
22 48 43
22 49 44
22 48 43
22 48 43
23 50 45
23 50 45
23 50 45
23 49 45
23 50 45
21 47 42
22 48 43
23 50 45
22 49 44
23 50 45
23 49 45
22 49 44
22 49 44
23 49 45
24 52 47
23 50 45
22 48 44
22 49 44
22 48 44
22 49 44
22 48 44
23 51 46
22 47 42
23 50 46
23 50 45
23 51 46
23 49 45
23 49 44
22 48 43
22 48 43
22 48 44
23 49 45
22 49 44
22 49 45
22 48 44
22 49 44
21 46 42
22 48 44
21 46 42
22 49 44
22 48 43
22 48 44
22 48 43
22 47 43
22 48 44
22 47 43
22 47 43
22 49 44
22 49 44
22 47 43
22 48 44
22 48 43
22 47 42
22 48 43
21 46 42
22 47 43
22 47 42
22 49 44
22 48 44
22 49 44
22 49 44
22 47 43
22 47 43
22 48 43
23 49 45
22 48 43
22 48 44
22 49 44
21 46 41
21 46 42
22 47 43
21 46 42
22 49 44
21 47 42
22 49 44
21 46 42
23 49 44
21 47 42
22 47 43
22 48 43
21 46 42
21 47 42
21 47 42
22 48 43
21 45 41
21 46 41
22 47 43
21 46 41
21 46 41
21 46 42
21 46 41
20 44 40
21 46 41
20 44 39
21 45 40
21 45 40
25 45 40
120 106 91
140 122 104
87 69 74
64 42 65
68 44 69
64 42 65
64 42 65
66 43 68
63 42 67
62 41 65
59 39 62
58 39 62
53 35 56
51 33 54
45 30 48
69 57 65
105 88 79
114 99 90
101 91 82
93 81 72
38 45 42
14 34 32
15 34 33
15 35 33
16 37 35
17 39 36
18 40 38
19 42 39
18 41 38
19 42 39
20 43 40
19 42 39
21 47 43
21 46 42
20 45 41
21 46 42
21 46 42
21 47 43
22 48 43
21 46 42
20 44 40
20 45 41
21 47 42
22 48 44
21 46 42
22 49 44
22 49 45
22 47 43
21 46 42
21 46 42
21 47 43
21 46 42
23 50 45
22 49 44
22 48 43
22 48 43
23 50 45
23 51 46
23 50 45
22 48 43
24 52 47
23 51 46
22 48 44
23 50 45
22 48 43
22 49 44
22 48 44
22 48 44
23 50 45
23 49 44
23 49 44
23 50 45
22 49 44
23 50 45
22 48 43
23 50 45
23 49 45
23 51 46
23 49 45
23 51 46
22 49 44
22 47 42
23 50 45
22 49 44
23 49 44
22 48 43
23 49 45
22 49 44
22 49 44
23 50 45
23 50 45
22 47 43
22 49 44
23 50 45
22 49 44
23 50 45
22 49 44
22 48 43
23 49 45
23 50 45
22 48 44
23 49 44
22 49 44
22 48 43
22 49 44
23 49 45
22 48 43
23 49 45
23 49 45
22 48 43
23 49 44
22 49 44
23 49 45
22 48 44
22 48 43
22 47 43
22 49 44
22 48 43
22 48 43
22 48 43
22 47 43
22 48 43
23 50 45
23 50 45
22 48 43
22 49 44
22 48 43
22 48 43
22 47 43
22 49 44
22 48 44
22 49 44
22 49 44
22 49 44
23 49 44
22 49 44
23 49 45
23 50 45
22 48 44
22 47 43
22 49 44
22 48 43
22 48 43
22 49 44
22 48 44
23 50 45
23 50 45
23 51 46
22 47 43
22 47 43
22 48 43
21 47 42
21 46 42
22 49 44
22 49 44
22 49 44
22 49 45
22 47 43
23 50 45
22 49 44
22 48 43
21 47 43
22 49 44
22 49 44
22 48 43
21 46 42
21 46 42
22 47 43
22 48 44
23 49 44
21 46 42
22 48 43
22 48 44
21 47 42
21 47 43
22 47 43
21 46 42
21 46 41
22 49 44
22 48 43
21 47 42
22 48 44
22 48 43
21 46 41
22 48 43
22 49 44
21 46 41
22 48 44
21 46 41
22 48 43
23 50 45
21 46 41
21 45 41
22 47 42
22 47 42
21 45 41
21 46 41
21 45 40
21 44 39
20 43 39
58 61 53
118 104 89
120 104 90
59 41 57
55 36 55
60 39 61
53 35 54
57 38 60
55 36 57
51 34 54
50 34 55
48 32 52
43 30 48
41 26 41
41 28 45
44 29 46
42 26 40
59 50 51
55 49 48
39 39 40
13 30 29
14 32 31
14 32 31
14 33 31
14 34 32
15 34 32
16 37 34
17 38 35
18 40 38
18 41 38
19 43 40
19 43 39
20 45 41
20 44 40
21 46 42
21 47 43
21 45 41
20 45 41
21 47 43
21 46 42
21 46 41
21 46 42
21 46 42
21 46 41
21 45 41
22 48 44
22 48 44
22 48 43
21 47 43
21 46 42
21 46 42
21 47 43
22 48 44
23 51 46
23 51 46
24 51 46
23 50 45
22 48 43
22 48 44
22 49 44
22 49 44
22 48 43
24 52 47
23 51 46
23 51 46
23 50 45
22 49 44
22 48 43
23 49 44
23 50 45
22 49 44
23 50 45
23 51 46
23 49 45
22 48 44
22 49 44
22 49 44
23 51 45
23 51 46
22 49 44
23 50 45
23 50 45
22 48 43
22 48 43
22 49 44
22 49 44
23 50 45
23 50 45
23 49 45
22 48 44
23 50 45
23 50 45
23 49 45
22 49 44
23 50 45
22 49 44
22 49 44
23 50 45
21 47 42
23 51 46
23 50 45
22 49 44
23 50 45
23 50 45
23 51 46
22 49 44
22 49 44
22 49 44
23 50 45
22 49 44
23 51 46
22 49 44
21 46 42
22 48 43
23 50 45
23 51 46
23 50 45
22 49 44
22 49 44
22 48 44
22 49 44
23 50 45
22 49 44
22 48 44
23 50 45
22 49 44
23 50 45
22 48 44
23 50 45
23 50 45
21 46 42
22 47 43
23 49 44
22 49 44
23 49 45
22 48 43
22 48 44
22 48 43
22 49 44
22 49 44
22 47 43
23 50 45
22 48 44
23 50 45
23 50 45
22 49 44
22 48 43
22 49 44
22 49 44
22 47 43
21 46 42
23 49 45
22 48 44
23 50 45
22 48 44
22 48 44
23 50 45
22 48 43
22 47 43
21 47 43
22 48 43
22 47 43
22 47 42
22 49 44
22 47 43
23 49 44
21 46 42
22 48 43
22 48 43
22 47 42
22 48 43
21 46 42
22 49 44
22 48 43
22 48 43
23 50 45
22 47 43
22 47 43
21 46 41
22 47 43
22 49 44
21 46 42
22 47 43
22 47 42
20 44 40
20 44 40
21 46 41
22 47 43
22 47 43
22 47 43
22 47 42
22 47 42
21 46 41
21 46 41
21 45 40
21 45 40
21 44 40
21 45 40
20 44 39
21 44 39
20 44 39
56 58 49
91 81 68
83 71 64
46 30 47
47 31 48
45 30 46
45 30 47
39 27 42
41 28 45
37 26 41
34 24 39
39 26 42
33 21 34
35 22 35
36 23 37
34 23 35
35 22 34
24 21 28
13 29 28
14 32 30
13 31 30
13 30 29
14 33 32
14 33 32
14 33 31
15 35 34
15 34 33
17 38 35
18 40 37
18 41 38
19 42 39
19 43 39
20 44 40
20 44 40
21 47 43
21 46 42
21 47 43
21 46 42
21 46 42
21 46 42
21 46 42
21 47 43
21 45 41
21 47 42
21 45 41
20 45 41
21 46 42
21 47 42
22 49 45
21 47 43
21 47 42
23 50 45
23 50 45
23 51 46
22 48 44
23 50 45
22 49 44
21 47 42
22 48 43
22 49 44
23 50 45
23 50 45
23 51 46
23 51 46
24 52 47
23 49 45
23 51 46
23 49 45
23 51 46
23 50 45
22 49 44
23 49 44
23 50 45
24 52 47
22 48 43
23 51 46
23 50 45
23 50 45
22 49 44
22 49 44
23 51 46
22 49 44
22 49 44
23 51 46
23 50 45
22 49 44
22 49 44
22 49 44
22 49 44
23 50 45
22 49 44
22 48 43
22 48 43
23 50 45
23 49 45
23 49 45
22 49 44
23 50 45
24 51 46
22 48 44
23 49 45
23 50 45
22 48 44
23 50 45
22 48 44
22 49 44
23 49 45
23 50 45
24 52 47
22 47 43
22 48 43
23 51 46
23 50 45
23 51 46
22 49 44
23 49 45
23 50 45
22 48 43
22 48 44
22 49 44
24 52 47
22 49 44
22 48 44
22 49 44
22 48 44
22 48 44
22 48 44
22 49 44
23 49 45
22 48 43
22 47 43
23 49 45
22 48 43
22 48 43
22 48 44
23 50 45
22 49 44
23 50 45
22 48 44
22 47 43
23 49 45
22 48 43
22 48 44
23 51 46
21 47 42
22 49 44
22 49 44
22 49 44
21 47 43
22 49 44
22 48 44
21 46 42
23 49 45
21 47 42
21 47 42
22 48 43
22 47 43
22 49 44
22 48 43
22 48 43
21 46 42
21 47 42
22 47 43
22 49 44
22 47 43
21 46 42
22 48 43
22 48 44
22 47 43
23 50 45
22 48 43
21 47 43
22 48 44
21 47 42
22 48 44
22 48 44
22 48 43
22 47 43
21 46 42
22 47 43
22 49 44
21 47 42
21 46 41
22 47 42
21 46 41
22 47 42
21 46 42
22 47 43
21 46 41
22 48 43
21 45 40
22 47 42
21 45 41
20 44 40
21 45 41
20 44 39
20 43 39
19 42 37
20 44 39
20 42 37
19 40 35
43 47 39
59 57 45
44 41 35
32 22 33
32 21 32
28 19 28
30 21 33
28 20 32
28 20 31
27 20 31
23 17 27
29 19 30
23 17 25
28 18 27
22 15 23
19 17 23
13 27 27
13 30 29
13 31 30
13 30 29
13 30 28
14 33 31
14 32 31
14 33 31
14 34 33
15 35 33
16 36 34
17 38 35
17 39 36
18 41 38
19 42 38
20 44 40
20 44 40
19 43 39
21 46 42
21 46 42
21 47 43
22 48 43
21 47 42
22 48 43
21 46 42
21 47 43
21 47 43
22 47 43
21 46 42
21 47 42
21 47 43
21 47 43
21 46 42
21 47 43
23 50 45
22 49 44
23 51 46
22 47 43
22 48 43
23 50 45
23 51 46
23 51 46
23 50 45
23 50 45
22 49 44
22 49 44
23 51 46
23 50 45
23 50 45
22 49 44
23 50 45
22 48 44
22 48 43
23 50 45
23 50 45
23 50 45
22 49 44
22 49 44
22 49 44
22 49 44
23 50 45
23 51 46
22 48 44
23 50 46
22 49 44
23 49 45
22 48 43
23 50 45
22 48 44
23 49 45
23 50 45
23 49 44
23 49 45
23 49 45
23 50 45
23 50 45
22 48 44
22 49 44
23 49 44
23 50 45
23 50 45
22 49 44
22 49 44
23 49 45
22 48 43
23 50 45
23 49 44
22 49 44
22 48 44
22 49 44
23 49 45
22 48 43
22 48 43
21 47 42
22 48 44
22 49 44
23 51 46
22 49 44
23 50 46
23 49 45
22 48 43
22 48 44
22 48 44
22 48 44
22 48 44
22 48 43
23 50 45
23 50 45
22 49 44
22 48 43
23 50 46
22 48 44
23 49 44
22 49 44
22 48 44
23 50 45
23 50 46
23 51 46
23 49 44
22 49 44
23 50 45
22 49 44
23 50 45
22 48 43
23 50 45
21 47 42
22 48 43
23 50 45
22 49 44
22 49 44
22 48 43
22 49 45
23 49 45
21 46 42
22 48 44
22 48 43
21 47 43
23 49 45
23 50 45
22 49 44
22 48 44
22 49 44
22 48 43
23 50 45
22 48 44
22 47 43
22 49 44
22 49 44
23 50 45
23 51 46
21 47 42
21 46 42
22 49 44
22 48 43
22 47 43
22 49 44
21 46 42
21 47 42
22 48 44
21 46 42
22 47 43
21 47 42
21 46 42
22 48 43
22 48 43
22 49 44
21 47 42
22 48 43
21 47 42
21 46 41
22 48 43
21 46 41
21 46 41
22 47 42
21 46 41
20 43 39
21 45 40
21 46 41
21 45 40
20 42 37
20 43 38
20 42 37
20 43 37
19 40 35
17 37 32
25 34 27
42 43 31
32 31 24
21 15 21
20 14 19
21 16 23
20 15 20
17 14 20
18 14 22
13 12 17
15 13 19
9 9 13
9 10 13
12 17 19
12 26 25
11 26 25
11 27 26
12 28 27
13 31 30
13 30 29
14 32 31
13 30 29
14 32 31
14 32 31
14 33 31
16 36 34
16 37 35
17 38 35
18 41 38
18 40 37
20 44 40
20 44 40
20 43 40
21 46 42
21 46 42
21 45 41
21 45 41
22 47 43
21 47 43
21 47 43
21 47 42
21 46 42
21 46 42
21 47 42
21 46 41
21 47 42
21 46 42
22 48 43
21 47 42
23 49 44
23 50 45
23 50 46
24 52 47
23 51 46
23 50 45
23 50 45
22 48 44
22 49 44
23 50 45
23 49 44
23 50 45
22 49 44
22 49 44
23 51 46
23 51 46
23 51 46
23 50 45
23 49 44
22 49 44
22 48 44
23 50 45
22 49 44
23 50 45
23 51 46
23 49 45
22 49 44
23 50 45
22 47 43
23 50 45
22 48 44
22 48 44
23 50 45
22 49 44
23 50 46
22 49 44
23 49 45
23 50 45
23 51 46
22 49 44
22 49 44
23 49 45
23 50 45
23 51 46
23 49 44
22 47 43
23 49 44
23 49 44
23 51 46
21 47 42
23 50 45
23 50 45
23 50 45
22 48 44
22 48 44
22 49 44
23 50 46
23 50 45
22 48 43
23 51 46
23 49 45
22 49 44
22 48 44
23 51 46
23 49 45
23 50 45
23 51 46
22 47 43
24 51 47
23 50 45
22 49 44
23 49 45
23 49 44
23 49 45
22 47 43
22 49 44
22 49 44
23 50 45
22 48 44
23 50 45
23 49 45
22 49 44
22 48 43
21 47 42
22 49 44
21 46 42
23 50 45
22 48 44
22 48 44
23 50 45
22 48 44
22 48 43
22 48 43
22 49 44
21 46 42
22 48 43
23 49 44
22 49 44
23 50 45
22 48 44
21 47 42
22 47 42
22 48 43
21 46 42
21 46 42
22 49 44
22 48 44
22 47 43
22 47 43
22 48 44
21 46 42
22 48 44
22 47 43
22 49 44
22 48 44
22 49 44
22 48 43
22 48 43
22 48 43
22 48 43
22 49 44
21 47 42
22 48 44
21 46 42
23 49 44
22 47 43
23 50 45
22 48 44
22 48 43
21 47 42
22 48 43
21 46 42
22 48 43
22 47 42
21 46 41
22 47 42
22 48 43
21 46 42
21 46 41
22 48 43
22 48 43
21 46 41
21 45 41
21 45 40
21 46 41
21 44 39
20 44 39
21 44 39
21 44 39
19 41 36
17 37 32
16 34 30
19 27 22
24 29 22
32 32 25
17 17 18
16 13 16
16 12 16
14 12 15
14 11 15
10 10 13
8 9 12
8 15 15
8 19 18
10 23 22
11 25 24
11 25 24
11 26 26
12 28 27
13 30 29
13 30 29
13 31 30
13 31 30
14 32 30
14 34 32
15 34 33
15 35 33
17 38 36
18 40 37
18 40 37
19 41 38
19 42 38
20 45 41
21 45 41
21 47 42
21 47 42
21 45 41
22 48 44
22 48 43
22 48 44
21 46 42
21 47 42
22 47 43
22 49 44
21 47 42
21 46 42
21 46 42
21 47 42
21 45 41
21 46 42
23 50 45
22 49 44
23 51 46
22 49 44
23 49 44
23 51 46
23 50 45
22 49 44
23 49 44
24 51 46
22 49 44
22 48 43
23 51 46
22 48 43
23 49 44
22 49 44
23 51 46
23 50 45
23 50 45
23 51 46
23 51 46
22 48 43
23 51 46
23 49 44
23 49 45
22 49 44
22 49 44
23 49 45
23 51 46
24 52 47
22 48 43
22 49 44
22 49 44
23 49 45
22 49 44
24 51 46
22 49 44
22 48 43
22 47 43
23 51 46
23 49 44
23 51 46
22 48 44
22 49 44
22 48 43
22 47 43
22 49 44
23 50 45
23 50 45
22 49 44
23 50 45
22 49 44
23 51 46
22 49 44
23 50 45
23 50 45
24 52 47
22 48 44
23 49 44
23 51 46
23 51 46
22 48 43
22 48 44
23 50 45
23 50 45
23 49 45
23 50 45
23 49 45
22 48 43
22 49 44
23 49 45
22 48 44
22 48 44
22 49 44
22 49 44
23 49 45
23 50 45
23 49 44
22 49 44
23 49 44
22 48 43
22 48 44
22 49 44
23 51 46
23 51 46
23 49 45
23 49 45
23 50 45
21 46 42
22 47 43
22 49 44
22 48 43
22 49 44
23 50 45
22 48 44
23 50 45
22 47 43
23 50 45
22 47 43
22 48 43
22 48 44
22 49 44
22 49 44
22 48 43
22 48 43
21 47 42
22 48 44
21 47 42
22 49 44
22 48 43
22 47 43
22 47 43
22 47 43
22 47 43
23 49 45
23 50 45
22 49 44
22 47 43
21 47 42
22 47 43
22 48 43
22 48 43
21 46 41
22 47 43
21 46 42
22 47 43
22 48 43
22 48 44
22 47 42
22 47 42
22 49 44
22 47 43
22 47 43
21 45 41
21 46 42
22 48 44
22 48 44
21 46 41
21 45 41
21 46 42
21 45 41
22 47 42
21 45 41
21 46 41
21 45 40
20 44 39
20 43 38
20 42 38
20 42 37
20 43 38
19 41 36
18 38 33
15 31 27
9 20 18
9 16 15
13 18 14
17 17 16
8 11 12
9 10 12
8 11 11
7 15 15
7 16 15
8 19 18
10 23 22
11 24 23
11 25 24
11 25 24
12 28 27
12 29 28
13 30 29
13 30 29
14 32 30
14 32 31
14 32 31
14 33 31
15 35 33
16 36 34
17 38 35
18 40 37
18 40 37
20 44 41
20 44 40
20 45 41
20 45 41
20 44 40
21 46 42
21 46 41
21 47 42
21 46 42
22 48 43
22 48 43
21 46 42
21 45 41
22 48 44
21 46 41
20 45 41
21 47 42
21 47 43
21 47 43
132 57 46
23 51 46
22 48 43
24 52 47
22 48 43
23 51 46
23 49 45
22 49 44
22 49 44
23 50 45
23 50 45
23 49 44
23 50 45
22 48 43
23 50 45
23 50 46
24 52 47
22 49 44
22 49 44
23 50 45
22 49 44
23 50 45
24 52 47
24 52 47
23 51 46
23 50 45
22 48 44
22 49 44
23 50 45
23 50 45
22 49 44
23 50 45
23 50 45
22 48 44
24 51 46
23 50 45
22 49 44
23 50 45
22 49 44
22 49 44
22 48 43
22 49 44
22 47 43
23 50 45
23 49 44
23 49 44
22 47 43
22 49 44
23 50 45
22 49 44
23 50 45
23 50 45
23 50 45
22 49 44
22 49 44
23 50 45
23 50 45
23 49 45
23 49 44
23 49 44
23 50 46
23 49 45
21 46 42
22 48 44
23 49 45
22 49 44
22 49 44
23 50 45
23 50 45
22 49 44
22 48 43
22 48 44
21 47 42
22 48 43
22 49 44
22 48 43
22 48 43
22 47 43
22 49 44
22 48 44
22 49 44
22 48 43
22 48 43
23 49 44
22 47 43
22 48 44
22 49 44
22 48 44
23 49 45
23 50 45
22 49 44
22 48 44
22 48 44
22 48 43
22 48 43
22 48 43
22 47 43
22 48 43
23 51 46
22 49 44
23 49 45
22 48 44
22 48 44
22 49 44
21 47 43
22 48 44
22 49 44
22 48 44
21 47 42
22 48 43
22 48 44
21 46 42
22 49 44
21 47 42
22 48 43
22 47 43
22 48 43
22 47 43
22 49 45
22 47 43
22 48 43
21 46 42
22 47 42
22 48 44
22 48 43
21 47 42
22 47 43
22 48 43
21 47 42
21 47 43
22 49 44
21 46 42
21 47 42
21 47 42
21 47 42
21 46 41
21 47 42
21 46 42
21 46 42
21 47 42
21 46 42
21 45 40
22 47 42
21 46 41
21 45 40
21 44 40
21 45 40
21 44 39
21 45 40
21 46 41
19 42 37
19 40 35
19 40 35
19 41 35
15 33 28
12 27 24
11 24 22
9 20 18
8 18 16
7 17 16
8 18 17
8 18 17
9 20 19
8 18 17
9 22 21
11 26 25
10 24 23
12 28 27
12 29 28
12 28 27
14 32 31
13 31 30
13 31 30
14 34 32
14 33 31
16 36 34
16 36 34
18 40 37
19 42 38
19 42 38
20 44 40
19 42 38
20 43 39
21 46 42
21 46 42
21 47 43
21 47 42
21 46 42
21 46 42
21 45 41
22 47 43
21 47 43
21 47 43
22 47 43
21 46 42
22 47 43
22 48 43
21 47 43
28 47 42
180 66 49
244 79 55
23 49 45
23 51 46
22 49 44
23 50 45
24 52 47
23 51 46
23 51 46
23 50 45
24 52 47
22 48 44
22 49 44
23 50 45
23 49 45
22 49 44
22 49 44
22 49 44
23 50 45
22 49 44
22 48 43
22 49 44
23 49 45
23 50 45
22 48 43
23 51 46
23 49 45
22 49 44
24 52 47
23 49 44
23 50 45
23 51 46
22 48 43
24 52 47
23 50 45
23 50 45
22 49 44
22 49 44
23 50 45
23 50 45
22 48 43
23 51 46
22 48 44
22 48 43
22 49 44
23 50 45
22 48 43
23 51 46
22 49 44
22 49 44
23 51 46
23 49 45
22 49 44
22 49 44
22 49 44
22 49 44
23 50 46
23 51 46
22 48 43
23 50 45
23 50 46
22 49 44
23 49 45
22 49 44
22 48 44
23 49 45
22 49 44
22 48 43
22 48 43
23 50 46
23 50 45
21 47 42
23 50 45
22 49 44
22 47 43
22 48 43
23 51 46
23 49 45
24 52 47
23 50 45
22 49 44
24 52 47
22 49 44
22 49 44
22 49 44
22 48 44
22 49 44
21 47 43
23 50 45
22 48 43
22 47 43
23 50 46
22 48 44
23 49 45
22 48 43
22 48 43
22 47 43
22 47 43
22 48 44
23 50 45
22 48 44
22 49 44
21 47 43
22 48 44
22 49 44
22 49 44
23 50 45
22 48 44
22 48 44
22 48 43
22 48 43
22 47 43
21 47 42
22 48 43
22 49 45
22 48 44
22 48 43
23 51 46
22 48 44
23 49 45
22 48 43
22 47 43
21 47 42
21 47 42
22 49 44
21 46 41
22 48 44
21 47 42
22 47 43
21 47 42
22 47 42
21 47 42
22 48 43
22 47 43
22 48 43
22 47 42
22 48 43
22 47 42
22 48 44
21 47 42
23 49 44
22 48 44
21 46 42
21 46 41
22 47 43
21 45 40
22 48 43
21 46 41
21 44 40
20 43 39
21 46 41
20 44 40
20 43 38
20 44 39
19 41 36
18 40 35
19 40 36
16 35 31
14 30 27
12 27 24
11 25 23
10 22 21
10 22 21
9 22 21
11 24 23
11 26 25
11 25 24
11 26 25
12 28 26
12 29 28
13 30 28
14 31 30
14 32 31
14 33 31
15 34 32
17 38 35
17 39 36
18 40 37
19 42 39
19 42 39
20 43 40
20 44 40
20 45 41
21 47 43
22 48 44
22 47 43
20 44 40
21 45 41
22 47 43
21 47 42
21 46 42
21 45 41
21 46 42
21 46 42
21 46 41
20 45 41
22 48 44
21 46 42
20 45 41
172 73 57
243 79 55
251 81 57
22 49 44
22 49 44
23 50 45
23 50 45
23 51 46
23 50 45
23 50 45
22 49 44
23 49 44
23 49 45
24 53 47
23 51 46
23 50 45
22 49 44
23 50 45
22 49 44
22 49 44
23 49 45
23 51 46
23 50 45
22 47 43
23 50 45
23 50 45
23 51 46
23 50 45
23 50 45
22 49 44
22 49 44
23 51 46
22 48 43
22 48 44
22 48 43
24 51 46
23 50 45
22 48 44
23 49 45
22 48 43
23 49 44
23 50 45
23 51 46
22 48 43
23 50 45
23 50 45
23 50 45
24 53 48
23 51 46
22 48 44
23 50 45
23 50 46
22 48 43
22 49 44
23 50 45
22 49 44
22 49 44
23 50 45
23 50 45
22 49 44
22 49 44
23 50 45
22 48 44
23 50 45
23 50 46
22 49 44
22 49 44
22 48 43
22 49 44
22 49 44
23 50 45
22 47 43
22 48 44
21 47 43
22 47 43
21 47 43
22 49 44
23 50 45
22 49 44
22 49 44
22 49 44
22 47 43
22 47 43
22 48 43
22 48 43
23 50 45
22 49 44
23 50 45
22 49 44
23 50 45
23 50 46
23 50 45
23 51 46
23 50 45
22 49 44
23 51 46
22 48 44
22 48 44
23 49 45
23 50 45
22 48 44
22 48 43
22 47 43
22 47 43
22 48 43
22 47 43
22 49 44
22 48 43
21 47 43
23 50 45
23 49 45
22 48 43
23 49 45
22 47 43
23 49 44
21 47 42
22 48 44
22 49 44
23 50 45
23 50 45
22 48 43
22 48 43
22 48 44
22 48 44
22 49 44
22 48 44
22 47 43
21 46 42
22 48 43
22 49 44
22 48 43
22 47 43
22 48 43
22 48 43
21 47 42
21 47 42
21 46 42
21 46 41
21 46 42
21 46 42
20 45 40
22 48 44
22 47 43
20 44 39
20 44 40
21 45 41
21 46 41
21 46 41
21 46 41
21 46 42
20 44 39
21 45 40
20 43 38
20 43 38
20 43 38
20 43 38
20 44 39
20 43 38
19 41 37
19 40 36
19 41 37
17 37 33
16 35 32
15 33 30
15 33 31
13 29 27
14 31 29
14 31 30
15 33 31
14 32 30
15 33 31
16 35 33
17 37 34
16 36 34
17 37 34
17 38 35
19 42 38
19 42 38
19 42 38
19 41 38
20 44 40
20 44 40
20 45 41
20 44 40
21 46 42
21 45 41
21 47 43
22 47 43
22 48 43
21 47 43
21 46 42
21 46 42
21 47 43
21 46 42
21 45 41
22 48 43
21 46 42
21 45 41
22 48 44
149 78 65
239 77 53
245 79 55
250 81 57
23 50 45
23 51 46
23 50 45
23 50 45
23 50 45
23 50 45
24 51 46
24 51 46
22 48 43
22 48 44
22 48 44
23 50 45
23 49 44
23 51 46
23 49 44
23 50 45
23 51 46
23 50 45
23 50 45
23 51 46
23 51 46
24 52 47
24 52 47
23 50 46
22 49 44
22 48 43
22 48 44
23 49 44
23 49 44
23 50 45
21 47 42
23 51 46
23 51 46
23 49 45
23 50 45
23 50 45
22 48 43
23 49 44
23 50 46
22 49 44
23 49 45
22 47 43
22 48 43
22 48 44
24 52 47
22 48 43
22 47 43
22 48 44
22 49 44
22 49 45
23 50 45
23 51 46
23 50 45
22 48 43
24 52 47
23 50 45
22 48 43
23 51 46
22 49 44
23 50 45
23 50 45
23 50 45
22 48 43
24 51 46
22 48 43
23 50 45
22 48 43
23 50 45
22 48 44
23 50 45
23 49 45
23 50 46
22 48 43
22 47 43
22 48 43
23 50 46
22 49 44
22 49 44
22 48 43
23 50 45
22 49 44
22 49 45
21 47 42
23 50 45
21 47 42
22 47 43
22 48 43
22 48 44
22 48 43
23 50 45
22 48 44
22 49 44
23 49 45
22 49 44
23 49 45
23 50 45
22 48 43
22 49 44
22 49 44
22 49 44
22 48 44
23 49 45
22 48 43
22 47 43
23 49 45
22 48 43
23 49 45
22 47 43
23 49 45
21 47 43
22 49 44
22 48 43
22 49 44
22 48 43
22 48 43
23 49 45
22 48 43
22 48 43
22 48 43
21 46 42
22 47 43
22 49 44
22 47 43
22 48 43
22 48 43
22 49 44
22 48 43
21 46 42
22 48 44
22 48 43
21 46 42
22 48 44
22 48 43
22 48 43
22 47 43
22 48 44
21 47 43
22 48 44
21 46 42
22 47 42
21 47 42
21 45 41
21 45 41
21 46 41
21 45 41
21 45 41
20 43 39
21 46 42
19 42 37
20 45 40
20 44 39
21 45 41
20 44 39
19 42 37
20 44 39
19 41 36
20 42 38
20 44 39
19 40 36
19 41 37
19 40 36
20 43 38
18 40 36
18 40 37
18 39 36
18 39 36
18 40 37
18 39 35
19 42 38
19 41 37
18 40 37
18 39 36
20 43 39
20 45 41
20 44 40
21 45 41
21 47 42
21 46 42
20 45 41
21 45 41
21 45 41
21 47 42
22 47 43
22 48 43
20 45 41
21 45 41
21 46 42
21 47 43
21 45 41
22 48 43
21 47 42
21 47 43
21 47 42
21 46 42
21 45 41
74 65 58
225 82 61
242 78 54
248 80 56
250 81 57
24 51 46
22 48 44
23 51 46
23 51 46
23 50 45
23 49 45
23 50 45
22 49 44
22 49 44
24 52 47
22 49 44
22 49 44
22 48 44
24 51 46
22 49 44
23 51 46
22 49 44
22 49 44
23 50 45
23 51 46
22 49 44
23 50 45
22 48 43
24 51 46
22 49 44
22 49 44
23 50 45
24 51 46
22 49 44
22 49 44
23 50 45
23 49 44
22 47 43
23 50 45
22 48 43
22 48 44
22 49 44
23 49 45
23 50 45
23 50 45
22 48 43
23 50 45
22 49 44
22 49 44
22 49 44
23 51 46
22 48 44
22 48 44
23 49 45
23 49 45
23 49 44
22 48 43
22 48 44
22 49 44
22 48 44
23 50 45
23 51 46
22 48 44
22 49 44
22 49 44
22 48 44
22 48 43
23 51 46
22 49 44
23 49 45
23 50 45
22 48 43
23 50 45
23 50 45
22 48 44
22 49 44
23 51 46
22 48 43
22 48 43
22 48 43
22 47 43
21 47 43
21 47 43
23 50 45
22 49 44
22 48 44
22 49 44
22 48 43
22 48 44
22 48 43
22 48 44
21 46 42
23 49 45
22 49 44
22 48 43
23 49 45
22 49 44
21 47 42
23 50 45
22 47 43
22 48 43
22 48 43
23 51 46
23 49 44
22 48 44
22 48 43
22 49 44
22 48 43
22 47 43
21 47 42
22 49 44
22 48 43
22 48 43
22 48 43
23 50 45
21 47 42
22 48 44
22 47 43
22 47 43
21 47 43
22 48 43
22 48 43
22 49 44
23 49 44
22 48 43
22 48 43
21 47 42
21 46 42
22 48 44
22 48 44
23 49 45
23 50 45
22 48 43
23 49 45
22 47 43
22 47 43
21 47 42
22 47 43
21 47 42
21 46 41
22 49 44
21 47 42
21 46 41
22 47 43
22 48 43
21 47 42
21 46 42
22 48 43
21 47 42
21 46 41
22 47 43
22 47 43
21 45 40
20 44 40
20 44 39
20 44 39
21 46 41
20 43 38
20 44 40
21 46 41
21 44 40
21 45 40
20 43 38
20 43 39
21 45 40
20 43 39
20 44 40
20 43 39
20 44 39
20 43 39
20 44 40
20 44 40
20 43 39
20 44 40
20 44 40
21 46 42
20 44 40
21 45 41
20 44 40
22 47 43
21 45 41
20 45 41
21 45 41
20 44 40
21 46 42
21 47 42
21 47 43
22 47 43
21 45 41
21 47 42
21 45 41
21 46 42
21 46 42
22 48 43
21 46 42
21 46 41
22 48 43
21 47 42
21 47 43
20 45 41
164 84 69
232 74 51
241 78 54
245 79 55
245 80 56
24 52 47
23 51 46
23 50 45
23 50 45
23 50 45
24 51 46
24 51 46
22 49 44
23 50 45
22 48 44
22 49 44
23 51 46
22 49 44
23 50 45
23 50 45
22 49 44
23 49 44
23 50 45
23 51 46
23 49 44
24 52 47
23 49 45
22 48 44
23 51 46
22 48 43
23 50 45
23 50 45
23 50 45
22 49 44
23 51 46
23 50 45
23 51 46
22 49 44
23 50 45
24 51 46
22 48 44
22 48 44
23 49 44
23 50 45
22 49 44
23 51 46
23 50 46
22 49 44
23 49 45
23 50 45
22 49 44
22 48 43
23 50 45
22 48 44
22 48 44
23 49 45
23 49 45
22 48 43
22 48 43
22 48 44
22 49 44
23 51 46
23 49 45
23 49 45
23 50 45
22 48 44
23 50 45
22 49 44
22 49 44
23 50 45
23 50 46
22 49 44
21 47 42
23 50 45
22 49 44
23 49 45
22 49 44
21 47 42
22 48 43
23 51 46
23 49 45
22 48 43
22 48 44
23 49 45
22 48 43
23 50 45
21 47 43
22 49 44
22 49 44
22 49 44
23 50 45
22 49 44
22 49 44
23 50 45
23 50 45
22 48 43
22 48 43
23 50 45
23 50 45
22 49 44
21 46 42
22 49 44
22 49 44
23 49 45
22 48 43
22 48 44
22 48 43
22 48 44
23 50 45
22 48 44
22 49 44
22 49 44
22 48 44
22 47 43
22 47 43
22 49 44
22 48 43
22 48 44
22 47 43
22 48 43
22 47 43
22 48 44
22 48 44
22 49 44
23 49 45
21 47 42
22 48 43
21 47 42
21 46 42
22 48 43
21 47 42
21 47 42
22 49 44
22 48 43
22 49 44
22 48 44
22 47 43
22 49 44
21 46 42
22 49 44
22 47 43
21 47 42
21 46 42
20 44 40
22 49 44
22 47 43
21 47 42
22 48 44
22 47 42
21 46 42
21 47 42
22 47 42
20 44 40
21 47 42
21 46 41
21 46 41
21 45 40
21 45 41
21 46 41
21 45 40
21 45 41
22 47 43
21 46 41
21 45 41
20 44 40
20 43 39
19 42 38
20 44 39
21 44 40
20 44 39
21 46 42
21 45 41
20 44 40
20 44 40
21 45 41
21 46 41
20 44 39
21 45 41
21 45 41
20 45 40
21 47 42
21 45 41
22 47 42
21 46 42
21 47 42
21 46 41
21 46 42
21 46 41
22 48 43
21 46 42
21 46 41
21 46 41
21 45 41
21 46 42
21 46 42
22 47 43
21 46 42
22 48 43
21 47 42
48 59 52
215 86 67
231 74 51
236 76 53
241 78 54
244 79 56
23 50 45
23 50 45
23 51 46
23 50 45
22 48 43
22 48 44
22 49 44
22 49 44
23 50 45
23 50 45
23 50 45
22 49 44
22 49 44
24 51 46
23 50 45
23 51 46
23 51 46
23 50 45
23 50 45
22 48 44
23 51 46
22 49 44
23 50 45
23 50 45
22 48 44
22 48 44
22 49 44
22 49 44
22 49 44
23 50 45
23 50 45
22 48 44
23 51 46
23 51 46
22 48 44
23 50 46
23 51 46
23 50 45
23 50 45
24 52 47
22 49 44
23 49 45
22 47 43
23 50 45
22 49 44
23 50 45
23 51 46
23 50 45
23 50 45
22 48 43
23 50 45
22 49 44
22 49 44
23 50 45
22 49 44
21 47 42
22 49 44
23 50 45
21 47 42
22 49 44
22 49 44
23 50 45
23 50 45
22 49 44
22 49 44
22 49 44
22 47 43
21 47 42
23 50 45
22 49 44
23 50 45
23 49 45
22 48 44
22 48 43
21 47 42
23 50 45
21 46 42
22 48 44
22 49 44
22 49 44
22 48 43
22 49 44
23 51 46
23 50 45
22 48 43
23 50 45
22 49 44
22 48 44
23 49 45
23 49 45
22 48 43
23 50 45
23 50 45
22 48 43
22 48 43
22 48 44
22 49 44
21 46 42
23 51 46
23 50 45
22 48 43
22 48 44
22 48 44
22 49 44
23 50 45
22 47 43
22 48 44
22 48 43
22 48 44
21 47 42
22 47 43
22 47 43
22 48 44
22 48 43
22 48 43
22 49 44
22 48 43
22 49 44
21 46 42
21 47 42
23 50 45
21 46 42
21 47 43
22 49 44
21 46 41
22 48 43
21 47 42
23 50 45
21 47 42
22 48 44
22 48 44
22 49 44
22 49 44
22 48 43
22 47 43
22 48 43
22 48 43
22 48 44
22 48 43
22 47 43
22 48 43
21 46 42
21 45 41
22 48 43
21 46 42
22 47 42
21 47 42
21 46 42
22 47 43
21 46 41
21 46 41
22 47 43
22 47 43
21 45 41
21 44 40
21 46 41
21 45 41
21 46 41
21 46 41
21 46 42
22 48 43
21 46 41
21 46 42
20 45 40
21 46 41
21 46 42
21 46 41
20 44 40
21 46 42
21 45 41
21 45 41
21 47 42
21 46 42
22 48 43
21 46 41
21 46 41
21 46 41
20 45 41
21 46 42
21 46 42
21 46 41
21 45 41
22 48 44
22 48 44
22 47 43
21 47 42
21 45 41
21 45 41
21 46 41
21 47 42
21 45 41
21 46 42
21 45 41
20 45 41
107 65 55
223 72 49
226 73 50
231 75 52
236 76 53
241 78 55
23 50 46
22 48 43
23 51 46
22 48 44
23 50 45
23 49 44
23 50 45
23 50 45
23 50 45
23 50 45
24 52 47
23 49 45
22 48 43
22 48 44
23 51 46
22 48 44
22 49 44
23 50 45
23 49 45
23 51 46
22 47 43
23 50 46
22 48 43
23 50 45
23 50 45
23 50 45
22 47 43
22 48 44
22 48 43
22 48 43
23 49 45
23 50 45
23 50 45
23 50 45
24 51 46
23 50 45
23 50 45
23 50 45
23 50 45
23 50 45
23 49 45
22 48 43
23 50 45
22 49 44
22 48 44
22 49 44
23 49 45
23 51 46
22 49 44
22 47 43
23 50 45
22 48 43
23 51 46
23 50 45
22 49 44
22 48 44
22 49 44
23 50 45
23 50 45
23 50 45
22 49 44
23 50 45
23 51 46
23 51 46
23 51 46
22 49 44
22 48 44
23 49 45
23 50 45
23 49 45
23 50 45
22 48 44
23 50 45
22 48 44
22 48 43
23 51 46
22 49 44
23 50 45
22 49 44
23 50 45
22 49 44
23 50 45
23 51 46
22 48 44
23 50 45
22 48 44
22 48 43
22 49 44
23 50 45
22 48 44
22 47 43
22 47 43
22 48 44
22 49 44
22 49 44
22 49 44
22 49 44
21 47 42
22 47 43
22 49 44
22 47 43
22 48 43
22 47 42
22 48 43
22 49 44
22 49 44
21 47 43
22 48 44
22 48 44
22 47 43
21 46 42
22 48 44
22 48 44
22 48 44
22 48 43
22 47 43
22 48 43
22 49 44
22 49 44
22 48 43
22 48 44
22 48 44
22 48 44
22 48 43
21 47 42
23 49 44
21 46 42
22 48 43
22 48 43
21 46 42
23 50 45
22 47 43
21 47 43
21 46 42
22 48 43
22 47 43
22 49 44
22 48 43
20 44 40
22 47 43
22 48 43
21 47 42
21 47 42
21 46 41
22 47 43
22 48 43
21 47 42
21 47 42
21 45 41
22 48 43
21 46 42
21 45 41
20 43 39
21 47 42
20 44 40
21 46 41
20 44 40
20 44 40
20 44 40
20 44 40
22 48 43
21 45 41
20 45 40
22 47 42
21 46 42
21 46 41
21 46 42
22 47 43
22 47 43
22 47 43
21 46 42
21 46 41
21 46 41
21 46 42
22 47 43
21 46 41
22 48 44
20 45 40
20 44 40
21 46 42
21 45 41
21 45 41
21 46 42
21 47 42
21 46 41
21 45 41
22 48 43
20 44 40
21 47 42
21 46 41
21 46 42
21 46 42
21 46 41
21 47 42
141 80 66
212 81 60
220 137 117
226 129 109
230 78 56
236 77 53
23 51 46
23 49 45
23 49 45
22 48 44
23 49 45
22 49 44
23 51 46
23 51 46
22 48 44
23 49 45
23 50 45
23 49 45
22 49 44
22 48 43
23 49 45
23 49 45
23 50 45
22 49 44
22 49 44
22 48 43
23 50 45
23 50 45
22 49 44
23 50 45
24 51 46
23 51 46
23 49 45
23 49 45
22 47 43
22 48 44
22 49 44
23 49 45
23 50 45
23 50 45
23 49 45
22 48 44
23 51 46
23 49 45
23 50 45
23 50 45
23 50 45
23 51 46
22 48 43
22 48 43
23 50 45
23 50 45
22 49 44
22 49 44
23 50 45
23 51 46
23 51 46
23 50 45
23 50 45
23 50 45
23 49 45
23 49 45
22 49 44
23 50 45
21 46 42
22 48 43
22 47 43
22 48 43
22 47 43
22 48 43
23 51 46
22 49 44
22 49 44
23 51 46
23 51 46
22 48 43
22 48 44
23 50 46
23 50 45
24 52 47
22 48 44
22 48 43
22 49 44
22 48 43
23 50 45
22 49 44
22 49 44
22 48 43
22 48 44
22 48 43
22 47 43
22 49 44
22 49 44
22 49 44
22 48 43
23 50 45
23 50 45
21 47 43
22 49 45
22 48 44
22 49 44
22 49 44
22 48 43
23 50 46
23 49 45
22 47 43
23 49 45
22 48 44
22 48 44
22 49 44
22 49 44
22 48 43
22 48 43
23 50 45
21 47 42
22 49 44
22 48 43
22 49 44
22 48 44
22 48 44
22 48 44
22 49 44
21 46 42
22 48 43
22 47 43
23 49 45
21 46 42
21 47 42
23 50 45
21 46 41
22 49 44
22 48 44
22 47 43
21 46 42
22 47 43
21 47 42
21 45 41
22 49 44
22 48 43
22 48 44
21 47 42
22 47 42
21 46 41
22 48 43
22 48 43
22 48 43
22 48 44
21 46 42
21 47 43
21 47 42
22 48 44
21 46 42
22 49 44
21 45 41
21 45 41
21 46 41
21 46 42
21 46 42
21 46 41
21 46 41
21 46 42
21 45 41
20 45 41
21 46 41
21 46 41
21 46 41
21 47 42
21 46 42
20 44 39
20 45 40
21 45 41
22 48 43
22 47 43
21 46 42
20 45 40
22 47 43
22 47 43
21 46 42
21 45 41
21 47 42
22 47 43
21 46 42
21 46 41
21 47 42
20 45 40
22 48 43
22 48 44
21 46 42
21 46 42
20 45 41
20 45 40
21 45 41
21 47 42
21 46 41
20 44 40
21 45 41
21 46 41
21 45 41
21 47 42
22 47 43
149 69 56
168 129 111
155 134 117
154 135 119
189 144 126
230 83 62
23 50 45
23 50 45
23 50 45
23 50 45
23 50 46
23 50 46
24 52 47
23 51 46
23 51 46
23 49 45
23 50 45
22 49 44
23 50 45
22 49 44
23 49 44
22 49 44
23 49 44
23 49 44
23 50 46
22 48 44
23 50 45
22 49 44
23 50 46
22 48 43
23 51 46
23 51 46
23 49 44
23 49 44
23 50 45
23 50 45
22 48 43
23 50 45
23 50 45
22 48 43
22 48 43
22 48 43
23 50 45
23 50 45
23 49 45
23 50 45
23 51 46
22 49 44
23 50 45
23 50 45
22 49 44
23 51 46
22 48 44
23 49 45
23 50 45
23 50 45
23 50 45
22 48 43
22 47 43
23 50 45
23 50 45
22 49 44
22 47 43
23 49 45
22 49 44
22 48 43
23 49 45
22 48 43
22 48 43
22 49 44
24 52 47
22 47 43
22 49 44
23 50 45
23 50 45
23 49 45
23 49 45
22 49 44
23 50 45
23 51 46
22 47 43
22 48 44
22 48 43
23 50 45
22 48 44
22 49 44
23 50 45
23 50 45
23 50 45
23 51 46
22 48 44
22 47 43
22 49 44
22 48 44
22 49 44
22 49 44
23 50 45
22 49 44
22 49 45
22 48 43
22 48 44
22 48 43
23 49 45
23 50 45
22 47 43
22 49 44
22 49 44
23 50 45
22 49 44
22 48 43
23 49 45
23 50 45
22 48 43
22 48 43
22 48 43
22 48 44
22 49 44
21 47 43
22 47 43
22 49 44
21 46 42
22 49 44
22 49 44
23 50 45
21 47 43
21 47 42
21 47 42
22 47 43
22 47 43
22 48 43
22 48 44
21 47 42
21 45 41
22 48 43
21 47 42
22 47 43
22 48 44
22 48 44
21 47 43
22 48 44
22 47 43
21 46 42
21 46 42
21 46 42
21 46 42
22 48 43
21 46 42
22 48 43
21 46 42
22 47 43
21 46 42
22 47 43
22 48 44
21 46 42
22 47 43
22 49 44
21 46 42
21 47 42
21 45 41
21 47 43
21 47 42
21 46 41
21 46 42
21 45 41
21 46 42
21 46 42
21 46 42
21 46 42
21 47 42
21 46 42
22 48 43
22 47 43
21 47 43
21 47 42
21 47 42
21 46 41
21 46 42
21 46 42
21 45 41
21 46 42
21 46 42
22 47 42
21 45 41
22 47 43
21 45 41
21 46 42
21 46 42
22 48 44
21 46 42
21 45 41
21 46 41
21 47 42
21 45 41
21 46 41
20 44 40
21 46 42
21 45 40
20 44 40
20 45 40
21 46 41
149 77 63
180 156 136
209 182 159
211 184 162
163 143 127
198 137 119
23 50 46
23 49 45
24 52 47
24 51 46
23 51 46
23 50 45
23 50 45
23 49 44
23 49 45
22 49 44
23 50 45
23 49 45
23 50 45
23 49 45
23 51 46
24 51 46
23 49 45
22 48 43
23 49 44
23 51 46
22 48 44
24 52 47
23 50 45
23 51 46
23 50 45
23 50 45
23 51 46
24 51 46
23 50 45
22 48 43
22 49 44
23 50 45
23 50 45
22 48 44
23 50 45
23 51 46
23 50 45
23 49 45
22 48 44
22 48 43
22 49 44
23 51 46
22 49 44
23 51 46
22 49 44
22 48 43
23 49 44
22 48 44
23 50 45
23 50 46
23 50 45
23 50 45
23 49 45
24 52 47
22 48 44
23 49 45
23 50 45
23 50 45
23 49 45
22 48 43
22 49 44
23 51 46
22 49 44
22 47 43
23 50 45
22 49 44
22 48 43
22 48 44
23 51 46
23 50 45
22 47 43
23 50 45
22 49 44
22 48 43
23 50 45
22 48 43
22 48 44
23 50 45
22 49 44
21 47 42
23 50 45
22 48 43
23 49 45
24 51 47
22 48 44
23 50 45
22 48 44
22 49 44
23 50 45
22 48 44
22 48 44
22 48 43
23 50 45
23 49 45
23 51 46
22 49 44
23 49 45
22 49 44
23 50 45
22 47 43
22 49 45
22 48 44
22 48 44
22 49 44
21 47 42
22 48 44
22 49 44
21 47 42
22 48 44
22 49 44
22 49 44
22 48 44
22 48 44
23 50 45
22 48 44
22 48 44
22 48 43
23 50 45
22 48 43
22 49 44
22 48 43
22 48 43
21 47 42
22 47 43
22 49 44
22 48 43
21 46 42
22 47 43
21 47 42
22 48 44
22 48 43
21 47 43
21 47 42
22 49 44
22 47 43
22 49 44
23 50 45
22 48 44
22 49 44
21 47 42
22 47 43
23 50 45
22 47 43
21 46 42
22 47 43
21 46 42
21 46 41
22 47 43
21 47 42
21 47 43
21 47 43
21 46 42
21 47 42
21 46 42
22 49 44
22 48 43
21 46 41
22 47 43
21 47 42
21 45 41
21 46 42
22 47 43
21 47 43
22 47 43
21 46 41
21 46 42
21 46 41
20 44 40
21 47 42
22 48 43
21 46 42
21 47 42
21 46 42
21 46 42
21 47 42
21 45 41
22 48 43
22 47 43
22 47 43
22 47 42
21 46 42
21 45 41
21 46 41
21 46 42
21 47 42
21 46 41
20 43 39
21 45 41
21 45 41
21 45 41
20 44 40
20 45 40
21 46 41
21 46 41
119 85 73
185 160 139
200 174 152
208 181 160
203 177 156
155 134 119
22 48 43
23 50 45
22 49 44
22 48 44
22 48 43
23 51 46
22 48 44
22 48 43
23 50 45
23 51 46
23 50 45
23 50 45
23 49 44
23 50 45
23 50 45
23 50 45
22 49 44
23 51 46
23 49 45
23 51 46
23 50 45
22 49 44
23 49 44
23 50 45
23 50 45
23 51 46
23 50 45
23 50 45
22 49 44
22 47 43
22 49 44
22 49 44
22 48 43
23 50 45
22 48 43
23 49 45
22 49 44
23 50 45
22 48 44
22 47 43
23 49 45
22 49 44
23 51 46
23 51 46
23 50 45
23 51 46
22 48 43
22 49 44
23 49 45
23 50 45
22 49 44
22 49 44
22 49 44
22 49 44
22 49 44
22 49 44
23 50 45
23 50 45
21 47 43
22 49 44
23 50 45
21 47 43
22 48 44
23 50 45
22 48 44
23 50 46
23 49 45
23 50 46
22 49 44
22 48 43
22 48 43
22 49 44
23 50 45
23 50 46
22 48 43
23 49 45
23 51 46
22 49 45
22 49 44
23 50 45
22 48 44
22 49 45
23 50 45
23 49 44
23 49 45
22 49 44
22 48 44
22 49 44
22 47 43
22 48 44
22 49 44
22 47 43
22 48 44
22 48 44
22 49 45
23 49 45
22 48 44
22 48 44
23 51 46
23 50 45
22 48 43
22 48 43
21 47 42
22 49 44
22 49 44
22 48 44
22 49 44
21 46 42
22 48 44
22 48 44
22 48 43
21 47 43
22 48 44
22 49 44
22 47 43
21 46 41
21 47 42
22 48 43
22 47 43
22 47 43
22 49 45
22 49 44
22 48 44
22 49 44
22 48 43
22 47 42
21 46 42
22 48 43
21 46 42
21 46 42
22 47 43
21 47 43
22 49 45
22 48 43
22 48 43
22 48 43
22 48 43
22 47 43
21 46 42
21 47 42
21 46 42
22 49 44
22 49 45
22 49 44
23 49 45
22 48 44
21 46 42
22 48 43
22 48 43
22 47 43
20 45 41
21 46 42
22 48 44
22 48 44
21 47 42
21 47 42
22 47 43
22 47 43
21 45 41
21 46 42
21 47 43
21 47 42
21 46 42
21 47 42
20 44 40
21 46 42
21 47 42
21 46 42
21 47 42
21 47 42
21 45 41
22 47 43
21 45 41
21 46 42
21 46 42
22 49 44
22 47 43
20 45 40
21 47 42
22 47 43
21 46 41
21 45 41
22 47 42
22 48 43
22 47 43
21 46 42
21 46 42
20 44 40
21 46 42
21 46 41
21 45 41
21 45 40
22 48 43
21 45 41
97 66 56
152 131 113
147 127 110
188 164 144
198 173 153
162 141 125
24 52 47
23 50 45
22 49 44
23 49 45
23 50 45
23 50 45
22 49 44
23 51 46
23 50 45
21 47 42
23 50 45
22 49 44
22 49 44
22 49 44
23 50 45
23 51 46
22 49 44
22 49 44
23 50 45
23 51 46
23 50 45
23 50 45
23 51 46
23 49 45
23 50 45
23 50 45
23 50 45
23 50 45
23 49 44
23 50 45
22 49 44
23 50 45
23 51 46
23 50 45
24 52 47
23 49 44
22 49 44
23 50 46
23 51 46
22 48 43
22 49 44
22 48 44
22 48 43
24 52 47
23 50 46
23 50 45
23 50 45
24 52 47
22 48 44
23 51 46
23 49 44
22 48 44
23 50 45
23 49 45
23 51 46
23 49 45
23 49 45
22 49 44
22 48 43
23 50 45
22 47 43
22 48 44
22 47 43
23 49 45
22 49 44
22 47 43
22 47 43
22 47 43
22 49 44
22 49 44
22 49 44
23 50 45
22 49 44
22 49 44
22 47 43
22 48 44
23 50 45
22 48 44
22 48 44
22 48 43
22 48 44
23 50 46
22 49 44
22 49 44
23 50 46
23 50 46
23 49 45
22 48 44
22 48 44
23 50 45
23 51 46
22 48 43
23 50 45
22 49 44
23 50 46
22 48 43
23 49 45
22 48 43
22 49 44
22 49 44
22 48 44
22 49 44
22 47 43
22 48 43
21 46 42
22 47 43
22 48 43
22 48 43
22 48 43
24 52 47
22 48 44
21 47 42
21 47 42
22 49 44
23 50 45
22 49 44
22 48 43
22 47 43
21 47 42
22 49 44
22 49 45
22 49 44
21 46 42
22 48 43
22 47 43
22 48 43
22 47 43
22 49 44
22 49 44
22 49 44
21 47 42
21 47 43
21 46 41
22 47 43
22 49 44
21 47 43
21 47 42
21 47 42
21 46 41
21 47 43
22 48 43
22 48 43
21 47 42
22 48 44
22 48 43
21 46 42
22 48 43
21 46 42
22 47 43
22 48 44
22 47 43
22 49 45
21 46 41
22 48 43
22 48 44
21 46 42
21 47 42
21 47 43
21 47 43
21 46 42
22 48 44
22 48 44
21 46 42
21 47 43
22 49 44
22 48 44
21 47 42
22 47 43
21 46 41
22 48 44
21 46 41
21 47 42
21 46 42
21 47 42
20 45 40
21 47 42
21 45 41
21 45 41
21 46 42
22 47 43
21 46 42
21 46 41
21 47 42
22 48 43
22 47 43
21 46 41
21 45 41
21 47 42
20 44 40
21 46 41
21 46 41
21 45 40
20 43 39
20 44 39
80 56 48
144 122 105
74 64 56
35 30 26
118 104 92
179 157 139
23 50 45
23 51 46
23 50 45
22 48 44
23 49 45
22 47 43
22 47 43
23 51 46
23 49 45
22 48 43
24 53 48
23 50 45
23 49 44
22 47 43
23 50 45
24 53 47
23 49 44
23 50 45
22 48 43
22 47 43
22 49 44
24 53 47
23 50 45
22 48 43
23 50 46
23 50 45
22 49 44
22 49 44
22 49 44
22 49 44
22 48 43
23 50 45
22 48 44
22 48 43
23 50 45
22 49 44
23 51 46
22 49 44
23 50 45
23 51 46
22 49 44
21 47 42
22 48 43
23 50 45
22 49 44
23 49 45
23 50 45
23 49 45
22 49 44
22 49 44
22 48 43
23 51 46
22 48 43
23 51 46
23 51 46
24 52 47
23 50 45
22 49 44
23 51 46
22 48 43
22 48 44
22 49 44
23 49 45
22 49 44
22 48 44
23 50 45
22 49 44
24 51 46
23 50 45
22 49 44
22 48 44
23 49 44
22 47 43
23 51 46
23 50 45
22 49 44
23 50 45
22 49 44
22 49 44
22 49 44
23 49 45
23 50 45
22 49 44
22 47 43
22 48 43
23 50 45
22 49 44
22 48 43
23 50 45
22 47 43
22 49 44
23 50 45
23 50 45
23 50 45
22 48 43
22 49 44
22 49 44
23 51 46
23 50 45
22 49 44
22 48 43
22 48 44
22 48 43
22 48 44
23 49 45
23 49 45
22 48 44
22 49 44
22 48 44
22 49 44
22 48 44
22 48 44
22 48 44
22 49 44
22 48 43
22 48 44
21 46 42
22 48 44
22 48 44
22 49 45
22 48 43
23 50 45
22 48 43
22 49 44
22 48 44
23 49 45
22 48 43
22 48 43
23 51 46
21 47 43
21 46 41
22 49 44
22 48 43
22 48 43
22 48 43
22 49 44
22 48 43
22 48 43
21 47 42
22 48 44
22 49 44
22 47 43
22 48 43
22 48 44
21 47 42
21 45 41
22 47 43
22 48 43
22 47 43
22 48 44
22 48 44
21 45 41
21 46 42
22 47 43
22 48 43
21 47 43
21 47 42
22 48 44
22 47 42
21 45 41
21 45 41
23 50 45
21 46 42
21 47 42
22 47 43
20 45 41
21 47 43
21 46 42
21 46 42
22 48 43
22 48 44
22 48 43
21 46 41
21 47 42
23 49 45
22 48 43
21 47 42
22 48 44
21 47 42
22 47 43
21 46 41
21 46 41
21 45 41
21 46 42
21 46 41
21 47 42
20 44 40
20 44 40
21 45 41
21 46 41
20 44 40
21 45 40
20 44 39
20 44 39
32 44 39
130 102 87
166 144 125
163 142 124
147 127 110
180 158 138
22 48 43
23 51 46
22 49 44
22 48 44
22 49 44
22 49 44
23 50 45
23 50 45
22 48 44
22 49 44
23 49 44
23 50 45
22 47 43
23 50 45
23 50 45
22 49 44
23 49 44
23 50 45
23 50 45
23 50 45
23 50 45
23 50 45
23 51 46
22 48 43
22 49 44
24 51 46
23 50 45
23 50 45
23 49 45
23 50 45
22 49 44
22 48 44
23 50 45
23 50 45
23 49 44
22 48 44
23 50 45
23 50 45
22 48 43
23 50 45
23 50 45
23 49 45
23 51 46
22 49 44
22 49 44
22 48 43
22 49 44
23 50 45
23 50 45
24 52 47
22 49 44
22 49 44
22 49 44
22 48 43
22 49 44
22 49 44
22 49 44
22 49 44
23 51 46
23 51 46
22 48 43
22 49 44
24 52 47
22 49 44
22 48 44
23 50 45
22 49 44
22 48 44
23 50 45
23 50 45
23 50 45
23 50 45
22 49 44
23 50 45
23 50 45
23 50 46
23 51 46
22 49 44
23 49 45
22 49 44
22 49 44
22 49 44
22 48 43
22 48 44
22 49 44
22 49 44
23 50 45
22 48 43
22 49 44
22 47 43
22 48 43
23 50 45
22 47 43
23 49 45
23 50 45
23 50 45
23 49 45
22 49 44
23 49 44
22 49 44
22 49 44
22 48 44
22 48 44
22 48 44
21 47 42
22 49 44
23 51 46
22 48 43
22 48 44
21 47 42
22 47 43
21 47 43
22 47 42
21 47 42
22 48 43
23 49 45
21 47 42
23 49 45
21 46 41
22 48 43
22 48 44
22 49 44
21 46 41
22 49 44
22 48 43
22 47 43
22 48 43
23 50 45
22 48 44
22 48 44
22 49 44
21 47 42
23 50 45
22 49 44
22 49 44
22 49 44
21 47 42
22 48 43
22 49 44
22 48 43
23 50 45
22 48 43
22 47 43
21 45 41
21 46 42
22 48 43
21 47 42
21 46 42
23 50 46
22 47 43
21 45 41
21 46 42
21 47 42
22 47 43
21 47 42
21 47 42
22 48 43
22 47 43
21 46 42
21 46 42
21 46 42
21 46 42
22 47 43
21 46 42
21 46 42
22 48 44
21 46 42
21 46 41
21 46 42
22 48 43
22 48 43
22 48 44
22 48 43
21 46 41
22 47 43
21 46 41
22 48 43
22 47 42
20 44 40
21 46 42
21 45 41
22 48 44
21 46 41
21 45 41
21 46 42
21 46 41
20 44 39
20 44 40
21 46 41
21 44 40
21 45 40
21 45 41
20 44 40
20 44 39
20 44 39
91 60 51
142 123 106
152 132 112
163 142 122
153 133 115
23 51 46
23 50 45
24 51 46
23 50 45
22 48 43
23 50 45
23 51 46
23 50 45
23 51 46
22 48 43
22 49 44
22 49 44
22 49 44
21 47 42
23 50 45
23 50 45
22 48 43
22 48 44
23 51 46
22 49 44
23 49 44
23 50 45
22 49 44
22 49 44
23 49 45
23 50 46
22 48 43
22 48 44
23 50 45
23 50 45
23 50 45
22 47 43
23 51 46
23 51 46
23 51 46
24 52 46
22 48 43
23 49 45
23 49 45
23 50 45
23 50 45
23 50 45
22 49 45
23 50 45
22 47 43
22 49 44
21 47 42
22 48 44
22 49 44
23 51 46
23 50 45
22 48 43
22 49 44
22 48 44
24 51 46
22 49 44
23 50 45
23 50 45
22 49 44
22 49 44
22 47 43
21 47 42
23 50 45
23 50 45
23 49 45
22 48 43
23 50 45
23 50 45
23 50 45
23 50 45
22 49 44
23 49 44
23 50 45
23 50 46
22 48 44
23 49 45
23 50 45
22 48 44
22 48 44
22 48 44
22 49 44
23 50 45
23 50 46
22 48 44
22 48 44
22 49 44
23 50 45
22 47 43
21 46 42
23 50 45
22 47 43
22 49 44
23 50 46
22 49 44
22 48 44
22 48 44
22 47 43
22 49 44
22 48 44
23 50 45
22 48 44
21 47 42
22 49 44
22 47 43
22 49 44
22 49 44
23 50 45
22 48 44
22 48 43
23 50 45
22 48 43
22 49 44
22 49 45
23 50 45
22 48 43
22 47 43
23 50 45
22 48 43
21 46 41
21 47 42
22 48 43
22 49 45
23 49 45
21 47 43
21 46 42
22 48 44
22 47 43
22 47 43
22 48 43
23 50 45
22 47 43
21 46 41
22 48 44
22 48 43
22 47 43
22 47 43
21 47 42
22 48 44
22 48 43
22 48 44
22 48 43
23 50 45
22 48 44
22 47 43
21 46 42
22 49 44
22 47 43
21 46 42
22 48 43
21 47 42
22 48 43
22 48 43
22 48 43
22 48 43
22 49 44
21 47 43
21 46 42
22 47 43
22 49 44
22 49 44
21 46 41
22 47 43
21 46 41
22 49 44
22 48 43
22 48 43
21 45 41
22 48 43
21 46 41
21 46 42
21 46 41
22 49 44
22 48 43
22 47 43
22 47 43
21 46 42
22 48 43
22 49 44
21 46 42
21 46 42
22 47 43
21 46 42
21 46 42
21 46 41
21 45 40
22 49 44
21 46 42
21 45 40
20 44 40
21 45 41
20 44 39
20 44 39
20 43 38
20 44 39
19 41 36
38 42 37
105 72 60
131 114 98
148 129 111
102 88 75
23 51 46
22 49 44
22 49 44
22 48 43
23 49 44
23 50 45
24 52 47
24 52 47
23 51 46
23 50 45
23 49 44
22 49 44
23 50 46
23 51 46
23 50 45
24 51 46
23 51 46
24 52 47
22 48 44
22 48 43
22 48 43
23 51 46
23 50 45
22 49 44
22 49 44
22 49 44
22 49 44
22 48 43
23 49 45
24 52 47
22 48 44
22 47 43
22 49 44
22 48 43
23 50 45
22 49 44
23 50 45
23 49 44
22 49 44
23 50 45
23 50 45
23 50 45
23 49 45
22 49 44
22 48 43
23 51 46
22 48 43
23 50 45
22 48 43
23 50 45
22 48 44
23 50 45
23 51 46
23 50 45
23 50 45
22 49 44
23 49 45
22 49 44
23 50 46
23 51 46
22 48 44
23 50 45
22 49 44
22 48 44
22 49 44
23 51 46
21 47 42
22 48 43
21 47 42
23 50 45
22 49 44
24 53 48
23 49 45
23 51 46
23 49 45
22 49 45
22 49 44
23 50 45
22 49 45
21 47 42
22 48 43
23 50 45
23 50 45
22 48 43
21 47 42
23 51 46
22 49 44
22 48 44
22 47 43
23 50 45
22 48 44
22 47 43
22 49 44
22 47 43
21 47 42
23 49 45
23 51 46
22 48 43
23 51 46
22 49 44
21 47 42
22 48 44
24 52 47
22 49 44
22 48 44
21 47 42
21 46 42
21 47 43
22 47 43
22 48 43
23 49 45
22 49 44
22 49 45
23 49 45
22 49 44
22 47 43
21 45 41
22 49 44
22 49 45
22 49 44
22 48 43
21 47 42
23 49 45
22 48 44
22 48 44
23 49 45
21 47 43
22 47 43
22 49 44
22 48 44
22 48 43
21 46 42
22 49 45
22 48 43
22 48 43
22 48 44
22 47 43
22 49 44
22 47 43
21 46 42
22 49 44
21 46 42
22 48 44
21 47 42
22 48 44
21 47 42
22 47 43
22 49 44
22 48 44
22 47 43
21 46 42
21 46 41
22 49 44
22 47 43
21 47 42
22 47 43
21 47 42
21 46 42
21 46 42
22 48 44
22 47 43
21 46 41
21 47 43
22 48 43
22 48 44
21 46 42
21 47 43
21 46 41
21 46 42
20 44 40
20 45 41
21 47 43
22 48 43
21 46 42
22 47 43
21 46 42
21 45 41
21 46 42
22 47 43
22 47 43
21 46 42
21 46 41
21 46 42
21 45 41
20 44 40
21 46 41
21 46 41
21 45 41
22 47 42
20 44 39
20 44 39
20 43 38
19 42 37
19 41 36
19 42 37
20 42 37
63 38 32
94 61 50
82 66 56
106 82 69
22 48 43
23 49 45
24 52 47
23 50 46
22 49 44
23 49 45
23 50 45
24 51 46
23 50 45
23 51 46
23 50 45
23 50 45
22 48 44
23 50 45
22 49 44
22 48 43
22 47 43
23 50 45
23 50 45
23 50 45
22 49 44
22 49 44
23 51 46
23 50 45
23 50 45
22 48 44
23 49 44
23 50 45
23 50 45
23 50 45
23 49 44
22 48 43
23 50 45
24 52 47
23 50 45
22 49 44
23 49 45
23 50 45
22 48 43
23 49 44
23 51 46
23 49 44
23 51 46
23 51 46
22 49 44
23 49 45
22 48 43
23 50 46
23 49 45
23 49 45
22 49 44
22 48 44
22 49 44
22 48 43
22 49 44
23 49 45
22 49 44
21 47 42
22 48 44
23 50 45
23 49 45
22 49 44
22 48 43
24 52 47
22 49 44
23 50 45
22 49 44
22 49 44
23 50 45
22 48 44
22 48 44
23 50 45
23 50 45
23 51 46
22 49 44
23 49 45
22 49 44
23 50 45
22 47 43
24 51 46
22 48 43
23 49 45
22 48 44
24 52 47
22 47 43
23 51 46
23 49 45
22 49 45
22 49 44
22 48 43
23 50 45
22 48 43
22 48 44
22 48 44
22 48 44
22 49 44
22 48 44
22 49 44
22 49 45
22 49 44
22 49 44
22 49 44
22 48 44
23 49 45
22 47 43
22 49 45
23 49 45
21 46 42
22 47 43
23 50 46
22 49 44
22 48 43
22 47 43
22 49 44
22 49 44
22 48 43
22 49 44
23 50 45
22 47 43
23 49 45
22 48 44
23 50 46
22 48 44
22 47 43
22 48 44
22 47 43
23 49 45
22 49 44
22 47 43
23 50 45
22 49 44
22 48 44
21 46 42
22 48 43
22 48 44
21 46 42
21 47 43
22 48 43
22 48 43
21 47 43
21 47 42
21 47 42
22 48 43
22 48 44
21 47 43
22 48 43
22 49 44
22 48 44
21 46 42
21 46 42
22 49 45
21 46 42
21 47 42
21 47 43
22 47 43
22 47 43
22 48 44
21 47 42
22 48 43
21 47 42
22 47 43
21 47 43
20 45 40
22 48 44
22 48 43
22 48 43
21 46 42
22 49 44
21 47 43
20 44 40
21 45 41
22 47 43
21 46 42
22 47 43
21 46 41
21 47 42
21 46 42
22 47 43
22 48 43
21 46 42
21 46 42
21 46 41
21 46 42
22 47 42
21 46 41
20 45 40
22 47 42
20 44 39
20 44 39
20 43 39
20 43 38
21 45 40
20 43 39
20 43 38
20 42 37
19 40 36
19 42 37
64 33 26
91 30 19
104 34 22
23 50 45
23 51 46
24 51 46
23 50 45
23 50 45
22 49 44
22 48 43
22 48 43
23 51 46
24 52 47
23 50 45
22 48 44
24 53 48
23 51 46
23 50 45
23 51 46
23 51 46
23 51 46
23 49 45
22 49 44
22 48 44
23 50 45
23 50 46
23 50 45
23 50 45
23 50 45
23 50 45
23 51 46
23 49 45
22 49 44
22 48 43
23 50 45
22 47 43
23 50 45
23 49 44
22 49 44
22 49 44
23 50 45
22 49 44
22 47 43
22 48 43
22 49 44
23 50 45
22 48 44
22 49 44
23 50 45
22 49 44
23 50 46
22 49 44
23 49 45
22 49 44
23 50 45
23 50 45
23 50 45
23 50 45
22 49 44
23 51 46
22 48 43
22 48 44
22 48 43
22 48 44
22 47 43
22 48 44
22 48 43
23 50 46
23 51 46
23 49 45
23 50 45
22 49 44
21 47 42
22 49 44
21 47 43
23 49 45
23 51 46
22 48 43
22 48 44
22 48 44
22 48 44
23 49 45
22 49 44
22 48 44
23 51 46
22 49 44
22 48 44
22 49 44
22 48 44
22 48 43
21 47 42
23 50 45
22 47 43
21 46 42
23 50 45
22 48 44
22 49 44
22 49 44
22 49 44
22 48 43
21 46 42
22 49 44
22 47 43
22 48 44
22 48 43
22 49 44
22 49 44
21 46 42
22 49 44
22 48 44
22 48 44
22 49 44
22 49 44
23 49 45
22 48 44
22 49 44
22 48 43
22 48 43
22 48 43
22 48 44
21 46 42
22 48 43
22 49 44
22 48 43
22 48 44
22 49 44
22 47 43
22 49 45
22 48 43
22 49 45
22 49 44
21 46 42
22 48 44
22 49 44
22 49 44
21 46 42
21 47 42
20 45 41
22 49 44
21 46 42
22 48 44
21 46 42
22 48 44
23 49 45
23 50 45
22 49 44
23 49 45
21 46 42
21 46 42
22 48 43
22 48 43
21 46 41
23 50 45
23 49 45
22 48 43
22 47 43
22 47 43
20 44 39
21 46 42
22 47 43
21 46 42
21 47 42
22 47 43
22 47 43
21 47 43
21 46 42
21 45 41
21 47 43
22 48 44
22 48 43
22 48 43
21 47 42
21 46 42
21 47 42
21 46 41
22 47 43
21 46 41
22 47 43
22 48 43
21 46 42
21 47 43
22 48 43
21 46 42
22 47 43
22 47 42
21 46 41
20 44 40
20 44 39
21 46 41
20 44 40
21 45 41
20 44 40
20 43 39
22 47 42
20 43 39
19 41 36
20 42 37
20 43 38
20 43 38
19 41 36
17 37 32
43 27 21
70 23 14
23 51 46
22 49 44
23 50 45
22 49 44
23 50 45
23 49 45
22 49 44
23 49 44
24 53 47
22 49 44
23 50 45
22 48 44
22 48 44
23 50 45
22 48 44
24 52 47
23 49 45
23 50 45
23 51 46
24 52 47
24 52 47
22 48 43
22 49 44
23 49 45
22 49 44
23 51 46
23 51 46
22 48 44
23 51 46
24 51 46
23 50 45
22 49 44
22 49 44
22 47 42
23 50 46
22 49 44
23 50 45
22 47 42
23 50 45
23 50 45
22 49 44
22 49 44
23 51 46
23 50 45
23 50 45
23 50 46
24 51 46
22 49 44
23 50 45
23 51 46
22 49 44
22 47 43
22 49 44
22 48 43
23 51 46
22 48 43
22 48 44
23 51 46
24 51 47
23 50 45
22 48 44
22 48 43
22 48 44
22 48 43
23 49 44
23 50 45
23 49 45
22 48 43
22 48 44
22 48 43
22 49 45
23 51 46
22 48 43
22 49 44
23 50 45
22 49 45
23 50 45
22 48 44
23 51 46
23 49 45
22 48 43
22 48 44
22 48 44
22 48 43
23 49 45
23 51 47
22 48 44
21 47 42
22 49 44
23 50 45
23 50 45
22 48 43
22 48 44
22 48 43
22 48 43
22 49 44
22 48 44
22 48 44
22 49 44
23 50 45
23 50 45
23 51 46
23 50 45
23 50 45
22 49 44
22 47 43
22 47 43
22 48 43
22 49 44
22 49 44
22 49 44
22 47 43
21 47 42
22 48 43
23 49 45
22 48 44
22 48 44
21 47 43
23 50 46
22 49 45
22 48 44
22 48 44
22 48 44
21 47 42
22 48 43
22 48 44
22 49 45
22 49 44
22 49 44
22 47 43
22 47 43
22 48 43
22 47 43
22 48 43
22 48 44
22 48 43
22 48 44
22 48 44
23 49 45
22 49 45
22 49 44
22 48 43
23 50 46
22 49 44
22 47 43
21 46 42
21 45 41
21 46 42
21 46 41
22 48 44
22 47 43
22 47 43
22 49 44
22 48 44
22 48 43
22 49 44
21 47 42
23 49 45
21 46 41
22 48 43
21 46 42
21 47 42
21 46 42
22 47 43
21 46 42
21 47 42
22 48 43
22 47 43
21 47 43
21 47 42
21 47 42
22 47 43
21 45 41
21 46 41
22 48 44
21 45 41
21 46 42
21 45 41
21 47 42
21 46 42
21 46 41
21 45 40
20 44 40
21 45 41
21 46 42
21 46 41
22 48 43
20 44 40
21 46 41
19 42 38
20 43 38
21 45 40
20 43 39
19 41 36
20 44 39
19 40 36
19 41 36
18 39 34
17 37 32
26 24 19
23 51 46
23 50 45
23 51 46
22 49 44
23 50 45
22 48 44
23 50 45
23 51 46
22 49 44
23 49 44
23 50 45
23 49 45
22 48 44
24 51 46
22 49 44
22 49 44
22 49 44
23 50 45
23 49 44
22 47 43
22 49 44
23 50 45
23 50 45
23 50 45
22 48 43
23 51 46
23 51 46
23 51 46
22 49 44
22 49 45
23 50 45
23 49 45
22 48 43
22 48 43
23 50 45
22 48 43
22 49 44
23 51 46
22 49 44
22 49 44
24 52 47
24 51 46
22 49 44
22 49 44
22 49 44
23 50 45
21 47 42
23 49 45
23 50 45
23 49 45
23 51 46
23 49 45
23 50 45
22 48 43
23 50 46
22 49 44
22 49 44
22 48 44
22 48 43
23 49 45
23 50 45
23 49 45
22 49 44
22 49 44
23 50 45
22 49 44
22 49 44
23 50 45
24 51 46
22 48 44
22 49 44
22 48 43
22 49 44
22 48 44
22 48 44
22 49 44
23 50 45
22 49 45
22 49 44
23 50 45
22 48 43
22 49 44
22 49 44
23 49 44
23 50 46
23 51 46
23 49 45
22 49 44
21 46 41
24 52 47
22 49 44
22 48 43
22 49 44
22 49 44
22 49 44
23 50 45
23 49 45
22 49 44
22 49 44
22 47 43
22 48 44
22 47 43
23 50 45
22 47 43
22 49 44
22 49 44
23 49 45
23 50 45
22 48 44
22 48 44
23 50 45
23 49 45
21 47 42
22 48 44
22 48 44
22 49 44
22 48 44
22 49 44
22 48 44
22 49 45
23 49 45
22 49 44
21 47 42
22 48 43
22 48 43
21 47 42
22 48 43
22 48 44
23 50 45
22 47 43
22 48 44
22 48 44
22 48 44
22 49 44
23 50 45
21 46 42
22 49 44
22 48 43
22 49 44
22 49 44
22 49 44
22 48 44
21 46 42
21 47 43
23 50 45
21 46 42
21 46 42
22 48 44
22 48 43
21 46 42
22 48 44
22 48 43
23 50 45
23 50 45
21 47 43
21 47 43
22 48 44
22 48 44
22 48 43
21 45 41
22 49 44
22 48 44
20 45 41
22 48 43
20 45 41
22 49 44
22 48 44
21 47 42
22 48 43
21 47 43
21 46 42
21 46 42
22 47 42
21 47 42
22 47 43
21 46 42
21 47 43
21 45 41
21 46 41
22 48 43
22 48 43
21 46 42
21 45 41
21 47 42
21 45 41
20 44 39
21 46 41
20 44 39
21 46 41
21 45 40
21 45 40
21 45 40
21 45 40
19 41 36
20 41 36
20 42 37
20 42 37
18 38 34
19 40 35
16 33 29
23 50 45
22 49 44
22 48 43
23 50 45
22 49 44
23 50 45
22 49 44
23 50 45
22 48 43
23 50 45
23 49 44
23 50 45
23 51 46
22 48 44
22 48 44
23 50 45
23 51 46
23 51 46
22 49 44
23 51 46
23 50 45
22 49 44
22 48 43
23 50 45
24 52 47
23 49 44
24 52 47
22 49 45
22 48 43
22 49 44
23 49 45
23 49 45
23 50 45
23 49 45
22 49 44
24 52 47
23 50 45
23 50 45
23 50 45
23 51 46
23 49 45
23 50 45
24 52 47
22 49 44
21 46 42
22 49 44
22 49 44
23 50 45
23 50 46
23 51 46
23 50 46
23 49 45
22 48 43
22 49 44
23 49 45
23 50 45
24 51 46
23 49 44
22 48 44
23 51 46
21 47 42
23 49 45
22 47 43
22 48 43
23 50 45
23 49 45
22 49 44
23 50 45
21 46 42
24 52 47
22 48 44
22 47 43
24 52 47
23 50 46
22 49 44
22 47 43
22 49 44
22 49 44
23 49 45
22 48 43
22 48 43
22 48 43
22 48 43
21 46 42
23 49 45
22 48 44
22 48 44
22 49 44
22 47 43
23 51 46
23 50 45
23 50 45
23 50 45
23 50 46
22 48 44
22 48 43
22 49 44
22 48 43
22 49 45
23 50 45
23 50 45
23 50 45
22 48 43
22 48 44
23 51 46
23 49 45
22 49 44
22 48 43
23 50 45
22 48 43
22 48 43
22 48 44
21 46 42
22 49 45
22 48 44
22 48 44
23 49 45
23 50 45
21 47 42
22 49 44
21 46 42
22 47 43
22 49 44
22 47 43
22 49 44
21 47 42
22 47 43
23 50 46
22 49 44
22 48 43
23 50 45
23 50 45
22 49 44
22 49 44
22 47 43
22 48 44
22 48 43
22 47 43
23 50 45
23 50 45
22 49 45
21 46 42
22 48 44
21 47 42
22 47 43
21 47 42
22 49 44
22 48 44
22 48 43
22 48 44
21 47 42
21 46 42
21 47 42
22 47 43
21 47 42
22 48 43
21 47 42
22 49 44
21 46 42
21 45 41
21 47 43
21 46 42
22 48 43
21 45 41
22 47 43
21 45 41
22 48 44
22 48 44
22 47 43
22 47 43
22 47 43
22 48 43
21 47 42
21 47 42
21 46 42
21 47 42
22 48 43
21 47 42
22 48 44
21 46 42
21 45 41
22 47 42
21 45 41
21 47 42
21 45 41
21 46 42
21 45 40
21 46 41
21 45 40
21 46 41
21 46 41
21 45 40
20 43 39
20 42 38
20 42 38
20 41 36
19 41 36
19 40 35
18 38 34
17 35 31
23 50 45
23 50 45
23 51 46
23 51 46
24 52 47
23 50 46
23 49 44
23 50 45
22 49 44
23 50 45
22 48 43
23 49 45
23 51 46
23 50 45
23 50 45
23 50 45
22 49 44
23 50 46
23 49 44
22 49 44
22 48 43
23 51 46
22 47 43
22 49 44
23 51 46
23 49 45
23 50 45
22 49 44
23 50 45
24 52 47
24 52 47
23 51 46
22 48 43
22 48 43
23 51 46
22 49 44
22 49 44
23 51 46
24 51 46
23 49 45
22 48 43
22 48 43
23 51 46
22 48 44
23 51 46
24 52 47
23 51 46
23 50 45
23 49 45
23 50 45
22 49 44
23 51 46
22 48 44
22 49 44
23 50 45
22 48 43
22 49 44
22 49 44
23 49 45
22 49 44
23 50 45
22 49 44
22 47 43
23 51 46
23 50 45
22 49 44
23 49 44
23 49 45
23 50 45
22 49 44
22 48 44
22 48 44
23 50 46
22 49 44
23 49 45
22 48 43
23 50 45
22 49 44
22 49 44
22 48 44
22 48 43
22 49 44
22 48 43
23 49 45
23 50 46
21 47 43
23 49 45
22 48 43
22 49 44
23 50 45
22 48 43
23 50 45
22 48 43
22 48 44
22 48 44
22 49 44
22 48 43
22 47 43
22 48 44
22 49 44
23 49 45
22 47 43
22 48 44
21 46 42
21 47 42
22 47 43
22 48 44
23 50 45
22 48 43
23 50 45
23 50 45
21 47 42
22 48 44
22 49 44
21 47 42
21 47 43
22 48 44
22 48 44
22 49 44
22 48 44
23 49 45
22 48 44
22 49 44
23 50 45
22 49 44
21 46 42
22 48 43
22 48 44
22 49 44
23 51 47
23 50 45
22 49 44
23 51 46
22 49 45
23 50 45
23 50 45
21 47 42
22 47 43
22 47 43
21 47 42
22 47 43
22 48 43
22 47 43
23 49 45
21 47 43
22 49 44
22 48 43
22 47 43
22 47 43
21 46 42
21 45 41
21 46 42
21 46 42
22 49 44
22 49 45
21 45 41
22 49 44
23 49 45
22 47 43
22 48 44
22 48 43
22 47 43
21 46 42
22 48 44
22 48 43
22 48 44
23 50 45
21 47 42
21 47 42
21 47 42
21 47 43
21 46 42
21 46 42
21 46 42
20 45 40
21 47 42
22 48 43
21 46 42
21 47 42
21 46 42
21 46 42
21 46 42
21 46 41
22 47 43
22 47 42
21 46 41
21 45 40
21 46 41
21 46 42
22 47 42
20 43 38
20 43 39
21 44 40
21 45 40
21 44 39
19 41 37
19 41 36
19 41 36
19 41 36
19 40 35
23 50 45
23 49 45
23 50 45
23 49 44
23 49 44
23 51 46
23 50 45
22 49 44
23 49 45
23 50 45
23 49 45
23 49 44
22 49 44
22 49 44
22 48 43
23 51 46
23 50 45
23 51 46
23 51 46
23 50 45
24 52 47
22 48 44
22 49 44
22 49 44
22 49 44
23 49 44
23 49 44
23 50 45
23 50 45
23 50 45
23 50 45
24 52 47
23 50 45
22 48 44
22 47 43
22 49 44
23 50 45
22 49 44
23 51 46
22 48 43
23 51 46
23 51 46
22 48 43
23 49 44
23 51 46
23 49 44
22 47 43
22 48 44
22 48 44
22 48 43
22 49 44
23 50 45
22 49 44
23 51 46
24 52 47
23 50 45
22 49 44
23 49 45
22 49 44
22 49 44
23 50 45
23 50 46
22 48 43
23 50 46
22 48 43
21 47 42
22 49 44
22 49 44
23 50 45
22 49 44
23 50 45
22 48 43
22 49 44
23 49 45
22 48 44
22 48 43
22 49 44
23 49 44
23 50 45
22 49 44
22 48 43
23 49 44
22 49 44
22 49 44
22 49 44
23 49 45
23 50 45
23 51 46
22 47 43
22 48 44
23 50 45
22 49 44
23 49 45
22 47 43
22 49 44
22 49 44
21 46 42
22 48 43
23 50 45
23 51 46
22 49 44
21 47 42
22 48 44
23 49 45
23 50 45
22 49 44
22 48 44
22 49 44
22 47 43
23 50 46
22 48 44
22 48 43
22 48 43
22 48 44
22 48 43
22 47 43
22 48 43
22 49 45
22 49 45
23 49 45
21 47 42
22 48 44
22 49 44
22 48 44
21 47 43
23 50 46
22 49 44
21 47 43
22 48 44
21 47 42
22 47 43
22 48 44
21 46 42
22 47 43
22 48 43
22 49 44
22 47 43
23 49 45
23 50 45
22 47 43
22 49 44
22 48 44
21 47 43
22 48 43
22 49 44
22 48 43
23 49 45
22 48 43
22 48 43
22 48 43
22 47 43
22 47 43
21 45 41
21 45 41
22 48 44
22 47 43
22 48 44
23 50 45
22 47 43
23 49 45
21 47 43
22 48 44
21 46 42
22 49 44
21 46 42
22 47 43
21 46 42
22 48 44
22 48 43
22 48 43
22 48 43
22 48 44
23 50 46
22 49 44
21 47 42
21 46 42
22 47 43
22 47 43
21 47 42
21 45 41
22 49 44
20 45 40
21 45 41
21 47 42
22 47 43
22 48 43
21 46 41
20 44 40
20 45 40
21 45 41
21 45 41
21 45 41
21 44 40
21 44 40
20 44 39
20 44 39
20 43 39
19 41 37
21 43 38
20 42 37
22 49 44
23 49 45
23 49 44
23 49 45
23 50 45
23 50 45
23 50 46
23 50 45
23 50 45
22 48 43
23 51 46
22 49 44
22 49 44
23 49 44
24 52 47
23 51 46
22 48 43
23 49 44
23 50 45
23 50 45
22 48 43
23 50 46
23 50 45
23 49 45
23 50 45
23 50 45
23 51 46
23 49 44
22 49 44
22 49 44
23 50 45
23 50 45
24 53 48
22 49 44
22 48 44
23 50 45
22 49 44
22 49 44
23 50 46
23 51 46
24 51 46
23 49 44
24 51 46
23 51 46
22 49 44
21 47 42
23 51 46
23 51 46
23 49 45
23 49 45
24 51 46
23 50 45
22 49 44
23 50 45
23 51 46
22 49 45
23 49 45
23 51 46
23 50 45
23 50 45
23 49 44
22 49 44
23 50 45
24 51 46
21 47 42
22 48 44
23 49 45
23 50 46
22 48 43
22 49 44
22 48 43
22 48 43
23 49 45
23 49 45
22 48 44
23 50 46
23 49 45
23 50 45
22 47 43
22 49 44
24 52 47
23 49 45
23 51 46
22 49 44
22 49 44
23 49 45
22 48 44
22 48 43
22 48 44
23 50 45
22 48 43
22 47 43
20 45 41
22 49 44
23 50 45
23 50 45
23 51 46
21 46 42
21 47 42
22 48 43
23 50 45
23 50 45
22 49 45
22 48 43
23 50 46
22 48 44
22 48 43
22 48 43
23 50 45
22 49 44
21 46 42
23 50 45
21 47 42
23 50 45
23 49 45
22 49 44
21 47 43
21 47 43
22 49 44
21 46 42
22 47 43
22 47 43
22 48 44
22 48 43
23 51 46
21 46 42
23 49 45
21 46 42
22 48 44
22 49 44
21 47 42
22 48 43
22 48 44
22 48 43
21 47 42
22 48 43
21 47 43
22 48 43
22 49 44
21 47 43
22 48 44
22 48 43
21 47 43
21 47 42
21 47 43
22 47 43
22 48 44
22 49 44
22 48 43
21 47 43
22 48 43
22 48 43
21 45 41
21 46 42
22 48 44
22 47 43
23 50 45
21 45 41
21 47 42
22 47 43
21 46 42
22 47 43
22 48 43
21 47 43
21 47 42
23 50 45
22 48 44
22 47 43
21 46 42
21 46 42
21 46 42
22 48 44
21 45 41
21 46 42
21 46 41
21 46 42
21 46 41
21 46 42
22 48 44
21 46 42
21 47 42
21 46 42
21 46 41
22 47 42
21 46 41
21 47 42
21 46 42
21 45 41
21 46 42
21 46 41
20 44 39
21 45 40
20 43 39
20 44 39
21 45 40
21 45 40
21 45 40
20 42 37
19 40 36
20 43 38
24 52 47
23 51 46
22 49 44
23 50 45
23 49 44
23 50 45
23 51 46
24 52 47
23 50 45
23 50 45
24 52 47
21 47 42
23 50 45
23 50 45
22 49 44
23 50 45
22 48 44
23 50 45
24 52 47
22 49 44
23 51 46
23 50 45
23 50 45
23 50 45
22 49 44
23 50 45
22 49 44
22 49 44
22 48 44
22 47 43
22 49 44
22 48 43
22 49 44
23 50 45
22 49 44
22 49 44
22 49 44
23 50 45
22 49 44
22 47 43
22 49 44
24 51 46
23 50 45
24 52 47
23 51 46
22 48 44
23 50 45
22 48 44
22 49 44
22 48 43
22 48 43
23 51 46
22 48 43
23 50 45
23 49 44
21 47 42
22 48 43
23 50 45
22 49 44
23 50 45
23 50 45
22 49 44
22 49 44
23 50 45
23 51 46
22 49 44
23 50 45
22 48 43
23 51 46
22 49 44
23 51 46
21 47 42
22 47 43
23 50 45
23 49 45
22 49 44
22 48 43
23 51 46
22 48 44
22 49 44
22 49 44
23 50 45
23 50 45
23 50 45
22 48 43
22 49 44
22 48 44
21 47 43
22 49 44
23 49 45
23 50 46
23 51 46
22 49 44
22 48 44
22 48 43
23 49 45
23 50 45
21 47 42
23 49 45
22 49 44
23 49 45
23 50 45
22 48 44
23 51 46
22 49 45
23 51 46
22 48 44
22 48 44
22 47 43
22 48 43
22 49 44
22 49 44
22 47 43
22 47 43
22 47 43
22 49 44
22 49 44
22 49 44
22 47 43
22 48 44
22 48 43
23 50 45
22 48 43
23 50 45
23 50 45
22 48 43
21 46 42
21 45 41
22 49 44
22 48 44
22 49 44
22 48 43
22 47 43
23 49 45
22 48 44
22 48 44
22 48 43
21 47 42
22 48 44
21 47 43
22 47 43
22 48 44
22 49 44
22 48 44
22 49 44
22 49 44
22 49 44
22 48 44
22 47 43
22 47 42
23 49 45
21 47 43
22 48 44
22 47 43
22 48 44
21 46 42
21 46 42
22 47 43
22 49 44
20 45 41
22 47 43
22 48 44
22 48 43
21 47 42
22 48 43
21 45 41
22 49 44
22 48 44
21 47 43
21 47 42
22 48 43
21 47 42
22 48 43
22 48 43
20 44 40
21 47 42
21 46 42
22 48 43
22 48 43
21 47 42
23 50 45
22 47 43
21 46 41
21 46 42
21 47 42
21 45 40
21 46 42
20 44 40
20 43 39
21 46 41
21 47 42
21 45 41
21 45 40
20 44 39
21 44 40
21 44 40
21 45 41
21 44 39
21 45 40
21 44 39
24 52 47
23 51 46
22 49 44
23 50 45
23 51 46
24 52 47
22 48 43
22 49 44
23 49 45
23 50 45
21 47 42
24 52 47
23 50 45
22 49 44
23 49 45
22 48 43
22 49 44
23 51 46
23 50 45
24 51 46
23 51 46
22 49 44
22 49 44
21 47 42
23 50 45
23 51 46
23 50 45
23 50 45
23 49 45
23 49 44
22 49 44
22 49 44
22 48 43
23 49 45
24 53 48
23 49 45
23 50 45
22 49 44
23 51 46
21 46 42
23 51 46
22 49 44
22 48 43
22 49 44
23 50 45
22 48 44
23 50 45
22 48 44
23 49 45
22 47 43
23 49 44
22 48 43
23 49 45
23 50 45
23 50 46
22 49 44
22 49 44
22 49 44
23 50 46
22 49 44
23 49 45
23 50 45
24 53 48
23 51 46
23 51 46
22 48 43
21 47 43
22 48 44
22 49 44
23 50 45
21 47 42
22 49 44
23 50 45
22 49 44
22 48 43
23 51 46
23 50 45
22 48 44
23 50 46
22 49 44
22 49 44
22 48 43
22 49 44
21 47 42
22 48 44
22 49 44
22 48 44
22 49 44
21 46 42
22 48 44
22 48 43
22 49 44
22 48 44
24 52 47
23 50 45
23 51 46
23 49 45
22 49 44
24 52 47
22 48 44
22 49 44
22 47 43
22 49 45
22 48 43
23 49 45
22 48 44
22 47 43
22 48 43
22 48 44
23 50 45
22 49 44
21 47 43
22 49 44
21 47 42
21 46 42
22 47 43
22 48 44
21 46 42
22 49 44
22 48 44
22 47 43
22 48 44
21 47 42
22 48 43
22 49 44
21 46 42
22 48 43
22 49 44
22 49 44
22 48 43
22 48 44
22 48 43
22 47 43
22 49 44
22 47 43
22 48 44
22 49 44
22 48 43
22 49 44
22 49 45
21 46 42
22 49 44
21 46 42
21 46 42
21 46 42
21 47 42
23 50 45
22 49 45
22 48 44
21 45 41
22 49 44
22 49 44
22 48 44
21 47 42
21 46 42
21 46 42
22 48 44
21 47 42
22 48 43
22 48 44
21 47 43
22 48 44
22 48 43
21 46 41
21 47 42
22 48 43
22 48 43
21 47 43
21 47 43
22 48 44
21 47 42
22 48 44
21 47 42
21 45 41
21 46 42
23 49 44
21 46 42
22 48 43
21 46 42
22 48 44
21 46 41
20 44 40
22 47 43
22 47 43
21 46 42
20 44 40
22 48 43
21 45 41
21 45 40
21 46 41
21 45 41
21 45 41
21 45 41
21 45 41
20 44 40
21 46 42
21 44 40
20 42 38
21 44 40
20 43 38
23 51 46
22 49 44
22 49 44
23 50 45
23 50 45
22 49 44
23 50 45
23 50 45
22 48 44
23 50 45
23 49 44
23 50 45
22 49 44
23 51 46
22 48 43
23 49 44
23 49 45
22 49 44
22 49 44
22 49 44
22 49 44
23 50 45
23 50 45
23 50 45
24 51 46
23 49 45
22 48 44
23 51 46
23 49 44
23 49 44
23 50 45
23 51 46
23 49 45
23 49 44
23 49 44
23 50 45
23 50 45
22 48 43
23 49 44
23 49 45
23 51 46
22 48 44
24 53 48
23 49 45
23 50 45
23 49 44
23 51 46
23 51 46
22 48 44
23 49 44
23 50 45
21 47 42
22 48 44
22 48 44
23 49 45
22 47 43
23 49 45
22 48 43
22 48 43
22 48 43
22 49 44
23 50 45
23 49 45
22 49 44
23 49 45
22 48 43
22 49 44
23 51 46
22 49 44
23 50 45
21 47 42
22 49 44
22 48 44
23 50 45
24 51 46
22 48 43
22 48 44
22 48 44
22 48 44
23 50 45
22 47 43
22 48 43
22 48 44
22 48 44
22 49 44
22 47 43
22 48 44
21 47 42
23 50 45
23 49 44
22 48 43
21 46 42
23 50 45
22 49 44
22 49 44
23 49 45
21 47 42
22 48 44
23 49 44
23 50 45
22 48 44
22 48 44
23 50 46
22 49 44
22 49 44
22 48 43
22 48 43
22 47 43
22 49 44
21 47 43
23 50 46
21 46 42
22 47 43
23 49 45
22 49 44
21 46 42
21 47 42
22 48 43
21 46 41
23 49 45
21 47 42
23 49 45
23 50 45
24 53 48
22 48 43
22 48 43
23 49 44
22 48 44
21 45 41
23 51 46
22 47 43
21 47 42
22 48 43
21 47 42
22 49 44
22 49 44
21 46 42
22 49 44
22 48 44
21 46 42
22 48 44
21 47 42
21 47 42
21 46 42
22 49 44
22 49 44
21 47 42
22 48 43
22 48 43
22 48 43
21 47 42
21 46 41
22 48 44
21 47 43
22 49 45
22 49 44
22 49 45
21 47 42
22 48 44
21 46 41
21 46 41
21 47 42
21 47 43
22 47 43
21 46 42
21 46 42
22 48 43
22 48 44
22 49 45
22 48 44
22 47 43
22 48 43
22 48 43
22 47 43
22 47 43
21 46 42
22 48 44
21 46 41
20 45 41
22 49 44
21 45 41
22 48 43
22 47 43
21 45 41
21 46 42
22 49 44
22 47 43
21 46 42
20 45 40
21 45 41
21 44 40
21 46 41
23 50 45
21 46 42
21 45 40
21 45 40
21 45 40
20 44 40
21 45 40
20 44 39
23 50 45
22 49 44
23 49 44
23 49 44
23 49 45
23 51 46
22 49 44
22 49 44
23 50 45
22 49 44
22 48 43
23 49 44
23 49 44
22 48 44
23 49 44
23 50 45
23 49 45
22 49 44
23 51 46
23 50 45
22 48 43
22 49 44
23 50 45
22 48 43
22 49 44
23 51 46
23 50 45
22 49 44
22 48 44
22 48 43
24 51 46
22 48 44
23 50 45
23 50 45
22 49 44
22 48 44
22 48 44
23 50 45
22 48 44
22 49 44
23 50 45
22 49 44
23 49 45
23 51 46
23 49 45
23 49 45
22 48 44
22 49 44
23 49 45
23 50 45
23 50 45
23 51 46
22 48 43
22 48 44
22 48 44
22 49 44
22 47 43
22 48 44
22 48 43
22 49 44
22 48 43
22 49 44
23 50 46
23 50 45
23 50 45
22 49 44
22 48 44
22 48 44
22 48 44
23 50 45
23 50 45
22 49 44
22 48 43
22 49 44
22 49 44
22 49 44
21 47 42
22 49 45
23 51 46
22 48 44
24 52 47
22 49 44
22 47 43
21 47 42
22 47 43
22 49 44
23 51 46
22 49 44
22 48 43
23 49 45
23 50 45
22 49 44
22 48 43
22 49 44
22 47 43
21 46 42
23 51 46
21 47 42
22 49 44
22 48 44
22 48 43
21 46 41
22 48 44
22 49 44
21 47 42
22 47 43
22 49 44
23 50 45
22 49 44
22 48 43
22 49 44
22 48 44
22 48 44
22 48 44
22 48 43
21 47 42
22 49 44
22 47 43
22 49 44
22 48 44
21 47 42
22 49 44
22 48 43
22 48 43
22 48 44
22 48 44
22 47 43
21 47 42
22 49 44
22 48 43
22 49 44
22 49 44
21 47 43
22 47 43
22 49 44
22 48 44
22 49 44
22 49 45
23 51 46
22 47 43
22 49 44
23 50 45
22 48 43
21 46 41
22 47 43
22 48 43
22 49 44
22 49 45
23 50 46
22 49 45
21 46 42
21 47 42
23 50 45
21 46 41
21 47 43
23 49 45
21 47 43
22 48 43
21 46 42
22 49 44
21 47 42
21 45 41
22 47 43
22 49 44
21 46 41
22 49 44
22 47 43
23 50 46
22 49 44
22 48 43
21 47 43
22 48 43
21 47 42
21 46 42
21 46 42
22 48 43
21 45 41
20 44 40
21 45 41
22 48 44
21 47 42
20 44 40
21 47 42
21 47 42
22 48 43
21 45 40
22 48 44
21 47 43
22 47 43
20 44 40
21 46 41
21 46 42
21 45 41
22 47 42
21 45 41
20 44 40
21 46 41
21 46 42
21 45 41
21 46 41
22 49 44
23 50 45
22 49 44
23 50 46
22 49 44
23 50 45
22 48 43
23 50 45
24 53 47
21 47 42
22 47 43
23 51 46
23 50 45
21 46 41
22 49 44
23 50 45
24 52 47
23 51 46
23 51 46
23 49 44
23 50 45
23 51 46
23 49 45
23 50 45
24 52 47
23 50 45
22 48 44
24 51 46
21 47 42
23 51 46
22 48 43
22 48 43
23 50 45
23 50 45
22 49 44
22 49 44
23 49 45
23 49 45
22 49 44
23 50 45
23 50 45
23 51 46
23 50 45
23 51 46
22 49 44
22 48 43
23 50 45
23 51 46
22 48 44
23 51 46
23 50 45
23 50 45
22 48 43
22 49 44
22 47 43
22 49 44
23 49 45
22 49 44
23 50 45
23 50 45
23 50 45
23 50 46
23 51 46
23 51 46
22 48 44
23 50 45
22 48 43
23 51 46
22 48 43
22 49 44
23 50 45
21 47 42
22 47 43
22 47 43
23 50 45
22 49 45
22 48 43
22 48 44
22 48 44
23 49 45
22 48 44
23 49 45
23 50 46
23 50 45
22 49 44
22 48 44
23 50 45
22 49 44
24 52 47
22 48 44
22 48 43
22 48 43
23 49 45
21 47 42
22 49 44
23 51 46
23 49 45
22 49 45
22 48 44
22 49 44
23 50 45
23 50 45
23 51 46
22 47 43
21 47 43
23 50 45
23 51 46
23 51 46
22 48 43
22 49 44
22 47 43
22 49 44
21 46 42
22 48 44
22 48 44
23 50 45
23 50 45
22 48 44
21 46 42
22 47 43
21 47 42
22 48 43
23 50 45
22 48 43
22 48 43
21 47 43
22 49 44
23 49 45
22 48 43
22 48 44
23 50 46
23 50 45
22 48 44
22 49 44
23 50 45
22 49 44
22 49 45
23 50 46
22 49 44
22 48 43
21 46 42
22 47 43
22 49 45
22 48 44
22 49 44
21 47 43
21 47 42
21 46 42
21 47 43
22 48 43
21 46 42
22 48 43
21 47 42
21 46 42
21 47 42
21 47 43
22 48 43
22 48 43
22 47 43
22 49 44
21 47 42
21 46 42
21 47 43
21 47 42
21 46 42
22 49 44
22 48 43
23 49 45
22 49 44
23 50 45
22 49 44
22 48 44
21 46 42
21 47 42
23 51 46
21 47 43
21 47 42
21 47 42
21 46 42
21 47 42
22 47 43
21 46 42
20 44 40
21 46 41
21 46 42
21 46 41
22 47 43
21 47 43
22 48 43
22 48 44
21 46 42
21 45 41
21 45 41
21 46 42
22 47 42
20 45 41
21 45 41
20 44 40
20 44 40
20 44 40
23 50 45
24 52 47
22 49 44
22 48 43
23 50 46
23 50 46
23 51 46
22 48 43
23 50 45
23 50 46
23 50 45
22 48 43
23 50 45
23 50 45
22 49 44
23 49 44
22 49 44
22 49 44
22 48 44
23 50 45
22 49 44
22 48 44
23 50 45
23 49 44
22 49 44
23 50 45
22 48 43
23 50 45
23 50 45
24 53 48
24 52 47
23 50 46
24 53 47
23 51 46
22 49 44
23 51 46
23 50 45
22 48 44
22 49 44
22 49 44
23 50 45
22 48 43
23 49 45
23 50 45
22 48 43
24 52 47
24 51 46
22 47 43
23 50 45
22 48 44
22 48 43
23 50 45
22 48 44
24 52 47
22 48 43
23 49 45
22 48 43
23 50 45
22 48 43
23 49 45
24 52 47
24 52 47
23 51 46
23 51 46
23 50 45
22 49 44
22 49 44
22 49 44
23 50 45
22 49 44
22 49 44
22 49 44
22 48 43
24 52 47
24 51 46
21 47 42
22 49 44
23 51 46
23 49 45
22 49 44
22 49 44
22 49 44
22 48 43
22 48 43
22 48 44
22 48 44
22 48 44
23 50 45
23 50 45
21 46 41
21 47 43
22 47 43
22 48 44
22 48 44
22 49 44
23 50 45
22 48 43
22 49 44
22 48 44
23 51 46
22 48 43
22 48 43
22 48 44
23 50 45
22 49 44
22 48 43
22 48 44
22 49 44
22 49 44
23 51 46
22 48 44
22 49 44
22 48 43
23 50 45
22 48 43
22 48 44
22 49 44
22 48 43
22 49 45
22 48 43
21 47 43
22 49 44
22 49 44
23 50 45
21 46 42
23 49 45
22 48 43
22 49 45
22 49 44
22 48 44
21 46 42
22 47 43
22 48 43
21 46 41
22 48 43
22 48 44
22 49 44
21 47 42
23 50 45
22 49 44
22 49 45
21 47 42
22 49 44
22 47 43
21 47 43
22 48 44
22 49 44
22 48 43
23 50 45
23 50 45
22 48 44
23 50 45
22 48 43
22 49 45
22 47 43
22 48 44
21 47 42
22 48 43
22 48 43
22 49 44
20 45 41
21 46 42
22 48 43
21 46 42
21 47 42
22 49 44
22 48 43
22 48 44
22 48 43
21 47 43
22 48 44
22 49 44
21 46 42
21 46 42
21 47 43
22 48 44
21 46 41
21 47 42
22 47 43
22 49 45
22 48 43
21 46 42
22 48 44
21 46 42
21 45 40
21 46 42
22 48 44
21 46 42
21 45 41
21 45 41
22 47 43
21 46 42
21 46 42
21 46 42
21 46 42
21 46 42
21 45 41
21 46 42
21 46 42
21 46 42
23 49 45
23 50 45
23 51 46
22 49 44
22 49 44
23 49 44
22 48 43
23 51 46
22 49 44
23 50 45
23 49 45
24 51 46
22 49 44
22 49 44
23 50 45
22 49 44
24 53 47
24 52 47
22 48 43
23 51 46
23 50 45
22 49 44
22 49 44
23 50 45
22 48 43
23 50 45
22 48 44
23 51 46
23 49 45
22 48 43
24 51 46
23 50 45
23 50 45
22 48 44
24 51 46
22 49 44
23 51 46
22 49 44
22 49 44
23 49 45
22 47 43
23 49 44
23 50 45
22 47 43
22 49 44
22 49 44
24 51 46
22 49 44
22 49 44
23 51 46
23 49 45
22 49 44
22 48 44
22 48 43
22 48 44
22 47 43
22 48 44
22 49 44
22 49 44
22 49 44
24 52 47
23 50 45
23 50 45
23 51 46
23 50 45
23 50 45
22 47 43
22 48 44
23 50 45
23 50 45
23 50 45
22 49 44
22 49 44
23 50 45
22 48 43
21 47 43
22 48 44
22 49 44
22 47 43
23 50 45
23 50 45
23 49 45
23 49 45
22 47 43
22 49 44
22 49 44
22 49 44
22 49 44
22 48 44
23 49 45
22 49 44
22 48 43
22 48 43
23 50 45
23 50 46
22 49 44
22 48 44
22 48 44
21 47 42
22 48 44
22 48 43
22 48 44
23 50 45
22 47 43
21 47 42
22 48 43
22 48 43
22 48 43
22 49 45
22 48 43
22 48 43
22 48 44
21 47 42
22 48 43
22 48 43
21 47 42
23 50 45
22 49 44
23 51 46
22 48 44
22 48 44
21 47 43
22 49 44
21 47 42
21 46 42
22 47 43
23 49 45
22 48 44
22 48 43
22 49 44
22 49 44
21 47 43
22 48 44
22 48 44
23 50 45
21 45 41
22 47 43
23 50 45
22 49 44
22 48 44
22 49 44
21 46 42
22 47 43
23 51 46
21 46 42
22 48 44
22 48 43
22 48 44
22 48 43
22 48 43
22 49 44
21 46 42
22 47 43
21 46 42
21 47 43
21 46 42
21 47 42
23 50 45
22 47 43
21 47 42
22 48 44
22 49 44
21 45 41
22 47 43
21 47 42
21 46 42
22 48 43
21 46 42
22 48 44
22 48 44
22 48 43
22 48 43
21 47 43
21 47 43
21 45 41
20 45 41
21 47 42
21 47 43
21 47 42
21 46 42
22 48 43
22 47 43
21 46 42
21 47 42
21 45 41
21 47 42
21 45 41
22 47 43
22 48 43
21 45 41
23 50 45
21 46 42
21 46 42
21 46 41
21 47 42
21 45 41
21 47 42
21 46 42
22 48 43
21 45 41
23 50 45
22 49 44
23 50 45
24 52 47
23 49 44
23 51 46
22 49 44
22 48 43
23 49 45
23 50 45
22 49 44
23 50 45
22 49 44
21 47 42
23 50 45
22 48 44
22 48 43
22 47 43
23 50 45
22 48 44
22 49 44
24 52 47
21 47 42
22 49 44
22 49 44
23 51 46
22 49 44
23 49 45
23 50 45
23 50 45
22 48 43
22 49 44
23 51 46
23 50 45
22 49 44
23 50 45
23 50 45
23 50 46
23 51 46
23 50 45
23 50 45
23 50 45
22 49 44
23 50 45
23 50 46
23 50 45
23 50 45
22 48 43
23 49 45
23 50 46
22 48 43
23 50 45
23 49 45
23 51 46
21 46 42
22 49 44
23 50 45
23 51 46
22 49 44
23 50 45
22 49 44
22 49 44
22 49 44
22 48 43
22 49 44
22 48 44
22 48 44
21 47 42
23 50 45
23 50 45
23 50 45
21 47 43
23 51 46
23 50 45
24 51 46
22 49 44
23 50 46
23 50 45
21 47 42
21 47 43
23 50 45
22 48 43
22 49 44
22 49 44
22 49 44
23 50 45
22 48 44
22 49 44
22 48 43
23 50 45
22 49 44
23 50 45
22 49 44
22 48 44
22 48 43
22 48 44
22 47 43
22 49 44
22 48 43
23 50 45
21 46 42
23 49 45
23 51 46
22 47 43
22 48 43
22 48 43
21 46 42
23 49 45
22 49 44
22 49 44
23 49 45
23 50 46
22 48 44
22 48 43
21 46 42
23 50 45
21 46 42
21 46 42
22 49 44
21 47 43
21 46 42
22 47 43
22 48 43
22 48 44
21 45 41
22 48 43
22 48 43
21 46 42
22 49 45
22 48 44
21 46 42
22 49 44
22 48 44
22 48 43
22 47 43
22 48 43
22 48 43
22 49 44
22 47 43
21 46 42
22 48 43
23 49 45
22 48 44
22 49 45
22 49 44
21 47 43
21 46 42
22 48 44
22 49 44
22 48 44
21 46 42
21 47 43
21 46 42
22 49 44
21 47 42
22 48 44
22 48 44
22 48 44
22 49 44
22 47 43
22 47 43
22 47 43
22 49 44
23 49 45
22 48 44
22 47 43
21 46 42
21 47 42
21 46 42
21 47 43
21 47 43
23 50 45
21 47 42
21 46 42
21 46 42
21 46 42
21 47 43
21 46 42
22 47 43
21 46 42
21 47 42
22 48 44
23 49 44
22 48 43
21 45 41
22 48 43
21 46 42
22 48 44
21 46 42
22 47 43
22 48 44
21 47 42
21 45 41
20 44 40
21 47 42
21 46 42
21 47 43
22 48 43
22 48 43
22 49 44
22 48 43
23 51 46
22 48 43
22 49 44
23 50 45
22 48 43
23 50 45
23 50 45
23 50 45
23 49 44
23 50 45
23 50 45
22 49 44
22 48 43
22 49 44
23 50 45
21 46 41
22 48 43
22 48 43
24 52 47
23 50 45
22 49 44
23 50 45
24 52 47
22 47 43
22 49 44
22 48 43
22 48 43
22 48 43
22 49 44
24 52 47
23 51 46
22 48 43
24 52 47
22 47 43
22 48 44
23 50 45
21 46 42
22 49 44
23 51 46
23 50 46
22 49 44
22 48 43
23 51 46
22 48 43
23 50 45
22 48 43
22 49 44
22 48 43
22 48 43
23 49 45
23 49 45
22 48 44
22 48 43
23 51 46
22 49 44
22 48 43
22 48 43
22 49 44
24 51 46
22 48 43
22 48 44
22 49 44
22 48 44
24 52 47
22 49 44
22 48 44
21 47 42
22 47 43
22 49 44
23 50 45
23 51 46
21 47 42
22 49 44
22 49 44
23 50 45
22 49 45
23 49 44
23 51 46
21 47 42
23 50 45
23 50 45
22 48 43
23 50 45
23 50 45
22 48 43
21 47 42
22 47 43
23 50 45
21 47 42
22 47 43
22 49 44
22 49 44
22 49 44
22 49 44
23 49 45
23 50 46
22 47 43
22 48 43
22 48 44
22 48 43
21 47 42
22 48 43
22 49 44
22 47 43
23 50 45
22 47 43
22 49 44
22 49 44
22 48 44
23 50 45
23 50 46
21 46 42
22 48 44
21 46 42
22 48 44
22 47 43
22 47 43
22 49 45
21 46 42
22 48 43
21 47 43
22 47 43
23 50 45
22 49 44
21 46 41
22 48 43
22 49 45
22 49 44
21 46 42
22 48 44
22 49 44
21 47 42
21 47 42
23 50 45
22 47 43
22 48 43
21 46 42
22 47 43
23 51 46
21 46 42
21 47 43
22 49 44
22 48 43
21 47 42
21 47 43
22 49 44
23 49 45
21 47 42
23 49 45
22 47 43
21 47 42
22 47 43
21 47 42
21 46 42
22 48 43
21 47 42
22 49 45
22 49 44
21 46 41
21 46 42
21 47 42
22 47 43
21 47 43
21 47 43
22 49 44
22 48 43
22 47 43
21 47 43
22 48 43
21 47 42
21 45 41
22 48 44
22 49 44
21 46 41
21 46 42
21 46 41
21 47 42
21 46 42
21 46 42
22 47 43
22 48 43
22 48 43
21 46 42
22 47 43
23 49 45
22 47 43
21 46 42
21 46 42
22 48 44
21 47 42
21 45 41
22 47 43
20 44 40
21 45 41
22 48 43
21 45 41
21 47 42
21 46 42
21 47 42
24 52 47
23 49 44
23 50 45
23 50 45
23 50 45
23 50 46
22 49 44
23 51 46
23 51 46
22 47 43
22 49 44
22 49 44
22 49 44
21 47 42
24 51 46
22 49 44
22 49 44
22 49 44
23 51 46
22 48 43
23 50 45
24 52 47
22 48 43
22 48 43
22 49 44
23 49 45
23 50 45
23 50 45
23 50 45
22 49 44
22 48 44
24 51 46
21 47 42
23 50 45
23 50 45
22 49 44
23 51 46
23 50 46
22 48 43
23 50 45
23 50 45
23 50 45
23 49 44
22 49 44
22 48 44
22 47 43
23 50 45
23 50 45
24 53 48
22 49 44
23 50 45
22 49 44
22 48 43
23 49 45
22 49 44
23 51 46
23 49 45
23 50 45
22 49 44
22 48 43
22 47 43
22 49 44
22 49 44
23 50 45
23 50 45
23 49 45
22 47 43
22 47 43
22 49 44
23 50 45
22 49 44
23 50 45
22 47 43
22 48 43
23 51 46
23 49 45
22 49 44
22 48 43
22 48 44
23 51 46
23 50 45
22 49 44
23 51 46
22 49 44
22 48 44
22 48 44
21 45 41
23 50 45
22 49 44
22 49 44
22 49 44
23 51 46
24 53 48
23 49 45
21 45 41
23 50 45
22 49 44
22 48 44
23 50 46
22 48 44
22 49 44
23 50 45
21 47 43
22 48 43
21 47 43
22 47 43
22 49 44
22 49 45
23 51 46
22 49 45
22 49 44
22 47 43
21 47 43
21 47 43
21 46 42
22 49 44
21 47 42
22 49 44
23 50 46
22 47 43
22 49 44
21 46 42
21 47 43
22 48 43
21 46 42
22 48 43
22 48 44
22 48 44
22 48 43
22 49 44
21 47 43
23 50 45
22 47 43
22 49 44
22 49 44
22 48 43
21 47 42
23 49 45
23 51 46
21 47 43
22 47 43
21 47 42
21 47 43
21 47 43
22 47 43
21 47 42
22 49 44
21 47 42
21 47 43
23 49 45
22 48 44
22 48 43
21 47 43
22 49 44
23 50 45
22 49 44
21 47 43
21 47 42
22 48 43
22 48 43
22 49 44
21 46 41
21 46 42
22 48 44
22 47 43
21 47 42
21 47 42
22 47 43
21 47 43
21 47 42
22 48 43
21 46 42
22 48 44
21 47 43
22 49 45
21 46 42
21 46 42
21 47 43
21 46 42
21 47 42
21 46 42
21 46 42
21 47 42
20 45 41
22 49 44
22 47 43
22 47 43
21 47 43
21 47 42
22 47 43
21 47 42
22 47 43
22 48 44
22 47 43
22 48 44
22 47 43
21 46 42
21 46 41
21 46 41
20 45 41
23 51 46
23 50 45
22 49 44
23 51 46
22 47 43
22 48 43
23 50 45
23 51 46
22 49 44
23 50 45
23 51 46
22 47 43
22 49 44
22 49 44
22 48 43
24 52 47
22 48 44
22 48 43
23 49 44
22 49 44
23 50 45
22 49 44
23 50 45
23 51 46
22 48 44
21 47 42
24 52 47
23 51 46
21 47 42
23 50 45
23 51 46
24 51 46
22 48 43
23 50 45
23 49 44
23 50 45
23 50 45
22 49 44
23 49 45
23 50 45
22 48 43
23 50 45
23 50 45
22 49 44
22 48 43
23 49 45
22 49 44
22 49 44
23 51 46
22 49 44
23 49 45
23 49 45
22 49 44
22 48 43
22 49 45
23 50 45
23 50 45
23 51 46
22 49 44
23 50 46
22 49 44
23 50 45
21 47 42
23 50 45
22 48 44
23 51 46
23 50 45
21 47 43
22 48 44
22 48 43
22 48 43
22 48 43
22 48 44
22 48 43
23 49 45
22 49 44
22 48 43
24 52 47
24 52 47
22 49 44
22 49 44
23 50 45
23 51 46
22 47 43
21 47 42
22 48 43
23 50 45
23 49 45
22 48 44
22 48 44
21 47 43
22 48 44
22 48 44
22 48 43
21 47 42
22 48 43
22 48 44
22 48 44
23 50 46
22 48 44
22 49 44
22 48 44
22 49 44
22 49 45
22 49 44
23 50 45
22 48 44
23 49 45
23 50 45
22 49 44
22 49 45
22 49 44
23 49 45
22 48 44
23 50 45
22 47 43
22 48 43
23 50 45
22 48 44
21 47 43
22 48 43
22 48 43
21 47 42
23 50 45
22 48 44
22 48 44
22 48 44
21 46 42
22 49 44
23 50 46
22 48 43
22 49 45
21 47 42
22 48 43
22 49 44
21 47 43
22 48 44
22 49 44
23 50 46
22 47 43
22 48 44
21 45 41
21 47 43
21 47 42
22 49 45
21 45 41
21 46 42
22 48 43
21 47 43
21 46 42
22 49 44
21 47 43
22 47 43
22 47 43
21 47 42
22 48 43
23 49 45
21 46 42
22 48 43
22 48 44
21 47 42
22 49 44
21 47 43
22 47 43
22 49 44
22 49 44
22 48 44
21 46 42
21 45 41
22 47 43
22 47 43
22 48 44
22 48 43
21 47 43
21 47 42
22 47 43
22 48 44
22 47 43
21 47 43
21 46 42
22 48 44
21 46 42
21 47 43
22 49 44
20 45 41
21 46 42
22 47 43
20 44 40
21 47 42
21 46 42
22 48 44
21 46 42
22 47 43
22 48 43
20 44 40
20 45 41
21 47 42
21 46 42
21 47 43
21 46 42
23 51 46
24 52 47
22 49 44
22 49 44
22 49 44
22 48 43
22 49 44
23 51 46
22 48 44
23 50 45
23 51 46
23 49 44
23 51 46
22 48 44
24 52 47
23 50 46
22 48 43
22 49 44
23 50 45
23 51 46
22 48 43
24 53 48
23 50 45
23 50 45
22 49 44
22 49 44
22 49 44
23 50 45
23 49 44
23 51 46
24 51 46
22 49 44
22 48 44
22 47 43
22 49 44
22 48 43
23 50 45
22 49 44
23 51 46
23 49 45
22 49 44
23 50 45
22 49 44
22 49 44
22 48 44
22 49 44
22 49 44
23 50 45
23 49 45
22 48 43
23 50 45
23 50 45
22 48 43
22 49 44
22 48 44
22 49 44
22 48 44
22 48 44
22 48 44
22 48 43
22 48 43
22 49 44
23 50 45
22 48 43
22 49 44
22 49 44
23 50 45
21 47 42
22 48 44
23 50 45
22 48 43
22 48 44
22 48 43
22 48 43
22 49 44
23 50 45
23 49 44
22 49 44
23 50 45
22 48 43
22 49 44
22 48 44
22 49 44
22 48 44
23 49 45
23 50 45
22 48 44
21 47 43
22 48 43
23 49 45
22 48 43
21 47 42
23 50 45
23 49 45
23 50 45
23 51 46
22 49 44
22 49 44
22 49 44
22 48 44
22 48 44
23 50 45
22 48 44
22 49 44
21 47 42
21 47 43
22 48 43
21 46 41
22 48 43
22 47 43
22 48 43
22 49 44
22 48 43
22 49 44
22 48 43
23 50 45
22 49 44
21 46 41
22 48 44
22 49 44
22 48 44
23 50 46
23 50 45
22 47 43
22 48 43
22 48 44
22 47 43
22 48 44
22 48 44
21 46 42
21 47 42
22 48 43
21 46 42
21 46 42
21 47 42
22 49 44
23 49 45
22 48 43
22 48 43
22 48 43
22 48 44
22 49 45
21 45 41
23 50 46
22 48 44
21 47 42
22 48 44
21 47 43
23 50 45
22 49 44
21 47 42
22 48 44
21 46 42
21 47 43
22 47 43
22 49 44
22 49 44
22 48 44
21 46 42
22 48 44
22 49 44
21 46 42
22 48 44
21 46 42
21 46 42
22 48 43
21 46 42
22 48 44
21 45 41
21 46 42
21 45 41
22 48 43
22 47 43
22 49 44
21 46 42
20 45 41
21 46 42
22 49 44
21 46 42
21 46 42
21 46 42
22 48 43
21 45 41
21 47 43
21 46 42
21 45 41
21 46 42
21 45 41
22 48 43
22 47 43
21 46 42
22 48 44
20 45 41
22 48 43
23 49 45
21 47 43
21 47 43
21 46 42
21 47 42
22 48 43
23 51 46
23 51 46
23 50 45
24 52 47
22 49 44
24 52 47
22 49 44
23 50 45
24 51 46
23 50 45
22 49 44
22 49 44
23 51 46
22 48 44
22 49 44
23 50 45
22 49 44
23 51 46
23 50 45
23 50 45
22 49 44
22 48 43
22 49 44
23 50 45
23 51 46
23 49 45
22 49 44
22 49 44
22 49 44
23 50 45
23 50 45
22 48 43
23 49 45
22 48 44
23 49 44
22 48 44
22 48 44
22 48 43
22 48 44
23 50 45
22 48 43
22 49 44
23 49 45
23 50 45
23 49 45
23 49 45
23 50 45
23 50 45
23 51 46
22 48 44
23 50 45
23 51 46
22 48 43
22 48 43
22 47 43
23 49 44
22 48 44
23 51 46
24 52 47
22 48 43
23 49 45
22 47 43
22 49 44
22 49 44
23 50 45
22 48 43
23 50 45
23 50 45
24 52 47
22 49 44
21 47 42
23 51 46
22 49 44
22 49 44
22 49 44
22 49 45
22 47 43
23 50 45
21 47 42
22 48 43
22 49 44
21 47 43
22 48 44
23 50 45
23 49 45
23 51 46
21 47 42
22 49 44
22 49 44
22 49 44
23 50 45
22 48 43
22 48 44
23 49 45
22 47 43
23 50 45
22 49 44
22 47 43
22 48 44
23 49 45
22 49 44
22 47 43
21 46 42
22 48 44
22 48 44
22 49 45
21 46 42
21 47 42
21 46 42
23 49 45
22 48 43
23 51 46
23 49 45
21 47 42
23 50 45
21 47 43
22 49 44
23 51 46
23 51 46
22 49 44
22 48 43
22 49 44
22 49 44
23 49 45
22 49 44
23 49 45
21 47 42
22 48 44
22 48 43
22 49 45
21 47 42
23 50 45
22 47 43
22 49 44
22 48 43
21 45 41
22 48 43
21 46 42
22 48 43
22 48 43
22 49 44
22 49 44
22 49 44
22 48 44
21 47 42
22 48 43
21 47 43
21 47 43
21 46 42
22 49 44
21 47 42
23 49 45
22 48 43
21 47 42
23 51 46
22 47 43
21 46 42
21 47 42
22 49 45
21 45 41
21 47 42
22 49 44
21 47 43
22 49 44
22 47 43
22 48 44
22 48 43
22 49 44
21 46 41
23 49 45
22 49 44
21 46 42
22 47 43
22 48 43
22 48 43
22 49 44
22 48 44
22 48 43
22 47 43
22 48 44
21 47 42
21 47 43
21 46 42
22 48 43
22 48 43
22 48 43
21 46 42
22 47 43
22 47 43
22 47 43
22 47 43
21 47 43
21 46 42
21 47 43
20 45 41
22 48 43
22 48 43
21 46 42
21 47 43
21 46 42
23 49 45
22 48 44
23 49 45
23 50 45
22 49 44
22 48 44
22 49 44
23 50 45
22 48 43
22 48 44
24 51 46
23 49 45
23 50 45
23 51 46
23 49 45
23 49 45
23 50 45
22 48 43
23 50 45
23 50 45
23 50 45
22 48 44
23 50 45
22 47 42
22 48 43
22 49 44
22 48 43
23 50 45
22 49 44
23 50 45
22 48 43
23 50 46
23 51 46
22 47 43
23 50 45
22 48 43
23 49 44
23 50 45
23 49 45
22 49 44
23 51 46
22 48 43
23 51 46
23 49 44
22 49 44
23 51 46
22 48 44
23 50 45
22 49 44
23 49 45
22 49 44
23 50 45
22 48 44
23 51 46
23 49 45
23 50 45
23 49 45
22 49 44
22 48 43
23 50 45
23 49 45
22 48 43
23 50 45
23 50 45
23 51 46
23 49 45
21 46 42
23 50 45
23 50 45
21 47 43
22 49 44
22 49 44
23 51 46
21 46 42
22 48 44
22 48 43
22 49 45
22 48 44
22 49 44
22 48 44
24 53 48
23 50 45
23 50 45
22 48 43
22 48 44
22 49 44
23 51 46
22 48 44
23 49 45
22 49 44
22 49 44
23 49 45
23 50 45
22 49 44
22 48 43
24 52 47
22 48 44
22 47 43
22 48 43
23 50 45
22 49 44
23 50 45
21 47 42
22 47 43
22 48 44
22 48 43
22 47 43
22 48 44
22 49 44
22 49 44
22 48 44
22 47 43
22 48 44
22 48 43
21 46 42
21 47 43
22 49 44
23 50 45
23 50 45
21 47 43
21 47 43
22 49 45
23 49 45
22 48 44
21 46 42
21 47 43
23 49 45
22 47 43
21 47 43
22 49 44
22 49 44
21 47 43
21 47 43
23 50 46
22 49 44
22 48 44
21 47 42
22 47 43
21 47 42
22 48 43
22 48 44
22 47 43
22 48 43
21 47 43
22 48 43
22 47 43
22 48 44
22 48 43
23 51 46
21 47 43
22 48 43
21 47 42
21 47 42
21 46 42
21 45 41
21 47 43
22 47 43
21 46 42
21 47 43
23 50 45
22 48 44
22 48 43
22 48 43
22 49 44
22 48 44
22 48 43
21 47 43
22 49 44
21 47 43
22 49 45
21 46 41
23 50 45
22 48 44
21 46 42
21 47 43
21 46 42
22 48 44
21 46 42
21 46 42
22 49 44
21 46 42
20 45 41
21 46 42
21 46 42
21 46 42
21 45 41
21 46 42
21 46 42
21 46 42
22 47 43
21 46 42
21 47 42
21 46 42
21 46 42
22 48 43
21 46 41
22 48 43
22 48 43
22 49 45
21 46 42
24 52 47
23 50 45
24 52 47
21 47 43
23 49 44
23 50 45
23 51 46
23 51 46
23 50 45
22 49 44
22 48 44
23 51 46
23 50 45
22 49 44
22 49 44
23 51 46
23 49 44
23 51 46
23 50 45
23 50 45
23 50 45
23 49 44
23 50 45
24 53 47
23 51 46
23 49 44
23 49 45
22 48 44
22 49 44
23 51 46
23 49 45
23 50 45
23 51 46
23 51 46
22 49 44
22 49 44
24 52 47
23 50 45
22 49 44
23 49 44
22 48 43
23 50 45
23 49 45
23 49 44
24 52 47
22 49 45
23 49 45
23 49 45
23 50 46
22 49 44
22 48 43
23 50 46
23 50 45
23 51 46
23 50 45
23 50 45
23 50 45
22 49 45
22 48 43
22 48 44
23 50 45
23 50 45
23 50 45
22 49 44
21 47 42
23 50 45
23 50 45
22 48 43
22 49 44
23 49 45
23 49 44
21 47 42
22 49 44
23 50 45
22 47 43
22 49 44
22 49 44
22 49 44
22 48 44
22 48 43
22 48 44
22 49 44
22 48 43
21 46 42
22 48 44
22 48 43
22 48 44
23 49 45
21 46 42
22 49 45
23 49 45
21 47 42
22 48 44
21 46 41
22 48 44
22 49 45
21 47 42
22 48 43
22 48 44
22 49 44
22 49 44
21 47 42
21 47 43
22 49 44
22 48 44
22 48 43
23 50 45
21 47 42
23 50 45
22 49 45
22 49 44
20 45 41
23 51 46
23 50 45
21 47 43
22 48 44
22 49 44
22 49 44
22 48 44
22 48 44
23 49 45
21 47 43
21 47 43
22 48 43
21 47 42
21 47 42
23 50 45
22 48 43
22 48 44
22 48 43
22 48 44
22 48 44
23 50 45
22 48 43
21 47 43
22 48 43
22 49 45
22 48 43
22 48 43
22 48 44
22 47 43
22 47 43
21 45 41
22 48 43
23 51 47
22 47 43
21 46 42
22 48 44
22 49 44
22 48 44
22 49 44
21 47 42
21 47 42
22 48 43
21 47 43
23 50 45
22 49 45
22 48 43
22 48 43
21 46 42
22 47 43
22 49 44
22 47 43
22 47 43
22 48 44
22 48 43
22 47 43
22 48 44
22 48 43
22 49 45
22 47 43
22 48 44
22 49 44
21 46 42
22 48 43
22 48 44
21 46 42
22 48 43
22 48 43
21 47 43
22 48 44
21 45 41
21 47 42
22 48 43
22 47 43
21 46 42
21 46 42
22 47 43
22 47 43
22 47 43
21 47 43
21 47 43
22 48 43
22 48 43
21 46 42
22 48 43
20 45 41
21 47 43
21 46 42
22 48 44
