P3
200 133
255
21 46 42
21 46 42
21 47 43
21 46 42
21 45 42
21 46 42
21 47 43
21 47 43
21 47 43
21 47 43
21 46 42
21 46 42
21 46 42
21 46 42
21 47 43
21 46 42
21 47 43
21 47 43
21 47 43
21 47 43
22 48 44
21 46 42
21 46 42
21 47 43
21 47 43
21 47 43
21 46 42
21 47 43
21 46 42
21 46 42
21 46 42
21 46 42
21 46 42
21 47 43
21 47 43
21 47 43
21 47 43
21 47 43
21 47 43
22 47 43
21 47 43
22 49 44
22 47 43
21 47 43
22 48 44
21 47 43
21 47 43
21 47 43
22 47 43
22 47 43
22 48 44
22 48 44
21 47 43
22 48 44
22 48 43
22 48 44
22 48 44
21 47 43
22 48 44
22 48 44
22 48 43
22 48 43
22 48 44
22 48 44
22 48 44
21 46 42
21 47 43
22 48 43
22 49 44
22 48 43
21 47 43
22 48 43
23 50 45
22 48 44
22 48 44
22 48 43
22 48 44
22 48 43
21 47 42
21 47 42
21 47 42
22 48 43
22 48 44
21 47 43
22 48 43
22 49 44
22 48 44
22 48 44
21 46 42
22 48 43
22 49 44
22 48 43
22 49 44
22 48 44
22 48 44
21 47 43
22 48 43
22 47 43
21 47 43
22 48 43
21 47 42
22 48 44
23 49 45
22 49 44
21 47 43
22 49 44
22 49 44
22 49 44
22 49 44
22 48 43
22 48 44
22 47 43
22 48 44
22 48 44
22 49 45
22 48 43
22 48 44
22 47 43
22 48 43
22 48 44
22 48 44
22 48 43
23 49 45
23 50 45
22 48 43
22 49 44
22 48 43
22 48 44
22 49 45
22 48 44
22 48 44
22 49 44
22 49 44
22 47 43
22 49 44
21 47 42
22 47 43
22 49 44
22 48 43
22 49 44
23 50 45
22 48 44
22 49 44
22 48 44
22 48 44
22 48 43
22 49 44
22 49 45
22 49 44
22 48 44
23 49 45
22 49 44
22 48 43
22 48 43
23 50 45
22 48 44
22 48 43
22 49 44
22 49 45
22 49 44
22 49 44
23 49 45
22 49 44
22 47 43
22 48 44
23 49 45
21 47 42
22 49 44
22 48 44
22 49 44
22 49 44
22 48 44
22 47 43
22 48 44
22 49 44
22 48 43
22 49 44
22 49 44
22 48 44
22 49 44
22 48 44
22 48 43
22 49 44
21 47 42
22 49 44
22 49 44
22 48 44
21 47 43
22 48 44
22 48 43
22 48 43
22 48 43
22 48 44
22 48 44
22 48 44
22 48 44
22 49 44
22 49 44
22 48 44
22 48 44
21 46 42
22 47 43
21 46 42
21 47 43
21 47 42
21 47 43
21 47 43
21 47 43
21 46 42
21 47 43
22 48 43
21 47 43
21 46 42
21 46 42
21 47 43
21 46 42
21 46 42
21 46 42
21 46 42
21 46 42
20 45 41
22 47 43
22 48 44
21 46 42
21 47 42
21 47 43
21 47 43
21 47 43
21 46 42
22 48 44
21 47 43
21 47 42
21 46 42
21 47 43
22 47 43
22 47 43
22 47 43
22 48 43
22 48 44
21 47 42
21 47 43
21 47 43
21 46 42
21 47 42
21 46 42
21 46 42
22 48 44
21 47 43
21 47 43
22 48 43
21 47 43
21 47 43
21 47 43
21 47 43
22 47 43
22 48 44
22 48 44
21 47 42
21 47 43
22 48 44
22 48 44
21 47 43
22 48 43
22 48 43
21 47 43
22 48 43
22 49 44
22 49 44
22 48 44
22 48 43
22 48 44
21 47 43
22 48 44
22 48 43
22 47 43
22 47 43
22 48 43
22 49 44
22 48 43
21 47 43
22 48 43
22 48 43
22 48 43
21 47 43
21 47 43
21 47 43
22 48 43
22 48 44
22 49 44
22 48 44
22 47 43
22 48 44
22 48 43
22 48 44
22 48 43
22 49 45
22 47 43
22 49 45
22 48 43
21 47 43
22 48 44
22 49 45
21 47 42
22 48 43
22 48 44
22 48 44
22 48 44
22 49 45
21 46 42
22 49 45
23 50 45
23 50 45
22 48 44
22 49 44
22 48 44
22 49 45
22 49 45
23 50 45
22 48 44
22 48 43
21 47 43
23 50 46
22 48 44
22 49 44
22 48 43
22 49 44
22 48 44
22 49 44
22 48 43
22 48 44
22 49 44
23 50 45
23 49 45
22 49 44
22 48 43
22 48 44
22 48 44
22 48 44
22 49 44
22 49 44
22 49 44
22 49 44
23 50 45
22 49 44
22 49 44
22 48 44
22 49 44
22 48 44
23 49 45
22 49 44
22 48 44
22 49 44
23 50 45
22 48 44
23 50 45
22 48 44
22 48 44
22 47 43
22 49 44
23 50 45
22 49 44
22 49 44
22 48 44
22 49 44
22 48 44
22 47 43
21 47 42
22 47 43
22 49 44
22 49 44
23 50 45
22 48 43
22 49 44
22 48 44
22 49 44
22 49 45
23 50 45
22 49 44
22 48 44
22 48 44
22 49 44
22 47 43
22 49 45
22 48 44
22 48 44
22 49 44
22 48 44
22 48 44
22 47 43
22 48 43
22 47 43
22 48 44
23 49 45
21 46 42
22 47 43
22 48 44
22 49 44
22 49 44
22 48 43
22 48 44
21 47 43
20 45 41
21 46 42
21 46 42
21 46 42
21 46 42
21 46 42
21 46 42
21 46 42
21 47 43
21 46 42
21 46 42
21 46 42
21 46 42
22 48 43
21 46 42
21 47 42
21 46 42
21 46 42
20 45 41
21 46 42
21 45 41
21 47 42
21 46 42
21 47 43
21 46 42
21 46 42
21 47 42
21 46 42
22 48 44
21 46 42
21 45 41
21 46 41
21 47 43
21 47 43
21 47 43
21 47 43
21 47 43
22 48 44
21 46 42
22 49 45
22 48 43
21 46 42
21 47 43
22 48 44
21 47 43
22 47 43
21 47 42
22 48 43
22 49 44
21 47 43
22 48 43
21 47 43
22 48 44
22 48 43
22 48 44
22 49 44
22 47 43
22 48 44
22 48 43
22 47 43
22 47 43
22 48 44
21 47 42
22 48 43
22 48 44
21 46 42
22 48 43
22 48 44
22 48 44
22 47 43
22 49 44
22 48 44
22 47 43
21 47 43
22 48 44
22 48 43
22 47 43
22 48 43
22 48 43
22 48 43
22 47 43
21 47 43
22 49 45
22 48 44
22 48 44
22 49 45
22 49 44
22 48 43
22 48 43
22 48 44
22 48 44
22 48 43
22 48 43
22 49 44
22 49 44
22 47 43
22 49 44
23 50 45
22 48 43
22 48 44
22 49 45
22 48 43
22 48 43
22 49 45
22 49 44
23 49 45
22 48 43
22 49 45
23 50 45
23 49 45
22 47 43
22 49 44
23 50 45
22 48 43
22 49 44
22 48 43
22 49 44
22 48 43
21 47 42
22 48 44
22 49 45
23 49 45
22 49 44
22 47 43
22 48 43
22 49 44
22 49 44
22 48 44
22 48 44
23 50 45
22 49 44
22 48 44
22 47 43
22 48 43
22 49 44
22 49 44
22 49 44
23 50 45
22 49 44
23 49 45
22 48 43
23 50 45
22 48 43
22 49 44
22 49 44
22 48 44
22 49 44
22 48 44
22 48 43
22 48 43
22 48 44
22 49 44
22 47 43
22 48 44
23 50 45
22 48 43
22 48 43
22 49 44
23 50 45
22 49 45
23 49 45
22 48 44
22 48 43
23 49 45
22 49 45
22 49 44
23 50 45
22 48 44
22 49 44
22 48 43
22 49 44
22 48 43
22 48 43
22 49 44
23 49 45
23 50 46
23 49 45
22 48 43
22 49 44
23 49 45
22 48 44
22 49 44
22 48 44
22 48 44
22 49 45
22 49 44
22 48 44
22 49 45
22 49 44
22 49 44
22 49 44
22 48 43
22 48 44
22 48 44
22 49 45
22 48 43
22 48 43
22 48 43
22 48 43
21 47 43
21 46 42
21 46 42
21 47 43
21 46 42
21 46 42
21 46 42
21 47 43
21 47 43
20 45 41
21 47 43
21 47 43
21 45 41
22 47 43
21 47 42
21 47 43
21 46 42
21 46 42
21 47 42
21 47 43
21 46 42
21 46 42
21 46 42
21 46 42
21 46 42
21 47 43
21 46 42
21 47 42
21 47 42
21 47 42
22 47 43
22 48 43
21 47 43
21 47 43
22 48 43
22 48 44
21 47 43
22 48 44
21 47 43
22 47 43
21 47 43
22 47 43
21 47 42
22 47 43
21 47 43
22 48 44
22 48 44
22 48 43
21 47 43
22 48 44
22 47 43
21 47 43
22 48 43
22 48 43
22 48 44
22 49 44
21 47 43
21 47 43
22 48 43
22 48 43
21 47 42
21 47 43
22 49 44
22 48 44
23 49 45
21 47 43
22 48 44
21 47 42
22 48 43
22 48 43
22 48 44
22 48 43
22 48 44
22 49 45
22 47 43
22 47 43
22 47 43
21 47 43
22 48 43
22 47 43
21 47 43
22 48 43
22 48 44
22 47 43
21 47 42
22 49 44
22 49 45
22 48 43
22 49 44
23 49 45
22 48 44
22 49 44
23 50 45
22 49 44
22 48 43
22 49 44
22 47 43
22 48 43
22 48 44
22 48 44
22 49 44
22 48 43
22 48 44
22 48 43
23 49 45
23 49 45
22 48 44
22 49 44
23 50 45
23 49 45
22 48 43
23 50 45
23 50 45
22 48 43
23 50 46
22 48 44
22 49 44
22 49 44
22 48 44
23 50 46
22 49 45
22 48 43
22 47 43
22 48 44
22 49 44
22 49 44
22 49 44
23 51 46
22 48 44
22 48 44
22 48 44
22 49 44
22 47 43
22 48 43
22 49 44
22 49 45
22 49 45
22 48 44
22 47 43
22 49 44
22 48 44
23 50 45
22 49 44
22 48 43
22 48 44
22 49 44
22 48 44
22 48 43
22 48 44
22 48 44
22 49 44
22 49 44
22 48 43
22 49 44
22 48 44
22 49 45
22 48 43
22 48 44
23 51 46
22 48 44
22 49 44
22 49 44
23 49 45
22 48 43
23 50 45
22 47 43
22 48 44
22 48 44
22 48 44
22 49 44
23 50 45
22 49 44
22 48 43
22 49 44
23 49 45
22 48 43
22 49 44
22 48 44
22 49 44
22 49 45
23 50 45
22 49 44
22 48 44
22 47 43
22 48 44
22 48 44
22 48 44
22 48 44
21 47 42
22 49 44
22 48 43
22 48 43
22 48 43
22 49 44
22 48 44
22 48 43
22 48 43
22 48 43
22 48 43
22 49 44
21 46 42
21 47 42
21 46 42
21 46 42
21 46 42
21 47 42
21 46 42
21 47 42
21 47 42
21 47 42
21 47 43
21 46 42
21 47 42
21 46 42
21 46 42
21 46 42
21 47 43
21 46 42
21 46 42
21 46 42
21 46 42
22 48 43
21 46 42
21 47 43
21 47 42
21 47 43
21 47 43
21 47 43
21 47 42
21 46 42
21 47 43
21 46 42
22 48 43
22 48 43
21 47 42
21 47 42
21 47 43
22 47 43
22 48 44
21 47 43
21 46 42
22 48 43
22 48 44
21 47 43
21 47 43
21 47 43
22 49 44
22 48 43
22 48 43
22 47 43
22 47 43
21 47 43
22 48 44
22 49 44
21 47 43
22 48 43
21 47 43
21 47 42
22 48 43
22 48 43
22 48 44
22 48 43
22 48 44
21 47 42
22 48 43
22 48 44
22 48 44
22 48 44
22 48 44
22 47 43
22 49 44
22 49 44
22 48 43
22 49 45
22 48 44
22 48 44
23 50 45
22 49 44
22 48 44
22 47 43
22 48 44
22 49 44
22 48 44
22 48 43
22 48 44
21 47 43
22 48 43
22 48 44
22 48 44
22 49 44
22 49 44
22 49 45
22 48 43
22 48 44
22 48 44
22 48 44
23 50 45
22 49 44
22 49 45
22 48 44
23 50 45
22 49 44
22 48 44
22 49 44
22 47 43
22 49 45
23 50 45
23 50 45
23 50 45
22 48 44
22 48 43
22 49 44
23 49 45
23 50 45
23 49 45
22 48 44
22 49 44
22 49 45
22 48 44
23 50 45
22 49 44
22 48 44
22 49 44
22 49 44
22 48 44
22 48 44
22 47 43
22 49 44
23 49 45
22 49 44
23 50 45
21 47 42
22 49 44
23 50 45
22 48 43
23 50 45
22 48 44
23 49 45
22 49 44
22 49 44
22 49 44
23 49 45
22 48 43
22 49 44
23 50 45
22 49 44
23 50 45
22 49 44
23 49 45
23 49 45
23 49 45
22 48 44
22 49 44
23 49 45
23 51 46
22 48 44
22 48 44
22 48 43
22 49 44
22 49 44
23 49 45
22 47 43
22 48 44
22 48 44
23 49 45
23 50 45
22 48 44
23 50 46
23 49 45
22 49 44
22 49 44
22 48 44
22 48 43
22 49 45
22 48 44
21 47 43
22 49 44
22 49 44
22 49 44
22 48 43
22 49 44
22 48 44
22 48 43
22 48 43
22 49 44
22 48 43
22 49 44
22 48 44
22 48 44
22 49 44
22 49 44
22 48 43
22 48 44
23 50 45
22 49 45
22 49 45
22 49 44
22 48 44
22 49 44
22 49 44
21 46 42
22 47 43
21 47 43
21 46 42
21 47 42
21 47 43
21 47 43
21 46 42
21 47 43
22 48 44
21 46 42
21 47 43
21 45 41
21 47 42
21 46 42
21 46 42
21 47 43
21 46 42
21 46 42
21 47 43
22 47 43
21 47 43
21 47 42
22 48 44
21 47 43
22 48 44
22 47 43
22 48 44
21 46 42
22 48 43
22 47 43
22 47 43
22 48 43
21 47 43
22 49 44
22 47 43
21 47 43
21 47 43
22 48 43
22 48 43
22 48 44
21 46 42
22 49 45
22 48 44
22 47 43
22 48 43
22 49 44
22 48 43
22 48 43
22 48 43
22 48 44
22 48 43
22 48 43
22 48 44
21 47 42
21 47 43
22 47 43
22 49 45
22 48 43
22 47 43
22 48 43
22 47 43
22 47 43
22 49 44
22 48 44
22 49 44
22 48 43
22 48 44
22 48 44
22 49 44
22 48 44
23 50 45
22 49 44
22 49 45
22 49 44
22 48 43
21 47 43
22 48 44
22 47 43
22 49 44
22 48 44
23 50 45
22 49 45
22 48 43
22 47 43
22 49 44
22 48 44
22 48 44
22 48 43
21 47 43
22 48 44
22 49 44
22 48 44
22 47 43
22 49 44
22 48 44
22 49 44
23 49 45
22 49 44
22 48 44
22 49 44
23 50 45
22 49 44
22 48 44
22 48 44
22 49 44
23 49 45
22 48 44
22 48 43
22 49 44
23 50 46
22 49 44
22 48 43
22 48 43
22 48 44
22 48 44
22 47 43
22 48 43
23 50 45
23 50 45
22 48 44
22 49 44
22 49 44
23 49 45
22 49 44
22 49 44
23 49 45
23 50 45
22 49 44
23 50 45
22 49 44
23 49 44
23 50 45
23 50 45
23 51 46
22 49 44
23 49 45
22 48 44
23 49 45
23 50 45
22 48 44
22 49 44
22 48 43
22 48 44
22 49 45
23 49 45
22 48 44
22 48 43
23 50 45
23 50 45
22 49 44
23 50 45
22 48 44
22 49 44
23 50 45
22 49 44
23 50 45
22 49 44
22 49 45
22 49 44
22 48 43
23 49 45
22 49 44
22 48 44
22 48 44
23 50 45
22 48 44
23 50 46
22 49 44
23 49 45
22 48 43
22 48 44
22 48 44
22 49 44
22 49 44
22 47 43
22 47 43
22 48 44
22 49 44
22 48 44
21 47 43
22 48 44
23 50 45
22 49 44
22 48 44
22 47 43
23 49 45
22 49 44
22 49 44
22 48 43
22 49 44
22 48 43
22 49 44
22 48 43
22 48 43
22 48 43
23 49 45
22 48 44
22 49 44
22 49 44
22 48 44
21 47 43
21 46 42
21 46 42
21 46 42
21 47 43
21 46 42
21 47 42
21 46 42
21 46 42
21 46 42
21 47 43
21 46 42
21 47 43
21 47 42
22 47 43
21 47 43
22 47 43
21 47 43
21 46 42
22 48 43
22 48 44
22 48 44
21 46 42
21 46 42
21 47 42
21 47 42
21 46 42
21 47 43
21 46 42
22 48 43
21 46 42
21 47 43
21 47 42
22 48 44
21 47 43
21 46 42
22 48 43
23 50 45
22 48 44
22 48 43
22 48 43
22 48 44
21 47 42
22 49 44
22 48 43
21 47 42
22 48 44
22 48 44
22 48 43
21 47 43
22 47 43
22 49 44
22 48 43
22 48 44
22 48 43
22 48 44
22 47 43
22 48 43
22 48 44
22 48 44
22 47 43
22 49 44
22 49 44
22 48 43
22 48 44
22 48 44
22 48 44
22 49 45
22 49 45
23 49 45
22 48 44
22 48 43
22 47 43
22 48 44
22 48 44
22 49 44
22 48 43
22 48 43
22 48 44
23 50 45
22 48 44
22 49 45
22 48 43
22 49 45
22 49 44
22 48 43
22 48 43
22 49 44
22 49 44
23 49 45
22 49 44
22 48 44
22 48 44
22 48 43
22 49 44
22 49 44
22 48 44
22 48 43
22 48 43
22 49 44
22 48 43
23 50 45
23 50 45
22 48 44
22 49 44
22 49 44
22 49 44
23 50 45
23 50 46
22 48 43
23 50 45
22 49 44
22 48 44
23 50 45
22 49 44
22 49 44
22 49 44
22 48 44
22 49 44
22 49 44
22 49 44
22 49 44
22 49 44
22 49 44
23 50 45
22 49 44
23 50 45
23 50 45
23 49 45
22 49 44
23 50 45
22 49 45
22 49 44
22 49 44
22 49 45
22 48 43
22 49 44
22 49 44
22 48 43
22 48 43
23 49 45
23 50 45
23 50 45
22 48 44
23 49 45
22 49 44
22 49 44
23 50 45
23 50 45
22 49 44
23 50 45
22 49 44
22 48 44
22 49 44
23 49 44
23 49 45
23 50 45
23 49 45
22 49 44
23 50 45
23 50 45
23 50 45
22 49 44
22 49 44
22 49 44
23 50 45
22 49 44
23 50 45
23 50 45
22 49 44
22 48 44
23 50 45
23 50 46
22 48 44
22 49 44
22 48 44
22 48 43
22 49 44
22 49 45
22 47 43
23 50 45
23 50 45
22 49 44
22 49 44
22 49 44
23 49 45
23 50 45
22 48 44
22 48 44
22 48 44
22 48 43
22 49 44
22 48 43
22 48 43
22 48 43
22 49 44
22 48 43
22 48 44
22 48 43
21 46 42
20 45 41
21 46 42
21 45 41
20 45 41
21 47 43
21 46 42
21 47 43
21 45 41
21 47 43
21 47 43
22 48 44
21 47 43
22 49 44
21 47 42
21 47 43
21 47 43
22 48 44
21 47 42
21 46 42
21 46 42
21 47 43
21 47 43
21 47 42
22 48 44
22 49 45
21 47 42
22 48 43
22 48 44
21 46 42
22 48 44
22 47 43
21 47 42
22 48 43
22 48 44
22 48 44
21 47 43
22 49 44
21 47 43
22 48 44
22 49 44
22 48 44
22 48 43
22 48 43
22 48 44
22 48 43
21 46 41
21 47 42
22 48 43
22 48 44
22 48 43
22 47 43
22 48 43
22 48 44
21 47 42
22 48 44
22 48 43
22 49 44
21 47 43
22 47 43
22 48 44
23 50 45
22 48 44
22 49 44
22 48 43
22 48 43
22 48 44
23 50 45
23 50 45
22 49 44
22 49 44
22 48 44
23 49 45
22 48 44
23 49 45
22 49 45
22 49 45
22 49 45
22 48 44
22 48 43
22 47 43
22 49 44
23 50 45
22 48 44
21 47 43
22 49 44
22 48 43
22 48 44
22 48 43
23 49 45
22 48 44
22 48 43
22 48 44
23 49 45
22 48 44
23 49 45
22 48 44
22 49 44
22 49 45
22 49 44
23 50 45
22 48 43
22 48 43
22 49 44
22 49 44
22 49 44
22 48 44
23 49 45
23 49 45
22 49 44
23 49 45
23 50 45
23 49 45
22 48 44
22 48 44
22 49 44
22 49 44
22 49 44
23 49 45
23 49 44
22 48 43
22 48 44
22 48 43
22 49 44
22 49 44
22 49 44
22 49 44
22 49 44
23 50 45
23 51 46
22 49 44
22 49 44
22 49 44
22 49 44
22 49 44
23 49 45
22 49 44
22 49 44
23 49 45
22 49 44
23 50 45
23 50 45
23 50 45
22 48 44
23 49 45
23 50 45
22 49 44
23 50 45
22 49 44
22 49 44
23 50 45
23 50 45
22 48 44
22 48 44
22 48 44
22 49 44
22 49 44
23 50 45
22 48 43
22 48 44
22 49 44
22 49 44
23 50 45
23 50 45
23 50 45
22 49 44
22 49 44
22 48 43
23 50 45
22 48 43
23 50 45
22 49 44
22 49 44
22 48 44
22 49 44
22 48 44
22 49 44
22 48 43
22 49 44
23 49 45
23 50 45
22 49 44
22 49 44
22 49 44
23 50 45
22 49 44
22 49 44
23 50 45
22 49 45
22 48 44
22 49 44
22 48 44
23 50 45
23 49 45
22 48 44
23 50 45
22 48 43
22 49 44
22 48 44
22 48 43
20 45 41
22 47 43
22 48 44
22 48 44
21 47 43
21 47 43
21 47 43
21 46 42
22 48 44
22 47 43
20 45 41
21 47 43
22 48 43
21 47 42
21 47 42
21 47 42
21 46 42
22 48 43
22 48 43
21 46 42
21 46 42
21 47 42
21 46 42
22 48 44
22 47 43
21 47 43
22 48 43
21 47 43
21 47 43
21 47 43
21 47 42
21 47 43
21 47 43
21 47 42
21 46 42
22 48 44
21 47 43
22 49 44
21 47 43
22 48 43
22 49 44
23 50 46
22 48 44
22 47 43
22 48 44
22 48 44
21 47 42
22 49 44
22 48 44
21 47 43
22 48 43
22 48 44
22 48 43
22 48 43
22 48 43
22 48 44
21 47 42
22 48 44
22 48 43
23 49 45
22 49 45
22 48 44
22 48 43
22 47 43
22 48 44
21 47 43
22 48 44
22 48 43
22 48 44
22 49 44
22 49 44
22 48 44
22 49 45
21 47 43
22 49 44
22 49 44
22 49 45
23 49 45
22 48 44
22 49 45
23 49 45
22 48 43
22 48 44
22 49 44
22 49 44
22 49 44
22 49 45
23 49 45
22 48 44
23 51 46
22 49 44
22 49 45
22 49 44
23 50 45
22 49 44
22 48 44
22 49 44
22 49 44
22 49 44
22 49 44
22 49 44
22 49 44
22 49 44
22 49 44
23 50 45
22 49 44
22 49 44
23 50 45
23 50 45
22 49 44
22 48 44
23 50 45
22 49 44
22 48 44
22 49 44
22 48 43
22 48 43
23 50 45
23 50 45
23 50 45
23 50 45
22 49 44
23 50 45
23 50 45
23 50 45
23 50 45
23 50 45
22 48 44
23 49 45
22 49 44
22 49 44
22 48 44
23 51 46
22 49 44
23 49 45
22 48 44
23 49 45
22 49 44
22 49 44
22 48 43
23 50 45
23 49 45
23 51 46
22 48 43
22 49 44
23 49 45
22 48 44
23 50 45
23 50 45
22 49 44
22 49 44
22 49 44
23 50 45
23 51 46
23 50 45
23 50 45
22 49 44
22 49 44
23 49 45
22 49 44
23 49 44
23 51 46
22 48 43
22 49 44
23 50 45
23 50 46
23 51 46
22 49 44
22 48 44
23 50 46
22 49 45
22 48 43
22 48 43
22 48 44
22 49 44
22 49 44
23 50 45
22 48 44
21 47 42
23 50 45
23 50 45
23 51 46
23 50 45
22 49 44
23 50 45
22 49 44
23 50 45
22 48 44
22 49 44
23 50 45
23 50 45
22 48 43
22 49 45
22 48 44
22 49 44
22 48 43
22 49 44
23 49 45
22 49 44
22 49 44
21 47 43
21 47 43
21 47 43
21 46 42
21 47 42
21 47 43
21 47 42
21 47 43
21 47 43
21 46 42
21 47 43
21 47 43
21 46 42
21 46 42
21 47 43
21 47 43
21 47 43
21 47 43
22 48 43
22 49 44
21 46 42
21 46 42
22 48 43
21 47 43
21 46 42
21 47 43
23 50 45
22 48 43
21 47 43
21 46 42
21 47 42
22 48 43
21 47 42
22 48 44
22 48 43
22 48 43
22 48 44
22 49 45
22 49 44
22 48 44
21 47 43
22 48 43
22 48 44
21 47 42
22 48 44
22 48 44
21 47 43
22 49 44
22 49 45
22 48 44
22 47 43
22 48 43
22 48 44
22 48 43
22 49 44
22 48 44
21 46 42
22 48 43
22 48 44
22 49 44
21 47 43
23 49 45
23 49 45
22 49 44
22 49 44
22 49 45
23 50 45
23 50 45
22 48 44
22 49 44
22 48 43
22 49 44
22 49 44
22 48 43
23 49 45
22 47 43
22 49 44
22 48 43
22 49 44
23 50 45
22 49 44
22 48 43
22 49 44
22 49 44
22 49 44
22 49 44
23 49 45
22 49 44
22 49 44
23 49 45
22 49 44
22 48 44
23 50 45
22 49 44
22 48 44
22 49 44
22 48 44
22 48 44
22 49 45
22 49 44
22 48 44
22 48 44
22 49 44
22 49 44
22 49 44
22 48 44
23 49 45
23 50 45
23 49 45
23 51 46
22 49 44
22 49 44
23 49 44
22 49 44
23 50 45
23 50 45
22 49 44
22 48 44
22 48 44
23 49 44
23 50 45
23 50 45
22 49 44
22 49 44
23 50 45
22 48 43
22 49 44
22 48 44
22 48 43
22 49 44
23 51 46
23 50 45
23 49 44
23 50 45
23 49 45
22 48 44
22 49 44
23 50 45
23 51 46
22 49 44
22 48 44
22 49 44
22 49 44
22 48 44
22 49 44
23 50 45
23 49 44
23 49 45
23 50 45
23 50 46
22 48 44
22 49 44
22 49 44
23 49 45
22 49 44
23 50 45
23 49 45
23 49 45
23 50 45
22 49 44
23 50 45
23 49 45
22 49 44
23 50 45
22 49 44
23 49 44
22 49 44
22 48 44
22 49 44
22 49 44
22 49 44
22 49 44
23 49 45
22 49 44
22 49 44
22 48 44
23 49 45
23 50 45
22 49 44
22 48 44
23 49 45
22 48 44
22 49 44
22 48 44
22 49 44
22 49 44
22 49 44
23 49 45
22 48 43
23 50 45
22 48 44
22 48 44
22 49 44
22 49 44
22 47 43
22 49 45
22 48 43
22 47 43
22 49 44
22 48 43
21 47 42
21 46 42
21 46 42
21 46 42
21 46 42
21 47 42
22 48 43
21 47 43
22 48 44
22 48 44
21 46 42
22 48 43
22 48 43
22 47 43
22 48 43
21 46 42
22 48 44
21 46 42
21 46 42
21 47 42
22 48 44
22 48 44
21 47 42
22 48 44
21 47 42
22 48 44
22 49 44
21 47 43
21 47 42
21 47 43
22 48 43
21 47 43
22 48 43
21 47 42
22 48 43
21 47 43
22 48 43
21 46 42
22 48 44
22 48 44
22 48 44
22 49 44
22 48 44
22 47 43
21 47 43
22 48 44
21 47 42
22 48 43
21 47 43
22 48 43
22 49 45
22 49 44
21 47 43
22 48 43
22 48 44
22 49 44
22 48 44
22 48 43
22 48 43
22 49 44
22 49 44
22 49 45
21 47 42
22 48 44
22 48 43
22 48 44
21 47 42
22 48 43
22 48 44
22 48 44
22 49 44
22 48 43
22 49 44
22 47 43
23 49 45
22 49 44
22 48 44
22 48 44
22 48 43
22 49 45
22 49 44
21 47 42
23 49 45
21 47 43
22 49 44
22 49 44
22 48 44
22 48 44
23 49 45
22 48 43
22 49 44
22 48 44
22 49 44
22 48 43
22 49 44
22 49 45
23 49 45
23 49 45
23 51 46
22 48 44
23 50 45
22 48 44
22 49 44
22 48 44
22 49 44
22 48 44
22 49 44
22 49 44
23 50 45
23 49 45
23 49 44
22 49 44
23 50 45
23 50 45
23 49 45
22 49 44
22 47 43
23 50 45
23 50 45
22 48 43
23 50 45
23 50 45
22 49 44
23 49 45
23 50 45
22 49 44
23 49 45
22 49 44
23 50 45
22 48 44
23 51 46
22 49 44
23 50 45
23 49 45
23 49 45
22 49 44
22 48 43
22 49 44
23 49 45
23 50 45
22 49 44
22 49 44
23 49 45
22 49 44
22 48 44
23 51 46
22 49 44
23 50 45
22 49 44
22 49 44
23 49 45
23 50 45
23 50 45
22 48 44
23 49 45
22 49 44
23 50 46
23 49 44
23 50 45
22 48 44
22 49 44
22 49 44
22 49 44
22 49 44
23 50 45
23 50 45
22 49 44
22 49 44
23 50 45
22 49 44
22 49 44
22 49 44
23 49 45
23 49 44
22 48 43
22 49 44
22 49 44
22 48 44
22 49 44
23 49 45
22 49 44
22 49 44
22 49 44
22 49 44
22 49 44
23 49 45
22 47 43
23 50 45
22 48 44
22 49 44
22 48 44
22 49 44
23 49 45
23 49 45
22 49 45
23 50 45
22 48 43
22 49 44
22 48 44
22 48 43
21 47 43
21 47 43
21 46 42
22 47 43
21 47 42
21 47 43
22 48 44
22 47 43
21 47 43
21 47 42
21 47 43
21 46 42
21 46 42
22 48 43
22 48 43
21 47 42
22 47 43
21 47 42
21 47 42
22 48 43
22 48 44
21 47 43
22 48 43
22 48 44
22 48 43
21 47 43
22 48 43
22 48 44
22 48 44
22 48 43
22 48 44
21 47 43
22 47 43
22 48 43
22 48 44
21 46 42
21 47 43
22 48 43
22 48 44
22 48 43
22 48 43
22 48 44
21 47 43
22 47 43
22 49 45
22 48 43
22 48 43
22 48 44
21 47 43
22 48 43
22 48 44
22 48 44
22 48 44
22 48 44
22 49 45
22 48 43
22 48 44
22 49 45
22 49 45
22 48 43
22 48 44
22 49 44
22 48 43
22 48 44
22 49 44
23 49 45
23 50 45
22 49 44
22 48 44
23 49 45
22 48 44
22 49 44
22 49 44
22 48 44
23 50 45
23 49 45
23 50 45
22 48 43
23 49 45
22 48 44
23 49 45
23 50 45
22 48 43
22 48 43
23 49 45
22 48 43
23 49 45
23 50 45
22 48 44
23 50 45
22 47 43
22 49 44
22 48 43
22 48 43
23 49 45
22 49 44
22 48 43
23 50 45
22 48 43
22 49 44
23 50 45
22 49 44
23 50 45
23 50 45
22 49 44
23 50 45
23 50 45
23 49 44
23 51 46
23 51 46
23 50 45
22 48 43
23 50 45
22 49 44
22 49 44
22 49 44
23 50 45
23 50 45
23 50 45
23 49 45
22 49 44
23 51 46
22 49 44
22 49 44
22 49 44
22 48 44
23 50 45
23 49 45
23 50 45
23 50 45
22 49 44
23 50 45
23 50 45
22 49 44
22 48 44
22 48 43
22 49 44
23 50 45
23 50 45
23 49 45
22 49 44
23 50 45
23 49 45
23 50 46
23 50 45
23 50 45
23 50 45
22 49 44
22 49 44
23 50 45
23 50 46
23 50 45
23 50 45
23 49 45
23 50 45
22 49 44
22 48 44
22 49 44
22 49 44
22 49 44
23 50 46
22 48 44
23 50 45
22 48 44
22 49 44
22 49 44
22 49 44
23 49 45
23 50 45
22 48 43
22 49 44
23 49 44
22 49 44
23 50 45
23 51 46
23 51 46
23 50 45
23 50 45
22 49 44
22 49 44
22 48 43
22 49 44
23 50 45
22 49 44
22 49 44
23 49 45
23 50 45
23 50 45
23 50 45
22 49 44
22 49 44
23 50 45
22 49 44
23 50 45
23 50 45
22 48 43
23 50 45
23 51 46
22 49 44
22 49 44
22 48 43
21 47 43
21 47 43
21 46 42
21 47 42
21 46 42
21 47 43
22 47 43
21 47 43
21 46 42
21 47 43
21 47 42
21 46 42
21 46 42
21 47 43
21 47 43
22 47 43
21 47 43
22 47 43
22 48 44
21 47 42
21 47 43
22 47 43
21 47 43
22 48 43
22 48 43
22 47 43
22 48 44
22 48 43
22 48 44
22 48 44
22 48 43
21 47 43
22 47 43
21 47 43
22 48 44
21 47 43
22 48 43
22 48 43
22 48 44
22 48 44
22 48 43
22 48 43
22 49 44
22 48 44
22 47 43
22 48 44
22 48 43
21 47 43
22 48 43
22 47 43
22 47 43
22 49 44
22 49 44
22 48 43
22 47 43
21 46 42
22 49 45
22 48 44
22 48 43
22 48 44
23 49 45
22 49 44
22 49 44
22 49 44
22 49 44
22 48 43
22 49 44
22 48 44
22 49 44
23 49 45
22 49 44
23 50 45
22 49 45
23 49 45
22 48 43
23 49 45
22 49 44
22 49 45
22 49 44
22 49 44
22 48 44
22 49 44
23 51 46
22 48 43
22 49 44
23 50 46
22 48 44
23 50 45
22 49 44
22 49 44
22 49 44
22 49 44
23 49 45
23 50 46
22 49 44
22 47 43
22 49 44
22 49 45
23 50 45
22 49 44
22 49 44
22 49 44
22 49 44
23 50 45
22 48 43
22 49 44
23 51 46
22 49 44
22 48 44
23 51 46
23 49 45
23 50 45
22 49 44
23 50 45
23 49 45
22 49 44
22 47 43
23 50 45
22 48 43
22 49 44
23 50 46
23 49 45
23 49 45
23 50 46
22 48 43
23 50 45
22 48 44
22 49 44
23 49 44
23 50 45
23 50 45
22 49 44
23 50 45
23 50 45
23 50 45
23 50 45
23 51 46
22 49 44
22 49 44
23 49 45
22 48 43
22 49 44
22 49 44
23 50 45
22 49 44
23 50 45
23 50 45
22 48 44
23 50 45
23 50 45
22 48 44
23 49 44
23 49 45
22 49 44
22 48 44
23 50 45
22 49 44
23 50 45
23 49 44
22 49 44
22 49 44
23 50 45
22 49 44
23 51 46
23 49 44
23 50 45
23 50 45
23 50 45
23 49 45
23 50 45
22 49 44
23 50 45
23 50 45
22 49 44
22 48 43
22 49 44
22 48 44
23 49 45
23 49 45
22 49 44
22 49 44
23 50 45
23 50 45
22 49 44
22 49 45
23 50 45
23 50 45
22 49 44
22 48 43
23 50 45
22 48 43
23 50 45
23 50 45
22 49 44
22 48 44
22 49 44
22 48 44
23 50 45
22 48 44
21 46 42
21 46 42
21 47 43
21 47 43
21 47 42
21 47 43
21 47 43
21 47 43
21 47 43
21 46 42
21 46 42
22 48 44
22 48 44
22 48 43
21 46 42
22 48 44
21 46 42
21 47 43
21 46 42
21 47 43
22 47 43
22 48 43
22 48 44
22 49 44
22 48 44
22 48 44
22 49 44
22 47 43
22 48 43
22 48 43
21 47 42
21 47 43
22 49 44
22 48 44
22 48 44
22 48 43
22 48 44
22 48 43
22 48 43
22 47 43
22 48 44
22 48 44
22 49 44
22 48 43
22 48 44
22 49 44
22 49 45
22 48 43
22 47 43
22 49 44
22 48 44
23 50 45
22 48 44
22 49 44
23 50 45
22 49 44
22 49 44
22 49 44
22 49 45
22 49 44
22 49 44
22 49 45
23 50 45
23 50 45
22 49 44
22 48 44
22 49 44
22 49 45
22 48 44
22 48 43
23 49 45
23 49 45
22 49 44
22 48 43
22 48 43
23 50 45
22 49 44
23 50 45
22 48 43
22 48 44
23 49 45
22 47 43
22 49 45
23 50 45
22 49 44
22 47 43
23 49 44
23 50 45
22 49 44
22 48 44
22 49 44
22 48 43
23 50 45
23 50 45
23 50 45
22 49 44
23 50 45
22 48 44
22 49 44
22 49 44
22 49 44
22 49 44
22 49 45
23 50 45
23 50 45
22 49 44
23 50 45
22 48 44
23 50 45
23 50 45
23 50 45
22 48 44
23 50 45
23 49 44
23 49 45
22 49 44
23 49 45
22 49 44
23 49 44
23 49 45
23 50 45
22 49 44
22 49 44
23 49 45
22 48 43
24 52 47
23 49 45
22 49 44
22 48 43
23 50 45
23 50 45
23 49 45
23 50 45
24 51 46
23 50 45
22 49 44
23 50 45
22 48 44
23 49 44
23 50 45
23 51 46
23 50 46
23 51 46
23 50 45
23 50 45
23 50 45
23 51 46
23 50 45
23 51 46
23 50 45
23 50 45
22 49 44
23 50 45
22 49 44
23 49 44
22 49 44
23 50 45
23 51 46
22 49 44
23 50 45
22 49 44
22 49 44
23 49 44
22 49 44
23 49 44
23 50 45
22 49 44
22 49 44
23 51 46
23 50 45
23 49 45
23 50 45
22 48 44
22 48 43
22 49 44
23 49 45
22 49 44
23 50 45
22 49 44
22 49 44
23 50 45
22 49 44
23 50 45
23 51 46
23 50 45
24 51 46
23 50 45
23 49 45
23 50 45
23 50 45
23 49 45
22 49 45
23 50 45
22 49 44
22 49 44
23 49 45
23 50 45
22 48 44
22 49 44
22 49 44
22 47 43
21 46 42
21 46 42
21 46 42
22 48 44
21 46 42
21 46 42
22 48 43
21 46 42
21 47 42
22 48 43
21 46 42
22 47 43
22 48 44
21 47 42
22 48 43
22 47 43
22 47 43
22 47 43
21 47 43
22 48 43
21 47 43
22 49 44
21 47 42
21 47 43
22 49 45
22 48 43
22 47 43
21 47 43
21 47 43
22 48 44
21 47 42
22 49 45
22 49 44
22 47 43
21 46 42
21 47 43
22 47 43
22 48 44
21 47 43
22 48 43
22 48 44
23 49 45
22 48 44
22 49 45
22 48 44
22 49 44
22 48 43
22 48 44
22 48 43
22 49 44
22 47 43
22 48 43
21 47 43
22 49 45
22 48 43
22 48 44
22 49 44
22 49 44
22 49 44
22 49 44
22 48 43
21 47 43
22 49 44
22 48 44
22 49 44
22 49 44
23 50 45
22 49 44
22 49 44
22 49 44
22 49 44
23 50 45
23 50 45
22 49 45
22 48 44
22 49 44
22 49 44
22 48 44
22 49 44
22 48 43
23 50 45
22 49 44
23 50 45
22 48 43
23 50 45
22 49 44
22 49 44
22 47 43
23 50 45
23 49 45
23 50 45
22 48 44
22 48 44
23 50 45
22 49 44
23 49 45
23 49 45
23 50 45
23 51 46
22 49 44
23 50 45
22 48 44
23 50 46
22 48 43
22 49 44
23 49 45
23 50 45
22 49 44
23 49 45
22 49 44
23 50 45
23 50 45
22 49 45
22 49 44
22 48 44
23 50 45
22 49 44
23 50 45
23 49 45
22 48 43
23 49 45
23 50 45
22 49 44
22 49 44
23 49 45
22 49 44
23 51 46
23 50 46
23 50 45
22 49 44
22 49 44
23 50 45
23 49 44
23 49 45
23 50 45
23 49 45
23 50 45
23 49 44
23 50 46
23 50 45
23 50 45
23 50 45
23 49 44
22 49 44
23 49 45
22 49 44
23 50 45
23 50 45
22 49 44
22 49 44
23 50 45
23 50 45
23 50 45
23 50 45
22 48 44
22 49 44
23 51 46
22 48 44
22 49 44
23 50 45
22 48 44
23 50 45
23 50 45
23 50 45
23 49 44
23 50 45
23 50 45
23 49 45
22 49 44
23 49 45
22 49 44
22 49 44
23 50 45
23 49 45
23 49 45
22 49 44
23 50 45
23 51 46
22 49 45
22 49 44
23 50 45
23 50 45
23 50 45
22 48 44
23 50 45
22 48 43
23 50 45
23 49 45
23 50 45
23 50 46
23 50 45
23 50 45
23 50 45
23 51 46
22 48 43
22 49 44
22 49 44
22 49 44
22 48 44
22 47 43
21 46 42
21 47 43
21 47 43
22 48 44
21 46 42
21 47 42
22 48 43
21 47 43
21 47 42
21 47 43
22 49 44
21 47 43
22 48 44
22 48 43
21 47 43
21 46 42
21 47 42
21 46 42
21 46 42
21 46 42
22 48 43
22 48 43
22 49 44
21 46 42
22 48 43
21 47 43
22 48 44
21 47 43
22 48 44
22 48 43
22 48 44
22 48 43
21 47 42
22 48 43
22 48 43
22 48 43
21 47 43
21 47 42
22 48 44
22 48 44
23 50 45
22 48 43
23 49 45
22 48 43
22 48 44
22 48 44
22 47 43
22 48 44
22 49 45
22 49 44
22 48 44
22 48 44
23 50 45
22 49 44
22 48 43
22 49 44
22 48 44
23 50 45
22 48 44
22 48 43
22 49 44
22 49 44
21 47 43
22 48 43
22 49 45
22 49 44
23 51 46
22 49 44
22 48 43
22 48 44
22 47 43
22 48 44
23 50 45
22 49 44
22 49 44
22 48 44
22 48 44
23 50 45
22 49 44
22 48 43
22 49 44
23 49 45
22 48 43
23 51 46
22 49 44
22 49 44
22 48 43
23 50 45
22 49 44
23 49 45
22 48 44
22 48 43
22 48 43
22 49 44
23 50 45
23 50 45
22 49 44
23 50 45
23 50 45
23 50 46
23 51 46
23 51 46
23 49 45
22 49 44
22 49 44
22 49 44
23 50 45
23 49 44
22 48 44
22 47 43
23 50 45
22 49 44
22 47 43
22 48 43
22 48 43
23 50 45
23 50 45
23 50 45
22 49 45
23 49 45
22 48 43
23 50 45
23 50 45
23 51 46
23 49 44
23 50 45
23 50 45
23 50 45
23 51 46
22 49 44
23 50 45
23 50 45
22 48 44
23 50 45
22 49 44
22 49 44
23 50 45
23 50 45
23 50 46
23 50 45
23 50 45
23 50 45
23 51 46
23 49 44
23 50 45
23 50 45
23 49 45
23 50 46
23 51 46
23 49 44
23 50 45
22 49 44
23 50 45
23 51 46
23 50 45
22 49 44
23 50 45
23 50 45
23 50 46
23 49 44
22 49 44
23 50 45
23 50 45
23 50 45
23 49 45
23 51 46
23 50 45
23 50 45
23 50 45
23 50 45
23 51 46
23 49 44
23 49 45
23 49 45
22 49 44
23 50 45
23 51 46
23 51 46
23 51 46
22 49 44
22 49 44
23 49 45
22 49 44
22 49 44
23 50 45
23 50 45
22 49 44
23 50 45
23 50 45
23 49 44
22 48 43
22 48 44
23 50 46
23 50 45
22 48 44
22 49 44
23 49 45
22 48 44
22 49 45
21 47 43
21 47 43
21 46 42
21 46 42
21 47 43
21 46 42
22 48 44
21 46 42
22 48 43
22 48 43
21 46 42
22 47 43
22 47 43
22 47 43
21 46 42
21 47 42
22 48 44
22 48 44
22 48 44
21 46 42
22 48 43
22 49 44
22 49 44
22 49 44
21 46 42
22 48 43
21 46 42
21 46 41
21 47 42
22 48 44
21 47 43
21 47 42
22 49 44
22 47 43
22 48 44
22 48 44
22 48 44
22 48 43
22 48 44
22 48 44
21 47 43
22 49 44
22 48 43
22 48 43
22 48 43
22 49 44
22 47 43
22 49 44
21 47 43
22 48 44
23 49 45
22 49 45
22 48 44
21 47 43
22 49 44
21 47 43
22 49 44
22 48 44
22 48 44
22 48 43
22 48 43
22 49 44
22 48 44
22 49 44
22 49 44
22 49 44
22 49 44
22 48 43
21 47 42
22 48 44
22 47 43
22 47 43
23 50 45
22 49 44
22 48 44
23 49 45
22 49 44
22 49 44
22 48 43
23 49 45
23 50 45
23 51 46
23 50 46
23 50 45
22 48 44
23 50 45
22 48 43
23 50 45
23 49 45
23 49 45
23 49 44
23 50 45
23 49 44
23 50 45
23 49 45
23 50 45
22 48 44
23 50 45
23 49 45
23 49 44
22 49 44
23 50 45
23 50 45
23 50 45
23 50 45
23 50 45
23 50 45
23 50 45
23 50 45
22 49 44
23 50 45
23 49 45
23 50 45
23 50 45
23 50 45
23 51 46
23 50 45
23 49 44
22 49 44
23 50 45
23 50 45
23 51 46
22 49 44
23 51 46
22 49 44
23 50 45
23 50 45
23 50 45
23 50 45
23 50 45
22 48 44
23 50 45
23 50 45
23 50 45
22 48 43
23 49 44
22 49 44
23 50 45
22 49 44
23 50 45
23 49 44
23 50 45
22 48 43
23 50 45
23 49 45
23 50 45
23 49 45
24 51 46
22 49 44
22 49 44
23 50 45
23 50 45
23 50 45
23 51 46
22 49 44
23 49 45
23 50 45
23 50 45
23 50 45
23 51 46
23 50 45
23 49 45
23 50 45
22 48 44
23 50 45
22 49 44
24 52 46
22 48 43
22 49 44
22 49 44
22 48 43
22 49 44
23 50 45
23 50 45
23 51 46
23 50 45
22 49 44
23 50 46
23 49 45
23 50 45
23 50 46
22 49 44
23 51 46
23 50 45
23 50 45
22 49 44
22 49 44
22 48 44
23 51 46
22 48 43
22 48 43
23 49 44
22 49 44
23 50 45
23 49 45
22 49 44
22 48 43
23 50 45
23 50 45
23 50 45
21 47 43
21 46 42
21 46 42
21 47 43
22 48 43
22 48 43
22 48 43
21 47 43
22 47 43
21 47 43
22 47 43
21 47 43
21 47 43
21 46 42
21 46 42
22 48 43
22 47 43
22 48 43
21 47 43
22 48 43
21 47 43
22 47 43
21 47 43
22 48 43
22 48 43
21 47 42
22 48 43
22 48 43
22 48 43
22 48 43
22 49 44
22 48 44
22 48 44
22 48 44
21 47 42
22 48 43
22 48 43
22 48 43
22 48 43
22 49 44
21 47 43
23 50 45
23 50 45
22 49 44
22 49 45
22 48 44
22 48 44
22 47 43
22 48 44
22 48 43
22 48 43
22 47 43
22 49 44
22 48 43
22 49 44
22 48 44
21 47 42
22 49 44
22 48 44
23 50 45
23 50 45
22 48 44
22 49 44
22 48 43
21 47 42
22 48 43
22 49 44
23 50 45
23 49 45
22 49 44
23 50 45
23 50 45
23 49 44
22 48 43
23 50 45
22 49 44
22 48 43
23 49 45
22 48 44
22 49 44
23 50 45
22 49 44
23 50 45
23 50 45
22 49 44
23 50 45
23 50 45
22 49 44
22 49 44
22 48 44
23 49 45
22 49 44
22 48 44
22 48 43
22 48 44
22 48 44
23 50 45
22 49 44
23 50 45
23 50 45
23 49 45
23 50 45
22 48 44
22 49 44
23 50 45
23 50 45
23 50 45
22 49 44
23 50 45
22 49 44
23 50 45
23 50 45
23 50 45
22 49 44
23 49 44
23 51 46
22 49 44
23 50 46
23 51 46
22 48 44
23 50 45
22 48 44
23 50 45
23 50 45
23 50 45
23 51 46
23 51 46
22 49 44
22 49 44
23 49 45
23 50 45
23 50 45
22 49 44
23 49 44
23 50 45
22 49 44
22 49 44
22 49 44
23 51 46
23 50 45
23 50 45
23 51 46
23 51 46
23 50 45
23 50 45
23 49 45
23 50 45
23 50 45
23 50 45
22 49 44
22 49 44
22 49 44
22 49 44
23 50 45
22 48 44
22 49 44
22 49 44
23 50 45
23 51 46
23 51 46
22 48 44
22 49 44
23 49 44
23 51 46
23 50 45
23 51 46
23 49 44
23 50 45
22 49 44
23 50 45
23 51 46
23 49 45
23 49 45
23 50 45
23 50 46
23 50 46
23 51 46
23 50 45
23 51 46
22 48 44
23 49 45
22 49 44
23 50 45
23 50 45
23 50 45
23 50 45
23 50 45
22 49 44
23 50 45
23 50 45
22 49 44
23 51 46
22 49 44
23 50 45
22 49 44
23 49 45
23 50 45
22 48 44
22 49 44
23 51 46
21 47 43
21 46 42
22 48 43
22 48 43
21 47 43
21 47 43
21 47 43
22 48 44
21 47 43
22 48 44
21 46 42
22 47 43
21 47 43
22 48 44
21 47 43
21 46 41
22 48 43
21 46 42
22 48 43
22 48 44
22 48 43
22 48 44
21 47 43
22 49 44
21 47 43
22 48 43
21 47 43
22 48 43
22 49 44
22 48 43
22 48 44
22 48 43
22 49 45
22 48 43
22 49 44
22 48 44
22 49 44
22 49 44
22 48 44
22 48 44
22 49 44
22 48 44
22 48 43
22 48 43
22 48 43
22 48 43
22 49 44
22 49 44
22 48 43
22 48 44
22 49 44
22 49 45
22 49 44
22 48 43
23 50 45
22 49 44
23 50 45
22 48 44
23 49 45
23 49 45
22 48 43
22 48 44
22 49 44
22 49 44
23 49 45
22 48 44
22 48 44
22 48 44
22 48 43
22 49 44
22 47 43
22 49 44
23 50 45
22 48 44
22 48 43
23 50 45
23 49 45
22 48 43
22 49 45
22 48 43
22 48 44
22 48 44
22 48 44
22 48 44
22 49 44
22 49 44
23 50 45
23 50 45
22 49 44
22 49 44
23 50 45
23 50 45
23 49 45
23 49 45
23 49 44
22 48 43
23 49 45
22 48 44
23 49 45
23 50 45
23 50 45
23 49 45
22 49 44
23 50 45
23 49 45
23 49 45
23 50 45
22 49 44
22 49 44
22 49 44
22 49 44
22 49 44
23 50 45
22 49 44
23 50 45
23 51 46
23 50 45
23 49 45
23 50 45
22 48 43
23 50 45
23 50 45
22 49 44
23 50 45
23 50 46
23 50 45
23 50 45
23 51 46
23 50 45
23 49 45
23 51 46
23 50 45
23 50 45
22 48 43
23 50 45
23 50 46
23 50 45
23 49 45
23 50 45
24 51 46
22 49 44
23 51 46
23 50 45
23 50 45
23 49 44
22 49 44
23 50 45
23 49 45
23 51 46
23 51 46
23 50 45
23 50 45
23 50 45
22 49 44
22 49 44
23 50 45
23 50 45
23 50 45
22 49 44
23 49 44
23 51 46
23 50 45
22 49 44
23 49 44
23 50 46
23 49 45
23 49 45
24 51 46
23 50 46
22 49 44
23 50 45
23 50 45
22 49 44
23 51 46
23 50 45
23 50 46
23 49 44
23 50 45
23 50 45
23 50 45
22 48 43
22 48 44
22 49 44
22 49 44
22 49 44
23 50 45
22 49 44
23 50 45
22 49 44
22 49 44
23 50 45
22 47 43
22 48 44
22 49 44
23 50 45
23 50 45
22 49 44
22 48 44
23 49 45
22 48 43
21 46 42
21 47 43
21 46 42
21 46 42
21 47 43
22 48 43
21 47 42
21 47 43
22 48 44
21 47 43
22 48 44
21 47 42
21 47 43
22 48 43
21 47 43
21 47 43
21 47 43
22 47 43
21 47 42
22 48 43
21 47 43
22 47 43
21 47 43
22 48 43
22 48 44
22 48 44
21 47 43
22 48 44
22 48 43
22 48 43
22 48 43
21 47 43
21 47 43
22 48 44
22 48 43
22 48 44
21 47 43
21 47 42
22 49 44
22 49 44
22 49 45
22 47 43
22 49 44
22 47 43
22 49 44
22 49 45
22 49 44
22 49 44
22 48 44
22 48 43
21 47 42
22 49 44
23 49 45
22 48 44
22 48 44
22 48 44
23 49 45
22 49 44
22 48 43
22 49 44
23 49 45
22 48 44
23 50 45
23 50 45
22 48 44
22 49 44
22 49 44
22 48 44
23 49 45
22 48 43
23 49 45
23 50 45
22 48 44
22 49 44
22 49 44
22 49 44
23 50 45
22 49 44
22 49 44
23 49 45
22 48 43
22 48 44
22 48 43
23 50 46
22 49 44
22 48 44
23 51 46
23 50 45
22 48 43
22 49 45
22 49 44
22 49 44
22 49 44
22 49 44
23 50 45
23 49 45
23 50 45
22 48 43
23 50 45
22 49 44
23 49 45
23 50 45
23 50 45
23 50 45
23 50 45
22 49 44
23 50 45
22 49 44
23 50 45
22 48 44
22 49 44
22 49 44
23 51 46
22 48 44
22 48 43
23 49 44
22 49 44
23 50 45
22 49 44
22 49 44
23 50 46
22 49 44
23 51 46
23 51 46
23 50 45
23 50 45
23 50 45
23 50 45
23 49 45
22 49 44
23 50 45
23 49 45
22 49 44
23 50 45
23 50 45
23 50 45
23 49 45
23 49 45
23 50 45
23 49 45
23 50 45
22 49 44
23 50 45
23 50 45
23 50 45
23 50 45
23 50 45
23 51 46
23 51 46
23 49 45
23 49 45
23 50 45
22 49 44
23 50 45
23 49 45
23 50 46
22 49 44
24 52 47
22 48 43
23 50 45
23 50 45
22 48 44
23 50 45
22 48 43
23 50 45
23 50 45
23 50 45
24 51 46
24 52 47
23 49 45
23 51 46
23 50 45
24 51 46
23 50 45
23 51 46
22 49 44
23 50 45
22 49 44
23 50 46
23 49 45
23 49 45
23 50 45
23 50 45
23 51 46
24 51 46
23 51 46
23 50 45
22 49 44
23 50 45
23 51 46
22 49 44
22 49 44
23 50 45
22 48 44
22 49 44
23 50 45
23 50 45
22 49 44
23 50 45
24 51 46
21 47 43
21 47 43
22 48 43
22 48 43
21 46 41
22 47 43
22 48 44
22 49 44
22 48 43
21 47 42
21 47 43
21 46 42
22 47 43
22 48 43
21 47 43
22 48 43
22 48 43
22 48 43
22 48 43
21 47 43
22 48 44
22 48 43
22 47 43
22 48 43
22 48 43
22 48 44
22 48 43
21 47 43
22 48 43
21 47 43
21 47 43
21 47 43
22 48 44
22 49 45
22 48 43
22 48 44
22 49 45
21 47 43
22 49 44
22 48 44
22 48 43
22 48 44
23 49 45
22 49 44
22 49 44
22 48 44
22 49 44
22 49 44
22 47 43
23 50 45
22 48 44
22 48 44
22 49 45
22 49 44
22 49 44
22 48 44
22 48 44
22 47 43
22 49 45
22 49 45
22 49 44
22 48 44
22 48 44
22 48 44
22 48 43
23 51 46
22 49 44
22 49 44
22 49 44
23 49 45
22 48 44
22 49 44
22 48 43
22 48 43
22 48 43
22 49 44
23 49 45
23 49 45
22 49 44
22 49 45
22 48 44
22 48 43
23 49 45
22 49 44
22 49 44
22 48 43
22 49 44
23 51 46
22 49 44
22 49 44
22 49 44
22 48 44
23 50 45
23 50 45
22 49 44
22 48 44
22 48 44
23 50 45
23 49 45
22 48 44
23 51 46
23 49 44
22 49 44
23 51 46
22 49 44
23 50 45
23 51 46
23 49 45
23 50 45
22 49 44
23 50 45
23 50 45
23 50 45
23 49 45
23 50 46
23 49 44
22 48 43
23 49 45
23 51 46
23 50 46
23 50 45
23 50 45
23 50 45
23 51 46
23 50 45
23 49 45
23 50 45
23 50 45
23 50 45
22 49 44
23 50 45
23 50 45
22 49 44
23 51 46
22 48 44
23 50 45
23 50 45
23 51 46
22 49 44
23 49 45
23 50 45
23 51 46
23 51 46
22 49 44
22 49 44
23 51 46
23 50 45
23 50 45
23 49 44
23 49 45
23 50 45
22 48 43
23 50 45
23 50 45
23 49 44
22 49 44
23 50 45
22 49 44
23 50 45
23 50 45
23 51 46
22 49 44
23 49 45
24 51 46
23 50 45
23 49 45
23 50 45
24 52 47
23 50 45
22 49 44
23 50 45
23 50 45
23 50 45
23 50 45
23 49 45
23 50 46
23 50 45
22 48 43
23 50 46
23 50 45
23 50 45
23 50 45
23 51 46
23 51 46
23 50 45
23 50 45
23 50 45
23 49 45
23 49 45
23 50 45
22 48 44
23 50 45
23 50 45
22 47 43
22 48 44
23 50 45
22 48 43
22 49 44
22 49 44
22 49 44
21 47 43
21 46 42
21 47 42
21 47 43
21 47 43
21 47 43
22 47 43
22 47 43
22 47 43
22 47 43
22 48 44
22 49 44
21 47 43
22 48 43
21 47 43
21 47 43
22 49 44
22 48 43
22 49 44
22 48 43
22 48 43
21 46 42
23 49 45
22 48 43
22 48 43
21 47 43
21 47 43
22 49 44
22 48 44
22 48 44
22 48 43
22 48 44
22 48 43
22 49 44
21 47 43
21 47 43
22 48 44
21 47 43
22 49 44
22 48 44
22 49 44
22 49 44
22 49 44
22 47 43
22 48 44
22 49 45
22 48 43
22 49 44
22 48 43
22 48 43
22 49 44
22 49 44
22 49 45
23 50 45
23 50 45
22 48 44
22 48 44
22 48 44
23 50 45
23 50 45
23 50 45
22 49 45
22 49 44
22 48 44
22 49 44
22 48 44
22 49 44
22 49 44
22 48 43
22 48 44
22 49 44
23 50 45
22 48 43
23 50 45
22 48 43
22 48 43
22 49 44
22 49 44
22 48 44
22 48 43
22 49 44
23 50 45
22 48 43
22 48 44
22 48 44
23 50 45
22 49 44
23 50 45
23 50 45
22 49 44
23 50 45
23 50 45
23 50 45
23 51 46
22 48 43
22 49 44
23 50 45
24 51 46
22 49 44
23 51 46
23 49 45
23 49 45
23 49 44
23 50 45
23 50 46
22 48 44
23 50 45
22 48 44
22 49 44
22 49 44
23 49 45
23 49 44
22 49 44
24 52 47
23 50 45
23 50 45
23 50 45
23 51 46
23 50 45
23 49 45
23 51 46
23 50 45
23 49 45
23 49 45
23 51 46
22 49 44
22 49 44
23 50 45
23 50 45
23 50 45
23 50 45
23 50 45
23 50 45
23 50 45
22 49 44
23 50 45
22 49 44
23 51 46
22 48 44
23 50 45
23 51 46
23 49 44
23 49 44
23 50 45
23 50 45
23 50 45
23 51 46
23 50 45
23 50 45
23 50 45
22 48 43
22 49 44
23 51 46
23 49 45
22 49 44
23 50 45
23 49 45
23 50 45
23 51 46
22 49 44
23 50 45
23 50 45
23 50 45
23 50 46
23 51 46
22 49 44
22 49 44
23 50 45
23 50 45
23 50 45
23 50 45
23 50 45
23 50 45
23 50 45
23 50 45
22 48 44
22 49 44
22 49 44
23 50 45
22 49 44
23 50 45
23 50 45
23 50 45
22 49 44
23 50 45
23 50 45
22 49 44
22 49 44
22 49 44
23 51 46
23 51 46
22 49 44
23 50 45
22 49 44
23 51 46
22 49 44
23 49 45
23 49 45
23 50 46
23 50 45
21 46 42
22 48 43
22 48 43
21 46 42
22 48 44
21 47 43
22 48 44
21 47 43
22 49 44
22 48 44
22 47 43
22 48 43
22 48 44
21 47 42
21 47 43
22 48 43
21 47 42
21 47 43
21 47 43
22 48 44
22 48 43
21 47 42
22 49 45
21 47 43
22 48 44
21 47 43
22 49 44
22 47 43
22 49 44
21 47 43
22 49 44
22 47 43
22 48 43
22 47 43
22 49 44
22 49 44
22 48 43
22 49 44
21 47 42
22 48 43
22 48 43
22 48 43
21 47 43
22 48 43
22 48 43
23 50 45
22 49 44
22 49 45
22 49 44
22 49 44
22 48 44
22 48 44
22 48 43
21 47 42
22 48 43
22 48 43
22 49 44
22 49 44
22 47 43
22 49 44
22 48 44
22 48 43
22 49 44
22 49 45
23 50 46
23 49 45
22 49 44
22 49 44
22 48 44
22 49 44
22 49 44
22 49 44
23 50 45
22 48 43
22 49 44
22 49 45
22 49 45
22 49 44
22 48 44
22 49 44
22 49 44
23 50 45
23 50 45
22 49 44
23 50 45
22 48 44
23 50 45
23 50 45
22 49 44
23 49 45
22 49 44
22 48 44
23 50 45
23 50 45
23 50 45
23 50 45
23 50 45
23 49 45
23 51 46
23 49 45
23 50 45
23 50 45
22 49 44
23 50 45
22 48 43
23 50 45
22 49 44
23 49 44
22 49 44
22 49 44
23 49 45
23 51 46
24 52 47
23 50 45
22 48 43
23 49 44
23 50 46
23 49 44
23 49 44
23 50 45
23 49 45
23 50 46
23 50 45
23 49 44
23 50 45
23 50 45
22 48 44
23 50 45
23 50 45
23 50 45
23 49 45
23 49 44
23 51 46
22 48 43
23 49 44
23 50 45
22 49 44
23 49 45
23 50 45
23 50 45
22 49 44
23 50 45
23 49 44
23 51 46
22 49 44
23 51 46
23 50 45
22 49 44
23 51 46
22 49 44
23 50 45
23 51 46
23 49 45
23 49 44
24 52 46
23 50 45
22 49 44
22 48 43
23 50 45
23 50 45
23 50 45
22 49 44
23 49 45
22 49 44
23 51 46
23 51 46
23 51 46
22 48 43
23 50 45
23 50 45
23 50 45
23 50 45
23 50 45
23 49 44
23 50 45
22 49 44
23 50 45
23 49 45
22 49 44
23 50 45
23 50 45
23 50 45
23 50 45
23 50 45
23 50 46
23 50 46
23 50 45
23 49 44
23 50 45
22 49 44
23 49 45
23 50 45
23 50 45
22 48 43
23 50 45
23 50 45
22 49 44
22 49 44
23 50 45
23 50 46
21 47 43
21 47 42
22 48 43
22 48 44
22 48 43
21 46 42
22 48 43
21 47 43
21 47 42
21 47 43
22 48 44
22 49 44
22 48 44
21 47 43
21 47 42
21 47 43
22 49 44
22 48 43
22 48 43
21 47 43
22 47 43
22 47 43
22 49 44
22 48 43
22 48 43
21 47 43
21 47 43
21 47 43
22 48 44
22 48 43
22 48 43
22 48 44
22 48 44
22 48 43
22 48 43
22 49 45
22 48 44
22 48 44
21 46 42
23 50 45
22 48 43
22 48 44
22 49 44
22 48 44
22 48 43
22 48 44
22 48 44
22 48 44
22 49 44
23 50 45
23 50 45
22 48 43
23 50 45
22 48 43
22 49 44
22 48 43
22 49 44
22 49 44
23 50 45
23 50 45
22 49 44
23 50 45
22 48 43
22 49 44
22 49 44
22 49 44
22 49 44
23 50 45
23 49 45
22 49 44
22 49 44
22 48 44
23 50 45
22 49 44
22 49 44
22 49 44
22 49 44
23 50 45
22 47 43
22 49 44
23 51 46
22 48 44
22 49 44
22 49 44
23 50 45
23 49 45
23 50 45
23 50 45
23 50 45
22 49 44
23 50 45
23 49 45
22 49 44
24 51 46
23 50 45
23 50 45
23 50 45
23 50 45
22 49 44
23 50 45
24 52 47
23 51 46
23 50 45
23 50 45
22 49 44
23 50 45
22 49 44
23 50 45
22 49 44
22 49 44
23 50 45
22 49 44
23 50 45
23 51 46
23 51 46
23 51 46
23 51 46
23 51 46
23 51 46
23 50 45
22 49 44
23 50 45
22 49 44
23 49 44
23 51 46
22 49 44
23 50 45
22 49 44
23 50 45
23 49 44
23 49 45
23 51 46
23 50 45
23 49 44
23 51 46
23 50 45
23 51 46
23 50 45
22 49 44
23 50 45
22 49 44
23 51 46
23 49 44
22 49 44
23 51 46
23 51 46
23 51 46
23 51 46
24 51 46
23 50 45
23 50 45
24 51 46
23 51 46
23 50 45
23 50 45
23 49 45
23 50 45
22 48 43
23 49 44
23 50 45
23 50 45
23 50 45
23 50 45
23 50 45
23 49 44
22 49 44
23 50 45
24 51 46
22 49 44
23 50 45
23 50 46
23 50 45
23 50 45
23 50 45
24 52 47
23 50 45
22 49 44
23 49 45
23 50 45
23 49 45
23 50 46
22 49 44
23 50 45
23 50 45
23 50 45
23 50 45
23 51 46
23 49 45
23 50 45
23 49 45
23 50 45
22 49 44
22 48 44
23 49 45
22 48 44
22 49 44
23 50 45
23 51 46
23 50 45
22 48 43
21 46 42
21 47 42
21 47 42
22 48 44
21 47 43
22 48 43
21 47 43
22 48 43
21 46 42
21 45 41
21 47 43
21 47 42
21 47 43
22 48 44
22 48 44
21 47 43
22 48 43
21 47 42
22 48 44
22 48 44
22 49 44
22 48 43
22 48 44
21 47 42
22 47 43
22 48 43
23 50 45
22 48 43
22 49 44
22 48 43
22 48 44
22 47 43
22 48 44
21 47 43
22 47 43
22 49 44
22 49 44
22 48 44
22 48 44
22 49 44
22 48 43
22 48 43
22 49 45
23 49 45
22 47 43
21 46 41
22 49 44
22 49 44
22 48 44
22 48 43
22 48 44
22 49 44
22 48 44
22 49 44
22 49 44
22 48 44
22 48 44
22 48 44
22 49 45
22 48 44
22 47 43
22 48 43
22 49 44
22 48 43
23 49 45
22 48 43
22 49 44
23 49 45
23 50 45
23 50 45
22 48 43
22 48 43
22 49 44
22 49 44
22 48 44
22 48 44
23 50 45
22 49 44
22 48 44
22 49 44
22 49 44
22 49 44
22 48 43
22 48 43
23 49 45
23 50 45
23 50 45
23 51 46
23 49 45
22 49 44
23 50 45
22 49 44
23 50 45
23 50 45
22 48 44
22 48 44
23 50 45
23 49 44
23 50 45
22 48 44
22 49 44
23 50 45
23 50 45
22 49 44
23 50 45
23 49 44
22 49 44
23 49 44
23 50 45
23 50 45
23 50 45
23 50 45
22 49 44
23 51 46
23 50 45
22 49 44
22 49 44
22 49 44
23 50 45
22 49 44
22 49 44
24 51 46
23 51 46
23 51 46
23 50 45
23 49 45
23 50 45
23 50 45
23 50 45
22 49 44
23 50 45
23 50 45
23 50 45
23 50 45
23 50 45
23 50 45
23 51 46
23 50 45
23 49 45
23 50 45
23 51 46
23 51 46
23 50 45
23 50 45
23 51 46
23 50 45
24 51 46
23 51 46
23 50 45
23 50 45
23 50 45
22 49 44
22 49 44
22 48 44
23 50 45
23 51 46
23 50 45
22 49 44
23 50 45
23 50 45
23 49 44
23 50 45
23 50 45
23 49 45
22 49 44
23 49 44
23 50 45
23 50 45
23 50 46
23 49 45
22 48 44
23 51 46
23 51 46
23 51 46
23 50 45
23 50 45
22 49 44
23 50 45
23 50 45
23 49 44
22 49 44
22 49 44
23 49 45
22 49 44
23 50 45
23 50 45
23 51 46
22 48 44
23 50 45
23 50 45
23 50 45
23 49 44
22 49 44
23 49 45
22 49 44
22 49 44
23 50 45
22 49 44
23 50 45
21 47 42
21 47 43
21 46 42
22 47 43
22 48 43
22 48 44
21 47 42
21 47 42
22 49 45
22 48 43
22 48 43
23 50 45
22 48 44
22 48 43
21 46 42
22 49 44
22 48 44
21 46 42
22 48 43
21 47 43
22 49 44
22 47 43
21 47 43
21 46 42
22 48 43
22 49 44
22 48 43
22 48 44
22 47 43
22 49 44
22 48 43
23 49 45
22 49 44
22 49 44
22 48 43
22 48 43
22 49 44
22 48 43
22 48 44
21 47 43
22 48 43
22 49 45
22 48 43
22 49 44
22 49 44
22 48 43
22 48 44
22 48 44
22 47 43
22 48 44
23 49 45
22 48 44
22 49 44
23 50 45
22 49 44
22 49 44
22 48 44
22 48 44
23 50 45
23 49 45
22 48 44
23 49 45
22 49 44
22 48 43
22 47 43
23 50 46
22 49 44
22 49 44
22 49 44
23 50 45
23 50 45
22 49 44
22 49 44
22 49 44
23 49 45
23 50 45
23 50 45
22 49 45
22 48 43
23 50 45
23 50 45
22 49 44
22 49 44
22 49 44
23 49 45
22 49 44
23 49 44
22 49 44
22 49 44
23 50 45
23 50 45
23 50 45
23 50 45
22 48 44
22 49 44
23 50 45
23 50 45
23 50 45
23 50 45
23 50 46
23 49 44
23 50 45
23 51 46
23 49 44
23 51 46
23 50 45
22 48 43
23 49 45
23 50 45
23 50 45
22 49 44
22 49 44
23 51 46
23 49 45
22 49 44
23 50 45
22 49 44
23 50 45
23 50 45
23 50 45
22 48 44
23 50 45
23 50 45
23 49 45
23 50 45
23 51 46
22 49 44
23 51 46
23 50 45
22 48 44
23 49 44
23 50 45
23 50 45
23 49 44
23 49 45
23 50 45
23 51 46
23 50 46
22 49 44
23 50 45
23 49 44
24 51 46
23 50 45
23 51 46
23 50 45
23 50 45
22 49 44
23 50 45
23 50 45
23 51 46
23 50 45
23 50 45
22 49 44
22 49 44
24 52 46
24 51 46
23 49 45
23 50 45
22 49 44
23 50 45
23 51 46
23 51 46
23 51 46
23 51 46
23 50 45
23 50 46
22 49 44
23 50 45
23 49 45
23 49 45
23 50 45
23 49 45
23 50 45
23 50 45
22 49 44
23 50 45
23 50 45
23 50 45
23 50 45
23 51 46
23 50 46
23 49 45
22 49 44
23 50 45
23 51 46
23 49 45
22 48 44
22 48 43
22 49 44
23 50 45
22 49 44
23 49 45
23 50 45
22 49 44
23 50 45
23 49 44
22 49 44
23 50 45
23 50 45
22 48 44
22 48 44
22 48 43
21 47 43
22 48 43
22 49 44
21 46 42
21 47 43
22 48 44
22 48 44
22 48 43
22 48 43
22 48 44
22 47 43
21 47 42
21 47 43
22 48 44
22 48 43
22 48 43
22 48 43
22 48 44
22 48 44
21 46 42
22 48 44
21 47 43
22 48 44
21 47 43
22 48 44
21 47 43
21 46 42
22 48 44
22 48 43
22 49 44
22 47 43
21 47 43
22 48 44
22 49 44
22 47 43
21 47 42
22 48 43
22 48 44
22 48 44
22 49 45
22 48 44
21 47 43
22 47 43
22 49 44
22 48 44
22 49 44
22 48 44
22 48 44
22 48 44
22 48 44
21 47 42
22 49 44
22 49 44
23 50 45
23 50 45
22 48 43
22 49 44
22 49 44
22 49 44
22 48 43
22 48 43
23 50 45
22 49 44
23 50 45
22 48 44
23 49 45
22 48 43
22 49 44
22 48 44
23 50 45
23 50 45
22 49 44
21 47 43
22 48 43
22 49 44
23 49 44
23 51 46
23 50 45
22 49 44
22 48 43
23 50 45
22 48 44
22 49 44
22 49 44
22 47 43
22 49 44
23 50 45
22 49 44
23 50 45
22 48 44
22 49 44
24 51 46
23 50 45
23 50 45
23 50 46
23 50 46
22 49 44
23 51 46
23 50 46
23 50 45
23 50 45
23 50 45
23 50 45
23 51 46
23 49 45
23 49 45
23 50 45
23 50 45
22 48 44
23 51 46
23 50 45
23 50 45
23 50 45
22 48 43
23 50 45
23 50 45
23 50 45
23 50 45
23 49 44
22 49 44
22 48 43
22 49 44
23 50 45
22 48 44
23 51 46
23 50 45
23 51 46
24 52 46
23 51 46
23 50 45
23 50 45
23 50 45
23 50 45
23 50 45
22 48 44
23 51 46
23 49 45
22 49 44
23 49 45
23 50 45
22 49 44
24 52 47
24 52 47
22 49 44
23 51 46
23 50 45
23 50 45
23 50 45
23 50 45
23 50 45
23 50 45
23 51 46
23 50 45
23 50 45
22 49 44
23 51 46
23 51 46
23 51 46
23 50 45
22 48 43
23 51 46
23 49 45
22 48 44
22 49 44
22 49 44
23 51 46
23 50 45
22 48 44
22 49 44
23 50 45
22 49 44
23 51 46
23 50 45
23 51 46
23 50 45
23 50 45
23 51 46
23 50 46
23 50 45
22 48 44
23 49 44
23 50 45
23 50 45
23 50 45
23 51 46
23 50 45
22 49 44
24 51 46
22 48 44
23 50 45
23 50 45
22 49 44
23 50 45
22 49 44
23 50 45
22 49 44
23 50 45
22 48 43
22 48 44
21 46 42
22 48 43
22 48 43
21 47 43
21 47 43
22 48 44
21 46 41
22 47 43
22 47 43
21 47 43
21 46 42
21 47 43
22 49 44
22 49 44
22 48 44
22 48 43
22 48 44
22 48 44
21 47 43
21 46 42
22 48 44
22 47 43
22 47 43
21 47 43
21 47 43
22 48 43
22 48 44
23 50 45
22 48 43
22 49 44
22 48 44
22 48 44
22 47 43
22 47 43
23 49 45
22 49 44
22 49 44
22 48 43
22 48 44
22 48 43
22 49 44
22 48 43
22 49 44
21 47 42
23 49 45
22 48 44
22 48 44
22 49 44
22 48 44
21 47 43
22 49 45
22 48 43
22 49 44
21 47 43
23 49 45
22 47 43
23 50 45
23 50 45
22 48 43
22 49 44
22 48 43
22 49 44
22 48 44
23 50 45
22 48 44
22 48 44
22 49 45
23 50 45
22 48 44
22 48 44
22 49 44
22 48 44
23 50 45
22 49 44
22 49 44
23 50 45
23 49 45
23 49 45
22 49 44
23 49 45
23 50 46
23 51 46
22 49 44
22 48 44
23 49 45
23 50 45
23 49 45
22 49 44
22 48 43
23 49 44
22 49 44
22 49 44
23 50 45
23 51 46
23 50 46
22 48 43
23 51 46
23 50 45
23 49 45
23 51 46
22 49 44
22 49 44
23 50 45
23 50 45
23 50 45
22 49 44
23 51 46
23 50 45
23 49 44
22 48 44
23 51 46
23 50 45
23 50 45
22 49 44
23 49 44
23 50 46
23 49 45
23 50 45
23 50 45
23 51 46
22 48 44
23 50 45
22 49 44
23 50 45
23 50 45
22 49 44
22 49 44
22 49 44
22 49 44
23 51 46
23 49 44
23 50 45
23 50 45
23 50 45
23 51 46
23 50 45
23 50 45
22 48 44
23 51 46
24 51 46
23 50 45
23 50 45
23 49 44
23 49 44
23 50 45
23 49 44
22 49 44
24 52 47
23 50 45
23 50 45
23 51 46
23 50 45
23 51 46
23 50 45
23 50 45
23 50 45
23 49 44
22 49 44
23 49 44
22 49 44
23 50 45
23 50 45
22 48 44
23 49 44
23 50 45
22 49 44
24 52 46
23 50 46
23 49 45
23 50 45
23 50 45
23 51 46
22 49 44
23 50 45
22 49 44
23 50 45
23 50 45
23 50 45
22 49 44
23 51 46
22 49 44
23 50 45
23 49 45
23 50 45
22 49 44
23 51 46
22 49 45
23 50 45
23 49 45
22 49 44
23 50 45
23 49 45
23 50 45
23 50 45
23 50 45
22 49 44
23 50 45
23 50 45
23 50 45
23 50 45
22 48 44
21 47 43
22 48 43
22 48 43
21 47 42
22 48 43
21 47 42
21 47 43
22 48 43
22 48 44
21 47 43
22 47 43
22 49 45
22 48 44
22 48 43
22 49 44
22 47 43
21 46 42
22 48 44
21 47 43
22 48 43
22 48 44
21 47 43
22 49 44
23 50 45
21 47 43
22 47 43
22 48 44
22 49 44
22 48 44
22 48 44
22 49 44
22 48 43
22 48 44
22 47 43
22 48 44
22 49 45
22 48 44
22 48 43
22 49 44
22 48 43
23 50 45
22 48 44
22 48 43
22 49 44
22 48 44
23 49 45
22 48 44
22 49 44
22 49 44
22 49 44
22 49 44
22 48 44
22 48 44
22 49 44
23 50 45
23 49 45
22 48 44
22 48 44
22 49 44
22 49 44
23 49 45
22 49 44
22 48 43
22 48 43
22 48 43
23 49 45
22 49 44
22 48 44
22 48 43
22 49 44
23 50 46
22 49 44
23 50 45
23 50 45
22 48 44
22 49 44
23 50 45
23 49 45
22 49 44
22 49 44
22 49 44
22 48 44
23 49 45
23 50 45
22 49 44
23 50 45
23 50 45
23 50 45
22 48 43
23 49 45
23 50 45
22 49 44
22 49 44
23 49 45
23 51 46
23 50 45
23 50 45
22 49 44
22 49 44
23 50 45
23 50 45
23 50 45
23 50 45
22 49 44
23 50 45
23 50 45
23 51 46
23 49 44
23 50 45
23 49 45
23 51 46
23 49 45
23 50 45
23 51 46
23 51 46
23 50 45
23 49 44
23 49 45
23 50 45
24 52 47
23 49 45
23 50 45
23 49 45
23 50 45
22 49 44
22 49 44
23 50 45
23 50 45
24 52 47
23 49 45
23 51 46
23 50 45
23 49 45
23 50 45
24 52 47
23 50 46
23 49 44
23 51 46
23 50 45
23 51 46
24 51 46
23 50 45
23 50 46
23 50 45
23 51 46
23 51 46
23 51 46
22 49 44
22 49 44
22 48 44
23 51 46
23 50 45
23 50 45
23 51 46
23 49 44
23 49 45
23 51 46
23 51 46
23 51 46
23 51 46
23 50 45
22 49 44
23 50 45
23 50 45
22 49 44
23 50 45
22 49 44
23 50 45
22 49 44
23 51 46
23 50 45
23 50 45
23 49 45
23 50 45
22 49 44
23 50 45
23 50 45
23 50 45
22 49 44
23 51 46
23 51 46
23 50 45
23 50 45
22 48 43
23 50 45
23 50 45
23 50 45
23 50 45
24 52 46
24 52 47
23 49 45
22 49 44
23 50 45
23 50 45
22 49 44
22 49 44
23 51 46
23 50 45
22 49 44
22 48 43
21 46 42
22 48 44
21 46 42
22 48 43
21 46 42
22 48 43
21 46 42
22 48 43
22 49 44
22 47 43
21 47 42
21 46 42
21 47 43
22 48 43
22 48 43
22 47 43
22 49 45
22 49 44
22 48 44
22 48 43
21 47 43
22 48 43
21 47 43
22 49 45
21 47 43
21 47 43
23 50 45
22 48 43
22 48 44
22 48 44
23 50 45
22 48 43
22 49 45
22 49 44
22 49 44
22 49 45
21 47 42
22 49 44
22 49 44
22 48 43
22 49 44
22 49 45
22 48 44
22 49 45
23 51 46
22 48 43
22 48 44
22 49 44
22 49 44
22 49 45
21 47 43
22 48 44
22 49 44
23 50 45
22 49 44
23 49 45
23 50 45
22 48 44
22 49 44
23 50 45
23 50 45
23 49 45
22 49 44
23 50 45
22 49 44
23 49 45
22 49 44
23 49 45
22 48 44
23 50 45
22 49 44
22 48 44
22 49 44
23 49 45
23 49 45
23 49 45
22 49 44
22 49 44
22 49 44
23 50 45
22 49 44
22 48 44
23 49 45
23 50 45
23 49 45
22 49 44
22 49 44
23 50 45
23 49 44
23 50 46
22 48 44
23 50 45
23 50 45
22 48 43
23 50 45
22 49 44
22 49 44
23 50 45
23 49 44
22 49 44
22 48 43
22 49 44
23 50 45
23 50 45
23 50 45
23 51 46
23 49 44
23 50 45
23 51 46
23 49 44
23 51 46
23 51 46
23 49 45
23 50 45
22 49 44
23 49 44
23 51 46
22 49 44
23 50 45
23 50 45
23 49 44
22 49 44
23 50 45
23 49 45
23 51 46
23 50 45
23 51 46
23 49 44
23 50 45
22 49 44
22 49 44
23 51 46
23 50 45
23 50 46
24 51 46
23 51 46
23 51 46
23 50 46
23 50 45
23 50 45
23 50 45
23 50 45
23 50 45
23 51 46
23 50 45
22 49 44
23 50 45
23 51 46
23 50 45
23 49 45
22 49 44
23 50 45
22 49 44
23 50 45
23 50 45
23 51 46
23 51 46
23 50 45
23 49 44
23 50 45
24 51 46
23 50 45
23 49 44
22 49 44
23 50 45
22 49 44
23 51 46
23 51 46
23 50 45
23 50 45
23 51 46
23 49 44
23 49 44
23 50 45
22 49 44
23 50 45
23 51 46
23 51 46
23 51 46
23 50 45
23 50 45
22 49 44
23 50 45
23 50 45
23 49 44
23 49 45
23 50 45
23 50 45
23 50 45
23 51 46
23 50 45
23 51 46
23 51 46
23 50 46
22 49 44
23 50 45
23 50 45
23 49 45
23 50 45
21 47 42
22 48 43
22 48 44
22 47 43
22 47 43
22 48 43
22 49 44
22 47 43
22 48 44
21 47 42
22 48 43
22 48 44
21 47 43
21 47 43
22 48 44
22 47 43
22 49 44
22 48 43
22 48 43
22 47 43
21 46 41
22 48 43
22 48 43
21 47 43
22 47 43
22 48 44
22 47 43
22 48 43
22 48 43
21 47 42
22 49 44
22 48 44
22 48 44
22 48 44
22 48 44
22 48 44
23 49 45
22 48 44
22 47 43
22 49 44
22 48 43
22 48 43
22 48 43
22 48 43
22 49 44
22 48 44
22 49 44
22 48 43
22 49 44
22 48 44
22 49 45
22 48 43
22 48 44
23 49 45
22 48 44
23 50 45
23 50 45
22 48 44
22 48 44
23 50 45
22 49 44
22 47 43
22 49 44
23 51 46
22 49 44
23 50 45
23 49 45
22 49 44
22 48 44
23 49 45
23 50 46
23 49 45
22 49 44
22 49 44
22 49 44
23 50 45
23 49 45
23 50 45
22 48 43
23 49 44
22 48 43
23 50 46
23 50 45
22 49 44
22 48 44
23 49 45
22 48 43
23 51 46
23 50 45
23 51 46
22 48 44
23 49 44
23 50 45
23 50 45
23 50 45
23 50 45
22 48 44
23 50 45
23 50 45
23 50 45
23 50 45
23 50 46
23 50 46
22 48 43
23 49 44
22 49 44
23 50 45
23 49 44
22 49 44
23 49 44
23 51 46
23 50 45
23 51 46
22 49 44
22 49 44
23 50 45
23 51 46
23 49 44
22 49 44
23 50 45
23 50 45
22 49 44
22 49 44
23 50 45
23 51 46
23 50 45
23 50 45
23 50 45
22 49 44
23 51 46
23 50 45
23 51 46
23 49 44
23 50 45
23 51 46
23 50 45
23 50 45
23 50 45
23 50 45
24 51 46
23 50 45
22 49 44
23 50 45
23 49 45
23 50 45
23 51 46
22 48 44
23 51 46
22 49 44
23 50 45
23 49 44
23 51 46
23 49 44
23 50 45
23 50 45
23 50 45
23 51 46
23 50 45
23 50 45
23 50 45
23 50 45
22 49 44
22 49 44
23 51 46
23 50 45
22 49 44
23 50 45
23 50 45
23 50 45
23 50 45
23 50 45
23 50 45
23 50 45
23 50 45
23 50 46
22 49 44
23 51 46
23 50 45
23 50 45
23 50 45
23 51 46
23 50 45
22 49 44
23 49 45
22 49 44
23 50 45
23 50 46
22 49 44
23 50 45
23 50 45
23 50 45
23 49 44
23 51 46
22 48 43
23 50 45
23 50 45
23 49 45
23 50 45
22 48 44
22 48 44
22 48 44
21 46 42
21 47 42
21 47 43
22 49 44
21 47 43
22 48 43
22 48 44
21 47 43
21 47 43
22 47 43
22 48 44
22 49 45
22 48 44
22 48 44
22 47 43
22 48 43
21 47 43
22 47 43
22 48 44
22 47 43
22 49 45
21 47 43
22 48 43
22 48 43
22 48 43
22 49 44
22 49 44
23 50 45
22 48 43
22 48 43
22 48 43
22 49 44
22 48 43
22 48 44
22 49 45
22 48 43
22 48 44
22 48 43
22 48 44
23 50 45
21 47 43
22 49 44
22 49 44
22 48 43
22 49 44
23 50 45
23 50 45
22 49 44
23 51 46
22 49 44
22 49 44
22 48 44
23 50 45
22 49 45
23 50 45
22 48 44
22 48 44
22 49 44
23 50 45
22 49 44
22 49 44
22 49 44
22 49 44
22 49 44
22 49 44
23 49 45
22 49 45
22 49 44
22 49 44
22 49 44
23 50 45
22 49 44
23 50 45
23 50 46
22 49 44
22 49 44
23 50 45
22 49 44
23 50 45
23 49 45
23 50 46
23 50 45
23 50 45
22 49 44
24 52 47
22 48 44
23 50 45
23 49 45
23 49 45
22 49 44
22 49 44
23 51 46
23 49 45
22 49 44
23 50 45
23 50 45
23 50 45
23 50 45
23 49 45
23 50 45
23 50 45
23 50 45
23 50 45
23 50 45
23 50 45
22 48 43
22 49 44
23 49 44
22 49 44
23 49 45
23 50 45
23 50 45
23 49 44
23 49 44
23 49 44
22 49 44
22 49 44
22 49 44
23 50 45
22 49 44
23 51 46
23 50 45
23 50 45
23 49 45
23 50 45
22 49 44
23 50 45
24 52 47
22 49 44
23 50 45
23 50 45
23 50 45
23 49 45
23 50 46
23 50 45
23 50 45
22 49 44
23 51 46
23 50 45
23 51 46
23 50 45
23 51 46
23 50 45
22 49 44
23 50 45
23 50 45
23 51 46
23 50 45
23 51 46
23 50 45
23 50 45
23 51 46
23 50 45
23 50 45
22 49 44
23 49 44
23 50 46
22 49 44
23 49 44
23 50 45
23 50 45
23 50 45
23 50 45
23 50 45
24 52 47
23 50 45
23 50 45
23 51 46
23 50 46
23 51 46
23 50 45
23 50 45
23 51 46
23 50 45
23 50 45
23 49 45
23 50 45
23 49 45
23 50 45
23 51 46
23 51 46
23 51 46
22 49 44
22 49 44
23 50 45
23 50 45
23 50 45
23 50 45
23 50 45
23 51 46
23 51 46
23 50 45
23 50 45
22 48 43
23 50 45
23 50 45
22 49 44
23 50 45
23 50 45
21 47 43
22 48 44
22 48 43
21 47 43
22 48 44
21 47 43
22 48 43
22 48 43
22 48 43
22 48 43
21 47 43
22 48 44
22 48 43
22 48 43
21 46 42
22 48 43
22 48 44
22 47 43
22 49 45
22 48 43
21 47 43
22 48 43
22 48 44
22 48 44
22 48 43
22 48 43
21 47 43
22 48 43
22 48 44
21 47 43
22 48 43
22 49 44
22 48 43
22 48 43
22 48 43
22 48 43
23 50 45
22 48 44
22 49 44
22 48 44
22 49 45
21 47 42
22 49 44
22 48 44
22 48 44
22 49 44
22 48 44
22 47 43
22 49 44
22 49 44
22 47 43
22 48 44
22 49 44
21 47 42
22 49 44
22 48 43
22 49 44
22 49 44
22 49 44
22 48 43
23 50 45
22 48 44
23 50 45
22 49 44
22 49 44
22 48 43
21 47 42
22 49 44
22 49 45
23 49 45
23 50 45
23 50 45
23 50 45
22 49 44
22 49 44
23 50 45
23 49 44
23 50 45
22 48 44
22 49 44
23 51 46
23 50 45
22 49 44
22 49 44
22 48 43
23 50 45
23 50 46
23 50 45
23 49 44
23 51 46
23 50 45
23 50 45
23 49 44
23 49 45
23 49 45
23 49 44
22 49 44
23 51 46
23 50 46
23 50 45
23 49 44
24 51 46
23 50 45
22 48 43
23 50 45
23 49 45
23 50 45
23 49 45
23 51 46
23 49 45
23 50 45
22 49 44
23 50 45
23 49 45
23 51 46
23 50 45
23 50 45
24 52 47
23 50 45
22 48 44
23 50 45
23 49 45
23 49 44
22 49 44
22 49 44
23 50 45
23 51 46
22 49 44
23 50 45
23 50 46
23 50 45
23 50 45
23 49 44
22 49 44
23 49 44
23 49 45
23 50 45
23 51 46
23 51 46
22 49 44
23 50 45
22 49 44
23 50 45
23 49 44
23 49 45
23 50 46
23 50 45
22 49 44
23 50 45
23 50 45
23 50 45
23 51 46
23 49 44
23 49 45
22 49 44
23 50 45
22 49 44
23 50 45
23 50 45
22 49 44
23 49 45
23 51 46
22 49 44
23 50 45
22 49 44
23 50 45
23 49 45
23 50 45
23 49 45
23 50 45
23 50 45
23 50 45
23 50 45
23 50 45
23 49 45
23 50 45
23 50 45
23 49 44
23 49 45
23 50 45
23 50 45
24 52 47
23 51 46
23 51 46
23 50 45
23 50 45
24 51 46
22 49 44
23 50 45
23 49 44
23 50 45
23 49 45
22 49 44
23 49 45
22 48 44
23 49 45
24 52 47
22 48 43
23 50 46
22 48 44
21 47 43
22 48 44
21 47 43
21 47 43
22 47 43
21 46 42
22 48 43
21 47 43
21 47 43
21 47 42
22 48 44
21 47 43
21 47 42
21 47 42
22 48 43
22 48 44
21 47 43
22 48 43
22 47 43
22 48 44
22 48 43
22 48 44
22 49 44
21 46 42
22 48 44
22 48 43
22 49 44
22 48 43
22 49 44
22 49 44
22 48 43
22 49 44
22 48 43
21 46 42
22 49 44
22 48 44
22 47 43
22 48 44
22 49 44
23 50 45
22 49 44
22 47 43
21 47 42
22 48 44
22 49 44
22 48 43
22 49 44
22 49 44
22 49 45
22 49 44
23 50 45
22 49 44
22 48 43
22 48 43
22 49 44
22 49 44
23 49 44
22 49 44
23 50 45
22 49 45
23 50 45
22 48 43
21 47 43
22 49 44
22 48 44
22 48 43
22 49 44
23 49 45
22 48 44
23 50 46
22 49 44
23 50 45
22 49 44
22 49 45
22 49 44
22 49 44
23 50 45
23 49 45
23 50 45
22 49 44
23 49 45
22 49 44
22 47 43
22 49 44
22 49 44
23 50 46
22 48 43
22 49 44
23 50 45
23 50 45
23 49 44
22 48 43
23 50 45
22 48 44
23 50 45
23 51 46
23 49 45
22 49 44
23 51 46
23 50 45
23 49 45
23 50 45
22 49 44
23 49 44
22 48 44
22 48 44
22 48 43
23 51 46
23 49 45
23 50 45
22 49 44
22 49 44
23 51 46
22 48 44
23 49 45
23 50 45
23 49 44
23 50 45
23 50 45
23 50 45
23 51 46
23 50 45
23 49 45
23 50 45
23 50 45
22 49 44
23 51 46
23 50 45
23 50 45
23 49 45
23 51 46
22 47 43
23 50 45
23 51 46
23 50 45
23 50 45
23 49 44
23 50 46
24 52 46
23 51 46
23 50 45
23 51 46
23 50 45
24 51 46
23 51 46
23 50 45
23 51 46
23 50 45
22 49 44
23 49 45
23 51 46
22 49 44
23 50 45
22 48 43
22 48 44
23 50 45
23 49 44
23 51 46
23 51 46
22 48 44
23 50 45
24 52 47
23 50 45
23 49 45
23 50 45
23 50 45
22 49 44
22 49 44
23 51 46
23 51 46
23 50 45
23 50 45
23 51 46
23 51 46
24 51 46
23 50 46
23 50 46
23 49 45
23 50 46
23 50 45
23 50 45
23 50 45
23 50 45
23 51 46
23 50 45
23 50 45
23 50 45
23 49 45
22 49 44
23 51 46
23 51 46
23 50 45
22 49 44
23 50 45
23 50 45
23 50 45
23 49 45
23 50 45
23 49 44
23 50 45
22 48 44
21 47 43
21 47 42
22 48 44
21 47 42
22 48 43
22 47 43
22 48 43
21 47 43
22 47 43
22 48 44
22 48 43
22 48 44
22 49 44
22 48 43
22 48 44
22 48 43
22 49 45
22 49 44
22 48 43
22 47 43
22 49 44
22 48 43
22 48 44
23 50 45
22 48 43
22 48 44
22 47 43
22 47 43
21 47 42
22 49 44
22 49 44
22 48 43
22 48 43
22 47 43
21 47 42
22 48 43
22 48 44
22 48 44
22 49 44
22 48 44
22 48 44
22 48 44
22 48 44
22 48 43
23 49 45
22 48 44
22 47 43
22 48 44
22 49 44
22 48 44
23 49 45
22 48 43
23 49 45
23 49 45
22 48 44
22 49 44
23 49 45
22 49 44
23 50 45
22 48 44
22 49 44
21 47 42
22 49 44
22 48 44
23 50 45
22 49 44
23 49 45
22 48 44
22 48 44
22 49 44
23 50 45
23 50 45
23 50 45
23 49 45
22 49 45
22 49 44
22 48 44
23 49 45
23 49 45
22 49 44
22 49 44
22 49 44
23 49 45
23 50 45
23 51 46
23 50 45
23 50 45
23 50 45
22 49 44
23 51 46
23 50 45
23 50 45
23 49 45
23 50 45
23 49 44
23 49 45
22 49 44
22 49 44
23 50 45
22 49 44
22 49 44
22 49 44
22 49 44
23 49 45
22 49 44
23 50 45
23 50 45
23 49 44
23 50 45
23 49 44
23 51 46
23 50 45
22 49 44
23 51 46
23 50 45
23 51 46
23 50 45
23 51 46
23 50 45
23 50 45
23 49 44
23 49 45
23 50 45
23 50 45
23 51 46
23 49 45
23 51 46
22 49 44
23 50 45
23 51 46
23 50 45
22 49 44
23 50 45
24 52 47
23 51 46
22 49 44
23 51 46
23 50 45
22 49 44
23 50 45
23 51 46
23 50 45
23 51 46
23 50 45
22 49 44
23 50 45
23 51 46
22 49 44
23 49 44
23 50 45
23 49 45
22 48 43
23 49 45
23 51 46
22 49 44
23 50 45
23 50 45
23 50 45
23 50 45
22 49 44
22 49 44
23 50 45
23 49 44
23 50 45
22 49 44
23 50 45
23 50 45
23 51 46
22 49 44
23 50 45
23 50 45
23 50 45
22 49 44
23 50 45
23 51 46
23 50 45
23 50 45
23 50 45
23 51 46
23 51 46
23 51 46
22 49 44
23 51 46
23 50 45
23 50 45
22 49 44
23 50 45
23 50 45
23 50 45
23 50 45
23 50 46
23 50 45
23 50 45
23 49 45
22 48 44
23 50 45
23 50 45
23 51 46
22 49 44
22 48 43
22 49 44
22 49 45
22 48 44
22 48 43
22 48 44
22 48 44
21 47 43
22 48 43
21 47 43
22 48 43
21 46 42
22 47 43
22 47 43
22 49 44
22 49 45
22 47 43
22 49 45
22 48 44
22 49 44
21 46 42
22 48 44
22 47 43
22 47 43
21 46 42
22 49 44
21 47 42
21 47 42
22 49 45
22 49 44
22 47 43
22 49 44
22 48 44
22 49 44
22 48 44
22 49 44
22 49 44
22 48 43
22 49 44
22 49 44
22 48 44
22 49 44
22 48 43
23 50 45
22 49 44
22 49 44
22 49 45
22 48 43
23 49 45
22 49 44
23 49 45
22 48 44
22 49 44
22 49 45
22 48 43
22 49 44
22 48 43
22 48 43
22 48 44
22 48 43
23 51 46
23 50 46
22 48 44
23 50 45
22 48 43
23 50 45
22 48 44
22 49 44
23 49 44
22 49 44
22 47 43
23 50 45
23 50 45
23 49 44
22 48 44
23 50 45
22 48 44
22 48 44
23 50 45
23 50 45
23 50 45
22 48 44
23 49 44
22 49 45
22 48 44
23 49 44
22 48 44
23 50 45
22 49 44
22 49 44
22 49 44
23 50 45
22 49 44
22 49 44
22 49 44
22 49 44
23 50 45
23 50 45
22 49 44
23 51 46
23 50 45
22 47 43
22 48 43
22 49 44
23 49 44
23 50 45
22 49 44
23 50 46
22 48 43
23 50 45
22 48 44
22 49 44
23 50 45
23 50 46
23 49 44
23 50 45
23 50 45
22 49 44
23 50 46
22 49 44
24 52 47
23 50 45
24 52 47
22 49 44
22 49 44
23 50 45
23 49 45
22 48 44
23 49 44
23 50 45
23 50 45
23 49 44
24 51 46
23 49 45
23 50 45
23 51 46
23 50 45
23 51 46
22 49 44
23 51 46
23 51 46
23 50 45
22 49 44
23 51 46
23 50 45
23 50 45
23 50 45
23 51 46
23 51 46
23 51 46
23 49 44
23 51 46
23 50 45
23 50 45
23 50 45
23 50 45
23 50 45
23 49 45
23 50 45
23 50 45
23 49 45
22 49 44
23 50 45
23 49 44
23 50 45
23 50 45
23 50 45
23 50 45
23 51 46
22 49 44
23 51 46
23 49 45
23 49 44
23 51 46
23 50 45
23 50 45
23 49 45
22 49 44
23 50 45
23 49 44
22 48 44
23 50 45
23 50 45
22 49 44
23 51 46
23 50 45
22 49 44
22 49 44
22 49 44
23 50 45
23 49 44
23 51 46
22 49 44
23 49 45
23 50 45
22 49 44
23 50 45
23 50 45
23 51 46
22 49 44
22 48 43
22 47 43
22 48 43
21 47 43
22 47 43
22 49 44
22 48 43
22 49 44
22 47 43
22 48 44
22 48 43
22 48 43
22 47 43
22 47 43
22 48 43
21 47 43
22 48 43
22 48 43
22 48 44
21 47 42
22 48 43
22 48 43
21 47 43
22 48 44
23 50 45
21 47 43
22 47 43
22 49 44
22 48 43
22 48 43
22 48 43
22 48 44
23 50 45
22 49 45
21 47 42
22 49 44
22 48 43
23 50 45
23 49 45
22 48 43
22 48 43
22 49 44
23 50 45
23 50 45
22 49 44
22 48 44
22 49 45
22 49 44
22 48 44
23 49 45
22 49 44
22 49 44
22 49 45
22 49 44
22 48 43
22 48 44
22 48 43
22 48 43
22 48 44
22 49 44
23 50 45
22 48 43
22 49 44
22 49 44
22 48 44
23 51 46
22 49 44
23 49 45
22 47 43
22 47 43
23 49 45
23 49 45
23 50 46
23 50 45
23 49 44
22 49 44
22 49 44
23 50 45
23 51 46
22 49 44
22 49 44
23 49 45
23 50 45
23 49 45
22 49 44
22 49 44
22 48 44
22 49 44
22 49 44
23 51 46
22 49 44
23 49 44
23 49 45
23 49 44
22 49 44
23 51 46
23 50 45
22 48 44
23 51 46
23 49 44
22 49 44
22 49 44
23 50 45
22 49 44
23 50 45
23 51 46
22 49 44
23 49 45
23 49 44
23 49 45
22 48 43
23 49 45
23 50 45
23 50 45
23 50 45
23 50 45
23 49 44
23 51 46
23 50 45
23 50 45
23 50 45
23 50 45
23 50 45
23 50 45
22 49 44
23 49 45
23 50 45
23 49 44
22 48 44
23 50 45
23 50 45
23 50 45
22 49 44
23 50 45
22 49 44
23 50 45
23 50 45
23 50 45
23 50 45
23 51 46
23 50 45
23 50 45
23 50 45
23 49 44
23 51 46
23 50 45
23 51 46
24 51 46
22 49 44
23 51 46
22 49 44
22 48 43
23 49 45
22 49 44
22 48 44
23 49 44
23 51 46
23 51 46
24 52 47
23 51 46
22 49 44
23 50 45
22 49 44
24 51 46
23 51 46
23 51 46
23 50 45
23 50 46
23 50 45
23 50 45
23 50 45
22 49 44
23 50 45
23 50 45
23 50 45
23 50 45
22 49 44
22 49 44
22 49 44
24 52 47
23 50 45
22 48 44
23 49 44
23 50 45
23 50 45
23 50 45
24 52 47
23 51 46
23 51 46
23 49 44
23 50 45
23 51 46
23 50 45
23 50 45
22 49 44
22 49 44
23 50 45
23 51 46
22 49 44
22 48 44
21 46 42
22 48 43
21 47 43
21 47 43
21 46 42
21 47 42
21 47 43
23 49 45
21 47 43
21 47 43
21 46 42
22 49 44
22 47 43
22 48 44
22 49 44
22 48 44
22 48 43
22 48 44
22 47 43
23 49 45
22 48 44
21 47 42
22 47 43
22 48 43
22 49 44
22 48 44
21 47 43
22 49 44
22 48 44
21 47 43
22 47 43
22 48 44
22 49 44
23 49 45
22 49 44
21 46 42
21 47 43
22 49 44
22 49 44
21 47 43
22 49 45
22 48 43
23 50 45
22 48 44
22 48 44
22 48 44
22 48 44
22 48 44
22 49 44
22 48 43
22 48 43
22 49 45
22 49 45
22 48 44
22 48 43
23 50 45
23 49 45
23 50 45
23 50 46
22 49 44
22 48 44
23 49 45
22 49 44
22 49 44
23 50 45
23 50 45
23 49 44
22 48 44
23 49 45
22 48 43
22 49 44
21 47 42
22 49 44
22 48 43
22 47 43
23 49 44
22 49 44
22 49 44
22 48 44
22 48 43
23 49 45
23 50 45
22 49 44
23 50 45
23 50 45
23 50 45
23 49 45
23 50 45
22 49 44
23 50 45
22 49 44
23 50 45
22 48 44
22 49 44
23 49 44
22 49 44
22 49 44
23 50 45
23 49 44
22 48 44
23 50 45
24 52 47
22 49 44
23 50 45
23 50 45
23 49 45
23 50 45
22 49 44
22 48 43
23 50 45
23 50 45
23 50 45
23 49 44
22 49 44
23 50 45
22 49 44
23 50 45
23 49 45
23 50 45
23 50 45
23 49 44
22 49 44
23 51 46
23 50 45
22 48 44
23 50 45
23 51 46
23 50 45
23 49 44
23 50 45
23 50 45
22 49 44
22 49 44
22 48 43
23 51 46
23 49 44
23 50 45
23 49 45
23 49 44
23 51 46
23 50 45
23 51 46
24 51 46
23 50 45
23 51 46
23 49 45
22 49 44
22 49 44
22 49 44
22 49 44
23 49 45
23 49 44
23 49 45
22 49 44
23 50 45
23 50 45
23 51 46
23 50 45
23 50 45
23 50 45
22 49 44
23 49 44
23 51 46
23 51 46
23 50 45
24 52 47
23 49 44
23 50 45
23 49 44
23 49 45
23 50 45
23 50 45
23 50 45
23 50 46
23 49 44
23 50 45
22 49 44
23 51 46
23 51 46
22 49 44
24 51 46
23 50 45
23 50 45
23 49 45
23 49 44
23 51 46
23 50 46
24 52 47
22 49 44
22 49 44
23 51 46
23 51 46
22 49 44
23 51 46
23 50 45
23 50 45
22 48 43
23 50 45
23 49 44
22 49 44
22 48 44
22 47 43
22 47 43
22 49 44
21 47 42
22 48 44
22 48 43
22 48 43
22 48 44
21 46 42
22 49 45
23 50 45
22 49 44
22 47 43
22 47 43
22 48 43
22 48 44
22 48 44
22 48 43
22 48 43
21 47 42
22 48 43
22 48 44
22 49 44
22 48 43
22 49 44
22 48 43
22 48 43
22 49 44
22 48 43
22 48 43
22 48 43
22 49 44
23 49 45
23 50 45
22 48 44
22 47 43
22 49 44
22 48 44
22 48 43
22 49 44
22 48 44
23 50 45
22 48 44
23 50 45
23 50 45
23 49 45
23 51 46
22 49 44
22 49 44
22 49 44
22 48 44
22 49 44
23 49 45
21 47 43
22 49 44
22 48 44
22 49 44
23 50 45
23 50 45
22 49 44
22 48 44
23 50 45
22 48 44
22 48 44
22 48 44
22 49 44
22 49 44
22 49 44
22 48 43
23 50 45
22 47 43
22 48 44
22 49 44
22 48 44
22 49 44
23 49 45
22 49 44
22 49 44
23 50 45
22 49 44
23 49 45
23 49 44
22 49 44
22 48 44
21 47 43
23 50 45
23 51 46
23 49 45
23 50 45
23 50 45
23 50 45
23 50 45
22 48 44
23 50 45
23 50 45
23 51 46
23 49 45
23 50 45
22 49 44
23 50 46
23 49 45
23 50 45
23 51 46
22 48 44
23 49 45
23 50 45
23 49 44
23 50 45
23 50 45
22 49 44
23 49 44
23 50 45
23 50 45
23 50 45
22 49 44
22 48 44
23 50 45
23 50 45
23 50 45
22 49 44
23 50 45
22 49 44
23 50 45
23 50 45
23 51 46
23 49 45
22 49 44
23 51 46
23 50 45
23 50 45
23 50 45
22 48 43
23 51 46
23 49 45
22 49 44
23 50 45
22 48 44
23 49 45
23 50 45
23 51 46
22 48 43
23 50 45
23 51 46
22 49 44
23 50 45
22 49 44
22 48 44
22 48 44
23 50 45
23 49 44
22 49 44
23 49 45
23 50 45
23 50 45
22 49 44
23 49 45
22 49 44
23 49 44
23 50 45
23 50 45
22 49 44
22 49 44
23 50 45
23 50 45
22 49 44
23 50 45
23 50 45
23 50 45
23 50 45
23 50 45
22 49 44
24 52 47
23 49 44
23 49 44
22 49 44
23 50 45
23 50 45
23 51 46
23 51 46
23 51 46
23 50 46
23 50 45
22 49 44
23 50 45
23 50 45
23 50 45
23 49 44
22 48 43
23 49 44
23 50 45
23 50 45
23 51 46
23 49 45
23 50 45
23 50 45
23 50 46
23 50 45
23 50 45
23 50 45
21 46 42
21 47 43
22 48 44
21 47 43
22 49 45
22 49 45
22 47 43
21 47 42
21 46 42
21 47 43
21 47 43
22 47 43
22 48 43
21 47 43
22 48 43
22 48 44
22 48 43
22 47 43
22 48 44
22 47 43
22 48 43
21 46 42
21 46 42
21 47 43
22 47 43
21 46 42
21 47 43
22 48 43
22 48 43
22 48 44
22 48 44
22 48 43
23 51 46
22 49 44
22 48 44
22 48 43
22 48 44
22 48 43
21 47 42
22 48 43
22 48 44
21 46 42
22 48 44
22 48 43
22 49 44
22 49 44
22 49 44
22 47 43
22 48 43
22 48 43
23 50 45
22 48 44
22 49 44
22 48 44
23 50 45
22 49 44
22 48 44
22 48 43
22 47 43
22 48 43
22 48 44
22 49 44
22 49 44
22 48 43
22 49 44
22 49 44
23 49 45
22 48 43
22 49 44
23 50 45
22 49 44
21 47 43
22 48 44
23 50 45
22 49 44
23 49 45
23 50 45
22 49 44
22 49 44
22 49 44
23 50 45
22 49 44
22 49 44
23 49 45
23 50 45
22 49 44
23 50 45
22 49 44
23 50 45
23 51 46
22 49 44
23 50 45
23 50 45
23 51 46
22 49 44
22 48 44
23 50 45
23 50 45
22 49 44
22 49 44
23 49 45
22 49 44
22 49 44
22 49 44
22 49 44
23 51 46
22 49 44
22 48 44
23 49 44
22 49 44
23 50 45
23 50 45
23 50 45
23 50 45
22 49 44
23 49 45
23 51 46
23 51 46
23 49 45
23 51 46
23 50 45
23 49 44
23 50 45
23 51 46
23 50 45
23 49 44
23 50 45
22 49 44
23 50 45
23 49 44
23 49 45
22 49 44
22 49 44
23 50 45
23 50 45
23 49 45
23 49 45
24 52 46
23 50 45
23 49 44
23 51 46
23 49 45
23 50 45
22 49 44
23 49 44
23 49 45
23 50 46
23 51 46
23 49 45
23 51 46
23 51 46
23 51 46
23 51 46
23 50 45
23 49 45
22 49 44
23 50 45
23 49 44
23 50 45
23 50 45
23 51 46
23 50 45
23 49 44
23 51 46
23 51 46
23 49 45
23 51 46
23 49 44
22 49 44
24 52 47
23 50 45
23 50 45
24 51 46
23 51 46
23 49 44
22 49 44
23 49 45
23 50 45
23 50 45
22 49 44
22 49 44
23 49 45
24 52 47
23 49 44
23 49 44
22 49 44
23 51 46
23 50 45
22 49 44
22 49 44
23 50 45
22 48 43
22 49 44
23 50 45
23 51 46
23 51 46
23 50 45
22 49 44
22 48 44
23 50 45
22 48 44
22 49 44
22 48 43
22 48 43
22 48 43
22 48 44
21 47 43
22 47 43
22 47 43
22 48 44
23 50 46
22 48 44
22 48 44
22 48 43
21 46 42
22 48 43
22 47 43
22 47 43
22 47 43
21 47 42
22 48 44
22 49 44
22 48 43
23 50 46
22 48 44
22 49 44
21 46 42
22 49 44
22 49 45
21 46 42
21 47 43
22 48 43
23 49 45
22 48 44
22 48 44
22 48 43
21 47 42
22 48 43
22 49 44
22 49 44
22 48 43
22 49 44
22 48 44
22 48 44
23 50 45
22 48 43
22 48 44
22 49 44
22 48 44
22 47 43
22 49 44
22 47 43
23 49 45
23 50 45
22 48 44
22 48 44
22 48 43
23 49 45
23 50 45
22 48 44
23 50 45
22 49 44
22 48 43
22 48 43
24 52 47
22 49 44
22 49 45
22 48 44
23 50 45
22 49 44
22 49 44
23 50 46
22 48 44
23 50 45
23 50 45
22 48 44
22 48 44
22 49 44
22 48 43
23 50 45
22 49 44
22 49 44
23 50 45
23 50 45
23 50 45
22 48 44
23 51 46
23 50 45
23 50 45
22 48 43
23 50 45
22 49 44
23 50 45
23 49 45
22 49 44
22 48 44
23 50 45
23 49 45
22 49 44
23 50 45
23 50 45
22 49 44
23 50 45
23 51 46
24 51 46
23 51 46
23 49 45
23 51 46
23 50 45
22 49 44
22 49 44
23 50 45
23 50 45
23 50 45
23 50 45
24 52 47
22 48 44
23 50 45
22 48 44
23 49 45
22 49 44
22 48 44
23 50 45
23 50 45
23 49 44
23 50 45
23 49 45
22 49 44
24 52 47
23 50 45
23 50 45
23 51 46
22 49 44
23 50 45
23 51 46
23 50 45
23 51 46
22 48 43
23 50 45
23 50 45
23 50 45
23 49 44
23 50 45
22 49 44
23 50 45
23 49 45
23 51 46
23 51 46
23 50 45
23 49 45
23 49 44
23 50 45
23 50 45
22 49 44
23 49 45
23 50 45
22 49 44
23 49 45
23 51 46
23 49 45
22 49 44
23 50 45
22 49 44
23 50 45
23 50 45
23 49 44
22 49 44
23 50 45
23 50 45
23 49 45
23 49 45
23 50 45
22 48 43
23 49 44
23 51 46
24 52 47
23 50 45
23 50 45
23 49 44
22 49 44
23 49 45
23 49 44
23 50 45
23 50 45
23 50 45
23 50 45
23 49 44
23 50 45
23 50 45
23 50 45
22 49 44
23 50 45
22 48 43
22 49 44
23 49 45
23 50 45
22 49 44
22 48 44
23 50 45
22 49 44
22 48 44
22 48 43
21 47 42
21 46 42
22 48 43
21 47 43
21 47 42
22 48 44
21 47 43
21 47 43
22 47 43
22 48 44
21 46 42
22 48 43
21 46 42
21 47 43
21 47 42
21 47 43
23 50 45
22 48 43
23 50 45
22 48 44
22 48 43
22 49 44
22 48 44
22 47 43
22 48 44
21 47 42
21 47 43
22 48 43
22 49 44
21 47 42
22 49 44
22 47 43
23 50 45
23 50 46
23 50 45
22 48 44
22 49 45
22 47 43
22 47 43
22 48 43
22 48 44
22 48 44
22 48 44
22 49 44
21 47 43
22 49 44
23 50 45
21 46 42
22 49 44
22 48 44
22 48 44
22 49 44
23 50 45
22 49 44
23 50 45
23 50 45
22 48 43
22 49 44
22 49 44
22 49 44
22 48 44
23 49 45
22 48 44
22 49 44
23 49 45
22 47 43
22 47 43
23 50 45
22 49 44
22 48 44
22 48 43
22 48 43
22 49 44
22 48 44
22 49 44
22 49 44
22 49 44
23 51 46
22 49 44
22 49 44
22 49 44
22 48 44
23 50 45
22 49 44
23 50 45
22 49 44
23 51 46
22 49 44
23 51 46
22 49 44
23 50 45
23 50 46
23 50 45
22 49 44
22 49 44
23 50 45
22 49 44
23 49 45
22 49 45
23 49 44
22 49 44
23 49 44
23 49 44
23 50 45
23 51 46
22 49 44
24 52 47
23 50 45
22 49 44
23 51 46
23 49 45
23 50 45
22 49 44
22 49 44
22 48 44
23 49 45
22 49 44
23 50 45
23 50 45
23 51 46
23 50 45
23 50 45
23 49 44
23 49 44
22 49 44
23 50 45
22 49 44
23 49 44
23 50 45
23 51 46
22 48 44
22 49 44
23 50 45
22 49 44
23 51 46
23 49 44
23 50 45
23 51 46
23 49 45
23 50 45
22 49 44
24 52 47
23 50 45
23 50 45
23 51 46
23 49 44
23 51 46
23 49 44
24 51 46
23 50 45
23 50 45
23 50 45
23 51 46
23 50 45
23 49 44
23 50 45
22 49 44
23 49 44
23 51 46
23 50 45
23 50 45
22 48 44
22 48 43
23 49 45
23 51 46
23 50 45
22 49 44
23 49 45
23 50 45
23 51 46
23 50 45
22 49 44
23 50 45
23 50 45
23 51 46
23 51 46
22 49 44
23 51 46
23 50 45
23 50 45
23 50 45
22 49 44
23 49 45
22 48 44
23 49 45
22 49 44
23 50 45
22 49 44
22 48 44
23 51 46
23 51 46
22 49 44
22 49 44
22 48 44
22 48 44
23 49 44
23 49 45
22 48 44
22 47 43
21 46 42
22 48 43
21 47 42
21 46 42
22 47 43
22 47 43
21 47 43
21 47 43
22 49 44
22 49 45
22 48 43
21 47 43
21 47 43
22 48 43
22 48 44
21 46 42
22 48 43
22 49 44
22 48 43
22 47 43
22 49 44
22 47 43
23 50 45
22 48 44
22 48 44
22 48 43
22 48 43
22 47 43
22 47 43
21 46 42
22 48 44
23 50 45
21 47 43
22 49 44
22 48 43
23 50 45
22 48 44
22 47 43
22 48 44
22 48 43
21 46 42
22 48 43
22 48 44
22 48 43
21 47 43
22 48 43
22 48 44
23 49 45
23 50 45
22 47 43
22 49 44
22 48 43
22 49 44
22 49 44
22 49 44
23 49 45
22 48 43
22 47 43
22 48 44
22 48 43
22 49 44
23 50 46
22 48 44
22 48 44
22 49 44
22 48 43
22 49 44
22 49 44
22 49 45
22 48 44
23 49 44
22 49 44
22 49 44
22 48 43
22 49 44
23 51 46
22 48 44
23 49 45
22 49 44
23 50 45
22 49 44
22 49 44
23 50 45
23 50 45
22 49 44
22 49 44
22 49 44
22 49 44
22 49 44
22 49 44
23 50 45
23 49 45
23 49 44
23 50 45
22 49 44
23 50 45
23 50 45
22 48 44
23 50 46
23 50 45
23 50 45
22 49 44
22 49 44
22 49 44
22 48 44
23 49 44
22 48 44
22 49 44
23 50 45
23 50 45
23 50 45
23 49 45
22 49 44
23 50 45
23 50 45
23 50 45
23 50 45
22 48 43
22 49 44
23 50 45
22 49 44
23 49 45
23 49 44
23 51 46
23 50 45
23 51 46
23 50 45
23 50 45
23 50 45
23 50 45
23 51 46
23 49 45
23 50 45
22 48 44
23 50 45
23 49 44
23 51 46
23 49 44
22 49 44
23 50 45
23 49 44
23 50 45
23 50 45
22 49 44
23 49 44
23 50 45
23 50 45
23 51 46
23 50 45
23 50 45
22 49 44
23 51 46
23 51 46
23 49 44
22 48 44
23 50 46
23 51 46
23 50 45
23 49 44
23 50 45
23 50 45
23 50 45
22 49 44
23 50 45
23 50 45
23 49 45
23 51 46
23 50 45
23 51 46
23 51 46
23 50 45
23 50 45
23 51 46
23 50 45
22 48 44
23 49 45
23 50 45
23 51 46
23 50 45
22 48 43
23 50 45
23 49 45
23 50 45
22 49 44
23 49 44
23 50 45
23 50 45
23 49 45
23 50 45
23 51 46
22 49 44
23 49 44
23 50 45
23 51 46
23 50 45
23 49 44
23 50 45
22 48 43
23 50 45
22 47 43
21 46 42
22 48 43
22 48 43
21 47 42
22 47 43
21 47 43
21 47 43
22 49 44
22 47 43
22 48 44
21 47 43
22 48 44
23 50 45
21 47 42
22 48 43
22 49 44
22 48 44
22 48 43
22 47 43
22 48 44
22 48 43
21 47 42
22 48 44
22 49 44
22 47 43
22 48 43
22 49 45
22 49 44
22 48 44
22 48 44
21 47 43
22 48 44
22 48 43
22 47 43
22 48 44
22 48 44
22 49 44
22 49 45
22 48 43
22 48 44
22 48 43
23 50 45
22 49 44
22 48 44
22 48 43
22 48 43
22 48 44
23 50 45
22 48 44
22 48 43
23 49 45
22 48 44
22 48 43
22 48 43
22 49 44
23 50 46
23 51 46
23 50 45
22 49 44
22 48 43
22 48 43
22 47 43
22 49 44
23 50 45
22 47 43
22 49 44
22 49 44
22 48 44
23 50 45
23 50 45
23 50 45
23 49 45
23 49 45
23 49 45
23 50 45
22 49 44
23 49 45
22 49 44
22 49 45
23 49 45
23 50 45
22 48 43
22 49 44
23 49 45
22 49 44
22 49 44
22 49 44
23 50 45
22 49 44
22 49 44
24 51 46
23 50 45
22 48 43
22 48 44
23 51 46
22 49 44
22 48 43
23 50 45
23 50 45
22 48 44
23 49 45
22 49 44
22 48 44
23 51 46
22 49 44
23 49 45
23 50 45
22 49 44
23 50 45
23 49 44
22 49 44
23 50 45
23 50 45
22 49 44
23 49 45
23 51 46
23 50 45
23 50 45
22 49 44
22 48 44
23 50 46
22 48 43
23 50 45
23 50 45
22 49 44
23 50 45
23 50 45
22 48 44
23 50 45
23 50 45
22 49 44
23 51 46
23 50 45
23 49 45
23 51 45
23 50 45
23 49 45
23 51 46
23 50 45
23 50 45
23 50 45
22 48 44
22 49 44
23 50 45
24 52 47
23 50 45
23 50 45
23 51 46
23 50 45
23 50 45
23 51 46
24 52 47
23 49 45
22 49 44
23 50 45
23 50 45
23 50 45
23 51 46
22 49 44
23 49 45
23 50 45
23 49 44
24 52 46
22 48 43
23 50 45
22 49 44
23 50 46
22 49 44
23 49 45
23 51 46
23 50 45
23 49 45
23 49 44
22 48 44
22 48 43
22 49 44
24 52 47
23 50 45
23 49 44
23 50 45
22 49 44
22 49 44
22 49 44
23 50 46
22 49 44
23 50 45
23 50 45
22 49 44
23 50 45
23 50 45
23 50 46
23 49 44
22 48 44
23 49 44
22 48 44
23 51 46
23 50 45
23 50 45
23 50 45
22 48 44
21 46 42
21 46 42
21 47 43
21 47 42
21 47 43
21 47 43
22 48 43
22 47 43
21 45 41
22 48 43
22 47 43
22 48 44
22 49 44
22 47 43
22 48 43
21 47 42
22 48 44
22 49 44
22 47 43
22 48 43
21 46 42
21 47 43
22 49 44
22 49 44
22 49 45
21 47 43
22 48 44
22 48 44
22 48 43
23 50 45
22 49 45
22 48 44
22 49 44
23 50 45
22 48 43
22 47 43
22 48 44
23 50 45
22 48 44
22 49 44
22 48 44
22 48 43
22 48 44
23 50 45
22 48 44
22 48 43
21 47 43
22 48 44
22 48 43
22 48 43
22 48 44
22 47 43
23 49 45
22 48 44
22 49 44
22 48 44
22 49 44
22 49 44
23 49 45
22 49 45
22 49 44
22 49 44
22 49 44
22 48 43
22 48 44
23 50 45
22 49 44
22 48 43
22 48 44
23 51 46
22 49 45
22 49 44
22 48 44
22 48 44
22 49 44
23 49 45
22 48 44
22 49 44
23 50 45
22 48 44
22 49 44
23 50 45
23 50 46
23 50 45
23 50 45
23 50 45
23 50 45
22 48 44
23 50 46
22 49 44
22 49 44
23 50 45
24 52 47
24 52 47
23 50 45
22 48 44
23 49 45
23 51 46
23 49 45
22 49 44
23 50 45
22 49 44
23 49 45
22 49 44
23 50 45
23 49 45
23 50 45
23 50 45
23 50 45
22 49 44
22 47 43
23 50 45
23 49 45
23 49 44
22 48 44
23 50 46
22 49 45
22 49 44
23 50 45
23 49 44
23 50 46
23 49 44
23 50 45
22 49 44
23 50 46
22 49 44
23 49 45
23 50 45
23 50 45
23 50 45
23 49 44
23 50 45
23 49 45
23 49 45
23 51 46
23 51 46
22 49 44
23 50 45
23 50 45
23 50 45
23 50 45
23 49 44
22 48 43
23 50 45
23 50 45
23 50 46
23 50 45
22 49 44
22 49 44
23 51 46
22 49 44
23 50 45
23 51 46
23 51 46
23 51 46
24 52 47
23 49 45
23 51 46
23 50 45
23 50 45
23 51 46
23 50 45
23 50 45
22 48 43
23 51 46
23 50 45
23 50 45
22 49 44
24 52 46
23 49 44
23 49 44
23 51 46
23 50 45
23 50 45
23 49 44
22 48 43
23 50 45
23 50 45
23 51 46
23 49 44
23 49 45
22 48 44
23 50 45
22 49 44
23 50 45
22 49 44
22 49 44
23 50 45
23 50 45
23 49 45
23 50 45
23 49 45
23 50 45
23 51 46
23 50 46
23 50 45
22 49 44
23 50 45
22 48 44
22 47 43
22 48 44
22 47 43
22 48 44
21 46 42
21 47 43
22 48 43
22 49 44
21 47 43
22 48 43
21 46 42
22 48 44
22 47 43
22 48 43
21 47 42
22 47 43
22 49 45
22 47 43
22 48 43
22 48 43
22 49 44
22 48 44
21 47 42
22 48 43
22 48 43
22 47 43
22 48 44
21 47 42
22 48 43
22 48 43
22 48 43
22 48 43
22 49 45
22 48 44
22 48 43
22 48 43
21 47 42
23 50 45
22 48 44
21 47 42
22 48 44
22 48 43
22 48 44
22 49 44
22 48 43
22 48 44
22 49 44
22 49 44
22 49 44
22 49 44
23 49 45
22 48 44
22 49 44
22 49 44
22 48 43
22 49 44
22 48 43
23 50 45
22 48 44
22 48 43
22 48 44
22 47 43
23 50 45
22 48 43
21 47 43
23 50 46
22 47 43
22 49 44
22 49 44
22 49 44
22 49 44
22 49 44
22 49 44
22 49 44
22 49 44
23 49 45
23 49 45
22 47 43
23 50 45
23 50 45
22 48 44
22 49 44
23 51 46
23 50 45
23 50 45
22 49 44
22 49 44
23 50 46
23 50 45
22 48 44
23 51 46
22 49 44
22 49 44
23 50 45
22 48 44
22 48 44
22 49 44
22 49 44
23 49 45
23 49 44
22 49 44
22 49 44
22 48 44
23 50 45
23 51 46
22 49 44
22 49 44
23 50 45
22 49 44
23 50 45
23 50 45
23 50 46
23 50 45
22 48 44
23 49 44
23 50 45
23 49 45
23 50 45
22 48 43
22 49 44
23 50 45
22 49 45
23 50 45
22 49 44
23 50 45
23 51 46
22 49 44
23 50 46
23 49 45
22 49 44
23 50 45
23 50 45
22 49 44
23 50 45
22 49 44
23 50 45
23 50 45
22 48 43
23 50 45
23 50 45
22 49 44
23 50 45
23 50 45
22 49 44
23 50 45
23 49 45
22 48 43
22 49 44
23 51 46
23 51 46
23 49 44
23 50 45
23 50 45
23 50 45
23 49 44
23 49 45
22 49 44
23 51 46
23 50 45
22 49 44
22 49 44
22 49 44
23 50 45
23 49 45
23 50 45
23 50 46
24 51 46
22 48 43
23 49 44
23 50 45
23 49 45
23 50 45
24 52 47
23 50 45
23 50 45
23 51 46
23 50 45
23 50 45
23 50 45
22 49 44
22 49 44
22 49 44
22 49 44
23 50 45
22 48 43
23 50 45
23 50 45
23 50 45
22 49 44
23 50 45
24 52 46
23 51 46
23 50 45
22 49 44
22 49 44
23 49 45
23 50 45
23 50 46
23 50 45
23 50 45
21 45 41
22 49 44
22 48 43
22 49 44
21 47 42
22 47 43
22 48 44
21 47 43
22 48 44
21 47 43
21 46 42
22 48 44
22 48 43
22 48 43
22 47 43
22 49 45
22 47 43
22 48 43
22 48 44
22 48 44
21 47 42
21 47 43
22 49 44
21 47 42
22 47 43
21 46 42
22 47 43
21 47 42
22 48 43
22 48 43
22 48 44
22 49 45
22 47 43
22 48 43
22 49 45
23 49 45
22 49 45
22 48 44
21 47 43
22 48 44
22 48 44
22 48 43
22 49 44
22 49 44
22 49 45
22 47 43
21 47 43
22 49 44
22 48 43
22 49 44
22 48 44
22 47 43
22 49 44
22 49 44
23 50 46
22 49 44
23 49 45
22 48 44
22 47 43
22 48 44
23 50 45
23 50 46
22 49 45
22 48 44
22 49 44
22 48 43
23 49 45
22 49 44
22 49 44
23 50 45
22 49 44
22 49 44
22 49 44
22 49 44
23 50 45
23 50 45
22 49 44
22 49 44
22 49 44
23 51 46
22 48 44
23 51 46
23 50 45
22 49 44
22 49 44
22 49 44
22 48 44
22 47 43
22 49 44
22 49 44
22 48 44
23 50 45
22 49 44
23 50 45
23 49 45
22 49 44
23 50 45
23 50 45
22 48 43
23 50 45
23 50 45
23 50 45
22 49 44
22 48 44
23 50 45
23 51 46
22 49 44
22 48 44
23 50 45
22 49 44
22 48 44
23 50 45
23 50 45
23 50 46
22 48 43
23 50 45
23 51 46
23 50 45
23 50 45
23 50 45
22 48 43
22 49 44
22 49 44
23 49 44
22 49 44
22 49 44
23 51 46
22 49 44
23 51 46
23 51 46
23 50 45
22 49 44
22 48 43
23 49 45
23 49 44
22 48 44
22 49 44
23 49 45
23 50 45
22 48 43
22 49 44
23 50 45
22 49 44
23 50 45
23 51 46
22 48 44
23 49 45
22 49 44
23 50 45
23 51 46
23 50 45
23 50 45
23 50 45
23 50 45
23 50 45
23 50 45
23 49 44
23 49 45
21 47 43
23 50 45
23 50 45
23 49 44
23 49 45
23 50 45
23 50 45
23 50 45
23 51 46
23 51 46
23 49 45
23 49 44
23 50 45
23 50 45
22 48 43
23 51 46
23 49 45
23 50 45
23 50 45
22 49 44
23 51 46
22 49 44
23 50 45
23 51 46
22 49 44
22 48 44
23 51 46
23 50 45
23 51 46
22 49 44
22 49 44
22 49 44
23 50 45
23 50 45
22 48 44
22 49 44
22 49 44
23 50 45
22 49 44
23 49 45
23 50 45
22 48 44
22 47 43
22 47 43
22 47 43
22 49 44
22 49 44
22 49 44
22 48 44
22 47 43
21 47 42
22 49 44
22 48 43
21 47 43
22 48 44
22 48 43
21 47 43
23 50 45
22 48 44
22 48 44
22 49 44
22 47 43
22 48 44
22 48 43
22 49 44
22 49 45
22 48 44
22 48 43
22 47 43
22 48 43
22 48 44
22 48 43
22 48 44
21 47 42
22 49 44
22 47 43
22 47 43
22 49 44
22 49 44
22 48 43
22 49 44
22 49 44
22 48 43
22 49 44
21 46 42
22 48 44
22 48 43
22 48 43
22 48 44
22 48 43
22 48 43
22 48 43
22 47 43
21 47 43
22 47 43
22 49 45
22 48 44
22 48 44
22 49 44
22 48 44
22 49 44
22 48 43
22 49 44
23 49 45
22 48 44
22 49 44
22 48 44
23 49 45
23 51 46
22 49 45
22 49 45
22 48 43
22 48 44
22 47 43
22 49 44
23 49 45
23 49 44
22 49 44
23 50 45
22 49 44
23 50 45
22 49 44
22 49 44
23 50 45
22 49 44
22 49 44
22 49 44
23 50 45
23 50 45
22 48 43
22 49 44
22 48 43
22 49 44
23 50 45
23 50 46
22 48 43
23 49 44
22 49 44
23 50 45
23 49 45
22 48 43
23 51 46
22 48 43
22 48 43
22 49 44
23 49 45
23 49 45
23 50 45
23 50 45
22 48 44
23 51 46
22 49 44
23 50 45
23 49 45
22 48 43
22 49 44
23 51 46
23 50 45
23 51 46
22 49 44
23 50 45
22 49 44
23 50 45
23 51 46
22 49 44
23 50 45
23 50 45
22 48 43
22 49 44
22 49 44
23 51 46
23 50 45
23 49 44
23 50 45
24 52 47
23 49 44
23 49 45
22 49 44
22 48 44
23 51 46
23 51 46
24 52 47
23 50 45
23 51 46
23 49 44
23 50 45
23 49 45
23 49 45
22 48 44
23 50 45
23 50 45
23 51 46
22 49 44
22 49 44
23 49 44
23 49 44
22 49 44
22 49 44
23 50 45
23 50 46
23 50 45
23 50 45
22 48 43
23 49 44
22 49 44
23 50 45
23 49 44
22 49 44
23 50 45
23 51 46
23 51 46
22 48 44
23 50 45
23 50 45
23 50 45
23 50 45
22 49 44
24 52 47
22 49 44
23 50 45
23 50 45
23 49 45
23 50 45
23 50 45
23 49 45
23 50 45
23 50 46
22 48 43
23 51 46
22 49 44
23 50 45
24 52 47
23 49 45
23 50 45
23 50 45
22 49 44
22 49 44
23 49 44
23 50 45
23 50 45
22 48 43
22 49 44
21 46 42
22 47 43
21 47 42
22 47 43
22 48 44
22 48 43
21 47 43
21 47 43
21 46 42
22 49 45
22 49 45
22 48 44
22 48 44
22 47 43
21 47 43
21 46 42
22 49 45
22 48 43
22 47 43
22 48 43
21 47 43
21 47 43
22 49 45
22 48 44
21 47 43
22 49 44
22 49 44
21 47 43
21 47 43
22 49 44
22 48 44
22 47 43
22 48 44
22 49 44
22 48 44
23 50 45
22 48 44
22 48 43
22 49 44
23 50 45
22 48 43
22 49 44
22 49 44
22 49 44
22 48 43
22 48 44
22 49 44
22 49 44
22 48 44
22 48 43
23 50 45
23 49 45
22 48 43
22 48 43
22 48 44
22 48 43
22 48 44
21 46 42
21 47 42
22 49 44
23 50 46
22 49 45
23 49 45
23 50 45
23 49 45
23 51 46
22 49 44
22 48 43
23 49 45
22 48 44
22 49 44
22 49 45
23 50 45
22 48 44
22 48 43
23 49 45
23 50 45
23 50 45
22 48 44
23 51 46
22 49 44
22 48 43
22 49 44
22 47 43
21 47 43
23 49 45
24 51 46
22 48 44
23 50 45
23 51 46
22 49 44
22 49 44
22 49 44
22 48 44
23 50 45
23 49 45
22 49 44
22 49 44
23 50 45
23 50 45
23 49 45
22 49 44
23 49 45
22 48 44
23 50 45
22 49 44
23 50 45
22 49 44
22 49 44
23 50 45
22 48 43
23 50 46
23 50 45
23 49 45
24 52 47
22 49 44
22 49 44
23 50 45
23 50 45
23 50 45
22 48 44
22 49 44
23 51 46
22 48 44
23 50 45
23 50 45
23 50 45
23 51 46
23 51 46
23 49 44
22 48 43
24 51 46
22 49 44
23 51 46
23 50 45
22 49 44
23 49 45
23 50 45
23 49 44
23 50 45
23 49 45
23 51 46
23 49 45
22 49 44
23 49 44
22 49 44
22 48 43
24 51 46
23 49 44
22 48 44
22 48 43
22 48 43
22 49 44
24 51 46
24 52 47
23 50 46
23 49 44
22 49 44
23 49 44
22 49 44
23 50 45
22 49 44
23 51 46
23 49 45
23 50 45
22 49 44
23 49 45
23 51 46
22 48 43
23 51 46
23 49 44
22 49 44
22 49 44
23 50 45
23 50 45
22 48 43
23 50 45
23 50 45
22 49 44
23 50 45
23 50 45
23 49 44
23 50 46
22 49 44
22 49 44
24 52 47
23 50 45
22 49 44
23 49 45
23 51 46
23 50 45
23 49 45
23 49 45
24 52 47
23 49 44
23 50 46
23 51 46
22 48 43
22 48 43
23 50 45
21 47 42
21 47 43
22 48 43
21 47 43
22 48 44
22 49 44
21 47 43
22 49 44
21 47 42
22 48 44
22 48 44
21 47 42
21 47 42
22 48 44
22 48 44
22 47 43
22 49 44
22 48 43
22 48 43
21 47 43
22 49 44
22 47 43
21 47 42
22 48 43
22 48 43
22 47 43
22 48 44
22 49 44
21 47 42
22 48 43
22 47 43
22 48 44
22 48 43
22 48 43
22 48 43
22 48 44
23 49 45
22 48 44
22 48 43
22 48 44
22 49 44
22 48 43
22 49 44
22 49 44
22 48 44
22 48 43
22 48 44
22 48 43
22 49 44
22 49 44
22 49 44
22 48 43
22 48 43
22 48 43
22 48 43
22 48 44
22 48 43
23 50 45
22 49 44
22 49 44
22 49 44
22 48 44
22 48 44
22 48 43
23 50 45
22 49 44
23 49 45
22 49 44
22 48 43
22 49 44
22 49 44
22 48 43
23 49 45
22 49 44
22 49 44
22 48 43
22 49 44
22 48 44
22 48 44
23 49 45
22 49 44
22 48 44
23 50 45
23 49 44
22 48 44
22 48 44
23 50 45
22 47 43
22 47 43
23 49 44
23 50 45
22 49 44
23 51 46
23 49 45
22 48 43
22 49 44
22 49 44
22 49 44
23 51 46
22 49 44
22 48 44
24 51 46
23 50 45
22 49 44
23 49 45
23 51 46
23 50 45
23 49 45
22 48 44
23 49 45
22 49 44
23 49 45
22 47 43
23 50 45
22 49 44
22 49 44
22 49 44
23 49 45
23 49 45
22 47 43
23 50 45
22 48 43
22 48 44
22 48 43
23 50 45
23 50 45
22 49 44
22 48 44
23 50 45
23 50 45
23 49 45
22 49 44
22 48 44
23 51 46
23 51 46
23 49 45
23 50 45
22 48 44
22 48 43
23 50 45
23 50 45
23 50 45
23 49 45
23 50 45
22 49 44
23 50 45
22 49 44
22 49 44
22 49 44
23 50 45
22 48 44
22 49 44
22 49 44
23 50 45
23 50 45
22 48 43
22 48 44
23 51 46
23 50 45
23 51 46
23 50 45
22 49 44
23 50 45
23 50 45
23 49 44
22 48 44
22 49 44
23 49 45
23 50 45
23 49 44
22 48 44
22 48 44
22 49 44
22 48 43
22 49 44
23 51 46
23 50 45
23 51 46
23 50 45
23 51 46
23 49 44
22 49 44
23 49 45
23 49 45
22 49 44
22 47 43
23 50 45
23 50 45
23 50 45
22 49 44
22 48 43
22 48 43
22 49 44
23 49 45
23 50 46
23 50 45
23 49 44
23 50 45
23 51 46
23 51 46
22 47 43
22 47 43
22 47 43
22 49 44
21 46 42
21 47 43
22 48 44
22 48 43
22 49 44
21 47 42
22 48 43
22 49 44
21 47 43
22 47 43
22 47 43
21 47 43
22 48 43
22 48 43
22 48 44
22 48 44
21 47 43
21 46 42
21 47 43
22 48 43
22 48 44
22 47 43
22 48 43
22 49 44
22 49 44
22 49 44
22 48 44
21 47 43
22 49 45
22 48 43
22 47 43
21 47 42
22 48 44
22 49 44
22 48 44
22 48 44
23 50 45
21 47 42
22 48 44
21 47 42
23 50 45
22 48 44
22 48 44
22 48 43
21 47 42
22 49 44
22 48 43
22 48 44
22 49 44
21 47 42
22 48 44
22 49 44
22 48 43
22 49 44
22 47 43
23 50 45
22 49 44
23 50 45
22 48 43
23 49 45
23 49 45
21 47 43
22 48 43
22 49 44
22 48 44
22 49 44
23 50 46
23 50 45
22 49 44
22 49 44
23 49 44
22 47 43
22 48 44
23 49 45
22 48 44
23 49 45
22 48 44
23 50 45
22 48 44
23 49 45
23 50 46
23 50 45
23 50 46
23 50 45
22 49 44
23 49 45
22 49 44
22 49 44
22 48 44
22 49 44
22 48 43
22 49 45
23 50 45
22 49 44
22 48 43
22 48 43
22 48 43
22 48 43
23 51 46
22 49 44
23 50 45
23 50 45
22 48 44
22 49 44
23 49 44
22 49 44
23 50 45
22 48 43
23 49 45
23 50 45
23 50 45
22 48 43
22 48 44
23 50 45
22 48 43
23 50 45
22 49 44
23 50 45
22 49 44
23 49 45
23 50 45
22 49 44
22 49 44
23 51 46
23 50 45
22 49 44
23 49 44
22 49 44
22 49 44
22 49 44
22 49 44
22 49 44
23 49 45
23 50 45
23 49 44
22 49 44
23 50 45
22 49 44
23 51 46
23 49 45
22 49 44
23 51 46
23 49 45
23 50 45
23 50 45
23 50 45
23 51 46
22 49 44
22 48 43
23 50 45
23 50 45
23 50 46
23 50 45
23 50 45
23 49 44
22 48 44
24 51 46
22 47 43
23 49 45
23 49 44
22 48 44
23 51 46
24 52 47
22 49 44
23 51 46
23 51 46
23 50 45
23 50 45
23 50 45
23 49 44
23 51 46
23 50 45
23 50 45
22 49 44
23 51 46
23 50 45
23 50 45
22 49 44
23 49 45
23 49 45
23 51 46
23 50 45
23 50 45
23 50 45
23 50 45
23 49 45
23 51 46
23 50 45
22 48 44
22 49 44
22 49 44
22 49 44
22 48 44
22 47 43
22 48 43
23 50 45
22 48 43
21 47 42
22 48 44
21 46 42
22 49 45
21 46 42
21 47 43
22 49 44
22 48 43
22 48 44
22 48 44
22 48 43
22 48 44
22 48 44
22 49 44
22 48 43
21 47 43
22 48 44
22 48 43
22 49 44
22 48 44
22 49 44
22 47 43
23 50 45
22 48 44
21 47 43
22 48 43
22 49 44
21 47 42
22 48 44
22 48 43
23 50 45
22 49 45
23 50 46
21 47 43
22 48 44
22 48 44
22 48 44
22 49 45
22 48 43
22 48 44
22 47 43
22 48 43
22 48 43
21 47 43
22 49 45
22 48 44
22 48 44
22 48 43
22 48 44
22 48 44
22 48 44
22 49 44
23 49 45
22 49 44
22 47 43
22 49 44
22 48 44
22 49 44
22 48 44
22 48 44
22 49 44
22 47 43
22 49 44
22 48 43
22 49 44
22 49 44
22 48 44
22 49 44
22 48 43
22 49 44
22 47 43
22 49 44
22 49 44
23 49 45
22 48 43
22 48 44
23 50 45
22 49 44
23 50 45
22 48 43
22 49 44
23 51 46
22 48 44
22 49 44
22 48 43
22 48 44
23 49 45
23 50 45
23 49 45
23 49 45
22 49 44
22 49 44
23 51 46
23 50 45
22 49 44
23 50 45
23 50 45
22 47 43
22 47 43
22 48 43
23 50 45
24 51 46
22 49 44
23 49 44
22 49 44
22 48 43
22 48 43
22 49 44
23 49 44
23 49 45
22 49 44
22 49 44
22 47 43
22 49 44
23 51 46
23 50 45
22 49 44
22 49 44
22 48 43
23 49 44
23 50 45
23 49 44
23 49 45
24 51 46
22 49 44
22 49 44
23 50 45
23 49 45
22 49 44
23 49 45
22 48 44
23 50 45
22 49 44
23 50 45
23 50 46
23 51 46
24 52 47
23 50 45
22 49 44
22 49 44
23 50 45
23 49 45
23 51 46
23 50 45
23 50 45
22 49 44
23 50 45
23 50 45
23 50 45
22 49 44
23 50 45
23 49 45
22 49 44
22 49 44
22 48 44
22 49 44
23 50 45
23 50 45
23 50 45
22 49 44
23 50 45
22 49 44
22 49 44
23 50 45
23 50 45
23 50 45
23 49 45
22 49 44
23 50 45
23 50 46
22 48 43
23 51 46
23 49 45
23 49 44
23 49 45
22 48 43
23 50 45
23 50 45
23 49 45
22 49 44
23 49 45
23 51 46
24 51 46
23 50 45
23 49 45
23 51 46
22 49 44
22 48 44
23 50 45
22 49 44
23 49 44
23 50 45
23 50 45
23 50 45
22 48 44
23 51 46
22 49 44
22 49 45
23 50 45
22 47 43
21 47 43
21 47 43
22 48 44
21 47 43
22 48 44
21 46 42
21 47 43
22 47 43
22 48 43
22 49 45
21 46 42
22 49 44
22 48 43
22 48 43
22 48 44
22 48 43
21 46 42
22 48 43
22 48 43
23 50 45
22 49 44
22 48 44
21 47 43
22 49 44
21 46 42
22 49 44
22 48 43
21 47 43
22 48 44
22 49 44
22 48 43
22 48 43
22 48 44
21 46 42
21 47 43
22 48 44
22 48 43
23 49 45
22 49 44
22 48 43
21 47 43
22 48 43
22 49 44
22 48 43
22 48 43
22 49 44
22 49 45
22 49 44
22 48 44
22 49 44
22 49 44
22 48 44
22 48 44
22 48 44
22 48 43
22 48 44
22 48 44
23 50 45
22 49 45
22 48 44
22 49 44
23 49 45
22 48 43
22 48 44
23 49 45
22 49 44
22 48 44
22 49 44
22 49 44
23 49 45
22 49 44
22 48 43
22 49 44
23 49 45
23 50 45
23 49 45
22 48 44
22 49 45
23 50 45
23 50 45
22 49 44
22 49 44
23 49 45
23 49 45
22 48 43
22 47 43
23 49 44
22 49 44
22 49 44
22 49 44
23 49 44
23 50 46
22 49 44
22 49 44
22 48 43
23 49 45
22 48 44
23 50 45
23 51 46
24 52 47
22 49 44
23 49 44
22 48 44
22 49 44
23 50 45
22 49 44
22 49 44
23 49 45
23 50 45
23 50 45
23 50 45
22 48 43
22 49 44
22 48 43
22 49 44
23 49 45
22 48 44
23 50 45
23 50 45
23 50 45
23 50 45
23 50 45
23 50 45
22 48 43
22 49 44
22 49 44
23 50 45
22 49 44
23 49 44
22 48 43
22 49 44
22 49 44
22 48 44
23 50 45
22 47 43
23 50 45
23 50 45
22 49 44
23 49 45
23 49 45
23 50 45
23 50 45
23 49 45
22 48 44
23 49 44
22 49 44
23 51 46
23 51 46
23 50 45
23 50 45
22 49 44
23 50 45
23 50 45
22 49 44
23 50 45
22 48 43
23 50 45
23 49 44
23 49 45
22 49 44
23 50 45
23 50 45
22 49 44
23 49 45
23 50 45
22 49 44
22 49 45
23 51 46
22 49 44
22 49 44
23 50 45
22 48 43
23 50 45
23 50 45
22 49 44
22 49 44
22 49 44
22 49 44
23 51 46
23 49 45
22 48 44
23 50 45
22 49 44
22 49 44
23 50 45
23 49 44
22 49 44
22 48 44
23 50 45
23 49 45
23 49 44
23 50 45
22 48 43
23 49 45
22 49 44
22 48 43
22 48 44
22 49 44
22 49 44
21 47 42
22 48 44
21 47 43
21 45 41
22 48 43
21 47 43
22 47 43
22 48 43
21 47 43
22 49 44
22 49 45
21 46 42
22 48 44
22 48 44
22 49 45
21 46 42
22 47 43
22 48 44
22 48 44
21 47 43
22 48 44
22 48 44
21 47 43
22 48 44
22 47 43
22 48 44
22 48 43
22 48 44
22 48 44
22 48 44
22 49 44
21 47 43
22 48 44
22 47 43
22 48 44
22 47 43
22 48 44
22 48 44
22 48 44
22 49 45
22 48 44
22 48 43
22 48 43
22 48 44
22 49 44
22 47 43
22 47 43
22 48 43
22 47 43
22 48 43
22 48 44
22 48 43
22 48 43
22 48 44
22 48 43
22 49 44
23 50 45
23 49 45
22 48 43
22 48 44
22 48 44
23 49 45
22 49 44
22 48 43
22 48 44
23 49 45
22 48 44
22 49 44
22 49 44
22 49 44
22 48 43
22 48 43
22 48 43
23 50 45
23 50 45
22 47 43
22 48 44
23 50 45
23 50 45
22 49 44
22 49 44
23 50 45
22 48 44
22 48 43
22 49 44
23 50 45
23 49 45
22 48 43
22 49 44
23 50 45
23 51 46
23 50 45
23 49 45
23 50 45
23 49 45
22 48 44
22 48 44
21 46 42
22 49 44
23 50 46
23 50 45
23 50 45
23 49 44
23 51 46
22 49 44
22 48 44
22 49 44
23 50 45
23 50 45
23 50 45
22 49 44
22 48 44
22 48 44
23 49 45
23 49 45
22 48 44
23 51 46
23 50 45
23 50 45
22 48 43
23 49 45
23 51 46
22 48 43
23 49 45
22 48 43
22 48 44
22 48 43
23 50 45
23 49 45
23 49 45
23 50 45
22 48 44
23 49 45
23 51 46
23 50 45
23 50 45
23 51 46
22 49 44
22 49 44
23 50 45
22 49 44
23 51 46
23 49 45
23 50 45
23 50 46
22 49 44
22 48 44
23 50 46
23 50 45
23 50 45
23 50 45
22 48 43
23 50 45
23 50 45
23 50 45
23 50 45
23 51 46
22 48 43
23 49 45
23 50 45
23 51 46
23 50 45
22 49 44
23 49 45
23 50 45
22 49 44
22 48 43
23 51 46
23 50 45
23 50 45
23 50 45
23 50 46
22 49 44
22 49 44
23 50 45
23 51 46
22 49 44
23 50 45
22 49 44
23 50 45
23 50 45
22 49 44
23 50 46
23 50 45
22 49 44
23 50 45
24 52 47
22 49 44
23 50 45
23 49 45
21 47 42
22 49 44
22 49 44
23 49 45
24 51 47
23 50 45
22 49 44
22 48 44
22 48 44
22 48 44
21 46 42
21 46 42
21 47 43
22 47 43
22 47 43
21 47 42
21 46 42
21 46 42
21 46 42
22 48 44
21 47 43
22 48 43
22 48 44
21 46 42
22 48 44
22 47 43
21 47 43
22 47 43
22 48 43
21 46 42
22 47 43
21 47 42
22 48 44
22 47 43
22 47 43
22 47 43
21 47 43
23 50 45
21 46 42
21 46 42
21 46 42
22 49 44
22 48 43
22 47 43
22 49 45
22 48 44
21 47 43
22 48 44
22 47 43
22 49 44
22 48 44
22 47 43
22 49 44
22 48 44
22 49 45
23 50 45
22 48 44
22 47 43
22 49 44
22 48 43
22 47 43
22 49 44
22 48 44
21 47 43
22 48 43
22 47 43
22 48 43
22 48 44
22 48 44
23 51 46
23 50 45
23 50 45
22 48 44
22 48 44
23 49 45
22 49 44
21 46 42
22 48 44
21 47 42
22 49 44
21 47 43
22 49 44
22 49 44
22 49 44
22 49 44
22 47 43
22 49 44
22 48 43
22 49 44
23 51 46
22 49 45
23 49 45
23 50 45
22 49 44
22 49 44
22 48 43
23 50 46
23 49 45
22 48 43
23 50 46
23 50 45
23 50 46
22 49 44
22 48 44
23 49 45
22 48 43
22 48 44
23 49 45
22 48 44
22 49 44
22 49 44
23 50 45
23 50 45
23 50 45
23 49 45
23 50 45
22 48 43
22 49 44
23 49 45
23 50 45
23 49 44
23 50 46
23 51 46
23 50 45
23 51 46
23 51 46
22 48 44
23 49 45
22 48 43
22 49 44
24 51 46
22 49 44
23 50 45
23 50 45
23 50 45
23 49 45
22 48 43
23 49 45
22 49 44
23 49 45
23 50 45
22 49 44
22 49 44
23 50 45
23 50 45
23 50 46
22 48 44
23 50 45
23 49 44
23 49 45
22 49 44
23 51 46
22 49 44
22 49 44
22 49 44
23 51 46
23 50 45
23 50 45
23 51 46
22 49 44
22 48 43
22 49 44
22 49 44
23 51 46
23 50 45
23 51 46
23 50 45
22 48 44
23 50 45
23 51 46
22 48 44
23 49 45
23 50 45
22 49 44
22 48 43
23 49 45
23 50 45
23 50 45
23 50 45
22 48 44
22 48 43
23 50 45
22 49 44
23 50 45
23 50 45
23 50 45
23 50 45
22 49 44
22 49 44
23 50 46
22 47 43
22 48 44
23 50 45
23 50 46
23 49 45
22 49 44
23 49 45
23 49 45
22 49 44
22 49 44
23 49 45
22 48 43
22 49 44
22 48 44
23 50 45
23 49 45
22 49 44
23 50 46
23 49 45
23 49 45
22 48 43
22 47 43
21 47 42
22 48 44
21 47 43
21 47 42
22 48 44
21 46 42
21 47 43
21 47 43
21 47 42
21 46 42
22 48 43
22 49 44
21 47 43
22 48 43
22 48 44
22 47 43
22 48 43
21 47 43
22 48 44
22 49 44
22 47 43
22 49 44
22 49 44
22 48 44
22 48 44
22 48 43
22 48 43
22 48 44
22 48 43
22 48 43
21 47 43
22 48 43
22 48 44
22 48 44
22 49 45
22 48 44
22 49 45
22 49 45
22 47 43
22 48 43
22 49 44
22 48 44
22 47 43
22 48 44
22 49 44
23 50 45
22 47 43
22 47 43
22 48 43
23 50 45
21 46 42
22 48 43
22 49 44
22 48 44
21 47 43
22 47 43
22 49 45
22 47 43
22 49 45
22 48 44
22 49 44
22 49 44
22 48 44
23 49 45
22 47 43
22 49 44
22 49 44
23 50 45
22 48 44
22 49 44
22 48 44
22 49 44
22 48 44
22 48 44
22 48 43
22 49 44
21 47 42
22 49 44
23 50 45
23 50 45
22 49 44
23 50 45
22 48 43
22 49 44
23 50 45
22 49 44
22 49 44
23 50 45
22 48 43
22 49 44
23 50 45
22 49 44
22 48 43
22 48 44
22 49 44
22 48 43
22 49 44
22 49 44
22 49 44
22 48 44
22 49 44
22 48 43
22 49 44
23 50 45
22 49 44
22 48 44
23 49 45
23 50 45
23 50 45
23 49 45
22 49 44
23 49 44
22 48 43
22 47 43
22 49 44
22 49 44
22 49 44
22 49 44
22 49 44
23 50 45
23 50 45
22 49 44
22 48 44
23 50 45
23 50 45
22 49 44
23 50 45
22 49 44
23 49 45
23 50 45
22 49 44
23 50 46
22 48 44
22 49 44
23 49 44
24 51 46
22 49 44
22 49 44
22 49 44
22 49 44
22 48 44
23 51 46
23 49 44
22 48 44
22 49 44
23 51 46
23 50 45
22 48 43
23 50 45
22 48 44
22 49 44
23 50 45
22 48 44
22 48 44
22 49 44
23 49 44
23 50 45
22 49 44
22 48 43
23 50 45
23 50 45
22 49 44
22 49 44
23 49 45
23 51 46
23 50 45
23 49 45
22 48 43
23 49 45
23 50 45
22 48 43
23 51 46
23 49 44
23 50 46
22 48 43
23 50 45
22 47 43
23 50 45
22 48 43
23 51 46
23 50 45
22 49 44
23 50 45
23 50 45
23 49 45
22 49 44
23 49 45
23 50 45
23 50 45
23 51 46
22 48 44
23 50 45
22 49 44
23 49 45
23 50 45
23 50 46
23 50 45
22 49 44
21 47 43
22 47 43
21 46 42
21 47 43
22 47 43
22 48 43
22 49 44
21 46 42
22 47 43
22 47 43
21 47 42
21 47 42
22 49 44
22 48 43
21 46 42
21 47 42
22 48 44
22 48 44
21 46 42
22 48 43
22 48 43
21 47 42
21 47 42
22 48 43
22 48 43
22 48 44
22 48 44
22 49 44
22 48 43
21 47 43
22 49 44
22 49 44
22 48 44
23 49 45
23 50 45
22 48 44
22 48 44
21 47 43
22 48 43
22 49 44
22 48 44
22 48 44
22 48 44
22 47 43
21 46 42
22 48 44
23 50 45
22 48 44
22 48 44
23 49 45
22 48 43
22 48 43
22 48 44
22 48 43
21 47 42
23 49 45
21 47 43
22 48 43
22 49 44
23 49 44
23 50 45
22 47 43
22 48 43
22 49 44
22 49 44
22 48 43
22 48 43
22 48 43
22 49 44
22 48 44
23 49 45
23 50 45
22 48 44
22 48 44
23 49 45
22 47 43
22 49 44
22 48 44
22 49 44
23 49 45
22 49 44
22 48 43
22 48 43
22 48 43
22 49 45
22 48 43
22 48 44
23 49 45
22 49 44
23 50 45
22 48 43
22 48 43
21 47 42
22 48 43
22 48 43
22 48 43
22 49 44
23 49 45
23 49 45
22 49 44
22 48 43
23 49 45
22 49 44
23 50 45
22 48 44
23 51 46
23 50 45
22 49 44
22 49 44
22 49 44
23 50 45
22 48 43
22 48 43
23 49 45
22 49 44
22 48 44
23 50 45
22 49 44
22 48 44
23 50 45
22 49 44
22 49 44
23 50 45
22 48 43
22 49 44
23 50 45
22 49 44
23 51 46
22 49 44
23 50 45
23 51 46
23 50 45
22 49 45
23 50 45
23 50 45
22 49 44
22 49 44
23 50 45
23 50 45
23 50 45
22 48 44
23 49 45
22 48 44
23 50 45
23 50 45
23 50 45
23 51 46
23 50 45
23 50 45
23 50 45
23 50 45
23 50 46
23 50 45
22 49 44
22 49 44
23 51 46
23 49 44
22 49 44
23 50 46
23 51 46
23 50 45
23 49 45
23 49 44
23 50 45
22 47 43
23 50 45
23 50 45
23 49 45
22 49 44
23 49 45
23 49 44
22 49 44
23 50 45
23 51 46
23 49 45
22 49 44
23 50 45
23 50 45
23 49 45
23 50 45
22 48 44
23 50 45
22 48 44
23 50 45
22 49 44
23 49 45
23 49 45
22 48 43
22 49 44
22 49 44
23 50 45
22 48 44
22 49 44
23 50 46
22 48 43
23 50 45
23 49 45
22 49 44
22 49 44
23 50 45
21 47 43
22 48 43
21 47 42
21 47 43
22 48 44
22 48 44
21 46 42
21 46 42
22 49 44
21 47 43
22 48 43
22 48 43
22 48 43
22 48 44
22 48 44
22 48 43
22 48 44
22 48 43
22 48 44
21 47 42
22 48 44
22 49 44
22 48 43
21 46 42
21 46 42
22 48 44
22 48 44
22 48 43
22 48 43
21 47 43
22 48 44
22 49 44
22 48 44
22 47 43
22 48 44
23 50 45
21 46 42
22 49 44
22 47 43
22 48 44
22 49 44
22 48 44
21 47 43
22 48 44
22 49 44
22 48 43
22 48 43
22 47 43
22 48 43
22 48 44
22 47 43
23 50 45
22 48 44
21 47 42
22 48 44
22 48 44
22 48 43
23 49 45
22 47 43
22 49 44
22 48 43
22 48 43
22 48 44
22 49 44
23 49 45
22 49 44
22 49 44
22 48 43
22 48 43
22 48 43
22 48 44
23 50 45
22 49 45
22 48 43
22 49 44
22 48 44
22 49 44
22 48 43
22 48 43
23 49 45
22 49 44
23 51 46
23 50 45
23 49 45
23 49 44
23 50 45
23 51 46
22 48 44
22 47 43
23 49 45
23 51 46
22 48 43
22 49 44
22 49 44
23 50 45
22 49 45
22 49 44
22 48 44
22 48 43
22 47 43
22 48 44
22 48 44
22 48 43
22 49 44
22 49 44
23 50 45
23 50 45
22 49 44
22 49 44
23 50 45
22 49 44
23 49 45
23 50 46
23 49 44
22 48 44
23 49 44
22 49 44
22 48 44
23 50 45
22 49 44
23 50 45
23 49 45
22 49 44
22 48 44
23 49 45
23 49 45
23 49 45
22 48 43
22 49 44
23 49 45
23 50 46
23 50 45
22 48 43
23 49 45
23 50 45
22 48 44
22 48 44
23 50 45
23 50 46
23 50 45
23 50 45
23 51 46
23 49 45
23 50 45
23 50 45
22 48 44
23 49 45
22 48 43
22 48 44
22 47 43
23 50 45
22 49 44
22 49 44
23 50 45
23 50 45
22 49 44
22 48 44
22 49 44
22 48 44
22 49 44
23 49 45
22 49 44
23 50 45
22 48 44
23 50 45
23 50 45
22 49 44
22 49 44
23 49 44
23 50 45
23 50 45
22 49 44
23 50 45
23 51 46
23 49 45
22 48 43
23 49 44
23 50 45
22 49 44
23 49 45
23 50 45
23 51 46
23 51 46
22 49 44
22 49 44
23 49 45
23 50 45
23 50 45
24 52 47
23 50 45
23 50 45
22 48 44
23 50 45
21 47 43
23 51 46
22 49 44
22 48 43
23 50 45
22 49 44
22 49 44
22 48 44
22 47 43
22 47 43
21 47 43
22 48 43
22 49 44
21 46 42
21 47 42
22 48 44
21 46 42
22 47 43
21 46 42
22 48 43
21 47 43
21 46 42
22 48 43
22 47 43
22 47 43
22 47 43
22 49 45
22 49 44
22 49 44
21 46 42
22 48 43
23 50 45
21 47 43
22 48 44
22 47 43
22 48 43
22 48 44
22 47 43
22 47 43
21 47 43
22 49 44
22 48 44
21 47 43
22 49 44
21 47 43
22 48 43
21 46 42
22 48 44
22 48 44
22 49 44
23 50 45
22 47 43
22 49 44
22 48 43
22 48 43
22 49 44
22 48 43
22 49 44
22 48 43
23 50 45
22 48 43
22 49 44
22 48 44
22 47 43
21 47 42
22 48 43
22 49 44
22 48 44
22 48 43
22 47 43
22 48 44
22 48 43
22 48 43
22 48 44
22 48 43
21 47 42
22 48 43
21 47 42
22 48 43
22 48 43
22 48 43
22 49 44
21 47 43
22 48 43
22 47 43
23 50 45
22 48 43
22 47 43
22 48 44
22 49 44
23 49 45
22 48 44
22 49 44
22 48 43
22 48 43
22 48 44
22 48 44
22 48 43
22 48 44
22 49 44
22 49 44
22 48 43
23 50 45
23 50 46
22 48 43
23 49 44
22 49 44
22 48 44
22 48 43
22 49 44
22 49 44
23 50 45
23 50 45
21 47 42
23 49 45
23 50 45
23 49 45
23 49 45
22 48 44
22 49 44
22 48 43
23 49 44
22 49 45
23 50 45
22 49 44
22 48 44
23 51 46
22 49 44
23 49 44
22 49 44
23 50 45
23 50 45
23 49 45
22 48 44
22 48 44
22 49 44
23 50 45
22 49 44
23 49 45
23 50 45
23 50 45
22 48 43
23 50 45
23 50 45
23 50 45
23 49 45
22 49 44
22 48 43
23 49 44
23 49 44
23 49 45
23 49 44
23 49 45
23 49 45
23 51 46
22 48 43
23 50 46
22 49 44
22 48 43
22 49 44
23 49 44
23 50 45
22 49 44
22 48 44
23 50 45
22 48 43
22 49 44
23 50 45
23 49 45
22 49 44
23 50 45
23 50 45
22 49 44
22 49 44
23 51 46
22 48 44
22 48 43
23 50 45
22 49 44
23 50 45
23 50 45
23 49 45
22 48 44
22 48 44
23 50 45
23 50 46
23 49 45
23 49 45
22 48 44
23 50 45
23 50 45
22 49 44
23 50 45
23 49 44
23 49 45
23 50 45
23 51 46
23 50 45
22 48 44
22 49 44
23 51 46
23 51 46
22 47 43
22 48 43
23 50 45
23 50 45
22 49 44
21 46 42
21 45 41
22 48 44
22 47 43
22 49 44
21 47 42
22 47 43
22 48 43
22 47 43
22 47 43
21 46 42
21 46 42
22 47 43
22 48 44
22 48 43
22 49 44
22 48 44
22 48 44
22 48 43
21 46 42
22 49 44
22 47 43
22 47 43
21 47 43
21 47 43
22 49 44
21 47 43
22 48 43
22 48 44
22 49 44
22 48 43
21 47 43
22 48 44
22 48 43
22 48 43
22 47 43
22 48 43
22 48 44
21 47 42
21 47 42
22 48 44
22 49 44
22 49 44
22 48 44
22 48 44
22 47 43
22 48 44
22 49 44
22 49 44
22 48 43
22 49 44
21 47 43
22 48 44
22 47 43
22 48 43
21 46 42
23 49 45
22 47 43
22 48 44
22 47 43
23 50 45
22 48 43
21 47 43
22 49 44
23 50 46
21 47 42
22 48 43
22 47 43
22 47 43
22 49 44
22 48 43
23 50 46
22 49 44
22 48 43
22 48 43
22 48 43
22 49 44
23 50 45
22 49 44
22 48 44
23 51 46
22 48 43
22 48 44
22 49 44
23 50 45
22 48 44
23 50 46
22 49 44
23 51 46
23 51 46
22 48 44
22 48 44
22 49 44
22 48 43
22 49 44
23 49 45
23 49 44
23 50 46
23 50 46
22 48 44
22 47 43
22 49 44
23 51 46
22 49 44
22 48 43
22 48 43
22 49 44
23 50 45
22 49 44
22 49 44
22 48 44
22 49 44
22 49 44
23 50 45
23 50 45
23 50 46
23 50 45
23 51 46
22 48 44
22 48 43
23 49 45
22 49 44
23 51 46
23 50 45
22 48 43
23 50 45
23 49 44
22 48 44
23 50 45
22 49 44
22 49 44
22 49 44
22 49 44
23 50 45
23 51 46
23 50 45
22 49 44
22 49 44
22 49 44
23 49 45
22 48 44
22 49 44
23 50 45
22 47 43
23 50 45
23 49 45
22 48 44
22 49 44
23 50 45
23 49 45
22 49 44
23 50 45
23 49 45
22 49 44
22 49 44
23 50 46
23 50 45
23 49 44
22 48 44
22 48 43
22 49 44
23 50 45
23 50 46
22 49 44
23 50 45
22 49 44
23 50 45
22 49 44
23 50 45
23 50 45
22 48 44
22 49 44
23 51 46
22 49 44
23 50 45
23 50 45
22 48 44
22 48 43
22 49 44
23 50 45
23 50 45
22 49 44
23 50 45
23 51 46
22 47 43
22 48 44
23 51 46
23 50 45
23 50 45
23 50 45
23 49 45
22 49 44
23 50 45
23 50 45
22 48 43
23 50 45
22 49 44
22 49 44
22 48 43
23 50 45
21 46 42
21 45 41
22 47 43
22 47 43
21 46 41
22 49 44
21 47 43
21 46 42
22 47 43
21 46 42
21 47 43
21 45 41
22 48 43
21 46 42
22 48 43
21 46 42
22 49 44
21 47 42
21 47 43
22 48 43
22 48 44
21 47 42
22 49 44
22 49 44
22 48 44
22 47 43
22 48 43
23 50 45
22 47 43
22 48 44
22 49 45
22 48 44
50 62 57
133 124 112
185 167 151
205 183 166
222 198 179
205 181 168
91 68 96
76 60 84
53 53 63
22 48 43
22 49 44
22 49 44
22 49 44
22 49 44
22 49 44
22 48 43
22 48 44
22 49 44
22 48 44
22 48 44
22 48 44
22 47 43
22 48 44
22 47 43
22 48 44
22 47 43
22 47 43
22 47 43
22 47 43
22 48 44
22 48 43
22 48 43
22 49 44
22 48 43
22 49 44
22 49 44
22 48 43
22 48 43
22 47 43
22 49 44
22 48 44
22 49 44
21 47 42
23 49 45
22 48 44
22 49 45
22 48 44
22 49 44
22 48 44
23 49 45
22 49 44
23 49 45
22 48 43
23 50 45
23 50 45
23 50 45
22 49 44
23 49 44
22 47 43
23 50 45
22 49 44
22 49 44
22 49 44
22 48 43
22 49 44
23 49 45
23 50 45
23 50 46
22 48 44
23 50 45
22 49 44
23 50 45
23 49 45
22 49 44
23 49 45
23 50 45
22 48 43
22 47 43
21 47 42
23 50 45
23 50 45
22 48 43
22 49 44
22 49 44
23 50 45
22 49 44
22 48 43
22 48 43
22 48 44
22 48 44
23 49 44
24 52 47
23 49 45
22 48 44
23 50 45
22 48 43
23 49 45
22 49 44
22 47 43
22 49 44
22 49 44
22 49 44
22 48 44
23 49 45
22 48 43
22 48 44
23 49 44
23 50 45
23 51 46
22 48 43
23 49 45
23 50 45
22 48 43
22 48 43
23 50 45
22 48 43
23 50 45
23 50 45
23 50 45
22 49 44
22 48 43
22 49 44
23 49 44
22 48 44
22 48 44
22 49 44
23 51 46
22 49 44
23 50 45
22 49 44
23 51 46
22 49 44
23 49 45
22 48 43
23 49 44
23 51 46
23 50 45
23 49 45
22 49 44
23 49 44
23 50 45
22 47 43
22 49 44
22 49 44
22 48 43
22 49 44
23 50 45
23 50 45
22 49 44
23 49 45
22 49 44
23 50 45
22 49 44
22 49 44
23 50 45
22 49 44
23 49 45
22 49 44
23 49 45
23 50 45
23 50 45
23 49 45
23 50 45
22 49 44
23 49 44
23 51 46
23 50 45
22 48 43
21 46 42
21 45 41
21 47 43
22 48 44
21 47 42
21 46 42
21 47 43
21 47 42
21 47 43
21 47 43
23 49 45
22 48 44
22 48 44
22 48 43
22 48 43
22 47 43
22 47 43
21 47 42
22 47 43
21 46 42
21 47 42
22 48 43
22 47 43
21 47 42
21 46 42
22 48 43
21 47 43
22 48 43
22 49 45
22 48 43
40 56 51
155 140 128
212 190 174
224 201 184
227 203 187
229 205 188
232 208 190
235 210 192
157 131 141
103 68 109
104 68 110
91 64 97
51 52 62
21 46 42
22 48 43
22 48 43
22 49 44
22 48 43
22 47 43
22 48 44
22 48 43
21 47 42
22 48 43
22 48 44
21 45 41
23 50 45
23 50 45
21 47 42
21 46 42
22 49 44
22 47 43
22 48 43
22 48 44
22 48 43
23 50 45
22 48 44
23 49 45
22 48 44
22 49 44
22 49 44
22 47 43
22 48 44
22 49 44
22 49 44
22 48 43
22 47 43
22 48 44
23 50 45
23 50 45
23 50 45
22 47 42
22 49 44
22 48 43
22 48 43
22 49 44
22 49 44
22 49 44
23 49 45
23 50 45
22 49 44
23 50 45
22 49 44
22 49 44
22 48 44
21 46 42
21 47 42
23 50 45
23 50 45
22 48 43
23 50 45
22 48 43
21 47 43
22 49 44
24 51 46
23 49 45
22 49 44
21 47 42
22 48 43
22 49 44
22 48 44
23 50 46
23 50 45
23 50 45
22 49 44
23 49 45
22 49 44
24 51 46
23 49 45
22 49 44
22 49 44
22 48 44
22 49 44
22 48 44
22 49 44
23 49 45
22 49 44
23 49 44
22 48 43
23 50 45
22 48 44
22 48 43
22 48 43
23 50 45
23 50 45
22 48 43
23 49 45
23 50 45
22 48 43
23 50 45
22 48 44
22 49 44
22 49 44
22 49 44
23 50 45
24 51 47
22 49 44
22 49 44
23 49 45
22 49 44
23 50 45
23 49 44
22 49 44
22 48 43
22 48 43
22 48 44
23 50 45
22 47 43
22 49 44
22 49 44
23 50 45
22 49 44
22 49 44
23 49 45
23 50 45
23 49 45
22 49 44
22 49 45
23 50 46
22 48 43
23 50 45
23 49 44
23 50 45
22 48 43
23 50 45
23 49 45
22 48 43
22 49 44
22 49 44
23 51 46
22 48 44
22 49 44
22 47 43
22 48 44
23 49 45
23 49 44
23 50 45
22 49 44
23 49 45
23 50 45
22 49 44
23 50 45
23 49 44
22 49 44
22 49 44
22 49 44
22 49 44
23 49 45
23 49 45
23 51 46
23 50 45
22 48 43
21 47 43
21 47 43
22 48 43
21 46 42
21 47 43
21 47 43
21 46 42
21 46 42
22 47 43
21 47 43
22 49 44
22 48 43
22 48 43
22 49 44
22 47 43
22 48 43
21 47 42
21 47 42
21 47 42
21 47 42
22 48 44
22 48 44
21 46 42
22 47 43
22 49 44
21 46 42
21 47 43
21 47 43
74 76 70
186 167 154
211 190 176
213 193 179
216 195 181
217 197 182
220 199 184
224 202 186
229 206 189
165 140 146
114 84 116
104 71 110
103 68 109
103 67 108
77 59 84
23 48 44
22 48 43
22 48 43
21 47 42
22 49 44
22 49 44
22 48 43
21 47 43
22 48 43
21 47 42
22 49 45
22 49 44
23 50 45
22 49 44
21 47 42
22 48 43
23 50 45
22 47 43
21 47 42
22 48 43
22 48 44
22 48 43
22 48 43
22 47 43
21 47 42
22 48 43
22 47 43
22 49 44
22 49 44
22 47 43
22 47 43
22 48 43
23 49 44
22 47 43
22 47 43
22 49 44
23 50 45
22 49 44
22 47 43
22 48 44
21 47 42
22 49 44
22 49 44
22 48 43
22 48 43
22 48 44
22 49 44
22 47 43
22 49 44
22 48 43
23 50 45
23 50 46
22 48 44
22 48 43
22 49 44
22 49 44
22 48 44
22 49 44
22 47 43
22 47 43
23 50 45
21 47 43
22 48 44
23 50 45
22 49 44
22 48 44
22 48 43
23 49 44
22 49 44
22 48 44
22 48 43
22 48 44
22 48 44
23 50 45
22 49 44
22 48 44
22 48 44
22 48 43
23 50 45
22 48 43
22 48 43
22 49 44
22 49 44
22 49 44
22 48 44
23 50 45
22 48 44
23 51 46
23 49 45
22 48 43
22 49 44
23 50 45
23 49 45
22 49 44
22 48 43
22 48 43
23 49 45
22 48 43
23 50 45
22 49 44
23 49 45
23 49 45
23 50 45
22 49 44
23 50 45
23 51 46
22 48 43
22 49 44
23 50 45
22 48 43
23 50 45
22 49 44
23 49 45
23 50 45
22 48 44
23 50 45
22 49 44
22 49 44
23 51 46
22 49 44
23 50 45
23 49 44
22 49 44
22 49 44
22 49 44
22 49 44
22 48 44
22 48 44
23 50 45
23 49 45
23 49 45
23 49 45
22 48 43
23 50 45
22 48 43
23 51 46
23 49 45
22 48 43
23 49 45
23 51 46
22 49 44
23 50 45
23 50 45
22 48 44
23 50 45
23 51 46
23 50 45
22 49 44
22 48 44
23 51 46
23 50 45
22 49 45
23 50 45
22 49 44
22 49 44
23 49 45
22 47 43
21 46 42
21 47 43
22 48 43
21 47 42
22 48 44
22 47 43
21 46 42
22 47 43
22 49 44
21 47 42
21 46 42
22 47 43
22 47 43
22 48 44
22 48 44
22 48 44
21 47 43
22 48 43
21 47 42
22 48 43
22 48 43
22 48 43
21 47 43
22 48 44
22 48 44
22 49 44
21 47 42
73 78 72
183 165 152
202 182 170
204 185 173
205 187 174
208 189 177
211 192 179
214 194 181
217 197 183
225 204 188
179 155 156
187 161 162
163 136 146
112 81 114
102 67 108
102 67 107
77 58 83
22 49 44
23 50 45
22 48 44
22 47 43
22 48 43
21 47 42
22 47 43
22 48 44
21 46 42
22 48 44
22 48 44
22 49 44
22 49 44
22 48 43
22 49 44
22 48 44
22 48 43
22 49 44
22 48 43
22 47 43
22 49 44
22 49 44
22 48 44
22 49 44
22 49 44
22 48 43
22 49 44
22 48 43
22 48 44
22 48 44
21 47 43
21 47 42
23 49 45
22 48 43
22 49 44
22 49 45
22 48 44
23 50 46
22 49 44
22 48 43
22 47 43
22 48 43
22 49 44
22 47 43
23 49 45
22 48 43
22 47 43
22 48 44
22 49 44
23 49 45
23 50 45
22 49 44
22 48 44
22 49 44
23 50 45
22 49 44
23 50 45
22 49 44
23 49 45
23 51 46
22 48 43
22 48 44
22 48 43
22 48 43
23 50 45
22 48 43
22 48 43
22 47 43
22 48 44
22 48 43
22 47 43
23 51 46
23 50 45
21 47 43
23 49 45
22 49 44
22 48 43
22 48 43
22 47 43
23 50 45
22 48 44
22 48 43
22 49 44
22 49 44
22 49 44
22 49 44
23 50 45
22 48 44
23 49 45
22 49 44
22 47 43
22 48 44
22 49 44
23 50 45
22 49 44
22 49 44
23 49 45
23 50 45
22 48 44
22 49 44
23 49 44
22 49 44
22 49 44
23 49 45
22 47 43
23 51 46
23 51 46
23 50 45
22 49 44
22 48 43
22 48 44
22 49 44
22 49 44
22 48 44
23 50 45
22 48 43
22 47 43
22 48 44
23 49 45
23 50 45
23 49 45
22 49 44
22 48 44
23 49 45
23 50 45
22 49 44
22 49 44
22 48 43
22 48 44
22 49 44
23 51 46
24 51 46
23 50 45
23 50 45
22 49 44
22 49 44
22 49 44
23 49 45
22 49 44
22 49 44
22 49 44
22 49 44
22 49 44
22 49 45
23 50 45
23 50 45
22 48 44
23 49 45
22 48 44
23 50 45
22 48 44
23 49 45
22 48 43
22 48 43
23 50 45
21 46 42
21 46 42
21 46 41
22 47 43
21 47 42
22 49 44
21 46 42
21 46 42
21 45 41
22 48 44
22 47 43
21 46 42
22 48 43
21 47 42
21 46 42
22 48 43
22 48 44
22 48 43
21 47 42
22 48 44
22 48 43
21 47 42
22 47 43
21 47 43
22 47 43
21 47 43
21 47 43
45 59 54
164 150 139
190 171 159
194 178 166
196 179 168
198 182 170
201 184 172
204 186 174
207 189 177
210 191 178
210 190 178
119 94 118
161 136 145
178 152 156
133 106 126
102 69 107
100 65 104
97 64 101
66 55 73
22 48 44
22 47 43
21 47 42
22 48 44
21 47 42
22 48 43
22 47 43
21 46 42
22 48 43
23 50 45
22 47 43
22 49 44
22 48 44
22 47 43
22 49 44
22 48 44
22 47 43
21 47 42
21 47 43
22 47 43
22 49 44
21 47 42
23 50 45
22 47 43
22 48 43
21 47 43
22 48 44
22 48 44
22 48 44
23 50 45
23 50 45
22 49 44
22 48 43
23 50 45
22 49 44
22 48 43
23 50 45
22 48 44
105 73 59
189 95 60
233 113 67
247 118 70
255 122 72
251 120 71
233 112 67
194 97 61
108 67 49
22 48 44
23 50 45
21 47 43
22 48 43
23 50 45
23 49 44
22 49 44
22 49 44
22 49 44
22 48 44
23 49 45
23 50 45
23 50 45
23 49 44
23 50 45
21 47 42
22 49 44
22 49 44
22 48 43
22 48 44
22 48 44
22 48 44
22 49 44
22 49 44
23 50 45
23 50 45
22 48 43
22 47 43
23 50 45
23 50 45
21 47 42
23 50 45
22 48 43
22 48 43
22 48 43
22 48 43
23 50 45
23 49 45
22 48 44
22 49 44
22 49 44
22 48 44
23 50 45
23 50 45
24 52 47
22 49 44
24 52 47
22 49 44
22 49 44
23 49 45
22 49 45
22 48 43
23 50 45
23 49 45
23 49 44
22 48 43
23 49 45
22 49 44
22 49 44
22 49 44
23 50 45
23 50 45
23 50 45
22 48 43
23 49 45
23 49 44
22 49 44
22 49 44
22 49 44
22 48 43
22 47 43
22 49 44
22 49 44
23 50 45
22 48 44
22 48 43
22 49 44
22 49 44
23 50 45
22 49 44
22 49 44
22 49 44
22 49 44
22 48 43
23 49 45
23 49 45
22 48 44
22 49 44
23 49 45
21 47 42
23 50 45
22 48 43
22 47 43
23 50 45
22 48 43
22 49 44
22 49 44
22 48 43
22 48 43
22 49 44
23 49 45
23 50 46
23 50 45
22 48 44
23 49 45
22 49 44
22 48 44
22 49 44
22 47 43
22 47 43
22 47 43
21 45 41
21 46 41
22 49 44
21 46 42
21 47 43
22 47 43
20 44 40
21 46 42
22 48 43
22 48 43
22 48 43
22 47 43
22 47 43
22 48 43
22 48 43
22 48 43
21 46 42
21 47 43
22 49 44
21 46 42
22 49 44
22 47 43
22 48 43
119 112 105
170 154 144
182 167 157
187 172 162
189 174 164
191 176 166
195 179 168
197 181 170
201 184 172
203 186 174
173 154 152
91 62 100
98 70 104
107 79 110
107 77 109
99 66 104
98 64 103
95 62 99
92 60 94
39 50 53
21 47 43
22 48 44
21 45 41
22 49 44
22 47 43
21 47 43
21 46 42
21 46 42
22 48 43
21 47 42
21 47 43
22 47 43
21 47 42
21 47 42
21 47 42
22 49 44
23 50 45
22 48 43
22 47 43
22 48 43
22 48 43
22 49 44
21 47 42
22 48 43
22 48 43
21 47 42
22 48 43
22 48 43
22 48 44
21 47 43
22 48 43
22 48 43
22 48 44
22 49 44
22 49 44
104 86 74
207 114 81
247 120 72
249 119 71
250 120 71
251 120 72
253 122 73
255 124 74
255 124 74
255 125 73
255 124 73
203 101 63
106 66 48
22 47 43
23 49 45
23 50 45
22 48 43
22 49 44
22 48 44
23 50 45
22 48 44
22 48 43
22 48 44
22 48 44
22 49 44
22 48 43
22 48 43
23 49 45
23 50 45
21 46 42
22 48 43
22 48 44
23 49 45
22 49 44
22 49 44
22 48 43
23 49 44
22 49 44
23 50 45
23 50 45
23 50 45
23 50 45
23 51 46
22 48 43
23 49 45
22 48 44
22 48 44
22 48 43
22 48 43
22 48 43
23 50 45
23 50 45
22 48 43
22 49 44
22 48 43
23 50 45
23 50 45
22 49 44
22 48 44
23 50 45
23 50 45
23 50 45
23 49 45
23 50 45
22 49 44
22 49 44
22 49 44
22 48 43
23 49 44
22 48 44
22 47 43
22 48 43
22 48 43
22 49 44
23 50 45
23 49 45
23 49 45
23 49 45
22 49 44
23 50 45
23 49 44
22 49 44
23 51 46
22 49 44
23 50 46
23 50 45
22 49 44
22 48 44
23 49 45
23 50 45
22 49 44
22 48 43
22 49 44
22 48 44
22 49 44
23 50 45
22 48 43
23 50 45
22 49 44
23 50 45
23 50 45
23 49 45
23 49 44
22 48 44
22 48 44
22 48 44
22 49 44
23 49 45
22 48 44
23 50 45
22 48 43
23 51 46
22 48 44
22 49 44
22 49 44
23 50 45
22 47 43
23 50 45
21 47 42
22 47 43
22 47 43
21 46 41
22 47 43
21 46 42
22 47 43
22 49 44
21 47 42
22 48 43
21 46 42
22 49 44
22 47 43
21 47 42
22 48 43
22 47 43
21 47 43
21 46 42
22 48 44
22 48 44
21 46 42
21 46 42
22 48 43
22 48 43
22 48 43
22 48 43
40 54 49
156 142 134
165 148 139
171 157 149
179 166 157
181 168 159
186 171 162
188 174 164
192 176 166
194 178 168
198 181 170
126 106 120
87 59 97
89 60 98
91 61 99
93 62 101
94 62 100
93 61 99
93 60 96
92 60 95
74 59 75
21 47 42
21 47 42
23 50 45
22 49 45
21 46 42
22 48 44
22 48 43
22 48 43
22 49 45
22 47 42
22 48 44
22 48 43
22 49 44
21 46 42
22 47 43
22 47 43
21 47 42
22 48 43
22 49 44
22 49 45
23 49 45
22 49 44
22 49 44
22 48 43
22 48 43
22 48 43
22 48 44
22 48 43
22 49 44
22 48 43
22 48 43
23 50 45
22 47 43
22 48 44
150 120 105
229 125 90
237 114 68
238 115 68
239 115 69
240 116 69
243 119 73
254 135 90
255 160 114
255 163 117
255 140 93
255 124 74
255 123 72
248 118 69
135 75 52
22 49 44
22 47 43
22 49 44
22 48 43
22 47 43
22 48 44
22 49 44
23 49 44
22 49 44
22 48 43
22 49 44
22 49 44
22 49 44
23 50 45
22 49 44
22 49 44
22 49 44
23 50 45
22 49 44
22 49 45
22 47 43
22 47 43
23 50 45
22 48 44
22 48 44
22 49 44
22 48 44
22 48 44
22 49 44
23 51 46
22 48 43
22 48 44
21 47 43
22 47 43
23 50 45
22 48 44
22 49 44
22 49 44
22 49 44
23 50 45
23 50 45
23 50 45
22 47 43
22 48 44
22 48 44
22 49 45
22 49 44
22 49 44
22 49 44
23 50 45
22 48 43
22 49 44
22 49 44
23 50 46
23 50 45
22 49 44
23 49 45
22 49 44
22 48 43
23 49 45
23 51 46
22 48 43
22 47 43
23 50 45
22 49 44
22 48 43
23 50 45
22 48 43
21 47 42
23 50 46
22 49 44
23 50 45
22 49 44
22 48 43
22 49 44
22 48 44
23 49 45
22 48 44
22 47 43
22 49 44
22 49 44
23 50 45
21 47 43
22 49 45
21 47 43
22 49 44
22 48 43
22 48 43
23 49 44
21 47 42
23 50 45
22 47 43
22 48 44
23 50 45
22 48 43
23 50 45
23 50 45
22 49 44
23 51 46
22 48 44
22 48 43
23 49 45
22 48 44
23 50 45
21 45 41
21 46 42
21 46 41
21 45 41
22 48 44
21 47 42
21 46 42
21 46 42
22 47 42
22 47 42
21 46 42
21 46 42
21 46 42
22 47 43
22 48 43
21 46 41
21 45 41
21 46 42
22 48 43
22 49 44
21 47 43
21 46 42
21 46 42
21 47 42
21 47 43
21 47 42
94 90 84
152 138 129
156 144 136
163 152 145
169 158 150
175 162 154
179 166 157
182 168 159
185 170 161
189 174 164
174 158 152
83 56 94
85 57 95
86 58 96
88 59 96
89 59 96
90 59 96
89 59 95
89 58 92
89 58 92
115 92 102
31 51 46
21 46 42
21 47 42
22 48 43
22 48 43
22 48 43
23 49 44
21 47 42
22 48 44
22 48 44
22 49 44
22 48 43
21 47 42
22 48 43
22 47 43
22 49 44
22 47 42
22 47 43
22 49 44
22 49 44
22 48 43
22 47 43
22 49 44
22 48 43
22 49 44
22 48 43
22 48 43
22 48 44
22 48 43
22 48 43
23 49 44
22 48 43
22 49 44
131 116 104
222 124 90
228 110 66
228 111 66
228 111 67
230 112 67
231 112 68
234 115 70
243 129 86
255 166 122
255 196 149
255 176 130
253 147 109
244 158 128
244 173 146
243 152 120
140 84 62
22 48 43
22 49 44
22 48 44
23 49 45
22 48 44
22 47 43
22 49 44
22 49 44
22 49 44
22 47 43
22 47 42
22 49 44
22 49 44
22 49 44
22 47 43
22 49 44
23 50 45
22 48 43
22 48 43
22 49 44
22 48 44
22 48 43
22 49 44
22 48 43
22 48 43
23 50 45
22 48 43
23 50 45
23 50 45
22 49 44
22 49 44
22 49 44
22 49 44
22 48 44
22 49 44
22 48 44
22 49 44
23 49 44
23 51 46
23 49 45
22 48 44
22 49 44
22 48 44
22 48 44
22 49 44
23 49 45
22 49 44
23 50 45
22 48 44
22 48 44
23 49 45
22 49 44
23 50 45
23 51 46
22 48 44
23 49 44
23 50 45
22 49 44
23 49 44
22 49 44
22 49 44
22 49 44
23 50 45
22 49 44
22 49 44
22 49 44
22 47 43
23 50 45
22 49 44
22 49 44
22 48 44
23 49 45
22 49 44
22 48 44
23 49 44
24 51 46
22 49 44
23 49 44
22 48 44
22 49 44
22 48 43
23 49 45
22 48 44
23 50 45
23 50 45
22 47 43
22 49 44
22 49 44
22 49 44
23 49 45
22 48 44
23 49 45
23 51 46
23 50 45
23 50 45
22 48 43
23 50 45
22 49 44
22 49 44
22 49 44
23 49 45
23 50 45
23 50 46
21 45 41
21 45 41
21 45 40
21 47 42
22 48 44
21 46 41
20 44 40
22 48 43
21 46 42
22 48 44
21 46 42
22 47 43
22 49 44
21 46 42
21 45 41
21 46 42
22 47 43
21 47 42
21 47 43
22 47 43
22 47 43
22 48 43
22 48 44
21 47 42
22 47 43
22 47 43
119 110 102
140 129 121
151 140 132
160 149 141
164 153 145
166 155 147
171 159 151
174 161 154
180 166 157
183 169 159
112 93 110
81 55 91
82 55 92
83 56 92
84 57 93
84 56 91
85 56 91
86 57 91
83 54 86
86 56 90
131 108 110
96 91 81
22 48 43
21 47 42
23 50 45
21 46 42
22 49 44
22 47 43
21 47 42
22 48 43
22 49 44
21 46 42
22 49 44
22 49 44
21 47 42
22 48 44
22 48 43
21 47 42
21 47 42
22 48 43
22 48 43
22 48 43
22 49 44
22 49 44
23 50 45
23 51 46
21 46 42
22 47 43
22 48 44
22 49 44
23 49 45
22 48 43
22 49 44
106 101 93
202 128 103
216 104 63
218 106 64
219 107 65
220 107 65
221 108 65
222 109 66
224 110 66
227 111 68
232 117 74
240 132 91
234 179 155
225 202 185
223 200 184
227 202 184
226 201 182
216 181 160
91 77 66
22 48 44
22 48 43
22 48 44
22 48 43
22 48 43
22 48 43
22 48 43
21 46 42
22 48 43
22 48 44
22 47 43
23 49 45
22 49 44
22 49 44
22 49 44
22 48 43
22 48 44
22 48 43
22 48 44
22 48 43
22 49 44
22 48 43
22 48 43
23 49 44
22 48 43
22 49 44
22 49 44
21 46 42
22 48 44
22 49 44
23 50 45
22 48 43
23 50 45
23 50 45
23 50 45
22 49 44
23 51 46
22 48 43
22 48 43
29 53 48
109 104 93
176 158 143
202 180 162
229 204 184
225 200 180
217 193 174
200 178 160
138 128 116
56 65 59
23 50 45
22 48 44
23 49 45
23 50 45
23 50 45
22 49 44
22 48 44
23 50 45
22 48 44
23 49 45
22 49 44
22 48 44
22 49 44
23 49 45
23 49 45
23 50 45
23 50 45
21 47 42
23 50 45
22 47 43
22 48 43
23 49 45
22 48 44
22 49 44
22 48 44
23 49 44
22 49 44
23 50 45
22 48 44
22 48 44
23 50 45
22 49 44
22 49 44
23 49 45
23 49 45
21 47 43
22 49 44
21 46 41
22 48 44
22 48 43
23 50 45
23 50 45
23 50 45
22 48 44
23 50 46
22 48 44
22 49 45
22 48 44
22 49 44
23 50 45
23 50 45
23 49 45
22 49 44
21 45 40
21 45 41
21 45 41
21 46 41
22 48 43
21 46 41
22 47 42
21 46 42
22 47 43
21 46 42
21 46 42
21 46 41
21 45 41
21 46 42
22 47 42
21 46 42
21 47 43
20 44 40
21 47 43
21 46 42
22 48 43
22 47 43
21 47 43
21 46 42
21 47 43
22 48 44
120 111 104
145 133 124
148 137 129
149 139 132
157 146 139
161 150 142
165 154 146
164 153 145
166 154 145
141 128 128
74 50 85
75 51 85
76 51 85
78 53 88
78 53 87
79 52 85
80 53 87
80 52 85
80 53 85
79 51 82
142 120 116
102 96 84
21 46 42
21 46 41
23 50 45
21 47 42
21 46 42
22 48 43
22 49 44
21 47 43
22 48 43
22 47 42
21 46 42
22 48 43
22 48 43
22 48 44
22 48 43
22 47 43
21 45 41
22 49 44
22 48 43
22 47 43
22 48 43
22 48 44
22 48 43
22 49 44
22 47 43
22 48 44
21 46 42
22 47 43
22 48 43
21 47 42
40 56 51
171 134 119
198 97 58
209 102 61
211 103 62
211 103 63
212 104 63
213 105 64
215 106 64
217 106 65
218 107 65
218 123 90
209 177 162
209 190 177
212 192 178
215 194 179
220 197 180
219 195 178
217 192 173
178 157 141
30 51 46
22 48 43
22 49 44
22 48 43
22 48 44
21 46 42
22 48 44
22 47 43
22 48 43
22 48 43
22 48 43
22 48 43
22 48 44
21 47 42
22 48 44
22 49 44
22 49 44
22 47 43
23 50 45
22 49 44
22 49 44
22 48 44
22 48 43
23 49 45
23 50 45
22 48 44
22 48 44
22 49 44
22 48 44
22 48 44
22 49 44
22 48 43
23 50 45
22 48 44
23 49 44
22 47 43
22 49 44
22 48 44
115 108 97
213 189 171
235 209 190
236 210 191
235 209 191
236 210 192
236 211 193
236 211 193
237 211 193
239 212 193
236 209 189
185 166 150
72 76 68
22 49 44
21 47 42
22 48 43
22 49 44
22 47 43
22 49 44
23 50 45
22 48 44
23 49 45
22 48 43
22 48 43
22 48 44
22 49 44
22 48 44
22 48 44
22 49 45
23 50 45
22 48 44
21 47 42
22 49 44
22 48 43
23 49 45
23 50 45
23 49 45
23 50 45
23 50 45
23 49 45
22 49 45
23 50 45
23 49 45
22 48 43
22 49 44
23 51 46
23 50 45
22 48 43
22 49 44
22 49 44
22 49 44
22 49 44
23 50 45
22 49 44
23 50 45
22 48 44
22 49 44
22 49 44
22 49 44
22 49 44
22 48 43
23 50 46
22 48 44
23 49 45
21 45 41
21 46 42
21 45 40
21 45 41
20 44 40
21 45 40
20 44 40
20 44 40
21 45 41
21 47 42
22 48 43
21 47 42
21 47 42
21 46 42
22 47 43
22 47 43
22 47 43
22 48 43
21 47 43
21 47 42
21 46 41
21 47 42
21 45 41
22 48 43
21 46 42
22 48 43
119 109 100
142 130 122
143 132 124
146 136 129
152 141 133
160 148 140
155 144 136
162 150 142
153 142 135
81 63 86
69 47 79
71 49 82
70 48 79
73 49 82
73 49 81
73 49 80
73 49 79
72 48 77
72 47 76
72 47 75
153 133 121
105 99 88
22 47 43
22 48 43
21 46 42
22 48 44
22 48 43
22 47 42
22 48 43
22 47 43
21 47 42
21 46 42
22 48 43
21 46 42
21 47 42
22 48 44
21 47 43
22 49 44
21 46 42
23 49 45
22 49 45
21 46 42
22 48 44
22 48 44
22 47 43
23 49 44
22 47 43
22 47 42
22 48 44
21 47 42
22 47 43
21 47 42
99 96 89
178 106 82
188 91 55
193 95 58
201 99 60
203 100 61
204 100 61
205 101 62
207 102 62
209 103 63
210 111 76
200 170 157
199 182 171
202 184 172
206 186 173
208 188 175
212 190 174
209 187 171
212 188 170
206 182 164
108 102 91
22 49 44
22 48 43
22 47 43
22 47 43
22 47 43
22 49 44
22 49 44
22 48 43
22 49 44
22 49 44
23 49 45
22 48 43
22 48 43
21 47 42
22 47 43
22 48 43
22 47 42
22 49 44
22 48 44
22 49 44
22 49 44
23 50 45
22 49 44
23 50 45
23 49 45
22 48 44
22 49 44
22 48 43
22 48 44
22 48 43
22 47 43
22 49 44
22 49 44
22 49 44
23 50 45
22 48 43
31 42 42
136 123 113
226 202 185
227 203 186
226 203 187
231 208 191
250 226 205
255 245 220
255 240 216
243 219 199
230 207 190
231 207 189
233 208 189
220 195 176
114 108 97
22 49 44
22 48 43
23 49 45
22 48 44
22 49 44
22 49 44
21 47 42
22 48 44
23 50 45
23 51 46
22 49 44
23 49 45
22 48 43
22 48 44
22 48 43
23 49 45
22 49 44
22 48 44
22 47 43
23 50 45
22 48 43
22 49 45
22 47 43
22 48 43
23 50 45
22 48 43
22 48 44
22 48 43
22 48 44
23 49 45
23 50 45
22 49 44
23 49 45
23 50 46
22 48 44
21 47 42
23 50 45
22 49 44
22 49 44
22 49 44
22 49 44
22 49 44
23 50 45
22 48 44
22 49 44
22 47 43
22 49 44
22 48 44
22 48 44
22 49 44
21 46 41
21 45 41
21 46 41
21 46 42
22 48 43
21 44 40
21 45 41
22 48 43
21 45 41
22 46 42
22 47 43
22 47 43
21 46 42
21 47 42
21 47 43
22 47 43
22 47 42
22 48 44
21 46 42
22 48 43
21 47 42
22 47 43
21 46 42
22 47 43
21 47 42
21 45 41
112 103 95
132 118 110
137 126 119
144 133 125
147 136 128
147 137 129
153 142 134
147 136 128
98 84 94
63 43 73
102 88 97
98 87 90
97 87 87
102 91 93
95 80 91
68 45 74
70 46 75
67 44 72
65 43 69
89 70 82
149 132 117
94 90 79
21 46 42
21 46 42
21 46 42
21 47 42
21 46 42
22 47 43
21 47 42
22 48 43
22 47 43
21 47 42
22 48 43
22 47 43
22 49 44
22 49 44
22 48 43
22 47 43
21 46 42
22 48 44
21 47 42
22 48 43
22 49 44
22 48 43
22 48 44
22 47 43
22 49 44
22 49 44
22 48 43
22 47 43
21 47 42
21 47 43
138 117 107
167 82 50
176 87 53
184 91 56
190 94 57
195 96 59
197 97 60
199 98 60
200 99 60
203 100 62
193 154 140
191 175 165
193 177 166
197 179 167
200 181 169
201 182 169
200 179 165
200 179 165
194 173 158
191 169 153
153 138 124
22 48 44
22 48 43
23 50 45
22 47 43
22 47 43
22 49 44
22 48 43
22 48 43
22 48 44
24 52 47
22 48 43
22 48 44
23 49 44
22 48 44
22 49 45
22 49 44
22 48 43
22 49 44
22 49 44
22 49 44
22 48 43
22 48 43
23 50 45
23 51 46
23 50 45
22 49 44
22 48 43
22 48 43
22 48 43
22 48 44
22 48 43
22 48 43
22 49 44
22 47 43
22 48 44
31 43 42
36 38 42
36 39 43
132 120 112
214 193 179
217 196 182
222 201 186
238 216 197
255 236 213
255 237 213
243 221 201
225 204 187
223 200 184
225 201 185
227 202 185
218 194 176
120 113 101
22 48 43
23 49 45
22 48 43
23 50 45
22 48 44
23 50 45
22 49 44
22 48 43
22 47 43
22 49 44
22 48 43
22 48 43
21 47 42
22 49 44
22 49 44
23 50 45
22 48 44
22 48 44
23 50 45
23 50 45
22 48 44
21 47 42
23 50 45
23 49 45
23 50 45
23 50 45
22 49 44
22 48 44
22 49 44
22 49 44
22 49 44
22 48 43
23 50 45
21 47 42
22 49 44
22 49 45
21 47 42
22 49 44
22 48 43
23 50 45
22 49 44
23 51 46
23 50 46
22 49 44
22 48 43
23 50 45
22 49 44
23 50 45
23 49 45
20 43 39
20 43 39
21 45 41
21 45 40
21 46 42
21 45 40
21 45 41
22 48 43
21 46 42
21 46 42
22 47 43
21 46 42
22 49 44
21 47 42
21 46 42
21 46 42
22 47 43
21 45 41
22 47 43
21 46 42
22 47 43
21 46 42
20 45 41
20 45 41
21 46 41
21 47 42
106 98 90
125 114 106
129 118 109
134 124 116
130 121 113
142 131 122
138 127 119
109 97 102
66 47 75
93 84 84
99 92 86
131 121 114
136 126 118
128 118 111
88 81 76
90 78 80
60 41 66
59 39 63
58 38 62
106 91 88
133 117 103
57 63 55
20 44 40
21 46 41
22 48 43
22 47 43
22 49 44
22 48 44
22 47 43
21 46 41
21 46 42
22 48 43
22 47 43
21 46 41
20 45 40
22 48 43
22 49 44
22 47 43
21 47 42
21 47 42
22 48 43
23 49 44
22 47 43
22 48 43
22 48 43
21 47 42
22 48 43
22 49 44
22 49 44
22 47 43
22 48 44
47 60 55
138 101 88
160 79 49
160 80 49
172 86 53
177 88 54
182 91 56
187 93 57
190 94 58
192 95 59
191 123 101
181 167 159
185 170 160
186 171 161
190 174 163
192 175 163
190 173 161
188 170 157
191 172 159
185 166 151
180 160 145
169 150 135
23 50 46
22 49 44
22 48 43
23 49 44
22 48 43
22 49 44
22 49 44
22 48 43
22 49 44
22 48 43
22 47 43
22 49 44
22 49 44
23 50 45
22 48 43
22 48 44
22 48 44
22 47 43
22 47 42
22 48 43
22 48 43
22 48 44
21 47 42
23 49 45
22 48 44
23 49 45
23 51 46
22 48 44
22 48 43
23 50 45
22 49 44
22 49 44
22 49 44
22 49 44
29 41 40
34 36 40
35 37 41
35 38 42
35 38 42
121 111 105
193 176 164
209 190 177
210 191 178
212 193 180
213 194 181
214 194 181
213 193 180
214 193 179
216 195 180
219 196 181
220 197 180
207 185 167
87 86 78
23 49 45
22 48 44
22 48 43
22 48 43
22 49 44
23 50 45
22 48 44
22 48 43
22 48 44
22 49 44
22 48 44
22 48 43
22 47 43
22 48 43
22 49 44
22 48 43
22 49 44
22 48 44
23 50 45
22 48 44
23 50 45
22 48 43
22 47 43
22 49 45
22 49 44
22 48 43
24 51 46
23 50 45
22 49 44
22 48 44
22 48 44
22 49 44
22 49 45
22 49 44
22 48 43
23 50 45
23 50 45
22 49 44
21 47 42
23 50 45
22 49 44
24 51 47
22 49 44
22 49 44
23 49 45
22 49 44
22 48 43
22 49 44
20 44 39
21 45 40
21 45 40
21 45 41
21 46 41
21 45 40
21 46 41
21 45 41
21 46 41
22 48 44
22 47 42
22 47 43
22 47 43
22 48 43
21 46 42
22 47 43
21 46 42
21 45 41
22 47 43
21 46 42
22 47 42
22 47 43
21 46 42
21 47 42
21 45 41
21 45 41
82 79 72
113 103 94
120 111 103
124 115 106
127 118 110
129 119 111
97 86 89
55 38 63
93 83 85
103 95 89
134 124 116
140 129 120
132 122 113
131 121 113
119 110 102
82 76 70
66 53 63
49 33 53
56 42 56
115 104 94
115 103 91
27 48 43
21 46 42
21 46 41
21 46 41
22 47 43
21 47 42
22 47 42
22 48 43
21 46 42
21 46 41
22 48 43
21 47 42
21 47 42
21 46 42
22 48 43
21 46 42
21 47 42
22 48 43
21 46 42
22 47 43
21 47 42
22 47 43
21 47 42
21 47 42
22 47 43
21 45 41
22 49 44
22 47 42
22 48 43
23 49 44
63 69 64
137 80 61
156 77 47
164 81 49
168 83 51
173 86 53
174 86 53
178 89 54
180 90 55
182 92 57
171 151 141
171 159 150
174 161 151
173 159 150
174 160 150
178 163 153
176 161 150
172 156 145
174 157 146
171 154 141
170 152 139
165 146 132
55 65 59
22 47 42
22 47 42
23 50 45
22 47 42
22 48 43
22 48 43
23 49 44
22 49 44
22 49 44
22 48 43
22 48 43
22 48 43
22 48 43
22 48 43
22 49 44
22 49 44
21 47 42
21 47 42
22 47 43
22 49 44
22 48 43
23 51 46
22 49 44
22 47 43
22 48 44
23 49 45
23 49 45
22 48 44
22 47 43
22 49 44
22 49 44
21 47 42
24 44 41
31 34 36
33 35 39
34 36 40
34 37 41
34 37 41
33 36 41
44 45 47
148 136 128
200 183 172
201 184 173
202 185 173
202 185 174
204 186 174
207 188 175
208 188 175
210 190 176
211 190 175
209 187 171
185 166 150
30 51 46
22 48 43
22 49 44
21 47 43
22 48 44
23 49 45
22 49 44
22 49 44
22 48 44
22 49 44
22 48 43
21 47 43
22 49 44
22 47 43
23 50 45
22 49 44
22 49 44
23 51 46
22 47 43
22 49 45
22 48 43
23 51 46
22 49 44
22 47 43
23 50 45
21 46 42
22 49 44
22 48 43
23 50 45
22 48 44
22 48 44
22 49 44
22 48 43
22 49 44
22 47 43
22 49 44
23 50 45
22 48 44
23 50 45
23 49 45
22 48 43
22 48 43
22 49 45
23 50 45
23 51 46
22 49 44
22 49 45
23 49 45
20 43 38
20 44 39
20 44 39
20 44 40
20 44 40
22 46 42
22 48 43
21 47 42
21 46 41
21 45 40
21 45 41
21 45 41
22 47 43
21 47 42
21 46 42
21 47 43
21 46 42
21 47 42
20 45 40
21 46 42
21 45 41
22 48 43
21 45 41
21 47 42
21 46 42
21 45 40
39 52 47
103 94 86
104 96 88
116 107 99
123 113 105
87 77 79
49 34 55
54 40 59
76 70 66
126 117 108
90 82 76
64 59 55
111 102 94
112 104 95
120 111 102
81 75 69
74 64 68
38 26 41
85 76 71
88 80 70
78 75 66
21 45 41
21 45 40
21 47 42
21 46 42
22 46 41
21 46 41
21 46 41
21 46 42
21 47 42
22 48 43
21 47 42
21 47 42
21 46 42
21 46 42
21 45 41
21 46 41
22 48 43
21 46 42
22 48 44
21 47 42
22 48 43
21 47 42
22 47 43
21 46 42
21 46 41
21 45 41
21 47 42
21 46 41
21 47 42
20 44 40
65 71 65
134 72 50
134 94 81
113 91 81
152 104 88
170 85 53
169 84 51
167 83 51
173 86 53
168 110 90
162 150 143
161 150 141
157 146 138
162 151 143
165 153 144
166 153 143
160 147 137
159 146 136
165 150 139
154 139 127
160 143 131
156 140 126
57 64 57
22 47 43
22 47 43
22 47 42
22 47 42
21 46 41
22 48 44
23 49 44
22 48 43
22 47 43
22 47 43
22 47 42
22 48 44
22 48 43
21 47 42
23 49 44
22 48 43
22 49 44
23 50 45
22 49 44
22 48 43
22 48 43
21 47 42
22 48 43
22 48 43
22 48 43
22 48 44
22 48 44
22 48 43
23 49 45
22 48 43
22 47 42
23 49 45
28 36 36
30 32 35
31 34 37
32 35 38
32 35 39
32 35 39
32 35 39
32 35 40
32 35 40
98 92 88
176 162 153
194 179 168
195 179 169
197 180 169
199 182 170
201 183 171
203 184 171
202 182 168
201 181 166
193 172 157
97 95 86
22 48 43
22 47 43
23 49 44
23 49 45
23 50 45
23 50 45
22 47 43
22 47 43
22 48 43
22 49 44
22 47 43
22 47 43
22 48 43
22 49 44
22 48 43
22 48 43
22 48 43
21 47 42
22 48 43
23 49 45
21 47 42
22 47 43
22 49 44
22 48 43
22 49 44
22 49 44
23 50 45
23 50 45
22 48 43
22 47 43
22 49 44
21 46 42
22 47 43
22 48 43
22 49 44
22 49 44
22 47 43
21 47 42
22 48 44
22 48 43
22 47 43
22 48 43
23 50 45
21 46 42
22 48 43
22 49 44
23 49 45
20 44 39
21 44 40
21 45 40
20 44 40
21 45 41
20 44 40
21 45 40
22 47 43
22 47 43
21 46 41
21 45 41
21 45 40
22 47 43
21 46 41
21 46 42
21 45 41
21 46 42
22 47 42
21 46 41
21 46 42
22 48 43
21 46 42
21 47 42
21 47 42
20 44 40
21 46 42
21 45 40
76 71 65
95 88 80
87 79 76
62 53 60
47 32 53
44 31 50
49 35 53
83 77 71
114 106 98
113 104 96
73 69 62
25 24 22
74 69 64
106 98 90
78 73 66
57 48 52
53 45 50
74 67 58
76 69 59
46 56 49
21 46 41
21 45 40
21 46 41
21 46 41
22 48 43
21 46 42
21 46 41
21 45 40
22 49 44
22 48 43
22 47 42
22 47 43
21 46 42
21 46 42
22 47 43
21 47 42
22 48 43
22 49 44
22 48 43
22 47 43
21 47 42
21 46 42
21 47 42
22 48 44
22 47 43
22 47 43
22 49 44
22 47 43
22 47 43
22 48 43
61 65 60
117 73 57
108 99 92
130 120 112
109 101 95
121 91 80
160 81 51
168 83 51
164 82 50
159 123 110
158 147 139
157 145 137
151 140 133
153 142 134
152 141 133
151 140 132
151 139 130
143 131 122
134 123 115
138 126 117
139 126 115
132 120 109
43 56 50
22 48 43
22 48 44
21 46 41
22 47 43
22 48 44
22 48 43
22 46 42
21 46 42
22 47 42
22 47 43
22 49 44
22 48 43
22 48 43
21 47 42
22 48 43
22 47 43
22 49 44
22 48 43
23 50 45
23 49 44
22 48 43
22 47 42
21 47 42
22 48 43
22 48 43
22 48 43
22 48 43
22 48 44
22 48 43
23 50 45
22 47 43
22 46 42
27 29 32
29 31 35
30 32 36
30 33 36
31 34 38
31 34 38
31 34 38
31 34 38
31 34 38
31 34 39
31 34 39
112 104 100
178 163 154
190 175 165
192 176 165
194 177 166
193 176 165
192 174 161
188 170 158
184 166 153
152 138 125
23 50 45
21 47 42
22 47 42
22 49 44
22 49 44
22 48 43
22 47 43
23 49 45
23 50 45
22 49 44
22 48 43
22 48 43
23 49 44
22 48 43
22 48 43
23 49 45
22 47 43
22 49 44
23 50 45
22 48 43
22 48 44
23 49 44
22 49 44
22 48 44
23 49 45
22 49 44
23 50 45
23 49 45
22 48 44
22 48 44
22 48 44
22 48 43
22 48 43
22 48 44
21 47 43
23 50 45
22 48 43
23 50 45
22 49 44
22 48 43
23 50 45
22 49 44
22 48 43
22 47 43
22 48 43
23 50 45
23 50 45
21 45 40
21 45 40
21 45 41
20 44 40
20 44 39
21 45 41
21 46 41
21 47 42
21 47 42
21 46 42
22 47 43
21 47 42
22 47 43
22 47 43
21 47 42
21 46 41
21 45 41
21 46 42
21 45 41
21 46 41
21 46 41
22 47 42
21 47 43
21 46 42
20 44 39
21 46 41
21 45 41
24 42 39
39 29 41
38 26 43
38 26 43
40 27 44
39 27 43
44 30 49
65 59 58
82 78 70
97 91 83
97 91 82
91 85 77
63 59 54
91 85 77
57 53 50
41 33 42
60 58 51
67 62 51
57 57 48
20 43 38
21 45 40
22 47 42
21 46 41
21 46 41
21 45 41
21 46 42
21 46 42
22 47 43
22 48 43
22 47 43
21 47 42
22 48 43
22 48 43
22 47 42
21 45 41
22 47 42
22 48 43
21 46 41
22 48 44
22 48 44
22 48 44
22 47 43
23 50 45
22 48 43
22 48 43
22 48 43
21 46 41
22 49 44
21 46 42
21 47 42
39 54 49
98 69 58
111 103 95
122 113 105
132 122 114
101 93 87
138 94 79
151 75 45
154 79 50
142 130 121
149 138 130
141 131 123
140 131 123
144 133 125
139 129 121
140 130 122
146 135 127
138 128 120
139 128 120
125 115 107
121 112 103
102 94 85
32 51 46
21 46 42
22 48 43
22 47 42
22 46 42
21 46 42
22 47 42
23 50 45
21 46 42
22 48 43
22 47 43
21 46 41
22 47 42
22 49 44
21 46 41
22 48 43
23 49 45
22 47 43
22 48 44
22 48 43
23 49 44
22 47 43
23 50 45
22 47 43
21 47 42
22 48 43
22 49 44
22 47 43
22 48 43
22 47 42
22 47 43
22 48 43
23 40 38
25 27 30
26 28 31
27 30 33
28 31 34
29 32 36
29 32 36
29 33 37
29 33 37
30 33 37
30 33 37
30 33 37
30 33 38
37 39 42
111 103 99
169 156 148
186 170 160
185 169 158
179 163 151
178 163 151
172 156 143
165 149 136
50 63 57
22 48 44
23 50 45
22 48 44
22 49 44
22 49 44
22 48 43
21 47 42
22 48 43
22 48 43
22 48 43
22 48 44
22 48 43
23 51 46
22 48 43
23 50 45
22 49 44
22 48 44
22 49 44
22 48 43
22 48 43
22 49 44
22 49 44
22 49 44
21 46 42
22 48 43
23 49 45
22 49 44
22 49 44
22 47 43
23 49 45
22 47 43
23 51 46
22 47 43
23 49 45
21 47 42
22 47 43
22 49 45
22 49 44
23 50 45
23 50 45
22 49 44
22 49 44
23 49 45
23 50 45
21 47 42
22 48 44
20 45 40
21 45 40
21 45 41
21 45 40
21 46 41
21 45 40
21 46 41
20 44 40
20 44 40
21 46 42
21 46 42
21 45 41
22 48 44
22 48 44
21 45 41
21 45 41
22 47 43
21 45 41
22 47 43
21 47 42
21 46 42
20 45 40
21 45 41
21 46 42
20 44 40
19 41 37
19 41 37
18 40 37
20 33 32
27 20 31
30 21 34
30 21 34
28 20 32
32 23 37
48 40 48
52 49 45
82 77 69
77 73 66
73 70 62
70 67 60
44 43 39
39 35 37
38 41 35
48 48 38
48 49 40
20 43 38
20 43 38
20 43 38
21 45 40
21 45 40
21 45 40
21 44 39
20 44 40
22 47 42
21 47 42
22 47 42
22 48 43
21 46 41
21 46 42
22 48 43
22 47 42
21 47 42
22 48 43
22 47 43
21 47 42
22 48 43
22 48 43
21 47 42
22 48 44
22 48 43
22 48 43
22 48 43
22 47 43
22 48 43
21 46 41
21 45 41
21 47 42
28 49 44
96 73 63
89 82 76
110 102 94
127 117 109
124 115 106
99 90 83
145 76 50
150 88 66
141 130 122
140 129 121
147 136 127
137 127 118
137 126 117
124 115 108
140 129 120
134 123 115
127 117 109
121 111 103
121 111 103
101 94 87
77 75 68
21 46 41
22 47 43
21 46 42
22 48 43
22 47 42
22 47 42
22 47 42
22 48 43
22 48 44
22 48 43
21 46 42
22 49 44
22 47 42
21 46 42
22 47 42
22 48 44
22 48 43
23 49 44
22 47 43
22 48 43
21 47 42
22 47 43
22 48 43
22 48 43
22 47 43
22 49 44
21 46 42
21 47 42
22 47 43
22 48 43
21 46 42
22 48 43
21 35 34
23 25 27
24 26 29
24 26 30
25 27 31
26 29 33
27 30 34
27 31 35
28 31 36
28 31 35
28 32 36
29 32 36
28 32 36
28 31 36
29 32 36
28 31 35
105 98 94
154 142 133
169 155 146
159 146 136
162 147 137
154 140 129
80 81 74
22 47 43
22 49 44
22 48 43
22 49 44
22 48 43
20 45 40
23 50 45
22 48 44
22 48 43
22 48 44
23 50 45
22 49 44
22 48 44
22 49 44
22 48 43
23 49 45
23 50 45
22 47 43
23 50 45
23 49 45
22 48 43
21 46 42
23 50 45
22 47 43
22 48 43
22 47 43
22 49 44
22 48 44
23 49 45
23 50 45
23 51 46
23 50 46
22 49 45
23 49 45
23 50 46
22 48 43
23 50 45
22 48 44
22 48 44
22 48 43
22 49 44
22 48 44
23 51 46
21 47 43
23 50 45
23 50 45
20 44 40
21 46 42
21 45 40
20 44 40
21 45 41
20 44 39
21 46 41
21 45 41
21 46 42
21 45 41
21 45 41
20 45 40
21 47 42
21 46 42
20 44 40
21 46 42
21 47 42
21 47 42
21 46 41
21 46 42
21 46 41
20 44 40
20 43 39
19 42 38
19 41 37
17 38 35
16 35 32
14 31 29
13 29 28
14 23 24
18 15 22
21 15 25
21 16 25
27 19 30
20 15 24
36 31 34
33 32 31
31 31 28
25 28 25
34 33 31
17 16 20
29 32 27
41 43 32
34 39 29
19 40 35
19 40 35
20 43 38
20 43 38
20 43 39
21 44 40
21 45 40
21 47 42
21 44 40
22 47 42
21 46 42
21 45 40
22 47 43
21 45 41
21 46 42
22 47 43
22 47 42
21 46 42
22 48 43
21 46 41
22 47 42
22 48 43
22 48 43
22 47 43
22 48 43
21 47 42
21 47 42
22 48 43
21 47 42
21 45 40
21 46 41
22 47 43
22 47 42
22 48 43
66 50 41
88 81 74
41 38 35
58 54 50
110 101 94
100 92 85
138 85 66
140 86 66
137 126 117
132 122 113
123 114 105
131 120 112
126 117 109
132 122 113
113 106 97
122 113 104
105 98 91
112 103 94
101 93 85
92 85 77
55 60 53
22 47 42
22 47 42
21 46 41
23 49 44
21 45 40
21 47 42
22 47 43
22 47 42
22 47 43
22 47 42
21 45 41
21 47 42
22 48 43
22 48 43
22 47 42
22 47 43
22 48 44
22 47 43
21 46 41
22 48 43
21 47 42
22 48 43
22 47 43
22 48 43
22 48 43
21 47 42
23 49 45
22 47 43
22 47 43
22 48 43
21 45 41
21 46 41
20 29 29
21 23 25
23 25 28
23 26 29
25 27 31
25 28 31
26 29 33
26 29 33
25 28 32
27 30 34
27 30 34
27 30 34
27 30 34
27 30 34
27 30 34
26 29 33
26 29 33
25 28 32
69 65 63
110 102 97
134 123 115
131 121 112
72 75 69
23 49 44
22 48 43
22 48 43
22 47 42
22 49 44
22 48 43
22 49 44
22 48 43
21 47 42
22 47 43
22 48 44
22 48 43
22 47 43
22 48 44
23 50 45
22 48 43
22 48 44
22 49 44
21 46 42
22 48 44
22 48 44
22 48 43
22 48 44
22 48 43
22 47 43
22 48 44
23 50 45
21 47 42
22 48 44
22 47 43
22 48 44
22 48 44
23 49 45
23 49 45
22 48 44
21 47 42
22 48 43
23 50 45
22 47 43
23 50 45
22 49 44
23 50 45
23 50 45
21 46 42
22 48 43
22 47 43
20 44 40
20 45 41
21 45 40
21 46 42
21 47 42
21 45 41
21 45 41
21 46 42
21 45 41
21 46 41
20 45 40
21 46 42
21 46 42
22 47 43
21 45 41
22 47 43
21 45 41
20 45 41
21 46 41
21 46 42
20 43 39
19 42 38
18 40 37
17 38 35
16 37 34
14 32 30
12 29 28
11 25 24
11 26 25
10 23 22
9 21 20
8 13 15
11 10 14
8 8 12
8 8 12
10 10 14
6 8 11
8 9 13
6 9 12
13 14 14
22 28 21
24 31 23
22 29 23
14 31 27
18 38 33
19 41 36
20 43 38
20 44 39
19 42 37
21 45 40
21 46 41
21 45 40
21 46 41
21 46 41
21 46 41
21 46 41
21 45 41
21 46 42
21 45 41
21 47 42
21 45 41
21 46 41
21 46 42
22 47 43
21 47 42
22 47 43
21 45 41
21 45 41
22 48 43
21 46 42
21 46 41
22 48 43
21 46 42
21 47 42
21 47 42
22 47 42
22 48 43
21 45 40
40 46 40
73 66 59
92 86 78
80 75 69
89 83 76
84 78 72
115 80 67
119 79 64
115 106 97
111 103 95
116 108 100
114 105 97
113 105 97
113 105 96
99 93 85
94 88 80
111 103 94
96 89 81
88 82 74
67 66 59
33 50 44
21 46 42
22 46 41
22 47 42
21 46 41
21 45 41
22 48 43
22 47 43
22 48 43
22 48 43
22 48 44
22 47 43
22 48 43
22 47 42
22 48 43
22 48 43
22 47 42
22 48 44
22 47 42
21 46 42
22 47 42
21 46 42
22 47 42
22 47 42
23 49 44
22 48 43
22 47 43
22 47 43
21 46 42
22 49 44
22 48 43
22 47 42
22 47 42
27 34 32
21 23 25
22 24 27
22 24 27
23 25 28
23 26 30
25 28 31
26 29 32
26 29 33
25 28 32
26 29 33
26 29 33
26 29 33
25 28 32
26 29 33
25 28 32
24 27 30
24 27 31
25 27 31
23 26 29
23 25 28
37 36 36
22 41 38
22 48 44
22 48 44
22 48 43
21 47 42
23 50 45
22 49 44
22 49 44
22 48 44
22 47 43
22 48 43
21 47 42
22 49 44
22 48 43
22 48 44
22 48 44
22 48 43
22 48 44
22 48 43
22 49 44
22 49 44
21 47 42
22 49 44
24 52 47
22 48 44
22 48 43
22 49 44
22 48 43
23 50 45
22 48 43
21 47 43
22 49 44
22 48 43
22 49 44
22 48 44
22 47 43
21 47 42
23 49 45
21 47 42
22 49 45
21 47 43
23 49 45
22 47 43
22 48 44
22 49 44
23 49 45
22 47 43
20 45 40
21 46 41
21 45 40
21 46 42
21 46 41
20 44 40
21 46 41
21 45 41
21 47 43
21 46 42
21 47 43
22 48 44
21 45 41
21 47 43
22 47 43
21 47 42
21 46 41
21 46 41
20 45 41
20 44 40
19 43 39
18 40 36
16 37 34
15 34 32
13 31 29
13 30 29
12 29 28
11 27 25
11 26 25
11 27 26
10 24 23
10 23 22
7 15 15
5 11 12
4 7 9
4 7 9
4 6 9
5 7 9
7 11 11
11 17 14
10 19 16
7 17 16
9 21 20
14 30 27
18 38 34
19 41 36
20 42 38
20 43 38
20 44 39
20 44 39
21 45 40
20 44 39
21 46 41
22 47 43
21 45 40
20 45 40
21 45 40
22 47 42
22 47 42
22 47 42
22 47 43
21 46 41
21 45 41
22 48 43
22 48 43
21 47 42
21 47 42
21 46 42
22 47 43
22 48 44
21 46 41
22 48 43
21 45 41
21 46 41
22 47 43
21 45 40
21 46 41
21 46 41
21 45 40
63 44 34
68 65 58
73 70 63
89 84 76
64 60 54
98 65 52
107 67 52
102 95 86
99 93 84
97 91 82
101 94 86
103 96 87
91 86 78
100 93 85
89 84 76
84 79 71
74 71 64
70 67 59
45 53 47
21 44 39
21 44 39
22 46 41
21 45 40
21 46 41
21 46 41
22 46 42
22 47 43
21 46 41
22 47 43
21 46 41
21 46 42
22 48 43
21 46 41
22 47 43
22 48 43
21 47 42
22 48 43
22 47 42
22 49 44
22 47 43
21 46 41
22 48 43
22 47 43
22 47 43
21 46 42
22 48 43
22 48 43
21 47 42
22 48 44
22 47 43
23 49 44
22 48 43
68 68 62
32 32 32
21 23 26
21 24 26
20 23 26
22 25 28
23 25 28
23 26 29
24 27 31
24 27 30
24 27 30
23 26 29
24 27 30
24 27 30
25 28 31
25 28 31
24 27 30
23 26 29
24 26 29
22 25 28
21 24 26
19 21 24
20 40 37
23 50 45
21 46 41
22 49 44
21 46 42
22 49 44
22 48 43
22 48 44
21 46 42
23 50 45
22 48 43
22 48 43
22 47 43
22 47 43
21 47 42
22 47 43
22 48 43
22 48 43
22 49 44
22 47 43
23 50 45
22 47 43
22 49 45
22 48 44
22 49 44
22 48 44
22 48 43
22 48 44
22 47 43
21 47 43
22 49 44
22 49 44
22 49 44
22 49 44
23 50 45
22 48 43
23 50 45
22 48 43
22 47 43
21 47 43
22 48 43
22 48 43
22 49 45
22 48 44
22 49 44
22 48 43
22 48 44
21 45 41
22 48 44
21 45 41
21 46 42
20 45 41
21 47 42
21 46 41
21 46 42
22 47 43
21 46 42
22 48 44
21 46 42
21 47 42
21 46 42
21 46 42
21 47 43
20 44 40
20 44 40
19 43 39
19 41 38
17 39 36
16 37 35
14 32 30
14 32 30
13 31 30
13 31 30
13 30 29
12 27 26
11 27 26
11 25 24
10 24 23
10 22 21
9 20 19
7 16 16
7 16 15
8 18 17
6 14 14
6 14 13
6 14 12
8 18 17
8 18 16
9 20 18
12 27 25
16 34 31
18 38 34
19 42 37
20 43 38
20 43 38
21 46 41
21 45 40
20 44 39
21 46 41
21 46 42
21 45 40
22 47 43
21 46 41
21 47 42
21 46 41
21 47 42
22 47 42
20 44 40
21 47 42
22 48 44
21 47 42
21 45 41
21 46 42
22 47 43
21 47 42
22 47 42
21 46 42
22 47 43
21 46 42
21 47 42
21 45 40
21 46 42
21 46 41
21 45 41
20 44 39
21 46 41
28 42 37
54 37 28
45 45 40
56 53 47
69 59 53
85 44 27
76 44 31
86 80 72
83 78 71
90 85 77
82 78 70
81 77 69
78 74 67
85 80 72
64 64 56
61 60 53
61 60 52
50 52 44
24 44 40
21 44 39
21 45 40
21 46 41
21 46 41
21 44 39
22 47 42
21 45 41
22 48 43
23 49 44
22 47 42
22 46 42
22 47 43
22 47 42
21 46 42
22 48 43
23 50 45
22 47 43
21 47 42
22 47 43
22 47 43
22 48 43
21 46 42
21 47 42
21 46 42
22 47 43
22 48 43
22 48 43
21 46 42
22 48 44
22 48 44
22 48 43
22 47 43
22 47 42
69 70 64
88 80 73
36 35 34
20 22 25
21 24 26
21 23 26
22 25 28
22 24 27
23 26 29
22 25 28
23 26 29
24 27 30
23 26 29
24 26 29
22 25 28
23 25 28
23 26 29
22 24 27
22 24 27
20 23 25
20 22 24
17 19 21
22 47 43
22 48 43
21 46 41
21 47 42
22 47 42
22 48 43
21 45 41
22 49 44
22 47 43
22 47 43
22 48 43
21 46 42
23 49 44
23 50 45
23 49 45
23 50 45
21 47 43
21 47 42
22 48 44
22 48 44
21 47 42
21 47 42
22 48 44
21 46 42
22 49 45
22 49 44
23 49 45
23 49 44
22 48 44
22 47 42
22 49 45
21 46 42
23 49 45
22 49 44
22 48 43
23 50 45
22 49 44
22 48 44
23 50 45
22 49 44
22 49 44
21 46 42
22 48 44
22 47 43
22 49 45
22 49 44
22 48 43
20 45 40
22 47 43
21 46 42
21 46 41
21 46 41
20 45 40
21 47 42
21 46 42
21 46 42
21 45 41
21 47 42
21 45 41
21 47 42
21 45 41
21 46 42
21 46 42
21 46 42
19 43 40
19 42 39
17 39 36
17 37 35
16 36 34
13 31 30
14 32 31
13 30 29
12 29 28
13 30 29
13 30 28
12 29 28
11 25 24
10 24 23
10 24 23
10 24 23
10 22 21
8 18 18
9 21 20
10 22 21
9 21 19
9 21 19
9 20 19
10 22 21
11 24 23
14 31 28
16 36 32
18 40 35
20 43 38
20 43 39
20 44 39
20 43 39
22 48 43
20 43 39
21 45 41
21 46 41
21 46 42
21 47 42
21 47 42
22 47 42
21 46 42
22 48 43
22 47 42
21 46 41
21 46 42
21 46 42
21 47 42
21 46 42
21 47 42
22 48 43
21 47 42
21 47 42
22 47 42
22 47 43
21 47 42
21 46 41
21 46 41
21 45 40
21 46 41
20 44 40
19 42 38
17 38 34
16 36 33
28 31 27
47 28 18
59 38 29
55 30 17
64 33 19
70 36 21
64 55 47
70 67 60
60 59 52
60 59 52
69 67 59
57 57 50
56 56 49
46 49 42
52 52 45
33 40 32
24 43 38
20 41 36
20 43 38
21 46 41
21 45 40
21 45 40
21 46 42
22 47 42
22 47 43
22 48 43
21 46 41
21 46 41
22 48 43
21 46 41
22 47 42
22 48 44
21 47 42
22 47 42
22 48 43
22 48 43
21 46 41
21 46 42
22 47 43
22 47 43
22 47 42
22 47 42
22 47 43
22 47 42
22 47 42
21 45 41
22 46 41
22 47 42
22 47 42
22 47 42
22 47 43
33 50 45
95 87 78
96 89 81
58 55 51
20 22 25
20 23 25
20 23 25
20 23 25
22 25 27
21 23 26
21 23 26
22 24 27
23 25 28
22 24 27
22 24 27
22 24 27
21 23 26
21 23 26
19 22 24
18 21 23
18 20 22
17 26 25
21 45 41
22 47 42
21 46 42
22 47 43
21 47 42
21 46 42
22 47 43
22 48 44
22 49 44
22 48 43
22 48 43
22 47 43
22 47 43
22 48 43
22 49 44
22 47 43
22 49 44
21 47 42
23 49 44
22 47 43
23 50 45
22 48 44
23 49 45
22 49 44
22 48 44
22 48 44
22 48 43
22 49 44
22 48 43
22 49 44
22 49 44
23 50 46
22 47 43
22 48 44
22 47 43
22 48 43
21 47 43
23 50 45
23 50 45
22 49 44
22 48 44
23 50 45
22 49 45
22 49 44
23 50 45
22 49 44
22 49 45
20 44 40
21 45 41
21 47 42
20 45 41
21 47 42
21 46 42
21 46 42
21 46 42
22 48 44
21 46 42
21 46 42
21 47 43
21 46 42
21 46 42
21 47 42
20 45 41
20 45 41
19 42 39
18 40 37
17 39 36
16 36 33
15 34 33
14 32 31
13 31 30
13 31 29
13 31 30
13 30 29
13 30 29
12 29 28
12 29 28
12 28 27
11 26 25
10 24 23
11 25 24
10 24 23
11 25 24
11 25 23
10 23 22
11 25 24
11 25 24
12 27 25
14 31 29
16 35 32
19 41 36
19 41 37
20 43 39
20 44 40
21 45 41
21 45 40
20 44 40
21 46 41
20 44 40
21 45 41
21 47 42
21 47 42
21 47 43
22 47 42
21 45 41
21 46 42
22 48 43
21 46 42
21 46 42
22 47 43
21 47 42
21 45 41
21 46 42
21 45 41
21 46 41
21 47 42
21 46 41
21 45 41
20 45 40
20 44 40
20 44 39
21 44 40
20 43 39
18 40 37
16 35 32
14 31 29
13 29 27
10 24 23
11 23 21
27 20 14
13 13 6
35 21 11
29 19 10
28 23 16
37 40 34
23 31 25
30 36 29
15 28 21
33 37 31
27 35 28
21 31 24
20 28 22
16 34 30
18 39 35
20 42 37
20 43 38
21 45 40
21 46 41
22 47 42
21 44 40
20 44 40
22 47 42
22 47 42
21 46 41
22 47 42
22 48 43
22 48 43
22 48 43
23 49 44
22 47 43
22 48 43
22 48 44
21 46 42
21 46 41
22 47 43
22 47 43
22 47 43
23 49 44
22 48 43
21 46 42
22 47 42
22 47 43
22 47 42
21 46 41
22 47 42
22 47 43
21 46 41
21 46 41
24 47 42
75 72 64
96 88 80
91 84 76
80 74 68
31 31 30
18 20 22
18 21 23
20 22 24
19 21 23
20 22 25
18 20 22
20 22 25
20 22 25
20 22 25
19 21 23
18 20 22
19 22 24
17 19 20
16 18 20
15 17 19
19 37 34
22 48 43
23 49 44
22 48 43
21 46 41
22 48 44
22 48 43
22 48 43
22 48 43
22 48 43
22 49 44
21 46 42
22 48 44
22 48 43
21 46 42
22 49 44
22 47 43
21 47 42
22 47 43
22 47 43
22 48 43
22 49 44
22 48 44
22 47 43
22 49 44
22 48 43
22 48 43
22 47 43
22 48 44
22 48 43
22 48 43
22 49 44
22 48 44
23 49 45
22 49 45
22 48 44
22 49 44
22 47 43
22 47 43
22 49 44
22 49 44
22 48 43
22 49 44
22 48 43
22 48 44
22 48 44
21 47 43
22 48 44
21 46 42
21 46 42
20 45 41
21 47 42
22 48 43
21 47 42
22 48 43
21 47 43
21 46 42
21 46 42
21 46 42
21 47 42
21 47 42
21 47 42
21 46 42
19 43 39
20 43 40
18 41 37
17 39 36
17 39 36
16 37 35
15 34 32
14 33 31
14 32 31
13 31 30
13 31 30
14 32 31
13 29 28
13 31 30
13 30 29
12 29 28
12 27 26
13 29 28
12 27 26
12 27 26
12 28 26
12 27 26
11 26 25
12 28 27
13 30 28
16 36 33
17 37 34
19 41 37
21 45 40
20 43 39
20 44 39
21 46 41
21 45 41
21 45 41
20 44 39
21 45 41
22 47 42
21 46 42
20 44 40
21 47 42
21 47 42
21 46 42
21 46 42
21 46 42
22 47 43
21 45 41
22 47 43
21 45 41
21 46 42
21 46 42
21 47 42
22 47 43
21 47 42
22 47 43
21 46 42
21 45 40
21 45 41
21 46 41
20 44 40
20 43 39
17 37 34
15 34 31
14 31 29
13 29 27
12 27 26
11 25 23
10 23 22
10 22 21
9 15 13
11 13 9
12 12 6
12 12 6
12 16 11
12 22 17
12 23 18
13 24 18
12 22 17
11 21 16
9 18 16
10 23 21
14 30 27
17 36 32
20 43 39
20 43 38
21 44 39
21 45 40
20 44 39
21 45 40
21 46 41
21 46 42
22 46 42
22 46 42
21 46 41
22 47 42
22 47 42
22 47 43
22 48 43
21 45 41
22 47 43
21 45 41
21 45 41
22 48 43
22 47 43
22 48 43
22 46 42
21 46 42
21 45 41
22 47 42
22 47 42
21 46 41
22 46 42
21 46 41
22 47 42
21 45 41
21 44 39
21 45 41
21 44 39
29 46 40
69 65 57
81 77 69
88 83 75
97 90 82
71 66 61
16 18 19
16 18 20
19 21 23
17 19 21
18 20 22
18 20 22
18 20 22
17 19 21
17 19 21
18 20 22
17 19 20
15 17 18
13 15 17
15 24 23
20 43 39
21 46 41
21 45 40
22 47 42
22 47 43
21 46 42
22 48 43
22 47 42
22 48 43
22 48 43
22 48 43
22 47 42
22 48 44
22 48 44
23 50 45
22 47 43
23 49 45
22 48 44
22 47 43
22 47 43
22 49 44
22 49 44
22 47 43
22 47 43
22 49 44
21 45 41
22 49 44
21 47 43
21 46 42
22 48 44
22 48 43
23 50 45
22 48 43
22 47 43
22 48 44
22 48 44
22 49 44
22 49 44
22 47 43
22 48 43
22 48 43
21 47 42
21 47 43
22 48 44
21 47 42
22 49 44
22 49 44
22 48 44
20 45 41
21 46 42
21 47 43
21 45 41
21 47 42
22 48 43
21 47 42
21 46 42
21 47 42
21 46 42
21 47 42
21 47 42
21 47 42
20 44 40
21 46 42
20 44 40
19 43 39
19 42 39
18 40 37
17 38 36
16 37 35
15 34 33
14 33 32
13 32 31
14 34 33
14 32 31
14 32 31
13 30 29
12 29 28
12 28 28
13 31 30
13 31 30
13 31 30
13 29 28
13 30 29
13 29 28
13 30 29
13 30 29
15 34 31
17 38 34
19 42 39
19 42 38
21 46 41
20 44 40
21 45 40
20 44 40
21 46 41
21 46 42
21 46 41
21 46 42
21 46 41
21 45 41
20 44 40
21 45 41
21 46 42
20 45 40
22 48 43
21 46 42
21 47 42
22 47 43
22 48 43
21 47 42
21 46 41
22 48 43
21 47 43
21 46 41
22 47 43
21 46 41
21 46 42
22 48 43
21 46 42
21 45 40
21 46 42
19 42 39
17 38 35
16 36 33
14 32 30
13 30 28
12 28 27
12 27 26
11 26 24
10 23 22
10 21 20
8 19 18
8 19 18
8 17 15
7 14 12
8 12 10
8 12 10
8 16 13
7 14 12
6 15 14
7 16 15
8 20 18
9 21 20
12 28 25
16 35 31
19 40 36
20 43 38
21 44 39
21 45 40
21 45 40
21 46 41
22 47 42
21 45 40
22 47 42
22 47 42
22 47 42
22 48 43
22 47 43
21 46 41
22 47 42
22 48 43
22 47 43
22 46 42
21 46 41
21 46 41
22 48 43
22 47 42
23 49 44
22 47 42
21 45 40
22 48 43
22 47 43
22 47 42
21 45 41
21 44 39
22 46 41
23 49 44
20 43 38
21 46 41
21 44 39
21 44 39
53 54 48
65 62 55
74 70 63
71 69 61
88 82 74
74 70 63
42 41 38
15 17 18
14 16 17
16 18 19
17 19 21
16 18 19
14 16 18
14 15 17
13 15 16
14 16 17
14 16 18
14 16 17
18 36 33
21 45 40
21 46 41
22 46 42
21 45 40
21 45 40
21 46 42
22 47 42
21 46 41
23 49 44
22 48 43
23 49 44
22 47 43
22 49 44
22 49 44
22 47 43
22 48 43
22 47 42
22 47 43
22 49 44
22 47 43
22 49 44
22 49 44
22 48 43
23 49 45
22 48 44
22 49 44
23 49 45
22 48 44
22 47 43
22 48 44
21 47 42
22 47 43
23 49 45
22 48 43
22 48 44
22 48 44
23 50 45
22 49 44
22 48 43
23 51 46
22 48 43
23 49 45
23 49 45
22 49 44
22 47 43
22 48 43
22 49 44
22 49 44
21 45 41
21 46 42
22 48 43
21 46 41
21 46 42
22 48 43
21 47 43
22 48 43
21 46 42
22 48 43
21 45 41
21 45 41
21 45 41
20 45 41
20 45 41
21 46 42
19 43 39
18 41 38
19 41 38
17 39 36
16 37 35
16 37 35
16 36 34
15 34 33
14 32 31
14 34 32
13 32 31
14 32 31
14 33 32
14 32 31
13 31 30
13 31 30
14 32 30
14 33 31
15 34 32
16 35 33
16 36 33
18 39 36
18 39 36
19 43 39
20 44 39
20 44 40
21 46 42
21 46 42
21 46 42
21 45 41
20 44 39
21 46 41
21 45 41
21 45 41
21 45 41
21 45 41
21 46 41
21 46 42
21 45 41
21 46 42
21 46 42
21 46 42
20 45 41
22 47 43
21 47 42
21 45 41
21 46 42
21 46 42
22 47 43
21 45 41
21 45 41
21 45 41
21 45 41
21 47 42
21 45 41
21 46 42
20 43 39
18 39 36
16 36 33
15 34 32
13 30 29
13 29 28
13 29 28
11 26 25
12 26 25
12 26 24
10 23 21
11 23 22
10 22 21
8 18 17
8 18 17
8 18 16
8 17 16
8 18 16
9 21 20
8 18 17
8 20 18
10 23 22
11 24 23
13 30 28
16 34 31
18 40 36
21 45 40
22 47 42
21 45 40
23 49 44
22 47 43
21 46 41
21 46 42
22 47 42
22 48 43
21 46 42
22 47 42
21 46 42
22 47 42
22 48 43
21 45 41
22 48 43
22 46 42
22 48 43
22 46 42
23 48 44
23 49 44
22 46 42
22 46 42
22 47 42
22 48 43
23 48 43
22 47 42
22 46 41
22 46 42
21 45 40
21 45 40
22 46 41
21 44 39
20 42 37
20 41 36
18 39 35
38 42 37
47 49 42
60 59 52
65 63 56
59 58 51
72 69 62
61 59 53
35 35 32
11 14 14
11 12 13
13 15 16
13 15 16
14 16 18
11 13 14
11 13 14
10 12 13
18 35 31
21 44 40
21 44 40
21 46 41
21 46 41
22 48 43
21 45 41
21 45 41
22 47 43
22 48 44
21 46 41
22 47 42
22 48 43
23 49 44
21 46 42
22 48 43
22 48 44
22 48 44
22 48 43
22 48 43
22 47 43
22 48 43
22 48 43
23 49 44
23 49 45
22 48 43
22 48 44
22 48 44
21 46 42
22 47 43
21 47 42
22 48 44
22 48 44
22 48 43
22 49 44
23 50 45
21 47 42
22 49 45
22 47 43
22 49 44
22 48 44
22 48 44
22 48 44
22 49 44
22 47 43
22 49 44
22 49 44
22 49 44
23 51 47
21 46 41
21 45 41
20 44 40
21 46 42
21 46 42
21 46 42
21 46 42
21 47 43
21 47 43
21 47 42
21 47 42
22 47 43
21 47 43
22 47 43
21 46 42
20 45 41
20 44 40
20 44 40
19 42 39
19 41 38
19 42 38
18 41 38
18 40 38
16 37 35
16 37 35
16 36 34
15 35 33
15 36 34
15 35 34
15 35 33
15 35 33
15 36 34
15 35 33
16 37 34
18 39 37
17 38 35
18 39 36
19 42 38
19 41 38
21 45 41
20 45 40
20 44 40
20 44 40
21 46 41
20 44 40
21 46 41
21 45 41
22 47 43
22 48 43
21 45 41
21 46 42
21 46 42
21 46 41
21 45 41
22 48 43
21 46 42
21 47 42
21 47 43
21 46 42
22 48 44
22 48 43
21 45 41
22 47 43
21 47 42
21 46 42
21 46 41
21 46 42
22 47 43
22 47 43
21 45 41
21 45 41
21 45 41
20 44 40
18 40 36
17 38 35
16 36 34
15 34 32
14 32 31
14 32 30
13 30 28
13 29 28
12 29 27
12 27 26
12 27 26
11 25 23
11 25 24
11 26 24
10 23 22
10 23 22
10 23 21
9 21 20
11 25 23
11 25 24
11 25 24
11 25 24
12 27 25
15 32 30
17 38 34
19 41 36
20 43 38
21 45 40
20 44 39
21 45 40
21 46 41
21 46 41
21 46 41
22 46 42
21 45 40
22 47 42
21 46 41
22 48 43
22 46 42
22 46 42
22 47 43
23 48 44
22 48 43
22 47 42
22 47 43
22 47 42
22 47 43
22 47 42
22 47 42
22 48 43
22 46 42
21 45 41
22 46 41
22 47 42
22 47 42
22 46 41
22 45 41
22 46 41
21 45 40
19 40 36
17 37 34
15 32 30
11 24 22
17 24 19
32 36 31
33 38 31
33 38 32
40 43 37
49 50 44
38 41 35
39 42 36
34 34 30
20 21 19
9 11 11
7 9 9
7 9 9
7 10 10
14 28 25
19 40 35
20 42 37
21 43 38
21 45 40
22 46 41
21 44 40
21 46 41
21 45 40
21 46 42
22 47 42
22 48 43
22 47 42
22 47 42
22 48 44
22 47 42
22 47 43
22 47 43
22 47 42
22 47 42
22 49 44
22 48 43
22 48 43
22 48 44
22 47 43
22 48 44
23 49 45
22 48 44
22 48 43
22 47 43
22 48 43
22 49 44
21 47 42
23 50 45
22 49 44
22 48 44
22 48 44
21 47 42
21 47 42
22 49 44
22 49 44
22 48 44
23 50 45
22 48 44
23 49 45
21 47 42
21 47 43
22 48 44
22 47 43
22 48 43
22 48 44
21 46 42
21 45 41
22 47 43
20 45 41
21 46 42
21 46 42
22 48 43
21 46 42
22 48 44
21 47 42
21 47 42
21 46 42
20 45 41
21 46 42
21 46 41
20 44 40
20 44 40
20 45 41
19 43 39
19 43 39
18 40 37
19 42 39
17 39 36
18 41 38
17 38 36
18 40 38
17 38 35
18 40 37
18 40 37
18 39 37
18 39 36
18 41 38
18 40 37
19 42 39
19 42 38
20 44 40
20 43 39
20 44 40
21 45 41
22 47 43
20 43 39
20 45 41
21 45 41
21 46 42
21 46 42
20 44 40
21 46 42
21 45 41
21 46 42
21 47 43
21 47 42
21 46 42
22 47 42
21 47 43
21 46 41
21 47 42
21 47 42
21 46 42
21 45 41
21 46 42
22 47 43
21 46 42
21 46 41
22 48 44
21 45 41
21 47 42
21 46 42
22 48 43
21 45 41
21 46 41
21 45 41
20 43 39
20 43 40
18 41 37
17 38 35
15 34 32
14 33 31
13 30 29
13 31 30
13 31 30
13 29 28
13 29 28
13 29 28
12 27 26
12 27 25
12 28 27
13 29 27
12 26 25
11 25 23
12 28 27
11 25 24
12 28 27
13 30 28
12 29 27
14 32 30
16 35 32
18 39 36
19 41 37
21 44 40
21 46 41
21 45 40
21 44 39
22 48 43
22 47 43
21 45 40
22 48 43
21 46 41
22 47 42
22 47 43
22 48 43
22 48 43
21 46 41
22 47 42
22 47 43
23 49 44
23 48 43
23 49 44
22 47 43
22 47 42
23 49 44
22 47 42
22 46 42
23 48 43
22 46 41
22 46 42
22 46 41
22 46 41
21 45 40
22 45 40
21 43 39
19 40 36
17 35 31
14 32 29
11 26 24
10 23 21
10 24 22
9 18 16
11 21 16
12 22 17
13 24 19
14 26 20
18 27 22
19 28 22
23 30 25
19 28 22
11 21 17
9 18 14
8 16 14
9 22 20
12 27 25
16 35 31
19 40 36
21 43 39
20 42 38
22 45 40
21 44 39
22 47 42
22 46 41
22 46 41
22 46 42
23 48 44
22 48 43
22 48 43
23 48 44
22 46 42
22 48 43
22 48 44
22 48 43
22 47 42
23 49 44
22 47 43
23 49 44
22 48 44
23 49 44
22 47 43
22 49 44
22 48 43
21 47 42
22 48 43
21 47 42
22 48 43
23 50 45
22 49 44
21 46 42
22 48 44
23 50 45
23 50 45
23 49 45
23 50 46
23 49 45
22 47 43
22 47 43
22 49 45
22 48 44
22 48 43
22 49 44
22 48 43
22 49 45
22 48 43
23 50 45
21 47 43
21 47 43
21 45 41
21 47 43
21 46 42
21 47 42
21 46 42
21 47 43
22 47 43
21 47 42
21 46 42
21 47 43
22 48 44
21 46 42
21 46 42
20 44 40
22 47 43
20 45 41
20 44 40
20 44 41
19 42 39
19 42 39
18 41 38
19 42 39
20 44 41
19 42 39
19 43 39
19 43 40
19 42 39
19 42 39
20 43 40
20 45 40
20 44 40
21 46 42
20 44 40
21 45 41
21 46 41
21 46 42
21 46 41
22 47 43
21 45 41
21 46 41
21 45 41
21 45 41
21 47 42
21 46 42
21 46 42
21 46 41
22 48 43
21 46 42
21 45 41
22 48 44
21 47 42
21 47 43
21 46 42
22 48 43
22 48 43
22 47 43
21 46 42
20 45 40
21 46 42
21 46 41
21 46 42
21 47 42
21 46 42
21 47 42
22 47 43
21 47 42
21 47 42
21 47 43
20 44 40
19 42 39
20 43 39
18 40 37
16 36 34
16 36 34
15 34 32
14 32 30
14 31 30
14 31 30
13 31 29
13 31 30
13 31 30
13 29 28
13 29 27
13 29 28
13 30 29
12 28 27
12 28 27
13 29 28
13 31 29
12 29 27
13 31 29
15 33 31
16 37 34
18 40 37
19 42 38
21 46 41
20 44 39
21 44 39
21 46 41
21 45 41
22 47 42
22 48 43
21 46 41
21 46 41
22 47 42
22 47 42
22 48 43
22 46 41
22 47 42
22 46 42
22 47 42
23 48 44
22 47 42
23 48 43
23 48 44
22 47 42
22 47 43
22 47 43
22 46 42
23 48 44
22 47 42
22 45 41
22 45 41
23 47 42
23 47 42
22 46 41
22 45 40
20 42 37
18 39 36
14 31 28
12 28 26
12 27 26
10 24 23
10 23 22
8 18 17
8 18 17
8 16 14
9 17 14
9 18 14
11 21 17
10 19 15
10 20 16
10 19 15
10 21 17
9 19 17
9 20 19
9 21 20
11 24 23
13 28 26
17 36 32
20 41 37
20 43 38
21 44 39
21 45 40
22 46 41
22 47 42
23 48 43
22 47 43
22 46 42
22 48 43
22 47 43
22 47 43
22 47 42
22 47 42
23 49 44
22 48 43
22 47 43
23 49 44
22 48 43
22 48 44
23 49 44
22 48 44
22 48 43
22 47 43
22 47 42
22 48 44
22 48 44
22 47 43
22 48 44
22 47 43
21 45 41
22 48 43
22 48 44
22 47 43
22 48 44
22 48 43
22 48 44
23 49 45
22 47 43
22 47 43
21 47 42
21 47 42
23 49 45
22 49 44
22 49 45
21 47 42
22 47 43
23 50 45
21 46 41
21 46 42
21 46 42
20 45 41
21 46 42
21 47 43
21 45 41
21 47 42
21 45 41
22 48 44
22 48 44
22 47 43
21 47 42
20 45 41
21 45 41
21 47 42
21 46 42
21 46 42
21 46 42
20 45 41
20 45 41
20 45 41
20 44 40
20 44 41
19 43 39
20 44 40
20 45 41
20 45 41
22 48 43
20 44 40
21 46 41
20 44 40
21 45 41
21 46 42
21 46 42
21 45 41
21 46 42
21 46 42
21 47 42
21 46 42
21 45 41
21 47 42
21 47 43
21 45 41
21 47 43
21 46 42
21 47 42
22 48 43
22 48 43
21 46 42
22 48 44
21 46 42
22 49 44
21 47 42
21 46 42
22 48 43
22 47 43
22 48 43
21 46 42
21 47 42
21 45 41
21 46 42
22 48 43
21 47 42
21 47 42
21 47 42
21 46 42
21 46 42
21 47 42
21 46 42
20 45 40
20 43 39
19 41 38
18 41 38
18 40 37
17 37 35
15 35 33
14 33 32
14 32 31
14 31 30
14 31 30
13 31 30
13 30 29
13 31 30
14 33 32
14 32 30
13 30 28
12 28 27
12 28 27
13 30 29
14 32 30
15 34 32
16 35 32
17 38 35
19 42 38
18 40 36
20 44 39
21 46 41
21 45 40
21 44 40
22 47 42
22 46 41
23 49 44
22 48 43
22 46 42
22 46 41
22 48 43
23 49 44
23 48 43
22 47 43
22 47 42
22 47 42
22 47 42
22 47 42
23 47 43
23 48 43
22 46 42
23 49 44
23 47 43
23 48 44
23 47 43
23 47 43
22 46 41
22 45 41
22 45 40
22 45 40
23 47 42
22 46 41
21 43 39
19 41 37
17 37 34
14 31 29
13 30 29
12 27 26
12 27 25
11 25 23
10 23 22
8 19 18
9 20 19
8 19 17
6 15 14
7 15 14
6 13 12
7 16 15
7 16 15
8 19 17
9 22 20
9 21 20
10 23 22
10 24 23
12 27 25
16 34 32
17 36 33
20 41 37
21 43 39
22 46 41
21 44 40
23 48 43
23 48 43
22 47 42
23 47 43
23 48 43
22 47 43
22 46 42
23 49 44
22 47 43
22 47 43
22 47 42
22 48 43
22 47 43
22 48 43
22 47 43
22 47 43
22 48 44
22 48 44
22 47 43
22 47 43
22 47 42
22 47 43
23 49 44
22 48 44
22 49 44
22 48 43
21 45 41
22 48 43
22 49 44
23 49 45
22 48 44
22 48 43
21 47 43
23 49 45
22 48 44
22 49 44
22 49 44
22 48 44
22 49 45
22 48 43
22 48 43
22 48 43
22 49 44
21 46 42
21 46 42
21 47 43
20 45 41
21 46 42
21 47 43
22 48 44
21 47 43
21 47 43
21 47 43
22 48 44
21 46 42
22 47 43
22 48 43
22 48 44
21 46 42
21 47 43
22 49 45
21 45 41
21 46 42
21 46 42
21 46 42
21 46 42
21 46 42
21 47 42
21 47 42
20 44 40
20 44 40
20 45 41
21 46 42
21 47 43
21 47 42
21 47 42
22 49 44
21 47 42
21 46 41
21 47 43
21 46 42
21 47 42
22 48 43
21 45 41
21 46 42
22 48 43
21 46 42
21 46 42
20 45 41
20 45 40
21 46 42
21 45 41
22 48 43
21 46 42
21 47 43
21 46 41
21 46 42
21 47 42
22 48 43
22 47 43
21 47 42
21 46 42
21 45 41
22 48 44
23 49 45
21 47 42
22 47 43
21 46 42
21 46 41
21 46 42
22 48 43
21 45 41
21 45 41
19 43 39
20 43 39
19 42 39
19 42 38
19 42 38
18 40 37
16 37 35
16 36 34
15 35 34
14 32 31
14 32 31
14 33 31
15 34 33
14 33 32
14 31 30
14 32 30
14 32 31
14 32 31
15 33 31
15 34 32
16 36 34
17 37 34
17 38 35
19 42 38
21 45 41
21 44 40
21 44 40
22 46 41
22 47 42
21 46 41
22 47 42
22 47 42
23 48 44
22 47 42
22 46 42
22 47 42
22 46 41
22 46 42
23 48 43
22 46 42
22 47 42
22 46 41
23 48 43
22 46 42
22 47 42
22 47 42
23 47 43
23 48 43
23 47 42
22 46 42
24 49 44
22 46 42
23 46 41
23 46 42
24 48 43
24 48 43
22 45 41
22 44 40
21 42 38
19 40 36
18 38 34
14 32 30
13 29 27
12 28 26
11 27 25
11 26 25
11 25 23
11 25 24
10 22 21
9 22 20
9 21 19
8 18 17
10 22 21
9 20 19
9 20 19
10 24 23
11 26 25
10 24 23
10 25 23
11 25 24
13 29 28
16 34 32
18 38 35
20 41 38
21 44 40
23 48 43
22 46 41
22 46 41
22 46 41
23 47 42
22 47 42
23 47 43
22 47 42
23 48 44
22 47 43
23 48 43
22 47 42
22 47 43
23 48 43
23 49 44
22 47 42
22 47 43
22 47 43
23 48 44
22 48 43
22 48 43
23 49 44
22 47 43
23 49 44
22 48 43
23 49 45
22 48 44
22 47 42
22 48 43
23 50 45
22 48 44
23 49 44
22 48 44
23 50 45
22 48 44
22 48 43
21 47 42
23 49 45
22 49 44
22 48 43
22 48 44
21 46 42
22 48 43
22 48 44
22 48 43
21 46 42
21 46 42
21 45 41
22 48 44
21 46 42
21 46 42
21 46 42
22 47 43
21 46 41
21 47 42
21 47 42
20 45 41
21 47 42
20 45 41
21 46 42
22 48 43
21 46 42
21 45 41
21 46 42
20 45 41
21 46 42
21 47 43
21 46 42
21 45 41
21 46 42
22 48 43
21 47 43
21 47 43
21 45 41
20 45 41
21 46 42
21 46 42
21 46 42
21 46 41
21 45 41
21 46 42
21 46 42
22 49 44
22 48 43
22 47 43
21 47 42
21 46 42
22 47 43
21 46 42
20 44 40
21 46 42
21 46 41
21 46 42
21 46 42
21 46 42
21 46 42
21 47 42
22 47 43
22 47 43
21 46 41
21 47 43
21 47 42
21 47 43
21 47 43
22 48 43
21 46 42
20 45 40
22 48 44
20 45 41
21 46 42
21 47 42
22 47 43
21 45 41
21 47 42
20 45 41
21 46 41
20 44 40
20 45 41
21 46 42
19 41 37
18 40 36
18 40 37
17 39 36
17 39 36
16 36 34
16 37 35
16 36 34
15 34 33
16 36 33
16 36 34
16 36 34
16 37 35
16 37 34
18 39 37
18 39 37
19 42 38
19 42 39
20 43 39
21 44 40
22 47 43
21 45 41
22 46 42
23 49 44
22 47 42
22 47 42
22 47 42
22 47 43
22 46 42
22 47 42
22 46 41
22 46 41
22 47 43
22 47 43
22 47 42
23 47 43
23 48 43
23 49 44
22 47 42
23 49 44
23 48 43
23 47 43
23 47 42
23 48 43
23 48 43
23 47 43
24 49 44
23 48 43
23 48 43
23 47 42
24 48 43
23 47 42
23 46 42
23 46 42
21 43 38
20 41 37
18 37 35
15 34 32
14 31 30
12 29 27
13 29 28
12 28 27
12 28 27
12 27 25
12 28 26
11 26 25
11 25 24
11 25 24
10 22 21
10 24 22
11 26 25
10 23 22
11 26 25
12 28 27
12 28 27
12 28 27
13 29 28
15 33 30
18 38 35
20 42 38
22 45 40
23 46 42
22 45 40
23 46 41
23 47 43
22 46 41
22 46 42
23 47 43
23 48 43
23 47 43
23 48 43
23 47 43
22 46 42
23 48 43
22 47 43
22 47 43
22 48 43
23 48 43
22 48 43
22 47 43
22 48 43
22 48 43
22 48 44
23 49 44
22 48 44
22 48 43
22 47 43
22 48 44
22 47 42
22 48 43
23 49 44
22 49 44
21 46 42
22 48 44
22 49 44
23 49 44
22 48 43
22 48 44
23 50 45
23 49 45
22 49 44
22 49 44
22 49 44
22 47 43
22 48 44
23 50 45
22 48 44
21 47 42
22 48 44
21 47 43
21 46 42
22 48 44
22 47 43
21 47 43
21 46 42
22 48 44
20 44 40
21 45 41
22 48 44
21 47 43
21 46 42
22 47 43
21 46 42
21 45 41
22 48 44
21 46 42
22 47 43
21 46 42
21 46 42
20 45 41
22 47 43
21 46 42
21 46 42
21 46 42
21 47 42
21 45 41
21 46 42
20 45 41
22 48 43
21 46 42
20 44 40
21 46 42
21 46 42
21 46 42
21 46 42
21 46 42
21 46 42
22 48 43
21 46 42
21 47 42
21 46 42
21 47 42
21 46 42
21 46 42
22 48 43
22 47 43
22 48 44
22 47 43
21 46 42
22 47 43
20 45 41
22 48 43
22 47 43
21 47 42
21 47 42
22 48 43
21 46 42
20 45 40
22 48 44
21 45 41
21 47 42
21 47 43
21 47 43
22 48 43
21 47 42
21 46 42
21 47 42
21 46 42
20 44 40
20 44 40
20 45 41
19 41 38
20 43 40
18 40 37
18 40 38
18 41 38
18 40 37
17 39 36
18 40 37
19 42 39
18 40 37
17 39 36
18 41 37
19 42 38
20 43 39
19 42 39
20 43 39
21 44 40
22 47 43
22 47 42
22 47 42
22 46 42
22 46 42
22 46 42
21 45 41
22 47 43
22 47 42
21 45 40
23 48 43
23 48 43
23 47 43
22 47 42
22 45 41
23 47 42
23 48 43
23 47 43
22 45 41
23 47 43
22 46 42
23 48 43
23 48 43
23 48 44
23 48 43
24 49 44
24 49 44
23 47 42
23 47 43
24 48 43
23 46 42
23 47 42
24 48 43
23 46 41
24 47 43
23 47 42
22 44 40
21 43 39
19 40 37
17 36 34
15 33 31
14 32 30
13 31 30
13 29 28
13 29 28
12 29 28
12 28 26
12 28 27
13 29 28
12 29 27
12 28 26
12 27 26
12 29 28
12 27 25
11 27 26
13 30 29
12 29 28
13 30 29
14 31 30
16 34 32
19 40 36
21 43 39
23 47 42
22 45 40
23 47 42
23 46 42
23 47 42
24 48 44
22 46 41
24 49 44
22 46 41
23 48 43
23 47 42
23 47 43
23 47 42
23 49 44
22 47 42
23 49 44
23 49 44
23 49 44
22 47 42
23 48 44
22 47 42
23 50 45
23 49 44
23 49 45
23 49 45
23 49 44
22 48 44
23 49 44
23 50 45
22 48 43
22 47 43
23 49 44
22 48 43
22 48 44
22 47 43
23 49 45
22 47 43
21 47 42
22 47 43
22 47 43
22 47 43
22 47 43
22 48 44
22 47 43
22 48 44
21 47 42
21 45 41
21 46 42
21 46 42
21 46 42
21 46 41
22 49 45
21 47 43
21 47 43
21 47 42
22 48 44
20 45 41
21 46 42
22 49 44
22 47 43
21 47 42
21 47 43
21 47 42
22 47 43
21 47 42
21 46 42
22 48 43
21 46 42
21 46 41
22 48 44
21 45 41
21 47 43
22 48 43
21 46 41
22 48 44
20 45 41
22 49 44
21 46 42
20 45 41
21 47 43
21 46 42
21 46 42
21 46 42
22 47 43
21 47 43
22 47 43
21 45 41
22 48 44
21 47 42
20 45 41
21 46 42
22 47 42
22 48 43
21 47 43
20 44 40
21 47 43
21 46 42
21 45 41
22 47 43
21 46 41
21 46 42
22 47 43
22 48 43
22 47 43
22 48 44
22 48 43
22 48 43
22 47 43
22 48 43
21 47 43
22 48 43
22 47 43
21 47 42
21 46 41
22 47 43
21 47 42
22 48 43
21 46 42
21 46 42
21 46 42
21 45 41
21 46 42
21 45 41
20 44 40
19 42 38
20 44 40
19 43 39
20 43 40
20 43 40
19 42 39
20 43 40
20 44 40
20 44 40
21 45 41
21 46 42
22 47 43
21 44 40
21 45 41
22 47 43
22 46 42
22 47 43
22 46 41
23 48 43
23 49 44
22 47 43
23 48 44
23 48 43
22 46 42
23 47 43
22 46 42
23 48 43
23 48 43
23 47 43
22 46 41
23 48 44
24 48 44
23 47 43
24 48 44
24 48 43
23 47 43
24 49 44
23 46 42
24 49 44
24 48 43
25 49 44
25 49 44
24 47 42
24 48 43
24 48 44
24 47 43
24 47 42
25 49 44
24 48 43
24 46 41
22 44 40
22 45 41
21 42 38
19 39 36
17 36 34
15 33 32
14 33 32
14 32 30
14 31 30
13 30 29
12 29 28
13 29 28
12 29 27
12 28 27
13 30 29
12 29 28
13 31 30
13 30 29
12 28 26
13 31 30
13 30 29
13 31 29
15 33 31
19 40 37
20 40 37
21 42 38
22 45 40
24 48 43
24 47 42
24 47 43
24 47 43
23 47 42
24 49 45
23 46 41
24 48 43
23 47 43
24 48 44
24 49 45
24 49 44
22 45 41
23 46 42
23 47 42
23 47 43
24 50 45
23 48 43
22 47 43
23 49 44
23 49 45
23 48 44
22 47 43
23 49 44
24 51 46
23 49 44
23 48 44
23 49 44
22 48 43
22 47 43
23 49 45
21 46 42
22 47 43
22 49 44
22 47 43
23 49 44
22 47 42
22 47 43
22 47 43
23 49 45
22 47 43
22 48 44
22 49 44
22 49 44
22 48 44
22 47 43
21 46 42
21 47 43
22 48 44
21 46 42
20 45 41
21 47 43
20 44 40
21 46 42
21 46 42
21 47 43
22 47 43
21 47 43
21 46 42
21 47 43
22 47 43
20 45 41
21 46 42
21 47 42
22 48 44
21 47 43
21 45 41
22 47 43
21 46 42
21 47 42
21 47 43
21 46 42
21 46 42
21 47 42
21 46 42
21 47 42
20 45 41
22 48 44
22 48 43
21 46 42
21 46 42
21 46 42
22 48 43
21 45 41
21 46 42
21 46 42
21 46 42
21 46 42
22 48 43
21 47 43
22 48 43
21 47 43
21 46 42
22 48 43
22 47 43
21 46 42
22 49 44
22 47 43
21 46 42
21 46 42
21 47 42
21 47 42
21 46 42
22 48 43
21 47 43
22 48 43
21 45 41
22 48 44
21 46 42
21 46 42
21 47 42
22 47 43
21 46 42
21 46 41
22 47 43
22 48 44
22 47 43
22 47 43
21 46 42
21 45 41
20 44 40
21 45 41
21 46 42
21 47 42
21 46 42
21 46 42
20 45 41
21 45 41
20 43 39
21 45 41
21 46 42
21 46 41
21 46 42
21 45 41
22 48 44
21 46 41
21 45 41
22 47 42
22 46 42
22 47 42
22 47 43
22 46 42
22 46 42
23 47 43
23 48 43
23 49 44
23 47 42
22 46 42
23 47 42
23 46 42
23 48 43
23 48 44
24 49 44
24 49 44
23 47 42
25 50 45
24 49 44
25 49 44
25 49 45
25 49 44
25 49 44
24 47 43
24 47 43
26 51 46
25 50 45
24 48 43
24 47 42
24 47 43
25 47 43
26 50 45
25 49 44
25 48 43
25 48 43
24 47 43
23 45 41
22 43 39
22 43 40
19 39 36
18 38 35
16 35 33
15 34 32
14 33 32
13 30 29
14 32 31
14 33 31
14 33 31
14 33 32
13 31 30
13 31 30
13 31 30
13 30 29
13 31 30
14 32 31
15 35 33
16 35 33
18 37 35
20 41 38
21 43 39
22 43 39
23 46 41
24 47 43
25 49 44
25 49 44
24 47 43
24 48 44
24 47 42
24 48 44
24 47 43
24 48 43
24 48 43
24 48 43
24 48 43
24 49 44
24 49 45
24 49 44
24 49 44
24 50 45
23 48 44
23 47 43
23 49 44
23 47 43
23 49 44
22 47 42
23 48 43
23 50 45
23 49 44
22 47 43
22 48 43
22 47 43
23 49 44
23 48 44
22 48 43
22 48 43
23 49 44
22 48 43
23 49 44
23 49 44
23 49 44
22 49 44
22 47 42
22 48 43
23 50 45
22 49 44
21 46 42
22 48 43
21 46 42
20 45 41
21 46 42
21 45 41
21 46 42
21 46 42
21 47 43
21 47 43
21 46 41
21 46 41
21 46 42
21 46 42
21 47 43
21 46 42
21 45 41
21 46 41
21 46 42
21 45 41
21 47 43
21 47 43
22 48 43
20 45 41
20 45 41
21 46 41
22 48 43
21 47 42
22 48 43
21 47 42
22 47 43
21 46 42
21 47 42
22 47 43
20 45 41
20 44 40
21 47 43
21 45 41
21 45 41
21 46 42
21 46 42
21 46 42
21 45 41
21 46 41
21 47 42
20 44 40
21 45 41
22 47 43
22 48 44
21 46 42
21 46 42
21 47 43
22 49 45
22 48 44
22 47 43
20 45 41
22 49 44
21 46 42
20 44 40
21 45 41
22 48 44
21 46 42
21 46 42
21 47 43
21 47 42
22 47 43
21 46 41
20 45 41
22 48 43
21 47 42
21 47 42
21 47 43
21 46 42
22 47 42
22 47 43
22 47 43
21 46 41
21 46 42
22 47 43
20 44 39
22 48 44
21 46 42
21 44 40
21 46 42
21 45 41
21 45 40
22 48 44
21 46 41
22 47 43
22 47 42
21 45 41
22 46 42
22 48 43
23 48 44
23 49 44
22 46 41
22 47 42
23 48 43
23 49 44
23 47 43
23 47 43
24 49 45
24 50 45
23 47 43
23 47 42
24 50 45
24 48 44
23 47 42
24 47 43
24 48 43
25 50 45
25 50 45
24 49 44
25 49 44
24 48 43
25 49 44
25 48 44
25 48 44
25 48 43
25 49 44
25 49 44
26 50 45
26 50 45
26 49 44
25 48 43
25 48 43
26 49 44
26 49 44
26 50 45
26 49 44
25 47 42
25 48 43
24 46 42
22 43 39
21 41 37
20 39 36
19 39 36
17 36 34
16 35 33
16 35 34
15 34 32
14 32 30
13 31 30
14 32 31
14 31 30
14 31 30
14 32 31
15 33 32
16 35 33
16 35 34
17 37 34
19 38 35
20 41 38
22 43 39
23 44 40
24 47 43
25 48 43
25 48 43
24 47 42
24 47 42
24 47 43
24 47 43
25 48 43
25 49 44
24 48 43
24 48 43
24 48 43
24 49 44
24 49 44
24 48 43
23 47 42
24 48 43
23 47 43
24 48 44
24 50 45
24 49 44
23 48 44
23 47 43
23 48 43
23 47 43
23 48 43
22 46 42
23 49 44
23 49 44
22 47 42
22 47 43
23 49 45
22 46 42
22 47 43
22 48 43
23 49 44
22 48 43
22 47 43
22 46 42
21 46 42
21 47 42
23 49 45
22 48 43
22 47 43
23 49 44
23 50 46
22 48 44
21 47 43
21 47 43
21 47 43
21 46 42
21 46 42
22 47 43
21 47 43
21 46 42
21 46 42
21 46 42
21 46 42
21 46 42
21 47 43
22 49 45
22 48 43
20 45 41
21 46 42
21 46 42
21 46 42
22 49 44
22 49 44
21 46 42
21 45 41
22 48 44
21 47 43
20 45 41
21 46 41
21 46 42
21 46 42
22 48 43
22 47 43
20 44 40
22 48 43
21 47 43
22 48 43
21 46 42
22 48 44
21 47 42
20 45 41
21 45 41
21 47 43
21 46 42
21 47 42
22 48 43
21 46 42
21 47 43
21 46 42
22 48 44
21 46 42
22 49 44
22 48 43
21 47 43
22 48 43
21 46 42
21 47 42
21 46 42
21 47 43
22 47 43
21 45 41
22 48 44
21 47 43
21 46 42
21 46 42
22 48 43
21 45 41
23 50 45
21 46 42
21 45 41
21 46 42
22 47 43
22 48 43
22 48 44
20 45 40
21 46 42
22 47 43
22 47 43
22 47 42
22 47 43
22 47 42
21 46 42
22 47 42
21 46 41
22 47 43
23 49 44
21 45 40
23 49 44
22 47 43
22 48 43
22 47 42
22 46 42
23 48 44
22 46 42
23 49 44
22 47 42
23 47 42
23 48 44
23 47 43
23 47 42
24 49 44
23 47 43
24 48 43
23 47 43
23 47 42
23 47 43
24 49 44
24 47 43
25 49 44
24 49 44
24 48 43
25 49 45
25 48 43
25 48 44
25 47 43
25 49 44
25 47 42
25 48 43
25 47 43
26 50 45
26 49 44
26 50 45
26 48 43
26 48 43
26 49 44
26 49 44
27 50 45
27 49 44
26 47 43
27 50 45
26 49 44
26 49 44
25 46 41
25 46 42
24 44 40
22 43 39
22 42 39
20 40 37
20 41 38
19 39 36
18 37 35
17 36 34
17 35 33
17 36 34
16 33 32
17 37 35
17 36 34
19 39 36
19 38 36
19 39 36
21 41 37
22 42 39
23 44 40
23 44 40
25 48 43
25 47 42
26 48 44
25 48 43
25 48 43
26 50 45
26 50 45
26 49 44
25 48 43
26 50 45
24 46 42
24 48 43
24 47 43
25 48 44
25 49 44
24 48 43
24 48 43
24 48 43
24 49 44
23 47 42
24 49 45
23 47 42
23 48 43
23 47 43
23 47 43
23 47 42
24 49 44
23 48 43
23 48 43
23 47 43
23 48 43
22 47 43
23 48 44
22 47 43
22 48 43
22 47 42
22 47 43
23 49 44
22 47 42
22 48 43
22 48 43
22 47 42
23 49 44
22 48 44
22 48 44
22 47 43
21 46 42
22 47 43
22 48 44
21 45 41
21 45 41
21 47 43
20 44 40
20 44 40
21 46 42
21 47 42
21 46 42
20 45 41
21 46 42
21 46 41
21 47 43
21 47 43
21 46 42
22 48 43
20 45 41
21 47 43
21 47 43
22 48 44
21 47 43
22 48 44
21 46 42
21 46 41
21 46 42
21 47 42
22 49 44
21 46 42
21 45 41
21 47 42
21 45 41
21 47 43
22 47 43
21 47 43
22 49 44
20 45 41
21 47 43
22 47 43
22 47 43
22 48 43
22 47 43
21 46 42
21 47 43
22 48 43
22 48 44
21 47 43
22 47 43
21 46 41
21 47 43
22 48 44
22 48 44
21 47 43
22 48 44
21 47 42
20 45 41
22 47 43
21 47 42
22 48 43
21 46 42
21 46 42
21 47 42
22 48 43
22 47 43
22 48 43
21 47 42
21 46 42
21 45 41
22 48 44
21 45 41
21 47 42
22 48 43
21 45 41
21 47 42
21 46 41
21 46 42
22 47 43
23 50 45
22 48 43
22 47 43
22 47 42
22 47 43
21 45 41
23 49 44
23 48 44
22 47 42
22 47 42
24 51 46
23 48 44
23 49 44
23 49 45
23 48 44
22 45 41
23 49 44
23 47 43
23 48 43
23 47 42
23 47 42
23 47 42
24 48 44
23 48 43
24 49 44
24 49 44
25 49 45
24 49 44
25 50 46
25 49 44
25 48 43
25 49 44
25 50 45
24 46 42
26 50 45
25 49 44
26 50 45
26 50 45
26 49 44
26 48 44
26 50 45
27 50 45
26 48 43
27 49 44
27 49 44
27 50 45
27 50 45
27 48 43
26 47 42
28 50 45
27 48 43
27 48 43
28 50 45
28 50 45
28 50 45
27 50 45
26 46 41
25 46 42
24 44 40
24 45 41
23 42 39
22 41 38
21 41 38
22 42 39
21 41 38
21 40 37
20 40 37
21 42 39
21 41 38
22 42 38
22 43 39
23 43 39
24 45 41
24 45 41
25 47 43
26 47 42
26 48 43
26 49 44
27 49 44
26 47 42
27 49 44
27 50 45
26 49 44
25 47 42
26 49 44
26 48 43
25 47 43
26 51 46
26 49 45
25 48 44
25 49 44
25 50 45
24 47 43
25 49 44
24 48 43
25 49 44
24 49 44
25 49 45
23 46 42
24 48 44
24 48 43
24 49 44
23 47 43
23 48 44
23 47 43
24 50 45
23 48 44
23 47 43
23 48 43
23 48 44
23 48 44
23 48 44
22 47 43
22 47 43
23 48 44
22 47 43
23 50 45
22 47 43
22 48 43
22 48 44
22 48 44
22 48 43
21 47 42
22 48 44
21 45 41
21 47 43
21 47 43
22 49 44
21 47 43
22 48 43
20 45 41
21 46 42
21 47 43
21 47 42
21 46 42
22 48 43
21 46 42
21 46 42
21 46 42
22 48 44
21 46 42
21 46 42
21 47 43
20 45 41
21 46 42
21 46 42
21 46 42
21 47 43
22 47 43
21 46 42
21 46 42
22 47 43
21 46 42
20 45 41
21 47 42
22 48 43
21 46 42
22 50 45
21 47 42
20 45 41
22 47 43
21 46 42
22 48 43
21 47 43
21 46 42
22 47 43
20 45 41
21 47 43
22 48 43
21 46 42
21 46 42
21 47 43
21 46 42
21 46 42
21 46 42
22 48 44
21 47 42
23 50 46
22 49 44
21 47 43
22 48 44
22 48 44
22 48 44
22 48 44
22 48 44
22 47 43
22 48 44
21 46 42
21 47 43
21 47 42
22 48 43
22 47 43
23 49 45
22 48 43
21 46 42
22 48 44
21 46 42
23 49 44
22 49 44
21 45 41
22 47 43
22 48 43
21 45 41
22 47 43
23 48 44
22 48 43
23 48 44
22 48 43
23 48 43
21 45 41
22 46 41
23 48 43
22 47 43
23 48 43
23 47 43
22 46 42
23 48 43
23 47 42
23 47 42
23 47 43
24 48 43
23 45 41
23 46 42
24 48 44
24 48 44
25 50 45
25 48 43
24 47 42
24 47 43
25 50 45
26 50 45
25 48 43
25 48 43
26 49 44
26 49 44
26 49 44
26 48 44
27 50 45
26 48 43
27 49 44
27 49 44
27 49 44
27 50 45
28 50 45
28 50 45
28 51 46
27 48 43
28 50 45
28 50 45
29 52 47
28 48 43
28 49 44
29 51 46
28 49 44
29 52 47
28 48 43
29 51 46
27 48 43
27 48 44
27 48 43
26 45 41
25 45 41
25 46 42
24 44 40
24 44 40
24 44 41
24 45 41
24 44 40
25 45 41
25 46 42
26 47 42
26 46 42
27 48 44
27 48 43
27 48 43
27 48 43
28 50 45
28 49 44
28 50 45
27 49 44
27 49 44
27 50 45
27 48 43
27 50 45
27 49 44
26 49 44
26 48 43
26 49 44
27 51 46
25 48 43
26 49 44
25 48 43
26 49 45
25 49 45
25 48 44
25 49 44
24 48 43
25 49 44
24 47 43
24 49 44
25 49 45
25 50 45
24 48 44
24 48 44
23 48 43
23 48 43
24 49 44
24 49 44
23 47 42
23 48 43
22 46 42
24 50 45
22 47 43
23 48 44
23 49 44
22 46 42
23 48 44
22 47 43
23 50 45
21 46 42
23 49 44
22 47 43
22 48 44
23 49 45
21 47 43
21 45 41
20 45 41
20 45 41
22 48 43
20 45 41
21 47 43
20 44 40
21 46 42
22 49 45
21 47 43
22 47 43
20 45 41
22 47 43
21 47 43
21 47 43
21 47 43
22 48 43
21 46 42
21 47 42
22 47 43
21 47 43
21 47 43
21 46 42
22 47 43
21 45 41
22 48 44
21 45 41
21 47 42
21 45 41
23 50 45
21 47 43
21 47 43
21 47 42
21 47 42
21 46 42
21 46 42
21 47 42
21 46 42
21 46 42
22 49 44
22 48 44
21 45 41
21 47 43
22 48 44
20 45 41
21 47 43
20 44 40
23 49 45
21 47 42
21 46 42
22 48 44
22 49 44
21 46 42
21 46 42
21 47 43
21 46 42
22 48 44
21 47 42
22 48 43
21 45 41
21 46 42
21 47 42
21 47 42
21 46 42
21 46 42
22 49 44
21 47 42
22 48 43
21 46 42
22 47 43
22 47 43
21 46 42
22 48 43
23 50 45
22 47 43
22 47 42
21 46 42
22 46 42
22 48 43
22 47 43
22 47 42
23 49 44
23 48 44
22 47 42
22 47 42
23 47 43
23 48 44
23 49 44
24 49 44
23 47 42
23 47 43
23 47 43
24 49 45
23 47 42
24 47 42
24 48 43
24 48 43
24 48 44
24 48 44
25 50 45
24 47 43
26 50 45
26 50 45
25 48 44
25 49 44
26 49 44
26 49 44
26 50 45
26 49 44
27 49 44
27 49 44
27 49 44
27 49 44
27 50 45
28 51 46
28 50 45
28 51 45
29 52 46
28 49 45
29 51 46
28 49 44
28 49 44
29 50 45
30 52 47
29 50 45
29 48 43
30 52 47
30 51 46
30 51 46
30 51 46
30 51 45
30 52 46
30 51 45
30 51 46
29 49 44
29 50 45
29 49 45
28 49 44
28 49 44
28 48 44
28 48 43
28 48 43
28 48 43
28 48 43
27 47 42
28 48 43
28 48 43
29 49 44
29 50 45
29 50 45
29 50 45
29 51 46
29 52 47
28 50 44
28 48 43
28 49 44
27 48 43
28 50 45
28 50 45
27 48 43
28 50 45
27 50 45
27 49 44
26 49 44
27 50 45
26 48 43
26 49 44
26 49 44
25 48 43
26 49 44
26 49 45
25 48 43
26 50 45
25 49 44
25 48 43
25 49 44
24 48 43
24 49 44
25 50 45
24 48 43
24 49 45
25 51 46
24 49 44
24 49 45
23 48 43
23 47 43
23 48 43
23 47 43
23 49 45
23 49 45
23 49 45
23 49 45
22 48 43
24 50 46
23 48 44
23 50 45
23 49 44
22 48 43
22 48 43
21 46 42
22 49 45
21 46 42
20 45 41
22 47 43
21 46 42
22 49 44
21 46 42
21 47 42
21 47 43
21 47 42
21 46 42
22 48 44
21 46 42
21 46 42
21 47 43
21 46 42
22 48 44
21 46 42
22 47 43
21 47 43
21 45 41
20 45 41
20 45 41
21 46 42
22 47 43
21 46 42
20 45 41
21 45 41
21 46 42
22 48 44
21 46 42
21 47 42
21 46 42
22 49 44
21 47 43
21 46 42
22 48 43
22 47 43
20 45 41
22 48 43
22 48 43
21 46 42
22 48 43
21 45 41
22 47 43
20 45 41
21 47 43
22 48 44
22 47 43
21 46 42
21 46 42
22 49 44
21 47 43
21 46 42
22 49 45
21 47 43
21 47 43
21 47 42
21 47 43
22 49 44
22 48 43
21 47 42
22 47 43
22 47 43
22 47 43
21 46 42
21 46 41
21 46 41
22 47 43
22 47 43
22 47 42
21 46 41
22 47 42
22 47 43
22 46 42
22 48 43
22 47 43
22 46 42
21 45 41
22 47 42
22 47 43
23 49 45
22 47 42
23 48 43
23 47 43
23 48 44
24 49 44
23 47 43
24 49 45
24 48 44
24 49 44
23 47 42
24 48 44
24 48 43
25 50 45
24 48 43
24 47 42
24 48 43
25 48 43
25 49 44
25 48 44
25 48 44
26 49 44
26 48 44
26 48 44
26 49 44
27 49 45
27 50 45
28 51 46
28 50 45
28 49 44
28 50 45
28 50 45
29 52 47
29 51 46
28 50 45
28 49 44
29 51 45
29 50 45
29 49 44
30 51 45
30 52 47
30 51 46
30 50 45
30 50 45
31 52 46
31 51 45
31 51 45
31 51 45
31 51 45
31 52 46
31 51 46
31 51 45
31 52 47
31 52 47
31 52 46
31 52 46
31 51 45
30 50 45
30 50 45
31 51 46
30 51 45
30 51 45
30 50 45
30 49 44
30 50 45
30 50 45
30 49 44
30 51 46
30 50 45
30 51 45
30 51 45
30 51 46
30 51 46
29 50 44
29 50 45
29 50 45
28 49 44
28 50 44
28 49 44
28 50 45
28 49 44
28 51 46
28 51 46
28 52 47
27 49 44
27 49 44
27 50 45
26 48 44
26 49 44
26 50 45
26 49 45
26 49 44
26 51 46
26 51 46
25 49 44
25 49 44
25 49 44
24 48 44
24 49 44
24 48 44
24 48 44
24 50 45
24 50 45
24 48 44
24 49 44
23 47 43
22 47 42
24 49 45
22 47 42
23 49 44
23 48 44
23 48 43
22 48 43
22 47 43
23 50 45
21 46 42
22 47 43
23 48 44
21 46 42
22 48 44
21 47 43
21 46 42
21 46 42
20 45 41
21 46 42
21 46 42
22 48 43
21 47 42
21 47 43
20 44 40
21 46 42
21 46 42
22 48 44
21 47 43
20 45 41
22 49 44
22 48 43
21 46 42
21 46 42
21 47 43
21 46 42
22 48 44
22 48 43
22 47 43
21 46 42
21 46 42
21 47 43
20 45 41
22 48 43
21 47 43
21 47 42
22 48 43
22 48 44
21 47 43
21 45 41
21 46 42
21 46 42
22 48 43
21 45 41
22 47 43
22 48 44
22 48 44
21 46 42
22 48 43
21 46 42
20 44 40
21 46 42
22 49 44
21 46 42
22 48 43
22 48 44
22 47 43
22 47 43
21 47 42
21 47 43
21 45 41
21 47 43
21 46 42
21 46 42
21 46 42
22 47 43
21 46 42
21 46 41
22 47 43
22 47 43
22 47 43
21 46 41
22 48 43
22 47 43
22 47 43
22 47 43
22 46 42
22 47 43
22 46 42
21 45 41
22 46 42
22 46 42
22 47 43
22 46 41
22 47 43
23 48 43
23 49 44
22 46 42
22 46 42
22 46 41
24 49 44
23 48 43
24 48 43
24 48 44
24 49 44
25 49 44
25 49 44
25 49 44
24 47 43
25 48 44
25 49 44
25 49 44
26 49 45
26 48 44
26 48 43
26 48 44
26 47 43
26 48 43
27 50 45
27 49 45
27 49 44
27 49 44
28 49 44
28 50 45
28 50 45
29 52 46
30 52 47
30 52 47
30 52 47
30 51 46
30 50 45
31 52 47
30 49 44
30 50 45
31 51 46
31 52 47
31 50 45
32 52 46
31 51 45
32 53 47
32 53 47
32 51 46
32 51 46
33 53 48
32 51 46
32 51 45
33 52 47
32 52 46
33 53 47
33 53 47
32 52 46
33 53 47
33 53 48
33 53 47
32 52 46
32 52 47
32 53 47
32 51 45
32 51 46
32 52 46
32 51 46
32 51 46
32 52 47
32 52 46
32 52 47
31 51 46
30 50 45
31 51 45
31 52 47
30 50 45
30 51 46
30 51 46
30 51 46
30 52 47
29 50 45
29 50 45
29 50 45
28 49 45
29 51 46
28 50 45
27 49 44
28 50 45
28 52 47
27 50 45
27 49 44
27 50 45
26 49 45
26 49 45
25 48 44
26 50 45
25 48 43
25 49 44
25 49 44
25 49 45
24 48 43
24 49 44
25 50 45
24 49 44
25 51 46
24 49 44
23 47 43
24 49 44
24 49 44
24 50 45
23 49 44
24 51 46
22 47 43
23 49 44
23 49 44
23 49 44
23 48 44
22 47 42
22 48 44
21 47 43
21 47 43
21 47 43
21 46 42
20 44 40
21 46 42
21 46 42
21 46 42
21 45 41
21 46 42
21 46 42
20 45 41
20 45 41
21 46 42
21 47 43
21 46 42
21 47 43
21 46 42
20 45 41
21 45 41
21 46 42
20 45 41
22 48 44
21 46 42
22 48 44
21 47 43
21 47 43
21 47 43
21 46 42
21 46 42
21 46 42
21 47 43
21 47 42
21 47 42
21 46 42
21 47 43
20 45 41
22 48 44
21 47 42
21 47 43
21 46 42
22 48 44
22 47 43
22 47 43
21 46 42
21 46 42
22 47 43
21 47 43
21 46 42
21 46 42
21 46 42
21 47 43
22 47 43
22 48 43
22 47 43
22 47 43
22 49 45
21 46 42
21 46 41
21 46 42
21 47 42
21 45 41
21 46 42
22 49 44
22 48 43
21 45 41
22 48 43
22 47 43
21 46 42
22 48 44
21 46 42
22 48 44
22 47 43
22 47 43
22 47 43
22 46 42
23 49 44
23 48 44
22 46 42
22 46 42
22 46 42
24 49 45
23 47 42
24 50 46
23 48 43
24 49 44
23 48 44
24 49 44
24 48 44
23 47 42
23 46 42
25 49 44
25 50 45
25 49 44
25 48 43
25 48 43
25 48 44
26 49 44
26 50 45
26 49 44
27 50 45
27 49 44
27 49 44
27 50 45
28 51 46
28 51 46
28 50 45
29 51 46
29 52 47
29 49 44
29 50 45
30 53 48
29 50 44
31 53 48
31 51 46
31 52 47
31 52 47
31 50 45
31 52 46
31 50 45
32 52 46
32 51 46
32 52 46
33 53 48
33 52 47
33 52 47
33 53 47
33 51 45
33 52 46
34 53 47
34 52 47
33 52 46
34 53 48
34 53 47
34 53 47
35 55 49
34 54 48
34 52 46
34 52 46
34 52 46
34 53 47
34 54 48
34 53 47
34 52 47
34 52 47
33 52 47
33 51 46
33 52 47
33 53 47
33 51 45
33 52 46
32 51 45
33 54 49
32 51 45
32 53 47
32 52 47
32 52 47
32 53 47
31 52 47
30 50 45
30 51 45
30 51 46
31 52 47
30 52 47
30 52 47
29 50 45
29 50 45
29 51 46
28 49 44
28 50 45
28 50 45
27 49 45
27 49 44
27 49 44
27 49 44
26 49 44
26 49 44
27 51 46
26 49 44
26 51 46
25 47 43
25 48 43
24 47 42
24 48 43
25 49 45
24 48 44
23 46 42
24 49 44
24 49 45
24 50 45
23 48 43
24 49 44
23 47 42
24 50 45
23 48 43
24 50 45
23 48 44
23 50 45
23 49 44
22 47 43
20 45 41
21 46 42
21 47 43
21 47 42
21 47 43
21 46 42
22 48 44
22 47 43
20 45 41
21 45 41
21 47 42
21 45 41
21 46 42
21 47 43
21 46 42
21 47 43
21 46 42
21 47 43
21 46 42
21 47 43
21 47 43
21 47 42
21 46 41
21 46 42
21 47 42
21 46 42
21 47 43
20 45 41
21 46 42
22 48 44
21 46 42
21 46 42
21 46 42
21 46 42
21 46 42
21 46 42
22 48 43
20 45 41
21 46 41
22 48 44
21 47 43
21 46 42
22 49 44
21 47 42
22 48 44
21 47 43
21 47 43
22 48 43
21 46 41
20 45 41
22 47 43
21 47 42
21 47 43
21 46 41
21 46 42
21 46 42
22 48 43
22 49 44
22 47 43
21 45 41
21 46 42
21 46 42
21 46 42
21 46 41
21 46 42
22 48 43
22 47 43
22 47 42
21 46 42
23 49 44
22 47 43
22 47 43
22 46 42
22 47 42
22 47 43
23 50 45
23 48 44
23 48 43
23 47 43
23 48 43
23 47 43
24 50 45
23 48 43
24 49 44
23 48 44
25 50 46
23 47 42
24 48 44
24 47 43
25 50 45
25 49 44
25 49 44
25 48 43
25 49 44
26 50 45
26 50 45
26 50 45
27 52 47
27 50 45
27 49 44
28 50 45
28 52 47
27 49 44
29 52 47
29 50 45
29 50 45
29 51 46
30 51 46
30 51 46
30 51 46
30 51 46
31 51 46
31 50 45
31 52 46
32 52 47
32 52 47
32 53 47
33 52 47
33 53 47
33 53 48
33 53 47
34 53 48
34 52 47
34 52 46
34 53 48
35 54 48
35 53 48
35 54 48
36 55 49
35 54 48
35 54 48
35 53 47
35 54 48
36 54 48
36 54 48
36 54 48
35 52 47
35 53 48
35 52 47
35 53 47
36 54 48
36 54 48
36 55 49
35 52 47
35 52 46
35 53 48
35 54 49
35 54 48
35 53 47
35 54 48
34 53 48
35 54 48
35 55 49
34 53 48
34 53 48
34 54 48
32 51 45
32 51 46
33 54 48
32 51 45
32 53 47
31 51 46
30 49 44
32 53 48
31 51 46
30 51 46
30 51 46
29 50 45
30 52 46
29 52 46
29 52 46
29 51 46
28 50 45
28 50 45
27 49 44
27 49 44
27 50 45
27 50 46
27 50 45
26 48 43
27 51 46
26 49 44
26 50 46
25 49 45
25 49 44
25 49 44
24 49 44
25 49 45
24 48 44
23 47 43
23 47 42
24 49 44
23 48 44
23 47 43
23 48 44
24 50 45
23 49 44
24 50 45
23 48 43
23 48 43
21 47 43
21 46 42
21 47 43
21 47 43
21 47 42
21 46 42
21 47 42
21 45 41
20 43 40
21 46 42
21 45 41
21 46 42
21 46 42
22 47 43
22 47 43
21 46 42
21 46 42
21 47 43
21 45 41
20 44 40
21 47 43
20 45 41
21 45 41
21 47 43
21 47 43
21 46 42
21 46 42
21 46 42
21 46 42
22 48 44
22 48 43
21 47 43
21 47 43
21 47 43
21 45 41
21 46 42
21 46 42
20 45 41
21 46 42
21 47 43
21 45 41
20 45 41
21 47 43
21 46 42
22 48 43
21 47 43
21 46 42
22 48 44
21 47 43
22 48 44
21 46 42
21 46 42
22 48 43
22 48 43
21 47 43
22 48 44
22 48 43
21 47 43
22 48 44
22 49 44
22 49 44
22 48 43
21 46 42
22 47 43
22 47 43
22 47 43
23 49 45
22 47 42
22 48 44
22 47 43
21 46 42
22 48 44
22 48 43
22 46 42
23 49 44
22 47 43
22 47 43
23 47 43
23 48 43
23 48 44
22 46 42
23 48 43
23 47 42
23 47 42
23 47 43
24 47 43
24 47 43
25 50 45
25 49 45
24 47 42
25 49 44
25 48 43
25 46 42
26 49 44
27 50 45
27 50 45
26 49 44
28 51 46
27 48 43
28 50 45
28 50 45
28 50 45
29 52 47
29 50 45
29 50 45
29 50 45
30 50 45
30 50 45
30 50 45
31 51 46
31 50 44
32 53 47
32 51 46
33 52 47
33 52 47
33 51 46
34 53 48
34 53 47
34 54 48
35 55 49
35 53 48
35 54 48
35 53 47
36 54 48
36 54 48
36 55 49
36 55 49
37 55 49
37 55 49
36 54 48
37 54 48
37 55 49
38 56 50
38 56 50
37 55 49
37 54 48
38 57 51
37 53 48
37 55 49
38 56 50
37 54 48
37 55 49
37 56 49
37 54 48
37 54 48
37 56 50
36 53 47
37 57 51
36 54 48
36 54 48
36 53 47
36 54 48
36 54 49
35 53 47
35 53 47
35 53 48
34 53 47
34 53 47
34 53 48
33 51 46
33 53 47
33 52 47
33 53 47
32 50 45
31 51 45
32 52 46
32 53 47
31 52 47
31 51 46
30 51 46
30 51 46
30 51 46
29 51 46
29 50 45
28 50 45
28 50 45
28 50 45
27 49 44
27 48 44
27 51 46
26 49 44
26 48 44
26 48 44
26 50 45
25 47 43
26 50 45
25 50 45
25 48 44
25 49 44
24 48 44
25 50 45
24 48 43
24 48 44
23 47 42
23 48 43
24 50 45
23 48 44
23 49 44
23 49 45
24 51 46
21 47 43
20 44 40
20 43 39
21 46 42
22 49 45
22 48 43
20 44 40
20 44 40
21 47 43
21 46 42
21 46 42
21 47 43
20 44 40
21 46 42
21 46 42
21 46 42
21 46 42
21 46 42
21 47 42
20 45 41
21 46 42
21 46 42
22 48 44
21 46 42
22 48 44
21 46 42
21 47 43
21 47 43
21 46 42
21 46 42
21 47 43
22 48 44
21 46 42
21 47 42
21 46 42
22 48 43
21 45 41
21 47 43
21 47 43
22 48 44
21 47 43
22 48 43
21 46 42
21 46 42
22 47 43
22 49 45
21 47 42
21 47 43
21 46 42
22 48 44
22 48 44
20 44 40
22 48 44
21 46 42
21 46 42
20 45 41
21 46 42
22 47 43
22 47 43
21 46 41
22 48 44
22 48 43
21 45 41
22 48 43
22 48 43
22 47 43
21 45 41
21 45 41
23 48 44
21 46 42
22 46 42
21 45 41
22 47 43
24 50 46
23 49 44
24 50 45
22 47 42
24 50 45
23 48 43
23 48 43
23 48 43
24 49 45
24 48 43
23 47 43
24 49 44
25 49 44
25 50 45
25 48 43
25 48 43
25 48 44
26 50 45
26 49 44
26 49 44
27 49 45
27 50 45
28 51 46
28 50 45
28 51 46
28 50 45
28 49 44
28 49 44
29 51 46
30 50 45
30 51 45
31 52 47
31 52 46
31 51 46
31 50 45
32 52 47
33 54 48
33 53 47
33 51 46
33 51 45
35 55 49
35 54 49
34 53 47
35 53 47
35 54 48
36 55 49
36 54 49
36 54 48
36 54 48
38 56 50
37 56 49
37 54 48
38 55 49
38 56 50
38 54 48
39 57 50
38 56 50
38 55 49
39 58 51
38 55 49
39 56 50
39 56 50
39 56 49
39 56 50
39 54 48
39 57 50
40 57 51
39 56 50
39 56 50
39 56 50
39 55 49
39 56 49
38 55 49
39 56 50
38 56 50
39 57 51
38 56 49
38 55 49
37 54 48
37 54 48
37 55 49
36 54 48
37 55 49
36 53 47
36 55 49
35 54 48
35 54 48
35 54 48
34 53 47
34 53 47
33 52 47
33 52 47
33 54 48
32 52 46
32 51 46
32 53 47
32 53 47
31 52 47
31 52 47
30 51 46
30 52 47
29 51 46
29 51 46
28 50 45
28 50 45
28 51 46
27 49 44
27 48 44
27 50 46
27 50 45
27 51 46
25 47 42
26 49 45
26 49 45
25 49 45
25 49 44
25 48 44
25 50 45
25 51 47
24 47 43
24 48 43
24 49 45
24 49 45
23 48 44
23 48 44
24 50 45
24 50 45
22 49 44
21 45 41
21 46 42
21 46 42
21 47 43
22 48 44
21 46 42
22 48 43
22 47 43
21 47 43
22 48 44
21 46 41
22 48 44
21 46 42
21 47 43
21 47 43
23 49 45
21 45 41
21 46 42
21 47 42
21 47 42
21 46 42
21 46 42
22 48 44
21 47 43
20 45 41
21 45 41
22 48 44
21 46 41
21 46 42
21 46 42
21 47 42
20 45 41
21 46 42
21 45 41
21 46 42
20 44 40
22 48 44
22 48 43
21 46 42
22 48 43
22 48 43
21 46 42
20 45 41
22 49 44
21 47 43
20 45 41
22 48 44
21 45 41
21 46 42
21 46 42
22 47 43
21 46 41
21 46 42
22 49 44
21 45 41
21 47 43
22 47 43
21 47 42
21 46 42
22 47 43
22 47 43
21 47 42
22 49 44
22 47 43
22 48 44
21 46 41
22 47 43
22 48 44
22 48 43
23 48 44
23 48 44
22 47 43
22 47 43
22 46 42
23 48 44
23 48 44
23 47 43
23 48 43
23 48 43
23 46 42
25 50 45
24 48 43
24 48 43
25 49 44
25 48 44
24 46 42
25 48 43
25 48 43
26 48 43
27 51 46
27 50 45
27 49 44
27 48 44
27 49 45
28 51 46
29 51 46
28 49 44
29 51 46
30 51 46
30 51 46
30 50 45
31 53 47
31 51 46
31 50 45
32 52 47
33 52 47
32 51 46
33 53 48
34 53 47
34 54 48
34 51 46
35 53 48
35 54 48
36 54 48
36 54 48
36 54 48
37 56 50
37 55 49
37 54 48
38 57 50
38 56 50
38 55 49
39 55 49
39 56 50
40 57 51
40 57 50
39 55 49
41 58 52
40 56 49
40 56 50
41 57 51
40 55 49
41 56 50
41 57 51
41 57 50
41 55 49
41 58 51
41 56 50
41 56 50
41 58 51
41 57 51
41 56 50
41 57 51
40 56 50
40 56 49
40 57 50
40 56 50
40 57 51
40 56 50
39 55 49
39 55 49
39 56 50
39 57 51
38 56 49
38 55 49
38 56 50
37 55 49
37 55 49
36 53 47
36 54 48
36 54 48
36 55 49
35 53 47
34 52 47
34 53 47
34 53 47
33 53 47
33 52 46
32 52 47
32 52 47
31 51 46
31 51 45
31 52 47
30 51 46
30 51 46
30 53 48
29 50 45
29 51 46
29 51 46
28 49 44
29 53 47
28 51 46
27 49 44
27 50 45
27 51 46
26 50 45
26 49 44
25 48 43
26 51 46
25 48 43
24 48 43
24 48 44
24 48 44
24 49 44
23 47 42
23 47 43
24 50 45
22 46 42
23 48 43
20 45 41
21 46 42
21 46 42
21 46 42
21 46 42
21 46 42
21 47 43
21 47 43
22 48 44
21 47 43
22 47 43
21 45 41
21 46 42
21 46 42
21 45 41
22 48 44
21 47 43
21 47 43
22 48 43
21 47 43
21 46 42
21 47 42
21 47 43
21 47 43
21 45 41
21 46 42
22 48 43
21 46 42
22 48 43
21 46 42
21 47 43
23 50 46
21 46 42
20 45 41
21 45 41
21 47 43
22 48 44
21 46 42
21 46 42
22 48 44
21 46 42
20 45 41
21 46 42
21 47 43
21 46 42
21 46 42
21 45 41
22 49 44
21 46 42
22 48 43
21 46 42
21 47 43
22 48 44
22 48 44
22 47 43
21 47 42
22 48 43
21 47 43
21 45 41
21 47 42
21 46 42
22 48 44
21 46 42
23 49 44
22 46 42
23 49 44
22 48 43
22 47 42
22 47 42
22 45 41
22 47 43
22 47 42
22 47 42
23 48 44
23 48 43
23 47 43
24 48 44
23 48 43
24 50 45
24 49 44
24 47 42
24 48 43
25 49 45
25 50 45
25 48 43
25 48 43
26 49 44
26 49 44
26 49 45
27 50 45
27 50 45
27 49 45
27 49 44
28 50 45
28 49 44
29 50 45
29 50 45
29 50 45
30 51 46
30 51 46
31 52 47
31 51 46
32 51 46
32 51 46
33 52 47
33 52 47
34 53 47
34 53 47
35 55 49
35 53 48
35 53 47
36 54 48
36 52 46
37 54 48
38 56 50
38 55 49
38 56 50
38 55 49
39 56 50
39 56 50
40 57 51
40 57 50
40 57 51
40 56 50
41 58 52
41 56 49
41 57 50
42 58 51
42 57 51
42 58 51
42 57 51
43 59 52
43 57 51
43 59 53
43 57 51
43 58 51
43 57 51
43 58 51
43 59 52
43 57 51
43 59 52
43 58 51
43 59 52
42 57 50
43 58 51
42 57 51
42 58 52
42 57 51
42 57 51
42 59 52
41 56 50
40 55 49
40 55 49
40 57 50
40 57 51
40 57 50
39 57 50
39 55 49
38 56 49
38 56 50
39 58 51
37 54 48
36 53 48
36 53 47
36 54 48
35 54 48
35 53 48
34 52 46
34 53 47
33 52 47
33 52 47
32 52 46
32 51 46
31 51 46
32 53 47
31 51 46
31 53 48
30 51 46
30 50 45
29 51 46
29 51 46
29 52 47
28 50 45
28 52 47
27 49 44
27 50 45
26 49 44
26 48 43
25 48 43
26 49 44
25 48 43
25 49 44
25 48 43
25 50 45
25 50 45
24 47 43
24 48 43
24 48 43
24 48 43
24 48 44
22 47 43
22 48 44
20 45 41
21 46 41
20 44 40
21 45 41
20 44 40
21 47 43
22 48 44
20 45 41
21 47 43
21 46 42
20 44 40
21 47 43
20 45 41
22 48 44
20 45 41
21 46 42
21 47 43
21 46 42
21 46 42
22 48 43
21 47 43
21 46 42
20 45 41
21 47 42
21 47 43
21 46 42
21 46 42
21 46 42
21 46 42
21 45 41
21 47 43
21 47 43
20 44 40
21 46 42
21 45 41
21 46 42
21 46 42
21 47 42
20 45 41
21 47 43
21 46 42
21 47 43
22 48 44
21 46 42
22 47 43
22 47 43
21 47 42
21 46 42
21 45 41
21 46 42
22 47 43
22 47 43
22 48 44
22 49 44
22 48 43
22 48 44
22 48 43
21 46 42
22 46 42
21 45 41
21 45 41
22 48 44
22 48 44
22 47 43
22 47 43
22 47 43
22 46 42
22 47 43
22 47 42
23 48 43
22 46 41
23 47 43
22 46 42
23 46 41
23 47 43
24 49 44
24 48 44
24 48 44
25 49 44
25 49 44
25 49 44
25 49 44
25 48 43
26 49 44
25 47 43
27 51 46
27 49 44
28 51 46
27 49 44
28 50 45
28 50 46
29 51 46
29 50 45
30 51 46
30 50 45
31 52 46
31 51 45
32 53 47
32 53 47
32 52 46
33 53 47
34 53 48
34 54 49
34 52 47
35 54 48
36 56 50
36 55 49
37 56 50
37 55 49
37 55 49
38 55 49
39 56 50
39 55 49
39 56 50
39 55 49
40 57 51
41 58 51
41 58 51
41 56 50
42 58 51
42 58 52
42 57 51
43 58 51
43 58 51
44 59 52
43 58 51
44 59 52
44 60 53
45 61 54
44 58 51
45 59 53
45 59 52
45 61 54
45 59 52
45 58 52
45 59 52
45 60 53
45 59 52
45 59 52
45 61 54
45 62 55
45 59 52
45 60 53
44 59 52
44 58 51
44 59 53
44 60 53
44 60 53
44 60 54
43 58 52
42 57 51
42 58 52
42 58 52
41 56 50
41 56 50
40 55 49
41 58 51
40 57 51
39 56 50
39 56 50
38 55 49
38 55 49
38 55 49
37 56 50
36 54 48
37 56 50
36 55 49
35 53 48
35 54 48
34 53 48
33 52 47
33 54 48
33 52 47
32 53 47
32 52 46
30 49 44
31 52 47
31 52 47
30 51 46
30 52 47
29 51 46
28 50 45
28 49 44
28 50 45
28 50 45
27 49 44
26 48 44
26 49 44
25 48 43
26 51 46
26 50 45
25 48 44
25 49 44
24 48 43
24 49 44
25 49 45
24 48 44
23 46 42
22 48 44
21 46 42
21 46 42
21 46 42
21 46 41
21 45 41
20 44 40
21 46 42
21 46 42
21 46 42
22 47 43
22 48 43
21 46 42
21 46 42
21 47 43
21 47 43
20 45 41
21 46 42
21 47 43
21 47 43
21 47 43
21 46 42
21 45 41
21 47 42
21 46 42
21 47 43
22 48 44
22 48 44
22 48 44
21 46 42
20 44 40
22 49 44
21 47 43
21 46 42
22 48 44
22 48 44
21 47 43
22 48 43
21 46 42
22 48 44
22 49 45
21 47 42
20 43 40
21 46 42
22 48 44
21 46 42
20 45 41
21 45 41
21 47 43
22 47 43
22 49 44
21 47 43
22 47 43
22 47 43
22 48 44
22 48 44
22 47 43
23 50 45
22 48 44
21 46 42
22 47 43
23 49 44
22 48 44
22 48 44
22 48 43
21 45 41
21 45 41
22 47 42
22 47 43
24 49 45
23 47 43
23 48 44
23 47 43
23 47 42
24 49 44
23 47 43
23 47 43
24 47 43
24 48 44
25 49 44
24 46 42
26 49 45
26 51 46
26 48 43
26 48 44
27 50 45
27 50 45
27 49 45
27 49 45
28 51 46
29 50 45
28 49 44
29 50 45
29 49 44
30 52 47
30 51 46
31 51 46
32 52 47
32 51 46
33 53 47
33 51 46
34 53 47
34 53 47
34 51 46
35 54 48
36 54 48
36 54 48
37 54 48
38 55 49
38 56 50
38 55 49
39 55 49
40 57 51
40 56 50
40 55 49
41 57 50
41 57 51
42 58 52
42 58 52
42 57 50
44 59 52
44 59 52
44 58 51
45 60 53
45 61 54
45 59 52
45 59 52
46 60 53
46 59 52
46 60 53
46 58 52
47 61 53
47 61 54
47 60 53
47 60 53
47 61 53
47 62 55
47 62 54
47 61 54
47 60 53
47 60 53
47 62 55
47 61 54
47 61 54
47 60 53
47 62 55
46 60 53
47 62 55
46 61 54
46 61 54
46 61 54
45 60 53
45 61 54
44 58 51
44 59 53
43 58 51
44 60 54
43 58 51
42 57 50
42 58 51
41 58 52
40 55 49
40 56 50
40 58 52
39 55 48
39 57 51
38 54 48
38 55 49
38 58 51
37 55 49
36 54 48
35 53 47
35 54 48
34 53 48
34 53 48
34 54 48
33 54 48
32 52 46
32 52 46
31 51 46
30 50 45
31 52 47
31 53 48
29 51 46
29 51 46
28 50 45
28 49 45
28 50 45
27 50 45
27 50 45
26 49 44
25 47 43
26 48 44
26 50 46
25 49 44
25 49 44
25 48 44
25 49 44
25 49 44
23 47 42
20 45 41
21 46 42
20 45 41
20 45 41
22 48 44
21 46 42
21 47 43
20 44 40
21 47 43
21 45 41
20 44 40
21 47 43
21 47 42
21 47 43
22 48 43
21 46 42
21 46 42
21 46 42
21 46 42
22 48 44
21 46 42
21 47 43
21 46 42
21 47 43
21 46 42
21 46 42
21 47 43
22 47 43
22 49 44
22 48 43
20 45 41
22 48 43
20 44 40
21 45 41
21 47 43
22 48 44
21 46 41
20 45 41
21 46 42
21 47 42
21 47 43
22 49 44
21 46 42
21 46 42
21 47 43
21 47 43
22 47 43
21 46 42
22 48 43
21 47 43
21 47 43
22 48 44
22 47 43
22 47 43
22 47 43
23 49 45
22 47 43
21 46 42
22 47 42
22 47 43
22 47 43
22 47 43
23 49 44
21 45 41
22 48 43
22 47 43
22 47 43
23 47 43
22 46 42
22 46 42
22 45 41
24 49 44
23 47 42
23 46 42
23 46 42
23 46 41
23 45 41
24 48 43
24 48 43
25 49 44
26 50 45
26 49 45
26 48 44
26 48 43
26 48 43
28 51 46
27 49 44
28 51 46
28 49 44
29 51 46
29 50 45
29 50 45
30 50 45
30 51 46
31 51 46
32 53 47
33 54 48
33 53 48
34 54 48
34 53 48
34 53 47
35 53 48
35 53 47
36 54 48
37 54 48
37 54 48
38 54 48
38 54 48
39 57 50
40 56 50
40 57 51
40 55 49
41 57 51
42 58 51
42 56 50
43 59 52
43 56 50
44 59 52
44 59 53
45 60 53
45 59 52
46 60 53
47 62 54
47 62 54
47 62 55
47 62 54
48 62 54
48 62 54
48 61 54
48 61 54
48 61 54
49 62 54
49 63 56
50 63 56
49 62 54
50 64 56
49 62 55
49 62 54
50 63 56
50 63 55
49 61 54
50 63 56
49 63 55
49 63 55
49 62 55
49 63 55
49 63 55
48 61 53
48 61 54
48 61 54
47 61 54
47 61 53
46 60 52
46 61 53
46 62 54
46 60 53
45 59 52
44 59 52
44 58 52
44 59 52
43 59 52
42 58 51
43 60 53
41 57 50
41 58 51
41 57 51
40 56 50
39 55 49
39 57 51
38 56 50
37 55 49
37 56 50
37 55 49
36 56 50
35 53 48
35 53 48
34 53 47
34 53 48
32 51 46
33 53 48
32 52 46
31 52 47
31 52 47
30 51 46
30 52 47
30 51 46
29 52 47
30 53 48
28 50 45
28 51 46
27 50 45
27 49 44
27 50 45
27 51 46
25 48 43
26 50 45
26 51 47
25 50 45
24 47 43
24 48 44
21 45 41
21 46 42
21 46 42
21 46 42
21 46 42
21 46 42
21 46 42
21 47 43
21 45 41
20 45 41
21 47 43
21 47 43
21 45 41
21 47 43
21 47 43
21 45 41
21 47 43
21 47 43
21 47 43
21 46 42
21 47 43
21 46 42
22 48 44
21 46 42
21 46 42
21 47 43
21 46 42
21 46 42
21 46 42
22 48 44
21 46 42
21 47 43
22 47 43
21 46 42
21 45 41
22 48 44
22 48 43
22 47 43
22 48 43
20 45 41
21 47 43
21 47 43
21 46 42
21 46 42
22 48 44
21 47 43
22 47 43
22 48 44
21 45 41
21 45 41
21 46 42
23 49 45
22 47 43
21 46 42
22 48 44
21 46 42
22 48 43
22 47 43
22 48 43
23 49 44
22 46 42
22 46 42
21 45 41
23 49 45
23 48 44
23 49 44
22 46 42
22 47 42
23 48 44
23 48 44
24 50 45
23 47 43
23 47 43
23 46 42
24 47 43
24 47 43
25 49 45
25 48 44
25 49 45
25 49 44
26 49 44
26 48 43
26 48 44
26 48 44
27 50 45
28 51 45
28 49 44
28 49 44
29 51 46
29 50 45
30 52 47
30 51 46
31 50 45
32 53 48
32 53 47
33 53 47
33 52 47
34 53 47
34 53 47
35 53 48
36 55 49
36 55 49
37 54 48
38 55 49
39 57 51
39 57 51
40 58 52
40 57 51
40 56 50
42 58 52
42 57 51
43 59 52
43 59 52
43 58 51
44 59 52
45 60 53
46 62 55
46 60 53
46 60 53
46 59 52
48 62 55
48 61 54
48 61 53
49 62 55
49 63 56
50 63 55
50 63 55
50 64 56
51 65 57
50 63 55
51 64 56
51 64 56
52 65 57
52 64 56
52 63 56
52 64 56
52 64 56
52 63 56
52 64 56
52 65 57
52 65 57
52 65 57
52 65 57
51 63 55
51 63 55
51 63 56
51 64 56
51 63 56
50 63 55
50 62 55
50 63 55
49 62 55
49 63 55
49 63 56
48 62 55
48 62 55
47 60 53
46 59 52
46 62 54
46 60 53
45 60 53
44 58 51
44 60 53
44 60 53
43 58 51
42 59 52
42 58 51
41 56 50
40 57 50
40 56 49
39 55 49
38 55 49
38 56 49
38 57 51
37 55 49
35 52 46
35 53 47
35 55 49
34 52 47
34 53 48
33 52 47
33 54 49
31 50 45
31 51 46
31 52 46
30 51 46
30 51 46
29 51 45
29 51 46
28 50 45
28 49 44
28 51 46
27 49 44
27 49 44
26 49 44
26 50 45
26 50 45
25 48 44
25 49 44
25 48 44
20 45 41
20 45 41
21 47 43
22 49 44
21 46 42
22 48 44
21 47 42
21 47 43
21 46 42
21 47 43
20 45 41
21 46 42
21 46 42
21 47 43
21 47 43
21 47 43
20 45 41
21 45 41
22 48 43
22 49 45
20 45 41
21 47 43
22 48 44
21 46 42
21 47 43
21 47 42
21 46 42
21 45 41
21 47 43
21 45 41
21 46 42
21 46 42
21 47 43
21 45 41
21 46 42
21 46 42
21 46 42
21 46 42
20 45 41
22 48 44
21 47 43
22 47 43
22 47 43
22 48 44
20 44 40
21 46 42
22 48 44
22 48 43
22 49 44
21 47 43
22 47 42
22 48 43
22 48 43
21 46 42
22 47 43
21 46 42
21 46 42
21 46 42
22 46 42
23 48 44
23 49 44
22 47 43
22 47 43
22 47 42
23 48 43
23 48 43
22 46 42
23 48 44
22 46 42
23 46 42
24 48 44
24 48 43
24 49 44
25 49 45
25 48 44
25 50 45
25 48 44
25 49 44
25 48 44
26 49 44
26 48 43
27 49 45
28 52 47
28 51 46
28 50 45
28 49 44
29 50 45
30 51 46
30 52 47
31 52 47
31 52 47
31 51 45
32 52 46
32 52 46
33 51 46
33 52 46
35 54 49
35 54 49
35 53 47
37 55 49
37 55 49
37 54 48
38 55 49
39 56 49
40 56 50
41 57 51
41 57 51
42 58 51
42 56 50
43 59 52
43 58 51
45 60 54
45 60 53
45 59 52
46 58 51
47 61 54
47 60 53
48 62 54
49 62 55
49 62 54
50 63 56
50 64 56
50 62 54
51 63 55
51 64 56
52 64 56
52 64 57
53 65 57
53 65 57
53 65 57
53 65 57
54 65 57
54 66 57
54 64 56
54 65 56
54 66 57
54 66 58
54 66 58
54 66 58
54 64 56
54 66 58
54 66 58
54 66 57
54 66 58
54 65 57
54 65 57
53 65 57
53 65 57
53 65 57
53 66 58
52 64 56
52 65 57
51 65 57
50 62 54
50 63 55
50 63 56
50 63 55
49 63 55
49 64 56
48 61 54
47 60 53
46 60 52
46 60 53
46 62 55
45 59 52
44 58 51
43 58 51
43 58 52
42 58 51
41 56 50
41 56 50
40 57 51
40 57 51
38 55 49
38 55 49
37 55 49
36 53 47
36 55 49
36 54 49
35 54 48
34 52 46
34 55 49
33 53 47
32 51 46
32 51 46
31 51 45
31 52 47
31 52 47
30 51 46
30 52 47
30 53 48
29 52 46
28 50 45
27 50 45
27 50 45
27 50 45
26 49 44
26 50 45
26 50 45
26 49 45
21 47 42
20 45 41
20 44 40
20 45 41
20 45 41
21 47 43
20 45 41
20 44 40
22 48 44
21 47 43
20 45 41
21 46 42
21 46 42
22 47 43
21 46 42
21 47 43
21 47 43
20 44 40
21 45 41
21 47 43
21 47 43
21 46 42
21 47 43
20 45 41
21 47 42
22 48 44
21 46 42
21 46 42
22 48 44
21 46 42
20 45 41
21 47 43
22 48 44
22 48 43
21 47 42
21 46 42
20 45 41
21 46 42
22 47 43
21 46 42
21 46 42
21 46 42
21 46 42
22 48 43
21 46 42
22 47 43
21 46 41
21 46 42
22 49 44
22 47 43
21 47 43
21 45 41
21 46 42
21 44 40
22 48 44
21 45 41
22 48 43
23 48 44
22 47 43
22 46 42
21 45 41
22 48 43
22 47 43
22 46 42
23 48 44
24 49 45
24 50 45
23 47 43
24 49 45
24 49 44
24 48 44
25 51 46
24 47 42
25 49 44
25 50 45
26 50 46
26 49 45
26 49 44
26 48 44
27 49 45
27 49 44
27 49 45
27 48 44
28 50 45
29 50 45
30 51 46
30 51 46
31 52 47
31 51 46
31 50 45
33 54 48
32 51 45
33 51 46
34 52 47
35 54 48
35 54 48
36 54 48
36 54 48
37 54 48
38 55 49
39 56 50
39 55 49
40 56 50
41 58 52
41 58 51
42 57 50
43 58 52
43 58 51
44 58 51
45 59 52
45 59 53
46 60 53
47 60 53
47 61 54
48 62 55
49 63 55
50 63 55
50 63 56
50 62 55
51 64 56
52 64 56
52 64 56
53 65 57
53 64 56
54 65 57
54 65 57
54 65 57
55 65 57
55 67 58
55 65 57
56 66 58
56 67 59
56 67 59
57 69 60
57 67 59
56 67 58
57 68 59
57 67 59
57 68 60
57 68 59
57 68 59
57 69 60
57 67 59
56 67 58
56 66 58
56 68 59
56 67 59
56 67 59
55 66 58
55 66 58
55 67 59
54 66 58
54 66 57
53 65 57
53 65 57
52 63 55
52 64 57
51 63 56
51 64 57
50 63 55
49 62 54
48 61 54
48 62 55
48 62 55
47 62 54
46 60 53
46 61 54
45 60 53
44 58 52
43 59 52
42 58 51
42 57 51
41 56 50
40 57 50
39 55 49
39 56 50
38 55 49
38 57 51
37 54 48
36 55 49
36 54 48
34 52 46
34 54 48
34 55 49
33 53 48
33 53 47
32 52 47
32 53 48
30 49 44
30 52 47
30 51 46
29 50 45
28 49 45
29 51 46
27 49 45
27 49 44
27 50 45
26 48 43
26 48 44
25 48 44
21 46 42
21 47 43
22 48 43
21 45 41
21 46 42
21 47 43
20 44 41
21 46 42
20 44 40
20 45 41
21 46 42
21 47 43
21 46 42
20 45 41
21 46 42
22 48 44
21 46 42
22 48 43
22 48 43
21 46 42
21 46 42
21 46 41
21 46 42
20 45 41
21 47 43
21 46 42
21 46 42
21 46 42
21 46 42
21 46 42
21 46 42
21 47 43
21 47 42
21 46 42
21 46 42
21 46 42
21 46 42
20 45 41
21 46 42
21 46 42
21 46 42
21 45 41
21 46 42
21 46 42
21 47 43
22 48 43
22 47 43
21 46 42
21 45 41
21 45 41
22 47 43
21 46 42
21 46 41
21 46 42
21 46 42
22 47 42
22 47 42
22 47 43
21 46 42
22 47 43
22 47 43
23 49 45
23 49 44
23 49 44
23 48 43
23 48 43
22 46 41
24 48 44
23 47 42
24 49 44
23 47 42
23 45 41
24 46 42
25 49 44
25 49 44
24 46 42
26 50 45
26 49 44
26 48 43
27 49 44
27 48 43
28 50 45
29 50 45
29 51 46
30 51 46
31 53 47
30 51 45
31 51 46
32 53 47
32 52 47
33 51 46
33 51 46
34 53 48
35 54 48
36 55 49
36 55 49
37 56 50
38 55 49
39 56 50
39 56 50
40 56 50
40 55 48
42 58 51
42 59 52
43 57 51
44 58 51
44 59 52
45 57 51
46 59 52
47 60 53
47 60 53
48 62 54
49 63 55
50 63 55
50 63 56
51 64 56
51 63 55
52 65 57
53 63 56
54 65 57
54 67 59
55 67 59
55 66 58
56 68 60
56 67 59
57 68 59
57 67 59
58 69 60
58 68 60
58 68 59
58 69 60
59 70 62
59 68 60
59 69 60
59 70 61
59 70 61
59 69 60
59 69 60
59 69 61
59 69 61
59 69 60
60 70 61
59 69 60
59 69 60
58 67 59
58 68 60
58 69 60
58 70 61
58 69 60
57 67 59
57 69 60
56 67 59
56 67 58
55 66 58
55 66 58
55 66 58
54 67 58
54 66 58
53 64 56
52 64 56
52 64 57
51 64 57
50 64 56
50 62 55
49 63 55
48 62 55
47 62 54
47 62 54
46 61 54
45 60 53
44 60 53
44 59 52
43 58 51
43 59 52
42 58 51
41 57 51
40 56 50
39 57 51
39 56 50
38 56 50
37 55 49
36 53 47
36 56 50
35 54 48
34 52 46
33 53 47
33 53 47
33 53 48
32 52 47
31 51 46
31 53 47
30 52 47
29 51 46
29 50 45
28 50 45
28 49 45
28 50 45
27 50 45
27 50 45
26 49 45
20 45 41
21 46 42
21 47 43
20 45 41
21 46 42
20 45 41
21 46 42
21 47 43
21 46 42
20 44 41
21 46 42
21 47 43
20 45 41
22 48 44
21 47 43
21 46 42
21 46 42
21 46 42
21 46 42
21 46 42
21 47 43
21 47 43
21 46 42
21 47 43
21 47 42
21 47 43
21 47 43
21 47 43
22 47 43
21 46 42
21 46 42
21 47 43
22 47 43
21 46 42
20 44 40
21 46 42
22 47 43
21 47 43
21 47 42
20 45 41
21 47 43
21 45 41
21 46 42
21 45 41
22 48 44
21 47 42
22 47 43
22 47 43
22 48 44
21 45 41
23 49 45
22 48 44
22 47 43
21 46 42
22 47 42
22 48 43
22 46 42
23 48 44
22 47 43
22 46 42
23 49 44
22 46 42
23 48 44
23 49 44
23 48 44
23 46 42
24 49 45
24 48 44
24 49 44
24 47 43
24 48 43
24 47 42
25 48 43
25 48 43
26 50 45
26 48 44
27 50 45
27 49 45
27 49 44
28 51 46
28 50 45
29 50 45
29 49 44
30 50 45
30 50 45
30 50 45
31 50 45
32 52 47
33 53 48
34 53 48
34 53 47
35 54 48
36 54 48
36 54 48
37 54 48
38 55 49
38 55 49
38 54 48
40 57 50
41 57 51
42 57 51
42 57 51
43 59 52
44 58 52
45 61 54
46 60 53
46 60 53
47 61 54
48 63 55
49 62 55
49 61 54
50 63 55
51 64 56
52 65 57
52 64 56
54 66 58
54 66 58
55 66 58
55 66 57
56 67 59
57 68 60
57 69 60
58 68 60
59 71 62
59 70 61
59 70 61
60 71 62
60 69 60
61 71 62
61 70 61
61 71 62
62 72 62
62 72 63
62 71 62
62 71 62
62 71 62
62 71 62
62 72 62
62 71 61
62 72 62
62 71 61
62 72 62
62 71 62
62 71 62
61 71 61
61 70 61
61 70 61
61 70 61
60 70 61
60 70 61
60 70 61
59 70 61
58 67 59
58 68 60
58 69 60
57 67 58
56 67 59
56 67 59
55 68 59
55 67 58
54 66 58
53 65 57
53 65 57
52 64 56
51 64 56
50 63 55
49 62 54
49 61 54
48 62 54
47 62 55
46 58 52
46 60 53
44 58 51
44 59 52
43 58 52
42 58 52
41 57 51
41 57 51
40 57 50
39 55 49
38 56 50
38 56 50
37 56 50
36 53 47
35 52 47
35 53 48
34 54 48
34 54 48
33 53 48
32 53 47
32 53 47
31 53 47
31 52 47
29 50 45
29 50 45
29 50 45
28 49 44
27 49 44
27 49 44
27 51 46
22 48 44
21 45 41
22 48 43
20 45 41
21 46 42
21 46 42
21 46 42
20 44 40
21 47 43
21 46 42
21 47 43
21 47 43
21 46 42
20 44 40
20 45 41
21 46 42
21 46 42
22 48 44
22 48 44
21 47 43
21 46 42
22 48 43
20 45 41
20 45 41
21 47 43
21 46 41
21 47 43
21 45 41
21 46 42
20 45 41
21 47 43
22 48 44
21 46 42
22 48 44
21 45 41
21 46 42
21 46 42
21 46 42
21 46 42
22 49 45
21 46 42
21 45 42
21 46 42
22 48 43
21 47 42
22 47 43
22 49 44
22 48 44
21 46 42
22 47 43
21 46 42
21 46 41
22 48 44
22 47 43
23 50 45
22 46 42
22 46 42
22 48 43
22 46 42
22 47 42
23 49 45
22 47 42
23 47 43
23 46 42
23 46 42
23 47 42
24 48 43
25 49 45
25 49 44
24 46 42
25 48 43
26 50 45
25 47 42
26 49 44
26 47 43
27 51 47
27 50 45
27 49 45
28 51 46
28 50 45
30 52 47
30 52 47
30 51 46
30 49 44
31 52 47
32 52 47
33 52 47
33 53 47
34 53 48
35 53 48
35 53 47
37 56 50
37 54 48
38 56 50
39 59 52
40 57 51
40 57 50
41 57 50
41 57 50
42 58 51
43 58 52
44 59 52
45 61 54
46 60 53
47 60 53
48 61 54
48 61 54
49 62 55
50 63 55
51 63 55
51 63 56
52 64 56
54 66 58
54 64 56
54 65 57
56 68 59
57 68 60
57 67 58
58 69 60
58 68 60
59 69 60
60 70 61
60 69 61
61 71 62
61 71 62
62 72 63
62 71 62
63 72 62
63 71 62
64 73 64
64 73 63
64 73 64
64 72 63
64 72 62
65 73 64
64 72 63
65 73 64
65 73 64
65 74 64
65 73 64
65 74 65
65 74 65
64 72 63
64 73 64
64 73 63
64 72 62
64 72 63
63 72 62
63 71 62
62 72 62
62 72 63
62 72 63
61 70 61
61 70 61
60 71 62
60 70 61
59 69 61
58 67 59
58 70 61
57 67 59
56 66 58
55 67 58
54 65 57
54 65 57
54 66 58
52 65 57
51 63 55
51 65 57
50 63 56
49 63 55
48 61 54
47 60 53
47 61 54
45 58 51
45 60 53
44 59 53
43 58 52
43 58 52
42 59 52
41 57 51
40 57 50
39 56 49
38 56 50
38 56 50
37 55 49
36 54 48
35 53 48
35 55 49
35 55 49
33 52 47
32 52 47
32 53 48
31 51 46
31 52 47
31 54 48
30 51 46
29 49 44
29 51 46
27 48 43
27 48 43
21 46 42
20 45 41
21 46 42
21 47 43
21 45 41
20 44 40
21 46 42
21 45 41
21 46 42
21 47 43
21 45 41
21 46 42
21 46 42
21 46 42
21 46 42
21 46 42
22 48 44
21 45 41
21 46 42
21 47 43
22 49 45
20 45 41
20 44 40
21 46 42
21 47 43
21 46 42
21 46 42
21 47 43
21 46 42
21 46 41
21 47 43
21 46 42
21 47 43
21 46 42
21 46 42
22 49 44
21 47 43
21 46 42
22 48 43
21 47 43
22 47 43
21 47 43
21 46 42
21 47 43
21 46 42
21 46 42
22 47 43
22 47 43
22 47 43
21 47 42
21 46 42
22 48 43
23 49 45
22 46 42
22 48 44
22 47 43
23 48 44
23 48 43
23 48 43
23 48 44
22 47 42
23 49 44
24 49 45
23 47 43
23 47 42
24 48 44
24 48 43
23 46 42
25 48 44
24 47 43
25 48 43
26 49 44
26 49 44
26 48 43
27 50 45
27 48 44
27 49 44
28 49 44
29 50 45
29 50 45
30 51 46
30 50 45
31 51 46
31 50 45
32 51 46
32 51 45
33 52 46
35 54 48
35 54 48
36 54 49
37 55 49
37 54 48
38 54 48
38 54 48
40 56 50
41 57 51
41 56 50
42 58 51
43 58 51
44 59 52
45 59 52
46 62 55
47 61 54
48 61 54
49 63 55
49 61 54
50 63 56
51 63 55
52 66 58
53 65 57
54 65 57
55 67 59
55 66 58
56 67 59
57 69 60
58 69 60
59 69 60
59 69 60
60 70 61
61 72 63
62 72 62
62 72 62
63 73 63
64 74 65
64 73 63
64 73 63
65 74 64
65 73 63
66 74 64
66 74 65
66 74 64
67 75 65
67 74 64
67 76 66
68 76 66
68 77 67
68 75 65
68 75 65
68 76 66
68 76 66
68 76 66
67 75 65
67 74 64
67 74 64
67 74 64
67 75 65
67 76 66
66 76 66
66 74 65
65 74 64
65 73 63
64 72 63
64 72 63
63 72 62
63 71 62
62 72 62
61 70 61
61 71 62
60 71 62
59 69 60
59 69 61
58 68 59
57 68 59
56 67 59
56 67 59
55 68 59
54 67 59
53 66 58
52 64 56
51 63 55
50 62 55
49 62 54
48 61 53
47 59 52
47 62 54
46 60 53
45 59 52
44 58 51
43 59 52
42 58 51
41 57 51
40 56 49
40 57 51
39 57 51
38 54 48
38 56 50
36 54 48
36 55 49
34 52 46
35 54 48
33 52 47
33 53 47
32 52 47
31 51 46
32 53 48
30 51 46
31 53 48
30 52 47
29 51 46
28 49 44
21 47 43
23 50 46
20 44 40
22 48 44
20 45 41
20 45 41
21 46 42
21 47 43
21 47 43
21 47 43
20 44 40
21 46 42
22 48 44
21 46 42
20 44 40
21 46 42
21 46 42
21 46 42
21 47 42
22 48 44
21 47 43
20 45 41
21 46 42
22 47 43
20 45 41
21 46 42
21 47 43
22 48 44
21 46 42
21 46 42
21 46 42
21 47 43
22 48 44
21 47 43
21 46 42
21 46 42
21 47 42
22 48 44
21 46 42
21 47 42
21 45 41
21 46 42
21 47 43
22 47 43
21 46 42
21 45 41
22 47 43
22 48 44
22 47 43
22 47 43
21 45 41
22 48 43
23 49 44
22 47 43
21 45 41
21 45 41
22 46 41
23 47 43
22 47 43
23 47 43
23 48 43
23 47 43
22 44 40
24 49 45
23 46 41
24 47 43
24 47 42
24 47 43
24 46 42
25 49 44
26 49 44
26 48 43
27 49 45
27 49 44
27 49 44
27 49 44
28 49 44
29 52 47
29 49 44
30 51 46
30 51 45
31 51 46
31 50 45
32 50 45
33 51 46
34 53 48
35 55 50
35 53 48
36 53 47
37 55 49
38 57 50
39 55 49
40 57 51
41 58 52
41 55 49
42 57 50
43 58 52
44 60 53
44 58 51
46 61 54
47 61 54
48 61 54
48 61 54
49 62 54
50 62 55
52 65 57
52 64 56
53 63 55
54 65 57
55 67 58
56 68 60
57 68 59
58 68 60
59 70 61
60 70 61
61 71 62
61 70 61
62 70 61
63 73 63
64 74 64
64 73 64
65 73 64
66 74 64
66 74 64
66 74 64
67 75 65
68 76 66
68 76 66
68 77 66
69 76 66
69 77 66
70 77 67
70 79 68
70 78 68
70 78 67
70 77 67
70 76 66
71 77 67
71 79 68
71 78 68
71 78 68
70 77 67
70 78 68
70 77 67
70 78 67
70 78 67
69 77 67
69 75 65
68 76 66
68 76 66
68 75 65
67 76 66
66 74 64
66 74 64
65 74 65
65 72 63
64 72 63
63 72 62
63 73 63
62 71 62
61 72 63
60 70 61
59 69 60
59 69 61
58 70 61
57 66 58
56 68 59
55 67 59
54 64 56
54 66 58
53 65 58
52 64 57
50 63 55
50 63 55
49 62 55
48 61 54
47 63 56
46 61 54
45 58 52
44 60 53
43 58 51
42 57 51
41 57 51
40 56 49
40 56 50
38 55 49
38 55 49
37 55 49
36 53 48
36 55 49
35 54 48
34 52 46
33 51 46
32 50 45
32 53 48
31 52 47
31 51 46
30 50 45
30 52 47
29 51 46
21 46 42
22 49 44
21 46 42
21 46 42
21 47 43
21 46 42
21 46 42
21 46 42
21 46 42
21 47 43
21 47 42
21 46 42
21 46 42
21 46 42
21 47 43
20 45 41
21 46 42
20 44 40
21 47 43
21 46 42
21 47 42
21 46 42
21 47 43
21 46 42
21 47 42
21 47 43
22 48 44
21 47 43
21 47 43
21 47 42
21 46 41
21 47 42
21 47 43
21 47 43
22 48 44
22 48 44
21 46 42
21 46 42
22 48 44
22 48 44
21 46 42
21 46 42
21 46 42
21 46 42
21 46 42
21 46 42
22 49 44
21 45 41
21 46 41
21 46 42
21 46 42
21 46 41
22 47 42
22 46 42
21 45 41
22 47 43
22 47 43
24 50 46
22 46 42
23 48 44
23 47 43
23 47 42
23 46 42
24 47 43
23 46 42
24 47 43
25 50 45
24 47 42
25 47 43
26 48 44
27 50 45
26 49 44
27 50 45
28 50 45
28 49 44
28 49 44
29 50 45
30 52 47
29 49 44
31 52 46
31 51 46
32 51 46
33 53 48
34 53 48
34 52 46
35 52 47
36 54 48
37 55 49
37 54 48
38 55 49
39 55 49
39 54 48
41 57 51
42 59 52
43 58 52
44 58 52
45 60 53
46 61 54
47 61 54
48 62 55
49 62 55
50 63 55
51 65 57
51 63 56
53 65 57
53 64 56
54 64 56
55 67 59
57 68 59
57 68 60
58 69 60
60 71 62
60 71 62
61 70 61
62 71 62
63 74 65
64 73 63
64 73 64
65 72 63
66 75 65
67 75 65
68 76 66
68 75 65
69 78 68
69 77 67
70 76 66
70 77 67
71 78 68
72 79 68
72 80 69
72 80 69
73 80 69
73 80 69
73 81 70
73 80 70
73 79 68
74 81 70
74 80 69
73 80 69
74 80 69
74 82 71
73 80 69
74 81 70
73 80 70
73 80 69
73 81 70
72 80 69
72 78 68
72 79 69
71 78 67
71 79 68
70 78 68
70 78 67
69 76 66
68 76 66
67 76 66
67 75 65
66 74 64
65 73 63
64 73 64
64 73 64
63 71 62
62 71 62
61 71 61
60 69 61
59 69 60
59 69 60
57 67 59
56 67 59
55 67 58
54 65 57
54 65 57
53 65 57
51 63 55
51 63 56
50 63 55
49 62 55
48 62 55
47 62 55
45 59 52
45 59 52
44 58 52
43 59 52
42 57 51
41 57 50
40 57 50
39 55 49
38 55 49
37 55 49
37 54 49
36 54 48
35 54 48
35 54 49
33 52 46
33 52 46
32 53 47
32 52 47
31 51 46
30 50 45
30 51 46
20 45 41
21 46 42
20 45 41
22 48 44
21 47 43
21 47 43
20 45 41
21 47 43
21 46 42
21 46 42
21 45 41
21 46 42
21 46 42
22 49 45
20 45 41
20 44 40
21 47 43
21 47 43
21 46 42
21 47 43
22 48 43
20 44 40
20 45 41
21 46 42
21 45 41
22 48 44
21 47 43
20 45 41
21 45 41
21 45 41
21 47 43
21 46 42
21 47 43
21 46 42
21 46 42
21 46 42
21 47 43
21 46 42
22 47 43
22 48 44
21 46 42
21 47 43
22 47 43
21 46 42
21 46 42
22 47 43
21 46 42
22 47 43
21 46 42
21 45 41
22 47 43
22 47 43
22 47 42
22 47 43
22 47 42
22 47 43
23 48 44
23 47 43
22 46 41
23 47 43
24 49 45
23 47 42
24 47 43
23 46 42
23 45 41
24 47 43
25 48 43
25 49 44
26 48 44
26 48 44
26 47 43
27 49 44
27 48 43
28 49 45
28 48 43
28 48 43
29 50 45
30 50 45
30 49 44
32 53 47
32 52 47
33 53 48
34 53 47
35 54 48
36 55 50
36 53 47
36 53 47
38 55 49
39 56 50
40 56 50
40 55 49
41 57 51
42 57 50
43 59 52
44 59 53
45 59 52
46 61 54
47 61 54
48 62 55
49 60 53
51 65 57
51 63 55
52 63 56
53 65 57
54 65 57
56 67 59
57 67 59
58 68 60
59 69 60
60 70 61
61 70 61
61 71 62
63 72 62
64 73 63
64 73 63
65 73 64
66 74 64
67 75 65
68 76 65
69 78 68
69 76 66
70 77 67
71 77 67
72 80 69
72 79 68
73 79 68
73 79 68
74 81 70
74 80 69
75 81 70
75 81 70
75 81 70
76 81 70
76 82 71
76 82 71
76 83 72
76 82 71
77 83 71
77 83 72
77 84 73
77 83 72
76 82 71
76 82 71
76 82 71
76 82 71
76 82 71
75 82 70
75 81 70
74 81 70
74 80 69
73 79 69
73 79 68
72 79 68
72 80 69
71 78 67
70 78 67
70 78 67
69 76 66
68 76 66
67 76 66
66 75 65
65 72 63
64 73 63
64 73 64
63 72 63
62 72 63
61 71 62
60 71 62
59 71 62
58 68 59
57 68 60
56 66 58
55 66 58
54 65 57
53 66 58
51 63 55
50 63 55
50 63 55
48 60 53
47 60 53
47 62 54
45 58 52
45 59 53
43 58 51
42 57 51
42 59 52
41 57 51
40 56 50
39 56 50
37 54 48
37 55 49
37 55 49
35 53 47
34 53 47
33 51 46
33 52 46
32 50 44
31 50 45
31 50 45
30 51 45
21 47 42
20 45 41
21 47 42
22 49 44
21 46 42
21 45 41
20 45 41
21 46 42
21 47 42
21 47 43
21 46 42
21 47 42
21 47 42
21 46 42
20 45 41
20 45 41
21 46 42
20 44 40
20 45 41
21 47 43
21 47 43
21 45 41
21 45 41
21 47 43
21 47 43
22 49 45
21 45 41
21 45 41
21 46 42
21 47 43
21 46 42
21 46 42
20 45 41
21 46 42
22 48 44
21 47 43
21 47 43
20 44 40
22 48 44
21 45 41
21 46 42
21 47 43
21 45 41
20 45 41
22 48 44
21 46 42
22 48 44
22 48 43
22 47 43
23 49 45
22 47 43
22 47 43
22 46 42
22 46 42
23 48 44
22 45 41
23 48 44
22 46 42
23 46 42
23 46 42
24 48 44
24 49 44
24 47 43
24 48 43
24 47 43
25 48 43
26 50 45
26 50 46
26 49 44
27 49 45
27 50 45
27 49 44
27 47 42
29 50 45
29 50 45
30 51 46
30 50 45
30 49 44
32 51 46
32 50 45
33 52 46
34 52 47
34 52 46
36 55 50
37 55 49
37 54 48
39 57 51
39 55 49
39 55 49
40 56 49
42 57 51
43 59 52
43 58 51
45 60 53
45 58 51
47 60 53
48 61 54
49 62 54
50 63 56
51 63 56
52 65 57
53 65 57
54 66 57
55 66 58
56 67 58
57 67 59
58 68 59
60 70 61
61 71 62
62 72 62
63 71 61
64 72 62
65 72 63
66 75 65
67 76 66
68 76 66
69 76 66
69 76 66
70 77 67
71 79 68
72 80 69
73 80 69
74 80 69
74 81 70
75 81 70
76 82 70
76 83 71
77 83 71
77 83 72
78 84 72
78 85 73
79 85 73
79 85 74
79 84 73
80 87 75
79 84 73
79 85 73
80 86 74
79 84 73
79 84 72
79 84 72
79 83 72
79 84 72
79 84 73
79 85 73
78 84 72
78 84 73
78 84 73
77 83 72
77 82 71
76 82 71
76 82 71
75 82 70
74 81 70
74 80 69
73 80 69
72 79 68
71 78 67
71 78 67
70 78 68
69 76 66
68 75 65
67 75 65
66 75 66
65 75 65
64 74 64
63 72 62
62 71 62
61 71 62
60 68 59
59 69 60
58 69 60
56 66 58
56 68 60
55 66 58
54 65 57
52 64 56
51 64 56
50 62 54
49 62 54
48 62 54
47 60 53
46 59 52
45 60 53
44 59 52
43 58 51
43 59 53
41 58 51
40 56 50
39 55 49
38 55 49
37 54 48
37 57 51
36 54 49
36 55 50
35 55 50
34 55 49
33 53 48
32 52 46
31 51 45
21 47 43
20 45 41
20 45 41
21 46 42
21 46 42
21 47 43
22 48 44
21 46 42
21 46 42
21 46 42
21 46 42
20 45 41
21 47 43
21 47 43
21 46 42
22 48 43
21 47 43
21 46 42
21 46 42
22 48 44
22 48 44
21 47 43
20 45 41
21 46 42
21 46 42
21 47 42
22 48 43
21 46 42
21 47 43
21 46 42
21 47 43
21 45 41
21 46 42
21 46 42
21 47 43
21 47 43
21 46 42
21 47 42
22 48 44
21 47 42
21 46 42
22 48 44
21 46 42
21 46 42
22 47 43
21 46 41
22 47 43
22 47 43
21 45 41
21 46 42
23 49 45
22 47 43
22 46 42
23 48 43
23 47 43
24 50 45
23 47 43
23 48 44
23 47 43
24 48 44
24 47 43
24 48 44
25 49 45
25 49 44
25 48 44
25 47 43
25 48 43
26 49 44
27 49 44
27 49 44
28 51 47
27 48 43
29 50 45
29 50 45
29 49 44
31 52 47
31 50 45
32 52 47
32 50 45
34 55 49
34 52 46
35 54 48
36 54 48
37 56 50
38 56 50
38 55 49
39 56 50
40 56 50
41 57 50
42 59 52
43 58 52
45 60 53
45 60 53
46 60 53
47 61 54
49 63 55
49 62 54
51 64 57
52 64 57
53 65 57
54 66 57
55 66 58
56 67 58
58 68 59
58 68 59
60 69 60
61 71 62
62 72 63
63 72 63
64 72 63
65 74 64
66 74 64
67 75 65
69 77 66
69 77 67
71 78 68
71 79 68
72 79 69
73 80 70
74 81 70
75 82 71
76 82 71
76 82 71
77 82 71
78 83 71
78 83 72
79 83 72
80 85 73
80 85 73
81 86 74
81 87 75
81 86 74
82 87 75
82 87 75
83 88 76
82 87 75
83 87 75
83 88 76
83 88 76
83 87 74
83 87 75
82 87 75
82 87 75
82 86 74
82 87 75
82 87 75
81 85 74
81 86 74
80 85 73
80 85 73
79 85 73
79 85 73
78 84 73
77 82 71
77 83 72
76 82 70
75 81 70
74 80 69
74 81 70
73 80 69
72 78 68
71 78 68
70 78 67
69 77 67
68 76 66
67 75 65
66 75 65
65 74 65
63 71 62
62 72 62
62 72 63
60 70 61
59 69 61
58 69 60
57 68 60
56 68 59
55 66 58
54 66 58
53 65 57
52 65 57
51 64 57
49 61 54
48 61 53
47 62 54
46 60 53
45 60 53
44 59 52
43 59 53
41 57 50
40 56 50
40 57 51
39 56 50
38 55 49
37 56 50
36 55 50
35 54 48
34 53 47
34 53 47
34 54 49
32 52 47
21 47 43
20 44 40
21 46 42
21 47 43
21 46 42
21 46 42
20 45 41
21 45 41
21 45 41
21 47 43
21 47 43
21 46 42
22 48 44
21 47 43
20 44 40
20 45 41
21 47 43
21 46 42
21 46 42
22 48 44
21 46 42
20 45 41
21 45 41
21 46 42
20 44 40
22 48 44
20 45 41
21 47 43
20 45 41
20 45 41
21 46 42
21 47 43
21 47 42
21 45 41
22 47 43
21 45 41
21 46 42
21 46 42
21 47 42
21 46 42
21 45 41
22 47 43
22 48 44
22 47 43
23 50 45
21 45 41
21 46 42
21 46 42
21 46 42
22 46 42
22 47 42
22 46 42
23 48 44
22 47 42
23 47 43
22 46 41
23 47 43
23 46 42
24 49 44
24 47 43
24 47 42
24 47 43
25 48 43
25 48 44
25 48 43
26 49 44
26 48 43
27 50 45
28 53 48
28 51 46
28 49 44
28 49 44
30 52 47
30 50 45
30 50 45
31 52 46
32 50 45
32 51 46
33 53 47
35 54 48
35 53 47
36 53 48
37 54 48
37 54 48
38 55 49
40 56 50
41 57 51
42 58 52
43 59 52
44 59 52
45 60 53
46 60 53
46 58 51
48 62 55
49 62 54
51 64 57
51 63 56
52 64 56
54 66 58
55 65 57
56 66 58
58 69 60
59 69 60
60 70 61
61 69 60
62 72 63
63 71 62
64 74 64
66 75 65
67 75 65
68 75 65
69 76 66
70 78 67
71 78 68
72 79 69
73 80 69
74 81 70
75 82 71
76 82 70
77 82 71
78 83 72
78 84 72
79 85 73
80 85 74
81 86 74
81 86 74
82 87 75
83 88 76
83 88 76
83 88 76
84 89 77
84 89 77
85 89 76
85 88 76
85 89 77
86 90 77
86 90 77
85 89 77
86 91 79
86 90 77
86 90 77
86 90 78
86 90 77
85 90 77
85 89 77
84 88 76
84 90 77
84 88 76
83 88 76
83 88 76
82 87 75
82 87 75
81 87 75
80 86 74
79 84 72
79 84 73
78 84 72
77 83 72
77 83 72
75 81 70
75 81 70
73 80 69
73 81 70
71 78 67
70 78 68
70 78 68
68 77 66
67 74 64
66 74 65
65 74 64
64 73 64
62 71 62
61 71 61
60 71 62
59 70 61
58 68 59
57 68 59
56 67 59
54 66 58
53 64 56
52 65 57
51 64 57
49 61 54
48 62 54
48 62 55
46 60 53
45 60 53
44 59 52
43 59 52
42 56 50
41 58 52
40 56 50
39 56 50
38 56 50
37 54 48
37 56 50
36 55 49
35 55 49
34 54 48
33 52 47
21 46 42
21 47 43
22 48 43
21 46 42
22 47 43
21 45 41
21 46 42
21 46 42
21 47 43
21 46 42
20 44 40
21 47 43
21 47 43
21 46 42
20 45 41
21 47 43
21 46 42
21 46 42
21 46 42
21 46 42
21 47 43
20 45 41
21 47 43
21 47 43
21 46 42
21 47 43
21 47 43
21 47 43
21 46 41
21 46 42
21 47 42
21 47 43
22 49 45
21 46 42
21 45 41
21 46 42
22 48 43
22 47 43
20 45 41
22 47 43
22 48 44
21 46 41
21 46 42
21 44 40
21 46 42
21 46 42
22 48 44
22 47 43
22 48 43
22 47 42
22 47 43
22 46 42
23 47 43
23 49 44
23 47 43
23 47 42
23 47 43
23 47 42
23 47 42
24 49 44
25 49 44
24 47 43
24 47 42
26 50 45
26 48 43
26 48 43
28 51 46
27 48 44
28 50 45
28 49 44
28 49 44
29 49 44
30 50 45
31 51 46
31 50 45
32 52 46
33 52 47
34 53 47
35 54 49
35 53 47
36 54 48
37 54 49
38 54 48
39 55 49
40 56 50
41 56 50
42 58 51
43 57 51
44 59 53
45 60 53
46 59 52
47 60 53
49 62 54
50 62 55
51 63 56
52 64 57
53 65 57
55 66 58
55 66 57
57 67 59
58 69 60
59 68 60
61 70 61
62 72 62
63 73 63
64 73 64
66 74 65
67 75 65
68 76 66
69 76 66
70 77 67
72 79 68
72 79 68
74 81 70
75 81 70
76 81 70
77 83 71
78 84 72
79 84 73
80 85 73
80 85 73
82 87 75
83 88 76
83 87 75
84 88 76
85 90 77
85 90 78
86 90 77
86 91 78
87 91 78
87 91 78
88 91 78
88 92 79
88 93 80
88 92 79
89 92 78
89 92 79
89 92 79
89 91 78
89 93 80
89 91 78
89 92 79
89 93 79
88 92 79
88 91 78
88 91 79
87 91 78
87 90 77
86 90 78
86 89 77
85 90 77
85 89 76
84 89 76
83 88 76
83 87 75
82 88 76
81 86 74
80 85 73
79 85 73
78 83 72
77 83 72
76 81 70
75 82 71
74 80 69
73 79 68
72 78 67
71 78 67
70 77 67
68 76 66
67 74 64
66 75 65
65 73 63
64 74 64
63 72 63
61 72 62
60 71 62
59 70 61
58 68 59
56 66 58
55 67 59
54 67 59
53 64 56
51 63 55
51 64 56
49 62 55
48 61 54
47 61 54
46 60 53
44 59 52
43 57 50
42 58 51
41 57 51
41 58 52
39 55 49
39 56 50
38 56 50
37 55 49
36 55 49
35 53 48
34 52 47
21 46 42
21 47 43
21 46 42
21 46 42
20 45 41
21 47 43
21 46 42
21 46 42
21 47 43
21 46 41
22 47 43
21 45 41
21 46 42
21 46 42
22 49 45
21 46 42
21 46 42
21 45 41
21 47 43
21 46 42
21 45 41
21 46 42
20 45 41
21 46 42
22 48 44
22 49 44
20 44 40
21 46 42
20 45 41
21 46 42
21 46 42
21 45 41
21 46 42
21 46 41
22 48 44
21 46 42
21 46 42
22 47 43
21 46 42
22 47 43
21 45 41
21 45 41
21 46 42
22 47 43
21 46 42
22 47 42
21 46 42
22 47 43
23 48 44
22 45 41
23 49 44
22 47 42
22 47 42
23 46 42
23 47 43
23 48 43
23 47 43
24 48 43
24 47 43
24 48 43
24 47 43
26 50 45
25 48 43
27 51 46
25 47 42
26 48 43
27 50 45
28 49 44
28 49 44
29 50 45
30 53 48
30 50 45
31 52 47
31 49 44
32 51 45
33 52 47
34 52 47
35 54 48
36 54 48
36 54 48
37 54 49
38 55 49
39 57 50
40 57 50
41 57 50
42 58 52
43 57 51
44 59 52
45 60 53
47 61 53
48 62 55
49 61 54
50 62 55
51 64 56
52 63 55
54 66 58
55 66 58
57 69 60
58 69 60
59 69 60
60 70 61
62 71 62
63 72 63
64 73 64
65 74 64
67 75 65
68 76 66
69 77 67
70 78 68
71 77 67
73 79 68
74 80 69
75 82 71
76 82 71
77 83 71
78 84 72
79 84 72
81 86 74
82 87 75
82 87 75
83 88 76
84 89 76
85 90 78
86 90 77
87 90 78
87 91 79
88 92 79
88 91 78
89 93 80
90 93 80
90 93 80
91 94 81
91 93 79
91 93 80
92 96 82
92 94 81
92 96 82
92 94 81
92 95 81
92 95 82
92 95 81
92 95 82
92 94 81
91 94 81
91 94 80
91 94 81
91 94 80
90 93 80
90 93 80
89 93 79
88 92 79
88 91 78
87 91 79
86 90 77
86 89 77
85 89 76
84 89 77
83 88 76
82 87 75
81 86 74
80 85 73
79 85 73
78 85 73
77 84 72
76 83 71
75 82 71
73 79 68
72 79 68
71 78 68
70 78 67
68 76 66
68 76 66
66 74 64
65 74 65
63 72 62
62 71 62
61 71 62
60 71 62
58 69 60
57 67 59
56 66 58
55 66 58
54 66 58
52 65 57
51 63 56
50 63 56
48 62 54
48 63 55
46 60 53
45 60 53
44 60 53
43 59 52
42 59 53
42 60 53
40 56 50
38 55 49
38 55 49
36 53 48
36 55 49
35 54 48
20 45 41
20 45 41
21 47 42
21 46 42
21 46 42
21 47 43
21 47 43
21 46 42
21 47 43
21 46 42
21 47 43
20 44 40
20 44 40
20 44 40
21 46 42
21 47 43
20 43 39
21 46 42
20 45 41
21 47 43
21 46 42
21 46 42
20 45 41
21 46 42
22 48 43
21 47 43
21 46 42
21 46 42
21 47 43
22 48 43
21 47 43
22 47 43
21 46 42
21 45 41
22 48 44
21 46 42
21 47 43
21 46 42
21 46 42
22 47 43
21 46 42
21 46 42
21 45 41
23 49 45
21 46 42
22 46 42
22 47 42
23 48 44
23 48 44
21 45 41
23 47 43
23 49 44
23 47 42
24 49 45
23 48 43
24 48 44
24 49 45
25 51 46
24 48 43
25 48 43
26 49 45
25 48 44
26 49 44
26 47 43
27 49 44
27 49 44
27 49 44
28 49 44
29 49 45
29 50 45
30 52 47
32 53 48
32 52 47
32 52 47
33 52 47
34 52 46
35 53 48
36 54 49
36 54 48
37 55 49
38 55 49
39 56 50
40 56 50
41 57 51
42 57 50
43 58 51
44 57 51
45 59 52
47 60 53
48 62 55
49 62 55
51 63 55
52 64 56
53 64 56
55 67 59
56 67 58
57 68 60
58 68 59
60 70 61
61 72 63
62 71 62
64 73 63
65 74 64
66 74 65
68 77 67
69 77 67
70 78 67
72 79 69
73 80 69
74 81 70
75 81 70
76 82 70
78 83 71
79 84 73
80 86 74
81 87 75
82 86 74
83 88 76
84 88 76
85 89 76
86 90 77
87 90 77
88 91 78
89 92 79
89 92 79
90 93 80
91 94 81
92 95 81
93 96 82
93 96 82
93 96 82
94 96 82
94 97 83
94 96 82
95 97 83
95 97 83
95 97 83
95 98 84
95 97 83
95 97 83
95 97 83
95 97 83
95 98 84
95 97 83
95 98 84
94 97 83
94 96 82
93 95 82
93 96 82
92 95 81
91 94 80
91 95 81
90 93 80
89 93 80
89 92 79
88 92 79
87 90 78
86 90 77
85 89 77
84 89 77
83 87 75
82 87 75
81 85 73
80 84 73
79 85 73
77 83 72
76 82 71
75 81 70
74 81 70
72 78 68
71 77 67
70 77 67
68 76 66
67 76 66
66 74 64
64 73 64
63 72 63
62 71 62
60 70 61
59 70 61
58 69 60
57 68 60
55 67 58
54 67 58
53 65 57
51 63 55
50 63 55
49 64 56
48 64 56
47 61 54
45 59 52
44 59 52
43 59 52
42 58 51
41 58 51
40 56 50
39 57 50
38 54 48
37 54 49
36 53 48
21 46 42
21 46 42
21 47 43
21 47 43
20 44 40
21 47 43
21 47 43
20 45 41
21 46 42
20 45 41
22 48 44
21 47 43
21 46 42
21 47 43
21 47 43
21 47 43
20 45 41
21 47 43
21 46 42
22 48 44
21 46 42
21 45 41
21 45 41
20 45 41
22 49 44
21 47 43
21 46 42
21 47 43
21 46 42
21 46 42
21 46 42
21 45 41
21 45 41
22 49 44
22 47 43
21 46 42
21 46 42
21 46 42
21 46 42
21 45 41
22 48 44
21 46 42
22 46 42
22 48 44
22 47 42
23 49 45
22 46 42
22 47 43
23 48 44
22 47 43
22 46 42
23 48 44
23 46 42
24 48 44
25 51 47
24 48 43
24 48 43
23 46 42
25 49 45
24 47 42
24 46 41
26 48 43
26 49 44
27 49 44
27 49 44
28 51 46
27 47 43
29 49 45
29 50 45
30 51 46
31 51 46
31 50 45
32 50 45
34 54 48
34 52 47
36 56 50
35 52 47
37 54 49
37 54 48
38 55 49
39 56 50
40 56 50
41 57 51
43 58 51
44 59 52
44 58 51
46 60 53
47 61 54
48 61 54
50 62 54
52 66 58
52 64 56
53 63 56
55 66 58
56 66 58
58 68 59
59 69 60
60 70 61
61 70 61
63 71 62
64 73 64
66 75 65
67 75 65
68 76 66
70 76 66
71 79 69
73 80 69
74 81 70
75 81 70
77 82 71
78 84 72
79 84 72
80 85 73
82 86 74
83 87 74
84 87 75
85 89 76
86 90 77
87 91 78
88 92 79
89 92 79
90 94 81
91 94 80
92 95 81
93 96 83
93 96 82
94 96 82
95 98 84
95 97 83
96 98 84
96 98 84
97 100 86
97 99 84
98 100 85
98 99 85
98 99 84
98 99 84
98 100 86
98 99 85
98 100 86
98 100 85
98 101 86
98 100 85
98 99 85
98 99 85
97 99 85
97 98 84
96 97 83
96 99 85
95 98 84
95 97 83
94 97 84
93 95 82
93 96 83
92 95 81
91 94 81
90 94 80
89 93 79
88 91 78
87 91 78
86 90 78
85 90 77
83 87 75
82 87 75
81 86 74
80 86 74
79 85 74
77 83 71
76 82 71
75 82 71
74 81 70
72 78 67
71 78 67
70 78 68
68 76 66
67 76 66
65 73 64
64 73 64
62 71 62
61 71 62
60 69 60
58 68 59
58 69 60
56 66 58
55 66 57
53 65 57
52 66 58
50 62 55
49 63 55
48 60 53
47 61 53
46 60 53
45 61 54
43 57 51
42 57 51
41 56 50
40 57 51
39 57 50
38 55 49
37 55 49
22 48 44
20 44 40
21 46 42
20 45 41
22 47 43
21 47 43
20 45 41
21 47 43
21 46 42
20 45 41
21 46 42
21 46 42
21 46 42
21 46 42
21 46 42
20 45 41
20 45 41
21 45 41
20 45 41
20 44 40
21 46 42
21 47 43
21 46 42
21 47 43
21 46 42
21 46 42
22 47 43
21 47 43
21 45 42
22 48 44
22 48 44
20 45 41
21 46 42
21 45 42
21 46 42
22 48 43
22 48 44
21 47 43
21 45 41
21 46 42
21 46 42
21 46 42
22 47 42
22 48 43
23 48 44
21 45 41
23 49 44
23 48 44
23 47 43
23 47 42
23 48 43
23 48 44
23 47 43
23 47 43
24 47 43
24 49 44
25 48 44
24 46 42
26 50 46
25 48 43
26 49 44
27 51 46
27 49 44
27 48 43
28 50 45
28 48 44
29 50 46
29 50 45
31 52 47
30 49 44
32 53 47
32 51 46
33 52 47
34 54 49
35 53 48
36 54 48
36 54 48
38 56 50
39 56 50
40 57 50
40 56 50
42 58 51
43 59 52
44 58 52
45 58 52
47 62 54
47 61 53
49 62 55
50 63 55
51 63 56
53 65 57
54 66 58
55 66 58
57 69 61
58 69 60
60 70 61
61 71 62
62 70 61
64 73 63
65 74 64
67 75 65
68 75 65
70 78 68
71 77 67
73 81 70
74 80 69
75 81 70
77 83 72
78 83 71
79 84 73
80 85 74
82 86 74
83 88 76
84 89 76
85 89 77
87 91 78
88 92 79
89 93 79
90 93 80
91 94 81
92 96 82
93 97 83
94 97 83
95 97 83
96 98 84
97 99 85
97 100 86
98 99 84
99 101 86
99 100 85
100 101 86
100 103 88
101 102 87
101 103 88
101 103 88
101 103 88
102 103 88
102 103 88
102 103 88
102 104 89
102 103 88
102 103 88
101 103 88
101 103 88
101 102 87
100 101 87
100 101 86
99 101 86
99 100 86
98 100 85
98 100 85
97 99 85
96 98 84
96 98 84
95 97 83
94 96 83
93 96 83
92 94 81
91 95 81
90 93 80
89 92 79
88 91 78
86 90 77
85 90 77
84 88 76
83 87 75
81 87 75
80 84 73
79 83 72
77 83 72
76 82 71
75 81 70
73 80 69
72 80 69
70 77 67
69 77 67
67 75 65
66 73 64
65 72 63
63 72 63
62 71 62
61 70 61
59 69 60
57 67 59
56 66 58
55 65 57
54 65 57
52 65 57
52 65 58
50 63 55
49 62 54
47 61 53
46 60 53
45 59 52
44 58 52
42 58 51
41 57 51
41 58 52
39 56 50
39 57 50
21 47 43
21 47 43
20 45 41
21 46 42
21 46 42
20 45 41
21 46 42
21 47 43
21 46 42
21 46 42
20 45 41
21 47 43
21 46 42
21 47 43
21 46 42
20 45 41
20 44 40
22 48 43
21 46 42
21 47 43
21 47 43
22 48 43
22 48 43
21 46 42
22 48 44
22 48 44
22 48 44
21 47 42
21 46 42
21 47 43
21 46 42
21 47 42
21 47 43
21 47 42
21 47 43
21 46 42
21 46 42
22 47 43
21 46 42
21 46 41
21 44 40
22 47 43
21 45 41
23 48 44
22 48 43
22 46 42
22 46 42
22 46 42
22 46 42
24 49 45
23 47 42
23 48 43
24 48 44
23 47 43
23 47 42
24 48 43
25 48 44
25 49 45
25 49 44
26 49 44
26 49 44
26 48 44
27 50 45
28 51 46
28 48 44
28 49 44
29 49 45
30 50 45
31 52 47
32 52 47
32 51 46
33 51 46
33 51 46
35 54 48
35 52 46
36 53 48
38 55 49
38 54 48
40 56 50
40 56 49
42 58 51
43 57 50
44 57 50
45 60 53
46 60 53
48 61 54
49 62 55
50 63 56
52 64 56
53 65 57
54 65 57
56 67 59
57 68 60
59 69 61
60 70 61
61 71 62
63 73 64
65 74 64
66 73 63
67 76 66
69 76 66
70 77 67
72 78 67
73 80 69
75 81 70
76 82 70
77 83 72
79 85 73
80 86 74
82 87 75
83 88 76
84 88 76
86 89 77
87 92 79
88 91 78
90 93 79
91 93 80
92 95 81
93 95 82
94 96 82
95 98 84
96 98 84
97 100 86
98 100 86
99 100 85
100 101 87
101 102 88
101 102 87
102 104 89
102 104 89
103 104 89
103 105 90
104 104 89
104 105 90
105 106 91
105 105 90
105 105 90
105 106 90
105 106 91
105 106 90
105 106 90
105 105 90
105 106 90
104 105 90
104 105 89
104 105 90
103 104 89
103 104 88
102 103 88
102 103 88
101 102 87
100 101 86
100 102 87
98 99 85
98 101 87
97 98 84
96 98 84
95 98 84
94 96 82
93 95 82
92 96 82
91 94 81
89 93 80
88 92 79
87 91 78
86 90 78
84 89 76
83 87 75
81 87 75
80 85 73
79 85 73
77 83 72
76 81 70
74 81 70
73 79 69
72 80 69
70 77 67
69 77 67
67 74 64
66 74 64
64 73 63
63 72 62
61 70 61
60 69 60
58 68 59
57 66 58
55 66 58
54 67 59
53 66 58
52 64 57
50 63 55
49 62 54
47 60 53
46 61 54
46 61 54
44 59 53
43 57 51
42 58 52
40 56 50
40 57 50
20 45 41
20 44 41
21 47 42
20 45 41
21 46 42
22 47 43
21 46 42
21 47 43
21 47 43
20 44 40
21 46 42
20 44 40
21 47 43
22 48 44
21 46 42
21 46 42
20 45 41
22 48 43
21 46 42
20 45 41
21 46 42
20 45 41
21 46 42
20 45 41
21 45 41
21 46 42
21 47 43
21 46 42
22 48 43
21 46 42
21 46 42
21 47 43
21 47 43
22 48 44
22 48 44
22 47 43
23 50 46
21 46 42
21 45 41
22 48 43
22 47 43
22 47 43
21 45 41
23 49 45
22 47 43
22 46 41
23 47 43
23 47 43
23 48 44
23 47 42
23 46 42
23 47 42
24 47 43
24 47 43
24 48 43
25 49 44
25 48 44
25 46 42
25 47 42
26 48 43
27 50 45
26 46 42
27 48 44
27 48 43
28 48 43
29 49 45
30 52 47
31 52 47
31 51 46
32 51 46
34 54 49
34 53 47
35 53 47
35 53 48
36 54 48
38 55 49
39 56 50
39 55 49
41 56 50
41 56 49
43 59 52
44 58 51
45 59 52
47 62 55
48 61 53
49 62 54
50 63 55
52 63 55
53 64 56
54 65 57
57 70 62
57 67 59
59 68 59
60 68 59
62 70 61
63 71 61
65 74 64
67 75 65
68 75 65
70 77 67
71 77 67
72 79 68
74 80 69
75 81 70
77 81 70
78 84 72
80 85 73
81 86 74
83 87 74
84 89 76
86 90 77
87 91 78
88 91 78
90 93 80
91 94 81
92 95 81
94 97 83
95 97 83
96 97 83
97 99 84
98 99 84
99 100 86
100 103 88
101 102 87
102 104 88
103 104 89
103 104 89
104 105 90
105 105 90
105 105 89
106 107 91
107 107 91
107 107 92
107 108 92
108 108 92
108 108 92
108 108 92
108 108 92
108 108 92
108 109 93
108 110 94
108 109 93
108 108 93
108 109 94
107 106 90
107 108 92
106 106 90
106 107 91
105 106 91
105 105 90
104 105 90
103 104 89
103 105 90
102 103 88
101 102 87
100 101 86
99 100 86
98 100 85
97 99 85
96 98 84
95 99 85
93 96 83
92 95 82
91 94 80
89 92 79
88 91 78
87 90 78
85 89 76
84 89 77
83 88 75
81 86 74
80 85 73
78 84 72
77 82 71
75 82 71
74 80 69
72 79 69
71 78 68
69 77 67
68 76 66
66 74 64
65 76 66
63 72 63
62 71 62
60 69 60
59 69 61
58 70 61
56 66 58
54 66 57
53 65 57
52 66 58
51 65 57
49 62 55
47 60 53
47 60 53
45 58 52
44 60 53
43 58 51
42 58 52
40 56 49
20 45 41
21 46 42
22 48 44
21 46 42
21 46 42
21 46 42
20 45 41
21 47 43
20 45 41
22 48 44
21 45 41
22 48 44
21 47 43
21 45 42
21 47 43
20 45 41
20 45 41
21 46 42
21 45 41
21 47 43
21 46 42
21 46 42
20 44 41
22 48 44
22 48 44
22 48 43
20 45 41
21 46 42
21 47 43
20 45 41
21 46 42
21 46 42
21 45 41
22 48 44
21 46 42
22 48 44
21 45 41
21 46 42
21 45 41
22 48 44
22 47 43
22 46 42
22 46 42
21 45 41
22 47 43
23 48 44
22 46 42
23 49 44
23 47 42
24 48 44
23 47 42
23 46 42
24 47 43
24 48 43
24 47 43
25 49 44
26 50 45
26 50 45
26 49 45
27 49 45
28 50 46
27 48 44
28 50 45
28 49 44
29 50 46
30 51 46
31 52 47
32 53 48
32 52 47
32 51 45
34 53 48
35 53 48
35 52 47
37 55 49
37 54 48
39 57 51
39 55 49
40 56 50
42 58 51
43 59 52
44 60 53
46 61 54
46 60 53
48 63 55
49 63 55
50 61 54
52 63 55
53 65 57
55 66 58
56 66 58
58 68 60
59 69 60
61 70 61
62 70 61
64 73 64
65 73 64
67 75 65
68 76 66
69 75 65
71 78 68
73 79 68
75 81 70
76 81 70
78 83 72
79 85 73
81 85 74
82 87 75
84 87 75
85 90 77
87 91 78
88 91 78
90 93 80
91 93 80
92 95 81
93 95 82
95 96 82
96 99 85
97 98 84
99 101 87
100 101 86
101 103 88
102 102 87
103 105 90
104 105 90
105 106 91
106 106 90
106 107 91
107 107 91
108 109 93
109 109 93
109 110 93
110 111 95
110 111 94
111 111 94
111 110 93
111 110 94
111 111 94
111 111 94
112 111 95
111 111 95
111 111 95
111 112 96
111 110 94
111 110 94
110 110 94
110 110 94
110 109 93
109 109 93
109 109 93
108 109 93
107 108 92
106 107 91
105 106 90
105 105 89
104 104 89
103 104 89
102 102 87
101 103 88
100 101 86
99 101 87
97 99 85
96 99 85
95 99 85
94 97 83
92 95 82
91 95 81
89 93 80
88 92 79
87 91 78
85 90 77
84 88 76
82 87 75
81 85 74
79 85 73
78 84 72
76 82 70
75 81 70
73 80 70
71 78 67
70 77 67
68 76 66
67 75 65
65 73 64
64 72 63
62 72 62
61 70 61
59 69 60
58 68 59
56 67 58
55 65 57
53 65 57
52 64 56
51 65 57
49 63 55
48 62 55
47 61 54
46 61 54
44 59 52
43 57 50
42 58 52
