P3
200 133
255
20 44 40
20 45 41
20 45 41
20 44 40
20 44 40
20 44 41
20 44 40
20 45 41
20 44 41
20 44 40
20 45 41
20 45 41
20 44 41
20 44 40
20 45 41
20 45 41
20 44 41
19 43 40
20 45 41
20 44 40
20 44 40
20 45 41
20 44 41
20 44 40
20 44 40
20 44 41
20 45 42
20 45 42
20 44 41
20 44 41
20 44 40
20 45 41
20 44 41
20 44 41
20 45 42
20 44 40
20 44 40
20 44 41
20 45 41
20 45 41
20 46 42
20 44 40
20 44 40
20 44 41
20 45 41
20 44 40
20 44 41
20 44 41
20 45 42
20 45 41
20 45 41
20 45 41
20 44 40
20 45 41
20 45 41
20 45 41
20 45 41
20 45 41
20 45 41
20 45 42
20 46 42
20 44 41
20 44 40
20 44 41
20 44 40
21 46 42
20 45 42
20 44 41
20 44 40
19 43 40
20 44 40
20 44 40
20 44 40
21 46 42
20 44 40
20 44 40
20 45 41
20 45 42
20 45 41
20 44 41
20 45 41
20 45 41
20 44 40
20 45 42
20 44 41
20 44 40
20 44 41
20 44 41
20 44 40
20 45 41
20 44 41
20 44 41
20 44 41
21 46 42
20 45 41
19 43 39
20 44 40
20 45 41
20 44 40
20 44 41
20 44 40
20 44 41
20 44 40
20 44 41
20 44 41
19 43 40
20 44 41
20 44 40
20 44 41
20 44 40
20 44 40
20 45 42
20 44 40
20 45 41
20 44 40
20 44 40
19 43 40
19 43 40
20 44 40
19 43 39
20 44 40
20 44 41
20 43 40
20 45 41
20 44 41
20 44 40
20 45 41
19 43 39
20 45 41
19 43 40
20 44 41
20 44 40
20 45 41
20 44 40
20 44 40
20 45 41
20 44 41
19 43 40
20 44 40
20 44 40
20 44 40
19 43 40
19 43 39
20 44 40
20 45 41
20 44 41
19 43 40
20 45 41
19 43 40
19 43 40
20 44 41
20 44 40
20 44 41
19 42 39
20 44 40
20 44 41
19 43 40
20 44 41
19 43 40
19 43 40
20 44 40
20 44 41
19 43 40
20 43 40
20 44 41
20 44 41
20 44 41
20 44 40
20 44 40
19 43 40
20 44 40
20 44 40
20 44 41
20 44 41
19 43 40
19 43 40
19 43 40
19 42 39
20 45 41
19 42 39
19 42 39
20 45 41
19 43 40
20 45 41
19 43 40
19 42 39
20 44 41
19 43 40
19 43 40
20 44 40
19 43 39
19 43 40
19 43 39
20 44 40
19 43 40
19 43 40
19 43 40
19 43 40
19 43 40
20 44 40
20 44 40
20 45 41
20 45 41
20 44 40
20 44 40
20 44 41
20 44 40
20 45 42
20 45 41
19 43 40
19 43 40
20 44 40
20 44 40
20 44 40
20 44 40
20 44 40
20 45 42
20 45 41
19 43 40
20 45 41
20 43 40
20 44 41
20 44 40
20 45 41
20 45 41
20 45 41
20 44 41
20 44 41
20 44 40
20 44 41
20 45 41
20 46 42
21 46 42
20 44 40
21 46 42
20 45 41
20 45 41
20 44 40
20 45 41
20 45 41
19 43 40
20 44 40
20 44 40
20 45 41
20 45 41
20 45 41
21 46 42
20 44 40
20 44 41
20 44 40
20 44 40
20 44 40
20 44 40
20 45 41
19 43 39
20 44 40
20 45 42
20 45 42
20 45 41
20 44 40
20 44 41
20 45 41
20 44 40
20 45 41
20 44 41
20 44 41
20 44 40
20 44 40
20 44 41
20 43 40
20 44 41
20 44 41
20 44 40
20 44 41
20 45 41
20 45 41
20 44 41
20 45 41
20 45 41
20 44 40
20 44 41
19 43 40
20 45 41
20 45 41
20 44 41
20 45 41
20 44 40
20 43 40
19 43 39
20 45 41
20 45 42
20 44 41
20 44 40
20 44 41
19 43 40
20 45 41
20 44 41
20 45 41
20 45 42
20 44 41
20 45 41
20 44 40
20 44 41
20 44 40
20 44 41
19 43 40
20 44 41
20 45 41
20 45 41
20 45 41
20 44 41
19 43 40
20 44 40
20 44 41
20 45 41
20 44 41
20 44 40
20 44 40
20 44 41
20 44 40
20 44 40
20 44 41
20 44 41
20 44 40
20 44 41
20 44 40
19 43 40
20 44 41
20 44 41
19 43 40
20 44 41
19 43 40
20 45 41
19 43 40
20 44 40
20 44 40
20 44 41
20 44 41
20 44 41
20 44 41
19 43 40
20 45 41
19 43 40
20 44 40
19 43 40
20 45 41
20 44 41
19 43 40
20 44 40
20 44 40
19 43 40
19 43 39
19 43 40
19 43 40
20 44 41
19 44 40
20 44 40
20 44 40
19 43 40
20 44 40
19 43 40
20 44 40
20 44 40
19 43 40
19 44 40
19 42 39
20 44 40
19 43 40
20 44 40
19 43 40
19 43 40
19 43 40
19 43 40
20 44 40
19 42 39
19 43 40
19 44 40
20 44 41
19 43 40
20 44 41
20 44 41
20 44 40
19 43 40
19 43 39
20 44 40
19 43 40
19 43 40
20 44 41
19 43 39
19 43 39
20 44 41
19 43 40
20 44 41
19 43 40
19 43 40
20 44 41
19 43 40
19 43 39
19 43 40
19 43 40
20 44 41
21 46 42
20 45 41
20 44 40
20 44 41
20 44 41
20 45 41
20 44 41
20 45 41
20 45 41
21 46 42
20 44 41
20 44 40
20 45 41
20 45 41
20 45 41
20 44 41
20 43 40
21 46 42
20 44 41
21 46 42
20 45 41
20 45 41
20 44 40
20 45 41
20 45 41
20 45 41
20 45 41
20 46 42
21 46 42
20 44 40
20 45 41
20 44 41
20 44 41
20 44 41
20 44 40
20 45 42
20 44 40
20 45 41
21 46 42
20 45 41
20 45 41
21 46 42
20 44 40
21 46 42
20 45 41
20 45 41
20 44 40
20 44 41
20 45 41
20 44 41
20 44 41
20 44 41
20 44 41
20 45 41
20 44 41
20 45 41
20 45 42
20 44 40
20 44 40
20 45 41
20 43 40
20 44 41
20 44 40
20 44 41
20 44 41
20 45 41
20 45 41
20 44 41
20 45 42
20 45 41
20 45 41
20 44 41
20 44 41
20 45 42
20 44 41
20 45 41
20 44 40
20 45 42
21 46 42
20 45 41
20 44 40
20 45 41
20 45 42
20 44 41
21 46 42
20 45 41
20 44 40
19 43 40
20 45 42
20 45 41
20 44 40
21 46 42
21 46 42
20 44 41
20 43 40
20 44 41
20 44 41
20 44 41
20 44 40
20 44 41
20 45 41
20 44 40
20 44 41
20 44 40
20 46 42
20 44 40
20 45 41
20 45 41
20 44 40
20 45 42
20 45 41
20 45 41
20 45 41
20 44 40
20 44 41
20 44 40
20 44 41
20 44 41
20 45 41
20 44 41
20 44 40
20 44 40
20 45 42
20 44 41
20 44 40
20 44 41
20 44 41
20 44 40
20 44 40
20 44 40
20 44 41
19 43 40
20 44 41
20 44 40
20 45 41
20 44 41
20 44 40
20 44 40
20 44 41
20 44 40
20 45 41
20 44 40
20 44 40
20 44 40
19 43 40
20 44 41
19 43 40
20 44 41
20 44 41
20 44 41
20 45 41
20 44 41
19 43 40
19 43 40
20 44 40
20 44 41
20 44 41
20 44 41
19 43 40
20 44 41
20 44 40
20 44 40
20 44 41
20 43 40
20 44 40
20 44 41
20 44 41
20 44 40
20 45 41
19 43 40
20 44 40
20 45 41
20 44 40
19 43 39
20 44 40
20 44 40
20 44 41
19 43 39
20 44 40
19 43 39
20 44 40
19 43 40
19 43 40
19 43 40
20 44 41
19 43 40
20 45 42
20 44 41
19 42 39
19 43 40
19 43 40
19 44 40
20 44 41
19 43 40
20 44 41
20 45 42
20 45 41
19 43 40
19 43 40
19 43 40
20 45 41
20 45 41
20 45 41
20 45 41
20 46 42
20 45 42
20 44 40
20 45 41
20 44 41
20 44 41
19 43 40
20 44 40
20 44 40
20 45 41
20 45 41
20 45 41
20 45 41
20 45 41
20 44 40
20 44 41
20 44 41
20 44 40
20 44 40
21 46 42
20 44 41
20 45 41
19 43 40
20 45 41
20 45 41
20 45 41
20 44 40
20 44 40
20 45 42
21 46 42
20 44 40
20 44 41
20 44 41
20 44 40
20 44 41
20 45 42
20 45 41
20 45 41
20 44 40
20 44 40
20 44 41
20 45 41
20 45 41
20 44 40
20 45 42
20 44 41
20 45 41
20 44 40
20 44 41
20 44 41
20 45 41
20 44 41
20 45 41
20 45 41
20 45 41
21 46 42
20 44 40
20 44 40
20 44 40
20 44 41
20 44 40
20 44 41
20 44 40
20 45 41
20 44 41
20 44 41
20 44 41
20 45 41
20 44 41
20 45 41
20 44 41
19 43 40
20 44 40
20 45 42
20 44 41
21 46 42
20 44 40
20 44 40
20 45 41
20 44 40
20 45 41
20 44 40
20 44 40
21 46 42
21 46 42
20 44 40
20 44 40
20 44 41
20 44 41
20 44 40
20 44 40
20 44 41
20 44 41
20 44 41
20 45 41
20 45 41
19 43 40
20 44 40
20 43 40
19 43 39
20 44 40
20 43 40
20 44 40
20 44 41
20 44 41
20 44 40
20 44 40
19 43 40
20 45 41
20 45 41
20 44 40
20 44 41
20 44 41
20 45 41
20 44 40
20 45 41
20 44 40
20 45 42
20 44 41
20 45 41
20 45 42
20 44 41
20 44 40
20 44 40
20 44 40
20 44 40
20 45 41
20 44 40
20 45 42
20 45 41
20 44 40
20 45 41
20 44 40
20 44 40
20 44 40
20 44 40
20 44 40
20 45 41
20 44 41
20 44 40
20 45 41
20 45 41
20 45 41
19 43 40
20 44 40
19 43 39
20 44 41
20 44 41
20 44 41
20 44 41
19 43 39
20 44 41
20 45 41
20 45 41
20 45 42
19 43 40
20 44 40
19 43 40
20 44 40
20 44 41
20 45 41
19 43 40
19 43 40
20 44 40
20 44 40
20 44 41
20 44 40
20 44 40
20 44 41
20 44 40
20 44 40
20 44 41
20 44 41
20 45 41
19 43 40
20 44 40
19 43 40
19 43 40
19 43 40
20 44 41
19 43 40
19 43 40
19 42 39
20 44 41
19 43 40
19 43 39
19 42 39
19 43 40
19 43 40
20 44 41
19 43 39
20 44 41
20 44 40
19 43 40
19 43 39
20 44 41
20 44 41
20 45 41
20 44 41
20 45 41
20 45 41
20 44 41
20 45 42
21 46 43
21 46 43
20 45 41
20 45 41
20 45 41
20 44 41
20 44 40
20 44 41
20 44 40
20 45 42
20 45 41
20 44 40
20 44 40
20 45 41
20 45 41
20 44 40
20 45 41
20 44 41
20 45 41
20 45 42
21 46 42
20 45 41
20 45 41
21 46 42
20 45 41
20 44 40
20 45 41
21 46 42
20 45 41
21 45 42
21 46 42
20 44 41
20 44 40
20 44 41
20 45 41
20 45 42
20 44 41
20 44 40
20 45 42
20 44 40
20 45 41
20 44 41
20 45 41
20 44 41
20 44 41
20 44 41
20 45 41
20 44 40
21 46 43
20 44 41
20 45 41
20 45 42
20 45 41
20 45 41
20 45 41
20 45 42
20 45 41
20 45 42
20 44 41
20 45 41
21 46 42
20 45 41
20 44 41
20 45 41
20 45 41
21 46 42
20 45 41
20 45 41
20 45 41
20 44 40
20 45 41
19 43 40
20 45 41
20 44 41
20 44 40
20 45 42
20 44 41
20 45 41
20 45 41
20 45 41
20 44 40
20 45 41
20 44 41
20 45 41
20 44 41
20 45 41
20 45 41
20 45 41
20 44 40
20 43 40
20 45 42
20 44 41
20 44 41
20 45 41
21 46 42
20 44 40
20 44 41
20 45 41
20 45 41
20 44 41
20 45 41
20 45 41
20 45 41
20 44 41
20 45 41
20 44 40
20 45 42
20 45 41
20 45 41
20 44 41
20 45 41
20 45 41
20 44 41
20 45 41
20 44 41
20 44 40
20 44 41
19 43 39
20 44 41
20 44 40
20 44 40
20 44 41
20 45 42
20 45 41
20 44 41
20 44 40
20 44 41
20 44 40
19 43 40
20 46 42
20 44 41
19 43 40
20 45 42
20 44 41
20 44 40
19 43 39
20 44 40
20 44 41
20 44 40
20 44 40
20 44 41
20 44 40
20 44 41
20 45 41
19 42 39
20 45 41
20 45 41
19 43 39
19 43 40
19 42 39
19 43 40
19 43 39
20 44 40
20 45 41
20 45 41
20 44 40
19 43 40
19 43 40
19 42 39
20 45 41
20 45 41
20 44 40
19 43 39
20 44 41
19 43 40
19 43 40
19 43 40
20 44 41
19 43 40
19 43 40
20 44 41
20 45 42
19 43 40
19 43 40
19 43 39
19 43 40
20 44 40
19 43 40
20 44 41
20 44 41
20 44 40
19 43 40
19 43 40
20 44 41
20 45 41
20 44 41
21 46 42
20 44 40
20 44 41
20 45 41
19 43 39
19 43 40
20 45 41
20 45 41
20 45 41
20 45 41
21 46 42
19 43 40
21 46 42
20 45 41
20 44 41
20 44 40
20 45 41
20 45 42
20 45 41
20 44 40
20 44 41
20 44 40
20 45 42
20 45 41
20 45 41
20 45 42
21 46 42
20 45 42
20 45 41
20 45 41
20 45 41
20 44 41
20 44 40
20 44 41
20 44 41
20 44 40
21 46 43
20 44 40
20 44 40
20 44 41
20 45 41
20 44 40
20 44 41
20 44 40
20 45 42
21 46 42
20 44 41
20 44 40
20 45 41
20 44 40
20 45 41
20 45 42
20 45 41
20 44 41
20 45 41
20 45 41
19 43 40
20 44 41
20 45 42
20 44 40
20 45 41
21 46 42
21 46 42
20 44 40
20 44 40
20 45 42
21 46 42
20 44 40
20 45 41
21 46 42
20 45 41
20 44 40
20 45 41
20 44 40
20 44 41
21 45 42
20 44 41
20 44 40
20 45 41
20 44 40
21 46 42
20 45 41
20 45 41
20 44 41
20 45 41
20 44 40
20 44 40
20 44 41
20 44 41
20 44 40
20 45 41
20 44 41
20 45 41
21 46 42
20 44 40
20 44 40
20 46 42
20 45 42
20 45 41
20 45 41
20 44 41
20 45 41
19 43 40
20 45 41
20 44 41
21 46 43
20 44 40
20 44 41
20 45 42
20 44 40
20 45 41
20 45 41
20 44 40
20 45 42
20 44 41
20 45 42
20 45 41
20 45 41
20 45 41
20 44 40
20 45 41
20 44 40
20 44 41
20 44 40
20 45 41
20 45 41
20 44 41
20 45 41
20 44 40
20 45 41
20 45 41
21 46 42
20 45 41
20 45 41
20 44 41
20 45 41
20 45 41
20 44 41
20 44 40
20 45 41
20 45 41
20 44 41
20 44 40
20 45 41
20 44 40
20 45 41
20 45 42
20 45 41
20 45 41
20 44 40
20 45 41
20 45 42
19 42 39
20 44 41
19 43 40
20 43 40
20 44 41
20 45 41
20 43 40
19 43 40
20 44 40
20 44 41
20 44 40
20 45 41
20 44 40
20 44 40
20 44 41
19 43 40
20 45 41
20 45 41
20 45 41
20 45 41
20 44 40
20 44 41
19 42 39
20 44 40
19 43 39
20 44 40
20 45 41
20 44 40
20 44 41
20 45 41
20 44 40
20 45 41
19 43 40
20 44 41
20 44 41
19 43 40
20 44 41
20 44 41
20 44 40
20 44 40
19 43 40
20 44 40
19 43 39
19 43 40
20 45 41
19 43 40
19 43 40
20 44 40
20 44 40
19 43 40
20 44 41
19 43 40
19 43 40
20 44 40
21 46 42
20 45 41
21 46 42
20 43 40
21 46 43
20 45 41
20 44 41
20 44 40
20 45 42
20 45 41
20 45 41
20 44 41
20 44 41
20 45 41
20 45 41
20 45 41
20 44 41
20 44 41
20 44 41
21 47 43
20 45 42
20 45 41
20 45 41
20 44 40
20 45 41
20 45 41
20 45 41
20 44 41
20 44 40
21 46 42
19 43 40
20 44 40
20 45 41
20 44 41
20 44 40
20 44 40
20 45 41
20 44 40
20 45 42
19 43 39
20 45 42
20 45 41
20 44 40
20 45 41
20 44 41
20 45 41
20 44 41
20 44 41
20 45 41
21 46 42
20 44 40
20 44 41
20 45 41
20 45 41
20 45 41
20 45 42
20 45 41
21 46 43
20 44 40
20 44 40
20 44 41
20 45 41
20 45 41
20 45 42
20 44 41
20 45 41
20 44 40
20 45 41
20 44 40
20 45 41
20 45 41
20 45 41
20 45 42
20 45 41
20 44 40
20 44 40
20 45 42
20 45 42
20 45 41
20 45 42
20 45 41
20 44 41
20 44 41
21 46 42
20 45 41
20 44 41
19 43 40
20 44 41
20 44 41
21 46 42
20 45 41
20 44 41
20 45 41
20 45 41
20 43 40
20 45 41
20 44 41
21 46 42
20 44 40
20 44 40
20 44 40
20 45 41
20 44 40
20 44 40
20 44 40
20 45 41
20 43 40
20 44 41
20 44 40
20 44 41
20 45 41
20 44 41
20 44 41
20 44 41
20 44 41
20 44 40
20 44 41
20 44 40
20 43 40
20 44 41
20 44 40
20 45 41
20 45 41
20 45 41
20 44 41
20 44 40
20 43 40
20 44 41
20 44 41
20 45 41
20 44 41
20 45 41
20 44 41
20 44 40
20 44 40
20 44 41
20 44 40
20 45 41
20 45 42
20 45 41
20 44 40
20 44 41
20 45 41
20 45 42
20 44 40
20 45 41
19 43 40
20 44 40
20 44 41
20 44 41
20 45 42
19 43 40
20 44 40
20 45 41
20 45 41
20 44 40
20 44 41
20 44 41
19 43 40
19 43 40
20 45 41
19 43 40
20 44 41
20 45 41
20 44 41
20 44 41
19 43 39
19 43 40
20 44 40
20 44 41
20 44 40
20 44 40
19 43 40
20 44 40
20 45 42
19 43 40
20 44 41
20 44 40
20 45 41
19 43 40
20 44 40
20 44 41
20 45 41
20 44 41
20 44 40
19 43 40
20 45 41
20 45 41
19 42 39
20 44 41
19 43 40
20 44 40
20 44 40
19 42 39
19 43 40
20 44 41
19 43 40
20 44 40
19 43 40
19 42 39
20 44 41
20 45 42
20 44 41
20 45 41
20 45 41
20 45 41
20 45 41
20 45 41
20 44 41
21 46 42
21 46 42
20 45 41
20 44 40
20 45 41
20 45 41
21 46 42
20 45 41
21 46 42
20 45 41
20 44 40
20 45 41
20 45 42
21 46 42
21 46 42
20 45 42
20 44 40
20 45 41
20 44 40
20 44 41
20 44 41
20 45 41
20 45 41
20 45 41
20 44 41
20 44 41
20 44 40
20 45 41
20 45 41
20 45 41
20 45 41
20 45 41
20 45 41
20 44 41
21 46 42
20 44 41
20 45 41
20 44 41
20 45 41
20 44 41
20 44 41
21 47 43
21 46 42
21 45 42
20 45 41
21 46 43
20 45 41
21 45 42
20 45 41
21 46 42
20 45 41
20 45 41
20 45 41
20 44 41
20 44 41
20 45 42
20 45 42
20 45 41
20 44 40
20 45 41
20 45 41
20 45 41
21 46 42
21 46 42
20 45 41
20 44 40
20 45 41
21 46 42
20 45 41
20 45 41
20 44 41
20 45 41
20 45 41
20 45 41
20 45 41
20 45 41
20 45 41
20 44 40
20 45 41
20 45 41
20 44 40
20 43 40
20 45 41
20 44 40
20 45 41
20 44 40
20 45 41
20 45 42
20 45 41
20 45 42
19 43 40
20 44 41
21 46 42
20 44 41
20 45 41
21 46 42
20 44 41
20 44 41
20 44 40
20 44 41
20 45 42
20 44 40
20 45 41
20 45 41
20 45 41
20 44 40
20 45 41
21 46 42
20 43 40
20 45 42
20 45 41
20 44 40
21 46 42
20 44 40
20 44 41
20 44 41
20 43 40
20 45 42
20 45 41
20 44 41
20 44 40
20 44 40
19 43 40
20 44 41
20 44 41
20 43 40
20 44 41
20 45 41
20 45 41
20 45 42
20 45 41
20 45 41
20 44 41
20 44 41
20 44 41
20 44 40
21 46 42
19 43 40
20 45 41
20 44 40
20 45 42
19 43 40
19 43 40
19 43 40
20 45 41
20 44 40
19 43 40
20 44 41
20 44 41
20 45 41
20 44 41
20 44 40
19 43 40
20 45 42
19 43 39
20 45 41
19 43 39
20 45 41
19 43 39
20 44 40
20 44 40
20 44 41
20 44 40
20 44 40
20 43 40
20 45 41
20 44 41
20 45 41
19 43 39
20 45 41
20 45 41
20 43 40
20 45 41
20 43 40
19 43 40
20 44 40
20 44 40
20 44 40
19 43 40
20 44 40
20 44 40
19 43 40
19 43 39
20 44 40
19 43 40
20 44 40
20 44 40
20 45 41
20 44 40
20 44 41
20 44 40
20 44 40
20 44 41
20 45 41
21 46 42
21 46 42
21 46 42
20 44 41
20 45 41
20 44 41
20 44 40
20 44 41
21 46 42
21 46 42
20 45 41
21 46 42
20 45 41
21 46 42
20 45 42
20 44 41
20 45 42
20 45 42
20 45 41
20 45 41
20 45 41
20 45 42
21 47 43
20 44 40
20 44 40
20 45 41
20 45 41
20 45 41
20 44 41
20 44 41
20 45 41
21 46 42
20 45 41
20 45 41
20 45 41
20 44 40
20 45 41
20 45 41
20 44 40
21 46 42
20 45 41
20 45 41
21 46 42
20 45 41
20 45 41
20 45 41
21 46 42
20 44 41
20 45 41
20 44 41
20 45 42
20 45 41
21 46 42
20 45 41
20 45 41
20 45 41
20 45 42
21 45 42
20 45 41
20 45 42
20 45 41
20 45 41
20 45 41
20 44 41
20 44 40
20 45 41
20 45 41
21 46 42
20 45 41
21 47 43
20 45 41
20 45 42
20 45 42
20 43 40
20 45 41
21 46 42
21 45 42
21 46 42
20 45 41
20 44 41
20 45 41
20 45 41
20 45 41
21 46 42
20 45 42
20 44 40
20 45 41
20 45 42
20 45 42
20 45 41
20 44 41
20 44 40
20 45 41
20 43 40
20 44 41
20 44 40
20 44 40
20 45 41
20 44 41
20 44 41
21 46 42
20 45 41
20 45 41
21 46 42
20 45 41
20 45 41
20 45 41
20 44 40
20 44 40
20 45 41
20 44 41
20 45 41
20 45 41
20 45 41
20 45 41
19 43 40
20 45 41
20 44 40
20 44 41
20 44 40
20 44 40
20 44 40
21 46 42
20 44 41
20 45 41
20 43 40
20 44 41
20 44 41
20 44 41
20 45 41
20 45 41
20 44 41
20 44 40
20 45 41
20 44 41
19 43 40
20 44 41
20 44 40
21 46 42
20 44 41
20 44 41
20 44 40
20 45 41
20 44 40
20 44 41
20 45 42
20 45 41
20 45 41
20 45 42
20 44 40
20 44 40
20 44 40
20 44 40
20 44 40
20 44 40
20 45 41
20 44 40
20 44 40
20 45 41
20 44 40
20 44 41
20 44 40
20 45 41
19 43 40
20 44 41
20 45 41
19 43 40
20 45 41
20 44 40
20 44 40
20 44 41
20 44 40
20 45 41
20 44 40
20 44 41
20 45 41
20 44 41
20 44 41
20 44 41
20 44 40
20 44 41
20 45 42
19 43 40
20 44 40
20 45 41
20 44 41
20 44 41
20 44 40
19 43 40
20 44 40
20 44 41
20 44 40
20 45 41
20 45 41
20 44 40
20 44 40
19 43 40
20 45 42
20 44 41
21 46 42
20 45 41
20 45 41
21 46 42
20 45 41
20 45 41
21 46 42
21 46 42
20 45 41
21 47 43
20 45 41
20 45 41
21 46 42
20 45 41
21 46 42
21 46 42
21 46 42
20 45 41
21 46 42
21 47 43
20 45 42
20 45 41
20 44 41
21 46 42
20 44 41
20 44 40
21 46 42
20 45 41
20 44 41
20 45 41
20 45 42
20 45 41
20 45 41
20 45 41
20 45 41
21 46 43
21 47 43
21 46 42
20 45 41
20 44 41
20 45 41
21 46 42
21 46 42
20 45 41
21 46 42
21 46 42
20 45 41
20 45 41
20 45 41
21 46 42
21 46 42
20 46 42
21 47 43
20 44 41
20 45 41
21 45 42
20 44 41
21 46 42
20 45 41
21 46 42
20 45 41
21 47 43
19 43 40
20 45 41
20 44 41
21 46 42
20 45 41
21 45 42
21 46 42
20 44 41
20 45 41
20 45 42
20 45 41
20 44 40
20 45 41
20 45 41
20 45 41
21 46 42
20 44 41
20 45 41
20 45 41
21 46 42
21 46 42
20 44 40
20 45 41
20 45 42
21 46 42
20 45 41
20 45 41
20 45 41
20 45 41
20 45 41
20 45 41
21 46 43
20 44 41
20 45 41
20 44 41
20 45 41
20 45 41
20 45 41
20 44 41
20 44 41
20 45 41
20 45 41
21 46 42
20 45 42
20 45 41
20 45 41
20 45 42
21 46 42
20 45 41
20 44 41
20 45 41
20 44 41
20 44 41
20 45 41
20 45 41
20 45 41
20 45 42
20 46 42
20 45 41
20 44 40
20 45 41
20 45 41
20 45 42
20 44 41
20 45 42
20 44 41
20 44 40
20 44 40
21 46 42
20 44 41
20 45 41
20 45 42
20 44 40
20 44 40
20 43 40
20 45 41
20 44 41
20 45 41
20 45 41
20 44 41
20 44 41
20 45 42
20 44 40
20 44 40
20 45 42
20 45 41
20 45 41
20 44 41
19 43 39
20 45 41
20 44 40
20 44 40
20 44 41
20 44 40
20 43 40
20 44 41
20 44 40
20 44 41
20 44 41
21 46 43
19 44 40
20 44 41
19 43 40
20 44 41
20 44 40
19 43 40
19 43 40
20 45 41
20 44 40
20 45 41
20 44 40
20 44 41
20 44 40
20 45 42
20 44 41
20 44 40
19 43 40
20 44 41
20 45 41
20 45 41
20 44 40
20 44 40
19 43 40
19 43 40
20 44 41
20 44 40
20 44 41
19 43 39
19 43 40
20 45 41
20 45 41
19 43 40
20 44 40
20 44 40
20 44 41
20 44 40
20 45 41
21 46 42
20 45 41
21 46 42
21 46 42
20 45 41
20 45 41
20 45 41
20 45 41
20 45 41
21 46 42
21 45 42
21 47 43
21 46 42
19 43 39
20 45 41
20 44 40
20 45 41
21 45 42
21 46 42
20 45 41
21 46 42
21 46 42
20 45 41
19 43 39
20 44 41
21 47 43
20 44 41
21 46 42
20 44 40
21 46 42
20 45 41
20 45 42
20 45 41
20 45 41
21 46 42
20 45 41
21 46 42
20 44 41
21 46 42
20 45 41
21 46 42
20 45 41
20 45 41
20 45 41
20 44 41
21 46 42
20 45 41
21 47 43
20 45 42
20 44 40
21 46 42
20 45 41
20 45 41
21 47 43
21 46 42
20 45 41
20 45 41
20 45 41
20 44 41
20 45 41
21 46 43
20 45 42
20 45 41
20 44 41
21 46 42
20 45 41
20 45 41
20 45 42
20 45 41
21 46 42
21 46 42
20 44 41
20 44 41
20 45 41
21 46 42
20 44 40
20 45 41
20 45 41
20 44 40
20 44 40
20 45 41
20 45 41
20 44 40
20 45 41
20 45 41
20 44 41
19 43 40
20 45 41
21 46 42
20 44 40
20 45 41
20 44 40
20 45 41
20 44 41
20 45 41
20 44 40
20 44 40
20 45 42
20 45 41
20 45 41
20 44 41
20 45 41
20 45 41
21 46 42
20 44 40
20 45 42
20 44 41
20 45 42
20 45 42
20 44 40
20 45 41
20 44 40
20 44 41
20 45 41
20 44 40
20 44 41
20 44 40
20 45 41
20 44 41
20 45 41
20 44 41
20 45 41
20 45 41
20 45 41
20 45 41
20 45 41
20 44 41
20 45 41
20 44 40
20 45 41
20 45 41
20 44 40
20 44 41
20 44 40
20 45 41
21 46 42
20 45 41
20 45 41
20 45 41
20 45 41
20 44 41
20 44 41
20 45 41
20 44 40
20 45 41
20 44 40
21 46 42
20 44 40
20 44 41
20 45 41
20 45 42
19 43 39
20 44 40
20 45 41
20 44 41
19 43 40
20 44 41
20 43 40
20 44 40
20 44 41
20 44 40
19 43 40
20 44 40
20 44 41
20 44 40
20 45 42
20 44 41
19 43 40
20 45 41
20 44 40
19 43 40
19 43 39
20 44 40
20 44 40
19 43 39
20 44 41
20 44 41
19 43 39
19 43 40
19 43 40
20 44 41
19 43 40
20 44 40
20 44 41
20 44 40
20 44 40
20 44 40
19 43 40
20 44 40
20 44 41
20 44 40
20 44 40
20 44 40
20 44 40
19 43 39
19 43 40
20 44 41
20 44 40
20 45 41
20 45 41
20 44 40
21 46 42
21 46 42
21 46 42
20 45 41
20 44 41
20 45 41
21 46 42
21 45 42
20 45 41
20 44 41
20 44 40
20 45 41
20 45 41
21 46 42
20 45 41
21 46 42
20 44 41
21 46 42
20 45 41
20 45 41
21 46 42
20 44 41
20 45 41
20 45 41
21 47 43
20 44 41
20 44 40
21 46 42
21 46 42
20 45 41
21 46 42
20 44 41
20 45 41
21 46 43
20 45 41
21 46 42
20 44 41
20 45 41
20 45 41
20 45 42
20 45 41
20 45 41
21 46 42
20 45 41
20 44 40
20 45 41
21 46 42
20 44 40
21 46 42
21 46 42
20 44 40
20 45 41
20 45 41
20 45 41
21 46 42
21 46 42
21 46 42
20 44 40
20 45 41
20 45 41
21 46 42
21 46 42
21 47 43
20 45 42
21 45 42
21 46 42
20 45 41
20 45 41
21 46 42
20 45 41
21 47 43
21 46 42
21 46 42
21 46 42
21 46 42
21 46 42
20 45 41
20 45 41
20 44 40
21 46 42
20 45 41
20 45 42
20 45 41
20 45 41
20 45 41
21 46 42
20 45 41
21 46 42
20 44 41
20 45 41
20 44 40
20 45 41
20 45 41
20 45 41
20 45 41
20 44 40
20 45 41
20 45 41
20 45 41
20 45 41
20 45 41
20 45 41
20 45 41
20 45 41
20 44 40
20 44 41
20 45 42
20 44 41
21 46 42
21 46 42
20 45 41
20 45 41
20 44 41
20 45 41
21 46 42
20 44 41
20 44 41
20 45 41
20 45 41
20 45 42
20 45 41
20 45 41
21 46 43
20 44 41
20 45 41
20 45 41
20 45 41
20 44 40
21 46 42
20 45 41
20 44 41
21 46 42
20 45 41
21 46 42
20 44 40
19 43 39
19 43 40
20 44 40
20 45 42
20 44 40
20 45 41
20 45 41
20 45 41
20 45 41
20 45 42
20 45 41
20 44 40
20 44 41
20 44 40
20 44 40
21 46 42
20 45 41
20 45 41
20 44 40
20 44 41
20 44 40
20 45 41
20 44 41
20 44 41
20 44 40
20 44 41
20 44 41
19 43 39
20 44 41
20 45 41
19 44 40
20 44 40
20 44 41
20 44 40
20 45 41
20 44 40
20 44 41
20 44 41
20 45 41
19 43 39
20 44 41
20 44 41
20 45 41
21 46 42
20 44 41
20 45 41
19 43 39
20 45 41
20 45 41
20 44 41
20 44 40
20 44 41
19 43 39
20 44 41
20 44 40
20 44 40
20 44 40
20 44 40
20 44 40
20 44 41
19 43 40
20 44 41
20 44 41
21 46 42
21 46 42
20 45 41
21 46 42
20 45 41
20 45 41
21 46 42
21 46 42
21 46 42
21 46 42
20 45 41
20 45 41
21 46 42
20 45 41
21 46 42
21 46 42
21 46 42
20 45 41
20 45 41
20 45 41
20 45 41
20 45 41
20 45 41
20 44 40
20 44 41
20 45 41
20 45 41
21 46 42
20 45 41
21 46 42
20 45 41
20 44 40
21 46 42
21 46 42
20 45 41
20 45 41
20 45 41
21 46 42
20 45 41
20 45 41
21 47 43
21 46 42
20 45 41
20 43 40
21 45 42
21 46 42
20 45 41
21 46 42
20 45 42
20 45 41
20 45 41
20 45 41
20 45 41
21 46 42
20 45 41
21 46 42
20 45 41
21 46 42
21 46 43
20 45 41
21 45 42
20 45 41
20 45 41
20 45 41
20 45 41
20 44 41
20 45 41
20 43 40
20 45 41
20 45 42
21 46 42
20 45 41
20 44 41
21 46 42
20 45 41
21 46 42
20 45 41
20 45 41
21 46 42
21 45 42
21 46 42
20 45 41
20 45 41
20 45 41
20 45 42
20 45 41
20 44 40
21 45 42
20 44 40
21 46 42
21 46 42
21 46 42
20 44 41
20 44 40
20 45 41
21 47 43
20 45 41
21 46 42
20 45 41
20 45 41
20 44 40
20 45 41
20 45 41
21 46 42
20 45 41
20 45 41
20 45 41
20 45 42
20 45 41
20 44 40
20 44 41
21 46 42
21 46 42
20 45 41
21 47 43
21 46 42
20 45 41
20 45 42
20 44 40
21 46 42
20 45 42
19 43 39
20 44 41
20 44 41
20 44 40
20 44 41
20 45 41
20 45 41
20 44 41
20 45 41
20 45 41
20 45 42
20 45 42
19 43 39
20 45 41
20 45 41
21 46 42
20 44 41
20 45 41
20 45 41
20 45 41
21 46 42
20 45 42
20 44 40
20 45 42
20 45 41
20 44 41
20 45 41
20 44 40
20 44 41
21 46 42
20 45 41
20 45 41
20 44 40
21 46 42
20 44 40
20 45 41
20 44 41
20 44 40
20 44 40
20 44 41
19 43 39
19 43 39
20 45 41
20 44 40
20 44 41
20 44 41
20 44 41
20 44 41
20 45 41
20 45 41
20 45 41
20 44 41
20 45 41
20 45 41
20 45 41
20 44 40
20 44 40
20 44 41
20 45 41
20 44 41
20 44 40
20 44 41
20 45 41
20 45 42
20 44 41
19 43 40
20 45 41
20 44 41
20 45 41
20 45 41
20 44 41
20 43 40
20 44 40
20 44 41
20 45 42
20 44 40
20 44 40
20 45 41
19 43 39
20 44 41
20 45 41
21 45 42
20 45 41
21 46 42
20 43 40
20 44 41
21 46 42
21 46 42
21 46 42
21 46 42
20 45 41
21 46 42
21 47 43
20 45 41
21 45 42
20 45 41
21 45 42
20 45 41
20 45 41
20 44 41
21 46 42
20 45 41
20 45 41
21 46 42
21 47 43
20 45 41
21 46 42
21 46 42
21 47 43
21 46 42
20 45 41
21 46 42
20 45 41
20 45 41
20 45 41
20 45 42
21 45 42
20 44 41
20 45 41
21 46 42
20 44 40
21 47 43
21 46 42
20 45 41
20 45 41
20 44 40
20 45 42
21 47 43
20 45 42
20 45 41
21 46 42
20 45 41
20 45 41
21 47 43
21 46 42
21 46 42
21 46 42
21 46 42
21 46 42
20 45 41
21 46 42
20 45 42
21 46 42
21 46 42
21 46 42
20 44 41
21 45 41
20 44 41
21 47 43
21 45 42
21 46 42
20 45 41
20 45 42
21 47 43
20 45 41
21 46 42
21 45 42
20 45 41
20 44 40
20 45 41
21 46 42
20 44 40
21 46 42
20 45 41
21 46 42
21 46 42
20 45 41
21 45 42
20 45 41
20 45 41
21 46 42
20 45 41
20 44 41
21 46 42
20 45 41
20 45 41
20 44 41
21 46 43
20 44 40
20 45 41
20 45 41
21 45 42
21 46 42
20 45 41
20 45 41
20 45 41
20 44 41
21 46 42
20 45 41
20 44 41
20 44 40
21 46 42
19 43 40
20 45 41
20 45 41
21 46 42
20 45 41
21 46 42
20 45 41
20 45 41
20 45 41
20 45 41
20 45 41
20 44 41
20 44 41
20 45 41
20 44 41
20 45 41
20 44 40
20 44 41
20 45 41
20 45 41
20 45 41
20 45 41
20 44 40
20 44 41
20 45 41
20 45 41
21 46 42
20 45 41
20 45 42
20 44 41
20 45 41
20 44 40
20 45 42
20 44 41
20 45 41
21 46 42
20 45 41
20 44 40
20 45 41
20 45 41
21 46 42
21 46 42
21 46 42
21 46 42
20 45 42
20 44 41
20 45 41
20 45 41
20 44 40
20 44 41
20 45 41
20 45 41
20 44 41
20 45 41
19 43 39
20 45 41
20 45 42
20 45 41
20 44 40
20 45 41
20 45 42
20 45 42
20 44 41
20 44 41
20 44 41
20 45 41
20 44 41
20 44 41
20 44 41
20 45 41
20 45 41
20 45 41
21 46 42
20 45 41
19 43 39
19 43 40
20 44 41
20 45 41
20 44 41
19 43 40
20 44 41
19 43 40
19 43 40
20 45 41
20 45 41
20 45 41
20 45 41
21 46 42
21 46 42
21 47 43
21 46 42
21 46 42
21 46 42
20 45 41
21 46 42
21 46 42
20 44 41
20 45 41
20 44 41
20 45 41
21 46 42
21 46 42
21 46 42
21 46 42
21 45 41
21 46 42
21 46 42
21 46 42
21 45 42
20 44 41
20 45 41
20 44 40
21 47 43
20 45 41
21 46 42
20 45 41
20 44 41
21 46 42
21 46 42
20 45 42
21 46 42
20 44 41
21 46 42
21 46 42
21 46 42
20 45 41
20 45 41
20 45 41
20 45 42
21 46 42
20 45 41
21 46 42
20 45 42
20 45 41
20 45 41
21 47 43
21 46 42
20 45 41
21 45 42
21 46 42
21 46 42
21 46 42
21 45 41
21 46 42
21 45 42
20 45 41
20 45 41
21 46 42
21 46 42
20 45 41
21 46 42
21 45 42
20 45 41
20 45 41
21 46 42
21 46 42
21 45 42
20 44 40
21 46 42
21 46 42
20 45 41
20 45 41
20 45 41
21 46 42
20 45 42
21 46 42
21 46 42
21 46 42
20 45 41
20 45 41
20 44 40
21 46 42
20 45 41
21 45 41
20 44 41
20 45 41
20 45 41
21 46 42
20 45 41
20 45 41
21 46 42
21 46 42
21 47 43
20 45 41
20 44 41
21 46 42
20 44 41
20 45 41
21 46 42
20 45 41
20 45 41
20 45 41
21 46 42
21 46 42
21 46 42
21 46 42
20 45 41
20 44 41
20 45 41
21 45 42
21 46 42
21 46 42
21 46 42
21 47 43
21 46 42
21 46 42
20 45 41
21 45 42
20 45 41
20 45 41
19 43 39
20 45 41
20 45 41
21 46 43
20 45 41
21 46 42
20 44 41
20 45 41
20 45 41
20 45 41
20 44 41
20 45 41
20 44 41
20 45 41
20 45 41
21 46 42
20 44 40
20 45 41
20 45 41
20 45 41
21 46 42
21 46 42
20 45 41
20 45 41
20 45 41
20 45 41
21 46 42
20 44 40
20 45 41
20 44 40
20 44 40
20 44 40
20 44 40
20 44 41
20 44 41
20 44 40
20 45 41
20 45 41
20 44 41
20 46 42
20 45 41
20 44 41
19 43 40
20 44 40
20 44 40
20 44 41
21 46 42
20 44 40
20 44 41
20 45 41
20 45 41
20 45 42
20 44 40
20 44 40
19 43 40
20 44 41
20 45 41
20 44 41
20 45 41
20 45 41
20 44 40
20 44 40
20 45 41
20 44 40
20 45 41
19 43 40
20 45 41
20 45 41
20 44 41
20 44 40
20 44 40
19 43 39
20 44 40
20 45 42
20 44 41
20 44 41
20 44 41
20 45 41
20 45 41
21 47 43
20 45 41
20 44 41
20 45 41
20 45 41
20 45 41
21 46 42
20 45 41
20 45 41
21 46 42
21 46 42
20 44 41
21 46 42
21 45 42
21 46 42
21 45 42
20 45 41
20 45 41
20 45 41
21 46 42
21 46 42
21 45 42
21 46 42
21 46 42
21 46 42
20 45 41
21 46 42
20 45 41
21 46 42
20 45 41
21 45 42
20 45 41
21 46 42
20 45 41
21 45 42
20 45 41
21 45 42
21 46 42
21 45 41
21 45 42
20 44 40
21 47 42
21 46 42
21 47 43
20 45 41
20 45 41
21 46 42
21 46 42
21 46 43
21 47 43
21 45 42
20 45 41
21 46 42
21 46 42
21 46 42
20 45 42
21 47 43
20 45 41
21 46 42
20 45 41
20 45 41
21 46 42
21 46 42
21 46 42
20 45 41
21 47 43
20 45 41
20 45 41
21 46 42
21 45 42
21 46 43
21 47 43
21 46 42
20 45 41
21 46 42
21 46 42
20 45 42
21 46 42
21 46 42
21 46 42
20 45 41
21 46 42
20 45 41
21 46 42
20 45 41
20 45 41
21 46 42
20 45 41
21 46 42
20 45 41
21 46 42
20 45 41
21 46 42
21 46 42
21 45 42
20 45 41
20 45 41
20 45 41
20 45 41
21 46 42
20 45 41
20 45 41
20 44 40
21 47 43
20 45 41
20 45 41
20 45 42
21 46 42
20 45 41
20 44 40
20 45 41
20 45 41
20 44 41
20 45 41
21 46 42
20 44 41
20 45 41
20 45 41
20 45 41
20 45 41
20 44 41
20 45 41
21 46 42
20 45 41
21 46 42
21 46 42
20 45 41
20 45 42
20 44 41
20 45 41
20 45 41
20 45 41
20 45 41
20 45 41
21 46 42
21 46 42
20 44 40
20 44 40
20 45 41
20 45 41
21 46 42
20 45 41
20 45 41
20 45 41
20 44 40
20 45 41
20 45 41
20 44 40
21 46 42
21 46 42
20 45 41
21 46 42
20 45 41
20 45 42
21 46 42
20 45 41
20 44 41
20 45 42
20 44 40
19 43 39
20 44 40
19 43 40
21 46 42
20 45 41
20 44 41
20 44 41
20 45 41
20 44 41
19 43 40
20 44 41
20 45 41
21 46 42
20 45 41
20 45 41
20 45 41
20 44 40
20 45 41
20 44 40
20 44 40
20 44 41
20 45 42
20 45 41
20 44 40
20 44 40
20 44 41
20 44 40
20 45 41
20 44 41
20 44 41
20 44 40
20 44 40
20 45 41
20 45 41
20 44 40
20 44 41
19 43 40
20 44 41
20 44 41
21 46 42
21 46 42
21 46 42
21 47 42
21 46 42
20 45 41
21 47 43
21 47 43
21 46 42
20 45 42
20 45 41
21 45 42
21 45 41
21 47 43
20 45 41
21 46 42
21 46 42
20 45 41
20 44 40
21 47 43
21 46 42
21 46 42
20 44 40
21 46 42
21 46 42
21 46 42
21 46 42
21 46 42
20 45 41
21 46 42
20 45 41
21 47 43
21 46 42
21 46 42
21 46 42
21 47 43
21 46 42
20 45 41
21 46 42
21 47 43
21 45 41
20 45 41
21 46 42
20 45 41
21 45 41
21 47 43
21 46 42
20 45 41
21 47 43
21 46 42
20 45 41
21 46 42
20 45 41
20 45 41
21 46 42
21 46 42
21 46 42
20 45 41
20 45 41
21 46 42
21 45 42
21 47 43
21 46 42
21 46 42
21 46 42
20 45 41
20 45 41
21 46 42
21 46 42
20 44 40
21 47 43
21 46 42
20 45 41
21 46 42
20 45 41
20 45 41
20 45 41
20 45 41
20 45 41
21 46 42
20 45 41
21 46 42
20 45 41
20 45 41
20 45 41
21 46 42
20 45 42
20 45 42
21 45 42
21 46 42
21 46 42
20 45 41
21 47 43
21 46 42
20 45 41
20 45 41
20 45 41
21 46 42
21 46 42
21 46 42
21 47 43
20 45 42
20 44 40
21 46 42
20 45 41
20 45 41
21 46 42
20 44 40
20 44 41
20 45 41
20 45 41
20 45 41
21 45 42
21 46 42
20 45 41
20 44 40
20 45 41
20 44 41
20 45 41
20 45 41
20 45 42
20 45 41
20 45 41
20 45 41
21 46 42
20 45 41
20 45 41
21 45 42
20 45 41
20 45 41
20 44 41
20 45 41
20 44 40
20 45 41
20 44 40
20 45 41
20 44 40
20 45 41
20 45 42
21 46 42
21 46 42
20 44 40
20 44 41
21 46 42
20 45 41
20 45 41
20 45 42
20 45 41
20 44 40
20 44 41
20 44 41
21 46 42
20 45 41
21 46 43
20 45 41
20 45 41
20 45 42
20 45 42
21 46 42
21 46 42
20 45 41
21 46 42
20 44 41
20 45 41
20 45 42
20 45 41
20 45 41
20 44 41
20 45 41
20 45 41
19 43 39
20 44 41
19 43 40
20 44 41
20 45 41
20 45 42
20 45 41
20 45 41
20 45 42
21 46 42
20 44 40
20 44 40
20 44 40
20 45 41
20 44 40
20 45 41
20 45 41
20 44 40
20 45 41
20 45 41
20 44 40
20 44 40
20 44 40
20 44 40
20 45 41
20 44 41
20 44 40
20 45 42
20 45 41
20 44 40
21 46 42
20 44 41
20 45 41
21 46 42
20 45 41
20 45 41
21 46 42
20 45 41
20 45 41
21 46 42
21 47 43
21 46 42
20 45 41
20 45 41
20 45 41
21 46 42
21 46 42
21 46 42
21 47 43
21 46 42
21 46 42
21 46 42
20 45 41
21 45 41
20 45 41
21 46 42
21 46 42
21 47 43
21 45 41
21 46 42
21 45 42
21 46 42
21 46 42
20 45 41
21 45 42
21 46 42
20 45 41
21 46 42
20 45 41
21 46 42
21 46 42
21 46 42
20 45 41
21 45 41
20 44 41
20 45 41
21 46 42
21 46 42
21 46 42
20 45 41
20 45 41
21 47 43
21 46 42
21 46 42
21 46 42
21 46 42
21 46 42
21 46 42
20 45 41
21 46 42
21 46 42
21 46 42
21 46 42
21 46 42
20 45 41
21 46 42
21 46 42
21 46 42
21 46 42
20 45 41
21 46 42
21 46 42
21 47 43
21 47 43
21 46 42
20 45 41
21 46 42
20 45 41
21 46 42
21 46 42
20 44 40
21 46 42
21 46 42
20 45 41
21 46 42
21 46 42
21 46 42
20 45 41
20 44 41
21 46 42
20 45 41
21 46 42
20 44 41
20 45 41
20 45 41
20 45 41
21 46 42
21 46 42
20 44 41
21 46 42
21 46 42
20 45 41
21 46 42
20 45 41
21 45 42
21 46 42
20 45 42
20 45 41
20 44 41
20 45 41
20 45 41
20 45 41
21 46 42
20 45 41
20 45 41
20 45 41
21 46 42
21 46 42
20 44 41
21 46 42
20 45 41
20 45 41
20 45 42
20 45 42
21 46 42
21 46 42
20 44 40
20 45 41
20 45 42
20 45 41
21 45 42
21 46 42
20 44 40
20 44 40
20 45 41
21 46 42
20 45 42
20 44 41
20 44 40
20 45 41
21 46 42
20 44 40
20 45 41
21 45 42
20 45 41
20 45 41
20 45 41
20 45 42
20 45 42
20 44 41
20 45 41
20 44 40
20 45 41
20 44 41
20 44 41
20 45 41
21 47 43
20 44 40
20 45 41
20 45 41
20 45 42
20 44 40
21 46 42
20 44 41
21 46 42
20 44 40
21 46 42
20 44 40
20 44 41
20 44 40
20 44 40
20 44 41
21 46 42
20 44 40
20 44 41
20 44 40
19 43 40
20 45 41
20 45 41
20 44 41
20 45 41
20 45 41
20 45 41
20 44 40
20 44 41
20 44 40
20 44 40
20 44 40
20 44 41
20 45 41
20 44 40
20 44 41
20 44 40
20 45 41
20 44 40
20 44 40
20 45 41
20 44 40
20 45 41
20 45 41
21 46 42
20 45 41
20 44 41
21 46 42
21 46 42
20 45 41
20 45 41
21 46 42
21 46 42
20 45 41
20 45 41
22 48 44
21 47 43
21 46 42
21 47 43
21 46 42
21 46 42
21 46 42
21 46 42
21 46 42
21 46 42
20 45 41
21 46 42
21 47 43
21 46 42
20 45 41
20 45 41
21 46 42
20 45 41
21 47 43
21 45 41
20 44 41
21 47 43
21 47 43
21 46 42
21 46 42
21 47 43
22 48 44
21 47 42
21 46 42
20 45 42
21 45 42
21 46 42
20 45 41
20 45 41
20 45 41
21 46 42
21 46 42
21 46 42
21 46 42
21 46 42
20 44 41
21 45 41
21 46 42
21 46 42
21 46 42
21 46 42
21 46 42
21 46 42
21 45 41
21 47 43
22 48 44
21 46 42
20 45 41
20 45 41
21 46 42
20 45 41
21 46 42
20 45 41
21 47 43
21 45 42
21 46 42
21 45 42
21 45 42
21 47 43
21 45 42
21 46 42
20 45 41
20 45 41
20 44 41
21 46 42
20 45 41
20 45 41
21 47 43
21 46 42
21 46 42
21 45 42
21 46 42
20 45 41
21 46 42
20 45 41
20 45 41
20 45 41
21 46 42
21 46 42
20 45 41
20 45 41
21 47 43
20 45 41
20 45 41
21 46 42
20 45 41
20 45 41
20 45 41
20 45 41
21 46 42
20 45 41
20 45 41
20 45 41
21 46 42
20 44 41
21 47 43
20 45 41
21 47 43
20 45 41
20 45 41
20 45 41
20 45 41
21 46 42
20 45 41
21 46 42
20 45 41
20 44 40
20 45 41
20 44 41
20 45 41
20 45 41
20 45 41
20 45 41
20 45 41
20 44 40
20 45 42
20 45 41
21 46 42
20 45 41
21 46 42
21 46 42
21 46 42
20 45 41
20 45 41
20 45 41
20 45 41
21 46 42
20 45 42
20 44 41
21 46 42
20 44 40
20 44 41
20 45 42
20 45 42
20 45 41
20 45 41
20 45 41
20 45 41
20 44 41
20 45 41
20 45 41
21 46 42
20 44 40
20 45 42
20 45 42
20 45 41
20 44 41
20 45 41
21 46 42
20 45 41
20 44 40
20 44 40
20 44 40
20 44 41
21 46 43
20 45 41
20 43 40
20 43 40
20 45 41
20 45 41
20 45 42
20 45 41
20 45 41
20 45 41
20 44 40
20 45 41
20 44 40
20 45 42
20 44 41
19 43 40
20 45 41
20 44 40
20 44 40
20 45 41
20 44 41
20 45 41
20 45 41
20 44 41
19 43 40
20 44 41
20 44 40
20 45 41
19 43 40
20 45 41
20 45 41
20 45 41
21 46 42
21 46 42
21 47 43
21 46 42
21 47 43
21 46 42
20 44 40
21 46 42
21 46 42
21 46 42
21 46 42
21 46 42
21 46 42
21 46 42
21 46 42
21 47 43
21 46 42
21 46 42
21 46 42
20 45 41
21 46 42
20 45 41
21 46 42
21 47 43
21 47 43
20 45 41
21 46 42
20 45 41
21 47 43
21 45 41
21 47 43
21 46 42
20 45 41
21 47 43
21 46 42
21 46 42
20 45 41
20 45 41
21 46 42
21 46 43
21 45 42
21 46 42
21 45 41
21 46 42
21 46 42
22 48 44
21 47 43
20 45 41
21 46 42
21 46 42
20 45 41
21 45 42
21 47 43
20 45 41
20 45 41
21 46 42
21 46 42
21 47 43
21 46 42
21 46 42
21 46 42
20 45 41
20 45 41
21 46 42
21 45 42
21 45 42
21 46 42
21 46 42
20 45 41
21 47 43
20 45 41
21 46 42
21 46 42
21 47 43
21 46 42
21 46 42
21 45 42
21 46 42
20 45 41
21 46 42
21 47 43
21 47 43
21 46 42
21 46 42
21 47 43
21 46 42
20 45 41
22 48 43
21 47 43
21 46 42
20 45 41
20 45 41
21 47 43
21 46 42
21 46 42
21 46 42
21 45 42
21 47 43
21 46 42
21 46 42
21 46 42
20 45 41
20 45 41
21 45 42
21 45 42
21 46 42
21 46 42
20 44 40
21 46 42
20 45 41
21 46 42
20 45 41
21 46 42
20 44 41
20 45 41
21 48 43
21 46 43
21 46 42
21 46 42
21 47 43
21 46 42
20 44 40
20 45 41
21 46 42
21 46 42
21 46 42
21 46 42
21 46 42
20 45 41
20 45 41
21 46 43
20 45 41
21 46 42
20 44 41
20 44 40
21 46 42
20 44 40
21 46 42
20 45 41
20 45 42
20 46 42
20 45 41
20 44 41
20 45 42
20 44 41
20 45 41
20 45 41
20 45 41
20 44 41
20 43 40
21 46 42
20 45 41
21 47 43
20 45 41
21 46 42
20 45 41
20 45 41
20 44 40
21 46 42
21 46 42
20 43 40
20 45 41
20 44 41
20 45 41
20 44 40
20 44 41
20 44 40
21 46 42
20 44 40
20 45 42
21 46 42
20 45 41
20 44 40
20 45 41
20 45 42
21 46 42
20 45 41
20 45 41
20 44 41
20 44 41
20 45 41
20 45 41
20 45 41
20 45 41
20 45 42
20 45 41
20 45 42
20 45 41
20 45 41
20 45 41
20 44 41
21 46 42
20 45 42
20 45 41
20 44 41
19 43 40
20 45 41
20 45 41
21 46 42
21 47 43
21 46 42
21 46 42
21 47 43
21 47 43
21 46 42
21 46 42
21 46 42
21 45 41
21 46 42
21 46 42
21 47 42
21 46 42
21 46 42
21 46 42
21 46 42
20 45 41
21 47 43
21 46 42
20 44 41
21 46 42
21 47 42
21 46 42
21 47 43
21 46 42
21 46 42
21 47 43
21 46 42
21 46 42
20 45 41
21 47 43
21 46 42
21 46 42
21 46 42
21 47 43
21 46 42
20 45 41
20 45 41
21 46 42
21 47 43
21 46 42
21 47 43
20 45 41
21 45 41
21 46 42
20 45 41
21 46 42
21 47 43
21 47 43
21 46 42
21 46 42
21 47 43
20 45 41
21 47 43
21 46 42
21 46 42
21 46 42
21 46 42
21 47 43
21 46 42
21 46 42
20 45 41
21 46 42
21 46 42
21 46 42
21 46 42
21 46 42
20 45 41
21 47 43
20 45 41
21 46 42
21 45 42
20 45 41
20 45 41
20 45 41
21 46 42
21 46 42
21 46 42
20 45 41
21 47 43
21 46 42
20 45 41
21 46 42
21 46 42
21 46 42
21 46 42
20 45 41
21 45 41
21 47 43
20 44 40
20 45 41
21 47 43
20 45 41
20 45 41
21 46 42
21 46 42
21 47 43
21 46 42
21 47 43
21 45 42
20 45 41
20 44 41
21 46 42
21 46 42
20 45 41
20 44 40
21 46 42
21 46 42
21 46 42
20 44 40
20 45 41
20 44 40
21 46 43
20 45 41
21 46 42
21 46 42
20 44 41
20 45 41
21 47 43
21 46 42
21 46 42
21 47 43
21 46 42
20 45 41
21 46 42
21 46 42
21 46 42
20 45 41
21 46 42
21 46 42
21 46 42
21 46 42
21 46 42
21 45 42
21 46 42
20 45 41
20 45 41
20 44 40
20 44 41
21 46 42
20 44 41
20 45 41
21 47 43
20 45 41
21 46 42
21 46 42
20 45 41
20 45 41
20 45 41
21 46 42
21 46 42
21 46 42
20 44 41
20 45 41
20 45 41
21 46 42
20 44 40
20 43 40
20 45 41
20 45 41
20 44 40
20 44 40
20 45 41
21 46 42
20 45 41
20 44 41
20 45 41
20 44 40
20 44 40
20 44 41
20 44 41
20 45 41
20 44 40
20 45 42
20 44 41
20 45 41
20 45 41
20 45 41
20 45 41
20 44 41
20 44 40
20 45 41
20 45 41
20 46 42
20 44 40
20 44 41
20 45 41
20 45 41
19 43 39
19 43 40
20 45 41
20 45 41
19 43 40
20 44 40
20 44 41
20 45 41
20 45 41
20 45 41
20 44 40
21 47 43
20 45 41
20 45 41
21 46 42
21 46 42
20 45 41
21 46 42
21 46 42
21 46 42
21 46 42
21 46 42
21 47 43
21 47 43
20 45 41
21 45 41
21 46 42
21 46 42
21 46 42
21 47 43
21 46 42
21 47 43
20 45 41
21 46 42
21 47 43
21 47 43
21 46 42
21 46 42
20 45 41
21 47 43
21 46 42
21 46 42
21 46 42
21 47 43
21 46 42
21 46 42
21 47 43
21 46 42
21 46 42
21 46 42
21 46 42
21 47 43
21 46 42
21 46 42
21 47 43
20 45 41
21 47 43
20 45 41
21 47 43
21 46 42
21 47 43
21 47 43
21 46 42
20 45 41
20 45 41
20 45 41
21 46 42
21 46 42
21 46 42
21 46 42
21 46 42
21 47 43
21 46 42
21 46 42
21 45 42
21 45 41
21 45 42
21 46 42
21 47 43
21 46 42
21 46 42
21 45 41
21 46 42
21 46 42
21 46 42
21 46 42
21 46 42
20 45 41
21 45 42
21 46 42
21 46 42
20 45 41
21 45 42
21 46 42
21 45 41
21 46 42
21 46 42
21 47 43
21 46 42
21 46 42
20 45 41
21 46 42
21 47 43
21 46 42
20 45 41
21 46 42
21 46 42
20 45 41
21 46 42
21 47 43
20 45 41
21 46 42
21 46 42
20 45 41
21 46 42
21 46 42
20 45 42
21 46 42
21 47 43
21 47 43
21 46 42
20 44 41
21 45 42
20 44 41
20 45 41
21 46 42
21 46 42
21 46 42
21 45 42
20 45 41
20 45 41
20 45 41
20 45 41
21 46 42
21 46 42
21 46 42
20 45 41
20 44 41
21 46 42
20 45 41
21 46 42
21 46 42
21 47 43
21 46 42
21 46 42
20 45 41
20 45 41
21 46 42
20 45 41
21 46 42
21 46 42
20 45 42
21 46 42
21 45 42
20 45 42
20 44 41
20 45 41
21 46 43
20 45 41
20 45 41
20 45 41
20 45 41
20 44 41
21 46 42
20 45 41
20 45 41
20 45 41
20 45 42
20 45 42
20 45 41
20 45 41
21 46 42
20 45 41
20 45 41
21 46 42
20 45 41
20 45 41
20 45 41
20 45 41
20 44 40
21 46 42
20 45 41
20 45 41
20 45 42
20 44 41
20 44 40
20 44 41
21 47 43
20 43 40
21 45 42
20 45 41
21 46 42
20 45 41
20 44 41
21 46 42
21 46 42
20 44 41
20 45 41
20 44 41
21 46 42
21 46 42
20 44 41
20 45 41
20 44 41
20 44 40
20 45 41
20 44 40
20 45 42
20 44 41
20 45 41
20 44 40
21 47 43
21 46 42
21 46 42
20 45 41
21 46 42
21 46 42
21 47 42
21 46 42
21 46 42
21 45 41
21 46 42
21 47 43
22 48 44
21 46 42
20 45 41
21 46 42
20 45 41
21 47 43
21 47 43
21 46 42
21 46 42
21 46 42
20 45 41
21 45 42
21 46 42
21 46 42
20 45 41
20 45 41
21 46 42
21 46 41
21 47 43
21 46 42
21 47 43
22 48 44
21 46 42
21 46 42
21 46 42
21 46 42
21 46 42
21 46 42
21 46 42
21 47 43
21 46 42
21 47 43
21 46 42
21 46 42
21 46 42
21 46 42
21 46 42
20 45 41
21 47 43
21 46 42
21 46 42
21 46 42
20 44 41
21 46 42
20 45 41
21 47 42
21 47 43
20 45 41
21 47 43
21 46 42
20 45 41
21 47 43
21 47 43
21 47 43
21 47 43
22 47 43
21 45 42
21 47 43
21 47 43
21 47 43
21 47 43
21 45 42
20 45 41
21 46 42
21 46 42
21 46 42
21 46 42
21 47 43
21 46 42
20 45 41
21 46 42
21 46 42
21 47 43
21 46 42
22 48 44
20 45 41
21 46 42
22 48 43
21 46 42
21 45 42
21 46 42
21 46 42
21 46 42
21 46 42
21 46 42
21 47 43
21 46 42
21 46 42
21 46 42
21 46 42
20 45 41
21 46 42
21 45 42
21 46 42
20 45 41
21 46 42
21 47 42
21 47 43
21 46 42
21 45 41
21 46 42
21 45 42
20 45 41
21 46 42
20 45 41
21 47 43
21 46 43
20 44 41
20 45 41
21 46 42
21 46 42
20 44 40
21 46 42
21 47 43
21 45 42
21 47 43
21 46 42
21 47 43
20 45 41
21 46 42
20 45 41
21 46 43
21 46 42
21 46 42
21 45 42
20 44 40
21 46 42
21 46 42
20 44 41
20 45 41
20 45 41
20 45 42
20 45 41
20 45 41
20 45 42
20 45 41
21 46 42
21 45 42
20 45 42
21 46 42
20 45 41
20 45 41
20 44 41
20 45 41
21 46 42
20 44 41
20 44 41
20 45 41
20 45 41
20 45 41
20 45 41
21 46 42
21 46 42
20 45 41
20 44 41
20 45 41
20 45 41
20 45 41
20 44 41
20 44 40
20 45 41
20 44 40
21 46 42
20 45 41
20 45 41
21 46 42
20 44 41
20 44 40
20 45 41
20 45 41
20 44 41
20 45 42
20 45 41
21 46 42
20 45 41
20 44 41
20 44 40
20 44 40
20 44 40
21 46 42
20 45 41
20 45 41
21 46 42
20 44 40
20 44 41
20 45 42
20 45 41
20 44 41
22 48 43
21 45 42
21 47 43
21 46 42
21 46 42
20 45 41
21 47 43
21 47 43
21 46 42
22 49 44
21 47 43
21 46 42
21 47 42
21 46 42
20 45 41
20 45 41
21 47 43
21 46 42
20 45 41
21 47 43
21 47 43
21 46 42
21 46 42
21 47 43
21 46 42
21 47 43
21 46 42
21 47 43
21 47 43
21 46 42
21 47 43
21 46 42
21 46 42
21 47 43
21 47 43
21 47 43
21 47 43
21 46 42
21 46 42
20 45 41
21 47 43
21 46 42
21 47 43
21 46 42
21 45 41
21 46 42
21 46 42
22 48 44
21 45 41
21 46 42
21 47 42
21 47 43
21 47 42
21 47 43
21 46 42
21 46 42
20 45 41
20 45 41
21 46 42
21 46 42
21 46 42
21 47 42
21 47 43
21 47 43
21 46 42
21 46 42
21 47 43
21 45 41
21 46 42
21 46 42
21 47 43
21 47 42
20 44 40
21 46 42
21 47 43
21 46 42
21 46 42
21 45 41
21 46 42
21 45 42
21 46 42
21 47 43
21 46 42
20 45 41
20 44 41
21 46 42
20 45 41
20 45 41
21 46 42
22 48 44
20 45 41
21 46 42
21 46 42
20 45 41
21 47 43
21 47 42
21 46 42
21 45 42
21 46 42
21 46 42
20 45 41
21 46 42
21 46 42
20 45 41
20 45 41
21 46 42
20 45 41
21 46 42
20 45 41
20 45 41
21 47 43
21 47 43
21 46 42
21 46 42
20 45 41
20 45 41
20 44 41
21 46 42
21 46 42
21 47 43
21 46 42
20 45 41
20 45 41
21 46 42
21 46 42
20 45 42
21 47 43
20 45 41
20 45 41
21 46 43
20 44 40
21 46 42
20 45 41
21 47 43
21 46 42
21 46 42
20 45 41
20 45 41
21 46 42
20 45 41
20 45 41
20 45 41
21 45 42
21 45 42
20 44 40
21 46 42
21 46 42
20 45 41
20 45 41
20 45 41
20 45 41
20 45 41
21 46 42
20 45 41
20 44 40
20 44 41
20 45 41
20 45 41
20 45 41
21 47 43
20 45 41
20 45 41
20 45 42
21 46 42
20 45 41
20 45 41
20 44 41
20 45 41
21 46 42
20 44 41
20 44 41
20 45 41
20 45 41
20 44 41
21 46 42
20 45 41
20 44 40
20 45 41
20 45 41
20 45 41
20 45 42
20 44 41
20 45 41
21 46 42
20 44 40
20 44 41
20 45 41
20 44 40
20 45 41
20 44 40
20 45 41
20 44 40
20 44 41
20 46 42
20 45 41
20 45 41
19 43 40
20 44 41
20 45 42
20 45 41
20 45 41
21 46 42
21 46 42
21 46 42
22 48 44
21 46 42
21 46 42
21 47 43
21 47 43
21 46 42
21 46 42
21 46 42
21 46 42
21 47 43
21 46 42
20 45 41
21 47 43
21 47 43
21 47 43
21 46 42
21 46 42
21 46 42
21 46 42
20 45 41
21 46 42
21 47 43
21 46 42
21 46 42
21 46 42
21 46 42
21 47 43
22 47 43
21 47 43
21 46 42
21 47 43
21 46 42
21 47 43
21 46 42
21 46 42
21 46 42
21 46 42
21 47 43
21 47 43
21 45 41
21 47 43
21 46 42
21 47 43
21 46 42
21 47 43
21 46 42
21 47 43
21 47 43
21 45 41
22 48 43
21 45 41
21 47 42
21 47 43
21 46 42
21 47 43
21 46 42
21 46 42
21 47 43
22 48 43
21 46 42
21 47 43
21 47 42
21 47 43
21 46 42
20 45 41
21 46 42
21 47 43
21 46 42
21 46 42
21 46 42
21 46 42
20 45 41
20 44 41
21 46 42
21 46 42
21 46 42
21 46 42
20 45 41
21 47 43
21 46 42
21 45 42
21 47 43
21 46 42
21 47 43
21 46 42
21 47 43
21 47 43
21 46 42
21 47 43
20 45 41
20 45 41
21 45 42
21 46 42
20 45 41
21 46 42
21 46 42
21 46 42
21 45 42
21 46 42
20 45 41
21 47 43
22 48 44
21 46 42
20 45 41
21 46 42
21 46 42
21 46 42
21 46 42
20 45 41
21 46 42
20 45 41
21 46 42
20 45 41
21 46 42
20 45 42
20 45 41
20 44 40
20 45 41
20 45 41
21 46 42
21 45 41
21 47 43
20 45 41
20 45 41
21 46 42
21 46 42
21 46 42
21 46 42
21 45 42
21 45 42
20 45 41
20 44 41
21 46 42
20 44 40
20 45 41
21 46 42
21 46 42
20 45 41
20 45 41
20 45 41
21 46 42
20 45 41
20 45 41
21 46 42
21 46 42
20 44 40
21 46 42
21 46 42
20 45 41
21 46 42
20 45 41
20 45 41
21 46 42
20 45 41
21 46 42
21 45 42
20 45 41
20 45 41
20 45 41
21 46 42
20 45 41
20 45 41
21 46 42
20 45 41
21 46 42
21 46 42
20 45 41
20 45 41
20 45 41
20 44 40
20 44 41
20 44 40
21 46 42
20 44 41
20 45 41
20 45 41
21 46 42
20 45 42
21 46 42
20 45 42
20 45 41
20 45 41
20 44 41
20 45 41
20 45 41
20 45 41
20 44 41
21 46 42
20 45 41
20 45 41
19 43 40
20 44 40
19 43 40
20 45 41
20 45 41
20 44 40
21 46 42
21 47 43
21 46 42
20 45 41
21 46 42
21 47 43
21 47 43
21 47 43
21 46 42
21 46 42
21 47 43
21 46 42
22 48 43
21 47 43
20 45 41
21 46 42
21 47 43
21 47 43
20 45 41
21 46 42
21 46 42
20 44 41
21 47 43
21 46 42
21 47 43
21 46 42
21 47 42
21 47 43
20 45 41
21 46 42
21 46 42
21 46 42
21 46 42
20 45 41
20 44 41
21 47 43
21 45 41
21 46 42
21 47 43
21 46 42
21 46 42
21 47 43
20 45 41
20 45 41
21 46 42
21 46 42
21 47 43
20 44 40
21 46 42
20 45 41
20 45 41
21 46 42
21 46 42
21 46 42
21 46 42
21 47 43
21 46 42
21 47 43
20 45 41
21 46 42
21 45 42
21 47 43
21 47 43
20 45 41
21 47 43
21 46 42
22 48 43
21 46 42
21 47 42
21 46 42
21 47 43
21 46 42
21 47 43
21 47 43
21 46 42
21 46 42
21 45 41
21 47 43
21 46 42
20 45 41
20 45 41
20 45 41
21 47 43
21 47 43
21 46 42
21 47 43
21 46 42
21 47 43
21 46 42
21 47 43
21 46 42
21 47 43
21 46 42
21 47 43
21 46 42
21 45 41
21 46 42
20 45 41
21 46 42
22 48 44
21 46 42
21 46 42
21 46 42
21 46 42
21 46 42
21 46 42
21 46 42
21 47 43
21 47 43
21 45 42
20 45 41
21 46 42
21 46 42
21 46 42
21 46 42
20 44 40
21 46 42
21 46 42
20 45 41
21 45 42
21 46 42
21 46 42
21 46 42
21 46 42
20 45 41
21 46 42
20 44 41
21 46 42
20 44 41
20 45 41
20 45 41
20 45 41
21 46 42
20 45 41
21 46 42
20 45 41
21 46 42
21 46 42
20 45 41
20 45 41
20 45 41
20 45 41
21 46 42
21 46 42
20 45 41
20 45 41
20 45 41
20 44 41
20 44 41
20 44 40
21 46 42
20 45 41
20 45 41
20 45 41
21 46 42
21 46 42
21 46 42
21 46 42
21 45 41
20 45 41
20 44 41
20 44 40
20 45 41
20 45 41
20 45 41
20 45 42
21 46 42
21 46 42
21 46 42
20 44 40
20 45 42
21 46 42
20 45 42
21 46 42
20 44 40
20 45 41
20 44 40
20 45 41
21 46 42
20 44 40
20 45 41
20 44 40
20 44 41
20 45 41
20 45 41
20 45 41
20 45 41
20 44 40
20 45 41
20 45 42
20 44 41
20 44 40
20 45 42
20 44 41
20 45 41
20 44 41
20 45 42
20 45 41
21 46 42
20 44 41
22 48 44
20 45 41
21 46 42
21 47 43
21 46 42
21 46 42
21 46 42
21 45 41
21 47 42
21 47 43
21 46 42
21 46 42
22 48 43
21 47 43
21 47 43
21 46 42
21 47 43
21 46 42
21 45 41
21 46 42
21 47 43
21 46 42
21 47 43
21 46 42
21 47 43
21 46 42
21 46 42
21 47 43
22 48 43
21 46 42
21 47 43
21 47 43
21 46 42
21 47 43
21 47 42
21 46 42
21 46 42
21 46 42
21 47 43
21 47 43
21 47 42
21 46 42
21 46 42
21 46 42
21 47 43
21 47 43
21 46 42
21 46 42
21 46 42
21 46 42
21 45 41
21 47 43
20 45 41
21 46 42
21 46 42
21 47 43
21 47 43
21 45 42
21 46 42
21 46 42
21 47 42
20 45 41
21 46 42
21 45 41
21 47 42
21 47 43
21 47 43
21 47 43
21 46 42
21 46 42
21 47 43
21 46 42
21 46 42
21 47 43
21 46 42
21 46 42
21 46 42
22 48 44
21 46 42
21 46 42
21 46 42
21 47 43
21 47 43
22 49 44
21 46 42
20 45 41
21 46 42
21 46 42
21 46 42
21 46 42
21 46 42
21 47 43
20 45 41
21 46 42
21 47 43
21 46 42
21 46 42
21 46 42
21 47 43
21 47 43
20 45 41
21 45 41
21 46 42
21 47 43
21 46 42
21 46 42
20 44 40
20 45 41
21 46 42
20 45 41
21 46 42
22 48 43
21 47 43
21 46 42
21 45 41
21 46 42
21 46 42
21 46 42
21 47 43
21 46 42
21 46 42
22 47 43
21 46 42
20 45 41
21 46 42
20 45 41
20 45 41
21 46 42
21 46 42
21 45 41
21 46 42
20 45 41
21 47 43
21 46 42
21 45 41
21 47 43
21 46 42
20 45 41
21 46 42
20 45 41
21 46 42
20 45 41
20 45 41
21 46 42
20 45 42
20 45 41
20 45 41
21 47 43
20 45 41
21 46 42
21 46 42
21 46 43
20 45 42
21 46 42
21 46 42
20 45 41
21 46 42
20 44 41
21 46 42
20 45 41
21 46 42
20 45 42
21 46 42
20 45 41
20 45 41
20 45 41
21 46 42
20 45 41
20 45 41
21 46 42
20 45 41
20 44 41
20 45 41
20 45 41
20 45 41
20 45 41
20 44 41
20 45 41
21 46 42
20 45 41
20 45 41
21 46 42
20 45 41
21 46 42
20 44 40
20 44 41
20 45 41
20 45 41
20 45 41
20 44 40
20 43 40
20 45 41
20 44 41
20 45 41
20 45 41
20 45 41
20 44 40
20 45 42
20 45 41
20 44 40
21 47 43
21 46 42
21 46 42
21 47 43
20 45 41
22 48 44
21 46 42
21 47 43
21 46 42
21 47 43
21 46 42
21 46 42
21 46 42
20 45 41
21 46 42
22 48 44
21 45 41
21 47 43
21 47 43
21 47 43
21 47 43
22 49 44
21 47 43
21 46 42
22 48 43
21 46 42
21 47 43
21 47 43
21 46 42
21 46 42
21 47 43
21 47 43
21 47 43
20 45 41
21 46 42
21 47 43
21 46 42
21 46 42
21 47 43
21 46 42
22 48 43
21 47 43
21 46 42
22 47 43
21 47 43
21 47 43
21 46 42
21 46 42
22 47 43
21 47 43
21 46 42
21 46 42
20 45 41
22 47 43
21 47 42
21 47 43
21 46 42
22 47 43
21 47 43
21 47 43
21 47 43
22 48 44
22 48 44
21 47 43
21 46 42
21 46 42
21 45 41
21 46 42
21 46 42
21 47 43
22 47 43
21 47 43
21 46 42
21 46 42
21 47 42
21 46 42
21 46 42
21 46 42
21 47 43
21 45 42
21 46 42
21 46 42
21 47 43
21 45 41
21 46 42
21 47 43
21 47 43
21 46 42
21 46 42
21 47 43
21 46 42
21 46 42
21 47 43
21 45 41
21 46 42
21 46 42
21 46 42
20 45 41
21 46 42
21 46 42
21 46 42
21 47 43
21 47 43
21 46 42
21 46 42
21 46 42
21 46 42
21 46 42
21 45 42
21 46 42
20 45 41
20 44 40
20 44 41
21 46 42
21 46 42
21 46 42
21 46 42
21 46 42
20 45 41
21 46 42
21 46 42
21 45 41
21 46 42
21 45 41
21 46 42
21 46 42
20 45 41
20 45 41
21 46 42
21 46 42
21 46 42
21 47 43
21 46 42
20 45 41
21 46 42
21 46 42
20 45 41
20 45 41
21 47 43
21 46 42
21 46 42
20 44 40
21 46 42
21 46 42
21 46 42
20 45 41
20 45 41
21 47 43
20 44 41
20 45 41
21 46 42
20 45 42
20 45 41
21 46 42
20 45 41
21 47 43
20 45 41
20 45 41
20 45 41
21 46 42
21 46 42
21 47 43
21 46 42
21 46 42
20 45 41
20 45 41
20 45 41
20 45 41
20 45 41
20 45 41
21 46 42
20 45 41
20 44 41
21 47 43
21 46 42
20 45 41
20 45 41
21 46 42
20 45 41
20 45 41
20 44 40
20 45 41
20 45 41
20 45 41
21 46 42
21 46 42
21 46 42
20 45 41
21 46 42
21 46 42
20 45 41
21 46 42
20 45 41
20 45 41
20 45 41
20 45 41
21 46 42
20 45 41
21 48 44
19 43 40
21 46 42
21 47 43
21 45 41
21 45 41
21 47 43
22 48 44
21 46 42
21 47 43
21 47 43
21 46 42
21 46 42
21 46 42
21 46 42
21 47 43
21 47 43
20 45 41
21 46 42
21 45 41
21 47 43
21 47 43
21 46 42
21 47 43
21 47 42
21 47 42
22 48 44
21 47 42
21 47 43
21 47 43
21 47 42
21 47 43
21 47 43
21 47 43
21 46 42
21 47 43
21 46 42
21 46 42
21 45 41
21 46 42
21 47 43
21 45 41
21 47 43
20 45 41
21 47 43
21 47 43
21 46 42
21 47 43
22 48 43
21 46 42
21 47 43
21 47 43
21 47 43
21 47 43
21 45 41
21 47 42
22 48 44
21 47 43
21 47 43
20 45 41
21 46 42
21 47 43
21 46 42
21 47 43
21 46 42
21 46 42
21 46 42
21 47 43
21 48 43
21 46 42
21 46 42
21 46 42
21 47 43
21 47 43
21 46 42
21 47 43
21 46 42
21 46 42
21 47 43
22 49 44
21 46 42
21 46 42
20 45 41
21 46 42
21 46 41
21 46 42
21 47 43
21 46 42
22 48 44
21 47 43
20 45 41
21 46 42
21 45 41
21 46 42
21 45 41
22 48 43
21 46 42
21 47 42
21 46 42
21 46 42
21 46 42
21 47 43
21 46 42
20 44 41
21 46 42
21 46 42
21 46 42
21 46 42
22 48 44
21 46 42
21 46 42
21 46 42
21 47 43
20 45 41
21 46 42
21 45 41
21 45 42
20 45 41
20 45 41
20 45 41
21 46 42
21 46 42
21 46 42
21 45 41
20 45 41
21 46 42
21 47 43
21 46 42
21 46 42
21 47 43
20 45 41
21 45 41
21 46 42
21 46 42
21 46 42
21 47 42
21 47 43
20 45 41
20 45 41
21 46 42
20 44 40
21 46 42
20 45 41
21 46 42
21 46 42
21 46 42
20 45 42
20 45 41
20 45 41
21 47 43
20 44 41
20 45 41
20 44 40
21 46 42
20 45 41
20 45 41
21 46 42
21 46 42
21 46 42
21 47 43
21 46 42
20 45 41
21 46 42
20 45 41
21 46 42
20 45 41
21 46 42
20 45 41
21 46 42
20 45 41
21 46 42
20 44 40
20 45 41
20 45 41
21 47 43
21 46 42
21 46 42
20 44 40
21 47 43
20 45 41
20 45 41
20 45 41
20 45 41
21 46 42
20 45 41
20 44 40
20 45 41
21 47 43
20 45 41
21 45 42
21 46 42
20 45 41
20 45 41
20 45 41
20 44 41
20 45 41
20 45 41
19 43 40
20 45 41
21 46 42
20 44 40
20 45 41
21 46 42
21 47 43
21 46 42
21 46 42
21 46 42
20 45 41
21 47 43
21 47 43
22 47 43
21 47 43
21 47 43
21 47 42
20 45 41
21 47 43
21 46 42
22 48 44
21 47 43
21 47 43
21 45 41
21 46 42
21 46 42
21 47 43
22 48 44
21 47 43
21 47 42
21 46 42
21 47 43
21 46 42
21 46 42
22 48 44
21 46 42
21 47 43
21 47 43
21 46 41
21 46 42
21 46 42
21 46 42
21 47 43
22 48 44
21 47 43
22 48 43
21 46 42
21 47 43
21 46 42
21 46 42
21 46 42
22 47 43
21 46 42
21 47 43
21 47 42
21 46 42
21 47 43
21 46 42
21 47 43
21 46 42
21 46 41
21 47 43
22 48 43
21 47 42
21 46 42
21 46 42
21 46 42
21 47 43
21 46 42
21 47 43
21 46 42
21 47 43
21 47 43
21 46 42
21 46 42
21 46 42
21 47 42
21 47 43
21 47 42
21 46 42
21 47 43
21 46 42
21 45 41
21 46 41
21 47 43
21 46 42
21 47 43
21 47 43
22 47 43
21 47 42
21 46 42
21 46 42
21 46 42
21 46 42
21 45 41
21 47 43
21 46 42
21 45 41
21 46 42
21 46 42
21 47 42
21 46 42
21 47 42
21 46 42
21 45 41
21 46 42
21 47 43
21 46 42
21 46 42
21 46 42
21 47 43
21 47 42
20 45 41
21 46 42
21 46 42
22 48 44
21 46 42
21 46 42
21 46 42
21 45 41
21 46 42
20 45 41
21 47 43
21 46 42
21 46 43
20 45 41
20 45 41
21 46 42
22 48 44
21 47 43
21 46 42
20 45 41
21 46 42
21 46 42
21 46 42
21 46 42
21 46 42
21 46 42
21 47 43
20 45 41
20 45 41
21 46 42
20 45 41
21 47 43
21 46 42
21 46 42
21 46 42
20 45 41
21 46 42
21 45 42
20 45 41
21 46 42
21 46 42
21 47 43
21 46 42
21 46 42
21 46 42
21 46 42
20 45 41
21 45 42
20 45 41
20 45 41
21 46 42
20 45 41
21 46 42
20 45 41
20 45 41
20 45 41
21 46 42
21 45 42
20 45 41
21 45 41
20 45 42
21 47 43
21 46 42
21 47 43
21 46 42
21 46 42
20 45 41
21 45 42
20 45 41
20 44 40
20 45 41
20 45 41
20 45 41
20 45 41
20 45 41
20 45 41
20 45 42
20 45 41
20 44 40
20 44 40
21 46 42
20 45 41
20 45 42
21 46 42
20 44 41
21 46 42
20 44 40
20 45 41
20 45 41
20 45 41
20 43 40
21 45 42
21 46 42
21 46 42
21 46 41
21 47 43
22 49 44
21 46 41
21 47 43
22 48 43
21 46 42
21 46 42
21 46 42
22 48 44
21 47 42
22 47 43
22 47 43
21 46 42
22 48 43
22 48 44
22 48 44
21 47 42
21 47 42
21 46 42
21 46 42
22 47 43
21 47 43
21 46 42
21 46 42
21 47 43
21 47 43
21 47 43
21 46 42
21 46 42
21 47 43
21 47 43
21 46 42
21 47 43
22 49 44
21 46 42
22 49 44
21 46 42
21 46 42
21 47 43
21 47 43
22 48 43
22 47 43
21 47 42
21 47 43
21 46 42
21 47 43
22 48 44
21 47 43
21 46 42
22 48 43
21 47 43
21 47 43
21 46 42
21 46 42
22 47 43
22 49 44
21 46 42
21 46 42
22 47 43
21 47 43
21 46 42
21 46 42
21 47 42
21 47 43
22 48 43
21 47 43
21 46 42
21 47 43
21 47 43
21 46 42
21 46 42
21 47 43
21 47 43
20 45 41
21 46 42
21 47 43
21 46 42
21 47 43
21 46 42
21 47 43
21 47 43
21 46 42
21 46 41
21 46 42
21 47 43
21 47 42
21 47 42
21 45 41
21 47 42
21 46 42
21 47 43
21 46 42
20 45 41
21 46 42
21 46 42
21 46 42
21 46 42
21 46 42
21 46 42
21 45 41
20 45 41
20 44 40
21 47 43
21 46 42
21 46 42
21 46 42
21 46 42
21 47 43
21 46 42
20 45 41
21 46 42
21 46 42
21 47 43
21 47 43
21 47 43
20 45 41
21 46 42
21 47 43
21 46 42
21 47 43
21 46 42
20 45 41
21 46 42
22 48 44
21 45 41
21 46 42
21 46 42
21 47 43
21 46 42
20 45 41
21 46 42
21 46 42
21 46 42
20 45 41
21 46 42
21 46 42
21 47 43
21 47 43
21 46 42
20 45 41
21 47 43
21 46 42
21 46 42
21 46 42
21 46 42
21 45 42
20 45 41
21 46 42
21 46 42
20 45 41
20 45 41
20 45 41
21 47 43
20 45 41
21 46 42
20 45 41
20 44 41
21 46 43
21 46 42
20 45 42
21 46 42
20 45 41
20 45 41
21 46 42
21 46 42
21 46 42
20 44 41
20 45 41
21 46 42
20 45 41
21 46 42
21 46 42
20 44 41
21 46 42
20 44 41
20 45 42
20 44 41
20 45 41
21 46 42
21 46 42
20 45 41
21 46 43
20 44 41
20 45 41
20 44 41
20 45 41
20 44 41
19 43 39
20 44 40
20 45 41
20 45 41
21 46 42
21 46 43
20 45 42
20 45 41
20 44 40
20 45 41
20 45 41
21 46 42
21 47 43
21 47 43
21 47 43
21 46 42
21 46 42
21 47 43
22 48 43
21 46 42
21 46 42
21 47 43
21 46 42
21 46 42
21 47 43
21 47 43
21 47 42
21 46 42
21 47 43
22 48 44
22 47 43
21 46 42
21 47 42
21 47 43
21 47 42
21 46 42
21 46 42
21 47 43
22 48 44
21 46 42
21 46 42
21 46 42
21 47 42
21 46 42
22 48 43
21 46 42
21 46 42
22 49 44
21 46 42
21 46 42
22 48 44
21 47 43
21 46 42
21 46 42
21 47 43
22 48 44
22 48 44
21 46 42
21 46 42
22 48 43
21 47 43
21 46 42
21 46 42
21 47 43
21 46 42
21 46 42
21 46 42
21 46 42
21 46 42
21 47 43
20 45 41
21 47 43
21 47 43
21 45 41
21 46 42
21 46 42
22 48 43
21 47 43
21 47 43
21 47 43
21 47 42
21 47 43
21 47 43
22 48 43
22 47 43
22 48 43
21 47 43
21 47 42
21 46 42
21 47 43
21 46 42
21 47 42
22 47 43
21 46 42
21 47 42
21 47 42
21 46 42
21 47 43
21 46 42
21 47 42
21 46 42
21 46 42
22 47 43
21 47 43
22 47 43
21 47 43
21 45 41
22 47 43
20 45 41
21 47 43
21 47 43
22 48 44
20 45 41
21 46 42
21 47 43
21 47 42
21 47 43
21 46 42
21 47 43
21 46 42
21 47 43
21 46 42
21 46 42
21 46 42
21 46 42
21 46 42
21 47 43
20 45 41
21 46 42
20 45 41
20 45 41
21 45 41
22 48 43
21 47 42
21 47 42
20 45 41
21 46 42
20 45 41
21 47 43
21 46 42
21 46 42
21 46 42
21 46 42
21 46 42
20 45 41
21 46 42
21 46 42
21 46 42
20 45 41
20 45 41
21 46 42
21 46 42
21 46 42
21 46 42
21 46 42
21 45 41
21 47 42
21 46 42
21 46 42
21 46 42
21 45 41
21 45 42
20 45 41
21 46 42
20 44 41
21 46 42
21 46 42
21 46 42
21 46 42
20 45 41
21 46 42
21 46 42
20 44 40
20 44 40
20 45 41
21 46 42
21 46 42
20 45 41
21 46 42
21 46 42
21 46 42
21 46 42
20 44 41
21 46 42
20 45 41
21 46 42
21 46 42
20 45 41
20 45 41
20 45 41
21 46 42
21 46 42
21 46 42
20 44 40
20 45 41
20 45 41
21 46 42
20 45 41
21 46 42
21 46 42
21 45 42
20 45 41
20 45 41
20 44 40
21 47 43
21 46 42
20 45 42
20 44 41
20 45 41
21 46 42
20 44 41
21 47 42
21 46 42
21 46 42
21 46 42
21 46 42
21 46 42
22 48 44
22 47 43
22 48 44
22 48 43
21 47 43
21 46 42
21 46 42
21 46 42
21 46 42
21 46 42
21 46 42
21 47 42
21 47 43
21 47 42
21 45 41
22 48 43
22 48 43
21 47 43
21 46 42
21 47 42
22 48 44
21 47 43
21 47 43
21 46 42
21 47 43
21 47 42
21 46 42
22 47 43
21 47 43
21 47 42
22 48 44
22 47 43
21 47 43
21 47 43
21 47 42
21 46 42
22 48 44
21 46 42
21 46 42
21 47 42
21 45 41
22 48 44
21 47 43
21 46 42
21 47 43
21 46 42
21 47 43
22 48 43
21 47 43
21 47 42
21 46 42
22 48 43
21 47 42
21 46 42
21 46 42
21 47 42
21 47 43
22 48 44
20 45 41
21 47 43
21 45 41
22 47 43
22 48 44
21 46 42
21 46 42
21 47 43
21 47 42
21 47 43
21 47 43
21 47 43
21 47 42
21 46 42
21 46 42
21 47 43
21 47 43
21 47 43
21 47 43
21 46 42
21 47 43
21 46 42
21 47 43
21 47 43
21 46 42
20 45 41
21 47 43
21 47 43
21 46 42
21 46 42
21 46 42
20 45 41
21 47 43
21 46 42
21 46 42
20 45 41
21 47 43
21 45 41
21 47 42
21 46 42
21 47 43
21 47 43
21 46 42
20 45 41
21 46 42
22 48 43
20 45 41
21 47 43
20 44 40
21 47 43
21 46 42
21 46 42
21 46 42
21 46 42
21 46 42
21 46 42
21 46 42
21 46 42
22 47 43
21 46 42
21 46 42
21 47 43
21 46 42
21 45 41
21 46 42
21 47 43
21 46 42
21 46 42
21 46 42
21 46 42
21 46 42
20 45 42
20 45 41
21 45 42
21 45 42
21 47 43
21 47 43
21 46 42
20 45 41
21 45 42
21 47 42
21 46 42
21 46 42
21 46 42
20 44 40
20 45 41
21 47 43
20 45 41
21 46 42
21 46 42
21 47 43
21 47 42
20 45 41
21 46 42
21 46 42
20 45 41
20 45 41
20 45 41
21 46 42
20 45 41
21 46 42
21 45 42
21 46 42
21 47 43
20 44 40
21 46 42
20 45 41
21 45 42
21 46 42
20 45 41
20 45 41
20 44 40
21 46 42
20 45 41
20 45 41
20 45 41
20 45 41
20 45 41
20 45 41
20 44 41
20 45 41
20 45 41
20 45 42
21 46 42
20 45 41
20 44 41
20 45 41
20 45 42
20 44 40
21 45 42
20 45 41
20 45 41
20 44 41
20 45 41
20 44 40
20 44 41
21 46 42
22 48 43
21 47 43
21 47 43
21 46 42
21 47 43
21 45 41
21 47 43
22 48 44
22 48 43
21 47 43
22 48 44
22 47 43
21 47 43
21 46 42
21 47 43
22 48 44
21 47 43
21 47 43
21 46 42
21 46 42
22 47 43
21 47 42
22 48 44
21 46 42
21 47 43
22 48 44
22 48 44
21 47 42
21 47 43
21 47 43
21 47 43
21 46 42
21 45 41
21 47 43
21 47 42
22 48 43
21 47 42
21 46 42
21 46 42
21 47 43
22 47 43
21 47 43
21 47 43
21 47 42
22 48 43
22 48 43
21 46 42
21 46 42
22 47 43
21 46 42
22 49 44
21 45 41
21 46 42
21 46 42
22 47 43
21 47 43
21 46 42
21 46 42
21 47 43
22 48 43
22 48 44
22 48 44
21 47 43
22 47 43
21 47 43
21 46 42
21 47 42
21 47 43
20 45 41
21 46 42
21 46 42
21 47 43
21 46 42
21 47 43
21 47 43
21 47 43
21 46 42
21 46 42
20 44 40
21 46 42
21 46 42
21 47 43
21 46 42
20 45 41
21 46 42
21 47 43
21 46 42
21 46 42
21 47 42
21 46 42
21 46 42
21 45 41
21 46 42
21 47 42
22 47 43
21 46 42
21 47 43
21 47 43
21 45 41
21 47 42
20 44 41
21 46 42
21 47 42
20 45 41
21 47 43
21 47 43
21 47 43
21 46 42
21 45 41
21 46 42
21 47 43
22 48 43
21 47 43
21 46 42
22 48 43
21 46 42
21 47 43
21 46 42
21 47 42
21 47 43
21 47 43
21 47 43
21 47 43
21 47 43
20 45 41
21 46 42
21 46 42
20 44 40
21 46 42
21 47 43
21 46 42
21 47 43
21 46 42
20 45 41
21 45 41
21 46 42
21 46 42
21 47 43
21 47 43
21 47 43
21 46 42
20 45 41
21 46 42
21 47 43
21 46 42
20 44 41
20 44 40
21 46 42
21 45 42
21 46 42
20 45 41
21 46 42
22 48 44
21 46 42
21 46 42
20 45 41
21 46 42
21 47 43
21 46 42
21 46 42
21 47 43
20 45 41
21 46 42
21 46 42
21 46 42
21 45 42
21 46 42
20 45 41
21 47 43
21 46 42
20 45 41
21 45 42
20 44 40
20 45 41
21 46 42
21 46 42
20 45 41
20 45 41
21 46 42
21 46 42
20 45 41
20 44 41
20 44 40
20 45 41
20 45 41
21 46 42
20 45 41
20 44 40
20 45 41
20 45 41
20 45 41
20 45 41
20 44 40
21 46 42
20 45 41
20 44 40
20 45 41
20 45 41
20 44 40
22 49 45
21 47 43
22 47 43
22 48 44
21 47 43
21 47 43
22 49 44
21 46 42
21 46 42
21 46 42
21 46 42
21 47 42
22 48 43
22 48 44
21 47 43
21 47 43
21 47 43
22 48 43
21 47 43
22 48 44
21 47 42
21 46 42
21 47 43
21 47 43
21 46 42
21 47 43
21 47 43
21 47 43
21 46 42
22 48 44
21 47 43
21 46 42
22 48 43
22 48 44
21 47 43
21 47 43
21 47 43
22 48 44
21 47 43
22 47 43
22 48 43
21 47 42
21 47 43
21 46 42
21 45 41
21 46 42
22 48 43
21 46 42
21 46 42
22 49 44
22 48 43
21 47 43
22 48 43
21 46 42
22 49 44
22 48 44
21 47 43
21 47 43
22 48 43
21 46 42
21 46 42
21 47 43
21 47 43
21 47 43
21 47 43
21 47 43
22 48 43
21 47 43
22 48 43
21 47 43
21 47 43
21 46 42
21 47 42
22 48 43
22 48 44
21 47 42
22 48 44
21 47 43
21 46 42
21 47 43
21 46 42
21 46 42
22 47 43
21 46 42
21 47 43
21 47 43
21 47 42
22 48 43
21 46 42
21 46 42
22 48 43
21 46 42
21 47 43
21 47 43
21 47 43
21 46 42
21 46 42
22 48 43
21 46 42
21 46 42
21 47 43
21 47 43
21 46 42
21 46 42
21 46 42
21 47 43
21 47 43
21 47 43
21 46 42
22 48 44
21 47 43
21 47 43
21 46 42
21 47 43
21 47 42
21 47 43
21 47 43
21 46 42
21 46 42
21 45 41
21 46 42
21 46 42
22 48 44
21 47 43
21 46 42
21 47 43
20 45 41
21 46 42
21 47 43
21 46 42
21 46 42
21 46 42
21 47 43
20 45 41
20 45 41
21 46 42
21 47 43
21 45 41
21 46 42
21 46 42
21 46 42
21 47 43
20 45 41
20 45 41
20 45 41
21 45 42
20 45 41
21 46 42
21 46 42
21 47 43
20 44 40
21 46 42
21 46 42
21 46 42
20 45 41
21 46 42
21 46 42
20 45 41
20 45 41
20 45 41
21 47 43
21 46 42
21 46 42
21 47 43
20 45 41
21 46 42
21 46 42
20 44 40
21 46 42
21 46 42
21 46 42
20 45 41
21 46 42
20 45 42
21 46 42
21 46 42
20 44 41
20 45 41
21 47 43
20 44 41
21 47 43
21 46 42
20 45 41
21 46 42
20 45 41
20 45 41
21 47 43
21 46 42
20 45 41
21 46 42
21 46 42
20 45 41
21 46 42
20 44 41
20 45 41
20 45 41
21 46 42
21 46 43
21 46 42
20 45 41
22 47 43
21 47 42
21 47 42
22 48 43
22 47 43
22 48 44
22 48 44
21 47 43
21 47 43
21 46 42
21 47 43
21 46 42
21 46 42
22 49 44
21 47 42
21 46 42
21 47 43
21 46 42
21 47 43
22 49 44
22 48 44
21 46 42
21 47 43
21 46 42
21 47 43
21 46 42
22 48 43
22 47 43
21 47 42
21 47 43
21 47 42
21 47 43
22 48 44
21 47 43
22 48 44
21 46 41
21 47 43
21 47 42
21 47 43
22 48 43
21 46 42
21 46 42
21 46 42
21 47 43
21 47 43
22 48 44
21 46 42
21 47 43
21 46 42
21 45 41
21 47 43
22 48 43
22 48 43
21 46 42
21 47 43
22 48 44
22 47 43
22 48 43
22 48 44
22 48 43
22 47 43
21 46 42
21 47 43
21 46 42
21 46 42
22 48 44
21 45 41
21 46 42
22 48 43
21 47 42
21 47 43
21 46 42
21 46 42
22 48 44
21 46 42
21 46 42
21 47 43
22 47 43
21 46 42
21 46 42
22 48 43
22 48 44
21 46 42
21 45 41
20 45 41
22 48 44
21 47 43
21 46 42
20 45 41
21 47 43
21 45 41
21 46 42
21 46 42
21 47 43
21 47 43
21 46 42
20 45 41
21 46 41
22 47 43
21 47 43
22 48 44
21 47 43
21 47 43
21 47 43
21 46 42
21 46 42
21 45 41
21 47 43
21 47 43
20 45 41
21 46 42
22 48 44
22 48 43
21 46 42
21 47 42
21 47 42
21 47 43
21 47 43
21 46 42
21 46 42
21 45 41
21 46 42
22 47 43
21 47 43
22 48 43
22 48 44
22 48 44
21 46 42
20 45 41
21 46 42
21 46 42
21 46 42
21 46 42
21 47 43
21 47 43
20 45 41
21 46 42
21 47 42
21 46 42
22 47 43
20 45 41
20 45 41
21 46 42
20 45 41
21 45 41
20 45 41
21 47 43
21 47 43
21 46 42
21 46 42
21 47 43
21 45 41
21 45 41
21 45 41
20 45 41
20 45 41
21 46 42
21 45 42
20 45 41
21 46 42
21 45 42
21 46 42
21 46 42
21 45 41
20 44 41
21 46 42
21 46 42
20 45 41
21 45 42
20 45 41
21 46 42
20 45 41
21 46 42
21 46 42
21 46 42
20 45 41
20 44 40
21 46 42
21 46 42
20 45 42
21 46 43
20 44 41
21 46 42
20 45 41
20 45 41
20 45 41
21 46 42
20 45 42
21 45 42
20 44 40
21 46 42
21 46 42
20 45 41
20 44 41
20 45 41
21 47 43
20 45 41
21 46 42
20 45 41
20 45 41
21 46 42
22 47 43
21 47 42
21 47 43
21 47 43
22 48 44
22 49 44
21 46 42
22 48 43
22 48 44
22 48 43
22 49 45
22 48 44
21 47 42
21 47 43
21 47 42
22 48 44
21 46 42
22 48 43
21 47 43
21 47 43
22 48 43
21 46 42
21 46 42
21 47 43
21 47 42
21 47 42
21 46 42
22 48 43
21 46 42
22 49 45
22 48 43
22 49 44
21 47 43
21 46 42
22 48 44
21 47 43
21 46 42
22 48 43
21 47 43
22 48 44
22 47 43
22 48 44
21 46 42
22 48 43
21 47 43
21 46 42
22 47 43
21 46 41
21 46 42
22 47 43
21 46 42
21 46 42
21 47 42
21 47 43
21 47 42
22 48 43
21 47 43
21 45 41
21 46 42
21 47 43
22 48 44
21 46 42
21 46 42
21 47 42
21 46 42
21 47 43
22 48 43
21 46 42
22 48 43
21 46 42
21 46 42
21 46 42
22 48 44
21 46 42
21 47 43
22 48 43
22 48 43
21 47 43
21 46 42
21 46 42
22 48 44
21 47 43
21 46 42
22 47 43
22 48 44
21 46 42
21 47 42
21 47 42
21 47 43
21 46 42
21 47 43
21 46 42
21 46 42
21 46 42
21 47 43
21 46 42
21 46 42
21 46 42
21 46 42
21 46 42
21 47 43
21 47 42
21 46 42
21 46 42
21 46 42
21 46 42
21 47 43
21 46 42
21 47 42
21 47 43
21 47 43
21 47 43
21 47 43
21 47 43
21 46 42
21 47 43
21 45 41
21 46 42
21 47 43
21 47 43
21 46 42
20 45 41
21 47 43
21 47 43
22 48 43
21 46 42
21 47 43
21 47 43
21 46 42
20 45 41
21 46 42
21 47 42
20 45 41
21 47 43
21 46 42
21 46 42
21 46 42
21 45 42
21 47 42
20 45 41
21 46 42
21 46 42
21 46 42
21 46 42
21 46 42
21 46 42
21 47 42
21 45 41
21 47 43
21 47 43
21 45 41
20 45 41
21 46 42
21 47 43
21 46 42
21 47 43
20 45 41
21 46 42
21 46 42
20 45 41
21 47 43
21 46 42
20 45 41
20 45 41
21 47 43
20 45 41
21 47 43
20 45 41
21 47 43
20 45 41
21 46 42
21 46 42
20 45 41
21 45 42
20 45 41
21 46 42
21 46 42
21 46 42
20 45 41
21 46 42
21 46 42
21 46 42
21 46 42
21 47 43
20 45 41
20 45 41
21 46 42
20 45 42
21 46 42
21 47 43
21 46 42
21 46 43
21 46 42
20 45 41
20 45 41
20 45 41
20 45 41
21 47 43
20 43 40
21 46 41
21 46 42
21 46 42
21 46 42
22 48 44
21 47 42
22 48 44
22 47 43
21 46 42
22 47 43
22 48 44
21 47 43
22 48 43
21 47 43
21 46 42
22 47 43
22 48 44
21 47 43
21 46 42
21 47 43
22 48 43
22 48 44
22 48 43
21 47 43
21 47 42
22 48 44
20 45 41
21 47 43
21 47 43
21 47 42
21 47 43
21 46 42
22 48 44
22 48 43
21 47 43
22 47 43
22 48 44
22 48 44
21 47 43
22 48 43
22 47 43
21 47 42
21 46 42
22 47 43
22 48 43
21 47 42
22 47 43
22 48 44
21 47 43
22 47 43
22 48 44
21 46 42
21 47 43
22 48 43
22 48 43
21 47 43
21 47 43
21 46 42
21 46 42
22 47 43
22 49 44
21 47 42
22 48 44
22 49 45
21 47 43
21 47 43
21 47 42
22 48 44
21 47 43
22 48 44
21 47 43
21 46 42
21 47 43
21 46 42
22 49 45
21 47 42
21 47 43
21 47 43
21 47 43
21 47 43
21 47 42
21 47 42
21 47 43
21 46 42
21 47 43
22 48 44
22 48 44
21 45 41
21 47 43
21 47 42
22 48 44
22 48 44
21 47 43
21 46 42
21 47 43
22 47 43
22 48 43
21 46 42
21 45 41
21 46 42
22 48 43
21 47 43
21 46 42
21 46 41
21 46 42
21 46 42
22 48 43
21 47 43
22 48 43
21 46 42
21 47 43
21 46 42
21 47 43
21 47 43
21 46 42
21 47 43
21 46 42
21 47 42
21 46 42
21 46 42
21 47 43
21 46 42
20 45 41
21 46 42
21 47 42
21 46 42
21 45 42
21 46 42
20 45 41
21 46 42
21 46 42
21 46 42
22 48 43
20 44 40
21 47 43
21 47 43
21 46 42
21 46 42
21 45 41
21 46 42
21 47 43
20 45 41
20 44 41
21 46 42
21 46 42
21 47 43
21 46 42
21 47 43
21 47 42
21 46 42
21 46 42
21 47 43
21 46 42
22 48 43
21 47 43
21 46 42
21 47 43
21 46 42
21 45 41
21 46 42
21 47 43
21 47 43
20 45 41
20 45 41
20 45 41
21 46 42
21 47 43
21 47 43
21 47 43
21 46 42
21 46 42
21 46 42
21 46 42
20 45 41
21 46 42
21 46 42
21 46 42
21 46 42
20 45 41
20 45 41
21 46 43
21 45 42
21 47 43
20 45 42
21 46 42
21 46 42
21 46 42
21 45 42
20 44 41
21 46 42
20 45 41
21 46 42
21 46 42
20 45 41
21 46 42
20 45 41
20 45 41
20 45 41
20 45 42
20 45 41
21 47 43
22 48 43
22 47 43
21 47 42
22 48 44
22 47 43
21 47 43
22 47 43
21 47 42
22 48 44
21 46 41
22 48 44
22 48 44
21 47 43
21 46 42
21 47 43
21 46 42
21 47 43
21 47 42
22 48 44
22 48 43
21 47 43
21 47 43
22 48 43
21 46 41
22 48 43
21 47 43
22 48 44
21 47 43
21 47 43
21 46 42
22 48 43
21 46 42
22 49 44
21 47 43
21 47 43
22 48 43
21 46 42
21 47 43
22 48 44
21 47 43
22 48 44
22 49 44
21 47 43
22 48 43
21 47 43
22 48 43
21 47 43
21 47 43
21 47 42
21 47 43
21 47 43
21 47 42
21 47 43
21 47 43
22 48 43
21 47 42
21 46 42
22 48 44
22 47 43
22 49 44
22 48 44
21 47 42
21 47 43
21 47 43
22 48 43
21 46 42
22 47 43
20 45 41
21 47 43
22 48 43
22 47 43
21 46 42
22 48 44
22 48 44
21 46 42
21 46 42
22 48 43
21 47 43
21 47 42
22 48 43
21 47 43
21 46 42
21 46 42
22 48 43
21 46 42
21 47 42
22 49 44
22 48 43
21 46 42
21 46 42
21 46 42
21 47 43
21 46 41
21 46 42
21 46 42
22 48 44
22 48 43
21 46 41
21 47 43
21 46 42
21 46 42
22 49 44
22 48 44
22 47 43
22 48 44
22 48 44
21 47 43
21 46 42
21 46 42
21 47 43
21 46 42
21 46 42
21 47 43
21 46 42
21 46 41
20 45 41
21 46 42
21 47 43
21 47 43
21 47 43
21 46 42
21 45 41
21 46 42
20 45 41
20 45 41
21 46 42
20 45 41
20 45 41
21 47 43
21 47 43
21 46 42
21 47 43
21 47 43
21 47 43
21 46 42
21 47 42
21 47 43
20 44 40
21 47 43
21 46 42
21 46 42
21 47 43
21 47 43
20 44 41
21 45 41
21 47 43
20 45 41
21 45 42
21 46 42
21 46 42
21 47 42
21 46 42
20 45 41
20 45 41
21 46 42
21 47 43
21 46 42
21 47 43
21 47 43
20 45 41
20 44 41
21 47 43
21 47 43
21 46 42
22 48 44
20 44 40
21 47 43
21 46 42
20 45 41
21 46 42
20 45 41
21 46 42
20 45 41
21 46 42
20 44 41
21 46 42
21 46 42
20 45 41
21 46 42
21 46 42
20 45 41
20 45 41
20 45 41
21 46 42
20 45 41
21 46 42
20 45 41
20 45 41
21 46 42
21 46 42
21 46 42
21 45 42
20 45 41
21 47 43
21 47 43
20 45 41
21 46 42
21 46 42
20 44 41
22 48 43
22 47 43
21 47 43
22 48 44
21 47 42
22 48 44
22 48 43
21 47 43
21 47 42
21 47 43
21 47 43
21 47 43
21 47 42
22 48 43
22 49 44
22 47 43
22 48 43
22 48 43
21 47 43
21 47 43
21 47 43
22 49 44
22 48 43
22 48 43
22 48 43
21 47 43
21 47 43
21 46 42
21 46 41
21 47 43
21 47 43
21 47 42
21 47 43
21 47 43
22 49 45
21 47 42
22 48 44
22 48 44
22 48 44
21 47 43
21 46 42
21 47 43
22 47 43
22 47 43
22 49 45
21 46 42
21 47 43
22 48 43
21 47 43
22 47 43
22 48 43
22 48 43
22 48 44
21 46 42
21 47 43
22 47 43
22 48 44
22 48 44
22 48 43
21 46 42
21 47 43
21 47 43
21 47 43
21 46 42
21 46 42
21 46 42
21 47 43
21 46 42
21 47 43
21 46 42
21 47 43
22 48 43
22 48 43
21 47 43
21 46 42
22 48 44
21 46 42
21 46 42
22 47 43
22 47 43
21 46 42
22 48 44
22 48 43
21 47 43
22 48 44
22 48 43
21 46 42
22 48 43
21 46 42
22 48 43
21 46 42
22 48 43
21 46 41
21 47 43
21 47 43
21 46 41
21 46 42
22 48 43
21 47 43
21 46 42
21 47 43
21 46 42
21 47 43
21 46 42
21 46 42
22 48 44
21 47 42
22 48 43
21 46 42
21 46 42
21 47 42
21 47 43
21 46 42
21 47 43
21 46 42
21 46 41
21 46 42
21 45 41
21 46 42
22 48 43
21 46 42
21 46 42
21 47 43
21 46 42
22 48 43
21 46 42
21 46 42
21 46 42
21 47 43
21 46 42
21 47 43
21 46 41
21 46 42
21 47 43
21 47 43
21 46 42
21 46 42
21 46 42
21 46 42
21 46 42
21 47 43
21 46 42
21 47 43
21 45 41
21 46 42
21 46 42
22 48 44
21 46 42
21 46 42
20 45 41
21 47 43
21 46 42
22 48 44
21 46 42
21 46 42
21 47 43
20 45 41
21 46 42
20 45 41
21 45 41
21 46 42
21 45 41
20 45 41
21 46 42
21 47 43
20 45 41
21 46 42
20 45 41
21 46 42
20 45 41
21 46 42
21 46 42
21 46 42
20 45 41
21 46 42
21 46 42
21 46 42
20 45 41
21 45 42
21 46 42
21 46 42
20 45 41
21 46 42
21 46 42
21 46 42
20 45 41
20 45 41
21 47 43
21 45 42
20 45 41
21 45 42
20 44 41
20 45 41
21 46 42
20 44 40
20 45 41
21 46 42
20 45 41
20 45 41
20 44 40
22 49 45
21 46 42
21 47 43
22 49 44
22 47 43
21 47 43
22 48 44
22 48 43
22 48 44
21 47 43
22 49 45
22 48 43
22 48 43
21 47 42
21 47 42
21 47 42
22 48 44
22 49 44
21 47 43
22 49 44
21 47 42
21 46 42
21 47 42
22 48 43
22 49 44
21 46 42
22 48 43
22 47 43
22 49 44
22 48 44
22 48 43
21 46 42
22 47 43
21 47 43
22 48 44
21 47 43
22 48 43
21 47 43
22 48 44
22 48 43
21 47 43
21 47 43
21 47 43
22 48 44
22 48 43
21 46 42
21 46 41
22 48 43
21 46 42
21 47 43
21 47 42
22 48 43
21 47 42
21 47 42
21 47 43
21 47 42
21 47 43
22 48 44
22 48 43
21 46 42
22 49 45
22 48 43
22 48 44
22 48 44
21 47 42
21 47 43
21 47 42
21 47 43
21 46 42
21 47 43
21 47 43
21 47 43
22 49 44
21 46 42
21 47 42
22 48 44
22 48 44
22 48 43
21 46 42
21 45 41
22 47 43
21 47 43
21 47 43
21 46 42
21 47 43
21 47 43
21 47 43
22 48 44
22 48 44
21 47 43
21 46 41
21 47 43
22 48 43
21 47 43
22 48 44
21 47 43
22 48 43
21 46 42
21 46 42
21 46 42
21 47 42
21 46 42
21 47 42
21 47 43
21 46 42
21 47 43
21 47 43
20 45 41
22 47 43
21 47 43
21 47 43
21 46 42
21 47 42
21 46 42
21 46 42
21 45 41
22 48 44
21 46 42
21 47 42
22 48 43
22 48 44
21 47 43
21 47 43
21 45 41
21 46 42
21 47 43
21 47 42
21 46 42
21 46 42
21 46 42
21 46 42
21 45 41
22 47 43
22 48 43
20 45 41
21 46 42
21 46 42
21 46 42
22 48 43
21 47 43
21 45 41
21 46 42
21 47 43
21 47 43
21 46 42
22 47 43
21 46 42
20 45 41
21 47 43
21 46 42
21 47 42
21 47 43
22 48 43
21 46 42
21 47 43
21 46 42
20 44 40
20 45 41
20 45 41
21 46 42
21 46 42
21 46 42
21 47 43
20 45 41
20 45 41
22 48 44
21 46 42
21 46 42
21 47 43
21 46 42
21 45 41
20 45 41
21 47 43
20 45 41
21 46 42
21 46 42
21 45 42
21 46 42
20 45 41
21 46 42
20 44 41
21 46 42
21 46 42
20 45 41
21 46 42
20 45 41
21 46 42
21 46 42
21 45 42
21 46 42
20 45 41
21 45 42
21 46 42
20 45 41
20 45 41
21 47 43
20 45 41
21 45 41
21 45 42
20 45 41
22 48 44
22 48 44
21 47 43
21 47 43
22 48 44
21 47 43
21 47 43
22 48 43
21 47 43
21 47 43
21 47 43
22 47 43
21 47 43
22 48 43
21 47 43
22 48 43
22 48 43
21 46 42
22 48 44
22 48 44
22 47 43
21 46 42
22 48 44
22 48 43
22 48 43
22 48 43
21 46 42
21 47 43
22 47 43
22 48 43
22 48 44
22 48 43
21 47 43
21 47 43
21 47 43
21 46 42
22 48 43
21 47 43
21 46 42
22 48 43
21 47 43
22 48 43
21 47 43
22 48 43
21 47 43
22 49 45
22 49 44
21 47 42
22 48 44
22 48 44
22 48 43
22 49 45
21 46 42
22 48 43
21 46 42
21 46 41
22 48 44
22 49 44
21 47 43
22 48 44
21 47 43
22 48 44
21 47 43
22 49 44
22 48 43
22 48 44
22 49 44
21 47 43
21 47 42
21 47 43
21 46 41
21 46 42
21 46 42
22 48 44
21 47 43
22 48 43
21 47 43
21 47 43
21 46 42
22 48 44
22 48 44
22 49 45
21 47 42
22 48 43
22 47 43
21 47 43
22 47 43
21 46 42
21 46 41
22 48 44
21 47 43
21 47 43
21 46 42
22 47 43
21 47 43
21 47 43
21 46 42
21 47 43
21 46 42
21 47 43
21 46 41
22 48 44
22 47 43
21 47 43
21 46 42
21 46 42
21 46 42
21 46 42
21 47 43
21 47 43
21 47 43
21 45 41
20 44 40
21 46 42
21 47 42
21 46 42
22 47 43
21 47 43
21 46 42
21 46 42
22 48 43
20 45 41
20 44 40
21 47 43
21 46 42
21 46 42
21 47 43
21 46 42
21 47 43
21 47 43
21 46 42
21 47 43
21 46 42
21 45 41
22 48 44
21 46 42
22 47 43
21 46 42
21 46 42
21 46 42
21 47 43
21 46 42
21 47 42
21 46 42
21 46 42
21 46 42
21 46 42
21 46 42
21 47 43
21 47 43
21 47 43
21 45 41
21 46 42
20 44 41
21 47 43
22 48 44
21 47 43
21 47 43
21 47 42
21 45 42
21 46 42
21 46 42
21 46 42
21 46 42
21 46 42
21 46 42
21 47 43
21 46 42
22 48 44
21 46 42
21 46 42
21 47 43
20 44 40
21 47 42
21 46 42
21 47 43
21 45 42
21 45 42
21 46 42
20 45 41
21 46 42
21 46 42
21 46 42
21 47 43
21 46 42
21 47 43
20 45 41
20 45 41
20 45 41
21 46 42
21 46 42
21 46 42
21 46 42
20 45 41
21 47 43
21 46 42
20 44 41
21 46 42
21 46 42
21 46 42
21 47 43
21 47 43
21 46 41
21 47 43
22 47 43
21 47 43
21 47 43
22 48 43
22 49 44
22 47 43
21 47 42
22 48 43
21 45 41
21 47 43
22 47 43
22 48 43
21 47 43
21 47 42
22 48 44
21 47 43
21 47 43
22 48 44
22 48 44
21 46 42
22 48 43
22 47 43
22 49 44
22 47 43
22 48 44
22 48 44
22 48 43
22 48 44
21 47 43
21 47 42
21 46 42
21 47 43
22 48 43
21 47 43
21 47 43
22 48 43
22 48 44
22 48 44
21 47 43
21 46 42
22 47 43
22 48 43
21 47 43
22 47 43
21 47 42
22 48 43
22 49 44
22 47 43
22 47 43
21 47 43
22 48 43
22 48 43
22 49 44
22 48 44
21 47 43
22 48 44
21 47 43
21 47 42
21 47 42
21 46 42
21 47 42
22 48 44
22 49 45
21 47 43
82 84 76
137 127 115
162 147 134
164 149 136
155 142 130
123 116 105
55 65 59
21 47 43
21 47 42
22 48 43
21 46 42
22 48 43
22 48 43
20 45 41
21 46 42
21 46 42
21 46 42
22 48 44
22 48 44
21 47 43
21 46 41
22 48 43
22 49 44
22 48 44
21 47 43
22 47 43
21 47 42
22 48 43
22 48 43
21 47 42
22 47 43
22 48 44
21 46 42
22 48 43
21 47 42
22 47 43
21 46 42
21 46 42
22 48 43
22 49 44
21 47 43
22 47 43
21 47 43
21 46 42
21 47 43
21 46 42
21 45 41
22 48 43
21 46 42
21 47 42
22 48 43
21 46 42
21 46 42
21 47 42
21 46 42
21 47 43
22 49 44
21 45 41
21 46 42
21 46 42
21 46 42
22 47 43
21 46 42
21 45 41
21 46 42
22 48 43
21 46 42
21 47 43
21 47 43
22 48 44
21 46 42
22 48 44
21 46 42
21 47 42
21 46 42
22 48 43
21 45 41
21 46 42
21 46 42
21 47 43
21 46 42
21 46 42
21 46 42
21 47 43
21 46 42
21 47 43
21 45 41
21 47 43
21 46 42
21 46 42
21 47 43
21 46 42
21 47 43
21 46 42
21 45 41
21 46 42
21 47 43
21 46 42
21 47 43
21 47 43
21 47 42
20 45 41
21 46 42
21 47 43
21 47 43
21 46 42
21 46 42
21 46 42
21 47 43
20 45 41
20 45 41
20 45 41
20 45 41
20 45 41
21 46 42
21 46 42
21 45 41
21 46 42
20 45 41
21 46 42
21 46 42
21 47 43
20 45 41
20 44 41
20 45 41
20 45 41
20 45 41
20 45 41
21 46 42
20 45 42
21 46 42
21 46 42
22 47 43
21 47 43
21 47 43
21 47 42
21 47 43
22 48 43
21 47 43
22 48 44
21 46 42
22 48 44
21 47 43
22 48 44
21 47 43
21 47 43
22 49 44
22 48 43
22 48 44
22 48 44
22 48 44
22 48 43
22 48 44
21 46 42
22 49 44
22 48 43
22 48 43
22 48 44
22 49 45
22 48 44
22 48 43
22 48 43
21 47 43
21 47 43
21 46 42
22 47 43
22 48 44
21 47 43
22 47 43
21 47 43
22 48 44
22 48 44
21 47 43
22 48 44
22 48 43
22 48 43
21 46 42
22 48 43
21 46 42
22 47 43
21 47 42
22 48 44
21 47 43
22 48 44
22 47 43
21 47 42
22 48 43
21 47 43
22 48 43
22 48 44
22 47 43
22 48 44
21 47 43
22 48 43
22 48 43
22 48 43
21 47 42
21 46 42
86 87 79
208 185 168
236 210 190
240 214 195
239 213 194
237 212 193
234 209 191
230 206 188
219 196 180
148 136 124
23 46 43
22 47 43
22 47 43
22 48 44
21 47 42
21 47 43
22 48 43
21 47 43
21 46 42
21 47 43
22 47 43
22 48 44
21 46 42
21 46 41
21 46 42
21 47 43
22 48 44
21 47 43
21 47 43
22 47 43
22 48 44
22 48 43
21 47 43
22 48 44
21 46 42
21 47 43
22 48 44
22 47 43
22 48 43
21 47 43
21 47 42
21 46 42
22 47 43
22 49 45
22 48 44
21 47 42
21 46 42
21 46 42
21 46 42
21 47 42
22 48 44
21 47 43
22 48 44
21 47 43
21 46 42
20 45 41
22 47 43
22 48 44
22 48 44
20 45 41
20 45 41
22 48 43
21 47 43
21 46 42
21 46 42
22 48 44
21 46 42
21 47 43
21 47 42
21 47 43
21 46 42
21 46 42
21 46 42
21 46 41
21 45 41
21 47 43
21 47 42
21 46 42
21 47 43
21 46 42
21 46 42
21 46 42
20 45 41
21 46 42
21 46 42
21 47 43
21 46 42
22 48 44
21 46 43
21 46 42
21 47 43
21 46 42
21 46 42
21 46 42
21 46 42
21 46 42
20 45 41
20 45 41
21 46 42
21 46 42
21 46 42
20 44 40
21 47 43
21 47 43
21 47 43
21 45 41
21 46 42
20 45 41
21 47 42
20 45 41
21 46 42
21 47 43
21 46 42
21 46 42
21 45 41
21 46 42
21 46 42
20 45 41
21 46 42
21 46 42
21 46 42
20 45 41
21 46 42
21 46 42
21 47 43
20 45 41
21 46 42
21 46 42
21 47 43
21 47 43
21 46 42
20 44 40
20 45 41
20 44 41
21 46 42
22 48 44
22 48 44
22 49 44
22 48 44
22 47 43
22 48 44
21 47 43
22 48 44
22 47 43
21 47 42
23 50 45
22 48 43
21 47 43
21 47 43
22 47 43
22 49 44
22 49 44
21 46 42
21 47 43
22 48 43
21 47 43
22 48 44
22 49 44
22 47 43
21 47 43
21 47 43
22 47 43
21 47 43
21 47 43
22 49 44
21 47 43
23 50 45
22 49 45
22 49 45
22 48 44
22 49 44
21 47 43
22 48 43
21 47 43
22 48 44
21 46 42
21 47 42
22 48 44
23 50 46
21 47 43
22 47 43
22 49 44
21 47 43
21 47 43
22 48 43
21 46 42
21 47 42
21 47 43
21 46 42
21 47 43
22 48 43
22 48 43
22 49 44
22 48 44
22 48 44
21 46 42
21 47 43
22 48 43
26 48 44
161 146 132
238 211 191
245 217 197
244 217 198
244 217 198
243 216 197
240 215 196
238 212 194
234 209 192
230 206 189
216 193 177
43 45 47
26 43 41
21 46 42
21 47 43
21 47 42
21 47 43
21 47 42
22 49 45
21 46 42
22 49 44
21 46 42
21 46 42
20 44 40
21 46 42
21 46 42
21 47 43
21 47 42
21 46 42
21 47 42
21 46 42
22 48 44
22 48 44
21 45 41
21 47 43
22 49 45
21 47 43
21 46 42
21 47 43
22 48 44
21 46 41
21 47 43
22 48 44
21 46 42
21 47 43
22 48 43
21 46 42
21 47 43
21 47 43
21 46 42
21 47 42
22 47 43
21 45 41
22 47 43
21 46 41
21 47 43
21 46 42
21 47 42
21 47 42
21 47 43
21 47 43
21 46 42
21 47 43
21 47 43
21 46 42
21 46 42
21 46 41
21 47 43
21 45 41
21 46 42
21 45 41
22 48 43
21 46 41
21 46 42
21 47 43
21 45 41
21 47 43
21 46 42
21 47 43
21 47 43
21 47 43
21 46 42
21 46 42
21 46 42
21 47 43
21 46 42
21 47 43
21 46 42
21 47 42
21 46 42
21 47 43
21 46 42
21 47 43
21 47 42
21 46 42
21 47 43
21 46 42
21 45 41
21 46 42
20 44 40
21 47 43
21 46 42
20 45 41
21 46 42
21 47 42
21 47 43
21 46 42
21 46 42
21 46 42
21 46 42
21 46 42
21 46 42
21 46 42
21 47 43
21 46 42
21 45 41
21 46 42
21 46 42
21 46 42
21 47 43
21 46 42
21 46 42
20 45 41
20 45 41
20 44 40
21 46 42
21 46 42
21 46 42
21 46 42
21 46 42
21 47 43
21 46 42
20 45 41
21 46 42
20 45 41
21 46 42
22 48 44
22 48 44
21 47 43
21 47 43
21 46 42
22 48 43
21 47 43
22 48 44
22 48 43
21 46 42
23 50 45
22 48 44
22 49 45
21 46 42
22 48 43
22 48 43
21 47 43
21 47 43
22 48 44
22 48 43
21 47 43
22 48 44
21 47 43
22 48 44
22 48 43
22 47 43
23 50 45
21 47 43
22 48 44
22 48 43
21 47 43
21 47 42
22 48 44
21 47 42
22 47 43
21 46 42
22 48 44
22 47 43
23 50 45
22 48 43
21 46 42
22 47 43
22 49 45
22 49 44
22 49 45
22 49 44
22 48 44
22 48 43
22 49 44
22 48 44
21 47 43
22 47 43
22 48 44
21 47 43
22 47 43
22 49 44
22 48 43
22 47 43
22 48 43
22 49 44
22 48 43
21 46 42
37 54 49
168 151 136
241 212 192
246 218 197
247 219 199
247 219 199
246 219 199
245 218 199
242 216 197
239 214 196
237 211 193
232 208 190
206 185 169
36 39 43
34 36 40
26 41 40
22 47 43
21 47 43
22 49 44
22 48 44
22 48 43
22 47 43
22 47 43
21 47 43
21 46 42
22 48 43
21 47 43
21 46 42
21 46 42
21 47 43
21 46 42
22 47 43
21 47 43
22 48 44
21 46 42
21 47 43
21 47 43
21 47 43
22 47 43
22 48 44
22 48 44
21 47 43
22 48 44
21 47 43
21 47 43
22 49 44
22 48 43
21 46 42
22 48 43
21 47 43
21 47 43
21 46 42
21 47 43
21 47 42
21 47 43
21 46 42
21 46 42
21 47 42
21 47 43
21 47 43
21 47 43
21 47 43
21 47 43
22 47 43
22 47 43
21 47 42
21 46 42
21 47 43
21 46 42
21 47 43
22 47 43
21 46 42
22 48 44
21 47 43
21 47 43
21 47 43
21 47 42
21 47 43
21 46 42
21 46 42
21 47 43
21 46 42
21 47 43
21 46 42
22 48 43
20 45 41
21 46 42
20 45 41
20 45 41
21 47 42
21 46 42
21 46 42
21 46 42
21 47 43
21 47 43
20 45 41
21 47 43
21 46 42
21 45 41
20 45 41
21 47 43
21 46 42
21 47 43
20 45 41
21 47 43
21 46 42
21 46 42
21 45 41
21 46 42
21 47 42
21 47 43
20 45 41
20 45 41
21 46 42
21 46 42
20 45 41
20 45 41
21 46 42
21 46 42
21 46 42
21 47 43
21 46 42
21 46 42
20 45 41
20 44 40
21 47 43
21 47 43
21 46 42
20 45 41
20 45 41
20 45 41
20 45 41
21 45 42
21 46 42
21 46 42
21 46 42
21 46 42
22 48 43
21 47 42
21 47 43
21 46 42
22 48 43
22 48 44
22 48 44
22 48 43
22 48 44
22 48 44
22 48 44
21 47 43
22 47 43
22 47 43
22 49 44
22 49 45
22 48 44
22 47 43
21 47 42
22 48 43
22 48 43
21 47 42
21 47 43
21 47 43
21 47 42
21 47 43
22 48 44
22 48 44
22 48 43
21 47 43
22 48 44
22 48 44
22 48 43
22 48 43
21 47 43
21 46 42
22 48 44
22 48 44
22 48 44
22 48 43
22 48 44
21 47 43
21 47 43
21 46 42
22 48 44
22 49 44
22 48 43
22 48 44
22 48 43
21 47 43
22 48 43
21 47 43
22 48 43
22 47 43
21 47 42
22 48 43
22 47 43
21 47 43
21 47 42
22 47 43
21 46 42
21 47 42
22 48 44
144 131 117
235 207 186
246 217 195
248 219 199
249 220 200
247 220 200
247 219 200
245 218 199
244 217 197
240 214 196
237 212 194
234 209 191
129 117 109
37 40 43
35 38 41
31 34 37
23 45 42
21 47 43
21 47 43
22 48 44
21 47 43
21 47 43
22 47 43
21 47 42
22 49 44
21 47 43
22 48 43
21 46 42
21 46 42
21 46 42
21 46 42
22 49 45
21 47 43
22 48 44
21 47 43
21 46 42
21 46 42
22 48 43
22 48 43
22 48 44
22 48 43
22 47 43
22 47 43
22 48 43
22 48 43
21 46 42
22 47 43
21 47 43
21 47 43
22 48 43
21 46 42
22 47 43
22 48 43
21 47 43
21 46 42
22 48 43
21 46 42
22 48 43
21 47 43
22 47 43
21 46 42
22 48 43
21 47 42
21 46 42
21 47 43
21 47 43
22 47 43
22 48 43
21 47 42
21 46 42
21 47 43
21 46 42
21 45 41
21 46 42
21 46 42
21 46 42
22 48 43
21 47 43
21 47 43
21 46 42
22 48 43
21 47 43
22 48 43
21 45 41
21 47 43
21 46 42
21 45 41
22 47 43
22 48 44
21 46 42
21 46 42
21 46 42
21 47 43
21 46 42
21 46 42
21 47 42
21 47 43
21 47 43
21 47 43
21 46 42
21 46 42
21 46 42
21 47 42
21 46 42
21 47 43
21 47 43
21 46 42
21 46 42
20 45 41
20 45 41
20 45 41
21 46 42
21 47 43
21 46 42
21 46 42
21 46 42
21 46 42
21 47 43
21 46 42
21 46 42
20 45 41
21 45 41
21 46 42
21 46 42
20 45 41
21 46 42
20 45 41
21 46 42
21 47 43
20 45 41
21 47 43
21 47 42
20 45 42
21 46 42
20 45 41
21 47 43
21 46 42
22 47 43
21 46 42
23 50 45
22 49 45
21 46 42
22 49 44
22 48 43
22 49 44
22 49 44
22 48 44
22 49 45
22 47 43
22 48 44
21 46 42
21 46 42
22 48 43
22 48 44
22 48 43
22 48 44
22 48 44
22 49 44
22 48 44
22 48 43
21 47 43
21 47 43
21 47 43
22 47 43
22 48 43
22 49 44
21 47 43
22 48 44
21 47 43
22 48 44
22 48 44
22 48 44
22 48 44
21 47 43
21 47 43
23 50 46
22 48 44
22 49 45
22 48 43
22 48 44
22 48 43
22 48 43
22 48 43
22 47 43
21 47 43
22 48 44
22 47 43
22 48 44
22 49 44
22 49 45
21 47 43
21 47 42
22 48 43
21 47 43
22 48 43
22 47 43
21 46 42
21 46 42
21 46 42
63 70 62
211 187 168
237 209 189
246 218 196
249 220 199
250 221 199
249 221 200
253 225 203
252 224 203
244 217 197
242 215 195
238 212 193
173 155 142
38 41 44
37 40 43
35 38 41
32 35 38
27 34 35
23 49 45
21 47 43
22 47 43
21 46 42
22 47 43
22 48 44
22 48 43
21 46 42
21 46 42
21 47 42
21 45 41
22 49 45
22 48 43
21 47 42
21 47 42
21 47 43
21 47 43
22 48 44
21 46 42
21 47 43
21 47 43
21 46 42
22 48 43
22 48 44
22 48 44
21 47 42
22 48 43
21 46 42
22 48 43
21 46 42
21 47 43
21 47 43
21 46 42
21 47 43
21 47 43
21 46 42
22 48 43
21 47 43
22 49 44
21 46 42
21 46 42
21 46 42
21 46 42
21 47 42
22 47 43
21 47 43
21 47 43
21 47 43
22 48 43
21 46 42
21 47 43
22 47 43
21 46 42
21 46 42
21 47 42
21 46 42
21 46 42
21 46 42
21 47 43
21 46 42
21 47 43
22 47 43
22 48 44
21 46 42
21 46 42
22 48 44
21 47 43
21 47 43
21 46 42
21 47 43
21 47 43
21 46 42
21 46 42
22 49 44
21 47 43
22 48 44
21 47 43
21 46 42
22 48 43
21 46 42
21 47 42
20 45 41
21 45 41
21 46 42
21 47 43
21 47 43
21 46 42
21 46 42
21 46 42
21 46 42
21 47 43
21 46 42
21 46 42
21 47 43
20 45 41
21 47 43
21 46 42
21 46 42
21 47 43
21 46 42
21 47 43
21 46 41
20 44 41
20 45 41
20 45 41
21 46 42
20 44 41
20 45 41
21 46 42
21 46 43
20 45 41
20 44 41
20 45 41
21 46 42
20 45 41
21 46 42
21 46 42
21 46 42
21 46 42
21 47 43
22 48 44
22 48 44
22 48 43
22 48 44
22 48 43
21 47 42
22 48 43
22 49 44
22 48 43
22 48 43
22 48 43
22 49 45
21 47 42
22 48 43
23 50 45
21 47 43
21 47 43
23 49 45
22 48 43
21 47 43
22 48 44
22 48 43
21 46 42
22 47 43
22 48 43
22 48 43
22 48 43
22 49 44
22 49 44
21 47 43
22 48 44
22 47 43
21 47 43
22 48 43
21 47 42
21 47 43
21 47 43
21 47 42
22 48 43
22 48 44
22 48 43
22 47 43
21 47 43
21 47 43
22 49 44
22 48 44
22 48 43
21 47 43
22 48 43
21 47 42
22 48 44
22 49 45
22 48 44
21 47 43
22 48 43
21 47 43
22 48 43
22 48 43
22 48 43
21 46 42
22 48 43
22 48 43
136 124 110
223 196 175
232 204 182
243 214 193
249 219 198
249 220 198
255 229 205
255 255 232
255 252 224
248 220 199
241 214 194
186 166 152
48 48 50
38 40 44
37 39 43
35 37 40
32 35 38
29 31 34
22 41 39
21 47 42
21 46 42
21 46 41
21 46 42
22 47 43
22 48 44
21 47 43
22 48 44
22 47 43
21 47 43
21 46 42
22 48 43
21 47 43
21 47 43
21 47 42
21 47 43
22 47 43
22 48 44
22 49 44
21 47 43
21 47 43
21 46 42
21 47 42
22 47 43
21 47 43
21 46 42
21 47 43
21 47 43
21 47 43
21 47 43
21 47 43
21 46 42
21 46 42
21 47 43
21 47 43
21 47 43
21 46 42
21 47 43
21 47 43
21 46 42
22 48 44
21 47 43
21 46 42
21 47 43
22 47 43
21 47 43
21 47 43
21 47 42
22 47 43
21 46 42
22 48 44
21 47 43
21 47 43
21 47 42
22 47 43
21 46 42
21 46 42
20 45 41
21 46 42
21 47 43
22 48 43
21 47 43
21 46 42
21 46 42
21 47 43
21 46 42
21 45 41
21 47 42
21 47 43
21 47 43
22 48 43
22 48 44
21 47 43
21 46 42
22 47 43
21 47 42
21 46 42
21 46 42
21 46 42
21 46 42
21 46 42
21 46 42
20 44 41
21 47 43
21 47 43
20 45 41
21 47 43
22 48 44
21 46 42
21 46 42
21 47 43
21 47 43
21 46 42
21 47 43
21 47 43
21 46 42
20 45 41
21 47 42
21 46 42
21 46 42
21 46 42
21 46 42
21 46 42
20 45 42
21 46 42
20 44 41
21 47 43
20 45 41
20 45 41
21 45 41
21 46 42
20 45 41
21 46 42
21 47 43
20 45 41
20 44 40
20 45 41
21 46 42
21 46 42
22 48 44
22 48 44
22 48 43
22 48 44
23 50 45
22 48 44
22 48 43
22 48 44
23 49 45
22 49 45
22 49 44
23 49 45
22 48 44
22 49 44
22 48 43
22 48 44
22 48 43
21 47 43
21 47 43
22 47 43
21 47 43
21 47 43
22 48 44
22 49 44
22 49 44
21 47 42
21 47 43
21 46 42
21 46 41
21 47 42
21 47 43
21 47 42
22 49 44
22 48 43
21 47 42
21 47 42
21 47 43
21 47 42
22 49 44
22 48 44
22 48 43
22 47 43
22 47 43
21 47 43
22 48 43
22 48 43
22 48 44
22 48 44
21 47 42
22 48 44
22 48 44
22 48 43
21 47 42
21 47 43
21 46 42
21 47 43
22 47 43
22 47 43
21 47 43
21 47 42
21 47 42
22 47 43
175 155 138
223 196 175
234 205 184
239 210 188
244 215 193
247 217 196
255 227 203
255 255 227
255 245 218
246 218 197
184 164 149
51 51 52
38 41 44
37 39 43
37 38 41
34 36 40
32 34 37
27 29 32
23 37 36
22 48 44
21 46 42
22 48 43
21 46 42
22 49 44
22 48 44
21 47 42
21 46 42
22 47 43
21 46 42
21 47 42
21 46 42
21 47 43
22 48 43
21 47 43
21 45 41
21 47 42
21 46 42
22 48 43
21 47 43
22 48 44
22 48 44
21 46 42
21 46 41
22 48 44
21 46 42
21 46 42
21 47 43
21 46 42
22 49 44
22 48 43
22 49 44
22 48 44
22 48 43
21 47 43
21 46 42
21 46 42
21 47 43
22 48 43
22 47 43
22 49 44
21 47 42
22 48 43
21 47 43
22 48 43
21 47 43
21 47 43
21 47 43
21 46 41
22 49 44
21 47 43
21 47 42
21 47 43
20 45 41
21 46 42
21 46 42
21 47 43
21 46 42
22 48 43
21 46 42
21 45 41
21 47 43
21 46 42
20 45 41
21 47 43
21 47 42
21 47 43
21 47 43
21 46 42
21 46 42
22 48 44
21 47 42
21 46 42
21 45 42
22 47 43
20 45 41
21 46 42
21 46 42
21 46 42
21 46 42
21 47 43
21 45 41
21 47 43
21 46 42
20 45 41
21 47 43
21 46 42
21 47 43
21 47 43
21 46 42
21 47 43
21 46 42
21 46 42
21 46 42
21 47 43
21 46 42
20 44 40
21 47 42
21 47 43
21 47 42
20 44 40
21 46 42
22 48 43
21 46 42
21 47 42
21 46 42
20 44 40
21 45 41
21 46 42
21 47 43
21 46 42
21 47 42
21 46 42
21 46 42
22 48 43
21 46 42
21 46 42
21 46 42
21 45 42
22 48 44
22 48 43
22 48 43
21 47 43
22 48 44
22 48 44
22 48 44
22 48 44
21 47 43
21 47 42
22 47 43
22 48 43
21 47 43
22 48 44
21 47 43
22 49 44
22 47 43
22 48 43
22 49 44
22 48 43
22 49 44
22 49 44
22 48 43
22 48 44
22 48 43
22 48 44
21 47 43
22 49 44
21 47 43
21 47 43
22 48 43
22 47 43
22 48 43
22 49 44
22 48 43
22 47 43
21 47 43
22 48 43
22 49 44
22 48 44
22 48 43
21 46 42
22 48 43
22 48 44
22 47 43
22 49 44
22 48 43
22 47 43
22 48 44
22 48 43
22 48 43
22 48 44
21 46 42
21 47 43
22 48 44
21 47 43
22 47 43
22 47 43
21 46 42
21 47 42
21 47 42
37 53 48
192 169 150
219 192 172
225 197 176
235 206 184
238 209 187
241 212 190
242 213 191
249 220 197
240 212 191
156 139 126
39 41 45
38 40 43
37 39 42
36 38 41
35 37 40
33 36 39
31 33 36
27 29 31
21 27 28
21 45 41
22 47 43
21 47 42
21 47 43
22 49 45
20 45 41
22 48 44
22 49 44
21 47 43
21 47 43
21 47 43
21 46 42
21 47 43
21 47 43
21 47 43
21 47 42
22 48 43
21 46 42
22 49 44
21 47 42
21 47 42
22 48 44
22 48 44
22 48 44
21 47 42
21 46 42
21 47 43
22 48 43
21 47 43
21 47 43
21 46 42
22 47 43
21 47 43
21 47 42
21 46 41
21 47 43
21 47 42
22 48 43
21 47 43
21 46 42
21 47 43
22 48 43
21 46 42
21 46 42
22 49 44
22 47 43
22 47 43
22 48 43
21 47 42
21 47 42
21 46 42
21 47 42
22 48 43
21 47 43
22 47 43
21 45 41
21 47 43
22 49 44
21 47 42
22 47 43
21 45 41
21 46 41
21 47 42
22 48 43
21 45 41
22 48 43
21 46 42
21 47 43
21 47 43
21 47 43
21 45 41
21 46 42
21 46 42
21 47 43
21 46 42
21 47 42
21 46 42
21 47 43
22 48 44
21 47 43
21 47 43
22 48 44
21 47 43
21 46 42
20 44 40
21 46 42
21 47 43
21 46 42
21 46 42
20 45 41
21 47 43
21 46 42
20 45 41
21 46 42
21 46 42
20 45 41
20 45 41
21 46 42
21 46 42
20 45 41
21 46 42
21 46 42
21 47 43
21 46 42
21 46 42
20 45 41
21 46 42
21 46 42
21 46 42
21 46 42
21 46 42
20 44 41
20 45 41
21 46 42
20 45 41
21 46 42
21 46 42
21 46 42
21 45 41
22 48 43
22 48 44
22 49 44
22 48 43
22 47 43
22 48 44
22 48 43
22 48 43
23 49 45
22 49 44
22 47 43
22 48 43
22 48 44
22 48 44
22 48 44
21 47 42
22 48 43
22 48 44
22 49 44
22 48 43
22 48 44
22 48 44
22 48 43
22 48 44
22 48 44
22 49 44
22 47 43
21 47 42
22 48 43
22 48 43
22 49 44
22 47 43
21 46 42
21 47 43
22 48 43
22 47 43
21 47 43
22 48 44
22 48 44
21 47 43
22 48 44
22 48 43
21 46 42
22 49 44
22 48 43
22 47 43
21 47 42
22 49 44
23 50 45
21 47 43
21 47 43
22 48 43
21 47 42
21 47 42
21 47 42
22 48 43
22 47 43
22 49 44
21 46 42
22 47 43
22 48 43
60 67 60
187 164 146
210 184 164
216 189 168
222 194 172
227 199 177
229 202 180
230 202 180
201 177 159
107 96 88
38 40 43
38 40 43
36 38 41
35 37 40
34 36 38
33 35 38
31 33 36
29 31 34
25 27 29
20 25 27
21 47 42
21 47 43
22 48 43
21 46 42
21 46 42
21 47 42
22 47 43
22 47 43
22 48 44
22 48 43
21 46 42
22 48 44
22 48 44
21 47 42
22 47 43
22 48 43
21 46 42
22 48 44
22 48 44
22 47 43
21 47 43
21 46 41
21 47 42
22 48 43
22 47 43
20 45 41
21 46 42
22 48 43
22 48 44
22 49 45
69 54 44
110 66 48
152 81 54
168 87 57
140 76 52
110 67 49
45 51 44
21 47 43
22 48 43
21 47 42
22 47 43
21 46 42
21 47 42
22 49 44
21 47 43
21 46 41
21 47 42
21 47 43
22 48 44
21 47 42
21 45 41
22 47 43
21 46 42
21 47 42
21 47 43
21 47 43
21 46 42
21 46 42
21 47 42
20 45 41
22 49 45
21 47 43
22 48 43
22 47 43
21 47 43
21 46 42
21 47 43
21 47 43
21 47 43
21 47 43
21 46 42
22 49 45
21 47 42
21 46 42
21 47 43
21 46 42
20 45 41
21 46 42
21 46 42
20 45 41
21 46 42
21 46 42
21 46 42
21 47 43
21 46 42
21 46 42
21 45 41
21 45 41
21 47 43
21 46 42
21 47 43
20 45 41
20 45 41
21 47 43
21 46 42
21 45 41
21 46 42
21 46 42
20 45 41
21 46 42
21 46 42
21 46 42
21 46 42
21 47 43
21 47 42
21 47 42
21 46 42
21 46 42
21 47 42
21 46 42
20 45 41
20 45 41
21 47 43
21 46 42
21 46 42
21 46 42
21 46 42
22 48 44
21 46 42
22 48 43
21 46 42
22 48 44
22 49 45
21 47 42
22 47 43
22 48 44
21 47 43
22 48 43
21 47 43
21 46 42
22 49 44
22 47 43
23 50 45
22 48 43
21 47 43
22 48 44
22 49 45
23 50 45
23 49 45
22 48 43
21 46 42
22 48 44
22 48 44
22 49 44
22 49 44
22 49 44
22 49 44
23 49 45
22 47 43
22 48 44
22 49 44
22 48 44
22 48 43
22 49 44
23 50 45
23 50 45
22 48 43
22 47 43
22 48 44
21 47 42
22 48 44
22 48 44
21 46 42
22 48 44
22 48 44
21 46 42
22 49 44
22 48 44
22 47 43
21 47 43
22 47 43
21 47 42
21 46 42
22 48 44
21 47 43
21 47 43
21 46 42
22 48 44
23 50 45
21 47 42
49 60 54
178 157 139
197 173 153
208 182 161
214 187 166
217 189 168
196 173 155
125 112 102
53 51 51
140 124 113
149 131 118
136 120 108
132 117 106
101 89 81
33 35 38
31 33 35
28 30 32
27 28 31
23 25 28
40 41 39
21 47 42
20 45 41
21 46 42
21 46 42
21 45 41
21 47 42
21 46 42
21 46 42
21 46 42
22 48 43
21 47 43
22 48 43
21 47 42
21 46 42
22 48 44
21 46 42
22 47 43
21 47 43
22 48 43
22 47 43
22 48 43
22 47 43
21 46 42
23 49 45
21 46 42
21 47 42
21 47 43
21 46 42
104 74 59
209 105 66
255 121 72
255 124 73
255 124 73
255 122 72
252 121 71
248 119 70
227 110 66
155 81 53
69 54 44
21 47 43
22 48 43
21 46 42
22 47 43
21 46 42
21 47 42
22 47 43
21 45 41
21 46 41
21 45 41
22 48 43
21 47 43
22 47 43
22 48 44
21 47 43
21 47 42
22 48 43
22 48 43
22 48 43
21 47 42
21 47 42
21 47 42
22 48 43
21 47 42
22 47 43
21 47 43
22 48 43
21 45 41
22 47 43
21 47 43
21 47 43
21 46 42
21 47 43
22 48 44
21 45 41
21 47 43
21 46 42
21 47 43
21 46 42
21 47 42
21 46 42
21 47 42
21 47 43
21 47 43
22 47 43
21 46 42
21 46 42
21 46 42
21 46 42
20 45 41
21 45 42
22 48 44
21 46 42
21 47 43
21 47 43
21 47 42
21 46 42
21 47 43
20 45 41
21 46 42
21 47 43
21 47 43
21 47 43
21 47 43
20 45 41
21 46 42
21 47 43
21 47 43
22 48 44
20 45 41
21 45 41
21 47 43
22 48 43
21 47 42
20 44 40
21 47 43
21 46 42
21 47 43
20 45 41
21 47 43
22 49 44
21 47 42
21 47 43
22 49 44
22 49 45
22 49 44
23 50 45
22 49 44
22 48 43
22 48 43
22 47 43
22 49 44
22 47 43
22 49 44
22 48 43
22 49 44
22 48 43
22 47 43
21 47 42
22 48 44
22 48 44
23 50 45
21 46 42
21 47 42
22 49 44
23 50 45
22 48 43
22 48 43
22 49 44
22 48 44
21 46 41
22 48 44
22 49 45
22 49 44
22 48 43
22 49 45
22 48 43
22 48 43
22 48 44
22 48 44
22 48 43
22 49 44
22 48 43
22 48 43
22 47 43
21 47 43
22 48 44
22 48 43
22 49 44
22 47 43
22 48 43
21 47 42
22 47 43
21 47 42
22 49 44
22 48 43
21 46 42
22 49 44
22 48 43
21 47 43
21 47 42
22 48 43
96 86 77
149 130 115
158 138 123
147 129 115
87 78 72
34 36 38
54 51 49
148 130 116
164 143 128
199 175 156
199 175 157
182 161 144
128 110 98
89 80 73
29 30 32
26 27 29
22 23 25
20 21 23
61 58 53
19 42 39
20 44 40
21 45 41
21 46 41
21 47 43
23 50 45
21 47 42
22 47 43
21 47 42
21 47 43
21 46 42
22 48 43
21 47 43
21 45 41
22 48 43
21 46 42
21 47 43
21 46 42
21 46 42
22 47 43
22 49 44
22 47 43
22 49 44
21 47 43
22 47 43
21 46 42
37 55 50
179 105 78
255 126 76
255 126 74
255 127 74
255 126 74
255 125 74
255 124 73
255 123 73
251 121 71
247 118 70
240 115 68
215 105 63
106 64 47
21 47 43
21 47 42
22 48 43
22 49 44
21 45 41
21 46 42
21 46 42
21 47 43
21 47 42
22 47 43
21 46 42
21 46 41
21 45 41
21 46 42
21 47 42
21 46 42
21 47 43
21 47 43
21 46 41
21 47 43
22 47 43
22 48 44
21 47 43
22 48 44
22 47 43
22 48 43
21 47 43
21 47 43
21 45 41
21 47 43
21 46 42
21 47 43
21 47 43
21 46 42
21 47 43
22 48 44
21 47 43
21 46 42
20 45 41
20 45 41
21 47 43
21 47 42
20 45 41
21 47 43
22 48 43
21 46 42
21 47 43
20 45 41
21 47 43
21 46 42
21 47 43
20 45 41
21 47 43
21 46 42
21 47 43
21 47 43
21 46 42
20 45 41
21 45 41
21 47 43
21 47 43
22 47 43
21 47 43
21 46 42
21 47 43
21 45 41
21 47 43
20 44 40
21 47 43
21 46 42
21 46 42
21 46 42
22 48 44
21 46 42
21 46 42
21 46 42
21 47 43
21 47 43
21 46 42
23 50 45
22 49 45
21 46 42
22 48 44
23 50 45
21 46 42
22 48 43
22 48 44
22 48 43
22 49 44
22 49 44
22 49 44
22 48 44
22 48 44
21 47 42
21 46 42
22 48 44
22 47 43
22 48 44
22 48 44
22 48 43
22 49 45
22 47 43
22 47 43
22 48 43
22 49 44
21 47 42
22 48 44
23 49 45
22 48 43
21 47 42
22 47 43
22 48 44
21 46 42
22 48 43
22 48 43
21 46 42
21 47 43
22 48 44
22 48 44
21 47 42
21 47 43
22 48 43
22 48 44
22 49 44
22 48 43
21 46 42
22 48 44
21 47 42
22 48 43
21 47 42
21 46 42
22 47 43
22 49 44
21 47 43
21 47 42
22 47 43
21 47 43
22 48 44
21 47 42
21 46 41
21 45 41
24 33 32
27 28 30
30 31 33
32 33 35
31 33 34
33 35 37
106 94 84
151 132 117
187 164 145
116 102 90
186 163 145
177 155 137
163 142 126
112 99 88
25 26 27
23 24 25
19 21 23
51 48 44
75 72 66
17 38 35
18 40 37
19 42 38
19 43 39
20 45 41
21 47 43
21 47 42
21 47 42
22 48 44
22 47 43
21 47 42
22 48 43
22 47 43
22 47 43
21 46 42
22 48 43
21 46 42
21 47 43
22 48 44
22 48 44
22 48 43
23 50 45
21 47 42
21 46 42
21 47 43
44 58 52
200 111 79
255 124 72
255 128 75
255 128 75
255 127 75
255 127 75
255 126 74
255 125 74
255 123 73
253 121 72
249 120 71
243 117 70
237 114 68
217 105 62
129 72 50
22 47 43
21 46 42
21 46 42
21 46 42
22 48 43
21 46 42
22 49 44
21 46 42
21 47 43
21 46 42
21 45 41
21 46 42
22 48 43
21 47 42
21 47 43
21 47 43
21 47 43
21 46 42
21 46 42
21 46 42
21 46 42
21 46 42
20 45 41
21 47 43
21 46 42
21 46 42
21 46 42
22 48 43
21 47 43
22 47 43
21 47 43
21 47 43
21 46 42
22 48 44
21 46 42
21 47 43
21 47 43
20 45 41
22 48 44
21 46 42
21 46 42
21 46 42
21 46 42
21 46 42
21 46 42
21 47 43
20 45 41
21 46 42
21 46 42
21 45 41
22 48 43
21 46 42
20 45 41
21 46 42
21 47 42
21 46 42
20 45 41
20 44 41
22 47 43
21 47 43
21 46 42
21 46 42
21 46 42
21 46 41
21 46 42
22 47 43
21 46 42
21 46 42
21 47 43
21 46 42
21 46 41
21 46 42
20 44 40
20 45 41
22 47 43
20 45 41
21 46 42
20 45 41
22 48 43
22 48 44
22 47 43
22 48 43
21 47 43
22 49 44
22 47 43
22 49 44
22 49 45
23 50 45
22 47 43
22 47 43
22 48 43
22 49 44
21 47 42
22 47 43
22 48 44
22 48 43
23 49 45
22 48 43
22 47 43
22 47 43
22 49 44
22 48 44
22 49 45
22 48 44
22 48 43
22 48 44
22 49 44
22 47 43
22 49 45
23 50 45
22 49 45
22 48 44
22 48 44
22 49 44
22 49 44
22 49 44
21 47 43
22 49 44
22 49 44
21 47 43
22 48 43
22 48 43
22 47 43
22 47 43
21 46 42
22 47 43
22 48 43
21 47 43
22 47 43
21 46 42
22 49 44
21 47 42
21 47 42
21 47 42
21 46 42
21 47 42
21 46 42
21 46 42
21 47 42
21 45 40
21 39 36
25 26 27
27 28 30
28 29 30
29 31 32
29 30 32
108 95 85
172 151 133
177 156 137
103 90 79
121 106 93
166 145 129
154 135 120
103 89 79
23 24 26
17 19 20
32 29 27
90 82 74
40 47 42
15 35 33
16 36 34
17 38 35
18 40 36
19 42 39
20 45 41
21 47 42
21 47 43
22 48 43
22 47 43
22 48 44
21 46 41
21 46 42
21 46 41
21 46 42
22 49 44
21 46 41
21 47 43
22 48 43
21 47 43
21 46 42
22 48 44
22 47 43
22 47 43
29 50 45
197 120 92
255 123 71
255 128 74
255 128 75
255 128 75
255 128 75
255 127 75
255 126 74
255 125 74
255 123 73
251 139 100
242 157 127
235 166 141
231 156 130
223 137 107
206 100 61
95 61 46
22 48 43
22 47 43
21 47 42
22 47 43
22 48 43
22 48 44
21 46 42
22 48 44
22 47 43
21 47 42
21 46 42
21 47 43
21 47 43
22 48 43
21 46 42
21 45 41
21 47 43
22 48 43
21 47 43
22 49 44
21 47 43
21 47 43
21 47 43
21 47 43
22 48 44
22 47 43
22 48 43
21 47 43
22 47 43
22 48 44
21 47 43
21 46 42
21 47 43
21 47 42
21 46 42
21 47 43
21 47 43
21 46 42
21 46 41
21 46 42
21 47 42
21 46 42
21 46 42
21 47 43
21 45 41
21 46 42
21 47 43
21 46 42
21 46 42
21 46 42
21 47 43
22 47 43
22 48 44
21 47 43
22 48 44
21 47 42
21 47 43
21 47 43
21 47 43
21 46 42
21 46 42
21 46 42
20 45 41
21 45 41
21 47 43
21 47 42
21 46 42
21 46 42
20 45 41
20 44 40
21 46 42
21 47 43
21 47 43
21 47 43
21 46 42
21 47 43
21 46 42
22 48 43
22 48 43
22 48 43
22 49 44
22 49 44
23 50 45
22 48 43
22 48 43
22 47 43
21 47 42
22 48 44
22 49 44
22 49 44
23 50 45
22 49 44
22 49 44
21 47 43
22 48 43
21 47 42
22 47 43
22 48 43
23 50 45
21 47 43
22 49 45
22 48 44
22 48 44
22 49 44
22 48 43
22 49 44
23 50 45
23 50 45
22 48 44
22 48 43
22 49 44
22 48 43
22 47 43
22 47 43
22 48 44
22 49 44
22 48 43
22 48 44
22 49 44
22 48 44
21 47 43
22 48 44
22 48 43
22 48 43
22 49 45
22 47 42
22 48 43
22 48 43
21 47 43
21 46 42
22 48 43
22 48 43
22 47 43
22 48 43
21 46 42
22 48 43
21 46 42
21 47 42
20 45 40
21 46 41
19 24 23
24 25 26
25 26 27
26 27 28
27 28 30
90 80 70
145 127 111
159 139 121
148 130 114
52 46 40
119 105 92
127 112 98
76 69 61
16 17 18
30 30 28
74 67 58
64 60 53
13 30 29
14 33 31
15 34 32
16 37 34
18 40 37
19 42 39
20 44 40
21 46 42
21 46 42
22 48 43
21 46 42
22 47 43
21 47 43
22 48 43
21 47 43
22 49 44
21 47 42
21 47 43
21 47 43
22 48 43
22 48 43
21 47 43
21 47 42
21 46 42
21 47 43
132 89 71
247 118 70
255 124 72
255 128 75
255 129 75
255 128 75
255 129 77
255 131 79
255 128 76
255 145 106
245 188 164
235 208 189
230 206 189
225 202 185
220 197 181
214 192 176
199 170 155
171 109 87
35 48 43
22 48 44
22 47 43
22 48 44
21 47 43
21 46 42
21 47 43
21 47 43
21 47 42
22 48 44
22 48 43
22 48 44
22 48 44
21 46 42
21 45 41
21 47 43
21 46 42
21 47 43
21 47 43
22 47 43
22 48 43
21 46 42
21 45 41
21 47 43
21 47 43
21 46 42
22 49 45
22 48 44
21 47 43
21 46 42
21 45 41
22 49 44
22 48 43
21 47 42
22 47 43
21 46 41
21 47 43
21 46 42
21 46 42
21 46 41
21 47 43
21 46 42
20 45 41
21 47 43
21 46 42
22 47 43
21 47 42
21 46 42
22 47 43
21 47 43
21 46 42
20 45 41
21 46 42
21 46 42
22 47 43
21 46 42
21 47 43
21 47 43
20 45 41
21 47 43
21 46 42
20 45 41
21 47 43
21 46 42
21 46 42
21 46 42
21 47 43
21 45 41
20 45 41
22 47 43
20 45 41
21 46 42
21 47 42
21 46 42
21 46 42
21 47 43
21 46 42
22 48 43
21 47 42
22 48 43
22 47 43
21 47 42
22 49 44
23 50 45
23 50 45
22 48 44
22 48 44
23 50 45
22 48 43
22 49 45
22 49 44
22 48 44
22 48 44
22 48 43
22 48 43
23 49 45
22 48 43
22 47 43
23 49 45
22 49 44
22 48 43
23 50 45
21 46 42
22 48 43
22 48 44
23 49 45
22 48 44
22 49 44
22 49 44
22 47 43
22 48 44
22 48 44
22 48 44
22 48 43
23 49 45
21 46 42
22 47 43
22 48 43
22 47 43
21 47 42
22 48 44
22 49 44
21 47 42
22 49 44
22 48 44
22 48 44
22 47 43
21 46 42
21 47 42
22 48 44
22 48 43
22 47 43
21 47 42
21 46 42
22 47 43
21 46 41
22 48 43
21 46 41
21 46 41
21 47 42
19 38 35
17 19 20
20 21 22
22 23 23
22 23 24
42 39 36
98 86 74
137 120 104
127 111 96
106 94 81
94 84 73
85 76 67
45 40 36
38 36 32
70 62 53
55 54 46
35 41 38
14 32 31
14 32 30
14 33 32
15 35 33
18 39 36
19 43 39
20 43 39
21 46 41
21 47 42
22 48 44
21 47 42
20 45 41
21 47 42
21 46 42
21 46 42
21 46 42
22 49 44
21 47 42
21 46 42
21 47 42
22 48 44
22 48 43
22 48 44
20 45 40
21 47 42
217 114 77
253 119 69
255 124 72
255 127 74
255 128 75
255 131 78
255 155 106
255 173 124
255 181 147
242 213 193
238 212 193
234 209 190
230 205 188
225 202 184
220 197 181
210 189 174
197 177 162
177 156 144
104 80 69
21 47 42
22 48 44
21 47 43
22 48 44
21 46 42
21 47 43
22 48 43
21 47 43
22 48 43
21 46 42
21 47 43
22 48 44
21 47 43
22 48 43
21 46 42
22 48 43
21 47 43
22 48 43
21 46 42
21 47 42
22 48 43
21 46 42
21 47 43
21 46 42
20 44 40
21 46 42
21 47 43
21 46 42
21 47 43
21 47 42
21 47 43
21 47 43
22 48 44
21 46 42
21 45 41
21 47 42
22 48 43
21 47 43
21 46 42
21 47 42
22 48 43
21 46 42
21 47 42
21 46 42
22 48 44
21 47 43
21 46 42
21 47 43
21 47 43
21 46 42
21 47 43
21 47 43
21 47 43
21 47 43
21 47 43
21 47 43
21 46 42
21 47 43
21 46 42
21 45 41
20 45 41
21 47 43
21 46 42
21 46 42
20 45 41
22 48 44
22 48 44
21 46 42
21 47 43
20 44 40
21 46 42
21 46 42
21 47 42
21 46 42
20 45 41
21 47 43
23 50 45
22 49 45
22 49 44
21 47 43
22 49 44
22 49 44
22 47 43
22 48 43
21 47 42
22 49 44
22 49 45
22 48 43
22 48 44
22 48 43
23 50 45
23 50 45
22 48 43
22 49 44
23 51 46
23 49 45
22 48 43
22 48 44
22 48 44
23 50 45
22 49 44
22 48 44
22 49 44
21 47 42
22 49 44
22 48 44
22 48 44
22 48 44
22 48 43
22 49 44
22 48 44
22 49 44
22 48 43
21 46 42
22 48 43
22 49 44
22 48 43
22 49 44
22 47 43
22 49 44
22 49 44
22 47 43
22 49 44
21 46 42
22 47 43
22 48 44
21 46 41
22 47 42
22 47 43
22 48 43
22 48 43
22 47 43
22 48 43
21 46 42
21 45 41
21 46 42
21 46 42
20 44 40
21 46 41
20 43 38
16 31 28
12 14 14
14 15 15
16 17 16
17 18 18
47 43 37
72 64 54
79 71 59
75 68 57
54 50 42
38 36 30
41 40 33
40 43 35
46 47 39
24 31 27
12 27 26
12 28 27
13 30 29
14 32 30
16 36 34
18 39 36
19 43 39
20 44 40
21 45 41
22 47 43
21 47 42
21 47 42
21 46 42
21 46 41
21 46 41
22 47 43
22 49 44
22 47 42
22 47 43
22 48 43
21 47 42
21 46 42
21 47 42
21 47 43
22 48 44
109 75 60
240 113 65
254 119 68
255 123 71
255 126 73
255 127 74
255 135 83
255 184 134
255 239 199
255 233 209
241 214 194
236 210 191
233 208 189
230 205 186
224 200 182
217 194 177
207 184 169
193 173 158
177 160 148
138 121 111
22 47 43
22 47 43
21 47 42
21 47 43
20 45 41
21 46 42
21 46 42
21 47 43
21 47 43
21 46 42
21 46 42
22 47 43
21 47 43
21 47 42
21 45 41
22 48 43
22 48 44
20 45 41
21 47 42
22 48 43
21 47 42
21 47 43
22 48 43
21 47 43
21 46 42
21 46 42
21 46 42
21 46 42
22 48 44
21 45 41
21 47 43
20 45 41
21 47 43
21 46 42
21 46 42
21 45 41
21 46 42
21 47 43
21 47 42
22 47 43
21 46 42
20 45 41
21 46 42
21 46 42
21 46 42
21 46 42
21 46 42
22 48 44
20 45 41
21 47 43
22 48 43
21 47 43
21 47 42
21 47 43
21 46 42
21 47 43
21 47 43
21 46 42
21 47 42
21 46 42
22 48 43
20 45 41
21 45 41
21 47 43
21 46 42
21 45 41
21 46 42
22 48 44
21 46 42
21 47 43
21 46 42
21 47 43
21 46 42
21 46 42
20 45 41
20 45 41
22 48 44
22 48 43
22 48 44
23 50 45
22 49 45
22 48 43
22 48 43
22 48 43
22 49 44
22 47 43
22 48 43
23 49 45
22 48 43
22 48 44
22 49 44
21 47 42
22 48 44
22 49 44
22 47 43
22 48 43
22 47 43
22 48 43
22 48 44
22 48 43
22 49 44
23 50 45
22 48 44
22 48 43
22 47 43
22 48 43
21 47 43
22 49 44
22 49 44
22 47 43
23 49 45
22 49 44
22 48 43
22 48 44
22 48 44
22 47 43
22 47 43
22 49 44
22 48 44
22 48 43
21 47 42
22 48 43
22 48 43
21 45 41
21 47 43
23 50 45
22 48 43
22 48 43
22 48 43
22 47 43
21 47 42
22 47 42
21 46 42
22 47 42
21 47 42
21 45 41
20 45 40
21 45 41
20 43 39
19 40 36
17 36 32
13 27 25
7 11 10
8 9 8
8 10 9
8 10 9
9 11 10
11 13 11
14 14 11
26 28 21
39 40 30
39 42 32
31 34 26
14 24 21
11 25 24
12 28 26
13 29 28
13 30 29
15 34 32
17 38 35
18 40 37
20 44 40
21 46 41
21 46 41
21 46 41
21 46 42
21 45 40
21 47 42
21 47 43
22 47 43
22 47 43
21 46 42
21 46 42
22 48 43
21 47 43
22 48 43
21 47 42
22 48 43
21 47 43
22 48 43
145 83 60
236 111 63
243 114 66
254 119 69
255 122 71
255 123 71
255 129 77
255 179 143
255 232 207
246 217 196
238 211 191
235 208 189
230 204 186
226 201 183
221 197 179
211 188 172
201 179 164
190 170 157
173 156 144
142 130 121
54 62 57
21 47 43
22 47 43
22 48 43
21 47 43
21 47 43
21 45 41
22 47 43
21 47 43
21 47 43
21 46 42
21 47 43
21 46 42
21 47 43
21 47 43
21 46 42
21 46 42
21 47 43
21 46 42
21 47 43
21 46 42
20 45 41
21 47 42
21 47 42
21 47 43
21 45 41
21 47 43
21 46 42
21 47 43
22 48 43
22 48 43
21 47 42
21 47 42
21 46 42
21 47 43
22 47 43
22 48 44
21 47 43
21 47 43
21 47 42
21 46 42
21 45 41
21 46 42
21 47 43
22 48 44
22 48 44
21 47 43
21 46 42
21 47 43
21 47 43
21 47 43
21 47 43
21 46 42
21 47 43
21 47 43
21 46 42
22 48 44
21 47 43
21 46 42
21 46 42
21 45 41
21 46 42
22 47 43
22 48 43
21 46 42
21 47 43
20 45 41
21 46 42
21 46 42
20 45 41
20 44 40
21 47 43
21 45 41
20 45 41
20 45 41
21 46 42
22 49 44
22 48 44
22 48 43
22 48 44
23 50 45
22 49 45
22 48 43
22 48 44
22 49 44
21 46 42
23 50 45
23 50 45
21 47 43
22 47 43
22 49 44
21 46 42
22 48 43
22 49 44
21 47 43
21 47 42
22 49 44
22 48 43
22 47 43
22 48 44
22 48 44
22 48 44
23 49 45
22 48 44
22 49 44
23 50 45
22 48 43
22 49 44
22 48 43
22 48 44
23 49 45
21 47 43
22 48 43
22 48 43
22 49 44
22 49 44
23 50 45
22 47 43
22 49 44
22 47 43
22 48 43
22 47 43
22 49 44
22 49 44
23 50 45
22 49 44
21 47 43
22 47 43
22 48 43
22 48 44
21 46 41
21 46 41
22 47 42
20 44 40
21 46 41
21 46 41
20 44 39
20 44 39
19 42 37
19 42 37
17 37 33
13 29 27
9 21 19
7 14 13
8 11 9
15 15 11
18 21 16
29 30 22
34 36 26
40 40 29
33 35 25
28 29 22
11 21 19
9 21 19
11 25 23
11 27 25
13 30 28
15 33 30
18 39 35
19 41 37
20 44 40
21 46 41
21 45 40
22 48 43
21 46 42
21 46 42
21 46 42
21 46 42
22 48 43
21 47 42
21 47 42
21 47 42
22 48 44
22 47 43
21 47 42
22 47 43
21 47 42
21 47 42
22 47 43
21 47 43
172 87 55
222 104 59
240 112 64
249 117 67
252 118 68
254 119 69
252 136 95
239 205 183
237 209 187
235 208 187
233 206 186
227 201 181
224 198 180
219 195 177
210 186 169
207 183 166
196 175 160
178 160 147
160 145 134
133 121 113
74 78 72
21 46 42
21 46 42
21 46 41
21 47 43
21 47 43
21 47 43
21 47 43
21 47 43
21 46 41
22 47 43
21 47 42
21 47 43
22 48 43
21 47 43
21 47 42
21 47 43
22 47 43
20 45 41
21 47 43
21 47 42
21 46 42
21 46 42
21 47 43
22 47 43
22 48 43
21 46 42
22 48 43
22 47 43
21 46 42
21 47 43
21 46 42
21 47 43
21 46 41
22 48 43
21 46 42
22 47 43
21 47 43
21 47 42
21 46 42
21 47 42
21 45 41
21 46 41
21 46 42
21 47 42
21 46 42
21 45 41
21 45 41
20 45 41
21 47 43
21 47 43
21 47 43
21 46 42
21 47 43
21 47 42
21 45 41
22 48 43
21 47 42
21 46 42
21 47 43
21 46 42
21 45 41
21 45 41
20 45 41
21 45 41
20 44 40
21 47 43
21 46 42
21 46 42
21 46 42
21 47 43
20 45 41
21 47 43
21 46 42
21 46 42
21 47 43
21 47 43
22 49 45
23 50 45
22 47 43
22 48 44
23 49 45
23 50 45
22 48 43
22 49 45
23 51 46
22 48 43
22 48 43
22 48 44
22 49 44
22 48 44
22 48 43
22 48 43
21 47 43
22 48 44
22 48 43
22 48 44
22 48 43
23 49 45
21 47 43
23 49 45
22 49 44
22 49 44
23 50 45
22 48 43
21 47 43
22 48 44
22 48 43
22 48 44
22 48 44
22 48 44
22 47 43
22 48 44
22 48 44
22 48 43
22 48 43
22 48 43
21 47 43
22 47 43
22 49 44
22 48 44
22 48 44
22 48 43
22 48 43
21 46 42
22 47 43
22 48 43
21 47 42
21 47 42
21 46 42
22 48 43
21 46 41
21 47 42
21 45 41
21 45 41
21 45 40
21 45 40
21 45 41
20 43 39
19 42 37
19 41 36
17 38 33
14 30 27
10 23 21
9 19 17
14 18 15
23 25 19
16 21 17
15 19 15
14 18 15
8 18 17
8 19 17
9 21 20
11 25 23
12 28 26
14 31 28
16 36 32
18 39 35
19 42 38
20 44 39
21 45 40
21 46 42
21 45 41
21 46 41
21 47 42
21 46 41
21 47 42
21 46 42
22 47 42
21 47 42
21 46 41
21 46 41
21 47 42
21 47 42
21 45 41
22 48 43
21 47 42
21 47 42
21 47 42
21 46 41
162 80 49
225 105 60
226 105 60
238 112 64
240 112 65
248 117 67
239 176 150
225 198 176
227 200 179
225 198 178
222 195 175
222 197 177
214 190 171
211 187 170
199 176 160
185 164 148
182 163 148
166 149 136
151 136 125
126 116 108
67 71 66
21 46 42
21 47 42
21 47 43
22 48 43
22 47 43
22 48 43
21 46 42
21 46 41
21 45 41
21 46 42
21 46 42
22 48 43
22 48 44
22 48 43
21 46 42
21 46 42
21 47 43
21 46 41
21 47 42
21 47 43
22 48 43
21 47 42
22 48 44
21 46 42
21 47 43
22 48 43
21 46 41
22 48 44
21 46 42
20 45 41
21 45 41
21 46 42
21 46 42
22 48 43
21 47 43
51 60 58
110 105 95
106 102 93
85 86 79
44 56 51
21 47 42
21 47 42
22 47 43
22 48 44
21 47 43
21 46 42
21 46 41
22 48 44
21 47 43
22 47 43
21 46 42
21 46 42
21 46 42
21 46 42
21 46 42
21 46 42
21 45 41
21 46 42
22 48 44
21 47 42
21 47 43
21 47 43
21 45 41
21 45 41
21 46 42
21 46 42
21 46 42
21 45 41
21 46 42
21 45 41
21 47 43
21 47 42
21 46 42
21 45 41
20 45 41
22 48 44
22 48 43
22 48 44
22 48 44
22 49 44
22 48 44
23 50 45
22 49 44
22 48 43
22 47 43
22 49 44
23 50 45
23 50 45
22 49 44
22 49 45
22 49 44
22 49 44
22 49 44
23 50 45
22 48 44
22 48 44
22 48 43
23 50 45
22 49 44
23 50 45
22 48 44
22 49 44
22 48 43
22 48 43
22 49 44
22 48 44
21 46 42
22 48 43
22 49 44
23 50 45
23 49 44
22 48 43
22 48 43
22 48 43
21 47 42
22 49 44
22 47 42
22 49 44
22 48 43
22 48 44
23 51 46
22 47 42
22 47 43
22 48 43
21 47 42
22 48 43
22 47 42
22 47 43
21 46 41
21 46 42
22 47 43
22 49 44
21 45 40
21 46 41
21 46 41
22 47 42
21 45 40
20 44 39
20 42 37
20 42 38
19 40 35
19 40 35
17 36 32
15 33 30
13 29 26
12 26 23
12 26 23
11 25 23
11 24 22
12 26 24
13 29 26
15 32 29
16 35 32
18 39 34
19 41 37
21 45 40
21 45 40
20 44 39
21 45 40
21 45 40
21 46 41
21 46 41
22 47 42
21 47 42
21 45 41
22 47 43
21 46 41
22 48 43
22 49 44
21 46 42
22 47 42
21 46 42
21 46 42
21 47 42
22 47 43
22 48 43
21 46 41
21 47 43
21 46 41
157 78 48
202 94 53
215 101 57
224 105 60
234 110 63
234 117 74
217 186 164
217 190 169
217 191 170
216 190 170
212 187 168
208 183 164
203 180 161
198 175 158
193 171 155
182 161 146
165 147 133
154 138 126
134 122 112
118 109 101
65 70 65
21 45 41
21 46 42
22 47 43
21 45 41
21 46 42
21 46 42
21 46 42
21 46 42
22 48 44
22 47 43
21 47 42
21 47 42
21 46 42
22 48 44
22 48 44
21 47 43
22 48 44
21 46 42
22 47 43
21 46 42
21 47 43
21 47 42
21 47 43
22 48 44
22 48 44
21 46 42
21 46 41
22 48 43
21 47 43
21 46 42
21 47 42
21 46 42
46 52 59
79 59 86
93 64 100
160 133 142
235 209 191
233 208 190
228 204 187
216 194 178
185 168 154
112 108 99
25 47 43
21 46 42
21 46 42
21 45 41
20 45 41
21 46 42
21 47 43
21 47 42
21 45 41
21 46 42
20 45 41
21 46 42
21 46 42
21 46 41
21 46 42
21 47 43
21 46 42
22 48 44
21 47 43
21 47 43
21 46 42
21 46 42
21 47 43
22 48 44
21 46 42
21 47 43
21 46 42
21 47 43
21 47 43
21 46 42
21 46 42
21 46 42
21 47 43
22 49 44
22 49 45
22 48 43
23 50 45
23 50 45
22 49 44
22 47 43
22 49 44
23 49 44
22 48 43
22 48 44
22 48 44
23 50 45
22 48 43
22 49 44
22 49 44
22 48 43
23 50 45
22 49 44
22 49 45
22 48 44
22 49 44
22 49 44
22 49 44
23 49 45
23 49 45
22 48 44
22 48 44
22 49 44
23 50 45
22 47 43
22 49 44
23 49 45
22 48 43
22 48 43
23 50 45
21 47 42
22 47 43
22 48 43
21 47 42
23 50 45
22 49 44
22 48 43
22 48 44
22 47 43
22 49 44
23 49 45
22 48 44
22 49 44
23 49 45
21 47 42
22 47 43
22 48 44
20 44 40
21 46 42
21 46 41
21 47 42
21 47 42
21 46 41
21 45 41
21 47 42
21 47 42
21 46 41
20 43 38
21 44 39
20 42 37
20 43 38
19 41 37
19 42 37
20 42 37
19 41 36
18 40 35
20 42 37
18 39 34
19 41 36
20 43 38
20 43 38
20 44 39
20 44 39
21 45 40
21 44 40
21 45 40
21 46 41
21 46 41
22 47 42
21 45 40
22 47 42
21 47 42
21 45 41
21 47 42
21 47 42
21 46 41
22 47 43
22 48 44
21 47 42
22 47 43
21 47 42
21 46 41
21 45 41
21 47 42
22 48 43
22 47 42
21 47 42
22 47 42
127 68 44
194 91 51
200 93 53
215 100 57
222 104 60
216 133 103
209 183 162
208 182 162
202 177 157
207 182 162
201 178 159
199 176 157
188 166 148
180 159 143
179 158 142
166 148 133
159 142 129
135 121 111
113 104 96
110 101 93
41 52 48
20 43 40
20 44 40
20 45 41
21 47 43
20 45 41
21 45 41
21 47 42
21 47 42
22 48 43
21 47 42
21 46 42
21 47 43
21 47 43
21 47 42
21 46 42
22 47 43
22 48 44
21 46 42
22 48 43
21 45 41
21 47 43
21 46 41
21 46 42
21 46 41
21 47 42
21 46 42
21 47 42
21 47 42
21 45 41
21 45 41
30 48 47
80 59 86
102 67 107
104 68 110
103 68 110
130 102 125
239 213 195
236 211 193
233 208 191
228 204 188
223 201 184
217 195 180
185 168 155
78 80 74
21 47 42
22 48 44
21 46 42
21 47 43
22 49 45
21 47 43
21 46 42
22 48 43
20 44 40
21 47 42
21 46 42
21 47 43
21 46 42
21 47 42
21 47 43
21 46 42
21 46 41
21 46 42
21 46 42
21 46 42
21 47 43
20 45 41
21 46 42
21 47 43
21 47 43
21 46 42
22 48 43
21 47 43
21 47 42
21 47 43
21 46 42
22 48 43
22 48 44
22 48 43
22 48 43
22 48 43
22 49 44
22 48 44
22 49 44
22 49 44
23 50 46
23 49 45
23 50 45
23 50 45
22 48 44
21 47 43
22 49 44
22 48 43
22 48 44
22 49 45
22 48 44
22 48 44
22 49 44
22 48 44
22 48 44
23 49 45
23 50 45
22 49 44
23 50 45
22 47 43
22 48 44
22 48 43
23 50 45
22 49 44
21 47 42
22 49 44
22 49 44
22 48 44
22 48 44
22 47 43
22 48 44
22 48 43
23 50 45
22 48 43
22 48 44
21 47 42
23 49 44
22 49 44
23 49 45
22 48 44
23 49 45
22 47 43
22 48 43
22 48 43
21 47 42
22 49 44
21 47 42
22 47 42
22 47 43
22 48 43
21 46 41
20 44 39
20 44 40
20 43 38
21 45 40
21 45 40
20 43 39
20 44 39
19 42 37
20 43 38
20 44 39
20 43 38
20 44 39
20 44 39
20 44 39
20 44 39
21 45 40
20 44 39
21 46 41
21 46 41
21 45 40
21 45 40
21 45 40
21 45 41
21 46 41
21 47 42
22 48 43
21 46 42
21 46 41
21 46 42
22 48 43
22 48 44
21 46 42
21 47 42
22 48 44
22 47 43
22 47 43
21 45 41
22 48 43
21 47 42
21 47 42
22 47 43
21 46 41
20 45 40
21 46 41
83 54 41
165 77 43
187 87 49
201 94 53
202 94 53
195 140 116
195 171 151
193 169 149
189 166 146
190 167 148
178 157 138
183 162 144
177 157 141
169 149 133
160 142 127
147 130 117
138 124 113
111 102 93
107 98 90
97 90 82
17 38 36
18 40 37
17 39 36
18 40 37
19 43 39
20 44 40
20 45 41
21 45 41
21 46 42
22 48 43
22 47 43
21 47 42
21 45 41
22 47 43
21 47 43
21 46 42
21 46 42
22 47 43
21 46 42
21 46 42
21 47 42
21 47 42
21 47 43
21 47 43
21 46 42
21 47 42
22 48 43
22 48 44
22 48 44
21 46 41
44 49 56
91 62 95
104 68 109
105 69 111
105 69 111
104 69 111
103 68 111
208 182 174
238 212 195
234 210 192
230 206 190
225 203 187
220 198 183
214 193 178
199 180 167
116 110 102
20 45 41
22 47 43
22 48 43
21 47 42
22 48 43
21 47 42
21 46 42
21 47 43
21 46 42
21 47 43
21 46 42
21 46 42
21 46 42
21 46 42
21 47 43
21 46 42
21 45 41
21 45 41
21 46 42
21 46 42
21 46 42
21 47 43
21 47 43
22 48 44
21 46 42
21 46 42
21 47 43
21 47 43
21 46 42
21 45 41
22 49 44
22 47 43
22 49 44
22 49 44
22 48 43
23 50 46
21 47 43
22 49 44
22 49 44
23 50 45
22 49 44
22 48 44
22 49 44
22 49 45
22 48 43
23 49 45
22 49 44
22 49 44
22 47 43
21 47 43
22 48 44
22 48 44
23 49 45
22 47 43
22 48 44
23 50 46
23 50 45
23 50 45
22 49 44
21 47 43
22 49 44
23 50 45
22 49 44
22 49 44
22 48 44
22 48 43
22 49 44
23 50 45
22 47 43
22 49 44
22 49 44
22 48 44
22 49 45
22 49 44
22 48 43
22 48 43
22 47 43
22 48 43
21 47 42
22 48 43
22 48 44
22 48 43
22 47 43
23 49 44
22 47 43
22 49 44
22 48 43
21 46 42
21 45 41
21 45 40
22 47 43
21 45 41
21 47 42
21 46 42
21 46 41
21 45 40
21 47 42
21 45 40
21 46 41
21 46 41
20 44 40
21 45 40
21 45 40
21 45 40
21 45 40
21 47 42
21 46 41
21 45 41
20 45 40
22 47 42
21 46 42
21 46 41
21 45 41
21 47 42
22 49 44
21 46 41
21 46 41
22 47 43
22 47 43
22 48 43
22 47 43
22 47 43
21 45 41
22 48 43
21 46 42
21 47 42
21 46 42
21 46 42
21 47 42
22 47 43
20 45 40
21 47 42
20 44 40
21 47 42
24 46 41
144 69 40
167 78 44
179 84 47
184 86 48
180 128 105
175 153 134
178 156 137
175 154 136
175 154 136
171 150 133
167 147 131
164 145 130
149 132 118
136 121 108
130 115 104
105 96 86
109 100 91
104 93 84
58 58 53
14 33 32
15 34 32
17 38 35
18 39 37
19 42 38
18 41 38
20 44 40
20 45 41
20 44 40
21 45 41
22 47 43
21 46 42
21 47 42
21 46 42
21 46 42
21 47 42
21 46 41
22 48 44
22 49 44
21 46 42
22 48 43
21 46 42
21 46 42
22 48 44
21 46 42
22 48 44
22 48 44
22 48 44
21 46 42
35 48 50
90 61 93
105 68 109
106 69 111
106 69 112
105 69 112
104 69 111
103 68 111
144 117 134
238 213 195
235 210 193
231 207 190
227 204 188
222 200 184
216 195 180
210 189 175
190 172 160
112 107 100
22 48 44
21 46 41
21 46 42
21 47 42
21 46 42
21 47 43
22 48 43
21 47 43
21 47 43
21 45 41
21 47 43
22 49 44
21 46 41
21 46 42
21 47 43
21 46 41
21 46 42
21 45 41
21 46 42
21 47 43
21 46 42
21 46 42
20 45 41
21 46 42
21 47 43
21 46 41
21 46 42
21 47 43
21 46 42
22 48 44
22 47 43
22 49 44
22 49 44
23 49 44
22 49 44
22 48 43
22 49 44
22 48 43
23 50 45
23 51 46
22 48 44
23 50 45
22 48 43
22 49 44
23 49 45
23 49 45
23 50 45
22 48 43
22 49 44
22 49 44
22 48 44
22 48 44
22 49 44
22 48 44
23 50 45
23 50 45
23 49 45
22 49 44
22 47 43
23 49 45
22 48 44
22 49 44
23 50 46
22 49 44
22 49 44
23 50 45
22 49 44
22 47 43
22 48 44
23 49 45
23 49 45
22 48 44
21 47 42
22 49 44
23 49 45
21 46 42
22 49 44
22 47 43
22 48 44
22 48 44
23 50 45
22 48 43
22 49 44
22 48 44
22 48 43
21 47 42
22 48 43
21 45 41
22 48 43
22 48 43
21 47 42
21 46 42
21 46 42
21 46 42
21 45 41
21 45 41
21 46 42
21 45 41
22 47 42
22 47 42
21 45 41
21 46 41
21 45 40
21 45 41
22 47 42
22 47 42
22 49 44
22 48 43
22 48 43
22 48 44
22 47 42
22 49 44
21 46 42
21 47 42
22 49 44
21 47 42
22 48 44
21 46 42
22 48 43
21 46 41
21 47 42
22 47 43
21 46 42
22 48 44
21 46 42
21 45 41
22 47 42
22 48 43
21 46 42
21 46 42
21 46 42
21 45 41
22 48 43
20 44 39
80 50 36
138 65 36
152 71 39
173 81 45
163 118 97
159 139 120
160 140 122
154 135 118
152 134 118
153 135 119
145 128 113
138 123 109
132 118 106
122 110 98
107 97 88
89 82 74
90 83 75
77 72 65
24 35 33
14 32 31
14 33 31
15 34 33
16 35 33
17 38 36
19 42 38
19 42 38
19 43 39
20 44 40
20 44 40
21 46 42
21 46 42
22 48 43
22 47 43
21 46 41
21 47 42
22 47 43
21 47 42
22 47 43
22 48 43
21 47 42
21 47 42
21 47 42
21 47 43
21 47 43
22 48 43
21 46 42
21 46 42
25 48 45
87 60 91
102 67 106
105 68 109
107 70 112
106 70 112
105 69 112
105 69 112
104 69 111
103 68 110
202 177 170
235 210 193
232 207 190
227 204 187
222 200 184
217 196 181
211 190 176
200 181 168
175 159 148
69 75 70
21 47 43
21 47 43
21 47 42
21 46 42
21 46 42
21 47 43
21 47 42
21 47 43
21 46 42
21 46 42
21 46 42
21 46 42
21 46 42
21 47 43
21 47 43
21 47 43
22 48 43
21 46 42
21 46 41
21 46 42
21 46 42
21 46 42
22 48 44
20 44 40
22 47 43
21 46 42
21 47 43
21 47 43
23 50 45
23 50 45
22 49 44
22 48 43
22 49 44
22 48 43
22 49 44
22 48 44
23 51 46
22 48 43
22 49 45
23 51 46
21 47 42
23 50 46
22 47 43
22 49 44
22 49 44
22 49 44
23 49 45
22 48 44
22 47 43
22 48 43
23 50 45
22 49 44
22 48 43
22 48 44
22 48 44
22 49 44
23 50 45
22 49 44
22 48 44
22 47 43
22 48 43
22 48 43
22 48 43
21 47 42
23 50 45
22 48 43
22 47 43
22 49 44
21 46 42
22 48 43
22 48 43
23 50 45
21 47 42
23 49 45
22 49 44
22 49 44
22 48 43
21 47 42
22 48 44
22 47 43
22 48 43
22 47 43
22 48 43
22 48 43
22 48 43
22 48 43
22 47 43
21 47 42
22 48 43
22 47 42
22 47 43
21 46 42
21 46 41
23 50 45
22 48 43
21 46 41
22 47 43
21 46 41
21 46 42
22 47 42
22 48 43
22 47 43
23 49 44
22 49 44
21 46 41
22 48 43
22 48 44
22 47 43
21 46 42
21 46 41
22 47 43
22 48 43
22 47 42
22 48 44
22 48 44
21 45 41
21 47 43
21 47 43
22 48 43
22 47 42
21 46 42
22 47 43
22 48 43
22 48 43
22 47 42
21 46 42
22 48 43
21 46 41
22 47 42
21 46 42
21 45 40
21 45 40
20 44 39
23 46 40
89 49 32
120 57 31
135 63 35
137 89 68
139 121 104
131 115 99
134 118 102
126 111 96
120 107 92
116 104 91
107 97 85
100 92 82
74 71 63
67 64 56
71 67 59
64 61 54
47 49 44
13 30 29
13 31 29
13 30 29
13 31 29
16 36 34
16 37 35
18 39 37
19 42 38
20 43 39
20 44 40
20 44 40
21 47 43
22 48 43
20 45 41
21 46 42
21 47 43
21 46 42
22 49 44
21 46 42
21 46 42
21 45 41
22 47 43
21 46 42
22 47 43
21 47 42
21 46 42
21 46 42
22 47 43
21 45 41
58 51 66
97 63 99
102 67 105
105 69 109
107 70 111
106 70 112
111 76 114
125 93 123
122 90 121
106 72 111
125 96 122
226 201 186
232 207 190
226 203 187
222 200 184
217 195 180
210 189 175
201 180 167
184 166 153
131 123 116
21 45 41
21 46 42
21 47 43
22 48 44
20 45 41
22 48 43
21 46 42
21 47 42
21 46 42
21 46 42
21 46 42
21 46 42
22 48 44
21 46 42
21 47 43
21 46 42
21 45 41
21 46 42
21 47 43
20 45 41
22 47 43
21 46 41
22 48 43
21 46 41
21 47 43
21 46 42
20 45 41
21 47 43
22 48 44
21 47 43
23 50 45
22 49 44
23 49 45
23 51 46
22 49 44
22 49 44
22 47 43
23 51 46
22 49 44
23 50 45
23 50 46
23 51 46
22 49 44
22 48 43
22 48 44
22 48 44
22 49 44
22 48 43
23 51 46
22 48 44
22 49 44
23 50 45
22 49 44
23 50 45
22 49 44
21 47 42
22 48 44
22 48 44
22 49 45
22 48 43
23 50 45
22 49 44
22 47 43
23 49 45
22 48 44
22 48 44
22 47 43
21 47 43
22 48 44
23 50 45
22 49 44
22 49 44
21 47 42
22 47 43
22 49 44
22 47 43
23 51 46
22 49 44
23 51 46
23 50 45
22 49 44
22 48 43
22 48 44
22 48 43
23 49 44
22 48 43
22 47 42
22 47 43
21 47 42
22 48 43
22 47 43
22 48 44
21 47 42
22 47 43
21 47 42
22 48 43
21 46 42
21 46 42
21 46 42
21 46 41
22 47 43
22 47 42
22 47 43
23 50 45
22 47 43
21 46 41
21 46 42
21 47 43
22 48 43
22 48 43
21 47 42
21 47 42
21 47 42
22 47 43
22 47 42
21 47 42
22 47 43
22 47 42
23 49 44
21 47 43
22 47 43
22 48 43
21 45 41
21 46 42
22 48 43
21 47 42
22 48 43
22 47 42
20 44 40
21 44 40
21 45 40
21 45 40
20 43 38
19 41 36
29 40 35
77 42 26
81 40 21
103 51 29
103 91 76
99 88 73
103 91 77
105 94 80
90 82 70
85 77 66
71 68 58
67 65 56
56 56 48
48 50 43
45 46 37
33 37 33
12 27 26
13 28 27
13 31 30
13 31 29
14 32 30
15 34 33
17 37 35
18 40 37
20 43 40
20 44 40
21 46 41
21 46 42
21 46 41
21 47 43
21 46 42
21 46 41
22 48 43
21 47 42
21 46 41
21 45 41
21 47 42
21 47 43
22 48 44
22 47 43
22 47 43
21 46 42
20 45 41
22 47 43
21 46 42
21 47 43
91 68 88
99 64 102
102 66 105
104 67 107
105 69 110
109 73 112
141 110 132
195 167 169
171 143 152
115 83 116
101 67 108
160 135 142
231 206 188
227 203 186
221 198 183
217 195 179
212 188 173
201 180 167
183 165 153
162 145 135
65 70 65
21 47 43
21 46 41
21 45 41
21 47 43
22 48 44
21 47 43
21 46 42
21 46 42
21 45 41
21 45 41
21 47 42
22 48 43
21 46 42
21 46 42
22 48 43
21 45 41
21 46 42
21 47 43
21 47 43
21 46 42
20 45 41
21 46 42
22 47 43
22 48 43
21 45 41
21 47 43
21 46 42
22 49 44
23 51 46
22 48 44
22 48 43
23 50 45
22 48 43
23 50 45
22 49 44
22 49 44
22 49 44
23 50 45
22 49 44
22 49 44
23 50 45
22 48 43
22 48 43
22 49 44
23 50 45
22 49 45
22 48 43
22 48 44
22 47 43
22 48 43
22 48 43
22 49 44
22 49 44
22 49 44
22 48 43
22 49 44
23 51 46
23 49 44
22 49 44
22 49 44
22 49 44
22 48 44
22 48 43
21 47 42
22 49 44
22 48 43
22 47 43
22 49 44
22 48 43
22 48 44
23 49 44
22 48 44
23 50 45
23 50 45
22 47 43
22 48 43
22 48 43
22 49 44
22 48 43
21 46 42
22 47 43
22 48 43
22 48 44
22 48 44
21 47 42
22 48 43
22 49 44
22 47 43
21 47 42
22 47 43
22 48 43
22 48 43
22 48 43
22 48 43
22 48 43
22 48 44
22 49 44
22 47 42
22 48 43
22 48 44
21 46 42
22 48 43
22 47 42
22 49 44
21 46 42
22 47 43
22 48 43
22 49 44
22 48 43
21 47 42
22 48 43
22 47 43
22 49 44
22 49 44
21 47 42
22 49 44
21 46 41
22 48 44
22 48 43
21 46 42
21 46 42
21 46 42
21 46 42
21 46 42
22 47 43
21 45 40
21 46 41
22 48 43
21 45 40
21 45 40
21 45 40
21 44 39
19 41 37
19 40 36
16 34 30
39 28 19
53 28 14
56 43 32
65 60 47
52 51 40
51 51 39
56 54 42
48 49 38
47 48 38
44 45 35
35 41 31
30 35 26
19 29 25
11 24 23
11 26 25
12 27 26
13 29 28
14 31 30
14 33 31
15 34 32
17 37 34
19 41 38
20 44 41
20 45 41
21 46 42
21 46 42
21 47 42
21 45 41
21 47 42
21 46 42
22 47 42
22 47 43
21 46 42
21 46 42
20 45 41
21 46 41
21 47 43
21 47 42
21 46 42
21 46 42
21 46 42
21 46 42
21 47 42
76 78 70
140 115 119
96 62 97
100 65 102
102 66 106
103 67 106
108 73 111
149 119 137
195 167 169
157 129 143
112 79 114
101 67 107
99 65 106
182 158 155
226 201 184
221 198 181
216 193 177
208 184 169
198 177 163
183 163 149
162 145 135
109 102 96
21 47 42
21 46 42
22 48 43
21 46 42
21 47 42
21 45 41
21 46 42
21 47 43
20 45 41
20 45 41
21 47 42
21 46 42
21 45 41
21 46 42
21 46 42
22 48 43
20 45 41
21 46 42
21 47 43
21 47 43
21 46 42
20 44 40
21 47 43
21 47 43
21 47 43
21 47 43
21 46 42
22 48 43
22 48 43
23 51 46
22 48 43
22 49 45
22 49 44
23 50 45
23 50 45
22 48 43
23 49 45
22 48 44
23 49 45
22 48 44
22 48 43
22 47 43
22 49 44
23 50 45
23 50 45
22 49 44
23 50 45
23 49 44
23 49 45
22 48 43
22 48 44
23 49 44
22 49 44
22 48 44
22 48 44
23 50 45
22 49 44
22 47 43
22 49 44
22 49 44
22 48 43
22 48 44
22 48 43
22 47 43
23 50 45
22 49 44
22 49 44
22 48 43
22 48 43
22 49 44
22 49 44
23 49 44
22 48 43
22 49 44
22 49 44
22 48 43
23 49 44
22 49 44
21 47 42
22 48 43
22 47 43
22 48 43
22 49 44
22 48 43
21 46 42
21 47 43
22 48 43
23 50 45
22 47 43
21 47 43
22 49 44
21 47 42
22 48 43
22 49 44
21 46 42
23 49 44
22 49 44
22 49 44
22 48 44
22 47 43
22 47 42
21 45 41
22 48 43
21 47 42
22 48 43
22 47 43
21 47 42
21 47 42
22 48 44
21 46 42
22 47 43
22 48 43
21 47 42
22 47 43
21 46 42
22 47 43
22 48 44
22 47 43
21 47 42
22 47 42
22 48 43
21 46 42
22 47 42
22 48 43
22 47 43
21 46 41
21 45 41
21 46 41
22 47 42
21 45 40
21 44 39
20 43 38
20 42 37
19 40 35
17 36 31
13 28 26
27 22 17
39 22 11
40 31 20
37 39 28
41 42 31
41 42 30
41 43 31
40 42 30
35 37 27
31 33 25
14 22 19
10 22 21
11 26 25
12 27 25
12 27 26
13 29 28
14 31 30
15 35 32
17 37 34
18 39 35
19 43 39
21 45 40
21 45 41
21 45 41
21 46 41
21 46 42
21 46 42
22 47 43
21 47 42
21 46 42
21 45 41
21 47 42
21 46 42
21 47 42
22 48 43
21 47 42
21 46 42
21 47 42
21 45 41
21 47 42
21 47 42
21 47 43
123 113 100
177 149 139
94 60 94
97 63 99
98 64 100
101 66 105
103 68 106
114 82 113
124 94 121
114 82 114
102 68 107
99 65 106
98 65 105
106 77 109
211 187 174
217 194 178
210 187 172
202 181 166
191 170 157
180 159 146
157 141 131
122 113 105
21 46 42
21 45 41
22 47 43
21 47 43
22 48 44
21 47 43
21 47 42
21 46 41
21 46 42
21 45 41
21 46 42
21 47 43
21 47 43
21 46 42
21 47 42
21 46 42
21 46 42
21 46 42
22 47 43
21 46 42
21 46 42
21 47 42
21 45 41
20 44 40
20 45 41
21 46 42
21 47 42
22 48 44
23 50 45
23 50 45
23 50 45
22 49 44
22 48 43
22 48 44
22 48 43
22 48 44
22 48 44
22 49 44
22 47 43
22 48 44
22 48 43
22 48 44
23 49 45
22 49 44
22 49 44
23 49 45
22 48 43
23 50 45
22 48 43
23 51 46
22 49 44
22 49 44
22 49 44
23 50 45
21 47 42
22 49 44
22 49 44
22 48 44
22 49 44
23 50 46
23 50 45
22 48 43
22 47 43
22 48 44
22 47 43
22 48 44
22 48 43
22 48 43
23 51 46
22 49 45
22 48 43
22 49 44
22 48 43
22 48 43
22 48 43
23 50 45
22 49 44
23 50 45
22 48 43
22 49 44
22 49 44
22 47 43
23 50 45
23 49 44
21 47 42
21 47 42
22 47 43
22 48 43
22 48 43
22 48 44
22 48 43
22 48 43
22 48 44
22 48 43
21 46 42
22 48 43
22 48 43
22 48 44
22 48 43
22 48 43
21 47 42
22 47 43
21 46 42
22 49 44
23 49 44
22 48 43
22 49 44
23 49 44
21 47 42
22 47 43
22 48 43
21 47 42
22 48 43
22 49 44
21 46 41
22 48 43
22 47 43
22 47 43
21 46 41
22 48 43
23 49 44
22 46 42
21 46 42
22 48 43
21 46 41
22 47 42
22 47 42
21 45 40
21 46 41
21 45 40
21 46 41
20 43 38
20 41 36
21 44 39
19 40 35
17 35 30
13 28 25
8 18 16
17 17 14
31 20 14
20 23 17
29 28 20
24 26 20
16 19 15
7 16 15
9 20 19
10 23 22
10 22 20
11 25 24
12 28 26
13 30 28
15 33 31
16 35 33
17 38 35
18 40 37
20 44 40
21 45 41
20 45 40
21 45 41
21 47 42
21 45 41
21 46 41
21 46 42
21 45 41
21 47 42
21 45 41
21 46 42
21 46 41
21 46 42
21 46 42
21 47 42
22 47 43
22 47 43
22 47 43
21 46 42
21 46 41
22 47 43
21 46 41
137 123 109
201 174 152
120 92 108
92 59 93
97 63 99
98 64 101
100 65 103
98 64 101
100 66 104
99 65 103
98 65 104
97 64 103
96 63 101
94 62 100
120 94 113
205 183 167
204 179 164
198 174 158
185 164 150
168 151 139
147 131 122
136 123 113
22 47 43
22 48 43
21 47 42
21 46 41
21 47 42
21 47 43
21 46 41
21 45 41
21 47 43
20 45 41
21 47 43
22 47 43
22 47 43
20 45 41
21 47 43
21 46 42
21 47 42
21 47 43
21 46 42
21 47 43
21 47 43
21 46 42
22 48 43
21 46 42
20 45 41
22 48 44
21 46 42
22 49 44
22 49 44
23 50 45
23 49 45
22 48 43
22 47 43
23 50 45
23 50 45
22 48 43
22 48 43
22 48 44
23 50 45
22 49 44
23 49 45
22 48 44
23 49 45
22 48 44
22 49 44
23 49 45
23 50 45
22 49 44
22 49 44
22 49 44
22 48 44
22 47 43
23 50 45
22 48 43
23 50 45
22 49 44
22 47 43
22 49 44
23 50 45
22 49 44
22 48 43
22 49 44
22 48 44
23 50 45
23 50 45
23 49 44
22 49 44
22 48 44
22 48 43
23 50 45
22 48 43
22 48 43
22 49 44
22 48 44
22 48 44
22 49 44
23 49 45
22 48 44
22 48 43
22 48 43
22 47 43
22 48 43
23 50 45
22 48 44
23 49 45
22 47 42
22 48 43
22 47 43
21 45 40
22 48 43
22 47 43
22 48 43
21 46 42
22 48 43
21 47 43
22 48 43
21 46 42
22 48 43
22 49 44
22 47 43
22 48 43
22 49 44
22 48 43
22 49 44
21 46 42
22 48 43
22 48 43
22 47 43
22 48 44
23 50 45
21 46 42
22 49 44
22 48 44
22 48 43
22 47 43
21 47 42
22 49 44
21 47 42
21 45 41
22 49 44
22 47 43
21 46 41
21 46 41
21 46 42
22 46 41
22 47 42
22 47 42
22 47 42
21 46 41
21 46 41
21 46 41
21 44 39
21 44 39
20 43 38
20 42 37
19 40 35
18 39 34
16 34 30
12 26 23
11 23 21
10 21 19
9 20 19
9 19 18
8 18 17
8 18 17
10 24 22
11 25 23
12 27 25
14 31 28
15 32 30
17 37 34
18 40 37
19 41 38
20 43 38
21 45 41
21 45 41
21 46 42
21 46 41
21 47 42
22 47 43
22 47 42
21 46 42
21 47 42
21 47 42
22 47 43
21 47 42
21 47 42
21 45 41
21 47 42
21 46 41
21 47 42
21 45 41
21 46 41
21 47 42
21 47 42
21 47 43
21 46 42
21 46 41
125 111 96
191 166 144
176 150 138
92 59 93
93 60 95
93 61 96
97 63 100
95 62 98
96 63 100
97 63 101
94 62 98
93 61 97
91 60 97
90 59 95
89 59 94
125 103 113
196 171 156
186 165 151
174 154 141
157 139 129
134 121 112
129 116 107
24 47 43
21 45 41
21 45 41
21 46 42
21 46 42
21 46 41
21 46 42
21 47 43
21 46 42
21 46 42
21 46 42
22 48 43
21 46 41
20 45 41
22 48 43
21 47 42
22 48 44
21 47 43
22 48 44
21 46 42
21 47 43
21 47 43
21 45 41
21 47 43
21 47 43
21 46 42
21 46 42
23 49 45
22 49 44
23 49 45
22 49 44
23 50 45
23 51 46
22 48 43
22 48 44
22 48 44
23 49 45
22 49 44
23 50 45
23 49 45
22 48 44
22 48 43
22 47 43
23 51 46
22 49 44
22 49 44
23 51 46
22 49 44
22 49 44
23 51 46
22 48 44
22 47 43
23 49 45
23 50 45
21 47 42
21 47 42
23 50 45
22 48 43
22 48 44
23 50 45
22 48 44
22 48 43
22 49 44
22 47 42
23 50 45
22 48 43
23 49 45
22 49 44
22 48 43
23 49 45
22 49 44
22 49 44
21 46 42
22 49 44
22 49 44
22 48 43
21 47 42
23 49 44
23 50 45
23 50 45
23 49 45
21 47 42
21 47 42
22 48 43
22 49 44
23 50 45
22 49 44
23 50 45
22 47 43
22 48 44
22 47 43
23 49 44
21 47 42
22 49 44
22 48 43
23 49 44
22 48 44
22 48 43
23 50 45
22 48 43
22 48 43
22 48 43
22 47 43
23 50 45
23 51 46
22 47 43
22 49 44
22 48 43
22 49 44
22 47 42
22 48 43
22 47 43
23 49 45
22 47 43
22 47 43
21 47 42
22 47 42
22 48 43
22 47 43
23 49 44
22 48 43
22 47 42
22 47 43
22 48 43
21 46 41
23 49 44
22 46 41
22 46 42
22 47 42
21 45 41
21 45 40
21 46 41
21 44 39
20 42 37
20 43 38
20 43 38
20 43 38
19 41 36
20 42 37
17 37 32
17 36 31
16 33 29
15 33 29
15 33 29
16 35 31
16 35 32
16 36 32
17 37 33
18 40 36
20 43 39
19 42 38
20 44 39
20 45 40
20 44 40
21 45 41
21 45 41
20 45 40
21 45 40
20 44 40
21 47 42
21 46 41
21 46 41
22 48 43
20 45 41
21 46 41
22 48 43
21 45 41
21 45 41
21 47 42
21 46 42
22 47 43
21 47 42
21 46 41
21 47 43
21 45 41
21 46 41
21 45 41
21 46 42
126 113 99
185 160 139
199 172 151
127 102 110
88 57 89
90 59 92
90 59 92
90 59 92
93 61 97
91 59 94
89 58 93
89 58 93
86 56 90
84 55 89
83 55 88
82 54 87
128 107 111
169 149 136
166 145 133
147 130 120
128 116 107
113 102 94
20 44 40
21 46 42
20 44 40
20 44 40
20 45 41
21 46 42
21 45 41
22 47 43
21 46 41
22 47 43
21 45 41
21 46 42
21 46 42
21 46 41
21 46 42
21 47 43
21 47 43
22 48 44
21 47 43
21 46 42
21 47 43
22 48 43
21 46 42
21 46 42
21 46 42
20 45 41
22 47 43
21 47 43
22 49 44
21 47 42
22 49 44
23 49 45
21 47 43
22 48 43
23 50 46
22 49 44
23 49 45
23 49 45
22 48 43
23 50 45
23 50 45
23 50 45
22 48 44
22 48 44
22 49 44
22 49 44
22 49 44
22 49 44
22 48 44
22 49 44
22 48 43
22 49 44
21 47 42
22 49 45
22 48 44
23 49 45
23 50 45
21 46 42
22 47 43
22 48 44
22 49 44
23 50 45
22 49 44
23 50 45
22 49 44
23 50 45
22 47 43
22 49 44
22 49 44
21 46 41
22 48 44
22 48 44
22 48 44
22 49 44
22 49 44
22 49 44
23 49 44
22 49 44
23 50 45
23 50 45
22 47 43
21 46 42
22 49 44
22 49 44
22 49 44
22 49 44
22 49 44
22 49 44
23 50 45
22 47 43
23 50 45
22 48 43
22 48 43
22 48 44
22 48 44
22 49 44
22 49 44
22 49 44
22 48 44
23 49 45
22 48 43
22 48 44
22 48 43
22 49 44
21 46 42
21 46 41
23 49 44
22 49 44
22 48 44
22 48 43
22 47 43
22 47 43
21 46 42
23 49 44
22 48 44
22 48 43
22 48 43
21 46 41
22 47 42
22 48 43
22 48 44
21 45 41
21 46 42
22 47 43
22 46 41
22 46 42
21 46 41
21 46 41
22 47 42
21 46 41
21 45 40
23 48 43
21 45 40
20 44 39
21 45 40
20 44 39
21 44 39
21 44 39
21 44 39
20 43 38
20 42 37
19 41 36
19 42 37
19 41 36
21 44 39
20 43 38
20 43 38
20 43 38
21 45 40
20 44 39
21 46 41
20 44 40
22 47 42
21 46 41
21 47 42
21 47 42
21 47 42
22 49 44
21 47 42
21 46 41
21 46 42
21 47 42
21 46 42
21 47 42
21 46 41
21 46 42
21 46 42
21 47 42
21 46 42
21 46 41
21 47 43
22 48 43
20 45 41
20 45 40
21 46 41
21 46 42
21 46 41
21 46 41
92 88 78
174 151 130
190 165 144
174 150 134
87 59 84
85 55 86
85 55 86
88 57 90
86 56 88
87 57 90
87 57 90
83 54 86
81 53 85
81 53 85
77 51 81
75 50 80
72 47 76
116 99 99
140 124 113
130 117 108
120 109 100
100 93 86
20 44 41
19 42 38
19 42 38
19 43 39
20 44 40
20 45 41
21 46 42
21 46 42
21 46 42
21 46 42
21 46 41
22 47 43
21 46 42
21 47 43
22 48 43
21 46 42
21 46 41
21 46 42
21 46 42
21 47 43
21 46 42
21 46 42
22 48 43
21 47 43
21 46 41
22 48 43
21 47 43
22 49 44
23 50 45
23 50 45
22 47 43
23 50 45
23 50 45
22 48 44
22 49 44
22 48 44
23 49 45
23 50 45
23 50 45
23 49 45
22 47 43
22 49 44
22 49 44
21 47 43
22 49 44
22 49 44
22 49 44
23 50 45
23 50 45
22 48 44
22 48 44
23 50 45
23 50 45
22 49 44
22 48 43
22 48 43
22 49 44
23 50 45
22 49 44
22 49 44
23 50 45
22 49 44
22 49 44
22 47 43
22 49 44
22 49 44
22 48 44
22 49 44
22 49 45
23 50 45
23 50 45
22 48 44
22 48 43
22 48 44
23 50 45
22 48 44
23 50 45
23 49 45
23 49 44
22 48 43
23 49 45
22 47 43
23 50 45
22 48 43
22 48 43
22 49 44
22 48 44
23 49 44
22 49 44
22 48 43
22 48 44
22 49 44
22 47 43
22 48 43
22 48 43
23 50 45
22 49 44
23 50 45
23 50 45
23 50 45
22 48 43
21 47 42
22 48 44
22 49 44
22 48 43
22 48 44
22 47 43
23 50 45
22 48 43
22 49 44
22 48 43
22 49 44
22 47 43
22 48 43
22 48 43
22 47 43
22 48 44
22 48 43
22 48 43
22 47 42
22 47 42
22 48 43
22 47 43
21 46 41
22 48 43
22 46 41
22 47 42
22 47 42
22 47 43
21 45 40
22 46 41
21 45 40
21 46 41
21 46 41
21 45 40
21 45 40
21 44 39
21 45 40
21 45 40
21 45 40
21 45 40
20 44 39
21 45 40
21 45 40
20 44 39
21 45 41
21 46 41
21 46 41
22 47 42
21 46 41
21 46 42
20 44 39
22 48 43
21 45 40
21 45 40
22 47 43
21 47 42
21 47 43
21 47 42
21 47 42
22 47 43
21 46 41
22 47 42
21 46 42
22 48 43
22 47 43
21 46 42
21 46 42
22 47 42
21 46 42
22 48 43
22 47 43
21 46 42
22 47 42
22 48 43
21 47 42
20 44 40
21 45 41
39 53 48
151 131 112
169 146 125
177 153 132
146 123 117
82 53 83
81 53 82
82 54 84
82 53 83
79 51 81
78 51 80
79 51 81
73 48 75
76 50 80
72 48 76
70 46 74
66 43 70
60 40 64
82 69 73
125 112 104
123 109 100
81 77 70
17 38 36
17 38 36
18 40 37
19 42 39
19 42 38
19 43 39
21 46 42
20 44 40
20 45 41
22 47 43
21 46 42
21 45 41
21 47 42
21 47 43
21 47 43
21 46 42
21 47 42
22 48 43
21 47 43
21 46 42
21 45 41
22 47 43
21 47 43
21 46 41
21 46 42
21 46 42
21 46 42
23 50 45
23 50 45
23 49 44
23 50 45
22 49 44
22 49 44
22 48 43
22 49 44
23 50 45
22 48 44
22 49 44
24 51 46
23 51 46
23 49 44
23 50 45
22 49 44
23 49 45
22 47 43
22 49 44
23 51 46
23 50 45
23 51 46
22 49 44
23 50 45
23 50 45
22 49 44
24 52 47
22 49 44
22 48 43
23 51 46
22 49 44
23 51 46
23 49 44
22 48 43
22 48 43
22 49 44
23 50 45
23 50 45
22 49 44
22 48 43
22 49 44
22 49 44
23 50 46
23 51 46
22 49 44
22 48 44
22 49 44
22 48 44
22 49 44
22 48 44
22 48 43
21 47 42
23 50 45
23 50 45
23 51 46
23 49 45
22 48 43
23 49 44
22 48 43
22 49 44
21 47 42
22 48 44
23 50 45
22 48 43
22 47 43
23 51 46
22 48 43
22 48 44
22 48 44
22 47 42
22 48 43
22 48 43
22 49 44
22 49 44
22 49 44
22 48 43
22 47 43
22 48 43
22 47 43
22 49 44
21 47 42
22 47 43
22 49 44
22 48 43
22 47 43
22 47 43
22 47 43
22 47 43
23 49 44
22 48 44
22 47 42
22 48 44
22 47 43
22 48 43
21 47 42
22 49 44
22 47 43
23 50 45
23 49 44
21 46 41
22 49 44
22 48 43
22 47 42
23 50 45
22 47 42
21 45 41
22 46 41
22 47 42
21 44 40
21 45 40
21 44 40
20 43 38
21 45 40
22 47 42
21 46 41
20 44 40
21 45 40
20 44 40
21 45 41
22 47 42
21 46 41
22 47 42
21 45 41
21 46 41
21 46 42
21 46 42
22 47 42
21 47 42
21 46 42
21 46 42
21 47 42
22 48 43
21 47 42
22 47 42
22 48 43
22 48 43
21 46 42
21 47 42
20 44 40
21 45 41
22 48 43
21 47 42
22 48 43
21 46 42
22 48 43
22 48 43
21 45 41
21 45 41
21 45 40
21 46 41
21 45 40
20 43 39
108 96 81
148 129 110
165 143 124
171 149 129
109 87 93
75 49 76
73 48 74
76 49 77
73 48 75
75 49 78
70 46 72
69 45 72
67 44 70
64 42 68
61 41 65
60 39 64
52 34 55
51 34 55
64 53 58
83 74 69
34 44 41
15 35 33
16 36 34
16 38 35
17 38 36
18 40 37
18 41 38
19 42 39
19 43 39
20 43 40
20 44 40
21 46 42
21 46 42
21 46 42
21 46 42
22 48 43
22 47 43
21 47 43
21 46 42
21 47 43
21 47 43
21 47 43
21 46 42
21 46 42
20 45 41
21 45 41
21 46 42
21 46 42
22 49 44
23 50 45
23 51 46
22 48 44
23 50 45
22 49 44
23 49 45
23 51 46
22 48 44
23 50 45
23 49 45
23 50 45
23 51 46
23 50 45
23 50 45
22 47 43
22 49 44
23 49 45
22 48 43
22 49 44
22 48 43
22 48 43
22 48 43
23 51 46
22 49 44
22 49 44
21 47 42
22 48 43
22 48 43
23 49 44
21 47 42
24 52 47
23 49 45
22 49 44
22 49 44
23 50 45
22 48 43
22 48 43
22 48 43
23 50 45
22 47 43
23 50 45
23 50 45
23 50 46
24 52 47
23 50 45
22 48 43
22 48 43
23 49 45
22 48 44
22 49 44
23 50 45
22 49 44
22 48 43
22 48 44
22 49 44
23 49 45
22 49 44
22 49 44
23 50 45
22 48 44
21 47 43
23 49 45
22 49 44
22 47 43
21 47 42
22 49 44
22 47 42
22 49 44
22 48 43
22 48 43
22 49 44
23 49 45
23 50 45
23 49 44
22 48 43
22 48 43
22 48 44
23 50 45
23 49 44
22 48 43
22 47 43
22 49 44
22 48 43
21 46 42
23 50 45
22 47 43
22 47 43
22 48 43
22 48 43
22 48 43
23 49 44
22 47 42
21 47 42
22 47 43
22 47 43
22 48 44
22 47 42
22 49 44
22 47 42
22 47 42
21 46 42
22 48 43
22 48 43
22 48 43
22 47 42
21 46 42
21 44 39
21 45 40
21 46 41
21 45 40
21 46 41
22 48 43
21 46 41
21 46 41
22 47 42
22 47 42
21 46 41
22 47 42
21 45 41
21 45 40
21 46 42
22 48 43
21 46 42
21 46 41
21 47 42
21 46 41
22 49 44
22 47 43
22 47 43
22 47 43
22 48 43
22 48 43
21 47 42
22 48 43
22 48 43
21 46 42
21 46 42
21 46 42
21 47 43
22 47 43
22 48 44
21 45 41
21 47 42
22 47 43
20 45 40
21 45 40
21 45 41
20 44 40
20 45 40
20 45 40
21 45 40
46 55 47
126 110 93
138 120 102
152 133 114
154 133 115
75 54 70
68 44 68
66 43 66
65 43 67
65 42 66
64 42 66
61 40 63
57 38 60
51 34 55
50 33 53
47 31 51
44 28 45
36 24 39
39 26 41
24 25 31
14 32 31
14 32 31
15 34 32
15 34 33
15 35 34
17 38 35
17 39 36
18 40 37
19 42 39
20 44 40
21 45 41
20 44 40
21 46 42
21 47 43
21 45 41
21 46 42
22 48 43
22 47 43
21 47 43
21 47 42
22 47 43
21 47 43
20 45 41
21 46 42
22 48 44
22 48 44
21 45 41
21 45 41
22 49 44
23 50 45
22 49 44
22 48 44
21 47 42
23 50 45
22 48 44
23 50 45
23 50 45
22 49 45
22 49 44
23 49 45
22 49 44
23 51 46
22 48 44
22 48 44
22 49 44
23 49 45
22 48 43
23 50 46
22 49 44
22 48 43
23 49 45
23 51 46
22 48 44
22 48 44
22 49 44
23 50 45
23 50 45
23 50 45
22 49 44
22 47 43
23 51 46
22 48 43
23 50 45
22 49 44
23 50 45
22 48 43
22 48 44
23 50 46
23 50 45
22 49 44
23 49 45
21 47 42
22 48 43
22 48 44
22 49 44
22 48 44
23 51 46
22 49 44
23 50 45
23 49 45
22 49 44
22 49 44
22 49 44
23 50 45
22 48 43
23 50 45
22 49 44
22 48 43
23 49 44
22 49 44
23 50 46
23 50 45
23 50 45
22 48 44
22 48 44
22 48 43
22 48 43
22 49 44
22 48 43
23 50 45
23 49 45
23 49 45
22 48 43
22 49 44
22 49 44
22 48 43
22 48 44
22 48 44
21 47 42
23 50 45
22 49 44
22 48 43
23 50 45
23 50 45
22 47 43
22 48 44
23 50 45
21 46 42
22 48 44
22 48 43
22 47 42
22 48 43
23 49 44
22 47 42
22 47 43
21 46 42
22 48 43
21 46 42
24 51 46
22 47 43
23 49 44
21 46 41
21 46 42
22 48 43
22 47 42
22 47 42
21 46 41
22 47 42
22 47 42
22 47 42
22 47 42
22 47 42
21 45 41
21 46 42
21 45 41
21 46 41
21 45 41
22 47 42
23 49 44
22 49 44
21 46 42
21 46 41
21 46 42
22 48 44
23 50 45
22 48 44
21 47 42
22 48 43
22 48 43
21 46 42
22 48 44
22 49 44
21 46 42
22 47 42
21 47 42
22 47 43
21 46 42
21 46 42
21 46 41
21 47 42
21 45 41
22 47 42
21 46 42
21 46 42
21 46 42
21 45 40
21 45 40
20 44 39
21 45 40
20 43 39
20 44 39
61 61 52
113 99 84
122 106 90
135 118 101
122 106 93
63 44 58
59 39 59
56 36 56
57 37 58
51 34 53
52 35 55
47 32 50
42 29 46
40 27 44
42 28 45
35 24 38
36 22 35
26 20 29
15 30 29
13 31 30
14 32 31
14 32 31
14 32 30
14 33 32
16 36 34
17 37 35
17 38 35
18 40 37
19 41 38
19 43 40
21 46 42
20 45 41
20 45 41
21 45 41
21 47 43
21 46 42
22 47 43
22 47 43
22 48 43
22 47 43
21 46 41
21 46 42
21 47 43
21 46 41
21 46 42
21 47 42
21 45 41
22 49 44
23 49 45
23 51 46
22 48 43
23 49 45
22 49 44
23 50 45
22 48 44
21 47 42
22 49 44
22 48 43
23 50 46
23 49 45
22 48 44
22 47 43
22 49 44
23 49 45
22 49 44
22 48 44
22 49 44
23 49 44
23 51 46
23 50 45
22 48 43
23 49 45
23 51 46
22 48 43
22 49 44
23 51 46
23 49 45
22 48 44
23 50 45
23 50 45
23 49 44
22 49 45
22 48 44
22 48 44
23 49 45
22 49 44
22 49 44
22 49 44
22 48 44
23 51 46
23 50 45
22 48 44
23 50 45
22 48 43
23 50 45
22 48 44
22 49 44
22 48 43
22 48 43
23 50 45
22 48 43
22 48 43
22 49 44
23 51 46
22 49 44
22 49 44
22 49 44
22 49 44
22 47 43
22 48 44
22 49 44
22 49 44
22 48 43
23 50 45
22 49 44
21 47 42
22 47 43
22 49 44
22 48 44
22 48 43
22 49 44
22 49 44
22 49 44
23 50 45
22 49 44
21 46 42
22 47 43
22 47 43
22 48 43
22 47 43
22 48 44
22 49 44
22 49 44
22 48 43
22 49 44
22 48 43
22 49 44
22 49 44
22 48 43
22 48 43
22 48 43
22 48 44
22 48 44
22 48 43
22 47 43
22 47 43
22 48 44
22 47 42
22 48 44
22 47 43
22 48 44
22 48 44
22 47 42
22 47 42
22 48 43
22 47 42
22 48 43
22 48 44
22 47 42
22 48 43
21 46 41
21 46 42
21 46 42
22 48 44
21 46 41
22 48 43
22 48 43
21 46 42
22 48 43
21 46 41
23 50 45
22 48 43
22 47 43
22 48 43
22 47 42
22 48 44
22 48 43
22 48 43
21 45 41
22 48 43
22 48 44
22 48 44
21 46 42
22 47 43
22 49 45
22 48 43
21 47 42
21 46 42
21 46 41
21 46 41
21 46 41
21 46 42
21 46 41
22 47 42
21 45 40
20 44 40
21 46 41
20 44 39
20 42 37
20 44 38
20 41 36
59 58 48
88 79 65
97 86 71
105 93 78
94 81 72
50 33 49
47 31 47
43 28 43
41 28 43
39 26 42
35 24 39
30 21 34
30 22 34
29 21 32
23 17 27
24 17 25
15 26 26
12 29 28
12 29 28
13 31 30
14 32 31
13 31 30
14 33 32
14 33 32
16 36 34
17 38 35
18 40 37
19 43 39
19 43 39
20 44 40
21 45 41
21 45 41
20 45 40
21 47 42
21 46 42
21 45 41
22 47 43
21 47 43
21 46 42
21 46 41
21 46 42
21 47 43
20 45 41
21 47 43
22 47 43
21 47 42
23 50 45
22 49 44
23 50 45
23 50 45
23 50 46
23 49 45
23 50 45
22 48 44
23 49 44
22 49 44
22 49 44
23 51 46
22 48 43
22 49 44
23 50 45
23 49 44
22 49 44
22 49 44
22 49 44
23 51 46
23 49 45
23 50 46
23 49 45
23 50 45
22 49 44
22 47 43
22 49 44
22 49 44
22 49 44
22 48 43
23 50 45
22 49 44
22 48 44
22 48 43
22 48 44
23 50 45
23 50 46
22 49 44
22 49 44
22 48 44
22 49 44
23 50 45
22 49 44
22 49 44
22 49 44
22 48 43
22 49 44
23 49 44
23 51 46
22 48 43
22 49 44
23 50 45
22 48 43
22 47 43
22 48 44
23 50 45
22 48 44
22 48 44
22 47 43
22 48 43
22 48 44
22 48 43
22 48 44
22 49 44
22 49 44
23 49 44
22 49 44
22 49 44
22 49 44
22 49 44
23 51 46
22 49 44
22 49 44
22 48 43
22 48 43
22 48 44
23 50 45
22 48 44
23 49 45
22 49 44
22 48 44
23 49 45
22 48 43
22 48 44
22 47 43
22 47 43
22 48 43
22 48 43
22 48 43
21 46 42
23 49 44
22 49 44
22 49 44
22 47 42
22 47 43
22 47 43
22 48 43
22 48 43
23 51 46
22 47 43
22 49 44
22 48 43
21 46 41
21 47 42
22 48 43
22 48 43
22 47 42
22 49 44
22 48 43
22 49 44
22 48 43
21 46 42
21 47 42
21 46 42
21 47 42
21 47 42
23 50 45
22 48 43
22 47 42
21 46 42
22 47 43
22 47 42
21 46 42
22 48 43
22 48 44
22 48 43
22 49 44
22 49 44
22 48 44
21 47 42
23 50 45
22 48 43
22 47 43
22 48 43
21 46 42
23 50 45
21 46 42
21 46 42
22 48 44
21 45 41
22 47 43
21 46 42
21 46 42
21 46 42
21 45 41
22 49 44
21 46 41
21 45 40
21 45 40
21 45 40
20 42 38
20 44 39
19 42 37
19 41 36
18 37 32
29 36 29
52 50 39
57 55 44
69 64 52
57 52 44
28 20 29
29 20 29
29 20 30
19 15 22
22 17 25
21 16 25
20 15 23
18 14 21
14 16 19
15 25 26
12 28 27
12 29 28
13 30 29
13 30 29
13 31 30
14 32 31
14 32 31
15 35 33
16 36 34
17 38 35
18 40 37
19 41 38
19 43 39
21 46 42
21 47 43
22 47 43
22 47 43
22 47 43
21 47 42
21 45 41
21 47 43
21 46 42
22 48 44
22 47 43
22 48 43
21 45 41
22 48 43
21 46 42
21 45 41
21 45 41
22 49 44
23 49 44
23 50 45
23 50 45
22 49 44
23 50 45
23 51 46
23 50 45
23 49 45
23 50 45
22 49 44
23 49 45
23 50 45
23 50 45
23 50 45
23 50 45
23 50 45
22 49 44
22 49 44
22 48 43
22 49 44
22 49 45
23 50 45
22 49 44
23 50 45
23 50 45
22 48 43
21 47 42
23 51 46
23 50 45
23 50 45
22 49 44
22 47 43
22 49 44
23 50 45
22 47 43
23 49 45
23 50 45
22 48 43
23 49 45
23 49 45
23 50 46
22 49 45
23 49 45
22 49 44
22 48 44
23 51 46
23 51 46
23 49 45
23 51 46
22 48 44
23 50 45
23 50 45
22 49 44
23 50 45
22 49 44
22 48 43
23 49 44
23 50 45
22 48 43
22 49 44
22 49 44
22 48 43
22 48 43
22 49 44
22 48 44
23 49 45
22 47 43
23 50 45
22 49 44
22 48 44
22 48 44
22 49 44
22 49 44
22 47 43
22 48 44
22 48 43
22 48 43
22 48 43
21 46 42
23 50 46
23 50 45
22 47 43
22 48 43
23 49 44
22 47 43
22 48 44
23 49 45
22 48 43
22 48 44
21 47 42
23 49 44
22 48 43
22 48 44
22 49 44
23 49 44
23 49 45
22 49 44
22 48 43
24 51 47
22 48 43
22 49 44
22 48 44
22 48 43
22 49 44
22 48 43
23 49 44
22 48 44
21 46 42
22 49 44
22 48 44
21 46 42
22 48 44
22 48 43
22 47 43
21 46 42
22 47 43
22 48 44
21 46 42
21 47 42
22 49 44
22 47 43
21 46 42
22 48 43
21 46 41
22 47 42
21 47 42
22 48 44
22 47 43
22 47 42
21 47 42
22 47 43
21 47 42
22 47 42
22 48 43
22 49 44
21 45 40
21 46 41
22 47 43
22 47 42
22 48 44
21 45 41
21 47 42
22 47 43
21 45 41
21 45 40
21 46 41
21 45 40
22 47 42
21 45 40
20 43 38
20 43 38
20 44 39
19 40 35
18 37 32
15 32 28
32 34 26
38 39 29
35 38 28
40 42 30
36 37 28
17 15 18
18 13 17
17 13 17
16 12 16
12 11 14
12 11 15
8 14 15
9 20 19
11 26 25
12 27 26
12 29 27
13 31 29
13 30 29
13 30 29
14 32 31
14 32 30
16 36 34
16 37 35
18 40 37
18 41 38
20 44 40
21 46 42
20 45 41
22 47 43
21 46 42
21 46 42
22 48 43
21 46 42
21 47 42
22 48 43
22 48 43
21 46 42
21 46 42
22 47 43
22 48 44
20 44 40
20 44 40
21 46 41
22 47 43
22 48 43
24 52 47
22 49 44
22 48 44
23 49 44
22 48 43
23 50 45
22 49 44
22 49 44
23 50 45
23 50 45
22 49 44
22 49 44
23 49 44
22 49 44
23 50 45
23 49 45
23 49 45
23 50 45
23 49 45
23 50 46
23 50 45
22 48 43
23 50 45
23 50 45
22 48 43
22 49 44
22 49 44
21 47 43
22 48 44
22 48 43
23 50 45
22 48 43
24 52 47
23 50 45
22 49 44
23 51 46
23 51 46
22 48 43
23 50 45
23 49 45
22 48 44
23 50 45
23 50 45
23 50 45
22 48 43
23 50 46
23 50 45
23 51 46
22 48 44
23 49 45
23 50 45
22 48 44
22 49 44
22 48 43
22 49 44
22 48 43
23 50 45
22 48 43
22 49 44
22 48 43
21 47 42
22 49 44
23 50 45
23 49 44
22 49 44
22 48 44
23 49 45
23 49 45
22 48 44
23 50 45
22 48 44
22 49 44
22 48 43
22 48 44
22 47 43
22 48 44
22 47 43
23 50 45
22 48 44
22 48 43
23 50 45
22 47 43
22 49 44
21 46 41
21 47 42
22 47 43
22 47 43
22 48 43
23 49 45
22 49 44
23 50 45
22 48 43
22 49 44
22 48 43
22 48 43
22 47 43
22 47 43
22 48 43
22 49 44
22 48 44
21 46 42
22 48 43
21 46 41
22 48 43
23 50 45
22 48 43
22 48 43
21 47 42
22 48 43
22 48 43
22 48 43
22 48 43
22 48 44
22 48 44
22 48 43
21 47 42
22 47 42
21 47 42
22 49 44
23 50 45
22 48 43
22 47 43
22 49 44
22 47 43
21 46 42
22 49 44
21 46 42
22 47 42
22 48 43
21 46 42
22 48 43
22 48 43
21 46 42
22 48 44
21 46 41
21 47 42
22 47 42
22 47 42
21 47 42
21 47 42
23 50 45
22 48 43
22 47 42
21 46 41
21 46 42
22 48 43
21 44 40
21 45 40
20 43 38
20 44 39
20 43 38
19 41 36
20 42 36
20 42 37
17 36 31
15 32 28
10 21 19
21 25 19
27 29 22
33 34 25
33 33 24
24 22 19
12 11 13
12 12 14
8 16 16
8 17 17
9 20 19
10 23 22
10 23 22
11 25 24
13 30 29
12 28 26
14 32 30
13 31 30
14 31 30
15 35 33
16 37 35
17 38 36
19 41 38
19 41 38
20 44 40
20 44 40
21 46 42
20 45 41
21 46 41
22 47 43
21 46 42
21 45 41
20 45 41
22 47 43
21 46 41
21 46 42
21 47 42
21 47 42
21 46 42
21 45 41
21 46 42
21 46 41
21 45 41
22 49 44
22 48 43
23 49 45
23 49 45
22 49 44
23 50 45
23 50 45
22 49 44
23 49 45
23 50 45
22 48 43
22 49 44
23 51 46
22 49 44
22 49 44
22 49 44
23 50 45
23 50 46
22 48 43
23 51 46
23 51 46
23 50 45
22 48 44
23 50 45
22 49 45
22 49 44
22 48 43
23 50 45
23 50 45
22 47 43
22 47 43
23 50 45
22 49 44
22 49 44
22 47 43
23 50 45
23 50 45
22 49 44
22 48 44
23 50 45
23 49 44
22 49 44
23 49 45
22 47 43
23 50 45
22 48 44
23 51 46
22 49 44
23 49 45
23 51 46
22 48 43
23 49 45
23 49 45
22 49 44
23 50 45
23 49 44
23 50 45
22 49 44
22 48 43
23 49 45
23 50 45
22 47 43
22 49 44
22 49 44
23 49 45
21 47 42
22 48 44
22 49 44
23 49 45
22 48 44
23 50 45
22 49 44
22 48 44
23 50 45
21 47 42
22 49 44
22 49 44
22 48 44
22 48 43
22 47 43
22 48 43
23 50 45
23 50 45
22 48 44
22 49 44
22 48 43
22 49 44
22 48 44
22 47 43
23 49 45
21 47 42
21 47 42
22 48 44
22 49 44
22 48 44
22 48 44
22 47 43
22 47 43
21 47 42
22 49 44
21 46 42
22 48 44
21 47 42
22 49 44
22 48 43
21 46 42
22 49 44
22 48 43
22 48 43
22 48 43
21 47 42
22 48 44
21 47 42
21 47 42
22 47 43
21 46 42
21 47 42
21 47 42
21 46 42
23 49 44
22 49 44
22 47 43
21 47 42
22 48 44
21 46 42
21 47 42
22 47 43
22 47 43
21 46 42
22 48 43
21 46 42
22 48 43
22 47 43
22 47 43
22 49 44
22 47 43
21 46 42
21 46 41
22 48 43
21 46 42
21 46 41
22 47 43
22 48 43
21 45 40
22 48 43
21 46 41
21 46 42
21 46 41
21 46 41
21 46 41
22 47 42
20 42 37
20 43 38
20 42 37
20 42 37
19 41 36
18 38 33
16 34 30
12 26 23
9 20 18
8 17 16
4 10 9
7 15 14
7 17 16
7 17 16
9 20 19
8 19 18
11 24 23
9 22 21
11 25 24
12 28 27
12 29 28
12 28 27
14 32 30
15 34 33
16 36 33
17 38 35
18 41 38
19 41 38
20 43 39
21 45 41
21 46 41
20 44 40
21 46 41
21 47 42
21 46 42
21 47 42
21 47 42
21 46 42
21 45 41
21 46 41
21 45 41
21 46 41
21 46 42
21 46 42
21 47 42
21 45 41
20 45 41
21 46 41
21 46 41
23 50 45
23 50 45
22 49 44
22 49 44
23 51 46
22 48 43
22 47 43
23 49 45
22 48 43
22 48 43
22 49 44
22 49 44
23 51 46
23 50 46
22 48 43
22 49 44
23 49 44
22 49 44
23 49 45
22 49 45
23 49 45
23 50 45
23 50 45
22 49 44
23 50 45
23 51 46
22 49 44
23 50 45
23 49 45
22 48 44
23 49 44
23 49 45
23 51 46
22 48 43
22 48 43
22 49 44
22 49 44
22 48 43
22 47 43
22 49 44
22 49 44
23 50 45
22 48 44
23 49 45
23 49 45
22 48 43
23 50 45
23 49 44
22 49 44
22 49 44
24 52 47
22 49 44
22 49 44
23 50 45
22 48 44
22 48 44
22 49 44
22 48 43
22 48 44
21 46 41
23 49 45
22 48 43
23 49 44
22 48 44
22 49 44
22 49 44
22 48 44
22 48 43
22 48 43
22 48 44
23 50 45
23 49 44
22 49 44
22 49 44
22 49 44
22 48 43
23 50 45
22 49 44
23 49 45
22 49 44
22 49 44
23 50 45
23 50 45
22 48 44
22 47 43
22 48 43
21 47 42
22 48 44
23 49 45
22 47 43
21 47 42
23 49 44
23 50 45
23 50 46
23 49 45
22 47 43
22 48 43
22 49 44
22 48 44
22 48 44
22 48 43
22 47 43
22 47 43
22 48 43
22 48 43
22 48 43
21 47 42
22 48 44
21 47 42
22 48 43
22 48 43
22 47 43
22 49 44
21 47 42
22 47 43
22 48 43
22 48 43
22 47 43
22 49 44
22 47 43
22 47 43
21 47 42
22 47 43
22 47 43
22 48 43
22 47 43
22 47 43
21 47 43
21 47 42
22 49 44
22 49 44
22 48 44
22 47 43
23 49 45
21 47 42
21 47 42
22 47 43
22 47 42
22 47 43
22 48 43
21 46 42
22 47 43
22 47 43
21 46 42
21 45 41
21 47 42
22 49 44
22 48 43
21 46 41
21 46 41
21 46 41
21 45 40
20 44 39
21 45 40
21 44 39
20 43 38
19 40 35
20 43 38
18 37 33
16 35 31
15 33 29
13 28 25
11 24 22
10 23 21
10 22 21
10 23 22
10 24 22
11 26 25
12 27 25
14 31 29
13 30 29
15 34 31
15 35 32
16 36 33
17 39 35
18 39 36
18 39 36
19 43 39
20 44 40
20 44 40
21 46 42
21 45 41
21 46 42
21 46 41
21 46 41
22 48 43
21 46 41
21 46 42
22 48 43
21 47 42
21 46 42
20 45 41
20 44 40
21 46 42
21 45 41
20 45 41
21 45 41
21 46 41
21 45 41
21 45 41
22 48 44
22 49 44
22 49 44
23 50 45
22 49 44
22 49 44
22 49 44
23 50 45
23 50 45
22 49 44
23 51 46
23 50 45
23 50 45
22 48 43
23 49 45
22 49 44
23 50 45
23 50 45
22 48 43
23 50 45
22 48 44
22 48 43
23 49 45
23 51 46
22 49 44
23 49 44
22 49 44
22 47 43
23 49 44
23 50 45
23 50 45
22 49 44
23 50 45
23 50 45
22 48 43
22 48 43
23 50 45
21 47 42
21 47 42
22 48 43
22 49 44
23 50 45
23 51 46
22 49 44
22 49 44
22 48 43
22 49 44
23 50 45
22 47 43
23 49 45
23 50 45
22 48 43
22 48 44
22 48 43
22 48 44
23 50 45
22 49 44
22 49 44
22 48 43
23 50 45
22 47 43
23 50 45
23 50 45
23 50 45
22 48 43
22 49 44
22 48 44
22 49 44
23 50 46
22 48 43
22 49 44
23 50 45
22 47 43
22 49 44
23 50 45
22 48 44
21 46 42
23 49 45
22 48 43
22 47 43
24 51 46
23 50 45
23 50 45
22 48 43
22 48 44
22 48 43
22 48 44
23 50 45
23 50 45
22 48 44
22 48 44
22 48 43
23 50 45
23 49 45
22 48 43
22 47 43
22 48 44
22 48 43
22 47 42
23 49 45
23 50 45
22 48 43
22 48 44
22 48 44
22 48 43
22 48 43
23 49 45
22 49 44
22 47 43
22 49 44
22 47 43
22 49 44
21 46 42
21 47 42
21 47 43
22 48 44
22 48 43
21 47 42
22 47 43
22 48 43
22 48 43
21 46 41
21 47 43
22 49 44
22 48 43
23 49 45
22 49 44
23 49 45
22 48 43
21 46 42
21 47 42
21 47 42
22 48 43
21 47 42
23 50 45
21 46 42
21 47 42
21 47 42
22 49 44
22 48 43
22 48 43
21 46 41
21 46 42
22 47 43
22 47 43
21 45 41
21 46 42
21 46 42
21 46 41
21 46 41
21 45 41
20 44 39
21 45 40
20 44 39
21 44 40
20 42 37
19 42 37
20 43 38
20 42 37
20 43 38
19 41 36
19 41 36
19 40 36
19 40 36
17 38 34
17 36 32
17 37 33
16 35 32
17 38 35
17 37 33
18 39 35
18 40 36
20 43 39
19 41 37
19 42 38
20 44 40
21 45 41
20 44 39
20 45 40
21 45 41
21 47 42
20 45 40
22 48 43
22 48 43
21 47 42
21 46 42
21 46 41
21 46 42
21 46 42
22 47 43
21 46 42
21 46 42
20 44 40
22 48 43
21 46 42
21 47 42
21 46 42
21 45 41
21 46 42
22 48 43
23 49 45
23 50 45
22 49 44
22 49 44
23 50 45
22 49 44
22 48 44
23 49 45
23 50 45
22 49 44
22 47 43
22 49 44
22 48 43
23 51 46
22 49 44
23 51 46
23 49 44
22 49 44
22 49 44
23 49 45
22 48 43
22 49 44
23 50 45
23 50 45
23 49 45
23 50 46
22 49 44
22 49 44
21 46 42
23 50 45
22 48 43
22 49 44
22 48 44
23 50 45
22 48 43
22 48 43
23 50 45
24 52 47
23 49 44
21 46 42
23 50 45
22 49 44
22 49 44
23 50 45
23 50 45
23 51 46
23 50 45
22 48 43
22 49 44
23 50 45
23 50 45
23 49 45
23 50 45
22 49 44
23 49 44
22 49 44
23 50 45
22 49 44
23 50 45
23 50 45
22 49 44
22 48 44
22 49 44
22 49 44
22 48 43
24 52 46
22 49 44
22 48 44
23 51 46
22 48 44
23 50 45
23 50 45
22 49 44
21 46 42
22 49 44
23 50 45
22 49 44
22 49 44
23 49 45
22 48 44
22 48 44
22 48 44
23 50 45
22 47 42
22 48 43
22 48 44
22 47 43
22 47 43
22 48 44
22 48 43
22 49 44
22 47 42
22 48 44
23 49 44
22 49 44
22 48 44
22 49 44
22 48 44
22 47 43
22 48 43
22 48 43
22 48 43
22 49 44
22 47 43
22 48 44
22 48 43
22 48 44
21 46 41
23 50 45
22 49 44
22 48 43
22 48 43
22 49 44
23 49 45
22 47 43
21 47 42
23 49 44
21 46 41
22 48 44
22 49 44
22 48 43
21 47 42
21 47 42
23 49 44
22 47 43
22 48 43
23 49 45
22 47 43
21 47 42
22 48 44
22 48 44
22 48 43
22 47 43
21 47 42
23 49 45
21 47 42
21 47 42
22 49 44
22 49 44
22 47 42
21 45 41
21 47 42
21 45 41
22 47 43
21 47 42
21 45 41
21 47 42
22 47 42
22 47 42
22 47 42
21 46 42
21 45 41
22 47 42
21 47 42
20 44 39
21 45 40
21 45 41
21 45 40
20 43 39
20 43 38
20 43 38
19 42 37
20 42 38
19 41 37
20 43 38
19 40 36
20 42 38
20 43 39
19 42 38
20 43 39
20 44 39
20 43 38
21 45 41
21 46 41
20 43 39
21 45 41
21 45 40
21 45 40
21 45 40
21 45 41
21 46 41
21 46 41
21 45 41
21 45 41
21 45 41
20 45 40
21 45 41
21 45 41
21 46 41
21 45 41
21 47 42
21 46 41
21 47 42
21 46 42
21 46 41
21 45 41
21 45 41
20 44 40
21 45 41
20 44 40
22 49 44
22 49 44
22 48 44
22 49 44
22 49 44
22 49 44
23 50 45
23 50 45
23 50 45
23 50 45
23 49 45
22 49 44
24 52 47
23 51 46
23 50 45
22 49 44
23 51 46
23 50 45
23 49 45
23 50 45
23 49 44
22 47 43
22 48 43
22 49 44
23 51 46
23 49 45
23 50 45
23 51 46
22 48 44
22 49 44
22 49 44
23 50 45
22 49 44
23 51 46
23 49 45
22 49 44
22 48 44
23 49 45
23 49 45
23 50 45
23 51 46
23 50 45
23 49 45
22 49 44
22 48 44
21 47 43
22 48 44
22 49 44
22 47 43
22 49 44
22 49 44
22 49 44
23 49 45
22 49 44
22 47 43
22 48 44
23 50 45
22 48 44
22 48 43
23 50 45
23 50 45
23 50 45
23 49 45
22 48 44
22 48 43
22 47 43
22 48 43
22 47 43
23 50 45
22 47 43
23 50 45
22 48 43
22 49 44
21 47 42
22 48 44
23 49 45
23 49 45
22 48 44
21 47 43
24 52 47
22 47 43
22 47 43
23 51 46
22 49 44
22 48 43
22 48 43
22 49 44
22 48 43
22 49 44
22 49 44
23 50 45
22 49 44
22 49 44
22 49 44
22 49 44
22 48 44
22 49 44
22 48 43
22 48 43
22 48 43
23 51 46
23 50 45
23 49 45
22 48 44
22 47 43
22 47 43
22 49 44
21 47 42
23 49 45
22 48 44
22 48 44
22 48 43
22 49 44
22 47 43
23 50 45
22 49 44
22 47 43
21 46 41
22 47 43
22 48 44
22 47 43
22 48 44
22 48 43
22 48 44
21 46 42
22 49 44
22 48 44
22 49 44
22 48 43
22 48 44
22 48 43
21 46 42
22 47 43
22 47 43
22 49 44
23 50 45
22 48 44
21 47 42
22 49 44
22 47 43
21 47 42
21 46 42
21 46 42
21 45 41
21 46 42
22 48 43
22 47 43
22 48 43
21 46 42
21 46 41
22 47 42
21 46 41
21 46 41
22 47 42
21 46 42
21 45 40
20 44 40
21 45 40
20 44 40
21 46 41
20 44 39
20 44 40
20 44 40
20 43 38
21 45 40
20 44 40
20 44 40
20 43 38
20 44 39
20 42 38
20 43 38
20 44 40
20 44 40
21 45 41
21 45 41
21 45 40
21 46 42
21 46 41
21 46 42
21 45 40
21 46 41
21 46 41
21 47 42
22 47 43
21 46 41
20 44 40
21 47 42
22 48 43
20 45 40
21 46 42
21 46 41
21 46 42
21 45 41
21 46 42
20 44 40
22 48 43
20 44 40
20 44 39
20 45 41
21 47 42
22 48 43
23 49 44
22 48 43
22 49 44
23 50 45
23 50 46
24 51 46
22 49 44
22 47 43
22 49 44
22 48 44
22 48 44
23 49 44
22 49 44
22 49 44
23 49 45
22 48 43
22 48 43
23 51 46
24 52 47
23 51 46
23 49 45
23 50 45
22 48 44
23 50 45
23 50 45
22 49 44
23 50 45
22 48 43
21 46 42
22 47 43
22 48 44
23 50 45
23 50 46
23 49 45
23 51 46
23 50 45
23 49 45
22 49 44
22 48 43
22 49 44
22 48 43
23 50 45
23 50 45
22 48 43
22 49 44
24 52 47
23 50 45
22 48 43
23 50 46
23 50 45
22 48 44
23 50 45
23 50 45
22 47 43
24 52 47
21 47 42
22 49 44
23 50 46
22 49 44
23 50 45
23 50 45
23 49 44
22 48 43
22 48 43
22 48 44
22 48 44
22 49 44
22 48 43
22 49 44
22 48 44
22 48 43
22 49 44
22 48 43
22 49 44
22 48 44
22 49 44
23 49 45
22 48 43
22 49 44
22 49 44
22 48 44
22 48 44
22 47 43
22 49 44
22 48 43
23 49 44
22 49 44
23 50 45
23 49 45
22 49 44
23 50 45
22 49 44
23 50 45
22 48 44
22 47 43
22 49 44
21 47 42
22 48 43
22 49 44
22 48 43
21 47 42
23 50 46
22 48 44
22 49 44
22 48 44
22 47 43
23 49 45
23 50 45
22 49 44
22 48 44
22 47 43
22 47 42
23 50 45
22 48 44
22 49 44
23 50 45
22 48 44
23 50 45
22 48 43
22 49 44
22 49 44
22 48 43
23 50 45
23 50 45
23 50 45
21 46 42
21 45 41
22 48 43
23 49 44
22 48 44
21 46 41
22 47 43
22 48 43
22 48 43
21 47 42
22 49 44
22 48 43
21 47 42
21 46 42
23 49 45
21 47 42
22 47 43
22 48 43
21 46 42
22 48 43
21 46 41
22 48 43
21 47 42
20 45 40
22 47 43
21 46 42
21 46 42
21 46 41
21 46 42
20 44 40
22 47 42
21 45 41
21 45 40
20 43 39
21 45 40
21 45 40
20 44 40
20 44 40
20 44 40
21 46 42
22 47 42
22 48 43
21 45 41
21 46 41
20 45 41
21 46 41
21 45 41
21 46 42
21 45 41
21 45 41
21 46 41
21 46 41
22 48 43
21 46 42
21 46 42
21 46 42
21 46 42
21 46 41
21 47 42
21 47 42
22 47 43
22 48 44
21 46 41
22 47 43
21 47 42
21 46 42
21 46 41
20 45 40
21 46 42
21 45 40
20 45 41
21 46 41
22 47 42
21 45 41
22 49 44
23 51 46
23 51 46
22 48 44
23 49 44
22 48 43
22 49 44
22 49 44
23 50 45
22 48 43
22 49 44
23 50 45
23 50 45
23 50 45
22 49 44
22 48 44
22 48 43
22 49 44
22 48 44
23 49 44
22 49 44
22 48 44
22 48 44
23 50 45
24 52 47
23 50 45
23 50 45
23 49 44
23 50 45
23 50 45
23 51 46
24 52 47
22 49 44
23 50 45
23 49 44
23 51 46
22 49 44
23 50 46
22 49 44
22 48 43
23 50 45
23 51 46
22 49 44
22 48 43
23 50 45
23 50 46
23 49 45
23 50 45
22 49 44
23 50 45
22 49 44
22 48 43
22 47 43
23 50 45
22 48 44
22 48 43
23 49 45
23 49 45
22 49 44
22 48 43
23 49 45
23 51 46
22 48 43
22 48 43
22 48 44
22 49 44
23 51 46
21 47 42
22 48 44
23 51 46
22 48 43
22 49 44
23 50 45
23 50 45
23 50 45
23 50 45
22 48 43
22 48 44
22 49 44
22 48 44
23 51 46
22 49 44
22 48 43
23 49 44
22 49 44
23 50 45
22 48 44
22 49 44
23 50 45
23 50 45
21 47 42
23 50 45
22 49 44
23 50 45
22 49 44
23 49 44
23 50 45
22 47 43
23 50 45
23 49 45
22 48 44
23 51 46
22 47 43
22 48 44
22 49 44
22 47 43
22 48 43
22 48 44
22 49 44
22 48 43
22 48 43
22 49 44
22 48 43
22 48 43
22 48 44
22 47 43
21 47 43
22 49 44
22 47 43
22 48 43
22 48 44
22 48 43
22 49 44
22 48 43
22 47 43
22 49 44
22 49 44
22 48 44
22 47 43
22 48 43
22 47 43
22 48 44
22 48 43
21 47 42
21 47 42
21 47 42
22 49 44
21 46 42
22 48 43
22 49 44
22 49 44
22 48 43
22 47 42
22 49 44
21 47 42
22 47 42
22 48 43
21 47 42
22 48 43
22 48 44
22 47 43
22 47 42
22 47 43
21 45 41
21 46 42
21 47 42
21 45 41
20 44 39
22 47 43
21 46 41
21 45 41
21 45 41
21 46 42
21 47 42
21 46 42
20 45 40
20 44 39
21 45 41
21 45 40
20 44 40
21 46 42
20 44 40
22 47 43
21 46 41
21 46 42
21 45 41
21 45 41
21 47 42
21 47 42
21 46 41
21 46 42
21 45 40
22 47 43
21 46 42
21 47 42
22 48 43
21 46 41
22 48 43
21 47 42
21 46 42
22 47 42
22 47 42
21 47 42
22 47 43
22 47 43
21 45 41
21 45 41
21 45 41
21 45 40
20 44 39
23 50 45
23 51 46
23 50 45
22 48 44
22 49 44
22 48 43
23 49 45
23 49 45
23 49 45
22 49 44
23 50 45
22 48 44
22 48 44
23 50 45
23 50 45
22 49 44
23 50 45
22 49 44
23 49 45
23 50 45
22 49 44
23 50 45
22 49 44
23 50 45
22 48 43
22 49 44
22 48 43
22 49 44
23 50 45
22 48 44
22 48 44
23 50 45
23 49 45
23 51 46
23 50 45
22 48 44
23 49 45
23 49 44
22 49 44
23 49 45
23 50 45
22 49 44
24 51 46
22 49 44
22 49 44
22 49 44
23 50 45
22 48 44
23 50 45
23 50 45
23 50 45
22 49 44
22 49 44
23 50 45
22 48 43
22 49 44
23 50 45
23 50 45
23 50 46
23 50 45
22 49 44
23 51 46
23 49 45
23 50 45
22 48 43
22 48 44
23 50 45
22 48 44
22 49 44
22 48 44
23 50 45
22 48 43
22 49 44
23 50 45
23 50 45
22 48 43
23 51 46
22 49 44
22 49 44
22 49 44
22 48 43
21 47 42
22 48 44
22 48 44
22 47 43
22 48 43
22 49 44
23 50 45
22 49 44
23 49 44
22 48 43
22 49 44
22 49 44
23 49 45
23 50 45
23 50 45
22 48 43
22 48 43
22 49 44
23 50 45
22 48 43
22 48 43
22 49 44
22 49 44
23 50 45
23 50 45
23 50 45
23 50 46
22 48 44
22 48 43
22 48 44
22 48 44
22 49 44
22 48 43
22 47 43
22 49 44
22 48 44
22 49 44
23 50 45
22 47 43
21 47 42
22 48 43
22 49 44
22 48 44
22 48 43
22 49 44
21 47 43
23 50 45
22 48 43
21 47 42
22 49 44
21 46 41
22 49 44
22 48 43
21 47 42
21 47 42
22 49 44
22 47 43
21 47 42
22 48 43
21 47 43
21 46 41
22 49 44
21 47 42
21 46 42
21 46 42
23 50 45
21 47 42
21 47 42
21 46 42
22 47 43
22 47 42
22 48 43
22 48 44
22 47 42
21 45 41
21 47 42
21 46 41
21 46 42
21 46 42
21 46 42
21 46 42
21 46 42
21 45 40
20 44 40
21 45 40
20 45 41
20 44 40
20 45 40
21 47 42
21 47 42
21 47 42
21 46 42
20 44 40
21 45 41
21 46 42
22 47 43
21 46 42
21 46 41
21 46 42
21 47 42
22 49 44
22 47 43
21 47 43
21 47 42
21 46 42
21 45 41
20 44 40
22 47 43
20 44 39
21 45 41
21 46 42
21 46 42
21 46 41
20 45 40
21 47 42
21 45 40
21 45 40
20 44 40
21 45 40
23 51 46
23 49 45
22 49 44
23 50 45
23 49 45
22 48 43
22 48 43
23 50 46
22 49 44
23 50 45
23 50 45
24 52 47
23 50 45
22 48 43
23 49 45
23 49 45
23 50 45
22 48 44
23 50 45
23 50 45
22 48 43
23 50 45
22 47 43
22 48 44
22 47 43
22 49 44
22 49 44
23 49 45
22 49 44
23 49 45
22 48 44
22 48 44
22 49 44
23 50 45
22 48 44
23 51 46
24 51 46
23 51 46
23 49 44
23 50 45
22 49 44
22 49 44
23 50 45
22 49 44
23 49 45
22 48 43
23 50 45
22 48 43
22 48 44
23 51 46
23 50 45
24 52 46
22 47 43
23 50 46
22 49 44
22 49 44
23 50 45
23 50 45
22 49 44
23 50 45
22 48 44
22 49 44
22 49 44
23 50 45
22 49 44
21 46 42
23 50 45
23 50 45
23 50 45
23 50 45
22 48 44
22 48 44
23 50 45
23 50 45
22 49 44
23 49 45
22 48 44
22 47 43
22 49 44
23 49 44
22 49 44
22 48 43
22 49 44
23 50 45
23 49 45
23 50 45
22 49 44
22 48 43
22 48 44
22 48 43
23 50 45
23 50 45
22 49 44
22 49 44
23 50 46
23 50 45
23 51 46
22 48 44
23 49 44
22 48 44
23 49 45
22 49 44
22 49 44
23 50 45
22 48 43
22 47 43
22 48 43
21 47 43
23 50 45
23 49 45
22 48 44
22 49 45
21 47 43
22 49 44
22 48 44
22 48 43
22 48 43
22 49 44
22 48 43
22 47 43
21 46 42
22 48 43
22 48 43
22 49 44
22 48 44
22 49 44
23 51 46
23 49 45
22 49 44
22 48 44
22 49 44
22 48 43
22 48 44
23 49 45
21 47 42
22 48 44
22 48 43
22 47 43
22 47 43
22 47 43
21 47 42
21 47 42
22 48 43
21 47 43
22 48 43
22 47 43
23 49 45
21 46 42
22 49 44
21 45 41
21 46 42
22 47 43
21 46 42
21 46 42
21 47 42
21 46 42
21 46 41
22 48 43
21 46 42
21 47 42
22 47 43
22 48 43
21 45 41
20 44 40
21 46 41
21 45 41
21 46 42
21 46 42
22 47 43
22 48 43
21 46 42
20 44 40
21 47 42
22 48 43
21 46 42
22 47 43
21 46 41
21 46 41
22 47 43
21 46 42
21 46 42
21 47 43
20 45 41
21 46 42
21 46 42
22 47 43
21 46 42
21 46 41
22 48 43
21 47 42
21 47 42
21 45 41
21 47 42
21 47 42
21 46 42
20 44 40
20 44 39
20 44 39
20 43 39
21 46 41
22 49 44
23 50 45
23 51 46
23 51 46
22 48 43
22 48 43
22 48 44
23 51 46
23 50 45
22 49 44
22 48 43
22 48 44
23 50 45
23 50 45
24 51 46
22 49 44
23 50 45
23 50 45
23 50 45
23 51 46
23 49 45
22 48 44
22 49 44
22 48 43
22 49 44
22 49 44
23 49 44
23 50 45
22 48 43
23 50 45
23 51 46
23 50 45
23 51 46
22 48 44
23 49 45
23 49 44
23 49 44
23 50 45
23 50 45
22 49 44
22 49 44
23 49 45
23 51 46
22 48 44
22 49 44
22 49 44
23 50 45
23 49 45
22 47 43
22 49 44
23 51 46
22 48 43
21 46 42
21 47 43
22 49 44
23 51 46
23 50 45
23 50 45
22 49 44
22 48 43
22 49 44
23 49 45
22 49 44
23 49 45
22 48 44
22 48 44
22 48 44
23 49 45
23 49 45
23 49 45
23 50 45
22 48 44
22 48 44
22 49 44
23 50 45
22 49 44
22 48 44
22 48 44
23 50 45
22 49 44
23 50 45
23 50 45
22 48 43
23 49 45
22 49 44
22 49 44
22 48 44
23 51 46
22 48 43
22 48 43
22 48 44
23 49 45
22 48 44
22 49 44
22 48 44
21 47 43
22 48 44
22 48 43
22 49 44
22 48 43
23 51 46
22 49 44
22 48 43
23 50 45
23 50 45
22 47 43
23 49 45
22 47 43
23 50 45
22 49 44
22 48 44
22 48 44
22 49 44
22 47 43
22 49 44
23 49 45
22 49 44
23 50 45
22 48 44
22 49 44
22 48 43
22 48 43
22 48 44
22 47 43
22 47 43
23 49 44
22 49 44
23 50 45
22 48 43
22 48 44
22 49 44
22 48 44
22 47 43
22 47 43
22 48 43
22 47 43
22 48 44
22 47 43
22 48 43
23 50 45
22 49 44
21 47 43
22 48 43
22 49 44
21 46 42
22 47 43
22 49 44
21 47 42
22 47 43
22 48 43
22 49 44
22 47 43
21 46 42
21 45 41
21 47 42
21 46 42
23 49 44
21 46 41
22 47 43
22 48 43
21 47 42
22 48 43
21 47 42
21 47 42
20 44 40
21 47 42
21 47 42
22 47 43
21 46 42
21 46 42
21 46 41
21 46 41
21 45 41
20 44 40
21 45 41
20 45 40
21 46 42
22 49 44
21 47 42
21 46 42
21 47 42
21 46 42
21 46 42
21 47 43
22 48 43
22 47 43
21 46 42
21 46 42
22 48 44
21 46 42
22 46 42
22 48 43
20 44 40
21 47 42
21 45 41
21 46 41
21 46 41
21 46 41
21 45 41
21 45 40
23 49 44
23 50 45
23 51 46
23 50 45
23 50 45
23 51 46
23 51 46
23 49 44
22 48 44
22 49 44
23 49 44
22 49 44
23 50 45
23 51 46
22 49 44
23 50 45
22 48 43
23 49 45
23 50 45
23 49 44
22 49 44
23 51 46
22 49 44
22 48 43
22 49 44
23 50 45
22 49 44
22 48 43
23 50 45
23 49 44
23 49 45
22 48 44
22 49 44
22 49 44
23 51 46
22 49 44
23 50 45
22 49 44
22 48 43
23 51 46
23 50 45
23 50 45
22 49 44
23 50 45
23 51 46
23 50 45
23 49 45
23 50 45
23 51 46
22 47 43
22 49 44
23 51 46
23 50 45
22 49 44
23 50 45
22 49 44
23 50 45
22 48 43
22 47 43
22 49 44
23 49 45
23 51 46
23 49 44
23 50 45
22 49 44
22 49 44
22 48 43
23 51 46
23 50 45
23 49 45
22 48 43
21 47 42
23 50 45
23 49 45
23 50 45
22 49 44
22 48 44
21 47 42
22 49 45
23 50 45
23 50 45
22 48 44
22 49 44
22 49 44
22 48 44
23 50 45
22 49 44
22 48 43
22 49 44
23 51 46
22 49 44
22 49 44
22 48 43
22 47 43
22 48 44
22 49 44
23 50 45
22 47 43
22 48 44
22 48 43
21 47 42
22 48 44
22 48 44
22 48 43
22 49 44
22 48 44
22 48 43
22 49 44
23 50 45
22 49 44
23 50 45
23 49 44
22 47 43
22 48 43
23 50 45
21 47 43
22 47 43
22 48 43
23 50 46
22 48 43
23 50 45
22 49 44
21 47 42
22 48 43
22 48 44
23 49 45
22 48 44
22 49 44
22 49 44
23 49 45
22 48 44
22 49 44
22 48 43
21 46 41
21 46 42
21 46 41
21 47 42
21 47 42
22 49 44
22 48 43
22 47 43
21 47 42
22 49 44
21 47 43
23 49 45
22 48 44
22 48 43
22 48 44
22 48 44
22 47 43
21 47 42
21 46 41
22 48 44
21 47 42
21 47 43
22 48 43
21 46 42
21 47 43
21 46 42
22 47 42
21 46 42
22 47 43
21 46 42
22 48 43
21 47 43
21 47 42
22 47 43
21 45 41
22 48 43
22 47 43
21 45 41
21 46 42
22 48 43
22 48 44
22 47 43
21 46 42
21 46 42
21 46 42
21 46 42
22 47 43
21 47 43
22 48 43
21 47 42
21 47 42
21 47 42
21 46 42
21 46 42
22 49 44
21 46 41
21 45 41
20 44 40
21 46 42
21 46 42
22 47 42
21 46 41
21 46 42
21 45 41
21 45 41
20 44 40
21 45 41
23 50 45
23 49 45
22 49 44
23 50 45
23 51 46
23 50 45
22 48 44
22 49 44
23 51 46
22 48 43
22 48 44
23 50 45
22 49 44
23 50 45
22 48 44
23 49 44
23 50 45
23 50 45
22 49 44
23 50 45
23 49 44
22 49 44
23 50 45
22 49 44
22 49 44
22 48 43
22 49 44
22 48 44
23 49 45
23 50 45
23 49 45
23 50 45
23 51 46
22 48 44
23 50 46
22 49 44
23 50 45
24 52 47
24 51 47
23 50 46
23 49 44
23 50 45
23 49 45
23 50 45
23 49 45
22 49 44
22 48 43
23 51 46
23 50 45
23 51 46
22 47 43
23 51 46
23 50 45
23 49 45
23 50 45
22 48 43
22 48 43
22 48 43
23 50 45
23 50 45
22 49 44
23 50 45
22 47 43
22 48 43
22 48 43
23 51 46
23 50 45
23 50 45
22 48 44
22 49 44
24 52 47
22 49 44
23 50 45
22 48 44
23 50 45
23 50 45
23 49 45
22 48 44
23 49 44
23 49 45
21 47 43
22 49 44
23 50 45
22 48 43
22 49 44
22 48 44
22 48 43
23 50 45
23 51 46
22 49 44
22 48 43
22 48 43
21 47 42
23 50 45
23 49 45
22 48 43
23 50 45
23 50 45
22 48 43
22 49 45
22 48 44
23 50 45
22 49 44
22 48 44
22 48 44
22 48 43
22 47 43
22 48 44
23 51 46
22 49 44
22 49 44
22 49 44
21 47 43
23 49 45
23 50 45
22 48 43
22 49 44
22 48 44
22 48 44
23 50 45
22 49 44
22 49 45
22 49 44
22 48 43
23 49 45
22 48 44
22 48 43
21 47 42
21 47 42
21 47 42
22 48 43
22 48 44
22 48 44
22 48 44
22 47 43
22 48 44
22 48 43
21 47 42
21 46 42
21 46 42
22 47 43
22 49 44
22 48 44
22 49 44
21 46 41
22 47 43
22 49 44
21 47 42
22 47 43
21 46 42
21 47 43
21 47 43
21 46 42
21 47 43
22 47 43
22 49 44
22 48 43
21 46 42
21 47 42
21 47 43
21 47 42
21 47 42
22 47 43
21 46 42
21 47 42
21 47 42
22 49 44
21 47 42
21 46 42
22 48 43
21 46 42
21 47 42
20 44 40
21 46 42
22 48 43
22 48 43
23 50 45
21 45 41
22 48 44
21 46 42
21 45 41
22 48 43
22 48 44
22 48 43
22 47 43
22 48 43
21 47 42
21 45 41
21 47 42
21 45 41
22 47 43
21 46 42
21 46 41
21 45 41
22 48 43
21 45 40
21 45 40
22 47 43
20 44 40
20 43 39
22 49 44
23 50 45
23 49 44
23 51 46
22 48 43
23 50 46
22 49 44
23 49 45
22 48 44
23 51 46
22 49 44
24 52 47
22 49 44
23 50 45
22 48 43
24 51 46
23 50 45
22 49 44
23 50 45
23 51 46
23 51 46
24 52 47
22 48 43
22 49 44
23 50 45
23 50 45
23 49 45
22 47 43
23 50 45
23 50 45
22 48 44
23 49 45
22 49 44
23 49 44
22 49 44
22 48 43
23 51 46
22 49 44
24 52 47
23 50 45
23 50 45
23 51 46
22 49 44
23 50 45
23 51 46
22 49 44
24 51 46
22 48 43
23 49 45
23 51 46
22 49 44
22 49 44
24 51 46
22 48 44
22 48 43
22 49 44
23 50 45
22 49 44
22 49 44
22 48 44
23 50 45
22 48 44
22 49 44
23 51 46
23 49 45
22 48 43
23 50 45
23 49 45
22 49 44
22 48 44
23 49 45
22 49 44
22 49 44
23 51 46
22 48 43
22 49 44
23 50 45
22 48 44
22 48 43
23 49 44
23 50 45
22 48 44
22 48 44
22 48 44
22 48 43
22 48 43
23 50 45
23 51 46
23 50 45
22 49 44
22 48 43
22 48 44
23 50 45
22 47 43
22 49 44
22 49 44
22 49 44
22 48 43
22 47 43
23 50 45
21 47 42
22 48 43
23 51 46
22 49 44
23 50 45
23 49 45
23 49 45
22 49 44
22 48 44
21 46 42
22 49 44
23 50 46
23 50 45
22 49 44
22 49 44
23 50 45
22 48 44
22 48 43
21 47 42
23 50 45
22 48 44
22 47 43
23 50 45
22 49 44
23 50 45
22 47 43
22 49 44
21 46 42
22 48 43
22 49 44
22 47 43
22 48 44
21 47 43
22 47 43
22 49 44
21 47 43
22 48 44
21 46 42
21 46 42
22 48 44
22 48 43
21 46 42
22 48 43
22 48 43
21 47 43
22 49 45
22 48 44
22 48 43
22 48 43
21 46 42
21 47 42
21 47 42
22 48 44
22 47 42
22 49 44
23 49 45
23 50 45
22 47 43
23 50 46
22 47 43
21 47 42
22 48 43
21 47 42
22 49 44
21 47 42
22 48 43
21 47 43
22 47 43
21 47 42
22 47 43
21 46 42
21 47 42
21 46 41
21 46 42
21 47 42
22 48 43
21 47 43
21 46 42
21 46 42
20 45 41
20 44 40
21 46 42
20 45 40
22 47 43
21 47 42
22 48 43
23 49 45
21 46 42
21 46 41
21 47 42
22 47 43
22 47 43
21 46 42
20 44 40
21 46 42
20 44 40
21 46 42
21 47 42
21 46 41
21 46 41
23 50 45
23 50 45
23 50 46
22 48 44
23 50 45
22 48 43
23 51 46
23 49 45
23 51 46
23 50 45
23 50 45
23 49 44
24 52 47
23 51 46
23 49 45
23 50 45
22 49 44
22 49 44
23 51 46
23 51 46
23 49 44
23 50 45
23 50 45
23 49 45
23 50 45
23 49 45
23 50 45
22 47 43
22 48 44
23 49 45
24 51 46
22 48 44
23 49 44
22 48 43
22 48 43
22 47 43
22 47 43
22 48 43
23 51 46
23 50 45
23 51 46
23 49 44
22 49 44
23 49 44
23 50 45
23 50 45
23 50 45
22 48 44
23 50 45
22 49 44
22 48 43
23 50 46
22 49 45
23 49 45
23 50 45
22 48 43
23 50 45
23 51 46
22 49 44
23 50 45
23 50 45
23 50 45
22 49 44
23 49 45
22 49 44
23 50 45
23 49 44
23 49 45
22 48 43
22 48 43
23 49 45
22 49 44
22 49 44
23 50 45
22 49 45
23 51 46
22 49 44
22 49 44
22 49 44
23 49 45
22 48 44
22 49 44
22 48 43
22 48 44
22 49 44
22 49 44
22 48 43
22 49 45
22 47 43
23 49 45
22 48 44
23 50 45
23 49 45
22 48 43
22 49 44
23 50 45
23 50 45
22 48 44
23 50 45
23 50 45
23 49 45
23 51 46
23 50 45
22 49 44
22 48 44
22 48 44
23 50 45
22 49 44
22 48 44
23 50 45
22 49 44
22 48 43
22 49 44
22 48 44
22 47 42
22 47 42
22 48 43
22 49 45
22 49 44
22 49 44
22 49 44
22 48 44
22 47 43
22 48 43
22 47 43
22 48 44
22 48 43
22 48 43
22 47 43
21 46 42
22 49 44
22 48 43
22 48 44
22 49 44
22 48 44
21 47 43
22 48 44
22 48 44
21 47 42
22 48 43
22 49 44
21 46 42
22 48 43
22 49 44
21 47 42
22 48 43
22 47 43
22 48 43
22 47 43
22 49 44
22 48 44
22 49 44
22 47 43
21 45 41
21 47 43
21 46 42
22 49 44
21 46 42
22 48 43
21 46 42
22 48 43
21 47 43
22 48 44
22 48 43
22 48 43
21 46 41
21 46 42
22 49 44
22 48 43
21 47 42
22 48 44
21 47 42
22 47 43
22 47 43
22 48 44
22 48 44
21 45 41
21 47 42
22 48 43
22 48 44
22 48 43
21 45 41
22 48 44
21 46 42
21 47 42
21 46 42
23 50 45
21 46 41
21 46 42
21 46 42
21 45 41
22 48 43
22 47 43
21 46 41
21 46 41
21 46 42
20 44 40
21 46 41
21 45 41
21 45 40
23 49 45
23 50 45
22 48 44
24 52 47
23 51 46
23 50 46
23 50 45
22 47 43
21 47 42
23 51 46
23 50 45
23 51 46
22 49 44
22 48 43
23 50 45
22 49 44
23 51 46
22 49 44
22 49 44
23 50 45
23 49 44
23 51 46
23 49 45
22 48 43
23 50 45
23 50 45
24 52 47
23 51 46
23 49 44
23 51 46
23 49 45
23 50 45
23 51 46
22 49 44
22 49 44
23 50 45
23 50 45
21 47 42
23 50 46
23 49 45
22 49 44
23 50 45
23 50 45
23 49 45
23 50 45
24 51 46
22 48 44
23 50 45
23 49 45
22 48 43
22 47 43
24 51 46
23 50 46
23 51 46
23 50 45
23 50 45
23 51 46
23 51 46
22 49 44
23 49 44
23 50 45
22 48 44
23 50 45
22 49 44
22 49 44
22 48 43
23 49 45
23 51 46
23 50 45
23 50 46
22 49 44
23 51 46
23 50 45
22 49 44
23 49 45
22 49 44
23 50 46
23 51 46
22 49 44
22 49 44
22 48 43
22 49 44
23 49 44
22 49 44
22 48 43
22 48 43
22 48 43
23 51 46
23 50 45
24 51 46
23 50 45
22 49 44
22 48 44
22 48 43
22 48 43
22 48 43
22 48 44
23 50 45
22 48 44
22 48 44
22 49 44
23 51 46
22 47 43
23 51 46
22 49 44
23 49 45
22 48 43
23 50 45
22 48 43
22 48 43
22 49 44
23 49 45
23 49 45
22 47 43
22 48 44
22 48 43
22 48 44
22 48 43
22 48 43
23 50 45
22 48 44
23 50 45
22 48 44
22 48 43
22 47 43
21 46 42
22 48 44
22 48 43
22 48 44
22 48 43
22 48 43
22 47 43
22 48 43
21 47 43
22 48 44
22 48 44
22 48 43
21 46 42
22 49 44
22 48 43
22 48 44
21 46 42
22 48 43
22 47 43
22 48 44
22 48 44
22 48 43
22 47 43
22 48 44
22 47 43
22 49 44
21 46 42
22 48 44
21 47 43
22 48 44
21 46 42
22 48 43
22 47 43
21 46 42
22 47 43
21 46 41
21 47 42
21 45 41
23 49 45
22 49 44
21 45 41
22 48 43
21 47 42
21 46 42
22 49 45
21 46 41
21 46 42
22 47 43
22 47 43
22 48 43
22 47 43
21 47 43
22 47 43
22 48 44
22 47 43
22 48 44
22 49 44
21 47 42
20 45 41
21 47 43
21 46 42
22 47 43
21 46 42
22 47 43
21 46 41
21 46 42
22 47 43
20 44 39
20 44 40
21 46 41
20 44 40
20 44 40
20 44 40
20 44 39
22 47 42
23 50 45
23 50 45
23 49 45
23 50 45
22 49 44
23 50 45
23 49 44
22 48 44
22 48 44
24 51 46
22 49 44
22 48 43
22 49 44
23 49 44
23 50 45
22 48 43
24 52 47
23 51 46
22 48 43
23 49 44
22 49 44
23 50 45
23 51 46
22 49 44
22 49 44
22 49 44
23 50 45
23 49 44
22 49 44
22 47 43
22 48 43
24 52 47
23 49 45
23 51 46
23 51 46
23 49 45
22 48 43
22 49 44
23 49 44
23 49 44
22 48 44
23 49 45
23 49 45
22 48 43
23 51 46
22 48 43
22 49 44
22 47 43
22 48 43
23 50 45
22 49 44
21 46 41
23 50 45
22 47 43
23 50 45
23 50 45
23 50 45
22 48 43
22 49 44
23 50 45
23 51 46
22 49 44
22 49 44
23 50 45
24 52 47
22 47 43
22 48 44
23 49 45
23 49 44
23 50 45
23 50 45
23 50 45
23 50 46
22 49 44
23 50 45
22 49 44
23 51 46
22 49 44
23 50 45
22 49 44
23 49 45
22 49 44
21 46 42
22 49 44
22 49 44
22 49 44
23 51 46
22 49 44
22 49 44
22 48 44
22 49 44
23 49 45
22 48 44
23 50 45
23 50 45
22 48 43
22 48 43
22 49 44
22 49 44
22 48 43
22 48 43
22 48 44
22 48 44
23 50 45
22 48 43
22 47 43
22 49 44
23 50 45
23 49 45
22 49 44
22 49 44
23 50 45
22 47 43
22 48 43
22 48 44
22 47 43
21 47 42
22 48 43
22 49 44
22 48 43
21 47 42
22 47 43
22 48 44
23 50 45
22 48 43
23 50 45
22 48 44
22 49 44
23 50 45
22 48 44
21 46 42
22 49 44
22 49 44
23 50 45
22 48 43
21 46 42
22 49 44
23 50 45
22 49 44
22 47 43
22 49 44
21 47 42
22 47 43
22 49 44
21 47 43
22 47 43
22 48 43
22 48 44
21 47 43
22 48 43
23 50 45
22 48 43
22 47 43
21 46 42
22 48 44
22 48 43
23 50 46
21 47 42
22 47 43
21 47 42
21 47 43
22 48 44
21 47 42
21 46 41
22 48 44
21 47 42
22 47 43
22 47 43
22 48 43
21 47 42
21 47 43
22 47 43
22 49 44
21 46 42
21 47 42
21 47 42
22 48 44
21 45 41
22 48 43
21 46 42
21 46 42
23 49 45
22 48 44
22 48 43
22 47 43
21 46 41
21 46 42
21 46 41
21 47 42
22 48 44
21 47 42
21 46 41
21 47 42
21 47 43
22 49 44
21 45 41
21 46 41
21 47 42
22 48 43
22 47 42
23 49 44
23 49 44
23 50 45
23 50 45
22 49 44
23 49 44
23 51 46
22 49 44
23 51 46
23 50 45
22 49 44
22 49 44
22 48 44
23 50 46
21 47 42
23 50 45
23 50 45
23 50 45
23 51 46
22 49 44
23 51 46
23 49 45
22 48 44
23 49 44
23 50 45
22 48 43
22 49 44
23 49 44
22 49 44
22 48 43
23 50 45
22 49 44
22 49 44
23 50 45
23 51 46
23 51 46
23 50 45
23 49 45
23 50 45
22 48 43
22 48 43
24 52 47
23 50 45
22 49 44
22 47 43
24 51 46
23 51 46
22 48 43
22 49 44
23 50 45
22 49 44
23 50 45
23 49 45
22 49 44
24 51 46
23 50 45
22 48 43
22 49 44
23 50 45
22 47 43
22 49 44
22 48 44
23 51 46
22 48 43
23 50 45
23 50 45
23 50 45
22 49 44
23 49 45
23 49 45
23 50 45
23 49 44
23 50 45
22 49 44
23 50 45
22 48 44
22 49 44
22 48 44
22 49 44
22 49 44
22 48 43
22 49 44
22 49 44
23 49 45
22 48 43
23 50 45
21 47 42
22 49 44
22 49 44
22 49 44
22 49 44
22 49 44
22 48 44
22 49 44
23 51 46
22 49 44
22 48 43
23 50 45
23 50 45
22 48 44
23 50 45
22 48 44
23 49 44
22 49 44
23 50 45
23 50 45
22 48 43
22 48 44
23 50 45
22 48 43
22 48 44
23 49 45
22 48 43
22 48 43
21 46 42
23 49 45
22 48 44
22 49 44
22 49 44
23 50 45
22 47 43
22 48 44
23 50 46
22 48 43
22 48 43
22 48 44
22 49 45
23 50 45
22 49 44
22 49 44
22 48 43
22 49 44
22 48 44
22 47 43
22 48 44
21 47 43
22 48 44
22 49 44
23 49 44
22 48 43
22 49 44
22 48 44
21 47 42
21 47 42
23 50 45
22 48 43
21 46 42
21 47 42
23 50 45
22 47 43
22 48 43
21 46 42
21 47 42
21 47 42
21 46 42
22 49 44
22 48 43
22 48 43
22 47 43
22 47 43
21 46 41
21 47 43
21 47 42
21 47 43
22 48 44
21 46 42
21 47 43
21 47 43
22 48 43
22 48 43
21 45 41
21 47 43
21 46 42
22 48 44
22 48 43
22 48 43
22 48 43
21 47 43
21 47 42
21 47 42
21 46 42
22 47 43
22 48 43
21 47 42
21 47 42
21 46 42
23 49 45
21 46 42
21 47 42
21 46 42
22 47 43
22 47 43
22 47 43
22 47 43
20 44 40
21 46 42
21 46 42
21 46 42
21 45 41
20 45 40
24 51 46
23 51 46
23 51 46
23 50 45
21 47 43
23 49 45
22 49 44
23 51 46
23 51 46
22 49 44
23 51 46
23 49 45
22 48 44
22 49 44
22 49 44
23 51 46
23 50 45
23 50 45
23 50 45
23 50 45
23 49 45
22 49 44
22 49 44
23 50 45
22 48 44
23 50 45
23 50 45
22 49 44
23 49 45
22 49 44
22 49 44
22 49 44
22 48 44
23 50 45
23 50 45
22 48 43
23 50 45
21 47 42
23 51 46
23 50 46
22 48 43
23 50 45
23 50 45
23 50 45
23 51 46
23 50 45
22 49 44
23 50 45
23 50 46
22 49 44
23 50 45
22 49 44
23 50 45
23 50 45
22 48 44
22 49 44
23 49 45
23 50 45
22 49 44
25 54 49
23 51 46
23 50 45
24 52 47
22 49 44
23 50 45
22 48 43
23 49 45
23 50 45
23 49 45
23 49 45
22 48 43
23 50 45
23 50 45
22 48 43
23 49 44
23 50 45
23 50 45
22 48 44
22 49 44
23 50 45
21 47 42
22 49 44
23 50 45
22 48 43
22 48 44
23 49 44
23 50 45
21 47 42
22 48 43
22 48 44
22 49 44
21 46 41
21 47 42
22 48 44
21 47 42
24 52 47
22 49 44
23 49 45
22 49 44
21 47 43
22 48 43
23 49 45
22 48 44
23 50 45
23 50 45
22 49 44
21 47 43
21 46 42
22 49 44
23 50 45
23 51 46
22 48 43
22 48 44
22 49 44
22 48 44
21 46 42
23 49 45
22 49 44
22 49 44
23 51 46
22 49 44
23 49 45
22 48 43
22 49 44
22 47 43
22 49 44
22 48 44
22 48 44
22 48 43
21 47 43
23 50 45
22 48 43
21 46 42
21 47 43
21 47 42
21 46 41
22 48 44
23 50 45
22 49 44
22 48 43
22 48 43
21 47 42
23 49 45
22 49 44
22 48 44
23 50 45
22 47 43
22 49 44
21 46 42
22 49 44
22 48 44
22 48 43
21 47 42
21 47 43
23 50 45
21 46 42
22 48 43
22 47 43
22 48 44
21 47 42
22 47 43
22 47 43
22 48 43
21 47 43
23 51 46
22 48 43
21 46 42
22 47 43
21 45 41
21 45 41
22 48 43
21 46 41
21 46 42
22 48 44
22 48 44
21 47 42
21 46 42
22 48 43
21 47 42
21 46 42
22 48 44
21 47 42
22 49 44
21 46 42
22 47 43
22 49 44
21 46 42
22 47 43
22 48 43
21 46 42
21 46 42
21 47 42
21 47 42
21 47 42
22 49 44
21 46 42
21 46 41
20 44 40
21 46 41
22 47 42
23 50 45
23 51 46
23 51 46
23 49 44
23 50 45
23 50 45
23 50 45
23 50 45
23 50 45
23 51 46
22 49 44
22 48 43
23 50 45
23 50 45
23 49 45
23 51 46
23 51 46
23 49 45
23 51 46
23 49 45
22 49 44
22 49 44
21 47 42
22 48 43
23 49 45
23 50 45
23 49 45
22 48 43
23 50 45
22 49 44
22 47 42
23 51 46
23 49 44
24 52 47
23 50 45
22 48 44
23 51 46
23 50 45
23 50 46
24 51 46
23 49 45
22 49 44
23 49 45
23 50 46
23 50 45
22 49 44
23 50 45
23 50 46
22 48 44
22 48 43
23 50 45
23 51 46
23 50 45
22 49 44
22 49 44
23 50 45
23 50 45
22 48 44
22 48 44
23 50 45
22 49 44
22 49 44
22 49 44
22 48 44
22 48 43
22 48 43
22 48 43
23 50 45
23 50 45
21 47 42
23 49 45
23 50 45
22 47 43
22 48 44
22 49 44
22 49 44
22 49 44
23 49 44
23 50 45
22 49 45
23 51 46
22 48 43
23 50 45
23 49 45
23 50 45
22 49 44
23 50 45
22 47 43
22 48 43
22 49 44
21 47 42
23 51 46
22 49 44
22 47 43
22 49 45
23 49 45
21 47 43
23 49 45
24 51 46
23 50 45
21 47 43
22 49 44
22 48 44
22 49 44
22 49 44
23 50 45
23 50 46
23 50 45
22 47 43
22 48 44
22 48 44
22 48 44
22 49 44
22 48 44
22 49 44
21 47 42
22 48 44
22 47 43
22 48 44
21 47 43
23 51 46
22 49 44
23 50 45
22 48 43
24 51 47
22 48 43
21 47 43
23 49 45
23 50 45
21 46 42
22 48 44
22 48 43
23 49 45
22 48 43
22 49 44
21 47 42
23 49 45
22 48 43
22 47 43
23 49 45
22 48 43
22 48 44
22 47 43
21 47 42
21 46 42
21 47 42
23 49 45
22 48 44
22 47 43
21 46 42
22 49 44
22 49 44
23 49 45
22 49 44
22 48 44
21 47 43
21 46 42
22 48 43
21 46 42
22 48 44
21 47 43
22 47 43
22 47 43
22 47 43
21 47 42
23 50 45
21 46 42
24 51 47
22 49 44
22 48 44
22 47 43
22 49 44
22 49 44
22 48 43
22 48 44
22 48 43
22 49 44
21 47 43
22 49 45
21 46 42
21 46 42
21 46 42
21 47 42
21 47 43
22 47 43
21 46 41
21 47 42
22 48 43
22 48 43
22 48 44
21 47 42
22 47 43
21 47 42
21 47 43
22 47 43
21 47 43
21 47 43
21 46 42
21 47 42
22 48 43
22 48 44
23 49 44
23 51 46
23 50 45
22 49 44
23 51 46
23 49 44
23 49 44
23 49 45
23 49 44
23 49 44
23 51 46
23 50 45
23 50 45
23 50 45
23 50 45
22 47 43
23 50 45
23 50 45
23 51 46
23 50 45
24 52 47
22 48 43
23 51 46
22 49 44
23 50 45
23 50 46
22 48 43
23 50 45
22 48 43
23 50 45
22 49 44
22 49 44
22 49 44
23 50 45
23 50 45
23 50 45
23 50 45
23 50 45
23 49 45
23 49 44
23 50 45
22 49 44
23 50 45
22 48 44
23 50 45
22 48 44
23 51 46
22 49 44
23 50 45
24 52 47
23 49 45
23 50 45
22 48 43
22 47 43
22 48 44
23 49 44
23 50 45
23 50 45
22 49 44
23 49 45
23 50 45
22 49 44
22 48 43
22 49 44
23 50 45
22 49 44
23 49 45
23 50 45
22 49 44
24 52 47
22 49 44
23 50 45
23 50 45
23 50 45
22 49 44
22 49 44
23 50 45
23 51 46
21 47 42
23 50 45
23 49 45
22 49 44
22 47 43
22 49 44
22 47 43
22 49 44
22 49 44
22 49 44
22 47 43
21 46 41
22 48 43
22 49 44
22 47 43
23 49 44
22 49 44
23 49 45
23 50 45
22 47 43
22 48 44
21 47 43
22 48 43
23 49 45
22 48 43
22 47 43
22 48 44
22 49 44
22 49 44
22 49 44
22 48 43
21 46 42
22 49 44
22 49 44
22 49 45
22 48 44
22 48 43
23 50 45
22 48 44
22 49 44
21 46 42
21 47 43
22 48 44
22 48 44
22 47 43
22 47 43
21 47 42
22 49 44
22 49 44
22 48 44
22 49 44
22 47 43
22 48 44
22 48 44
22 49 44
21 47 42
21 47 42
23 50 45
21 47 42
21 47 42
22 49 45
22 49 44
22 48 43
21 46 42
22 47 43
21 47 42
22 49 44
22 49 44
22 47 43
22 49 44
22 48 44
22 49 44
21 47 42
22 47 43
22 48 43
21 47 43
21 47 43
22 48 43
22 47 43
22 48 43
22 48 44
22 48 44
22 48 44
21 46 42
21 46 42
22 48 44
21 47 42
20 45 41
22 49 44
22 48 44
22 48 43
22 48 43
22 49 44
22 49 44
21 46 42
22 48 43
21 47 43
22 48 44
21 47 42
21 47 43
22 47 43
21 46 42
22 48 43
22 49 44
22 48 43
22 48 44
21 47 43
21 47 43
22 48 44
21 47 42
22 48 44
21 47 42
22 47 43
20 45 41
22 47 43
22 47 43
21 46 42
22 47 43
22 47 43
22 47 42
21 47 42
23 50 45
23 50 45
23 50 45
22 48 44
22 48 43
23 50 45
23 51 46
22 49 44
23 49 45
23 50 45
22 49 44
22 49 44
22 48 43
22 48 44
22 49 44
23 49 44
22 48 43
23 51 46
23 50 45
23 50 45
24 52 47
24 52 47
23 50 46
23 49 44
23 50 45
23 50 45
22 47 43
22 49 44
22 48 44
22 49 44
23 51 46
24 52 47
23 50 45
24 51 47
22 49 44
22 48 44
23 50 45
23 50 45
23 49 44
23 50 45
22 49 44
22 49 44
22 48 43
23 50 45
22 49 44
23 50 46
23 50 45
23 50 45
22 48 44
23 50 45
23 49 44
22 48 43
23 50 45
22 49 44
22 49 44
23 49 45
23 49 45
23 50 46
23 51 46
23 51 46
23 49 45
23 51 46
23 49 45
22 49 44
23 51 46
22 49 44
23 50 45
23 51 46
22 48 44
22 48 44
22 49 44
23 49 44
24 52 47
22 49 44
22 48 44
22 49 44
21 47 43
23 51 46
23 51 46
22 48 43
22 48 44
23 50 45
21 47 42
22 48 43
22 49 44
22 48 44
23 50 45
23 49 45
22 49 44
22 49 44
21 47 42
23 50 45
23 50 45
22 48 44
22 48 44
23 50 45
23 50 45
23 49 44
22 49 44
22 48 43
22 49 44
23 50 46
22 49 44
22 48 44
22 48 44
22 48 43
22 47 43
22 48 44
21 47 42
22 47 43
22 47 43
23 49 45
21 46 42
22 49 44
22 48 43
22 48 44
22 48 44
23 50 45
22 49 44
23 49 45
22 49 44
22 47 43
21 47 43
23 49 45
22 49 45
22 48 43
24 51 47
21 47 42
21 47 42
22 47 43
22 48 43
21 47 43
22 48 44
21 47 43
22 48 44
22 49 44
23 49 45
21 47 42
22 47 43
22 47 43
21 47 43
21 46 42
23 50 45
22 48 43
23 50 45
21 47 42
22 49 44
23 50 45
22 48 44
23 50 45
22 48 44
21 47 43
22 49 45
21 45 41
22 48 43
22 47 43
21 47 42
22 48 43
22 48 43
22 48 44
21 47 42
22 48 43
22 49 44
22 49 44
22 48 44
21 45 41
21 47 42
23 50 46
22 47 43
22 47 43
22 47 43
21 46 42
22 47 43
22 48 43
22 48 43
22 48 43
23 51 46
21 47 43
22 48 43
22 48 43
22 48 44
21 47 43
21 47 43
21 47 43
22 48 44
22 49 44
22 48 44
21 46 42
21 47 42
21 47 43
21 47 43
21 47 42
20 45 41
21 46 42
21 46 41
22 48 44
22 47 42
21 47 42
21 47 43
22 48 43
22 49 44
23 49 45
22 48 43
23 50 45
23 49 45
22 49 44
23 49 44
23 50 45
22 49 44
22 49 44
23 51 46
24 52 47
24 52 47
22 47 42
22 48 43
22 49 44
24 51 46
22 49 44
24 51 46
22 49 44
22 48 44
22 49 44
23 51 46
23 51 46
23 51 46
23 51 46
23 49 45
24 51 46
23 50 45
24 51 46
23 49 44
23 50 45
22 49 44
23 50 45
23 49 45
23 51 46
21 47 42
22 48 44
22 49 44
22 49 44
23 51 46
22 47 43
22 48 44
22 48 44
23 51 46
22 49 44
23 50 45
23 50 45
22 49 44
23 51 46
23 49 44
23 51 46
23 50 45
23 51 46
23 51 46
22 49 44
23 49 45
23 49 45
22 48 44
23 51 46
22 47 42
22 48 44
22 49 44
23 49 44
22 49 44
23 50 45
22 49 44
21 47 42
23 50 45
23 50 45
22 49 44
22 49 44
23 51 46
22 49 44
22 48 44
22 49 44
23 49 45
23 49 45
23 50 46
24 51 46
23 51 46
22 49 44
23 49 45
22 49 44
22 49 44
22 49 44
23 50 45
22 48 43
22 48 43
23 50 46
22 49 44
23 51 46
21 47 42
22 49 44
22 49 44
23 49 45
22 49 44
23 50 45
23 51 46
22 48 43
22 48 44
22 49 45
23 50 45
23 49 45
22 49 44
22 49 44
22 49 44
22 48 43
22 48 43
22 49 45
22 48 43
23 49 45
22 48 43
22 48 44
22 48 44
22 48 43
22 49 44
23 51 46
22 48 44
22 48 43
21 47 43
21 45 41
22 48 44
22 47 43
22 47 43
23 50 45
23 50 45
22 47 43
22 47 43
22 47 43
22 49 44
22 47 43
23 51 46
22 49 44
22 48 44
21 47 42
21 46 42
22 48 43
22 49 45
21 47 43
21 46 42
22 48 44
22 48 44
22 49 45
22 48 43
22 48 44
23 49 45
22 49 44
22 48 43
22 48 43
23 50 45
22 49 45
22 47 43
22 49 44
22 47 43
22 49 44
22 47 43
22 49 44
23 50 45
23 50 45
22 48 44
22 48 44
21 47 42
21 46 41
22 49 44
22 47 43
22 48 44
22 49 44
21 47 42
22 48 43
21 45 41
21 47 42
22 48 44
22 49 44
22 48 44
22 48 43
22 48 44
22 48 44
21 46 42
21 46 42
21 46 42
22 48 43
21 47 42
22 48 43
22 48 43
21 47 42
22 48 44
22 48 44
20 45 41
21 47 42
22 49 44
21 47 42
21 46 41
22 48 43
21 46 42
21 47 42
21 46 42
22 49 44
21 45 41
21 46 42
24 52 47
23 51 46
23 49 45
22 49 44
22 48 43
23 50 45
23 51 46
24 52 47
24 52 47
23 50 45
23 51 46
22 48 43
23 49 45
23 50 45
23 50 45
23 50 45
23 50 45
22 49 44
23 49 44
22 48 43
23 49 45
23 51 46
23 50 45
22 49 44
23 50 45
23 51 46
23 49 45
23 49 45
23 50 45
23 50 45
23 50 45
22 49 44
23 51 46
24 52 47
24 51 46
23 50 45
23 49 45
22 47 43
24 51 46
24 52 47
23 50 45
23 50 45
23 50 45
22 48 44
22 48 44
22 48 43
23 50 45
23 50 45
22 49 44
22 47 43
23 50 45
23 51 46
23 50 45
23 49 45
22 49 44
23 49 44
23 51 46
22 48 43
22 49 44
23 49 45
23 51 46
24 52 47
22 48 43
23 50 45
23 50 45
22 48 43
23 51 46
23 49 45
22 49 44
22 48 44
22 49 44
22 49 44
22 48 44
23 50 45
23 50 45
22 48 43
22 49 44
22 49 44
23 51 46
22 48 44
23 51 46
23 50 45
23 50 46
22 49 44
22 49 44
23 51 46
22 48 44
23 50 45
23 50 45
23 49 45
22 49 44
22 49 44
24 52 47
22 48 44
22 47 43
22 47 43
22 49 44
22 48 44
22 48 43
22 48 43
23 50 46
22 48 44
22 48 44
22 48 43
22 49 44
23 51 46
22 47 43
22 48 43
22 47 43
23 49 45
23 50 45
22 49 44
21 47 42
22 48 44
23 50 46
23 50 45
23 50 45
22 49 45
24 51 46
22 48 44
23 50 45
23 49 45
22 48 43
22 48 43
21 47 42
21 47 43
23 51 46
22 49 44
22 49 44
23 50 45
22 48 43
22 49 44
23 50 45
22 48 44
22 49 44
22 47 43
22 48 44
22 49 44
22 49 44
22 48 44
22 48 44
23 49 45
22 48 44
22 49 44
21 47 43
23 50 45
22 47 43
22 48 43
22 49 44
23 50 45
22 47 43
22 47 43
22 48 44
21 47 43
22 48 44
22 48 44
22 48 44
22 48 44
22 48 43
22 48 43
22 49 44
22 49 44
21 46 42
23 49 45
23 50 45
22 48 43
22 49 44
22 49 45
21 47 42
21 46 42
23 50 45
22 48 44
21 45 41
21 46 41
22 47 43
22 48 44
22 48 44
21 47 42
22 49 44
22 49 44
21 47 42
22 47 43
21 47 43
21 46 42
21 46 41
22 48 43
21 47 43
21 46 42
21 47 42
22 48 44
21 46 42
22 47 43
22 47 43
21 47 42
21 46 42
21 47 43
21 46 41
21 46 42
22 49 44
20 44 40
23 50 45
23 51 46
23 50 46
23 49 44
23 49 45
23 51 46
22 48 44
23 50 45
23 51 46
24 51 46
22 48 44
23 50 45
24 52 47
23 50 45
23 50 45
23 50 45
23 50 45
23 50 45
23 51 46
22 48 44
22 48 43
22 48 43
23 50 45
23 49 45
23 51 46
22 49 44
23 51 46
23 50 45
22 48 43
23 50 45
23 50 45
23 49 44
22 49 44
23 50 45
23 50 45
22 48 43
23 51 46
23 49 45
22 48 44
23 50 45
22 49 44
23 49 44
24 51 46
23 50 45
22 49 44
23 50 45
23 50 45
22 48 44
22 49 44
23 50 45
22 48 44
22 49 44
23 49 45
22 49 44
23 50 45
23 49 44
23 50 45
23 50 45
22 48 43
24 52 47
23 50 45
23 49 45
23 49 45
23 51 46
23 50 45
22 49 44
22 49 44
23 51 46
22 49 44
22 48 43
23 49 45
22 48 43
23 50 45
22 48 44
22 49 44
23 49 45
22 48 44
22 49 44
22 48 43
21 47 42
22 48 43
21 47 42
23 51 46
23 51 46
22 47 43
23 50 46
21 47 42
23 50 46
23 49 45
22 49 44
22 49 44
23 50 45
22 49 44
22 48 44
22 49 44
23 50 45
23 50 45
23 50 45
22 49 44
23 50 45
23 49 45
23 50 45
24 51 46
22 48 43
23 50 45
23 51 46
23 50 45
22 49 44
23 50 45
23 49 45
22 47 43
22 48 43
22 48 43
22 49 44
22 48 44
22 49 44
23 50 45
23 50 45
23 50 45
22 49 44
22 48 44
22 48 43
22 48 43
23 51 46
22 48 43
22 49 44
22 49 44
21 46 42
21 47 43
21 46 42
23 50 45
22 48 44
22 49 44
22 47 43
22 49 45
22 48 43
21 47 42
22 48 43
22 49 44
21 47 42
22 48 43
22 47 43
22 49 44
21 46 42
22 48 43
22 48 43
22 48 44
23 50 45
21 47 43
22 48 44
22 48 43
22 48 44
22 48 44
23 49 45
23 50 45
22 48 43
22 48 43
22 49 44
21 47 42
22 47 43
21 45 41
22 47 43
23 49 45
22 49 44
22 48 44
22 49 44
22 49 44
23 50 45
22 48 44
22 49 44
22 48 43
22 48 44
22 49 45
21 47 42
21 47 42
22 49 44
21 46 42
22 48 44
21 46 42
21 46 42
22 48 43
22 47 43
22 47 43
21 46 42
21 46 42
21 46 42
22 48 43
23 49 45
22 48 43
22 49 44
22 47 43
20 45 41
21 46 42
21 46 42
22 48 43
21 46 42
22 47 43
21 46 42
22 47 43
22 49 44
23 50 45
23 51 46
23 50 45
23 49 44
22 49 44
23 50 45
22 49 44
22 48 44
22 49 44
22 49 44
23 50 45
24 52 47
24 51 46
22 49 44
23 50 45
23 51 46
23 50 45
23 49 44
23 49 44
23 49 45
22 49 44
22 49 44
23 50 45
22 49 44
23 49 45
22 49 44
22 48 43
23 49 45
22 49 44
22 49 44
22 49 44
23 50 45
22 49 44
23 50 45
24 52 47
22 48 43
23 50 45
24 52 47
22 47 42
23 49 44
22 47 43
23 50 45
23 49 44
23 50 45
22 49 44
22 49 44
23 50 45
22 49 44
23 50 45
22 49 45
22 49 44
22 49 44
23 50 45
23 51 46
23 49 44
22 48 44
24 51 47
23 50 45
22 48 43
21 47 42
23 50 45
22 48 44
23 50 45
23 51 46
23 51 46
23 50 45
22 48 43
22 49 44
22 48 43
23 51 46
23 50 45
23 50 45
23 49 45
22 49 44
22 47 43
23 50 45
21 47 43
22 49 44
22 47 43
22 49 44
22 48 43
22 48 44
22 49 44
22 48 44
23 50 46
22 48 44
23 49 44
22 49 44
23 51 46
22 48 44
23 50 45
23 51 46
22 49 44
23 50 45
23 49 45
23 49 45
23 50 45
22 49 44
22 49 44
22 48 44
22 49 44
22 49 45
22 48 44
22 48 44
22 48 44
22 49 44
23 51 46
22 49 44
22 49 44
23 50 45
22 47 43
21 46 42
22 48 44
23 50 45
22 49 44
22 48 44
22 48 44
22 47 43
23 49 45
23 50 46
22 48 43
22 49 44
22 48 43
22 48 44
22 49 45
23 51 46
22 49 44
22 49 44
22 48 44
21 47 43
23 50 46
23 51 46
22 48 44
22 49 44
22 49 44
22 47 43
22 48 44
23 50 45
22 49 44
21 47 43
22 48 43
22 49 45
23 49 45
22 49 44
22 48 44
22 48 44
22 48 43
22 48 44
21 47 42
22 49 44
22 48 44
22 48 44
22 48 43
23 49 45
22 48 44
22 48 44
23 50 45
22 48 43
21 47 42
22 49 44
23 50 45
22 47 43
21 47 43
22 47 43
22 47 43
21 47 43
22 47 43
22 48 43
22 48 44
22 48 43
21 46 42
21 47 42
22 48 44
22 48 44
23 50 46
21 47 42
22 48 43
22 47 43
22 49 44
22 48 44
21 46 42
22 48 44
22 48 43
21 46 42
22 48 44
21 47 42
22 49 44
22 48 43
22 47 43
23 50 45
21 46 42
21 46 42
22 49 44
21 46 42
22 47 43
22 48 44
22 48 43
22 47 43
21 46 42
22 49 44
23 51 46
23 50 45
24 52 47
23 50 45
23 50 45
22 49 44
23 50 45
23 50 45
22 49 44
23 50 45
23 50 45
22 48 43
22 49 44
22 49 44
23 51 46
22 49 44
23 51 46
22 48 43
23 49 44
23 50 45
24 52 47
23 49 45
22 49 44
22 49 44
23 50 45
23 50 45
23 51 46
23 50 45
22 48 44
22 48 44
23 51 46
23 51 46
22 49 44
23 50 45
24 52 47
24 52 47
24 52 47
23 50 46
23 49 44
23 50 45
23 49 44
24 51 46
23 51 46
22 49 44
23 50 45
23 50 45
23 50 46
23 50 46
22 48 43
23 50 45
22 48 43
22 49 44
22 48 43
23 51 46
22 49 44
23 51 46
24 51 46
22 47 43
23 50 45
22 48 44
23 49 44
23 50 45
22 48 43
22 48 43
22 47 43
22 49 44
23 49 45
23 50 45
23 51 46
23 51 46
22 49 44
23 51 46
23 51 46
22 49 44
22 48 44
22 49 44
22 49 44
22 49 44
22 49 44
22 48 43
23 49 45
23 51 46
22 48 43
22 48 43
23 50 45
23 50 45
23 50 45
23 51 46
22 47 43
22 49 44
21 46 41
23 50 45
23 50 45
23 50 45
22 48 44
22 48 44
23 49 45
23 50 45
22 49 44
22 48 44
22 48 44
22 49 44
22 49 44
22 49 44
22 48 43
22 48 43
22 49 44
22 49 44
22 48 43
21 47 42
22 48 43
23 50 45
22 48 43
23 51 46
22 49 44
22 49 44
22 48 43
22 48 44
22 48 44
23 49 45
22 49 44
22 49 44
21 47 43
22 49 44
22 49 44
23 49 45
22 48 44
22 48 44
22 47 43
21 47 43
22 48 44
22 48 43
22 47 43
22 47 43
22 49 44
22 48 43
22 49 44
22 48 44
22 49 44
21 47 42
22 49 44
21 47 42
22 49 44
22 47 43
22 48 44
22 48 43
23 49 45
21 47 43
21 46 42
22 47 43
22 49 44
22 49 44
23 49 45
22 48 44
21 47 43
21 46 42
22 48 43
22 47 43
23 50 45
22 48 44
22 49 44
22 48 44
21 47 43
23 50 45
22 49 44
22 48 44
22 48 43
22 49 44
22 48 43
23 50 46
22 48 43
22 48 44
22 48 43
22 48 43
22 47 43
22 48 43
23 50 45
23 49 45
22 48 44
22 47 43
21 47 42
22 48 43
22 47 43
21 46 42
22 48 44
21 46 42
21 47 43
23 50 45
22 47 43
23 49 45
22 48 43
21 47 43
21 47 43
22 47 43
21 47 42
22 49 44
21 47 42
21 47 43
22 48 43
22 48 43
23 49 45
22 48 43
23 50 45
22 49 44
23 50 45
23 49 45
23 50 45
23 50 45
23 50 45
23 51 46
23 51 46
22 49 44
23 50 45
23 51 46
23 50 45
24 52 47
24 52 46
23 50 46
23 51 46
22 49 44
23 49 45
23 50 45
24 51 46
24 53 48
24 52 47
23 49 44
23 51 46
22 49 44
22 48 43
22 49 44
23 49 44
22 49 44
22 49 44
23 50 45
23 51 46
24 51 46
23 49 44
23 50 45
23 50 45
22 49 44
23 49 45
23 51 46
22 49 44
22 48 43
23 51 46
23 49 45
22 49 44
23 50 45
25 54 48
23 51 46
23 50 45
23 51 46
23 51 46
22 49 44
23 50 45
23 50 45
22 48 44
22 48 43
23 50 45
23 51 46
23 49 45
23 49 45
23 49 45
23 50 45
22 48 44
22 49 44
23 51 46
23 51 46
23 49 45
23 49 45
22 48 43
22 49 44
23 50 45
22 49 44
22 49 44
22 48 43
23 50 45
22 49 44
23 50 45
22 49 44
23 50 45
22 49 44
22 48 44
22 49 44
22 47 43
23 50 45
22 48 43
22 48 44
23 50 45
23 50 45
23 50 45
22 48 43
23 50 45
22 49 44
23 49 45
23 51 46
22 49 44
23 50 45
22 49 44
22 49 44
23 50 45
23 49 45
23 49 45
23 50 45
23 51 46
22 48 44
23 49 45
22 48 44
23 50 45
22 48 43
21 47 42
23 50 45
22 49 44
22 49 44
22 48 44
22 47 43
22 48 44
21 47 42
23 50 45
23 51 46
22 48 43
22 47 43
22 48 43
22 49 44
22 47 43
22 49 44
23 50 45
22 49 44
22 49 44
22 49 44
23 50 45
22 48 44
22 48 43
22 48 44
22 48 44
22 48 43
23 49 45
22 48 43
22 49 44
22 48 43
22 49 44
22 48 44
22 49 44
22 48 43
23 49 45
23 49 45
22 49 44
21 47 42
22 48 44
23 50 46
21 47 43
22 48 43
22 47 43
21 47 43
21 47 43
22 48 44
23 50 45
22 48 43
22 48 44
21 46 42
22 47 43
22 47 43
22 49 44
22 48 44
21 45 41
22 49 44
21 46 42
21 47 43
22 49 45
22 47 43
22 48 44
22 48 44
22 48 43
22 47 43
21 47 42
22 48 43
22 48 43
22 49 44
21 47 43
21 46 42
22 48 44
21 47 43
22 49 44
22 47 43
22 48 43
22 48 44
21 46 42
22 48 43
22 48 43
21 47 42
22 48 43
22 48 44
21 47 42
22 49 45
21 46 42
21 46 42
21 45 41
21 46 42
21 45 41
21 47 43
23 50 45
22 49 44
22 48 43
23 50 45
22 48 44
22 49 44
22 48 43
23 50 45
22 49 44
22 49 44
23 50 45
22 49 44
23 49 44
23 49 45
23 50 45
23 50 45
24 51 46
23 49 45
22 49 44
23 50 45
22 49 44
22 49 44
23 49 45
23 49 44
22 49 44
23 51 46
22 49 44
23 51 46
22 49 44
23 50 45
23 51 46
24 51 46
23 51 46
23 50 45
22 49 44
23 50 46
23 50 45
22 49 44
24 52 47
23 50 45
23 49 44
22 47 43
22 49 44
22 47 43
21 47 42
23 49 44
23 49 45
23 50 45
23 51 46
22 49 44
22 48 43
24 52 46
23 50 45
23 50 45
23 50 45
23 50 45
22 47 43
23 50 45
23 50 45
23 51 46
21 46 42
23 50 45
23 49 45
22 49 44
23 51 46
23 51 46
23 50 45
24 51 46
22 49 44
23 49 45
22 49 44
23 50 45
22 49 44
22 48 44
23 50 45
22 49 44
23 49 44
23 50 45
22 49 44
22 48 43
23 50 45
22 47 42
22 49 44
22 49 44
23 49 45
22 48 43
24 52 47
23 50 45
23 50 45
22 48 44
23 50 45
23 50 45
22 48 43
24 52 47
23 50 45
23 50 45
23 50 46
22 48 43
22 49 44
22 49 44
23 50 45
21 46 42
22 47 43
23 49 44
23 51 46
23 49 45
22 48 44
22 49 44
23 50 45
23 49 45
22 49 44
22 48 43
22 48 44
22 49 44
22 47 43
22 49 44
22 49 44
22 49 45
22 48 43
22 49 44
22 48 43
23 49 45
22 49 45
22 49 44
23 50 45
23 50 45
22 48 44
22 49 45
22 48 44
22 49 44
23 49 44
23 50 46
23 50 45
22 48 43
22 49 44
22 48 44
22 47 43
22 49 44
22 48 44
22 47 43
22 48 43
22 49 44
22 47 43
22 48 43
22 48 44
22 47 43
22 49 44
22 49 44
22 49 44
21 46 41
22 49 44
21 45 41
22 48 44
22 48 44
22 48 44
22 48 44
22 49 44
22 47 43
22 48 43
22 48 43
23 50 45
22 48 43
22 49 44
22 48 43
21 47 43
22 48 43
21 47 43
21 46 41
22 48 44
22 48 43
22 47 43
22 48 43
23 50 45
22 48 43
22 48 43
22 48 44
21 46 42
21 47 42
22 47 43
21 47 42
22 48 43
22 48 44
21 47 42
22 47 43
21 46 42
21 47 42
22 48 43
21 46 42
21 47 42
22 48 43
21 46 42
21 47 43
21 47 42
21 47 42
22 48 43
22 47 43
21 47 43
21 46 42
22 47 43
21 47 43
23 50 45
23 51 46
23 51 46
23 50 45
23 51 46
23 50 45
23 50 45
22 49 44
23 50 45
23 50 45
23 50 45
22 48 44
22 49 44
22 49 44
23 50 45
23 51 46
23 50 45
23 50 45
22 48 43
23 51 46
24 52 46
22 49 44
22 48 44
23 51 46
23 50 45
23 50 45
22 48 43
23 51 46
22 48 43
23 49 45
23 49 44
23 51 46
22 48 44
23 50 45
23 51 46
22 49 44
23 50 46
22 48 44
23 51 46
23 50 46
23 51 46
22 48 43
23 49 44
22 49 44
23 50 45
22 48 43
23 49 44
22 48 44
23 50 45
23 50 45
23 51 46
22 49 44
23 51 46
22 48 43
23 51 46
22 49 44
23 50 46
23 50 45
22 47 43
23 51 46
23 50 45
23 50 45
23 50 45
22 49 44
23 49 45
22 49 44
22 49 44
22 48 43
23 50 45
22 48 43
23 50 45
22 49 44
22 49 44
23 49 45
22 49 44
23 51 46
23 49 44
22 48 44
23 49 45
23 50 45
22 48 43
22 48 43
21 47 42
22 49 44
24 51 47
23 50 45
22 48 43
24 52 47
22 47 43
22 49 44
23 50 45
22 47 43
23 50 45
22 49 45
22 48 44
23 50 45
23 50 45
23 50 45
22 49 44
23 49 45
24 52 47
22 49 44
23 50 45
22 48 44
22 49 44
23 49 45
23 50 45
23 49 45
22 49 45
22 48 44
22 49 44
22 48 43
23 50 45
22 48 44
22 48 44
22 47 43
23 50 45
23 49 45
23 50 45
22 49 44
21 47 42
23 50 45
22 48 43
22 48 43
23 50 45
22 47 43
22 49 44
22 47 43
23 50 45
22 48 43
23 50 45
22 48 44
23 50 45
23 50 45
22 49 44
22 49 44
21 47 43
21 47 42
22 47 43
23 49 45
22 47 43
22 48 44
22 49 45
22 48 43
22 47 43
21 46 42
22 49 44
23 50 45
23 50 45
23 51 46
22 48 43
21 47 42
21 47 42
22 49 44
21 47 43
22 47 43
22 49 45
22 48 43
21 46 41
22 47 43
22 49 44
21 46 42
22 49 44
23 51 46
21 46 41
22 48 43
22 49 44
22 48 44
21 46 42
22 49 44
22 48 44
22 49 44
21 46 42
23 49 45
22 47 43
21 47 42
22 49 45
21 47 43
22 49 44
22 48 43
21 46 42
22 49 45
21 47 43
21 47 42
22 48 44
22 49 44
21 46 42
22 48 44
22 48 43
22 48 44
21 46 42
21 47 43
22 48 44
21 47 42
22 48 44
20 45 41
22 47 43
22 49 44
21 46 42
21 47 43
23 51 46
23 49 44
22 49 44
23 50 45
23 50 45
21 46 42
23 50 45
24 51 46
23 49 45
24 51 46
23 50 45
23 49 44
23 50 45
23 49 44
22 49 44
23 49 44
23 49 44
23 51 46
23 49 45
22 48 43
23 51 46
23 51 46
22 49 44
23 50 45
22 48 44
24 52 47
23 50 45
23 49 44
23 51 46
24 52 46
23 51 46
23 50 45
24 51 46
23 50 45
22 48 43
22 49 44
23 50 45
23 50 45
23 51 46
21 47 42
22 48 44
24 52 47
23 50 45
22 49 44
23 51 46
22 48 43
23 50 45
22 48 43
22 48 43
22 48 43
22 48 43
22 49 44
23 49 45
23 49 44
23 50 45
24 51 47
22 49 44
22 49 44
21 47 42
22 47 43
22 49 44
23 49 44
23 50 45
23 50 45
23 51 46
23 51 46
23 50 45
23 51 46
22 48 43
22 48 44
23 51 46
23 51 46
22 48 44
23 49 45
23 51 46
23 51 46
23 51 46
23 50 45
22 48 44
22 49 44
23 50 45
23 51 46
22 48 43
22 47 43
23 51 46
22 48 44
23 51 46
22 48 43
22 47 43
22 49 44
21 47 42
22 48 43
23 50 45
22 48 43
24 52 47
22 49 44
24 51 46
23 50 45
23 51 46
22 49 44
22 49 44
22 49 44
22 48 44
23 50 46
21 47 43
23 50 45
23 49 45
22 49 44
21 47 42
23 51 46
23 51 46
22 47 43
22 48 43
22 48 43
23 50 45
22 48 44
22 47 43
22 48 44
23 50 45
22 49 44
22 49 44
22 49 44
23 50 45
22 48 44
22 48 43
23 50 45
22 48 43
22 48 43
22 48 43
22 47 43
22 48 43
22 48 44
22 48 44
22 49 45
22 48 44
23 50 45
23 50 45
23 51 46
21 47 42
24 52 47
22 49 44
22 48 44
21 47 42
21 47 43
22 49 44
22 47 43
22 48 44
22 48 43
21 47 42
22 47 43
22 48 44
22 48 43
22 48 43
21 47 43
21 47 43
22 48 44
21 47 43
21 47 43
22 47 43
22 48 43
22 48 44
21 47 43
22 48 44
23 50 45
23 51 46
21 47 42
22 48 43
22 48 43
23 50 45
22 48 44
22 47 43
22 49 44
22 49 44
22 48 44
22 48 44
21 47 43
22 49 44
22 48 44
21 46 42
21 46 41
21 47 42
22 48 44
21 47 43
22 49 44
21 46 42
21 46 42
22 48 43
22 48 44
21 47 43
22 48 44
22 49 44
22 49 44
21 46 42
21 46 42
21 46 41
22 47 43
22 48 44
22 47 42
21 47 43
22 48 43
23 49 45
23 49 45
23 50 45
24 51 46
23 49 44
23 51 46
23 50 45
25 54 48
23 50 45
23 50 45
24 52 47
23 50 45
23 50 45
23 51 46
23 49 44
24 52 47
23 49 44
24 52 47
23 50 45
23 50 45
23 51 46
23 50 45
22 49 44
23 50 45
23 50 46
22 49 44
22 49 44
22 48 43
22 49 44
23 51 46
23 50 45
23 50 46
22 49 44
23 50 45
23 51 46
23 49 44
22 48 44
23 49 44
23 50 45
23 50 45
22 49 44
22 49 44
23 51 46
23 50 46
24 51 46
22 48 44
22 48 44
23 50 46
22 48 44
22 49 44
24 51 46
23 50 45
21 47 42
23 50 45
22 49 44
22 48 44
22 48 44
22 49 44
23 50 45
22 49 44
23 51 46
22 49 44
22 47 43
22 48 43
23 51 46
23 51 46
23 51 46
24 52 47
22 49 44
23 50 45
22 49 44
23 49 45
22 49 44
23 50 45
22 49 44
22 49 44
22 49 44
23 50 45
22 49 44
23 49 45
23 49 45
22 49 44
22 48 43
22 47 43
22 49 44
23 50 45
22 49 44
22 48 44
22 48 44
23 50 45
22 48 43
22 49 44
22 48 44
23 50 45
22 47 43
22 48 44
23 51 46
23 51 46
22 48 44
22 47 43
22 49 44
22 47 43
23 49 45
22 49 44
23 51 46
22 49 44
22 49 44
21 47 42
22 48 43
22 49 45
22 48 44
22 48 44
22 49 44
21 46 41
23 49 45
23 51 46
23 50 45
22 47 43
23 49 45
22 48 43
23 49 45
23 50 45
23 50 45
22 47 43
21 47 42
23 50 45
22 48 43
21 47 42
22 48 44
22 49 44
22 49 44
22 48 44
22 49 44
22 48 43
23 50 45
23 50 45
22 48 43
22 48 44
22 48 44
22 48 43
22 48 43
22 48 43
22 48 43
22 49 44
21 47 42
22 49 44
21 47 43
21 47 42
21 46 42
23 50 45
23 51 46
21 47 42
23 49 45
23 50 45
21 47 43
23 50 46
22 49 45
22 48 44
23 50 45
22 48 43
23 50 45
23 50 45
22 49 44
22 49 45
22 48 44
22 49 44
22 48 43
22 48 44
22 48 44
23 50 45
22 48 43
22 49 44
22 48 43
22 48 44
22 48 44
22 49 44
22 47 43
22 48 43
21 47 42
22 48 43
22 47 43
22 48 44
21 47 43
23 49 44
22 47 43
21 47 42
21 47 42
21 46 42
22 49 44
21 47 42
22 48 43
22 47 43
22 47 43
21 46 42
22 48 44
21 46 42
21 47 42
21 47 42
22 49 44
21 46 42
23 50 45
23 51 46
23 51 46
24 52 46
23 50 45
23 51 46
22 49 44
23 51 46
23 49 44
23 51 46
23 50 45
22 49 44
23 51 45
23 51 46
23 50 45
23 49 45
23 51 46
23 49 45
23 51 46
22 47 43
23 49 45
23 50 45
23 50 45
23 51 46
23 50 45
23 51 46
24 52 47
23 49 44
23 49 45
22 49 44
23 51 46
23 50 45
22 49 44
23 51 46
23 51 46
22 47 43
23 50 45
22 49 44
22 49 44
22 49 44
24 51 47
23 50 45
22 48 44
23 50 45
23 49 44
23 50 45
23 51 46
22 49 44
22 48 43
22 49 44
22 47 43
23 49 44
22 48 44
23 50 45
23 49 44
23 51 46
22 49 44
23 50 45
23 50 45
24 52 47
23 50 45
21 47 42
23 50 45
21 46 42
23 50 45
22 49 44
22 48 44
22 48 44
22 47 43
22 47 43
23 50 45
23 51 46
23 50 45
23 51 46
23 50 45
22 48 43
23 50 45
23 50 46
22 48 43
23 50 45
22 49 44
23 51 46
24 52 47
23 50 45
22 49 44
22 49 44
21 47 42
23 51 46
23 49 44
22 49 44
22 48 43
22 49 44
23 50 45
22 49 44
22 47 43
23 50 45
22 48 43
22 48 44
22 49 44
23 50 45
23 50 45
23 50 45
23 50 46
23 50 45
22 48 44
22 49 44
23 49 45
22 48 43
22 49 44
23 50 45
23 50 46
22 49 44
22 49 44
22 49 44
23 49 45
23 50 45
22 48 44
22 49 44
23 50 45
22 48 43
22 49 44
22 49 44
22 48 44
22 48 44
23 50 45
22 48 43
22 49 45
23 50 46
23 49 45
22 48 44
22 49 44
23 50 45
23 50 45
21 47 43
22 48 44
22 48 44
22 49 44
23 50 45
21 47 43
23 49 45
22 47 43
21 46 42
21 47 43
22 47 43
22 49 44
21 46 41
22 48 43
21 46 42
23 50 45
23 50 45
22 48 44
22 49 44
22 48 43
22 48 43
22 47 43
21 46 42
22 48 43
22 48 44
22 48 44
22 47 43
22 48 43
22 48 44
22 48 43
22 47 43
22 48 43
22 49 44
22 48 43
21 46 42
21 47 42
22 48 44
22 48 43
21 46 42
22 48 43
22 48 44
22 48 43
22 48 44
21 47 42
22 48 43
21 47 43
21 47 42
21 47 43
23 50 45
23 50 45
21 46 42
22 48 43
22 48 43
21 46 42
22 47 43
21 45 41
22 47 43
21 47 43
21 47 42
22 48 43
21 47 42
21 47 43
21 46 41
22 47 43
22 48 44
22 48 43
21 47 43
23 51 46
23 50 45
23 50 45
23 51 46
23 50 45
23 50 45
23 50 46
23 50 46
23 50 45
23 49 45
22 49 44
24 52 47
22 48 44
23 50 45
22 49 44
22 49 44
23 51 46
22 49 44
22 49 44
23 49 45
22 48 44
23 49 44
23 49 44
23 50 45
23 50 46
22 49 44
23 51 46
23 50 45
23 50 45
23 49 44
22 48 44
23 50 45
22 49 44
22 48 43
23 51 46
22 49 44
22 48 43
22 47 43
22 48 44
23 50 45
24 51 46
23 50 46
23 50 45
22 49 44
23 49 45
22 47 43
23 49 44
23 50 45
22 49 44
23 50 45
23 49 45
23 50 45
23 51 46
23 50 45
23 50 45
23 50 45
23 50 45
23 51 46
23 50 45
23 49 45
23 50 45
23 49 44
23 49 44
23 49 45
24 51 46
22 49 44
22 49 44
22 48 44
23 50 45
22 48 43
22 48 44
23 49 44
24 52 47
23 50 45
22 47 43
23 49 45
22 48 44
23 50 45
24 53 47
22 48 43
22 49 44
22 48 43
22 49 44
23 50 45
23 50 45
22 48 43
22 48 43
22 48 44
23 50 45
23 51 46
23 50 45
23 50 45
23 51 46
22 48 43
22 47 43
23 50 45
22 49 44
22 47 43
23 49 45
22 49 44
22 49 44
23 50 45
23 50 45
22 47 43
22 49 44
22 49 44
22 48 44
22 48 44
22 48 44
21 46 42
22 48 44
22 49 44
21 46 42
22 48 43
24 52 47
22 49 44
21 47 43
23 49 45
23 49 45
23 50 45
22 49 44
22 47 43
22 48 44
22 49 44
21 46 42
22 48 43
21 47 43
22 48 44
22 49 44
22 49 44
23 50 45
23 50 46
22 48 43
22 48 43
22 49 44
21 47 43
22 48 43
22 48 43
22 49 44
22 48 43
22 48 43
23 50 45
22 48 44
21 46 41
22 49 44
22 49 44
21 47 42
23 50 46
22 48 43
22 47 43
23 50 45
22 48 44
21 47 43
22 48 44
22 49 44
23 50 45
22 49 44
22 49 45
22 48 43
22 48 44
21 47 43
22 49 44
21 46 42
22 48 44
22 49 44
22 49 44
21 46 42
21 47 42
21 46 41
22 48 44
22 47 43
22 49 44
21 46 42
23 50 45
22 49 44
21 46 41
22 48 43
22 49 45
21 46 42
21 45 41
21 47 43
22 48 44
22 48 43
22 49 44
21 46 42
22 48 43
22 48 43
23 50 45
21 47 43
22 48 44
21 47 43
23 49 45
23 50 46
22 48 44
21 46 41
21 46 42
21 46 42
22 49 44
22 49 44
20 44 40
23 50 45
22 49 44
22 49 44
22 49 44
22 49 44
23 50 45
24 51 46
22 49 44
23 49 45
23 49 44
23 51 46
22 49 44
23 51 46
23 50 45
23 51 46
23 51 46
22 48 43
23 50 45
23 51 46
22 48 44
22 48 43
22 48 44
23 50 46
23 50 45
23 51 46
22 49 44
22 49 44
23 50 45
24 52 46
22 49 44
23 50 45
23 51 46
23 51 46
24 53 48
23 50 46
22 48 43
22 48 44
23 50 45
23 50 45
23 51 46
22 48 44
22 48 43
23 50 45
23 51 46
23 50 45
23 51 46
24 51 46
22 49 44
23 49 44
22 49 44
23 50 45
23 50 45
23 50 45
23 50 45
22 49 44
22 48 44
23 49 45
24 52 47
23 50 45
22 48 44
22 49 44
23 51 46
22 48 43
23 50 45
23 50 45
23 51 46
23 50 45
22 48 43
22 49 44
22 48 43
23 50 45
22 49 44
23 49 44
23 50 45
22 49 44
23 50 45
23 49 44
22 48 44
23 50 45
22 48 43
23 49 45
23 50 45
22 48 44
22 48 43
21 47 42
22 48 44
22 49 44
23 49 45
21 47 42
22 49 44
24 52 47
23 50 45
23 50 45
22 49 44
23 50 45
22 48 43
23 50 45
22 48 43
22 49 44
23 51 46
23 49 45
23 50 45
22 47 43
23 50 45
23 51 46
22 48 43
22 49 44
22 48 44
22 49 44
23 50 46
22 49 45
21 46 42
23 50 46
23 50 45
22 49 44
21 46 42
22 48 43
23 50 45
22 48 44
22 49 44
22 48 44
23 50 45
21 47 42
23 50 46
23 49 45
22 48 44
23 51 46
22 49 44
22 48 44
22 47 43
22 49 44
22 47 43
22 48 44
22 49 44
22 49 44
22 48 43
22 49 44
22 49 44
23 50 45
22 48 43
22 49 44
22 49 44
22 49 44
21 47 43
22 49 44
22 48 43
22 48 43
21 47 42
22 48 44
22 48 43
22 48 44
22 47 43
22 48 44
22 48 44
22 48 43
21 47 43
22 48 43
22 48 43
22 49 44
22 49 44
22 49 44
22 49 44
22 47 43
22 48 44
22 48 44
22 48 44
21 47 43
23 50 46
22 47 43
23 50 45
22 48 43
22 48 44
22 48 44
21 46 42
22 49 44
21 47 43
22 48 43
21 46 42
21 47 43
21 47 42
21 45 41
22 49 44
21 47 43
22 48 44
21 47 42
22 49 44
21 47 43
22 47 43
21 47 43
21 47 43
22 47 43
22 48 44
21 47 42
21 47 42
22 49 44
22 48 43
23 50 45
22 47 43
22 47 43
22 48 44
23 51 46
22 49 44
22 49 44
23 50 45
23 51 46
23 51 46
23 50 45
24 53 47
23 50 46
23 50 45
23 51 46
23 50 45
23 50 45
23 50 45
23 51 46
23 49 44
23 50 45
22 49 44
23 50 45
23 49 45
22 48 43
23 50 45
22 49 44
24 51 46
23 50 45
22 48 43
23 49 44
22 48 43
22 49 44
23 50 45
23 49 45
23 51 46
22 49 44
23 50 45
23 50 45
23 50 45
23 50 45
23 49 45
23 50 45
23 51 46
23 49 45
23 49 45
23 50 45
23 50 45
23 50 45
23 51 46
22 49 44
22 49 44
23 51 46
22 48 43
23 50 45
23 50 45
22 48 43
22 48 44
22 49 44
24 52 47
23 51 46
23 50 45
23 50 45
22 48 43
23 50 45
22 49 44
23 51 46
23 49 45
23 49 45
23 49 45
22 48 43
23 49 45
22 48 43
22 49 44
22 49 44
24 52 47
22 49 44
22 49 44
22 49 44
22 47 43
23 49 45
23 50 45
22 49 44
23 51 46
22 49 44
23 50 45
22 48 44
23 50 45
23 50 45
23 50 45
22 48 43
21 47 42
22 48 44
22 49 44
22 49 44
23 49 44
23 50 45
22 47 43
23 50 45
22 49 44
23 50 45
22 48 44
22 48 43
22 49 45
22 49 44
23 49 45
21 47 42
23 51 46
22 48 44
22 48 44
22 49 44
21 47 42
21 46 42
23 50 45
23 50 46
22 48 44
22 48 43
23 50 45
22 49 44
22 47 43
22 48 43
22 49 44
22 49 44
23 50 45
23 50 45
23 50 45
22 48 43
23 49 45
23 50 45
23 50 45
22 49 45
23 49 45
22 49 44
22 48 44
22 48 43
23 50 45
23 50 45
23 50 45
22 47 43
22 48 43
22 49 44
22 48 43
22 49 45
21 47 42
22 47 43
21 46 41
23 50 45
22 49 44
22 49 44
22 48 43
22 48 43
23 50 45
22 48 44
22 47 43
21 47 43
23 51 46
21 47 42
21 46 41
21 47 42
22 49 44
22 49 44
23 50 45
22 48 43
21 46 42
21 46 42
22 49 44
21 47 43
23 50 45
22 49 44
21 47 43
22 48 43
23 50 45
22 49 44
21 47 42
21 46 42
21 47 43
20 45 41
22 48 44
21 47 42
22 48 43
21 47 42
23 50 45
22 48 44
21 47 42
21 47 43
22 49 44
23 50 45
22 47 43
21 46 42
22 48 44
22 49 44
22 48 43
23 51 46
22 48 44
22 48 44
22 47 43
21 47 43
22 48 44
22 47 43
22 48 44
21 46 42
21 46 41
21 47 43
21 46 41
22 49 44
22 48 44
23 49 45
23 51 46
22 47 43
23 50 45
22 49 44
23 49 44
23 49 45
22 48 43
22 47 43
23 50 45
23 49 45
23 50 45
22 49 44
22 49 44
22 49 44
24 51 46
23 50 45
22 49 44
23 50 45
22 48 44
25 53 48
23 49 45
23 50 45
23 50 45
23 51 46
24 52 47
22 49 44
23 50 45
22 49 44
23 51 46
23 50 45
23 49 44
23 51 46
23 50 45
23 50 45
21 47 42
23 51 46
23 49 45
22 49 44
22 48 43
24 53 48
23 51 46
22 48 43
22 48 44
22 48 44
23 50 45
23 50 45
23 50 45
22 49 44
24 52 47
22 49 44
22 49 44
23 49 44
23 51 46
22 49 44
24 53 48
22 49 44
23 50 45
22 48 43
23 50 45
22 48 43
23 51 46
23 49 44
23 50 45
23 51 46
22 49 44
23 51 46
23 50 45
23 50 45
22 49 44
23 50 45
23 50 45
23 49 45
22 49 44
22 49 44
22 49 44
22 47 43
22 48 44
22 48 43
22 48 43
22 49 44
22 49 44
22 48 44
23 50 45
22 48 44
22 48 44
23 50 45
22 48 43
22 48 44
23 51 46
23 49 45
22 48 43
23 50 45
22 49 44
23 50 45
23 50 46
23 50 45
22 48 43
23 50 45
23 50 46
22 49 44
23 50 45
22 48 44
22 49 44
22 49 45
22 49 44
22 49 44
23 50 45
23 49 45
22 49 44
22 49 44
22 49 44
22 48 44
22 47 43
23 50 45
21 47 42
23 50 45
23 50 45
22 48 43
22 49 44
22 47 43
23 49 45
22 49 44
22 48 43
22 49 44
23 49 45
23 50 45
22 48 44
21 46 42
21 47 43
21 47 43
22 48 43
22 47 43
23 50 45
23 49 45
22 48 43
22 49 44
22 49 44
22 48 43
23 50 45
22 48 44
22 49 45
22 47 43
22 49 44
22 48 43
22 49 45
22 48 43
22 48 43
21 47 43
22 48 43
22 47 43
22 48 43
22 48 44
22 47 43
22 48 44
22 49 44
22 48 44
22 47 43
22 48 43
23 50 45
22 47 43
22 49 44
22 47 43
22 47 43
22 49 44
22 48 43
23 50 45
22 47 43
22 48 43
22 48 43
22 48 43
22 49 44
21 47 42
22 48 43
21 47 43
21 46 42
22 48 44
21 46 42
22 48 44
22 47 43
22 48 43
21 46 42
22 48 44
23 50 45
21 47 42
22 48 44
21 47 42
21 47 43
21 46 42
22 48 44
21 47 43
22 48 43
21 47 42
21 47 43
22 49 44
22 48 43
21 47 42
22 47 43
23 51 46
23 49 45
23 51 46
23 50 45
23 51 46
23 50 45
23 50 45
23 50 45
23 50 45
22 49 44
23 49 44
22 49 44
24 52 47
23 50 45
23 51 46
22 48 44
22 48 43
23 50 45
22 48 44
23 50 45
23 50 45
22 49 44
23 49 44
23 51 46
22 49 44
22 48 44
23 50 45
22 49 44
22 49 44
23 50 45
23 50 45
22 49 44
23 49 45
23 50 45
23 50 45
23 50 45
24 52 47
23 50 45
23 50 45
22 49 44
22 49 44
23 51 46
23 50 45
23 50 45
23 50 45
22 48 43
22 48 43
23 50 45
22 48 43
22 48 43
22 49 44
22 48 43
23 50 45
23 51 46
22 47 43
22 48 44
23 50 45
22 47 43
23 50 45
22 47 43
22 48 44
23 51 46
22 49 44
22 48 43
23 50 45
23 50 46
23 50 45
22 48 44
22 48 43
23 50 45
23 50 45
24 52 47
23 49 45
22 48 43
23 50 45
23 50 45
23 50 45
22 49 44
23 51 46
22 48 43
24 52 47
22 48 44
23 50 45
22 49 44
22 49 44
23 50 45
22 49 44
22 48 43
23 51 46
22 47 43
22 49 44
23 51 46
22 48 44
23 50 45
23 50 45
23 49 45
23 51 46
23 49 44
22 47 43
22 47 43
22 48 43
23 51 46
22 48 43
22 48 44
23 50 45
23 50 45
23 51 46
22 48 43
22 47 43
22 49 44
23 49 45
22 49 44
22 47 43
22 48 44
22 49 44
22 48 44
23 49 45
21 47 42
23 50 45
22 49 44
21 47 43
22 49 44
22 49 44
21 47 42
21 47 42
22 48 44
23 50 46
22 49 44
22 48 43
22 48 44
22 49 44
23 50 45
22 49 44
22 49 44
22 48 44
22 49 44
22 49 44
22 49 44
22 49 45
23 50 46
22 48 44
22 48 43
22 48 43
21 47 43
22 49 45
22 49 45
22 49 44
21 47 42
22 49 45
21 47 43
21 46 42
22 48 43
22 48 44
23 50 45
22 49 45
20 44 40
22 48 43
22 48 44
21 47 43
22 48 43
22 49 45
22 49 44
22 47 43
22 48 43
22 49 44
22 49 44
21 47 42
22 49 45
22 48 44
22 49 44
22 48 43
23 50 45
22 48 44
21 47 42
22 48 44
22 48 43
22 49 44
22 49 44
22 49 44
22 49 44
22 48 43
21 46 42
22 47 43
22 49 44
21 46 42
22 49 44
22 47 43
22 48 44
21 47 42
22 49 45
21 46 42
22 47 43
22 49 44
21 47 43
21 47 43
21 45 41
22 48 44
22 48 43
21 46 42
22 47 43
23 51 46
22 48 44
23 49 44
23 49 45
23 49 45
22 49 44
24 51 46
22 49 44
23 50 45
24 53 47
23 50 45
24 52 47
22 49 44
22 49 44
24 52 47
23 50 46
23 51 46
23 50 45
23 49 44
23 50 45
22 48 44
23 50 45
22 49 44
23 49 44
23 49 45
24 51 46
22 48 43
24 52 46
23 51 46
22 48 43
24 52 47
23 51 46
22 49 44
22 48 43
22 49 44
23 51 46
22 49 44
22 48 43
23 50 45
22 48 43
23 50 45
23 49 45
23 50 45
23 49 45
24 53 48
23 49 44
23 49 45
22 49 44
23 49 45
23 49 45
22 48 43
22 48 44
23 50 45
23 51 46
23 49 45
22 49 44
23 50 45
23 51 46
22 48 43
22 49 44
24 51 46
23 51 46
23 50 45
23 50 45
22 48 43
22 49 44
22 49 44
23 51 46
23 50 45
22 49 44
23 50 45
22 49 44
22 49 44
22 49 44
24 52 47
22 47 43
23 50 45
22 49 44
23 50 45
22 48 44
23 49 45
22 48 44
23 50 45
22 49 44
23 49 45
22 48 43
22 49 44
23 50 45
22 48 44
22 49 44
22 49 44
23 50 45
23 51 46
22 49 44
23 50 45
23 50 45
22 48 44
22 48 43
23 49 45
22 49 44
23 49 45
22 48 44
23 50 45
23 50 45
23 49 45
21 46 42
22 48 44
22 49 44
23 50 45
23 50 45
22 48 43
22 47 43
23 50 45
22 47 43
23 50 45
22 49 44
22 48 43
21 47 42
22 49 44
23 50 45
22 49 44
22 48 43
23 49 45
23 50 45
22 48 44
23 51 46
22 49 44
22 49 44
22 48 44
23 50 45
22 47 43
22 48 43
22 49 44
22 48 44
22 48 43
22 48 43
22 48 44
22 47 43
22 48 43
23 51 46
22 48 44
22 48 44
22 49 44
22 48 44
22 47 43
22 48 44
21 47 42
22 47 43
22 48 44
23 51 46
22 48 44
21 47 42
21 47 42
22 48 43
22 49 44
22 48 44
22 47 43
23 50 45
22 48 43
22 49 44
22 48 43
22 48 43
22 48 43
21 46 42
21 46 42
21 47 43
22 48 43
23 49 45
21 47 42
22 48 44
22 48 44
22 47 43
21 47 43
22 48 43
21 46 42
22 48 43
22 48 43
21 47 43
21 47 42
21 47 43
22 48 43
22 49 44
22 47 43
21 46 42
21 45 41
22 48 44
22 48 43
21 46 42
21 46 41
21 46 42
21 47 42
21 46 41
22 48 44
22 48 44
22 49 44
21 46 42
22 48 43
21 47 42
22 48 44
21 46 42
22 49 44
22 48 44
22 49 44
22 49 44
22 49 44
23 50 45
22 49 44
24 51 46
22 49 44
23 50 45
23 50 45
22 49 44
23 49 44
23 49 44
23 50 45
23 50 45
22 49 44
22 48 44
23 50 45
23 50 45
23 50 45
23 50 45
22 48 43
22 48 44
22 48 43
22 48 43
22 48 43
23 50 45
22 48 43
22 48 43
23 50 45
23 49 44
23 50 45
22 48 43
22 48 44
23 50 45
23 50 45
23 50 45
22 49 44
22 49 44
23 51 46
22 48 43
22 48 44
22 49 44
23 50 45
23 50 45
23 50 45
22 48 43
23 50 45
23 50 45
22 48 44
23 49 44
22 49 44
23 50 45
23 51 46
23 50 45
23 50 45
23 50 45
22 48 44
22 49 44
22 47 43
23 50 45
23 50 45
23 49 45
23 49 45
22 49 44
24 51 46
23 50 45
23 50 45
22 49 44
22 48 43
22 48 43
22 48 43
22 48 43
23 49 45
23 50 45
23 50 45
23 50 45
24 51 46
23 50 45
22 48 43
23 50 45
23 49 45
22 49 44
22 49 44
23 50 45
22 47 43
22 49 44
23 50 45
23 50 46
23 51 46
23 50 45
23 49 45
22 48 44
23 49 45
23 50 45
22 48 44
23 49 45
23 51 46
22 47 43
22 47 43
23 50 45
23 50 45
22 49 44
22 48 44
23 51 46
24 52 47
23 51 46
22 48 43
22 48 44
22 49 44
22 48 43
22 48 43
22 48 43
22 48 43
22 49 44
23 49 45
23 50 45
24 53 48
23 51 46
22 49 44
22 48 43
22 48 43
22 49 44
22 49 44
22 49 44
23 49 45
22 48 43
22 49 44
21 47 42
22 48 43
21 47 42
22 49 44
24 52 47
23 49 45
21 47 42
22 48 43
22 48 43
22 49 44
23 51 46
22 49 44
22 49 45
22 48 43
22 47 43
21 46 42
21 46 42
21 47 42
22 48 43
22 49 44
22 48 44
22 47 43
21 47 43
22 48 43
22 47 43
22 48 44
22 49 44
22 47 43
21 46 42
21 47 42
22 49 44
22 48 44
23 50 45
22 48 44
21 47 42
22 49 44
22 48 44
22 48 43
21 46 42
21 46 42
21 47 43
21 46 42
22 49 45
21 47 42
21 47 43
22 48 44
23 51 46
21 47 42
21 46 42
21 47 43
21 46 42
22 49 44
22 48 44
22 48 44
22 48 44
21 47 43
21 47 43
21 47 42
22 47 43
21 47 43
23 50 46
21 46 42
23 49 45
22 47 43
21 46 42
21 46 41
21 47 43
21 46 42
21 46 42
22 48 43
22 48 44
23 51 46
24 52 47
23 50 45
23 50 45
22 49 44
22 49 44
23 50 45
22 48 44
23 51 46
22 48 44
23 50 45
22 48 43
23 50 45
23 50 45
23 50 45
23 50 46
23 50 45
23 51 46
23 50 45
23 51 46
23 50 45
23 51 46
23 49 44
23 49 45
23 50 45
22 49 44
24 52 47
23 50 45
23 51 46
23 50 45
22 48 43
23 50 45
22 49 44
22 49 44
22 49 44
23 49 45
22 48 43
22 49 44
22 48 44
24 51 46
24 52 47
22 49 44
23 50 45
23 50 45
23 50 45
22 49 44
23 49 45
23 50 46
23 50 45
22 49 44
23 50 45
24 52 47
23 49 45
23 51 46
22 49 44
22 48 43
23 50 45
23 49 45
22 48 43
22 48 43
23 50 45
22 47 43
23 50 45
23 50 45
22 49 44
23 50 45
23 50 45
22 49 44
24 51 46
24 52 47
22 49 44
22 49 44
22 49 44
23 50 45
23 50 45
22 49 44
22 49 44
22 49 44
22 49 44
23 50 45
22 49 44
23 50 45
23 51 46
23 50 45
22 49 44
23 51 46
23 50 45
23 50 46
22 49 44
23 51 46
22 49 44
23 49 45
22 49 44
24 52 47
22 49 44
22 48 44
22 48 43
22 49 44
22 49 44
23 50 45
22 48 43
22 47 43
22 49 44
23 50 45
23 51 46
22 49 44
22 49 44
21 46 41
23 50 45
23 50 45
22 48 43
23 50 45
22 49 44
23 49 45
23 49 45
23 49 45
23 50 45
22 48 43
22 48 43
23 50 45
22 48 44
21 46 41
22 48 44
22 48 43
23 49 45
22 49 44
23 49 45
22 49 44
21 47 42
23 49 45
22 49 44
22 49 44
22 48 44
22 49 44
23 50 45
22 48 44
21 46 42
23 49 45
23 50 45
22 48 43
22 49 45
23 51 46
23 51 46
22 48 43
22 48 44
21 46 42
22 48 43
22 49 44
22 48 44
23 49 45
22 49 45
22 47 43
23 50 45
22 47 43
23 49 45
21 47 42
22 49 44
22 48 43
22 48 44
22 49 45
22 49 45
22 49 44
22 48 44
22 48 44
21 47 43
23 50 45
22 49 45
22 49 44
22 49 44
22 48 44
22 48 43
21 47 42
22 48 43
22 48 44
22 48 44
22 47 43
21 46 42
21 47 43
23 49 45
21 47 42
21 47 42
22 48 43
23 50 46
22 48 43
21 46 42
21 46 41
21 46 42
21 47 43
22 48 43
21 46 42
21 47 42
22 48 43
23 50 46
22 48 43
22 47 43
21 46 42
21 46 42
21 47 42
23 51 46
22 48 44
22 49 44
22 49 44
24 52 46
23 50 45
23 51 46
22 49 44
24 52 46
22 48 43
22 48 44
23 50 45
23 50 45
23 50 45
23 50 46
22 47 43
23 50 45
23 49 44
23 50 45
23 50 45
23 49 44
24 51 46
22 48 43
22 48 44
23 50 45
22 48 43
23 51 46
22 49 44
22 49 44
23 50 45
24 53 47
23 50 45
23 49 45
22 47 43
22 48 43
23 50 45
23 50 45
23 50 46
23 49 44
23 50 45
22 49 44
22 48 43
22 48 44
23 50 45
23 50 45
22 49 44
22 48 43
23 51 46
23 50 45
23 50 45
23 51 46
23 50 45
23 50 45
23 50 45
24 51 46
23 50 45
23 49 44
23 50 45
24 52 47
23 49 45
22 48 44
23 49 45
23 50 45
22 49 44
23 51 46
23 51 46
24 52 47
22 49 44
24 51 46
22 49 44
21 47 43
22 49 44
23 50 45
23 50 45
24 52 47
23 49 45
22 49 44
22 48 44
23 50 45
22 48 44
22 48 43
23 51 46
23 51 46
23 50 45
23 51 46
23 49 45
22 49 44
23 50 45
23 49 45
23 49 44
23 51 46
22 48 44
23 49 44
24 52 47
22 49 44
24 53 48
22 49 44
22 48 44
22 48 44
23 50 45
24 52 47
22 49 44
23 50 46
23 50 45
23 49 45
22 49 44
22 49 44
22 48 43
23 50 45
23 50 45
22 48 43
22 47 43
22 49 44
22 49 44
22 48 44
23 49 45
22 48 44
22 48 44
22 49 44
22 48 43
22 48 43
22 49 44
22 48 43
22 48 44
23 51 46
22 49 45
22 47 43
23 50 45
21 47 42
22 49 44
22 48 44
22 49 44
21 46 42
22 48 43
23 49 45
22 47 43
21 47 42
22 48 44
22 49 44
21 46 42
22 48 43
22 49 44
22 49 44
23 50 45
23 50 45
23 49 45
22 49 45
23 51 46
22 49 44
22 48 43
22 49 44
22 47 43
22 48 43
23 50 45
22 48 44
23 50 45
22 49 44
24 52 47
22 47 43
22 48 43
21 47 42
22 49 44
22 48 44
21 47 43
21 46 42
23 50 45
22 48 44
22 49 44
22 49 44
22 49 44
22 47 43
22 49 45
22 49 45
22 48 44
21 46 42
22 48 44
21 47 42
22 49 44
21 46 42
21 47 42
23 50 45
22 48 43
22 49 44
21 46 42
23 50 45
22 48 43
22 48 43
22 49 44
22 48 43
23 50 45
21 47 42
22 48 44
21 46 42
21 47 43
23 51 46
23 49 45
22 48 43
22 49 44
21 47 43
22 47 43
22 49 44
21 47 43
22 49 44
23 49 44
24 52 47
24 51 46
22 49 44
23 51 46
23 50 46
22 49 44
22 48 43
23 50 45
23 50 45
23 50 45
22 47 43
23 50 45
23 50 45
23 50 45
23 51 46
23 50 45
24 52 47
23 50 45
22 48 44
23 50 45
23 51 46
23 51 46
23 50 45
23 49 44
23 49 45
23 49 44
23 51 46
23 50 45
23 50 45
23 51 46
23 50 46
23 50 45
24 51 46
22 48 44
23 49 45
24 52 47
22 49 44
22 48 44
24 52 47
23 50 45
23 51 46
23 50 45
23 50 45
23 51 46
23 50 45
22 49 44
23 51 46
23 50 45
22 48 44
22 49 44
22 49 44
23 50 45
23 50 45
23 50 45
23 51 46
22 49 44
23 50 45
23 50 45
22 48 44
23 50 45
24 51 46
23 50 45
22 49 44
23 50 45
23 49 44
22 47 43
22 49 44
23 50 46
22 49 44
22 48 44
23 50 45
22 49 44
22 48 43
23 51 46
24 51 46
23 50 45
22 48 43
21 47 43
22 48 43
23 51 46
23 50 45
23 50 45
23 49 45
22 48 44
22 49 44
22 48 44
22 49 44
22 49 44
23 50 45
23 50 45
23 49 44
22 48 44
23 49 45
23 49 45
22 49 44
23 50 45
22 48 44
22 48 43
22 49 44
22 49 44
23 51 46
22 48 44
21 47 42
21 47 42
23 50 45
22 48 43
21 47 42
22 49 44
23 49 45
22 48 43
22 48 44
23 49 45
22 49 44
23 50 45
22 49 44
22 48 43
23 49 45
22 49 44
23 50 45
23 50 46
23 49 45
22 49 44
22 49 44
22 49 45
23 50 45
22 47 43
22 48 43
23 49 45
22 49 44
22 48 43
24 52 47
22 48 44
23 50 46
22 48 43
22 49 44
23 50 45
23 49 44
23 50 45
22 48 43
22 47 43
21 47 43
22 47 43
21 47 43
22 49 44
22 47 43
22 47 43
23 50 45
22 48 44
22 47 43
23 50 45
22 49 44
22 48 43
22 47 43
22 48 44
22 48 43
23 50 45
21 46 42
22 48 43
22 48 44
23 50 45
21 46 42
23 50 45
22 48 43
23 49 45
22 49 44
22 48 43
23 49 45
23 51 46
22 48 44
23 50 45
22 48 44
23 49 45
22 48 43
22 48 43
22 48 43
22 48 44
22 48 43
22 49 44
22 48 44
22 48 44
21 47 42
23 49 45
22 49 44
22 48 44
21 47 43
21 46 42
22 48 44
22 48 44
22 48 43
21 47 42
22 49 44
21 45 41
21 47 43
22 48 44
22 48 44
21 47 43
22 48 44
22 47 43
23 51 46
23 50 45
23 51 46
23 50 45
24 52 46
22 49 44
24 52 47
23 50 45
23 51 46
23 50 45
22 49 44
23 50 45
23 50 45
23 50 45
23 51 46
23 50 45
22 49 44
22 49 44
24 51 46
23 51 46
23 51 46
23 50 45
23 49 44
22 49 44
23 50 45
22 48 44
23 50 45
23 50 45
22 48 44
23 50 45
23 51 46
22 48 43
24 51 46
23 50 45
23 49 45
22 48 43
23 51 46
22 48 44
23 51 46
23 50 45
23 50 45
22 49 44
22 49 44
23 51 46
23 51 46
22 49 44
23 49 44
23 51 46
23 50 45
23 50 45
23 51 46
23 50 46
22 49 44
23 50 46
23 49 44
22 49 44
23 50 45
23 51 46
23 51 46
22 49 44
22 47 43
23 49 45
23 50 45
22 49 44
22 49 44
23 50 45
22 49 44
23 50 45
22 48 44
24 51 47
23 51 46
23 50 45
23 51 46
23 50 45
22 48 44
22 48 43
23 50 45
23 49 44
23 49 45
22 47 43
23 49 45
23 50 45
23 49 44
23 50 46
22 49 44
23 49 45
22 48 43
23 50 45
22 48 44
22 49 44
22 48 43
22 48 43
22 48 43
23 51 46
22 49 44
24 51 46
23 49 45
23 50 45
22 49 44
22 49 44
22 48 43
22 49 44
23 50 45
22 49 45
22 48 43
23 50 45
24 52 47
23 50 45
22 47 43
22 47 43
22 49 44
21 47 42
22 48 44
23 51 46
22 47 43
22 48 43
23 49 45
23 49 45
23 49 45
23 49 44
22 48 44
22 48 43
22 48 43
22 49 44
23 51 46
22 48 44
23 49 45
22 47 43
21 47 43
22 49 44
21 47 43
22 49 44
23 49 45
22 48 44
22 48 44
22 49 44
23 50 45
22 49 44
21 47 42
21 46 42
22 49 44
21 46 42
21 46 42
22 47 43
23 49 45
23 50 46
23 50 45
22 48 43
21 46 42
21 46 41
22 48 44
21 47 43
22 48 43
23 51 46
24 52 47
23 51 46
21 47 43
22 48 43
23 50 45
22 49 45
23 50 45
22 49 44
23 50 45
22 48 43
21 47 42
23 49 45
22 48 44
21 47 43
21 46 42
22 49 45
23 49 45
22 48 44
22 48 43
22 48 43
22 48 44
22 48 43
21 45 41
22 47 43
22 48 44
22 49 44
22 48 43
22 47 43
22 49 44
22 48 44
21 47 43
22 48 44
22 49 44
22 47 43
22 48 43
21 46 42
23 49 45
22 48 44
23 49 45
22 49 44
21 47 43
21 47 42
21 46 42
22 48 44
23 50 45
22 47 43
24 52 47
23 51 46
23 49 45
22 49 44
23 50 45
24 52 47
23 51 46
22 48 43
23 49 44
23 51 46
23 50 45
22 47 43
23 50 45
22 48 43
23 50 45
23 49 45
23 51 46
23 51 46
23 50 45
23 50 46
23 51 46
23 51 46
23 51 46
22 48 43
23 50 45
23 50 45
23 50 45
23 50 45
22 49 44
23 50 45
22 49 44
22 49 44
24 53 48
22 49 44
22 49 44
23 51 46
22 49 44
22 48 44
22 49 44
23 49 44
22 49 44
22 49 44
23 50 45
23 49 45
23 51 46
23 50 45
23 50 45
23 50 45
22 47 43
23 50 45
22 48 44
22 49 44
23 49 45
23 51 46
23 50 45
24 51 46
23 50 45
23 49 45
24 52 47
24 52 47
23 51 46
23 50 45
22 48 43
23 50 45
23 50 45
22 48 44
22 48 43
23 49 45
23 50 45
22 48 44
23 50 45
23 50 45
23 51 46
24 51 46
24 52 47
22 48 44
22 49 44
23 50 45
23 49 45
22 49 44
22 49 44
23 50 45
22 47 43
22 49 44
22 48 44
23 49 45
22 48 44
22 49 44
22 49 44
22 48 44
22 49 44
22 48 43
23 50 45
23 49 45
23 50 45
23 50 45
23 51 46
22 48 44
23 50 45
23 50 46
22 49 44
22 49 44
23 50 45
22 49 44
21 46 42
22 48 44
22 48 43
22 49 44
22 48 44
23 50 45
22 49 44
22 48 44
22 47 43
23 50 45
22 49 45
23 50 46
22 48 43
23 50 46
22 48 43
22 48 43
21 46 42
23 50 45
22 49 44
23 51 46
22 48 43
22 48 44
22 49 45
23 50 45
21 47 42
22 48 43
23 49 45
22 48 44
22 49 44
22 48 44
22 49 45
23 50 45
21 47 42
21 47 42
22 47 43
22 48 43
21 47 42
21 45 41
22 49 44
21 46 42
22 48 43
21 46 41
21 46 42
22 49 44
23 50 45
22 49 44
22 48 44
23 51 46
22 48 44
22 48 43
22 48 43
23 51 46
23 50 45
22 49 45
22 48 44
21 47 43
22 48 43
21 46 42
23 50 45
22 48 43
22 48 44
21 47 43
22 49 44
23 49 45
22 48 43
21 47 42
22 49 44
22 48 44
23 50 45
22 48 43
21 46 41
21 47 43
21 46 42
22 49 44
22 47 43
23 50 46
22 47 43
21 47 43
21 47 43
21 47 43
22 48 43
22 48 44
22 48 44
22 49 45
21 46 42
22 48 43
22 49 45
21 46 42
22 49 44
20 44 40
22 49 44
22 48 44
21 46 42
23 50 45
22 48 44
22 48 44
24 51 46
23 50 45
22 49 44
22 49 44
23 50 45
23 49 45
23 50 45
23 51 46
22 49 44
22 48 44
22 48 43
23 50 45
23 51 46
24 51 46
23 50 45
23 50 45
23 50 45
23 50 45
23 51 46
23 49 44
23 51 46
23 50 45
22 47 43
23 49 44
24 52 47
23 49 45
23 50 45
23 49 45
24 51 46
23 49 45
22 48 44
24 51 46
22 49 44
23 51 46
22 49 44
23 50 45
22 48 44
22 49 44
24 52 47
22 49 44
24 51 46
23 50 45
24 51 46
23 50 45
22 49 44
23 50 45
22 49 44
23 50 45
22 48 43
22 49 44
22 47 43
23 51 46
24 52 47
22 49 44
23 49 44
23 50 46
23 50 45
23 50 45
23 50 45
23 51 46
23 49 45
23 50 45
22 49 44
23 50 45
22 49 44
23 50 45
23 49 44
22 49 44
23 50 45
22 48 43
22 48 43
22 49 44
23 50 45
23 51 46
22 47 43
23 50 45
23 51 46
22 49 44
23 51 46
23 50 45
22 49 44
22 47 43
23 51 46
24 52 47
22 49 44
23 50 46
22 48 44
22 48 44
21 47 42
22 48 44
24 52 47
22 48 43
23 50 45
22 49 44
23 50 45
23 51 46
22 49 44
23 50 45
22 49 44
23 50 45
22 49 44
22 49 44
23 51 46
22 49 45
22 48 43
22 48 44
23 50 45
23 50 46
23 49 45
22 48 43
23 50 46
22 47 43
23 50 45
22 48 43
23 51 46
23 49 45
23 49 45
24 53 48
21 47 43
22 48 44
22 48 43
22 48 43
22 48 44
22 48 44
22 48 44
21 47 42
22 48 43
22 49 44
22 48 44
23 51 46
22 49 44
22 49 44
22 48 44
21 47 43
23 50 45
23 50 45
23 50 45
22 47 43
22 47 43
22 47 43
22 49 44
23 49 45
21 47 43
22 48 44
22 48 44
23 50 45
22 48 44
22 48 44
22 48 44
22 48 43
22 49 44
21 47 43
22 48 43
22 49 45
22 48 44
22 48 44
22 48 44
21 47 42
22 48 43
22 48 43
22 47 43
22 49 44
23 50 45
22 48 44
22 48 44
22 49 44
22 49 44
21 46 42
22 49 44
21 47 43
22 48 44
21 47 43
21 47 42
22 48 44
21 46 42
21 47 43
21 46 42
22 48 44
22 49 44
22 48 43
22 47 43
22 47 43
21 47 43
21 47 42
22 48 44
22 47 43
22 49 45
21 47 42
22 47 43
21 45 41
22 49 44
22 48 44
22 48 43
21 47 43
22 49 44
21 47 43
21 46 42
22 49 44
22 47 43
22 49 44
23 50 45
23 51 46
23 50 45
22 48 43
23 50 45
23 51 46
23 49 44
23 49 44
22 48 44
21 46 42
23 50 45
23 51 46
23 50 45
23 50 45
23 50 45
23 50 45
22 48 44
23 49 44
23 49 45
23 51 46
22 48 44
23 50 45
22 48 44
22 49 44
23 50 46
23 50 45
23 50 45
23 50 45
23 51 46
22 49 44
22 49 44
23 50 45
23 51 46
23 50 45
22 48 44
23 49 45
22 49 44
22 49 44
22 49 44
23 49 44
23 50 45
23 50 45
23 50 45
23 49 44
23 51 46
22 48 43
23 51 46
23 50 45
23 51 46
22 48 44
22 48 44
22 47 43
24 53 48
23 50 45
23 51 46
22 49 44
22 48 43
22 49 44
22 48 44
22 49 44
22 49 44
22 48 44
22 48 43
24 51 46
24 51 46
22 48 43
23 51 46
23 49 45
23 50 45
22 48 43
23 50 45
23 51 46
22 48 43
24 52 47
23 50 45
23 50 45
23 50 45
23 51 46
22 48 44
22 48 44
22 49 44
23 51 46
23 50 45
22 49 44
22 48 44
22 49 44
23 51 46
23 50 45
22 49 44
23 50 45
22 48 44
22 49 44
23 50 45
23 50 46
23 50 45
23 50 46
22 49 44
22 48 43
23 50 45
22 49 44
22 48 44
22 48 43
23 49 45
22 49 44
22 49 44
23 50 45
22 48 44
22 48 44
22 47 43
24 53 48
23 49 45
23 50 46
23 49 45
23 50 45
23 49 45
22 48 44
23 51 46
22 48 44
22 48 43
22 48 43
23 51 46
23 51 46
22 49 44
22 48 43
21 47 42
22 49 44
22 47 43
21 46 42
22 49 44
23 51 46
22 49 44
23 50 46
22 49 44
22 48 43
22 48 44
23 50 45
22 47 43
22 48 43
22 48 43
22 48 44
22 48 43
23 50 45
22 47 43
23 50 45
22 49 44
22 49 44
21 46 42
22 49 44
21 47 42
22 47 43
21 45 41
22 47 43
21 47 42
22 49 44
22 48 44
22 49 44
22 48 43
22 48 44
21 47 43
22 48 44
22 48 44
22 47 43
23 51 46
22 49 45
23 51 46
22 49 44
22 49 44
23 50 45
23 50 45
22 49 45
23 51 46
21 47 42
22 48 44
22 48 44
23 50 45
21 46 42
22 48 44
22 47 43
22 48 43
22 47 43
21 47 43
22 48 43
21 47 42
22 48 43
21 47 42
22 49 45
21 46 42
21 47 43
22 48 43
21 45 41
22 48 43
22 48 44
22 49 44
22 48 44
22 48 44
21 47 42
21 47 43
22 48 43
23 49 45
22 48 43
23 51 46
23 50 45
24 52 47
23 51 46
23 49 44
23 50 45
23 51 46
23 50 45
23 50 45
23 50 45
23 50 45
23 49 44
22 49 44
22 49 44
22 49 44
23 51 46
22 49 44
22 48 44
24 53 48
23 49 45
23 50 45
22 48 43
23 50 45
23 50 45
23 50 46
22 48 44
23 50 45
23 50 45
23 51 46
23 50 45
23 50 45
23 50 45
22 48 43
23 49 45
23 49 45
23 51 46
22 49 44
22 49 45
23 50 45
23 51 46
22 49 44
23 49 45
23 49 44
23 51 46
22 49 44
22 49 44
23 50 45
23 50 45
23 50 45
22 48 44
23 49 45
24 53 48
22 49 44
23 50 45
22 49 44
22 47 43
22 49 44
22 48 44
24 51 46
23 50 45
23 49 44
23 51 46
22 48 43
21 47 42
22 48 43
23 51 46
23 50 45
22 47 43
22 49 44
23 49 45
22 48 43
22 47 43
24 52 47
23 50 45
23 50 45
24 52 47
22 49 44
22 48 44
23 50 45
22 49 44
23 50 46
23 49 44
23 49 45
22 49 44
23 50 45
23 50 45
23 50 45
22 48 43
23 50 45
22 48 43
22 49 45
24 52 47
23 50 45
23 50 45
22 48 44
23 51 46
23 49 45
22 48 44
22 49 44
23 51 46
22 49 44
22 49 44
22 47 43
22 48 44
22 48 44
22 49 44
23 49 45
22 49 44
22 48 44
23 50 46
22 49 44
21 46 42
24 51 47
22 49 44
23 49 45
23 50 45
22 49 44
22 49 44
23 49 45
22 49 44
23 50 45
24 52 47
20 45 41
22 48 43
23 51 46
22 49 44
22 48 43
23 50 46
23 49 45
22 49 44
23 50 45
23 50 45
22 48 44
22 48 43
22 49 44
22 48 43
22 48 43
22 48 44
22 48 43
22 49 44
22 49 44
22 48 43
22 49 44
22 49 44
22 48 44
22 47 43
22 49 45
22 49 44
23 50 45
22 49 45
22 49 44
23 50 45
22 49 44
22 48 43
22 49 44
22 49 44
21 46 41
21 47 42
23 50 45
23 50 45
22 48 43
23 49 45
22 48 44
22 48 44
22 49 44
22 49 45
21 46 42
21 47 43
22 48 43
22 47 43
22 49 45
22 48 43
22 48 43
21 46 42
22 49 44
22 48 43
22 48 44
22 48 44
21 46 42
22 48 44
22 48 44
21 46 42
21 47 43
22 47 43
21 47 42
21 47 42
22 49 44
22 49 45
21 47 43
21 46 42
22 49 44
21 47 42
23 50 46
22 48 43
22 49 45
22 47 43
21 47 43
21 47 43
22 48 44
23 50 45
23 50 45
24 52 47
24 53 48
23 50 45
21 47 42
22 49 44
24 51 46
23 50 45
23 49 44
22 49 44
22 49 44
23 50 45
23 50 45
22 49 44
23 50 45
23 50 45
23 50 45
22 49 44
24 51 46
23 50 45
22 49 44
23 51 46
23 51 46
22 48 43
23 51 46
23 50 46
23 49 44
22 48 43
22 49 44
23 50 45
23 50 45
23 50 45
24 51 46
22 48 44
23 51 46
22 49 44
22 49 44
22 48 43
23 50 46
22 49 44
23 49 45
23 50 45
23 50 45
23 50 45
22 48 44
22 49 44
23 50 45
24 52 47
22 49 44
23 50 45
23 51 46
22 48 44
23 50 45
22 49 44
23 50 45
23 50 45
23 51 46
23 49 45
23 51 46
23 51 46
23 51 46
23 50 45
23 51 46
23 51 46
23 50 45
22 48 44
22 49 44
22 49 44
23 50 45
22 48 43
22 48 44
23 50 45
22 49 44
23 50 45
23 51 46
22 49 44
23 50 46
22 48 43
22 49 44
23 50 45
21 47 42
22 48 44
23 50 45
22 49 44
22 48 44
22 48 43
23 49 44
23 51 46
22 47 43
23 50 45
22 49 44
24 52 47
22 49 44
22 49 44
22 49 44
22 48 43
22 49 44
23 49 45
23 50 45
23 51 46
22 48 44
22 48 44
22 48 44
22 48 44
22 49 44
21 47 43
21 47 42
22 47 43
22 48 43
21 47 42
22 49 45
22 49 44
22 48 44
23 50 45
22 49 44
22 47 43
23 50 45
22 49 44
23 49 45
22 47 43
21 47 43
22 49 45
24 52 47
23 50 45
22 49 44
22 49 44
23 49 44
22 48 44
22 48 44
22 48 44
21 47 42
23 50 46
23 50 45
23 50 45
22 49 44
22 48 44
22 48 44
21 47 42
22 49 44
22 49 45
22 48 43
22 48 43
22 48 43
22 49 45
22 48 44
21 47 42
22 47 43
21 47 42
22 48 43
22 49 44
22 47 43
22 47 43
24 52 47
21 47 43
22 48 43
22 49 44
21 47 43
23 49 45
22 49 44
22 48 43
23 50 45
23 51 47
21 47 43
22 49 45
22 47 43
21 47 42
22 49 45
22 48 43
22 48 43
21 47 42
21 47 43
22 48 44
22 49 45
22 49 44
22 47 43
23 49 45
23 49 45
22 48 44
23 50 45
21 46 42
22 48 44
21 46 42
22 48 43
22 48 44
22 48 43
22 48 44
22 49 44
21 47 42
22 47 43
21 47 43
22 48 43
21 46 42
21 47 42
21 47 42
22 48 43
21 46 42
22 48 43
22 49 44
22 48 44
22 48 44
23 49 44
22 48 44
23 51 46
23 51 46
23 51 46
23 50 45
23 51 46
23 51 46
23 51 46
23 50 45
22 49 44
23 49 44
22 48 43
23 50 45
23 49 45
23 50 45
22 48 43
23 50 45
23 50 45
22 49 44
24 51 46
22 48 43
23 50 45
23 50 45
22 48 44
23 49 45
22 49 44
22 48 44
23 51 46
23 51 46
23 51 46
22 49 44
23 51 46
24 52 47
23 50 45
23 49 44
22 49 44
23 49 44
23 49 45
23 50 45
22 49 44
23 50 45
23 50 46
22 49 44
23 49 45
23 49 45
22 48 44
23 50 45
23 49 44
23 51 46
23 50 45
22 49 44
22 49 44
22 48 43
23 50 45
23 50 45
22 48 44
23 49 45
24 52 47
23 49 45
22 47 43
22 49 44
23 50 45
22 48 43
23 49 45
23 50 46
22 48 43
23 49 45
23 50 45
23 50 45
22 49 44
22 49 44
22 49 44
23 51 46
24 51 47
22 49 44
22 48 44
22 48 44
22 49 44
22 48 43
22 48 43
22 48 44
23 49 44
22 49 44
22 47 43
23 51 46
23 49 45
22 48 43
23 51 46
23 50 46
22 49 44
22 48 44
22 48 43
23 50 45
23 49 45
22 47 43
21 47 42
22 47 43
22 49 44
23 50 45
23 49 44
22 49 45
23 50 45
22 47 43
22 48 44
22 49 44
22 48 44
22 47 43
23 50 45
22 47 43
22 49 44
22 48 44
22 49 44
22 48 43
22 49 44
21 47 42
22 49 44
23 51 46
23 50 45
22 47 43
22 47 43
22 48 43
22 48 43
22 49 44
22 49 44
23 49 45
23 50 45
23 49 45
22 49 44
23 51 46
22 47 43
22 48 44
21 46 42
22 49 44
23 51 46
23 49 45
22 49 44
21 47 43
22 49 44
22 48 43
23 50 46
23 50 45
22 48 43
22 48 43
22 49 44
23 50 45
22 49 44
22 47 43
22 49 45
24 53 48
22 48 43
23 50 45
22 48 43
21 47 43
22 49 45
21 47 43
22 47 43
21 47 43
23 50 45
22 49 45
24 52 47
22 48 44
22 49 44
22 48 43
23 51 46
22 48 44
22 49 45
22 49 44
22 48 44
22 49 44
22 49 44
21 46 42
22 48 44
22 49 44
22 48 43
22 48 43
21 47 43
22 48 44
21 46 42
22 48 44
21 47 43
23 50 45
22 48 44
21 46 42
22 48 43
22 48 44
21 47 42
21 47 43
22 48 44
23 50 46
22 48 43
22 49 44
22 48 44
23 49 45
22 48 44
21 47 43
21 47 42
21 45 41
21 46 42
22 48 44
24 52 47
23 51 46
23 51 46
24 52 47
24 52 47
22 47 42
23 51 46
23 51 46
22 49 44
22 48 43
23 49 45
24 52 47
23 51 46
22 47 43
23 50 45
22 49 44
23 50 45
23 50 45
23 50 45
23 51 46
23 50 45
23 51 46
22 48 43
23 50 45
24 52 47
24 51 46
23 50 45
23 50 45
23 50 45
23 50 45
24 52 47
23 50 45
22 49 44
23 50 45
23 50 45
23 50 45
22 48 43
22 48 44
22 49 44
24 51 46
24 53 48
22 49 44
22 48 43
23 50 45
22 49 44
22 48 44
23 51 46
23 51 46
22 49 44
23 51 46
23 51 46
22 48 43
23 51 46
22 49 44
23 50 45
23 50 45
22 48 44
22 48 44
23 50 45
22 48 44
23 49 44
22 49 44
22 49 44
22 48 43
22 49 44
24 51 46
23 50 45
22 49 44
23 50 46
23 50 45
23 50 45
23 50 45
23 51 46
22 48 43
22 49 44
22 49 44
24 53 48
23 51 46
23 50 45
24 52 47
23 51 46
23 50 45
23 50 45
22 49 44
22 49 44
22 49 44
22 47 43
23 50 45
22 48 43
23 50 46
23 50 45
23 51 46
23 49 44
22 49 44
23 50 45
23 51 46
22 49 45
23 50 45
22 48 43
23 50 45
22 48 43
22 47 43
22 49 44
24 52 47
22 48 43
24 53 48
22 48 44
21 47 42
24 52 47
22 47 43
22 49 44
22 47 43
22 49 44
22 48 43
22 48 43
22 49 44
23 50 45
22 48 44
23 50 46
23 50 45
22 47 43
22 49 44
21 46 42
23 50 45
23 51 46
22 47 43
22 48 43
23 50 45
22 48 44
23 49 45
23 50 46
23 50 45
22 49 44
22 48 44
22 48 44
22 48 43
22 48 43
22 49 44
23 50 45
22 47 43
21 47 42
22 48 43
23 49 45
22 47 43
22 48 43
22 48 43
22 49 44
22 49 44
21 46 42
21 47 42
22 49 45
22 48 44
22 49 44
22 48 43
22 48 44
21 46 42
21 46 42
21 46 42
21 47 42
22 48 44
22 49 45
22 47 43
23 50 46
23 51 46
22 48 43
21 47 42
22 48 43
23 50 45
22 49 45
22 49 44
21 47 43
22 48 43
23 50 45
22 48 44
21 47 42
22 48 44
22 49 45
22 48 44
22 47 43
22 48 43
21 47 42
22 49 44
22 49 44
23 50 45
21 46 42
22 49 44
22 49 45
22 48 44
21 46 42
22 49 44
22 48 44
21 46 42
22 48 43
22 48 44
22 48 43
21 47 43
22 49 44
21 46 42
21 47 43
22 48 44
