P3
400 266
255
59 90 71
56 87 69
56 86 68
59 91 72
57 88 70
57 87 69
57 88 70
58 89 71
58 90 71
58 90 71
57 88 70
57 88 69
57 88 70
58 88 70
56 87 69
58 89 70
57 87 69
59 90 71
61 93 73
58 89 70
59 90 71
58 89 71
59 90 71
59 91 72
59 90 71
60 91 72
58 89 70
57 88 70
58 89 71
57 87 68
59 91 72
56 86 68
57 88 70
57 88 69
58 89 71
57 88 70
56 86 68
57 87 69
59 91 72
59 91 72
58 89 71
58 88 70
60 92 73
59 91 72
59 90 71
58 89 71
57 88 69
57 87 69
57 87 69
59 90 71
57 87 69
57 88 70
58 89 70
59 91 72
56 86 68
59 90 71
57 88 69
55 85 67
59 91 72
60 92 73
58 90 71
57 87 69
56 87 69
58 89 71
58 89 71
58 89 70
59 90 72
58 89 70
57 88 70
57 87 69
57 88 69
59 91 72
58 90 71
58 89 70
59 90 71
59 91 72
59 91 72
59 90 71
60 92 73
58 89 70
58 89 70
59 91 72
57 88 70
57 88 70
56 87 69
57 88 70
58 90 71
58 89 71
58 89 70
59 90 71
59 91 72
59 90 71
58 89 71
58 89 70
60 92 73
57 88 69
57 88 69
60 92 73
58 89 70
58 89 71
60 92 73
58 90 71
57 88 70
59 91 72
59 90 71
58 89 70
58 89 70
58 88 70
57 87 69
59 90 71
58 88 70
60 92 73
59 90 71
57 88 70
60 92 73
59 90 72
58 89 71
60 92 72
58 88 70
58 89 71
57 87 69
57 88 70
56 87 68
58 89 71
59 90 71
59 90 71
57 88 70
58 89 71
57 88 70
57 88 70
55 85 67
56 86 68
56 86 68
58 89 71
60 92 73
57 88 69
58 90 71
57 88 69
56 86 68
59 90 72
58 88 70
57 88 70
59 91 72
60 92 72
59 90 71
58 89 70
58 89 70
60 92 73
56 86 68
58 90 71
58 89 70
58 89 70
58 89 71
57 88 69
59 89 71
58 88 70
57 88 70
58 89 70
58 89 70
58 89 71
57 88 70
57 88 70
59 91 72
57 88 70
57 87 69
59 90 71
58 89 71
58 88 70
58 89 71
57 88 70
58 89 70
56 86 69
58 88 70
58 89 71
59 91 72
57 88 70
58 89 71
59 90 71
58 89 70
57 88 70
59 91 72
58 89 70
58 89 71
58 88 70
60 92 73
58 89 70
57 87 69
58 89 71
57 88 70
60 92 73
59 90 71
59 91 72
57 87 69
58 90 71
56 87 69
58 90 71
57 87 69
58 88 70
58 89 71
60 92 73
58 90 71
56 86 68
56 87 69
58 89 71
57 88 70
60 93 73
60 92 73
58 89 70
58 89 70
58 88 70
58 90 71
58 89 70
57 88 70
59 91 72
58 89 71
60 92 73
58 89 71
58 88 70
57 88 70
57 88 70
58 89 71
58 89 70
58 89 70
59 90 71
60 91 72
58 89 71
59 91 72
57 88 69
58 89 71
56 86 68
56 86 69
59 91 72
59 91 72
60 92 72
60 92 73
56 86 68
58 89 70
59 90 71
59 90 72
57 88 70
57 88 70
56 86 69
57 88 69
56 86 68
57 88 70
59 90 72
57 88 70
58 88 70
56 87 69
57 88 70
58 89 71
57 88 70
57 87 69
60 91 72
58 89 71
59 91 72
57 88 70
56 86 68
59 90 71
58 89 70
57 88 70
58 89 71
57 88 70
56 86 68
59 91 72
58 89 71
59 90 71
57 88 70
59 90 71
59 91 72
57 87 69
55 84 67
58 89 71
59 90 71
58 90 71
57 87 69
57 88 70
55 85 67
59 90 71
59 91 72
58 89 71
57 88 70
57 88 70
57 88 69
57 87 69
58 89 70
58 89 70
57 88 70
58 89 71
58 89 71
57 87 69
58 90 71
60 92 73
57 88 70
58 89 70
58 89 71
57 88 69
57 89 70
55 84 67
57 87 69
59 91 72
57 88 70
57 88 70
58 89 70
58 90 71
57 88 70
58 90 71
57 87 69
59 90 71
59 91 72
58 89 70
57 87 69
57 88 70
58 89 70
61 94 75
60 92 72
59 90 72
58 89 71
59 91 72
56 86 68
57 88 69
56 87 69
58 89 70
57 88 69
59 90 71
57 88 70
56 86 68
57 88 69
56 86 68
58 89 70
58 89 70
57 87 69
57 88 70
57 88 70
55 84 66
57 87 69
55 85 67
58 89 70
58 89 70
56 87 69
56 86 68
57 88 70
60 92 73
58 89 71
59 90 72
57 88 70
56 87 69
57 88 70
57 88 70
58 89 70
55 85 67
56 86 69
57 88 70
56 86 69
56 86 68
58 89 70
57 87 69
56 86 69
57 88 70
57 88 70
57 88 69
54 84 66
56 86 68
55 84 67
57 88 70
57 89 70
58 89 70
56 87 69
56 87 69
57 88 70
57 88 70
59 91 72
57 88 70
57 87 69
58 90 71
56 87 69
55 85 68
58 89 71
56 86 69
58 89 71
58 89 71
54 84 67
56 86 69
58 89 71
57 88 70
58 89 71
57 88 70
59 91 72
57 88 70
57 88 70
56 87 69
54 84 67
56 86 68
56 87 69
58 89 70
57 88 70
57 88 70
56 86 68
56 87 69
58 89 70
57 87 69
55 85 67
58 89 71
60 92 73
56 85 67
57 87 69
57 87 69
58 90 71
57 88 70
58 89 71
58 89 71
57 88 70
58 89 70
59 90 71
58 90 71
58 88 70
61 93 74
59 91 72
59 91 72
58 89 71
57 88 70
59 91 72
57 88 70
60 91 72
59 91 72
57 87 69
58 89 71
57 88 69
57 88 70
57 88 69
57 88 69
57 87 69
58 89 71
58 89 71
58 89 70
59 91 72
59 91 72
58 88 70
61 93 73
59 91 72
57 88 70
58 89 70
61 94 74
58 89 70
58 89 70
59 90 71
57 87 69
56 86 68
58 88 69
59 91 72
59 90 71
58 89 70
59 91 72
57 88 70
58 88 70
56 86 68
59 90 71
58 90 71
60 92 73
57 87 69
58 89 71
58 89 70
59 90 71
60 93 73
60 92 73
57 87 69
58 89 70
57 88 69
59 91 72
57 87 69
57 88 69
58 89 70
57 88 70
58 88 70
57 87 69
56 86 68
57 88 70
59 91 72
59 90 71
58 89 70
56 87 69
56 86 68
58 89 70
57 88 70
58 89 70
56 87 69
58 89 71
58 89 71
58 89 70
58 88 70
59 90 71
58 90 71
56 86 68
58 88 70
59 90 71
60 91 72
58 90 71
58 89 71
59 91 72
59 91 72
59 91 72
59 90 71
60 92 72
60 92 73
58 89 71
57 88 70
59 90 71
58 89 71
56 87 69
57 87 69
57 88 70
60 93 74
59 91 72
57 88 69
57 88 70
59 90 71
57 88 70
58 89 70
57 87 68
60 92 72
59 90 71
59 90 71
59 90 71
57 87 69
57 87 69
57 87 69
58 89 70
58 89 70
58 90 71
57 88 69
58 89 71
57 87 69
57 88 70
57 87 69
58 89 70
59 91 72
58 89 71
59 91 72
59 90 71
57 87 69
57 87 69
57 87 69
59 91 72
59 90 71
60 92 73
59 90 71
60 92 73
58 90 71
59 90 71
59 91 72
60 92 73
58 89 71
60 92 73
60 92 72
57 88 70
58 90 71
58 88 70
58 89 70
58 89 70
58 89 71
58 89 70
59 91 72
59 90 71
57 88 69
56 87 69
57 88 70
58 89 70
58 89 71
57 87 69
55 85 68
57 87 69
57 88 69
58 89 70
56 86 68
57 88 69
58 88 70
57 88 69
57 87 69
57 88 69
58 90 71
58 89 70
59 91 72
60 92 73
57 87 69
58 89 70
58 88 70
56 86 68
58 89 71
59 90 71
57 88 70
58 89 70
57 88 69
56 87 68
59 90 71
58 89 70
57 88 70
59 91 72
58 89 71
58 89 70
58 90 71
57 87 69
58 89 70
59 90 71
58 89 70
57 88 69
57 87 69
59 90 71
57 88 69
57 88 70
59 90 71
58 90 71
59 91 72
60 91 72
60 92 73
59 91 72
58 89 71
58 89 71
59 91 72
59 90 72
57 87 69
58 89 70
58 89 70
58 89 71
60 92 73
59 90 71
56 86 68
58 89 70
60 92 73
60 91 72
57 88 70
57 87 69
60 92 73
60 92 73
59 91 72
57 88 70
58 89 70
58 89 70
59 91 72
58 89 71
58 88 70
58 89 70
57 87 69
57 88 69
58 88 70
56 86 68
58 90 71
57 88 69
57 88 69
58 89 70
56 86 68
57 87 69
57 88 69
56 86 68
57 88 70
56 86 68
58 89 71
57 88 69
57 88 70
56 86 68
59 90 71
59 90 72
59 91 72
58 89 71
56 86 68
58 89 70
58 89 71
56 86 68
56 86 68
55 85 67
58 89 71
58 89 70
57 88 70
60 92 73
57 88 70
59 90 71
56 87 69
57 88 70
59 90 71
57 88 69
59 90 71
56 86 68
56 86 68
59 90 71
58 89 71
56 85 68
56 86 69
58 89 71
58 90 71
58 90 71
57 88 70
58 89 71
59 91 72
58 90 71
58 89 70
57 88 70
59 90 71
58 90 71
58 90 71
57 87 69
58 89 70
58 89 70
58 89 71
57 88 70
58 89 70
58 89 71
58 89 70
57 88 70
58 89 70
56 86 68
58 89 70
59 90 71
56 86 68
58 90 71
58 89 71
60 92 72
56 87 69
58 89 71
57 88 70
58 89 70
57 87 69
57 87 69
59 91 72
56 87 69
57 87 69
57 87 69
58 90 71
56 86 68
56 86 68
56 87 69
58 89 70
57 88 70
56 87 69
56 87 69
58 89 70
55 85 67
56 87 69
56 86 68
57 88 69
57 87 69
55 85 68
55 85 68
57 87 69
57 88 69
57 87 69
59 90 71
56 87 69
58 90 71
58 90 71
57 88 70
56 86 68
58 89 70
56 87 69
58 89 70
55 85 67
55 86 68
58 89 71
56 85 68
57 88 69
57 87 69
56 87 69
57 87 69
55 85 68
55 84 66
57 87 69
58 90 71
59 90 71
57 88 70
56 87 69
57 88 70
57 87 69
56 86 68
57 88 70
57 88 70
57 88 70
58 89 71
57 87 69
55 85 68
55 85 67
56 86 68
57 88 70
55 85 68
57 88 70
56 87 69
57 88 70
57 87 69
55 85 67
56 86 68
57 88 70
56 86 69
57 88 70
55 86 68
56 86 68
57 88 70
58 89 71
58 89 71
56 86 69
55 85 68
57 87 70
57 88 70
57 87 69
57 88 70
60 93 73
57 87 69
58 89 70
57 88 70
58 89 70
57 88 70
60 92 72
57 88 69
57 88 69
58 90 71
58 89 71
60 92 73
58 89 70
62 95 75
58 89 70
57 87 69
58 90 71
57 88 69
58 89 71
58 88 70
59 91 72
59 91 72
59 90 71
58 89 70
59 90 71
57 87 69
58 89 71
58 90 71
59 90 71
60 92 73
58 89 70
59 91 72
57 88 69
60 92 72
58 88 70
60 92 73
57 88 70
58 89 70
58 89 71
58 89 70
59 90 71
59 90 71
58 89 70
58 89 71
59 91 72
59 91 72
60 92 73
57 88 70
58 90 71
58 90 71
58 88 70
58 88 70
57 88 70
58 89 70
57 87 69
57 88 69
57 88 69
59 90 71
56 86 68
58 90 71
57 87 69
58 89 71
58 89 70
58 89 70
56 86 68
59 90 71
56 87 69
55 85 67
58 89 70
57 87 69
59 91 72
58 90 71
58 90 71
57 88 69
59 90 72
56 86 68
59 90 72
58 89 71
58 90 71
59 91 72
60 92 73
60 92 73
59 90 71
60 92 73
59 90 71
60 92 73
57 87 69
60 91 72
59 90 72
60 91 72
58 90 71
57 88 69
57 88 70
58 89 71
59 91 72
58 89 71
58 89 70
58 89 70
59 91 72
57 88 70
59 90 71
60 92 72
59 90 71
60 92 73
57 87 69
59 91 72
56 86 68
58 89 70
59 90 71
58 89 70
59 90 71
58 90 71
58 89 70
58 88 70
57 88 69
59 90 71
57 88 69
57 87 69
59 90 71
57 87 69
58 88 70
57 88 69
58 89 71
58 89 71
57 88 70
56 86 68
57 87 69
58 89 71
59 90 71
60 92 73
59 91 72
58 88 70
57 88 70
58 89 70
59 91 72
58 89 71
58 89 70
57 88 70
56 86 68
56 86 68
57 87 69
58 88 70
59 90 71
59 90 71
59 90 71
56 87 69
59 90 72
58 89 70
56 86 68
58 89 70
58 89 70
60 92 73
59 90 71
59 91 72
59 90 71
57 88 69
58 89 71
57 88 69
57 88 69
58 89 70
58 89 71
58 89 71
58 90 71
57 88 69
59 91 72
57 87 69
58 89 70
59 90 71
56 87 68
59 90 71
61 94 74
57 88 70
56 86 68
57 88 70
58 89 71
58 89 70
56 86 68
58 88 70
57 88 70
58 89 71
57 88 70
61 93 74
59 90 71
57 88 70
58 89 70
59 90 71
58 89 70
58 88 70
58 90 71
58 89 71
58 89 71
59 91 72
57 88 69
59 90 71
58 88 70
58 89 70
58 90 71
57 87 69
58 90 71
58 89 71
57 88 70
59 90 71
59 91 72
59 90 72
60 92 73
60 92 73
57 87 69
58 90 71
59 90 72
58 90 71
58 90 71
57 88 70
55 84 67
57 87 69
58 89 70
57 88 70
57 88 69
58 90 71
58 89 70
58 89 70
59 90 71
59 91 72
57 88 70
57 88 69
57 87 69
61 93 74
60 91 72
57 88 70
58 89 70
57 88 69
57 88 70
56 86 68
58 89 70
59 91 72
58 89 71
56 87 69
59 91 72
59 91 72
57 88 70
59 90 71
59 91 72
58 88 70
57 88 70
58 90 71
57 88 70
57 88 69
58 88 70
59 90 71
58 88 70
59 91 72
58 88 70
58 89 70
58 89 71
56 87 69
58 89 70
57 88 69
58 89 70
57 88 70
57 88 70
58 89 71
59 91 72
57 87 69
57 88 70
58 89 70
59 90 71
56 87 69
56 87 69
57 88 69
58 90 71
58 89 70
57 88 70
57 88 70
56 86 68
59 90 71
58 89 71
56 85 67
58 88 70
56 86 68
57 88 70
59 90 71
61 94 74
57 88 70
58 89 70
57 87 69
56 87 69
59 90 71
59 90 71
59 90 71
58 90 71
57 87 69
59 90 72
56 87 69
57 87 69
58 89 71
58 90 71
59 91 72
59 90 71
57 88 69
56 87 69
56 86 68
58 89 71
57 88 70
57 87 69
57 87 69
57 88 70
58 89 70
57 87 69
57 87 69
56 86 68
58 89 71
58 89 71
57 88 70
59 91 72
59 91 72
57 88 70
57 88 70
57 87 69
59 90 71
59 91 72
58 88 70
56 87 69
58 89 70
57 88 70
57 87 69
57 88 70
57 88 70
57 88 70
56 87 69
56 87 69
55 84 67
56 86 68
58 89 70
56 86 68
56 86 68
59 90 72
56 87 69
57 88 70
58 89 71
56 86 68
56 86 68
57 87 69
55 85 67
58 89 71
57 87 69
55 84 67
57 88 70
57 87 69
56 86 68
57 88 70
58 89 70
57 88 70
57 88 69
56 86 68
56 87 69
57 88 70
56 86 68
58 89 70
56 86 68
56 87 69
58 89 70
56 86 68
55 85 68
56 87 69
57 88 70
59 91 72
59 91 72
58 89 70
57 88 70
56 86 69
58 89 70
57 87 69
57 88 70
60 93 74
58 89 71
57 89 70
57 87 69
56 87 69
53 82 66
55 86 68
56 87 69
55 85 68
55 85 68
57 87 69
57 88 70
54 84 66
56 86 68
57 87 69
56 86 68
57 88 70
57 87 69
58 89 70
56 86 68
59 91 72
56 86 68
57 87 69
57 88 70
58 89 70
56 87 69
58 90 71
59 90 71
59 91 72
57 88 69
58 88 70
57 88 70
56 87 69
57 88 70
60 92 73
61 94 74
58 89 71
58 90 71
58 90 71
58 90 71
58 89 70
61 93 73
58 89 70
58 90 71
59 91 72
58 89 71
59 90 72
59 90 71
59 91 72
60 92 73
59 90 71
57 87 69
58 89 71
58 89 71
59 90 71
58 88 70
58 89 70
57 88 70
59 91 72
56 87 69
58 89 70
57 88 69
59 90 71
56 87 69
58 89 71
59 91 72
58 89 70
57 87 69
59 90 71
58 88 70
58 89 71
58 88 70
58 89 70
58 90 71
60 92 73
61 93 74
58 89 70
61 93 74
59 91 72
58 89 70
58 89 70
56 86 68
58 89 71
60 92 73
57 87 69
59 90 71
59 91 72
57 88 70
57 87 69
57 88 69
55 85 67
59 90 71
58 90 71
59 91 72
59 90 71
57 88 69
56 87 68
59 91 72
62 94 74
58 89 70
58 89 70
57 88 69
57 88 69
58 89 70
58 90 71
59 90 71
58 89 70
57 88 70
57 88 69
59 90 71
59 91 72
59 91 72
58 89 71
58 89 71
57 88 70
60 91 72
59 91 72
60 91 72
60 91 72
57 88 70
60 91 72
57 87 69
59 90 71
56 87 69
58 89 70
57 88 69
57 88 69
58 90 71
61 93 74
60 91 72
61 94 74
58 90 71
58 89 71
59 90 71
59 91 72
59 90 71
57 87 69
57 88 69
58 89 70
56 86 68
57 87 69
57 88 69
59 90 71
58 89 70
56 86 68
58 89 70
59 91 72
58 88 70
58 89 71
60 92 73
58 89 70
59 90 71
57 87 69
58 89 70
59 91 72
58 90 71
58 89 71
59 91 72
58 89 71
58 89 70
59 91 72
59 91 72
58 90 71
58 90 71
59 91 72
57 87 69
60 92 72
58 89 71
57 87 69
62 94 74
60 92 72
58 89 70
59 90 71
57 88 69
57 87 69
60 91 72
58 90 71
59 90 71
58 90 71
60 91 72
59 90 71
59 90 71
58 89 70
58 89 71
59 90 71
57 88 70
59 90 71
60 92 73
56 87 69
56 86 68
58 90 71
58 89 71
57 87 69
59 90 71
57 87 69
59 91 72
57 88 69
58 89 70
61 93 74
58 89 71
59 90 71
58 88 70
58 89 70
59 91 72
58 90 71
57 88 69
59 90 72
58 90 71
58 88 70
58 89 70
59 91 72
58 89 70
58 89 70
59 90 71
58 89 70
59 91 72
59 91 72
60 92 73
57 88 70
58 89 70
57 88 69
59 91 72
60 92 72
57 88 70
57 87 69
58 88 70
59 90 71
57 88 69
57 87 69
56 86 68
57 87 69
58 88 70
59 90 71
59 91 72
57 88 69
59 90 71
57 87 69
60 92 72
59 90 71
57 88 69
59 90 72
59 90 71
57 88 70
59 90 71
58 89 70
60 92 73
58 89 71
60 92 73
59 91 72
59 90 71
57 87 69
57 88 69
56 87 69
61 93 73
57 87 69
59 90 71
60 91 72
59 90 71
57 87 69
58 88 70
58 90 71
58 89 71
57 88 70
58 89 71
59 91 72
56 87 69
57 88 70
57 87 69
59 90 71
58 90 71
56 86 68
59 90 71
58 90 71
58 89 70
59 91 72
60 92 73
60 92 73
58 89 71
57 87 69
56 86 68
58 89 70
57 87 69
58 90 71
57 88 69
59 91 72
57 88 69
58 89 71
56 86 68
57 88 70
59 90 71
58 89 70
57 88 70
57 87 69
57 87 69
58 89 71
58 89 70
58 90 71
58 89 71
57 88 69
56 86 68
57 88 69
56 86 68
57 88 70
58 90 71
59 90 71
58 89 70
59 90 71
59 90 71
58 89 71
58 89 70
58 89 70
56 86 68
58 90 71
58 89 71
57 88 70
57 88 70
57 87 69
58 89 70
60 92 72
57 87 69
56 85 68
58 88 70
57 88 70
60 91 72
58 89 71
59 91 72
57 88 70
58 89 70
56 87 69
58 89 70
57 87 69
57 88 70
59 91 72
57 88 70
59 90 71
57 87 69
56 86 68
58 89 70
57 88 70
57 88 70
57 88 70
58 89 70
56 86 68
57 87 69
57 87 69
58 90 71
56 87 69
58 89 70
58 90 71
57 87 69
56 86 68
57 88 69
57 88 69
56 87 69
59 91 72
55 85 67
56 86 69
57 87 69
57 88 70
56 87 69
58 88 70
56 85 67
56 86 68
57 88 70
56 86 68
56 86 68
57 87 69
58 88 70
55 85 67
57 88 70
57 87 69
58 90 71
56 86 68
57 88 70
58 89 71
58 89 71
59 90 72
58 90 71
57 88 70
56 86 68
57 88 70
55 84 67
57 87 69
56 87 69
58 89 71
58 89 70
57 87 69
56 87 69
58 89 71
56 86 68
56 86 68
58 89 70
57 87 69
55 85 68
57 88 70
56 87 69
57 87 69
58 89 71
56 87 69
57 88 70
56 87 69
57 88 69
55 85 67
59 91 72
57 88 70
58 89 70
59 91 72
57 88 70
56 87 69
57 88 70
57 87 69
58 89 70
56 86 69
57 88 70
59 91 72
57 87 69
56 86 68
56 86 68
57 88 70
57 87 69
58 89 71
58 89 71
57 87 69
57 88 70
57 87 69
56 87 69
54 83 66
60 92 73
57 87 69
57 88 70
58 89 71
59 90 71
59 91 72
57 88 70
57 88 69
59 91 72
58 89 70
58 89 70
58 89 71
59 90 71
59 91 72
57 88 70
59 91 72
56 87 69
57 88 70
58 89 71
57 88 69
57 87 69
58 89 71
58 89 71
58 90 71
59 90 71
55 85 67
58 89 70
57 87 69
56 86 68
59 90 71
57 88 70
59 91 72
58 89 70
59 90 71
60 92 73
59 91 72
58 89 70
57 88 70
59 91 72
59 90 71
59 90 71
60 92 73
59 91 72
58 89 70
57 87 69
60 92 73
57 88 70
58 88 70
59 91 72
59 90 71
59 91 72
57 87 69
60 92 73
58 88 70
57 88 69
57 88 70
59 90 71
58 89 70
58 89 71
57 87 69
60 93 73
57 87 69
57 88 70
59 90 71
58 89 70
60 92 73
57 87 69
60 93 73
57 88 70
58 89 70
58 89 71
59 91 72
59 91 72
58 90 71
57 87 69
58 88 70
59 90 71
58 89 70
59 91 72
57 88 69
58 90 71
57 87 69
56 86 68
59 90 71
59 90 71
58 89 71
57 88 70
60 91 72
59 90 71
56 86 68
59 91 71
59 90 71
60 92 72
58 89 70
55 85 67
59 91 72
58 89 70
57 87 69
59 90 71
58 89 71
58 89 71
58 89 70
58 89 70
58 89 71
60 92 73
56 86 68
56 87 69
58 89 70
59 90 71
58 89 71
58 90 71
57 88 69
58 89 70
58 89 71
59 91 72
58 88 70
58 89 70
56 86 68
58 89 70
60 93 73
59 91 72
61 93 73
59 90 71
59 90 71
59 90 72
57 87 69
57 87 69
58 89 71
59 91 72
59 90 71
59 91 72
57 87 69
59 90 71
58 88 70
60 92 72
59 91 72
58 89 71
58 89 71
57 88 69
57 88 70
58 89 70
57 87 69
57 88 70
56 85 67
57 87 69
58 89 71
56 86 68
58 89 70
61 93 73
58 90 71
59 90 71
58 90 71
57 88 70
58 88 70
58 89 70
55 85 67
58 90 71
60 92 73
59 91 72
59 91 72
58 89 70
58 89 71
57 88 70
60 92 72
59 91 72
59 91 72
58 89 70
58 89 71
60 92 73
59 91 72
59 91 72
58 88 70
57 87 69
59 91 72
57 88 69
57 88 69
60 92 73
57 88 69
58 89 70
58 90 71
57 88 69
58 88 70
56 86 68
58 89 70
58 90 71
59 90 71
57 87 69
58 89 70
57 88 69
58 89 71
59 91 72
58 90 71
59 90 71
58 90 71
58 89 71
58 88 70
58 90 71
56 86 68
57 87 69
58 89 71
57 88 70
58 90 71
60 93 73
57 88 70
58 88 70
59 90 72
58 89 71
58 90 71
57 87 69
57 88 70
60 91 72
58 89 71
60 92 73
58 89 70
59 91 72
57 88 69
58 90 71
59 91 72
58 89 71
56 87 69
58 89 70
56 87 68
59 91 72
59 90 71
58 89 70
59 91 72
58 89 70
57 88 70
56 86 68
55 85 67
57 87 69
58 90 71
59 90 71
58 89 70
59 91 72
57 88 69
57 88 69
59 90 71
57 88 69
57 88 70
56 86 68
57 88 70
56 87 69
57 88 70
57 87 69
57 88 69
60 92 73
57 87 69
59 90 71
58 89 70
58 89 70
57 87 69
57 88 69
58 89 71
59 90 71
58 90 71
58 89 70
57 88 70
57 88 70
58 89 70
56 86 68
58 88 70
59 91 72
57 88 69
58 89 71
58 89 70
57 87 69
55 85 67
55 84 67
56 86 68
57 88 70
57 87 69
57 88 70
58 89 71
57 88 70
58 90 71
59 90 71
57 87 69
57 87 69
59 90 71
59 91 72
57 88 70
56 87 69
58 89 70
58 89 71
60 91 72
56 87 69
56 86 68
56 86 68
56 86 68
58 89 70
56 87 69
56 87 69
57 87 69
57 87 69
56 85 68
58 89 70
57 88 70
56 87 69
57 88 69
58 89 70
57 88 70
57 87 69
57 88 69
59 91 72
58 89 71
58 89 70
56 87 69
59 91 72
57 88 69
56 86 68
57 87 69
58 89 70
57 88 70
55 85 67
56 86 68
58 89 70
56 86 68
58 89 70
55 85 67
58 89 71
57 88 70
56 87 69
58 89 70
58 89 71
56 86 68
56 87 69
57 87 69
56 87 69
58 89 70
57 88 69
56 87 69
56 87 69
56 87 69
56 87 69
59 91 72
58 90 71
56 86 68
58 90 71
57 88 70
57 88 70
58 90 71
57 87 69
57 87 69
58 90 71
57 87 69
57 87 69
57 87 69
57 88 70
59 91 72
57 87 69
56 87 69
56 87 69
56 86 68
58 89 70
56 86 69
57 88 69
57 88 70
57 88 70
56 86 68
55 85 67
57 88 69
59 91 72
57 87 69
58 89 70
57 88 70
57 87 69
56 87 69
58 89 71
57 88 69
56 85 68
55 85 67
59 91 72
58 89 71
55 85 68
58 89 70
57 88 70
57 87 69
56 85 68
57 88 70
57 88 70
57 87 69
56 87 69
55 85 68
57 88 69
56 86 68
56 86 69
56 86 68
58 89 71
57 88 70
55 86 68
56 86 68
56 87 69
57 88 70
58 89 71
57 87 69
58 89 71
57 87 69
57 89 70
57 88 70
57 87 69
58 88 70
57 87 69
58 89 70
59 91 72
59 90 71
59 91 72
58 90 71
60 92 73
57 88 69
56 87 69
57 88 69
59 91 72
58 89 70
57 88 70
61 93 74
58 89 71
58 90 71
57 88 70
58 89 71
60 91 72
58 88 70
59 90 71
56 87 69
57 87 69
57 88 70
58 89 70
58 89 71
59 90 71
58 89 70
58 88 70
58 89 70
59 90 71
59 90 72
58 89 70
58 89 70
60 92 72
61 93 74
59 90 71
57 87 69
59 91 72
60 91 72
58 89 71
57 88 70
56 86 68
59 90 71
57 88 69
58 89 70
60 92 73
60 92 73
58 89 70
58 89 70
58 89 71
57 88 69
57 88 70
60 92 72
59 90 71
60 92 72
58 89 71
57 88 69
58 88 70
58 88 70
57 88 70
58 89 70
60 92 73
59 90 71
57 87 69
59 90 71
58 90 71
59 90 71
58 88 70
57 88 70
57 88 69
59 90 71
58 88 70
57 88 70
58 89 70
59 90 71
57 87 69
61 94 74
60 91 72
59 91 72
59 91 72
57 88 70
58 90 71
60 92 73
58 88 70
60 92 73
61 93 73
59 91 72
60 91 72
57 88 69
57 88 69
59 91 71
57 87 69
59 90 71
57 88 70
59 91 72
59 91 72
59 90 71
59 91 72
58 88 70
57 88 70
62 95 75
60 93 73
59 90 71
56 86 68
57 88 69
59 90 72
58 89 70
58 89 71
59 90 71
58 88 70
59 90 71
58 89 70
56 85 67
59 91 72
58 89 71
59 90 72
61 94 74
58 89 70
59 90 71
57 87 69
57 88 70
58 88 70
59 91 72
58 88 70
59 91 72
60 91 72
60 91 72
59 91 72
58 89 70
59 90 71
61 94 74
60 92 73
60 92 73
59 90 71
60 92 72
58 89 70
58 89 70
59 90 72
57 88 69
57 87 69
56 87 69
57 88 70
59 90 71
59 90 71
57 88 69
58 88 70
56 86 68
58 89 71
58 89 71
60 92 73
60 92 72
59 90 71
58 88 70
58 88 70
59 91 71
60 92 73
57 88 69
59 91 72
59 91 72
58 89 70
58 89 70
59 90 71
58 89 70
59 90 71
58 89 71
59 90 71
61 93 74
59 90 71
56 86 68
58 89 71
58 89 70
59 90 71
57 87 69
59 90 71
61 93 74
58 89 71
59 90 71
58 89 70
58 89 70
57 88 70
59 90 71
60 92 72
58 89 71
59 90 71
59 90 71
59 90 72
59 90 71
59 91 72
61 93 73
59 91 72
60 91 72
58 89 71
59 91 72
57 87 69
59 90 71
58 90 71
59 90 71
60 92 73
60 93 73
57 88 69
58 89 70
58 89 71
58 90 71
58 89 70
57 87 69
58 88 70
56 86 68
57 87 69
57 87 68
58 89 71
58 89 70
57 88 70
59 90 71
59 90 71
59 91 72
58 89 70
59 91 72
59 91 72
59 90 71
59 90 71
59 90 71
59 90 71
58 89 70
58 89 70
58 90 71
57 88 70
56 87 69
57 88 70
59 91 72
58 89 70
58 89 70
58 89 71
57 88 69
57 88 70
59 90 71
59 90 71
57 88 69
58 89 70
59 90 72
57 88 69
58 89 71
60 91 72
59 90 71
57 88 69
58 89 70
58 89 70
57 87 69
58 89 70
59 90 72
58 89 70
57 88 70
58 89 71
57 88 70
59 91 72
59 90 71
57 87 69
58 88 70
56 87 69
58 90 71
61 94 74
56 86 68
59 90 71
57 88 70
58 88 70
59 90 71
57 88 70
61 93 74
59 91 72
58 89 70
58 88 70
57 88 70
59 90 72
58 89 71
59 90 72
58 89 70
60 92 73
58 88 70
56 87 69
58 89 70
57 88 70
59 91 72
58 90 71
59 90 71
57 88 70
57 88 70
58 89 70
59 90 71
57 88 70
57 88 70
57 87 69
58 90 71
58 89 71
56 87 69
56 86 68
57 88 70
55 85 67
58 89 71
58 89 71
58 89 70
58 88 70
57 88 69
59 90 71
58 89 71
58 90 71
58 90 71
58 89 70
59 90 71
57 88 70
59 91 72
58 89 71
58 89 70
59 90 72
58 89 70
59 90 72
57 88 70
59 90 71
59 91 72
56 87 69
56 87 69
59 91 72
58 89 71
56 87 69
58 89 71
58 89 71
58 88 70
58 90 71
57 88 70
57 88 70
56 86 68
57 87 69
56 87 69
58 90 71
58 90 71
58 89 70
57 88 70
57 88 70
57 87 69
58 90 71
57 88 70
56 86 68
56 87 69
58 90 71
57 88 69
57 88 70
58 90 71
60 92 73
58 89 70
56 86 68
58 90 71
57 88 70
59 91 72
58 90 71
56 86 68
56 87 68
59 91 72
57 88 70
58 89 71
56 86 68
58 89 71
57 88 70
56 86 68
58 89 70
57 88 70
55 85 68
57 87 69
57 87 69
59 91 72
58 89 71
56 86 68
57 88 69
58 89 70
58 89 70
55 85 67
57 88 70
56 86 68
58 89 70
56 87 69
57 87 69
57 88 70
58 89 70
56 87 69
56 87 69
57 88 69
56 86 68
57 88 69
58 89 71
59 90 71
57 87 69
57 88 70
57 88 70
58 89 71
59 91 72
58 89 70
57 87 69
56 86 68
58 89 70
57 88 70
58 88 70
57 88 69
59 90 71
58 88 70
59 91 72
59 90 71
59 91 72
58 89 71
58 89 71
58 89 70
59 90 71
59 90 71
59 90 71
57 88 69
59 91 72
58 89 71
57 87 69
57 88 70
59 90 72
57 87 69
61 93 74
58 89 70
57 88 69
57 88 70
57 87 69
59 90 71
60 91 72
56 87 69
57 88 69
59 90 71
59 91 72
60 92 73
60 92 73
59 91 72
58 89 71
58 89 70
60 91 72
59 90 71
58 90 71
57 88 69
59 90 71
60 91 72
58 89 70
58 89 71
57 87 69
58 90 71
57 88 69
58 90 71
56 87 69
59 90 71
58 88 70
57 87 69
57 87 69
57 88 69
58 89 70
58 89 70
57 88 69
57 87 69
59 90 71
59 91 72
58 89 70
59 90 71
58 89 70
59 90 71
58 89 70
58 89 71
62 94 74
60 92 73
57 88 70
59 90 71
59 90 71
59 90 71
59 90 71
59 91 72
57 88 69
58 90 71
58 89 70
59 91 72
59 90 71
60 91 72
58 89 70
59 90 71
59 90 71
59 90 71
59 90 71
61 93 74
58 89 70
57 87 69
57 87 69
58 89 71
58 89 71
58 89 70
57 88 70
58 90 71
57 87 69
61 93 74
58 89 71
62 94 74
58 89 70
59 90 71
57 88 70
55 84 66
57 87 69
60 92 73
58 89 71
58 89 70
59 90 71
59 90 71
57 87 69
59 90 71
60 92 73
60 93 73
58 89 70
59 91 72
59 90 71
60 92 73
59 90 71
58 89 70
58 89 71
56 86 68
57 87 69
58 90 71
59 90 71
59 90 71
57 88 70
59 91 71
59 90 71
60 92 72
60 91 72
59 91 72
57 88 70
56 87 69
58 89 70
62 95 75
59 90 72
58 90 71
59 91 72
58 89 70
58 89 70
58 89 71
56 87 69
60 92 73
59 90 71
60 93 73
58 89 70
59 91 72
61 93 74
60 92 72
59 90 71
60 93 73
57 87 69
59 91 72
61 93 73
59 90 71
58 90 71
59 90 71
58 89 70
59 90 71
56 86 68
58 89 70
59 90 71
59 91 72
59 90 71
59 90 71
60 92 73
58 89 70
57 88 70
59 90 71
58 89 70
59 91 72
59 90 71
59 90 71
58 89 70
59 90 72
58 89 70
59 91 72
60 93 73
58 88 70
59 90 71
59 91 72
62 94 75
59 90 71
59 90 71
58 89 71
58 89 71
60 92 73
58 88 70
58 89 70
57 87 69
59 91 72
57 87 69
60 92 73
60 93 73
59 91 72
59 91 72
58 89 70
59 90 71
59 90 71
58 89 70
57 88 69
60 92 73
60 92 73
59 90 71
57 87 69
57 88 69
58 89 70
61 93 74
57 87 69
57 88 69
59 90 71
58 89 71
56 86 68
58 89 70
57 87 69
57 88 70
58 89 70
58 88 70
59 91 72
60 92 73
58 89 70
59 90 71
57 88 70
58 90 71
59 90 71
59 90 71
59 90 71
59 91 72
60 92 73
57 88 70
56 86 68
57 88 70
56 86 68
58 88 70
58 89 71
57 87 69
60 92 72
58 89 70
57 87 69
59 91 72
60 92 73
59 90 71
57 88 70
57 87 69
58 90 71
59 91 72
58 90 71
56 86 68
58 89 70
58 89 70
58 89 71
57 88 70
56 87 69
57 87 69
57 88 69
58 89 70
58 89 70
59 90 71
58 89 70
57 87 69
59 90 71
58 88 70
58 89 71
58 89 70
56 86 68
58 89 70
58 89 71
57 88 70
57 87 69
58 90 71
59 90 71
56 85 67
56 86 68
57 87 69
58 89 70
60 92 73
62 95 75
61 93 74
58 89 71
58 89 70
58 89 70
56 87 69
58 89 70
57 87 69
59 90 72
57 87 69
59 90 71
57 87 69
57 88 69
56 87 69
56 86 68
58 88 70
58 89 70
58 89 71
57 87 69
57 87 69
57 88 70
58 89 70
57 87 69
58 88 70
58 90 71
57 88 70
60 92 73
58 89 71
56 87 69
58 89 70
57 88 69
57 87 69
58 89 70
59 91 72
59 90 71
58 90 71
58 88 70
59 90 71
58 89 70
58 90 71
56 87 68
59 91 72
58 89 71
59 91 72
57 88 70
57 87 69
58 89 70
59 91 72
56 87 69
58 89 70
58 90 71
57 88 70
57 88 70
57 88 69
57 87 69
56 86 68
55 85 67
56 86 68
55 85 68
56 87 69
57 88 70
59 90 72
58 89 70
60 92 73
57 87 69
57 88 70
58 89 70
58 89 70
58 89 71
58 89 71
58 89 70
56 86 68
56 87 69
57 87 69
59 91 72
57 87 69
57 88 70
57 88 70
57 88 70
59 91 72
56 86 68
57 88 70
58 89 70
58 89 71
57 88 70
58 90 71
57 88 70
56 87 69
57 88 70
56 86 69
57 87 69
57 88 70
56 86 68
57 87 69
57 88 70
58 89 71
56 87 69
58 88 70
57 88 70
57 88 70
58 89 71
58 89 71
57 87 69
56 87 69
57 87 69
58 89 70
58 89 71
57 87 69
56 87 69
56 87 69
59 90 72
56 86 68
55 84 67
61 93 74
58 89 71
58 89 71
57 87 69
56 87 69
58 90 71
57 88 70
55 85 68
55 85 68
56 86 68
56 87 69
58 89 70
60 92 73
58 88 70
60 93 73
59 91 72
58 90 71
59 90 71
58 89 71
60 93 73
57 88 69
58 89 70
60 93 73
59 91 72
58 90 71
57 87 69
57 88 69
59 91 72
58 89 70
58 89 71
60 92 73
60 92 73
57 87 69
57 87 69
56 87 68
59 90 71
58 90 71
58 89 70
57 87 69
57 87 69
60 92 73
59 91 72
59 91 72
59 90 71
58 89 71
59 90 71
60 92 73
58 88 70
59 90 71
59 90 71
57 87 69
59 90 71
59 90 71
58 89 70
59 90 71
59 91 72
58 89 70
59 90 71
59 91 72
58 89 70
57 87 69
58 89 70
60 91 72
58 90 71
57 88 69
58 90 71
57 87 69
60 92 72
57 87 69
58 89 71
58 90 71
60 92 73
59 90 71
57 88 70
59 90 71
60 92 72
59 90 71
58 90 71
59 91 72
60 92 73
59 90 71
59 90 71
59 90 71
61 93 73
59 91 72
58 90 71
58 89 70
61 94 74
59 91 72
59 91 71
57 88 69
59 91 72
58 88 70
57 88 69
59 91 72
59 91 72
58 88 70
58 88 70
59 90 71
57 88 69
59 90 71
57 87 69
57 87 69
59 90 71
59 91 72
58 89 70
58 89 71
60 91 72
62 94 75
59 91 72
58 89 71
57 87 69
58 90 71
57 87 69
60 92 73
57 87 69
57 88 69
59 91 72
58 90 71
57 88 69
56 86 68
59 91 72
58 89 71
59 91 72
61 93 74
58 89 70
59 91 72
58 89 70
59 90 71
58 89 71
59 91 72
58 89 70
59 90 71
57 87 69
58 90 71
60 92 73
59 91 72
59 90 71
60 92 72
58 89 70
57 87 69
59 90 71
59 91 72
59 91 71
59 90 71
60 91 72
56 86 69
58 89 70
58 89 70
57 87 69
57 88 70
58 88 70
57 87 69
57 87 69
58 89 71
59 91 72
58 89 70
59 91 72
58 89 70
58 90 71
58 89 71
58 89 70
59 91 72
57 88 70
59 90 71
57 88 70
61 93 73
58 88 70
60 92 73
59 90 71
57 87 69
59 90 71
59 90 71
59 91 71
58 90 71
57 87 69
58 90 71
58 90 71
58 90 71
59 90 71
57 87 69
59 90 71
59 90 71
57 87 69
60 92 73
60 91 72
58 89 70
57 87 69
58 89 70
59 91 72
60 92 73
59 91 72
60 92 73
58 89 70
59 91 72
58 88 70
58 89 71
56 86 68
57 87 69
56 86 68
58 89 70
60 92 73
57 88 69
59 90 72
57 88 69
60 92 72
61 93 73
58 89 70
58 88 70
59 91 72
58 89 71
59 90 71
60 91 72
59 90 71
59 90 72
58 89 71
58 89 70
56 86 68
61 93 73
60 91 72
59 89 71
59 91 72
57 87 69
58 90 71
59 90 72
58 89 71
59 90 71
57 88 69
58 89 70
57 88 70
60 92 73
60 91 72
57 87 69
57 87 69
58 90 71
58 89 70
57 87 69
56 86 68
57 87 69
61 93 74
59 91 72
57 88 69
57 88 69
56 86 68
57 87 69
59 91 71
59 91 72
57 87 69
58 88 70
59 91 72
59 90 71
57 88 69
60 92 73
57 88 70
55 85 67
58 89 71
58 89 71
59 90 71
56 86 68
58 90 71
57 88 70
59 91 72
61 93 73
58 89 70
58 89 71
59 91 72
58 89 70
59 90 72
59 91 72
57 87 69
57 87 69
59 90 71
58 89 70
57 87 69
56 87 69
58 89 70
59 90 71
57 87 69
56 87 69
60 92 73
59 90 71
57 88 69
56 86 68
57 87 69
56 87 69
58 89 71
58 89 71
59 91 72
59 91 72
57 88 70
57 87 69
58 89 70
59 91 72
59 90 71
58 89 71
58 89 70
57 87 69
60 93 73
58 89 71
58 89 71
57 87 69
55 85 68
56 87 69
60 92 73
56 87 69
57 88 70
57 87 69
57 88 69
56 87 69
56 87 69
57 87 69
58 89 70
57 88 69
56 87 69
57 88 69
58 89 71
57 87 69
58 90 71
56 86 68
57 88 69
58 90 71
58 89 70
57 88 69
55 85 67
58 89 71
59 91 72
58 90 71
57 88 70
57 87 69
58 89 70
58 88 70
57 87 69
58 90 71
58 89 70
60 92 72
56 86 68
56 86 68
57 87 69
59 90 71
56 87 68
60 91 72
58 89 70
60 92 73
56 87 69
56 87 68
58 89 70
60 93 73
60 92 73
58 89 71
57 87 69
59 91 72
58 88 70
57 87 69
57 87 69
57 88 70
57 88 70
58 89 70
55 84 67
57 89 70
57 88 69
59 90 71
58 90 71
55 85 67
58 88 70
58 89 71
60 92 72
57 87 69
56 85 68
59 90 72
58 89 70
58 89 70
56 86 68
58 89 70
58 90 71
58 89 70
57 88 70
56 86 68
56 86 68
57 87 69
58 89 70
57 87 69
57 87 69
58 89 71
58 90 71
58 89 71
57 87 69
56 86 68
57 87 69
58 89 71
57 88 70
57 88 70
57 88 70
57 88 70
57 88 69
55 85 68
57 88 70
58 89 71
57 88 70
58 89 70
56 86 68
58 89 71
57 88 70
57 87 69
57 88 69
56 86 68
56 86 68
57 88 70
57 88 70
57 88 70
56 86 68
55 85 68
60 92 73
59 91 72
58 89 70
58 90 71
58 90 71
59 91 72
59 90 71
57 87 69
58 90 71
58 90 71
57 88 70
57 87 69
59 90 71
58 89 70
59 90 71
58 89 70
58 89 71
60 91 72
58 90 71
57 87 69
57 88 69
57 87 69
59 90 71
58 89 70
58 89 70
59 91 72
57 87 69
57 87 69
57 88 69
58 89 71
60 91 72
60 93 73
57 87 69
61 94 74
59 91 72
58 89 71
58 89 70
58 88 70
57 87 69
58 89 71
57 88 70
58 89 71
59 90 71
59 90 71
59 90 71
57 87 69
61 93 73
59 90 71
58 89 71
56 86 68
57 87 69
58 90 71
59 90 71
60 92 73
59 91 72
59 91 72
60 92 72
58 89 70
57 88 70
58 88 70
59 90 71
61 94 74
59 91 72
59 90 71
59 91 72
57 87 69
58 89 70
60 92 73
60 92 73
58 89 70
58 88 70
60 92 72
59 90 71
59 90 71
56 87 68
58 89 70
57 87 69
57 87 69
57 88 70
57 88 69
58 90 71
58 90 71
59 90 71
58 89 70
57 88 69
57 87 69
59 90 71
61 93 73
58 89 70
58 89 71
59 90 71
59 90 71
57 88 70
58 89 70
58 89 70
58 89 70
60 91 72
58 89 70
57 88 70
60 92 73
58 88 70
61 94 74
58 89 70
56 87 68
57 88 70
59 90 71
58 89 71
58 88 70
59 90 71
59 91 72
61 93 73
58 89 70
60 91 72
61 94 74
57 88 70
60 92 72
57 88 70
58 90 71
59 90 71
59 90 71
58 89 70
58 89 70
58 89 70
58 89 70
59 90 71
58 89 71
60 92 73
57 87 69
58 90 71
57 88 69
59 91 72
61 94 74
59 91 72
57 87 69
62 95 75
59 90 71
58 89 71
58 89 70
58 88 70
57 88 70
57 87 69
57 88 69
60 92 73
58 90 71
59 90 71
58 89 71
56 86 68
58 88 70
61 93 73
57 87 69
58 90 71
61 93 74
60 92 72
59 90 71
58 88 70
59 90 71
58 90 71
60 92 73
57 87 69
60 92 72
58 89 71
61 93 73
57 87 69
57 88 69
58 89 70
57 87 69
58 89 70
58 90 71
59 90 71
59 90 71
59 90 71
60 92 72
56 86 68
57 88 70
57 88 70
58 89 70
57 88 70
57 88 69
58 89 70
59 90 71
58 89 70
58 89 70
56 86 68
58 89 71
59 91 72
61 94 74
59 90 71
59 90 71
59 91 72
60 92 72
59 91 72
60 92 73
59 90 71
59 90 71
59 91 72
59 90 71
58 90 71
59 90 71
60 92 73
58 89 70
57 87 69
59 90 71
57 88 69
58 89 70
59 90 71
59 91 72
60 92 73
59 91 72
59 91 72
59 90 71
58 89 70
57 87 69
59 90 72
59 90 71
58 89 71
56 86 68
57 87 68
58 89 70
57 87 69
58 89 71
57 88 69
59 90 71
58 88 70
58 89 71
57 87 69
56 86 68
55 85 67
56 86 68
57 88 69
59 90 72
59 90 71
59 90 71
57 88 70
56 87 69
59 91 72
59 91 72
57 88 70
58 89 71
60 92 73
58 89 70
58 88 70
59 90 71
59 91 72
58 90 71
58 89 70
58 89 71
58 88 70
57 88 69
59 91 72
58 90 71
59 90 71
57 87 69
57 87 69
58 88 70
58 90 71
57 88 69
58 89 70
56 86 68
57 87 69
58 89 70
58 89 70
57 87 69
57 87 69
58 89 70
58 88 70
57 88 70
57 88 70
58 88 70
57 88 69
56 86 68
58 89 71
57 88 70
58 89 70
58 89 70
57 88 69
58 88 70
59 90 71
60 91 72
58 90 71
59 91 72
57 88 69
60 93 73
57 88 70
58 89 71
59 90 71
58 90 71
58 89 71
57 88 70
60 92 72
55 85 67
58 89 71
56 86 68
58 90 71
57 88 70
58 89 70
60 92 73
60 92 73
57 87 69
58 89 70
56 86 68
58 89 70
58 90 71
57 88 69
59 90 71
60 91 72
58 89 70
57 88 70
58 88 70
59 91 72
60 92 73
59 91 72
57 88 70
57 88 70
58 89 71
58 90 71
57 88 69
57 88 69
58 88 70
59 90 71
58 88 70
58 90 71
59 90 71
59 90 71
58 89 70
57 87 69
58 89 71
57 87 69
58 89 71
57 87 69
58 89 70
58 89 71
60 92 73
59 91 72
56 87 69
56 87 69
61 93 74
58 89 71
58 89 71
56 86 68
58 89 70
57 87 69
57 87 69
56 87 69
57 88 70
59 90 71
61 93 74
56 85 68
56 86 68
56 86 68
57 87 69
57 87 69
56 87 69
58 89 71
58 90 71
56 86 68
57 87 69
55 85 68
59 91 72
58 89 70
57 88 69
58 90 71
57 88 70
56 87 69
57 87 69
58 90 71
58 89 70
57 88 69
58 89 70
58 89 71
57 88 70
56 87 69
56 86 69
57 87 69
57 88 70
55 85 68
57 88 70
56 86 68
57 88 70
59 91 72
58 89 71
59 91 72
57 88 69
58 89 71
56 87 69
57 88 70
57 87 69
58 89 70
59 90 71
59 90 72
57 87 69
57 87 69
56 86 68
58 90 71
57 88 70
57 88 70
57 88 70
56 87 69
57 88 70
57 87 69
57 88 69
57 88 70
57 88 70
59 91 72
59 90 71
58 88 70
58 89 71
58 88 70
58 89 70
60 92 73
57 88 69
58 90 71
59 90 71
59 90 71
59 90 71
59 90 71
56 86 68
58 89 70
59 90 71
59 91 72
55 85 67
59 91 72
58 90 71
58 89 70
57 88 70
59 90 71
58 88 70
58 89 70
58 88 70
58 88 70
60 92 72
58 90 71
58 89 70
59 90 71
58 89 70
57 88 69
60 92 73
60 92 73
58 90 71
60 92 73
58 89 70
58 89 70
58 89 70
57 87 69
59 91 72
57 87 69
58 89 71
58 89 70
58 88 70
56 86 68
59 91 72
58 89 70
59 90 71
60 92 73
60 91 72
59 90 71
57 87 69
58 90 71
59 91 72
58 90 71
59 91 72
59 90 71
58 89 70
59 90 71
59 90 71
60 91 72
58 89 70
57 88 69
57 87 69
60 92 72
59 91 72
59 90 71
58 89 70
56 86 68
59 91 72
61 94 74
59 90 71
59 90 71
60 92 73
58 90 71
59 90 71
60 92 72
60 92 72
59 90 71
58 88 70
60 92 73
61 93 73
57 87 68
61 93 74
59 90 71
57 88 69
57 88 69
57 88 70
56 85 67
57 87 69
60 92 73
58 90 71
57 87 69
57 87 69
57 87 69
58 89 71
57 88 70
59 90 71
59 91 72
59 91 72
58 90 71
57 87 69
58 89 70
58 89 70
60 92 73
60 93 73
58 89 70
59 91 72
58 90 71
58 89 70
57 87 69
60 91 72
60 93 73
60 92 72
60 92 72
61 93 73
58 89 71
58 89 70
59 91 72
58 89 70
58 88 70
59 90 71
61 93 73
60 92 73
58 89 70
59 90 72
59 90 71
62 94 74
57 88 70
58 89 70
58 89 70
59 91 72
58 88 70
59 90 71
59 90 71
58 89 70
57 88 70
59 90 71
60 92 73
60 91 72
58 90 71
59 91 72
59 90 71
57 88 70
57 88 69
58 88 70
57 88 69
58 90 71
58 89 70
59 90 71
59 90 71
60 91 72
62 94 74
61 93 73
59 91 72
58 89 70
59 91 72
59 91 72
57 87 69
58 89 70
59 91 72
59 91 72
59 91 72
59 90 71
57 87 69
59 90 71
59 90 71
58 90 71
59 90 71
57 87 69
58 89 70
60 92 72
57 87 69
58 89 70
60 92 73
57 87 69
60 92 73
59 90 71
59 91 72
55 84 67
58 89 70
60 93 73
58 89 70
57 88 69
58 90 71
60 91 72
60 91 72
59 90 71
59 91 72
58 89 71
62 95 75
58 89 70
59 90 71
61 93 73
60 91 72
59 90 71
59 90 71
59 90 72
58 89 70
55 85 67
59 90 71
57 87 69
61 94 75
58 90 71
57 87 69
59 90 71
58 90 71
59 91 72
58 89 70
57 87 69
59 90 71
58 89 71
59 91 72
59 90 71
58 89 70
57 87 69
56 87 68
58 89 70
58 90 71
59 90 71
58 89 70
58 88 70
57 88 69
58 89 70
57 87 69
57 88 69
60 92 72
58 89 70
61 93 74
57 88 70
59 90 71
59 91 72
58 89 70
60 91 72
57 88 70
58 89 70
58 89 70
60 92 73
60 91 72
58 89 71
60 92 72
59 90 71
59 91 72
59 90 71
58 89 71
58 89 70
58 89 71
59 91 72
58 88 70
59 90 71
56 87 68
57 87 69
56 87 69
60 91 72
58 89 71
59 91 72
58 89 71
56 85 67
58 90 71
60 91 72
60 92 73
56 86 68
58 88 70
56 86 68
57 87 69
57 87 69
57 87 69
57 87 69
60 92 72
59 91 72
57 88 69
57 88 70
59 90 71
59 91 72
60 92 72
59 90 71
59 90 71
57 88 70
57 87 69
58 89 70
60 91 72
59 90 71
56 86 68
58 89 71
56 86 68
57 88 69
57 87 69
57 88 70
60 91 72
59 90 71
59 91 72
59 91 72
58 89 71
59 90 71
59 90 71
57 88 69
58 89 70
58 90 71
58 88 70
58 89 70
59 90 71
57 87 69
58 90 71
60 93 73
59 90 71
58 90 71
58 90 71
58 88 70
57 88 70
59 90 71
58 89 71
58 88 70
59 90 71
57 87 69
58 89 71
59 91 72
58 89 71
56 87 69
59 90 71
56 87 68
59 91 72
59 90 72
60 91 72
59 90 71
56 85 68
58 89 70
58 90 71
59 90 71
58 89 71
57 88 70
58 88 70
59 90 72
57 88 70
57 88 70
58 89 70
59 90 71
58 89 71
56 86 68
59 90 71
54 84 66
57 87 69
57 87 69
57 87 69
56 86 68
56 87 69
56 87 69
56 87 68
58 89 71
59 90 72
55 84 67
57 88 70
59 90 71
58 89 70
56 86 68
57 87 69
57 88 70
57 88 70
61 93 74
58 89 71
57 88 70
57 88 70
59 90 71
58 89 70
55 85 68
56 87 69
57 88 70
57 87 69
58 90 71
60 92 73
58 89 70
56 87 69
57 88 70
58 89 70
57 88 70
57 88 70
57 88 70
57 88 70
57 87 69
58 89 71
58 89 71
58 89 70
54 83 66
57 88 70
59 91 72
59 90 71
56 86 68
59 90 71
56 87 69
58 89 71
57 88 70
58 89 70
57 87 69
57 88 70
57 88 70
57 88 70
56 86 68
59 91 72
58 89 71
58 89 70
58 88 70
59 90 71
59 91 72
57 88 70
58 90 71
57 88 69
57 88 70
59 90 71
59 90 71
57 87 68
56 86 68
58 89 70
59 90 71
58 90 71
59 90 71
60 93 73
58 90 71
59 90 71
58 89 71
59 90 71
58 89 71
59 91 72
59 91 72
58 89 70
59 91 72
58 88 70
59 90 71
57 88 70
58 89 70
60 92 72
61 94 74
61 93 73
60 92 73
59 91 71
56 85 67
58 88 70
59 90 71
57 88 70
59 90 71
59 91 71
60 92 73
58 90 71
58 89 71
59 90 71
58 89 70
58 89 71
60 92 73
57 88 69
58 89 70
58 89 70
59 90 71
60 91 72
57 88 70
59 90 71
59 90 71
57 88 69
60 92 73
59 90 71
59 91 72
60 91 72
60 91 72
62 95 75
60 92 73
58 89 71
58 89 70
58 89 70
59 90 71
56 86 68
57 88 69
60 91 72
59 90 71
61 93 73
56 87 69
58 89 70
58 89 70
61 93 73
58 89 70
60 92 73
60 92 73
59 90 71
59 90 71
60 91 72
59 90 71
58 89 71
58 89 70
59 90 71
59 90 71
58 89 71
58 89 70
59 90 71
61 93 73
59 90 71
56 86 68
59 91 71
58 89 70
59 90 71
60 93 73
58 90 71
59 90 71
59 90 71
60 92 73
60 91 72
57 87 69
60 92 73
60 93 73
58 89 70
58 88 70
58 88 70
60 92 72
57 88 70
59 90 71
59 90 71
59 90 71
59 90 71
59 91 72
58 89 71
59 91 72
59 91 72
58 89 70
61 94 74
57 87 69
59 90 71
59 90 71
59 90 71
60 92 72
59 91 72
60 91 72
58 89 70
60 91 72
60 92 73
59 90 71
59 91 72
57 87 69
59 90 71
59 90 71
61 94 74
59 91 72
60 92 73
57 88 70
58 90 71
58 89 70
57 88 69
58 89 71
58 89 71
58 88 70
57 87 69
57 87 69
57 88 69
57 87 69
58 89 71
58 90 71
57 87 68
58 89 71
58 89 70
58 89 70
59 90 71
57 87 69
59 90 71
58 90 71
56 86 68
58 88 70
59 90 71
59 90 71
58 90 71
59 90 71
59 91 72
59 91 72
58 89 71
58 89 70
58 89 70
58 88 70
60 92 72
60 92 73
59 91 72
58 89 71
60 91 72
60 91 72
61 93 73
59 90 71
59 90 71
59 91 72
60 92 73
57 87 69
58 89 71
58 89 70
59 90 71
59 91 72
60 91 72
59 90 71
61 94 74
59 91 72
60 92 73
59 91 72
59 91 71
60 91 72
56 87 68
60 91 72
57 88 70
59 90 71
56 87 69
58 88 70
58 89 71
57 88 69
60 92 73
57 88 69
57 87 69
57 88 70
56 86 68
59 91 72
59 90 71
57 88 70
58 89 70
59 91 72
57 87 69
60 92 73
59 91 72
58 89 71
57 88 69
57 88 70
57 87 69
58 88 70
57 88 70
58 89 70
59 91 72
58 89 71
58 89 70
57 87 69
58 89 71
58 89 71
59 91 72
58 89 70
59 90 71
57 88 70
56 86 68
56 86 68
58 89 70
59 90 71
60 91 72
60 92 73
57 88 70
59 91 72
60 92 73
56 87 69
58 89 70
59 90 71
57 88 69
59 91 72
60 93 73
58 90 71
59 90 71
58 89 71
59 91 72
58 88 70
56 86 68
57 88 69
61 93 74
59 90 71
58 88 70
57 87 69
57 88 70
57 87 69
60 92 73
60 92 73
58 89 70
59 90 71
61 93 74
58 88 70
58 89 70
57 88 69
59 91 72
56 86 68
58 89 71
58 89 70
56 86 68
58 89 71
59 90 71
58 89 70
57 88 70
58 89 70
56 86 68
60 92 73
58 88 70
58 89 70
58 89 71
57 88 70
56 87 69
58 90 71
57 87 69
58 89 70
59 90 72
58 89 70
58 89 70
58 89 70
58 89 71
58 89 71
58 88 70
59 90 71
57 88 70
60 92 73
59 91 72
56 86 68
59 90 71
57 87 69
59 91 72
59 90 71
58 89 70
58 89 71
59 90 71
56 86 68
56 86 68
59 91 72
58 89 70
57 88 70
60 91 72
58 89 70
57 87 69
58 89 71
60 92 73
58 89 70
57 87 69
58 89 70
57 88 69
59 90 71
57 88 70
58 90 71
56 87 69
58 89 70
59 90 71
57 88 70
57 88 69
57 88 70
58 89 70
57 87 69
58 89 70
61 94 75
58 88 70
58 89 71
57 87 69
57 88 69
59 91 72
58 89 71
57 88 70
56 86 68
56 87 69
57 88 70
59 90 71
57 88 70
59 91 72
58 89 70
57 88 70
57 87 69
56 86 68
59 90 71
57 87 69
58 89 70
57 88 70
58 89 71
58 89 71
58 89 71
57 88 70
58 90 71
59 91 72
58 89 70
55 85 67
58 89 71
59 91 72
59 91 73
57 88 70
57 88 70
57 88 70
57 88 70
57 88 70
56 86 68
57 88 70
57 87 69
58 88 70
55 85 67
54 84 66
58 89 70
58 89 70
57 88 70
58 89 70
58 89 70
56 86 68
56 86 68
59 91 72
57 88 70
57 88 70
56 86 68
57 88 70
57 88 70
56 87 69
57 87 69
57 87 69
59 90 72
58 89 71
58 88 70
57 88 70
57 88 69
57 88 69
60 92 73
60 92 73
59 90 71
58 90 71
60 92 73
59 90 71
58 89 71
58 89 71
59 90 71
57 88 69
59 90 71
56 86 68
57 87 68
58 88 70
57 87 69
60 93 73
59 90 72
59 90 71
58 89 70
60 92 73
60 92 73
59 91 72
59 90 71
58 89 70
59 90 72
57 87 69
60 91 72
59 90 71
57 88 70
59 90 71
60 92 73
58 88 70
58 89 70
57 88 69
57 88 69
57 88 69
58 89 70
58 89 70
57 87 69
58 88 70
59 91 72
56 86 68
59 91 72
60 92 73
59 91 72
58 89 71
61 93 73
60 92 72
58 88 70
59 90 71
58 89 70
60 93 73
57 87 68
58 88 70
59 90 71
59 90 71
58 88 70
62 94 74
61 93 73
59 90 71
56 86 68
59 90 71
58 89 71
59 90 71
57 87 69
59 90 71
58 89 70
58 89 70
57 87 69
58 88 70
60 92 72
60 93 73
57 88 70
60 91 72
60 92 72
58 90 71
58 89 71
60 92 73
60 91 72
58 90 71
59 90 71
59 90 71
59 91 72
57 88 69
59 91 72
59 90 71
57 88 70
59 91 72
58 89 70
58 89 70
60 92 72
59 90 71
59 90 71
58 89 70
58 88 70
58 88 70
58 90 71
59 91 72
62 95 74
57 88 69
58 89 70
59 90 71
60 92 72
59 90 71
60 92 73
59 90 71
59 91 72
60 92 72
58 89 70
59 91 71
61 93 73
61 93 73
59 91 72
58 89 71
59 90 71
60 93 73
57 88 69
58 90 71
59 90 71
60 91 72
58 89 71
61 93 73
57 88 70
57 88 69
56 86 68
59 91 72
58 88 70
59 91 72
59 91 72
58 88 70
58 89 70
60 92 73
58 89 70
59 91 72
60 92 73
59 90 71
59 91 72
61 93 74
61 93 74
57 88 70
60 92 72
59 91 72
59 90 71
59 90 71
58 89 70
57 88 70
58 89 70
60 92 73
59 90 71
58 90 71
61 93 73
58 90 71
56 87 69
57 88 70
56 86 68
59 90 71
58 89 70
61 93 74
60 92 73
58 89 70
58 88 70
61 94 74
60 91 72
59 90 71
58 89 70
58 90 71
59 90 71
58 89 71
59 91 72
59 91 71
58 88 70
58 89 70
59 90 71
57 87 69
59 90 71
59 90 71
59 91 72
57 87 69
59 91 71
59 90 71
59 90 71
60 92 73
58 89 70
59 90 71
57 87 69
57 87 69
56 86 68
60 91 72
58 89 70
58 89 71
58 89 70
59 91 72
57 87 68
59 91 71
60 92 72
62 94 75
60 91 72
58 89 71
60 92 72
58 88 70
60 92 72
58 89 71
57 88 69
58 89 71
58 89 70
57 88 70
57 88 70
59 91 71
57 88 70
57 88 69
57 87 69
58 88 70
60 93 73
58 89 71
59 90 71
59 90 71
59 90 71
60 92 72
58 89 70
58 89 70
57 87 69
57 88 70
57 87 69
58 90 71
58 89 70
59 90 71
57 87 69
58 90 71
59 90 71
59 90 71
58 88 70
59 90 71
57 87 69
60 91 72
58 89 70
56 87 69
58 89 70
60 91 72
58 89 70
59 91 72
57 87 69
57 88 69
59 91 72
60 91 72
58 89 70
60 91 72
59 91 72
59 90 71
60 93 73
57 88 70
58 89 70
58 89 71
58 89 70
61 93 74
58 89 70
57 87 69
58 89 70
58 89 71
59 91 72
59 90 71
58 90 71
58 88 70
58 89 70
59 90 71
57 87 69
59 91 72
59 91 72
59 91 72
59 91 72
58 89 70
58 89 71
59 91 72
56 87 68
58 89 70
59 90 71
59 90 71
59 91 72
58 89 71
59 90 71
57 88 70
58 89 70
60 92 72
57 88 69
58 89 70
61 93 74
59 90 71
57 88 69
58 89 70
57 88 70
60 91 72
58 89 71
59 90 71
58 90 71
58 89 70
58 90 71
56 87 68
58 90 71
55 85 67
57 87 69
56 86 68
57 88 70
58 89 70
57 88 69
57 88 69
57 88 69
59 91 72
59 90 71
57 88 69
58 89 71
57 87 69
58 89 70
56 86 68
58 88 70
59 91 72
59 90 71
57 88 69
58 89 71
58 90 71
58 89 70
57 88 70
57 88 69
56 86 68
61 94 74
57 88 70
59 91 72
59 90 71
58 90 71
59 90 71
59 90 71
58 89 71
58 89 70
57 87 69
58 90 71
59 91 72
59 90 71
57 87 68
56 86 68
56 87 69
59 91 72
59 90 72
58 89 70
58 89 70
57 88 70
58 90 71
59 90 71
59 91 72
59 90 71
58 89 71
58 90 71
58 89 70
57 87 69
56 86 69
58 89 71
57 87 69
59 91 72
57 88 70
56 86 68
56 86 68
57 87 69
58 89 71
57 88 69
58 89 70
58 89 71
58 89 70
57 88 70
58 88 70
58 89 70
57 87 69
58 89 71
56 86 68
57 87 69
57 88 69
58 89 71
58 89 71
58 89 70
60 92 73
56 86 68
58 89 70
59 91 72
56 86 68
56 86 69
58 88 70
57 88 70
58 89 70
57 89 70
56 87 69
58 90 71
56 87 69
57 88 70
58 89 70
57 88 69
57 87 69
57 88 70
56 87 69
57 87 69
57 88 70
57 87 69
57 88 69
58 90 71
58 89 71
58 88 70
59 90 71
58 89 70
60 93 73
59 91 72
60 92 72
60 92 72
59 91 72
56 85 68
58 89 70
58 88 70
58 89 70
57 87 69
59 91 72
59 90 71
57 88 70
59 90 71
58 89 70
57 88 69
60 91 72
59 91 72
60 91 72
59 90 71
58 89 71
61 93 73
57 87 68
57 88 69
60 91 72
61 93 73
60 92 73
58 90 71
59 90 71
58 89 71
59 90 71
58 89 70
58 89 70
58 90 71
58 89 71
58 90 71
59 90 71
58 90 71
60 92 72
57 88 69
59 91 72
60 92 73
57 87 69
58 88 70
58 89 70
59 91 72
59 91 72
59 90 71
59 91 72
58 89 70
60 92 72
59 91 72
59 90 71
58 89 70
58 90 71
59 91 72
60 91 72
59 91 71
60 91 72
58 89 71
60 92 73
58 89 70
59 90 71
59 90 71
59 91 72
59 91 72
60 91 72
62 95 75
59 90 71
57 88 69
60 92 73
59 91 72
60 92 72
59 90 71
58 89 70
58 88 70
58 89 70
60 91 72
60 92 72
58 89 70
59 91 72
59 91 72
59 90 71
59 90 71
58 88 70
58 89 70
59 90 71
60 92 72
60 92 72
58 89 70
58 89 70
59 91 72
59 90 71
59 90 71
60 91 72
59 91 72
58 89 70
59 91 72
58 88 70
59 90 71
60 92 73
57 88 69
59 90 71
58 88 70
57 88 69
59 90 71
59 90 71
58 89 70
60 92 72
58 89 70
59 90 72
58 89 71
58 88 70
58 89 70
59 90 71
58 89 70
59 90 71
60 91 72
59 91 72
57 88 69
59 91 72
59 91 72
61 93 74
61 93 74
57 87 69
59 90 71
59 91 71
59 91 72
58 89 70
60 91 72
60 92 72
57 88 69
58 89 70
59 91 72
59 90 71
60 92 73
60 92 72
62 94 74
59 90 71
59 91 72
59 91 72
58 89 70
57 88 70
59 90 71
60 92 72
58 90 71
59 90 71
58 88 70
59 91 72
58 90 71
57 87 69
58 88 69
59 91 72
59 90 71
59 90 71
58 89 71
60 92 72
58 89 70
60 92 73
59 90 71
61 94 74
61 93 74
59 91 72
59 91 72
59 90 71
60 92 73
58 89 70
60 92 72
59 90 71
59 91 71
58 89 70
59 91 72
58 89 70
58 89 70
60 92 72
57 87 69
60 93 73
59 90 71
57 87 69
61 93 73
58 90 71
57 87 69
60 92 73
57 88 69
59 90 71
60 92 73
58 88 70
56 86 68
58 89 71
59 91 72
57 87 69
59 90 71
58 88 70
59 90 71
59 90 71
56 87 68
59 91 72
58 88 70
57 88 70
59 91 72
59 90 71
59 91 72
59 90 71
59 90 71
58 90 71
57 88 70
58 90 71
56 86 68
55 85 67
60 92 72
60 91 72
58 90 71
58 89 70
57 88 69
59 90 71
60 92 72
59 91 72
59 91 72
58 89 70
59 91 72
60 92 72
59 90 71
58 89 70
58 89 71
59 90 71
59 91 72
58 89 70
57 87 69
58 89 70
57 87 69
60 92 73
57 88 70
57 87 69
57 88 69
56 85 67
57 88 70
59 90 71
58 88 70
57 88 70
59 91 72
58 89 70
60 92 73
59 91 72
60 91 72
57 88 69
58 89 70
57 88 69
58 89 71
59 91 72
60 92 73
58 89 70
60 92 73
58 88 70
57 87 69
59 91 72
58 89 70
58 89 70
59 91 72
59 90 71
58 89 70
59 90 71
59 91 72
59 90 72
58 90 71
59 90 71
58 89 70
57 87 69
58 88 70
59 91 72
57 88 69
58 89 70
59 90 71
57 88 69
57 88 70
57 87 69
59 90 71
58 89 70
58 89 71
57 87 69
57 88 69
57 87 69
58 89 70
59 91 72
59 90 71
58 89 70
59 91 72
59 91 72
58 89 71
56 87 69
57 88 69
57 87 69
59 90 71
56 86 68
57 87 69
57 87 69
57 87 69
58 88 70
58 89 70
57 88 70
55 84 67
58 90 71
58 90 71
55 85 67
60 91 72
58 89 71
59 91 72
59 91 72
60 92 72
58 89 71
60 92 73
58 89 71
58 90 71
57 88 70
59 90 71
56 86 68
58 89 70
58 89 70
57 88 70
57 88 70
58 90 71
58 89 70
59 91 72
57 87 69
57 87 69
58 89 70
57 88 70
59 90 71
58 89 70
56 85 67
57 88 70
59 91 72
59 91 72
57 87 69
56 86 68
55 85 67
58 88 70
57 87 69
57 88 70
57 88 70
57 88 69
58 90 71
56 87 68
58 89 71
59 91 72
58 89 70
60 92 73
56 87 69
56 86 68
57 87 69
57 88 70
58 89 71
57 88 69
60 92 72
57 87 69
56 85 68
58 90 71
58 89 71
58 89 71
57 87 69
58 89 70
56 86 68
56 87 69
55 85 67
55 84 66
56 87 69
56 86 69
56 86 68
56 87 68
58 89 71
58 89 70
58 89 71
59 90 71
57 88 70
57 87 69
59 90 71
57 88 70
58 90 71
58 89 71
56 87 69
58 90 71
58 90 71
57 88 70
58 90 71
58 89 70
56 86 68
57 87 69
56 87 69
57 88 70
57 88 70
58 89 71
55 85 68
56 87 69
57 88 70
57 88 70
57 88 70
59 90 71
59 90 71
59 91 72
58 89 70
59 90 71
61 94 74
59 91 72
57 88 69
61 93 73
58 90 71
56 87 68
56 86 68
58 90 71
57 88 70
58 89 70
59 91 72
59 90 71
59 90 71
61 94 74
57 87 69
58 89 70
59 90 71
58 88 70
61 94 74
59 91 71
59 90 71
59 90 71
59 91 72
59 90 71
58 90 71
60 91 72
58 89 70
58 89 70
60 92 72
59 90 71
57 88 70
60 91 72
61 94 74
59 91 72
59 91 72
60 92 72
60 92 72
58 89 70
57 87 69
58 90 71
59 90 71
58 88 70
59 90 71
59 91 72
60 92 72
59 91 72
61 94 74
59 91 72
59 90 71
57 88 69
60 92 72
61 93 73
58 89 70
62 94 74
60 91 72
58 89 71
59 91 72
59 90 71
58 89 70
59 90 71
60 93 73
60 91 72
58 89 71
59 91 71
57 88 70
62 95 75
61 93 74
59 91 72
57 87 69
58 90 71
59 91 72
58 89 70
58 89 70
58 89 70
59 91 72
60 91 72
61 94 74
59 90 71
59 91 72
59 90 71
60 91 72
58 89 71
59 91 72
58 89 70
57 88 70
58 88 70
58 89 70
58 88 70
56 86 68
58 88 70
57 88 69
61 93 73
61 94 74
60 93 73
58 89 71
60 92 72
57 87 69
57 87 69
58 88 69
60 92 73
59 90 71
58 89 70
61 94 74
60 92 73
60 92 72
58 89 70
58 88 70
59 91 72
59 90 71
58 89 70
58 89 70
56 85 67
57 88 69
59 91 72
59 90 71
59 90 71
59 90 71
60 91 72
59 91 72
60 91 72
60 91 72
59 91 72
59 91 72
59 91 72
61 93 73
59 91 71
58 89 70
59 90 71
59 91 72
59 90 71
59 91 72
58 89 70
58 88 70
58 88 70
58 90 71
58 89 70
58 89 70
61 93 73
57 87 69
59 91 72
58 90 71
58 89 70
58 89 70
58 90 71
58 89 71
59 90 71
60 92 73
58 89 71
57 88 70
57 87 69
58 90 71
58 88 70
60 92 73
61 94 75
59 90 71
59 90 71
60 92 73
58 89 70
58 89 71
56 87 68
57 88 69
58 89 70
58 89 70
59 90 71
57 87 69
59 90 71
58 90 71
57 87 69
59 91 72
60 92 72
59 91 72
59 91 72
57 88 69
59 90 71
60 92 73
57 88 69
59 91 72
61 93 74
60 92 72
59 91 72
61 94 74
59 90 71
57 88 70
58 89 70
57 88 69
59 90 71
60 92 72
57 88 69
60 92 73
59 91 71
57 88 70
58 89 70
57 87 69
59 91 72
58 90 71
58 89 70
60 91 72
58 89 70
60 92 73
59 90 71
60 92 73
60 92 73
57 87 69
58 88 70
59 91 72
57 88 69
59 90 71
57 87 69
58 88 70
60 91 72
61 93 74
59 90 71
59 91 72
58 89 70
58 89 71
60 92 73
56 87 69
57 87 69
57 88 69
58 89 70
59 91 72
60 92 73
58 88 70
58 89 70
58 89 71
60 92 73
58 89 71
59 90 71
59 90 71
60 91 72
59 91 72
59 91 72
58 89 70
58 89 70
57 88 70
58 89 70
57 87 69
59 90 71
58 89 71
57 87 69
58 89 71
58 89 71
58 89 71
59 90 71
59 90 71
58 89 70
58 89 70
58 89 70
58 88 70
58 90 71
58 89 71
60 92 72
59 91 72
58 90 71
58 89 70
58 89 71
59 91 72
58 89 71
59 91 71
60 92 73
59 90 71
60 92 73
57 88 70
58 89 70
58 89 70
58 89 70
57 87 69
58 89 70
58 89 70
60 92 72
59 90 71
59 91 72
58 88 70
58 88 70
56 86 68
57 87 69
59 90 71
60 91 72
58 88 70
60 91 72
59 91 72
59 91 72
60 92 73
59 91 72
60 92 73
57 87 69
58 89 70
58 89 71
58 89 71
58 89 70
58 89 71
59 91 71
57 88 69
59 91 72
60 93 73
59 90 71
58 89 70
58 89 70
60 91 72
59 91 72
58 88 70
60 91 72
56 86 68
56 87 69
58 89 70
58 89 71
57 87 69
58 90 71
59 90 71
57 87 69
56 87 69
58 89 70
59 90 71
59 91 72
59 90 71
59 90 71
62 96 76
60 92 72
59 90 71
59 90 71
57 88 70
58 89 70
57 88 70
56 86 68
58 89 70
58 89 70
59 90 71
59 90 71
57 88 69
57 88 69
58 90 71
58 89 70
59 90 71
57 88 70
56 86 69
58 90 71
58 89 71
59 90 71
58 89 70
59 91 72
58 89 71
57 87 69
59 90 71
59 90 72
55 85 67
56 86 68
58 89 71
58 89 70
58 89 70
59 91 72
59 90 72
58 89 70
59 90 72
58 89 70
58 88 70
56 86 68
57 88 69
61 93 74
55 84 67
57 87 69
57 88 70
59 90 71
56 86 68
57 87 69
56 86 68
57 88 69
60 92 72
59 90 72
58 89 71
57 88 70
57 87 69
58 89 71
58 89 71
58 89 71
58 88 70
58 89 70
57 88 69
57 88 70
58 89 71
59 90 71
57 88 70
57 88 70
57 88 70
57 89 70
58 88 70
58 88 70
57 88 69
58 89 70
56 86 69
58 89 71
57 88 70
56 87 69
56 86 68
57 87 69
56 86 68
59 91 72
58 88 70
57 87 69
58 89 70
60 92 73
57 88 69
59 90 71
60 91 72
60 92 73
59 90 71
57 88 69
59 90 71
60 92 73
59 91 71
59 90 71
59 90 71
60 92 72
62 96 75
61 94 74
58 89 70
59 90 71
60 91 72
59 90 71
60 91 72
56 85 67
59 91 72
58 90 71
58 90 71
60 91 72
59 90 71
61 93 74
60 91 72
60 92 73
59 91 71
58 89 70
60 92 72
57 88 69
59 90 71
60 92 73
60 92 73
60 92 73
60 91 72
60 92 73
59 91 71
59 90 71
60 91 72
58 89 70
58 89 70
58 89 70
60 92 73
61 93 73
61 93 74
59 91 72
57 87 69
60 92 72
58 89 71
58 88 70
57 87 69
60 92 72
60 92 73
59 90 71
59 90 71
58 90 71
59 91 72
58 89 70
59 90 71
59 91 72
60 92 72
59 90 71
59 91 72
57 88 69
59 90 71
58 88 70
57 87 69
59 90 71
59 91 72
60 92 72
60 91 72
57 87 69
61 93 74
61 93 73
58 90 71
59 91 72
59 91 71
59 90 71
61 93 74
60 92 72
60 92 73
59 90 71
60 92 73
58 89 70
57 88 69
58 89 70
59 91 71
60 93 73
59 90 71
60 91 72
58 89 70
60 91 72
59 91 72
59 91 72
58 89 70
58 89 71
60 91 72
60 91 72
57 88 69
60 91 72
59 90 71
56 86 68
59 90 71
58 89 70
58 89 71
59 90 71
62 95 75
60 91 72
56 86 68
58 90 71
59 90 71
60 91 72
58 89 70
59 91 72
59 90 71
58 89 70
62 94 74
59 91 71
60 92 72
61 93 74
58 89 70
59 90 71
59 90 71
60 93 73
59 91 72
59 90 71
62 95 75
59 91 72
58 89 71
58 89 70
59 90 71
56 86 68
56 86 68
57 88 70
58 89 70
59 90 71
58 88 70
58 89 70
58 90 71
56 87 68
58 89 70
58 89 70
57 87 69
60 92 73
58 88 70
58 89 70
58 89 70
59 91 72
60 91 72
58 89 71
60 92 73
60 91 72
58 89 70
58 88 70
60 92 73
60 92 73
57 88 69
58 89 70
59 90 71
58 89 71
60 92 73
57 88 69
59 91 72
59 90 71
58 89 71
58 88 70
59 91 72
59 90 71
59 91 72
58 89 70
58 89 70
61 94 74
59 91 72
60 92 72
58 89 70
59 91 72
59 90 71
60 92 73
60 92 72
59 91 72
57 88 69
59 91 72
58 89 70
60 92 72
60 92 73
60 91 72
60 92 73
60 93 73
56 87 68
58 89 70
58 89 70
60 92 73
60 91 72
58 88 70
61 93 73
60 93 73
58 89 70
57 87 69
59 90 71
61 94 74
58 90 71
59 90 71
60 91 72
58 88 70
59 91 72
59 90 71
59 90 71
57 87 69
58 88 70
58 88 70
59 90 71
60 91 72
58 89 70
58 90 71
58 89 71
59 90 72
60 92 73
58 89 70
60 92 73
59 91 72
59 90 71
59 90 71
60 91 72
60 92 73
59 91 72
59 90 71
58 90 71
57 88 69
56 86 68
61 93 74
57 88 70
59 90 71
59 90 71
58 89 70
59 91 72
58 89 70
61 94 74
57 88 70
60 92 73
58 89 70
59 90 71
59 90 71
59 90 71
60 92 73
58 89 70
59 90 71
58 89 70
58 89 70
57 87 69
58 89 70
59 91 72
60 91 72
58 89 70
58 89 70
59 90 71
58 88 70
58 89 70
58 90 71
58 89 71
59 90 72
59 90 71
59 91 72
58 89 70
60 91 72
59 91 72
58 90 71
60 91 72
59 90 71
58 89 71
58 89 70
58 89 70
60 92 73
58 89 70
59 91 72
59 90 72
59 91 72
59 90 71
57 87 69
58 88 70
57 88 69
59 90 72
58 88 70
59 90 71
59 91 72
60 92 72
58 88 69
58 88 70
60 92 73
59 90 71
59 90 71
59 90 71
58 89 70
61 94 75
58 89 70
58 89 70
57 88 69
57 87 69
56 86 68
57 87 69
58 89 70
56 85 67
58 89 70
58 89 71
57 87 69
60 92 73
57 88 70
56 87 69
57 88 69
58 89 70
60 92 73
60 92 72
58 89 70
59 90 72
57 87 69
56 85 68
58 89 70
58 89 71
57 88 70
60 92 73
59 90 71
58 89 71
56 87 69
56 87 68
56 86 68
57 87 69
58 89 71
56 87 69
58 89 70
56 86 68
58 89 71
57 88 70
58 88 70
58 89 71
58 89 70
60 91 72
58 88 70
59 91 72
57 88 70
57 87 69
57 88 69
57 87 69
57 88 69
58 90 71
57 87 69
57 87 69
59 91 72
56 87 69
57 88 70
59 90 71
58 89 71
59 91 72
58 88 70
58 89 70
59 91 72
57 88 70
57 87 69
57 87 69
58 89 71
58 89 71
58 88 70
55 85 68
57 88 69
60 92 73
60 92 73
56 87 68
55 84 67
57 88 70
59 91 72
60 92 73
60 92 73
59 90 72
58 89 70
58 89 71
58 89 70
55 84 67
57 87 69
57 87 69
58 89 70
57 88 70
58 90 71
56 87 69
57 87 69
55 85 68
56 86 68
56 87 69
55 84 67
56 86 68
56 86 68
57 87 69
57 88 70
58 89 71
56 86 68
55 85 67
59 91 72
59 90 71
60 91 72
58 90 71
60 91 72
60 92 72
60 93 73
62 95 75
61 93 73
59 91 72
57 88 69
59 90 71
62 94 74
59 90 71
58 89 70
59 91 71
57 88 69
59 91 72
58 89 70
59 91 72
58 89 70
60 91 72
58 89 70
58 89 70
57 87 69
60 92 73
58 90 71
57 87 69
59 91 71
58 90 71
59 91 72
57 88 69
60 92 72
58 89 70
60 91 72
59 91 72
58 89 71
59 90 71
59 90 71
57 88 70
59 90 71
58 89 71
59 90 71
58 88 70
59 90 71
60 92 72
60 92 72
58 89 70
58 89 70
60 92 73
60 93 73
59 90 71
58 89 70
59 90 71
57 87 69
57 87 68
62 95 75
57 88 70
58 89 71
58 89 70
60 91 72
59 91 72
58 89 70
60 91 72
62 95 75
60 92 73
59 90 71
61 94 74
57 88 69
57 87 69
60 92 72
60 92 72
60 91 72
60 91 72
58 89 70
57 87 69
59 91 72
60 91 72
58 89 70
60 92 73
61 93 74
59 90 71
57 87 69
60 91 72
62 94 74
59 90 71
59 90 71
59 90 71
60 92 73
59 90 71
58 88 70
59 91 71
59 90 71
60 92 73
61 93 73
61 94 74
60 92 72
61 93 73
61 93 74
58 89 70
59 90 71
58 88 70
59 90 71
59 90 71
60 91 72
60 93 73
60 92 73
59 90 71
60 91 72
58 89 70
60 92 73
61 93 73
59 91 72
58 89 70
57 88 69
58 88 70
58 90 71
56 86 68
58 89 70
60 92 73
59 91 72
59 90 71
59 90 71
61 93 74
59 90 71
59 90 71
58 89 70
60 92 72
58 89 70
59 90 71
60 91 72
58 89 70
59 90 71
58 89 70
57 88 69
58 90 71
58 88 70
60 92 72
58 88 70
58 89 70
58 89 70
58 89 70
58 89 70
60 91 72
59 90 71
56 86 68
57 88 69
62 95 75
60 92 72
59 90 71
59 91 72
56 85 67
59 91 72
61 94 74
59 91 72
57 88 69
60 93 73
60 93 73
59 90 71
59 90 71
58 90 71
58 89 70
60 91 72
61 94 74
59 91 72
59 90 71
60 92 72
61 93 73
58 88 70
60 91 72
60 93 73
61 93 73
58 89 71
59 91 72
60 92 73
57 88 69
58 89 70
59 91 71
58 89 71
59 91 72
60 92 73
57 88 69
59 91 72
58 88 70
58 89 70
58 89 70
59 90 71
60 91 72
60 91 72
57 88 70
58 89 70
59 91 71
61 93 73
59 90 71
58 89 70
59 91 72
57 87 69
56 86 68
57 88 69
57 88 69
60 92 72
60 92 73
58 89 71
58 89 70
58 89 70
60 92 72
59 91 72
62 95 75
59 91 72
59 90 71
58 89 70
60 92 72
60 92 73
58 89 70
57 88 70
58 88 70
61 93 73
58 89 70
59 91 71
59 91 72
58 89 70
57 88 69
58 89 70
58 89 70
60 92 73
57 88 69
59 90 71
60 92 72
58 89 70
59 91 72
60 92 72
57 87 69
59 90 71
58 89 70
59 90 71
57 88 69
56 86 68
57 87 69
59 90 71
59 90 71
58 89 70
59 90 71
59 90 71
60 91 72
59 90 71
57 88 69
57 88 69
57 88 69
59 91 71
60 91 72
58 89 70
58 89 70
59 91 72
61 93 73
61 94 74
56 86 68
59 90 71
59 90 71
61 94 74
58 89 71
58 90 71
59 91 72
59 90 71
58 89 71
59 91 72
57 88 69
60 91 72
59 90 71
60 92 72
59 91 72
60 92 73
58 89 70
59 90 71
59 91 72
57 88 69
58 90 71
59 91 72
58 90 71
59 91 71
58 89 70
58 89 70
58 89 70
58 89 70
58 89 70
56 86 68
58 89 70
59 90 71
59 91 72
59 91 72
59 90 71
60 92 72
60 91 72
57 88 70
60 91 72
58 89 70
59 90 71
59 91 72
57 88 70
59 91 72
61 93 73
58 90 71
60 92 72
56 86 68
57 87 69
55 85 67
59 90 71
59 90 71
59 90 71
58 89 70
57 87 69
55 85 67
58 89 70
58 89 70
58 89 70
58 89 71
57 88 69
58 90 71
60 92 73
61 94 74
58 88 70
58 89 70
57 87 69
58 89 70
58 90 71
57 87 69
59 90 72
57 88 70
60 92 73
58 89 70
57 88 70
56 87 69
58 88 70
56 86 68
58 90 71
59 90 71
58 90 71
56 87 69
59 91 72
59 90 71
58 88 70
58 89 70
57 88 70
57 87 69
57 88 70
59 91 72
59 91 72
56 86 68
56 86 68
57 88 70
58 90 71
59 90 71
58 89 71
59 91 72
58 90 71
59 91 72
57 88 69
57 87 69
58 89 70
56 86 68
58 90 71
58 88 70
57 88 69
56 86 68
57 87 69
57 88 70
58 89 71
59 90 71
57 87 69
58 89 71
58 89 70
59 90 71
58 89 70
56 87 69
57 88 70
57 88 70
58 89 70
59 91 72
60 93 74
60 92 73
57 87 69
58 89 70
56 86 68
59 91 72
60 92 73
58 89 71
57 87 69
57 88 70
59 90 72
56 87 69
56 86 68
55 85 67
57 88 69
56 86 68
59 90 71
57 88 69
56 85 68
56 86 68
57 88 70
56 87 69
57 87 69
58 88 70
59 91 72
59 90 71
58 89 70
59 91 71
58 89 70
61 94 74
58 90 71
60 92 73
59 90 71
59 91 72
58 89 71
60 92 73
59 91 72
58 89 70
58 89 70
59 90 71
58 89 70
58 88 70
58 90 71
59 91 71
59 90 71
58 88 70
59 91 72
57 88 69
58 88 69
59 90 71
58 89 70
58 89 70
59 90 71
58 89 70
59 91 72
60 91 72
57 88 69
59 91 72
61 93 73
60 92 72
62 95 75
58 89 70
58 89 71
59 90 71
58 90 71
58 89 70
58 89 70
58 89 71
58 89 70
59 91 72
60 92 72
60 92 73
56 87 68
58 88 70
60 92 72
60 92 72
61 94 74
59 90 71
58 89 70
58 89 70
58 89 70
59 90 71
59 91 72
59 91 72
58 89 70
57 87 69
60 91 72
61 94 74
60 92 73
60 92 73
59 91 72
61 93 73
59 91 71
59 91 72
58 90 71
60 93 73
59 91 72
60 92 72
62 94 74
58 88 70
60 92 72
60 91 72
59 91 72
59 91 72
60 91 72
59 90 71
59 90 71
58 89 71
60 92 73
60 91 72
58 90 71
61 93 74
58 89 70
57 87 69
61 93 74
60 92 73
61 93 73
58 89 70
59 90 71
60 91 72
59 90 71
58 89 71
57 88 69
60 91 72
58 88 70
58 89 70
58 89 70
60 91 72
59 91 72
58 89 70
60 92 73
59 91 72
59 90 71
58 88 70
56 86 68
59 91 71
61 94 74
58 89 70
56 87 68
56 86 68
59 90 71
59 91 72
57 87 69
57 88 69
58 89 71
60 92 73
60 91 72
61 93 73
57 87 69
58 88 70
58 89 70
58 89 70
59 90 71
58 89 71
59 90 71
58 90 71
59 90 71
57 87 69
60 93 73
60 91 72
60 92 73
58 89 70
57 88 69
60 93 73
58 89 70
59 90 71
59 90 71
59 90 71
61 94 74
60 91 72
59 91 72
57 88 69
61 94 74
60 91 72
59 90 71
58 89 71
60 91 72
60 92 73
61 93 73
58 89 71
59 90 71
59 90 71
57 88 70
59 90 71
60 92 73
59 90 71
59 90 71
60 92 73
58 88 70
61 94 74
59 90 71
56 85 67
59 90 71
60 92 72
56 85 67
58 89 70
57 87 69
58 88 70
59 90 71
61 93 73
59 91 72
60 92 72
57 87 69
58 89 70
60 92 73
58 89 70
59 90 71
59 90 71
58 90 71
59 90 71
58 89 71
58 89 71
58 89 71
58 89 70
58 89 70
59 90 71
57 88 69
62 95 75
60 91 72
59 90 71
59 90 71
59 90 71
59 90 71
59 90 71
59 91 72
57 88 70
59 91 72
58 90 71
60 91 72
60 92 72
59 91 72
60 92 72
59 91 71
59 90 71
59 90 71
59 90 71
57 88 69
58 89 71
59 90 71
58 89 70
57 87 69
59 91 72
60 92 72
58 89 71
60 92 72
61 93 73
59 90 71
60 92 73
58 88 70
60 92 73
59 91 72
58 89 71
59 90 71
61 93 73
59 91 72
59 91 72
58 89 70
57 88 70
58 88 70
55 85 67
58 88 70
57 88 70
58 89 70
58 89 71
58 89 71
59 91 72
56 86 68
58 89 70
61 93 73
57 88 70
60 91 72
61 94 74
59 91 72
58 88 70
58 89 71
58 89 71
59 91 72
58 89 71
55 84 66
58 89 70
57 88 69
58 88 70
56 86 68
57 87 69
59 90 71
57 87 69
58 89 70
60 92 73
59 90 71
59 91 72
61 93 73
59 91 72
58 89 70
57 87 69
61 93 73
58 89 70
57 88 70
57 88 70
57 88 69
60 92 73
59 90 71
58 89 71
58 89 70
56 85 68
57 87 69
57 87 69
59 90 71
58 90 71
61 94 74
58 89 70
59 90 71
58 89 70
60 91 72
59 91 72
59 90 71
59 90 71
60 92 72
57 88 69
58 89 70
57 87 69
59 91 72
57 88 70
57 88 70
57 88 69
57 88 69
58 90 71
59 90 71
60 92 73
59 90 71
58 89 70
60 91 72
59 90 71
58 90 71
57 88 70
59 91 72
57 88 70
58 89 70
58 89 70
57 88 69
57 87 69
56 86 68
59 91 72
58 89 71
58 88 70
59 91 72
59 91 72
57 88 69
55 85 67
57 87 69
57 88 69
59 91 72
59 90 71
59 91 72
58 89 70
56 87 69
56 86 69
59 90 71
60 92 73
56 86 68
57 87 69
60 92 73
59 91 72
57 87 69
56 86 68
58 90 71
59 90 71
58 89 70
59 90 71
58 89 70
57 87 69
57 87 69
57 87 69
58 89 70
56 86 68
56 86 68
60 92 73
57 88 69
56 87 69
56 87 68
59 91 72
58 90 71
56 86 68
59 90 71
58 90 71
59 90 71
56 86 68
57 88 70
57 87 69
59 90 71
57 87 69
58 89 70
56 86 68
56 87 69
58 89 70
59 91 72
57 88 70
55 85 67
57 88 70
58 90 71
57 88 70
58 89 70
58 89 71
57 87 69
58 89 70
58 89 70
60 92 73
58 89 71
58 89 71
58 89 71
58 89 70
62 95 75
60 91 72
58 89 71
57 87 69
57 87 69
55 85 67
57 87 69
56 86 68
56 87 69
57 88 70
59 90 72
58 90 72
57 88 70
57 88 69
60 92 72
59 91 72
59 90 72
58 89 70
58 89 71
60 92 72
58 89 70
60 92 73
58 89 70
61 94 74
59 90 71
59 90 71
58 90 71
58 89 70
57 88 69
60 92 73
60 92 73
56 86 68
58 88 70
58 89 71
59 90 71
59 91 72
58 88 70
57 87 69
59 90 71
60 91 72
60 91 72
58 89 70
59 90 71
59 90 71
58 89 70
57 88 70
59 91 72
59 91 72
61 93 74
58 90 71
59 90 71
58 89 71
60 92 72
60 92 73
58 89 70
59 91 72
57 88 69
61 93 74
59 91 72
57 87 69
59 91 71
60 92 72
59 91 72
59 90 71
58 89 70
56 86 68
58 89 70
59 91 71
59 90 71
60 92 73
59 91 72
60 92 72
59 91 72
57 87 69
59 91 71
59 91 72
61 93 73
60 92 72
61 93 74
58 88 70
57 87 69
59 90 71
58 89 70
59 90 71
58 89 70
60 91 72
60 92 72
59 90 71
59 90 71
58 90 71
60 92 72
59 90 71
61 94 74
60 91 72
61 93 73
60 92 73
58 90 71
57 88 69
60 91 72
58 89 70
59 90 71
60 92 73
58 89 70
59 91 72
61 93 73
60 91 72
58 89 70
58 90 71
60 91 72
60 92 73
59 91 72
60 92 72
58 88 70
60 92 72
58 89 70
58 89 70
60 91 72
56 86 68
58 89 70
57 88 69
58 89 70
59 90 71
60 92 72
62 95 75
59 90 71
59 90 71
59 90 71
59 91 72
59 90 71
58 88 70
58 89 70
60 92 72
57 87 69
59 90 71
60 92 73
59 90 71
59 90 71
59 90 71
59 90 71
61 93 74
59 91 71
59 90 71
59 90 71
59 90 71
60 91 72
60 92 73
58 88 70
59 91 71
58 89 70
59 91 72
59 90 71
59 91 71
57 87 69
58 89 71
59 90 71
58 89 70
57 87 68
57 88 70
57 87 69
60 92 73
59 91 71
58 89 70
58 89 71
57 88 69
58 89 70
60 91 72
59 90 71
60 92 73
58 89 70
60 92 73
59 90 71
60 92 73
58 88 70
56 86 68
60 91 72
60 92 73
59 90 71
58 89 70
58 89 71
59 90 71
58 88 70
57 88 70
58 90 71
58 89 70
58 89 70
58 89 71
59 90 71
60 91 72
59 91 71
61 93 73
59 90 71
58 89 70
59 90 71
59 90 71
59 91 71
60 92 73
59 91 72
57 88 69
58 89 71
60 93 73
55 85 67
58 89 70
59 91 71
60 92 73
58 88 70
57 88 69
57 88 69
60 91 72
59 90 71
59 90 71
59 91 72
57 87 69
56 87 68
58 89 70
60 91 72
58 89 70
57 88 70
59 90 71
61 94 74
61 93 73
58 89 70
59 90 71
59 91 72
59 90 71
60 91 72
59 91 72
60 92 72
58 88 70
59 90 71
58 89 70
56 86 68
58 89 70
56 86 68
58 89 71
58 89 71
59 90 71
60 92 73
59 90 71
58 88 70
60 92 73
60 92 72
58 89 70
58 89 70
59 91 72
62 95 75
60 91 72
58 88 70
58 90 71
59 91 72
58 89 71
56 86 68
61 93 74
61 93 73
58 88 70
58 88 70
59 91 72
57 88 69
58 89 70
61 94 74
57 87 69
59 90 71
59 91 72
60 92 72
59 90 71
58 89 70
59 90 71
60 91 72
60 92 73
59 91 72
58 89 70
58 89 71
58 89 71
60 91 72
58 90 71
59 90 71
59 90 71
59 91 72
59 91 72
58 89 70
60 93 73
60 91 72
58 89 70
59 91 72
58 89 70
58 88 70
58 89 70
59 91 72
59 90 71
58 89 70
59 90 71
57 87 69
59 91 72
60 92 72
58 89 70
57 88 69
60 92 73
59 91 71
59 91 72
56 87 68
58 90 71
59 91 72
58 89 70
59 91 72
60 92 73
58 89 71
59 91 72
61 93 73
60 92 73
60 91 72
61 93 73
59 91 72
56 87 69
60 92 73
58 90 71
54 83 66
59 90 71
57 87 69
58 90 71
61 93 74
58 88 70
58 89 71
60 92 73
58 89 70
59 91 72
58 90 71
58 89 70
57 88 70
56 86 68
58 89 70
59 90 71
58 89 70
55 85 67
56 86 68
57 87 69
58 89 70
58 89 70
59 91 72
56 86 68
57 88 69
56 86 68
58 89 70
56 86 68
58 89 70
60 92 73
59 90 71
56 87 68
58 90 71
58 89 71
56 86 68
57 87 69
58 90 71
60 92 73
59 90 71
58 89 70
60 91 72
60 92 73
57 88 70
57 87 68
58 90 71
60 92 73
58 89 70
59 91 72
57 88 70
57 87 69
58 89 70
57 88 69
57 87 69
56 86 68
59 91 72
59 90 71
56 87 69
56 86 68
58 90 71
57 87 69
58 89 71
56 87 69
56 87 69
58 89 71
56 87 69
55 85 68
58 89 70
56 85 68
56 85 68
57 88 70
58 88 70
57 88 69
60 92 73
57 88 70
56 85 68
55 85 67
59 91 72
58 89 71
59 91 72
57 87 69
58 89 70
59 90 71
58 89 71
57 87 69
58 89 71
58 89 71
57 87 69
57 88 70
58 88 70
56 86 68
56 87 69
57 88 69
57 88 70
58 90 71
57 87 69
57 87 69
59 90 71
59 91 72
59 91 72
60 92 73
58 89 70
59 90 71
60 93 73
59 90 71
58 88 70
59 90 71
60 92 73
59 90 71
59 91 72
59 91 72
57 88 69
59 90 71
59 90 71
60 93 73
59 91 72
58 89 70
61 93 74
58 89 70
61 94 74
60 91 72
60 92 73
61 94 74
61 93 73
60 93 73
56 86 68
58 89 71
59 90 71
60 92 73
57 87 69
60 91 72
59 90 71
58 89 70
59 91 72
57 87 69
60 91 72
60 91 72
58 89 70
59 91 72
58 89 70
59 91 72
59 91 71
60 91 72
61 93 73
61 93 74
62 94 75
59 90 71
58 88 70
60 92 73
59 91 72
59 90 71
59 90 71
59 91 72
58 89 70
61 93 73
59 91 72
59 91 72
59 90 71
60 92 73
60 93 73
57 88 69
60 91 72
59 90 71
60 92 73
58 89 70
59 90 71
59 91 72
60 91 72
58 89 70
58 89 70
60 92 73
62 94 74
60 92 73
60 91 72
58 89 70
59 91 72
60 91 72
58 88 70
57 88 69
57 88 69
60 92 73
59 90 71
61 93 73
60 92 73
60 92 72
59 90 71
60 92 73
58 89 70
62 94 74
59 90 71
59 91 72
61 93 73
59 91 72
58 89 70
60 91 72
61 93 74
60 91 72
59 90 71
58 89 71
59 90 71
62 95 75
60 92 73
59 90 71
59 90 71
60 92 72
57 88 69
58 89 70
58 88 70
58 90 71
59 90 71
60 92 72
60 91 72
58 89 70
59 91 71
58 89 70
58 88 70
58 90 71
59 90 71
57 87 69
58 89 70
59 90 71
58 89 70
59 90 71
59 90 71
57 88 69
60 92 72
60 92 73
59 90 71
60 91 72
61 93 74
59 90 71
58 88 70
60 92 73
58 89 70
60 91 72
60 91 72
59 90 71
59 91 72
60 92 72
59 90 71
60 92 72
58 89 70
57 88 70
60 92 73
61 93 73
58 89 70
60 91 72
61 93 74
61 93 74
59 91 72
59 90 71
58 89 71
60 92 72
60 92 73
60 92 72
59 90 71
61 94 74
62 94 74
60 92 72
60 92 73
60 92 72
58 88 70
59 90 71
60 92 72
60 92 73
60 92 73
58 88 70
59 90 71
60 92 73
61 93 74
59 90 71
60 91 72
58 88 70
60 92 73
57 87 69
59 90 71
60 92 73
58 89 70
58 89 70
58 89 70
58 88 70
58 89 70
59 91 72
59 91 72
61 94 74
60 92 73
58 88 70
57 87 69
58 89 70
61 93 73
59 90 71
57 87 69
58 89 70
56 86 68
58 89 70
59 90 71
58 88 70
57 87 69
58 89 70
59 90 71
58 89 71
56 86 68
60 91 72
60 93 73
58 88 70
58 90 71
58 88 70
59 90 71
60 92 72
58 88 70
59 90 71
59 90 71
62 94 74
59 90 71
59 91 72
59 91 72
60 91 72
58 88 70
59 90 71
58 89 71
58 89 70
58 89 70
59 91 72
61 94 74
59 90 71
59 90 71
59 90 71
61 93 73
61 94 74
60 92 72
58 88 70
59 91 72
59 91 72
60 93 73
60 92 72
59 91 72
57 87 69
58 88 70
59 91 72
60 91 72
57 87 69
57 87 69
59 90 71
59 90 71
60 92 72
57 88 69
57 88 69
57 88 69
59 90 71
57 87 69
59 91 72
57 88 69
58 88 69
60 93 73
61 94 74
58 89 70
57 88 70
57 88 69
56 86 68
59 90 71
58 90 71
58 89 70
59 90 71
57 88 69
59 91 72
57 87 69
59 91 72
60 92 73
59 90 71
58 89 70
60 92 73
57 88 70
58 90 71
59 91 72
59 90 71
57 87 69
61 93 74
60 93 73
60 91 72
57 88 69
59 90 71
57 88 69
59 91 72
58 90 71
58 89 70
59 91 72
57 88 69
57 87 69
58 89 70
57 87 69
58 90 71
58 89 71
58 89 71
59 90 72
58 89 70
60 92 72
59 90 72
58 89 70
58 89 70
56 86 68
60 92 73
58 89 70
58 89 70
59 90 72
57 88 69
59 91 72
58 89 70
57 87 69
57 88 69
58 90 71
57 88 70
58 89 70
57 88 69
58 88 70
59 90 71
57 88 70
57 88 69
59 91 72
58 89 71
57 87 69
56 86 68
57 88 69
59 90 71
57 88 69
58 88 70
58 89 70
58 89 70
57 87 69
57 87 69
58 89 70
58 89 70
59 91 72
59 91 72
58 90 71
59 91 72
58 89 70
55 84 67
58 89 70
57 88 69
57 88 69
57 88 69
59 91 72
58 88 70
57 88 69
60 92 73
58 89 70
58 89 71
56 86 68
58 90 71
59 91 72
60 92 73
59 90 71
58 89 70
57 88 70
57 87 69
59 91 72
58 89 70
56 86 68
59 90 72
59 91 72
58 89 71
57 88 70
56 86 68
59 90 72
59 91 72
57 87 69
56 87 69
57 88 69
57 88 69
58 90 71
60 92 72
57 88 70
57 88 70
58 89 70
57 87 69
56 86 68
58 89 71
60 92 72
59 90 71
58 89 71
57 88 70
59 91 72
58 89 71
56 86 68
58 89 71
57 88 70
57 88 69
56 86 69
57 88 70
60 92 73
55 84 67
58 89 70
57 87 69
57 88 69
58 88 70
58 90 71
58 89 71
58 89 71
55 85 68
58 89 71
60 91 72
58 90 71
59 91 72
57 88 70
59 91 72
57 88 69
58 89 70
59 90 71
62 94 74
60 92 72
58 88 70
58 89 71
59 90 71
59 90 71
58 89 70
57 88 69
59 91 72
59 91 72
59 90 71
59 91 72
58 89 70
61 93 73
61 93 73
58 89 70
59 90 71
57 88 69
59 91 72
60 92 72
60 92 72
60 92 73
59 90 71
59 90 71
58 89 70
60 91 72
60 92 73
57 87 69
61 94 74
58 90 71
60 91 72
58 89 70
57 88 69
58 88 70
59 90 71
58 89 70
57 87 69
59 90 71
58 89 70
59 91 72
59 90 71
61 94 74
59 90 71
57 88 69
59 91 71
61 93 73
59 91 72
59 91 71
60 91 72
58 89 70
61 93 74
60 92 73
60 92 72
59 90 71
60 91 72
60 91 72
58 89 70
60 93 73
61 93 74
57 87 69
59 91 72
58 89 70
59 90 71
60 92 73
61 92 73
60 92 73
61 94 74
60 93 73
58 89 70
60 92 73
59 90 71
60 92 72
61 94 74
62 94 74
60 92 73
59 91 72
60 93 73
58 89 71
59 91 72
58 88 70
58 89 70
59 91 71
57 88 69
59 90 71
59 90 71
58 89 70
58 88 70
59 90 71
60 92 73
61 94 74
59 91 72
58 89 70
62 94 74
58 89 70
59 90 71
58 89 70
59 91 71
58 88 70
58 89 70
59 90 71
58 89 70
59 91 71
60 91 72
58 89 70
59 91 71
60 92 73
60 92 73
58 89 70
61 93 73
59 90 71
59 90 71
59 91 72
60 92 72
58 88 70
58 89 70
59 90 71
59 90 71
57 88 69
60 91 72
60 92 73
61 93 74
59 90 71
58 88 70
57 88 69
58 89 70
58 89 70
58 89 70
60 92 72
60 93 73
59 91 72
59 91 72
58 89 71
61 93 74
60 91 72
59 91 72
59 90 71
57 88 69
59 90 71
60 91 72
58 89 70
58 89 70
57 87 69
57 87 69
58 90 71
59 90 71
59 90 71
59 91 72
58 89 71
60 91 72
60 91 72
59 90 71
61 94 74
60 92 73
59 90 71
57 87 69
58 89 71
59 90 71
57 87 69
57 88 70
57 88 69
57 87 69
60 93 73
58 88 70
58 88 70
60 91 72
60 92 73
58 89 71
59 91 72
58 88 70
59 90 71
57 88 69
58 89 70
57 88 69
58 89 70
58 89 70
61 93 73
61 93 73
58 89 71
59 91 71
60 92 72
58 89 70
60 91 72
59 90 71
57 88 69
59 91 72
61 93 74
59 91 72
61 94 74
60 92 72
60 91 72
59 90 71
59 91 72
59 90 71
58 89 71
60 92 72
61 93 74
57 87 69
58 89 71
58 89 70
60 91 72
57 87 69
59 91 71
61 94 74
58 89 70
59 90 71
61 93 74
59 91 72
60 91 72
59 90 71
60 92 72
59 90 71
61 93 73
58 88 70
60 92 73
57 88 69
58 89 70
59 90 71
59 90 71
59 90 71
56 86 68
59 90 71
61 93 73
57 87 69
58 88 70
62 95 75
58 89 70
59 90 71
64 98 77
61 93 73
60 93 73
61 94 74
59 90 71
58 89 70
59 91 72
58 88 70
60 92 73
58 89 70
57 87 69
58 90 71
59 91 71
58 89 70
57 88 69
58 88 70
60 91 72
58 89 70
60 91 72
57 88 69
60 91 72
58 89 70
58 89 71
59 90 71
58 89 70
57 87 69
57 87 69
61 93 73
60 92 72
61 93 73
61 93 73
58 89 70
60 92 72
58 89 71
59 91 72
59 91 72
59 91 71
60 92 73
58 90 71
60 92 73
58 89 70
59 91 72
60 92 73
59 90 71
59 90 71
60 91 72
59 91 72
59 90 71
61 94 74
58 88 70
58 90 71
57 88 69
58 88 70
59 90 71
60 91 72
59 90 71
58 89 70
59 90 71
59 91 72
60 92 73
59 91 72
60 91 72
59 90 71
60 92 72
59 91 71
58 89 70
59 90 71
56 86 68
59 90 71
58 89 70
57 88 69
58 89 71
58 90 71
58 89 70
59 91 72
57 88 69
58 89 70
58 89 70
57 88 69
57 88 70
57 88 70
58 89 70
60 92 72
59 90 71
60 92 72
59 91 72
58 89 71
58 89 70
58 90 71
58 89 70
58 88 70
59 91 72
59 90 71
57 87 69
57 87 69
60 91 72
59 91 71
59 91 72
59 90 71
58 89 70
58 89 70
56 86 68
58 89 70
58 89 70
57 87 69
59 90 71
59 91 72
60 92 72
55 85 67
58 89 70
59 91 72
58 89 70
58 89 71
59 90 71
60 93 73
60 92 73
59 90 71
60 92 73
58 89 71
58 90 71
60 91 72
56 86 68
58 90 71
58 89 71
57 88 69
58 88 70
58 89 71
57 88 69
58 89 70
57 87 69
56 86 68
59 91 72
57 87 69
57 87 69
57 87 69
58 89 70
57 88 70
56 87 69
58 89 71
58 89 71
57 88 69
57 87 69
56 86 68
58 90 71
59 90 71
58 90 71
58 90 71
59 91 72
57 88 69
57 88 70
59 90 71
57 88 69
58 88 70
58 90 71
57 87 69
56 86 68
59 90 71
58 90 71
57 87 69
56 86 68
58 89 70
58 89 71
58 89 71
58 90 71
57 88 69
58 89 70
59 90 71
59 90 71
60 92 73
59 91 72
58 89 70
59 90 71
60 91 72
59 90 71
57 87 69
59 90 71
59 90 71
60 92 73
60 91 72
60 91 72
58 88 70
57 88 69
57 87 69
57 87 69
59 91 72
60 91 72
57 88 69
60 91 72
60 92 72
60 93 73
59 90 71
59 90 71
60 92 73
58 90 71
60 92 72
60 91 72
58 88 69
58 89 70
59 90 71
60 92 73
56 86 68
61 93 73
58 89 71
61 92 73
58 89 70
58 89 70
59 91 72
59 90 71
59 91 72
61 94 74
59 90 71
61 93 73
58 89 70
60 91 72
61 93 73
60 92 72
58 88 70
58 89 70
61 94 74
59 90 71
59 91 72
58 89 70
61 93 73
60 92 73
58 89 70
59 90 71
58 89 70
58 89 70
57 87 69
61 93 74
60 92 72
58 89 71
59 90 71
61 93 73
59 90 71
57 88 70
59 90 71
59 90 71
58 89 70
61 93 73
59 91 71
59 90 71
58 89 70
59 90 71
62 95 75
60 92 72
61 93 74
60 92 72
59 90 71
61 93 74
60 92 72
61 93 74
60 92 73
60 92 73
58 89 70
57 87 69
58 89 71
58 89 70
60 92 72
58 88 70
60 91 72
60 92 72
60 92 72
60 92 72
59 90 71
60 92 73
60 92 73
61 93 73
59 91 72
58 89 70
59 90 71
60 92 73
57 87 69
56 85 67
58 89 70
59 90 71
58 90 71
59 91 72
58 88 70
59 91 72
58 88 70
61 93 73
61 93 73
58 89 70
60 93 73
59 90 71
60 92 72
57 87 69
60 92 73
59 90 71
58 88 70
60 92 72
60 92 72
60 93 73
59 90 71
58 88 70
57 87 68
59 90 71
59 91 71
59 91 72
58 90 71
59 90 71
60 91 72
58 89 70
59 90 71
60 92 73
58 90 71
59 91 71
59 91 72
58 89 70
59 90 71
59 91 72
62 95 74
61 93 73
58 89 70
58 89 70
60 91 72
60 92 73
58 89 70
58 89 70
62 95 75
59 91 72
59 90 71
58 89 70
58 89 70
60 92 72
60 92 73
58 90 71
59 91 72
61 94 74
61 93 73
60 92 72
59 90 71
59 91 71
62 94 74
58 89 70
59 91 72
58 89 71
60 92 73
60 92 73
59 91 72
59 91 71
58 89 70
58 90 71
58 88 69
59 90 71
60 92 72
61 93 74
58 89 70
58 89 70
60 92 73
58 90 71
58 88 70
58 89 70
60 91 72
60 92 73
59 90 71
59 91 71
59 90 71
58 89 70
59 90 71
61 93 74
61 93 73
60 92 72
58 89 70
61 93 73
62 95 75
58 89 70
60 92 73
56 86 67
58 88 70
58 89 70
59 90 71
59 90 71
61 94 74
59 90 71
60 92 73
60 92 73
59 90 71
60 92 73
57 88 69
59 90 71
57 88 69
58 89 70
58 89 70
57 88 69
59 90 71
57 88 69
57 87 69
57 87 68
60 92 72
59 90 71
58 90 71
60 92 73
59 90 71
58 89 71
60 92 73
62 94 74
61 93 73
58 89 70
56 86 68
58 90 71
58 89 70
59 90 71
58 90 71
59 91 72
59 91 71
60 91 72
59 90 71
60 91 72
58 88 70
59 90 71
60 92 73
61 93 74
59 90 71
58 89 70
59 90 71
58 89 70
58 89 70
57 88 70
59 90 71
59 90 71
61 93 73
58 89 70
58 88 70
57 88 69
59 91 72
58 89 71
60 92 72
59 90 71
60 91 72
60 92 72
58 89 71
58 89 70
58 89 71
58 89 71
57 88 69
59 90 71
58 90 71
60 92 72
58 89 70
59 91 72
60 92 73
60 91 72
58 89 70
59 91 72
58 88 70
60 92 72
60 92 73
58 89 70
57 88 70
57 88 69
58 88 70
57 88 69
57 88 70
57 88 69
59 90 71
57 88 69
58 89 70
57 87 69
59 91 71
59 91 72
59 90 71
60 92 73
58 90 71
58 89 70
57 88 69
58 89 70
59 90 71
56 86 68
57 87 69
59 91 72
57 88 69
58 89 70
57 88 70
59 91 72
59 91 72
58 89 70
56 86 68
57 88 69
57 88 70
59 91 72
59 90 71
58 90 71
59 90 71
60 92 73
58 90 71
57 87 69
59 90 71
57 88 70
56 86 68
59 91 72
58 88 70
59 90 71
60 92 72
58 89 70
59 90 71
58 89 71
59 90 71
58 89 70
58 88 70
58 88 70
60 92 73
58 89 70
57 88 69
59 91 72
57 87 69
56 86 68
58 89 70
57 88 69
57 88 69
58 88 70
58 89 70
60 92 72
58 89 70
59 91 72
58 89 71
58 89 70
58 89 71
56 87 69
57 87 69
58 89 70
59 91 72
60 92 73
60 91 72
57 88 69
56 86 68
59 90 71
58 90 71
59 91 71
57 88 70
57 88 70
58 89 70
57 88 69
59 90 71
60 92 73
59 90 72
57 87 69
60 93 73
56 86 68
58 89 70
61 93 74
58 89 71
58 89 70
59 90 71
57 88 69
59 90 71
57 88 70
59 91 72
58 89 71
58 89 70
58 89 71
58 89 70
60 92 73
58 89 70
59 91 72
59 91 72
59 90 72
57 88 70
59 90 71
58 90 71
58 89 70
57 88 70
57 88 70
57 88 70
59 90 71
60 92 73
60 92 72
58 89 70
59 91 72
58 88 70
61 93 74
61 93 73
62 95 75
59 90 71
60 91 72
60 92 72
59 91 71
59 91 71
62 94 74
59 91 72
59 90 71
59 90 71
57 88 69
60 93 73
57 88 69
58 89 70
59 91 72
59 90 71
62 94 75
59 91 72
62 94 74
61 94 74
60 92 73
59 91 71
61 93 74
58 89 70
59 90 71
62 95 75
60 92 73
59 91 71
60 91 72
59 90 71
60 92 72
62 94 75
60 91 72
59 90 71
60 92 72
60 92 72
59 90 71
60 91 72
61 94 74
60 92 72
60 92 73
59 90 71
62 95 75
59 90 71
57 87 68
58 89 70
60 92 73
60 92 73
59 91 71
62 95 75
58 89 70
59 90 71
58 88 70
58 88 70
61 93 74
59 90 71
57 88 69
58 88 70
59 90 71
59 90 71
60 92 72
59 90 71
57 87 68
58 89 70
58 90 71
59 90 71
59 90 71
59 89 70
59 91 72
60 92 73
61 93 73
60 92 72
60 91 72
59 90 71
60 91 72
61 94 74
59 90 71
61 93 73
58 89 70
60 92 72
60 91 72
60 91 72
59 90 71
60 92 72
60 91 72
58 89 70
60 91 72
58 89 70
60 91 72
59 90 71
60 92 73
58 89 70
61 93 73
60 92 72
59 90 71
60 92 73
58 89 70
57 88 69
59 90 71
60 92 72
58 89 71
59 90 71
59 90 71
60 92 72
60 92 73
59 91 72
59 90 71
59 90 71
59 91 72
59 90 71
59 90 71
60 91 72
60 91 72
59 91 71
59 91 71
60 92 73
59 91 71
61 94 74
62 95 75
61 93 73
60 92 72
60 91 72
60 92 72
60 92 72
59 90 71
60 92 73
59 91 72
59 91 72
60 92 73
61 93 73
58 90 71
58 89 70
58 89 70
59 91 72
60 92 73
58 89 70
59 91 71
58 89 70
59 91 72
61 93 73
60 92 72
58 88 70
58 90 71
60 91 72
61 93 73
61 94 74
59 91 72
61 93 73
59 91 71
58 88 70
58 90 71
58 89 70
62 94 75
58 89 70
59 90 71
58 89 70
57 88 70
58 88 69
59 91 72
60 93 73
62 95 75
59 91 72
57 87 69
60 92 72
61 93 73
60 91 72
58 89 70
58 90 71
59 90 71
58 89 70
60 92 72
59 91 72
58 89 70
60 92 72
59 91 72
60 91 72
61 93 74
59 90 71
59 91 72
58 88 70
59 90 71
60 92 72
59 90 71
59 91 72
56 86 68
59 91 72
61 94 74
61 93 74
60 92 73
58 89 70
60 91 72
58 88 70
58 89 70
59 90 71
60 92 73
58 88 70
58 89 70
59 90 71
61 94 74
57 88 69
59 91 72
59 91 72
57 88 69
60 92 72
58 89 70
60 91 72
60 92 72
57 87 69
57 87 69
57 88 69
57 87 69
57 87 68
59 91 72
58 89 70
58 89 70
61 93 73
60 91 72
60 92 72
60 92 73
58 89 70
59 90 71
59 90 71
59 90 71
58 89 70
59 91 72
59 91 72
58 89 70
58 89 70
58 89 70
59 91 72
58 88 70
58 89 70
59 90 71
63 96 75
59 90 71
58 89 70
59 91 72
58 90 71
57 88 69
57 88 69
60 92 72
59 90 71
58 89 70
58 89 70
57 87 69
60 91 72
57 88 69
59 91 72
59 90 71
60 92 72
59 90 71
61 93 73
58 88 70
57 88 69
58 89 70
59 90 71
59 91 72
60 91 72
61 93 73
58 89 70
60 92 72
60 92 73
59 90 71
57 87 69
58 89 70
58 90 71
60 92 73
58 89 70
58 89 70
58 90 71
59 90 71
61 93 73
59 90 71
58 88 70
60 91 72
58 89 70
59 90 71
60 92 73
57 88 69
60 92 73
58 89 70
57 88 69
60 91 72
58 89 71
59 90 72
58 89 70
58 89 71
60 92 73
59 91 72
59 90 71
58 89 70
58 89 71
59 90 71
56 86 68
59 91 72
58 88 70
57 88 70
58 88 70
58 89 71
59 90 71
60 92 72
56 86 68
58 89 70
57 87 69
58 89 70
57 87 69
55 84 66
58 89 71
60 92 73
60 92 73
60 91 72
58 90 71
56 87 69
58 89 71
58 88 70
60 92 73
58 89 71
58 88 70
60 92 73
60 92 72
59 90 71
58 89 70
58 89 71
57 88 70
58 89 71
59 90 71
60 91 72
59 90 71
58 89 71
58 89 71
57 88 69
57 87 69
59 90 71
57 87 69
56 87 69
59 90 71
57 87 69
57 88 70
58 89 70
58 89 71
56 86 68
60 92 72
60 91 72
57 87 69
57 87 69
57 87 69
57 88 70
56 86 68
59 90 72
58 90 71
58 90 71
57 87 69
58 89 70
59 90 71
58 89 71
58 88 70
58 90 71
59 91 72
59 90 71
59 90 71
59 90 71
58 90 71
58 89 71
57 88 70
57 88 69
58 89 70
58 89 71
58 88 70
57 87 69
57 88 70
59 91 72
58 89 70
58 90 71
57 88 70
58 88 70
56 86 68
56 86 68
58 89 70
58 89 70
55 85 67
56 86 68
58 89 70
57 87 69
59 91 72
59 90 72
58 90 71
58 89 70
57 88 69
58 89 70
58 89 70
57 88 69
57 87 69
57 88 69
61 94 74
59 90 71
59 90 71
60 92 73
59 91 71
58 89 70
60 91 72
60 92 73
59 90 71
58 89 70
57 88 69
61 94 74
61 93 73
59 90 71
58 89 70
56 86 68
59 90 71
60 91 72
61 93 73
59 91 72
59 91 72
58 89 70
58 89 70
60 92 73
59 91 72
61 93 73
59 91 71
59 91 72
60 92 73
60 91 72
59 91 72
58 89 70
59 90 71
57 87 69
61 93 74
60 92 72
59 91 71
59 91 72
61 93 73
60 92 72
58 88 70
59 91 71
59 90 71
58 89 70
60 92 73
63 97 76
62 96 75
61 93 73
60 92 73
61 93 74
57 88 69
59 90 71
61 93 73
58 89 70
57 88 69
60 91 72
60 91 72
58 89 70
60 92 72
59 90 71
57 88 69
59 91 71
60 91 72
59 91 71
61 93 73
58 89 70
59 91 72
58 88 70
59 91 72
57 88 69
59 90 71
58 89 70
58 89 70
59 90 71
59 90 71
60 91 72
58 89 70
58 89 70
58 88 70
59 91 72
59 90 71
62 95 75
58 89 70
60 92 73
61 92 73
57 88 70
60 92 73
60 91 72
58 89 70
60 92 72
60 92 73
59 91 71
57 87 69
59 90 71
60 92 72
62 94 74
60 92 73
62 94 74
59 91 71
62 94 74
59 91 72
59 91 72
59 90 71
59 91 72
57 88 69
59 90 71
58 89 70
59 90 71
58 90 71
61 93 74
61 93 73
62 94 74
61 94 74
58 89 70
59 90 71
59 90 71
59 90 71
59 91 71
60 92 73
59 91 71
59 91 72
59 91 71
58 89 70
59 90 71
58 88 70
60 92 73
60 92 73
60 91 72
59 91 72
59 91 71
58 89 70
59 89 70
59 90 71
60 92 72
60 92 72
60 92 72
61 93 73
59 91 71
58 88 70
58 89 70
59 91 71
59 90 71
58 90 71
58 89 70
59 91 72
58 89 71
61 94 74
59 91 71
58 89 70
59 91 72
60 92 73
60 92 73
59 90 71
59 90 71
61 93 73
60 92 73
61 93 74
59 90 71
58 89 70
59 90 71
58 88 69
59 91 71
58 89 70
59 91 71
58 89 70
62 96 75
59 91 72
59 91 72
58 89 70
59 91 72
60 91 72
61 93 73
59 90 71
60 92 73
58 88 70
60 91 72
60 91 71
62 95 75
61 94 74
61 93 73
58 89 70
61 94 74
59 91 72
58 88 69
58 88 70
59 90 71
58 89 70
60 91 72
59 91 72
58 88 70
58 89 70
59 90 71
61 93 73
60 92 72
59 91 71
60 93 73
58 89 70
61 93 73
57 87 69
58 88 70
57 88 69
60 91 72
61 94 74
58 88 70
61 94 74
61 93 73
60 92 73
58 89 70
58 89 70
60 92 73
60 92 73
60 91 72
58 89 70
58 89 70
57 88 69
58 89 70
58 89 70
58 89 70
60 92 72
60 92 72
60 91 72
61 94 74
60 91 72
59 91 72
62 95 75
57 87 69
58 88 70
58 89 70
61 94 74
62 95 75
58 88 70
61 93 73
60 92 72
58 89 71
59 90 71
58 90 71
57 87 68
59 90 71
58 89 70
60 91 72
59 90 71
59 89 70
58 89 70
60 92 72
58 90 71
58 89 70
59 90 71
60 92 72
60 92 73
59 90 71
60 92 73
58 90 71
58 89 70
57 88 69
57 88 69
57 88 70
60 92 72
62 95 75
58 90 71
59 91 72
60 92 72
57 88 69
59 90 71
59 91 72
59 90 71
57 87 69
58 88 70
58 89 70
58 88 69
59 91 72
59 91 72
57 88 70
57 87 69
58 89 70
60 92 73
60 92 72
59 90 71
58 89 71
60 92 72
58 90 71
57 88 70
58 89 70
62 95 75
60 91 72
60 91 72
58 89 70
58 89 70
58 89 71
59 90 71
59 90 71
59 91 71
60 93 73
59 90 71
58 89 70
60 92 73
58 89 70
59 90 71
58 89 70
59 90 71
61 93 73
59 91 72
58 89 71
58 89 70
57 88 69
59 91 72
57 88 70
60 92 73
56 85 68
56 86 68
57 88 70
61 93 74
58 89 70
59 91 72
59 91 72
57 87 69
60 92 72
59 90 71
59 91 72
57 88 70
56 86 68
58 89 70
57 88 70
59 90 71
56 86 68
58 89 70
58 89 71
56 85 68
58 89 71
57 87 69
59 90 71
56 87 68
62 95 75
60 91 72
59 90 71
59 91 72
59 91 72
58 89 70
57 87 69
60 92 72
57 88 70
57 87 69
59 91 72
58 89 70
59 90 71
57 87 69
59 90 71
57 88 70
57 87 69
59 91 72
58 88 70
58 88 70
58 89 70
59 90 71
58 89 70
57 88 69
58 89 70
58 89 70
60 92 73
59 90 71
59 90 72
59 90 71
59 91 72
57 87 69
57 88 70
58 89 70
56 86 68
58 89 70
59 91 72
61 94 75
58 89 71
59 90 71
57 87 69
57 87 69
59 91 72
58 89 70
58 90 71
58 90 71
57 88 69
59 90 71
59 90 71
57 88 69
56 86 68
56 86 68
56 86 68
59 90 72
60 92 73
59 90 71
58 89 71
58 89 70
57 87 69
58 89 71
59 90 72
59 91 72
60 92 72
58 90 71
59 91 72
58 89 71
58 89 70
58 89 71
58 88 70
62 94 74
59 91 72
58 89 70
58 89 70
64 98 77
58 89 71
57 88 69
60 91 72
59 91 71
58 89 70
59 90 71
61 93 73
59 90 71
56 86 68
57 87 69
59 91 72
59 91 71
60 92 72
60 92 72
61 93 74
60 92 73
60 92 72
59 90 71
59 91 72
59 90 71
60 92 73
58 88 70
62 94 74
59 90 71
59 91 72
59 91 72
59 91 71
60 92 72
61 94 74
59 90 71
59 91 71
60 92 73
62 94 74
59 90 71
59 90 71
58 88 70
58 89 71
59 91 71
59 91 72
59 90 71
60 91 72
60 91 72
59 90 71
59 91 71
57 88 69
62 95 74
61 93 73
60 91 72
61 93 74
60 92 72
62 94 74
61 94 74
58 88 70
59 90 71
58 89 70
59 90 71
59 89 71
60 91 72
60 91 72
57 88 69
58 89 70
59 90 71
57 87 68
59 91 72
59 90 71
59 91 72
60 91 72
58 89 70
58 89 70
59 91 71
60 92 72
60 91 72
60 91 72
56 87 69
60 92 72
59 90 71
60 92 72
60 92 73
60 91 72
61 93 74
60 92 73
57 88 69
58 89 70
58 89 71
59 90 71
60 92 72
59 90 71
60 92 73
61 93 74
60 92 72
59 91 72
56 86 68
58 89 70
60 92 73
59 91 72
58 89 70
60 92 72
60 93 73
62 94 74
59 90 71
58 89 70
61 93 73
62 95 75
60 92 73
61 93 73
58 89 70
62 95 75
62 95 75
60 92 72
57 88 69
60 91 72
59 91 72
58 89 70
58 89 70
57 87 69
60 92 73
59 90 71
60 92 72
61 93 73
59 90 71
60 92 73
61 93 74
63 96 76
61 94 74
58 89 70
61 93 73
60 92 72
61 93 73
62 95 75
60 92 72
60 91 72
60 92 73
59 91 72
61 93 73
57 88 69
61 93 73
60 91 72
59 90 70
59 90 71
57 88 69
60 92 72
63 96 76
61 93 73
59 90 71
59 90 71
60 91 72
60 91 72
61 93 73
57 88 69
59 90 71
59 91 72
60 91 72
59 90 71
59 91 72
60 91 72
60 92 73
60 92 73
58 89 71
59 89 71
57 87 69
58 89 70
58 89 70
59 90 71
58 89 71
58 89 71
59 91 71
59 90 71
61 94 74
58 89 70
58 89 70
57 87 69
60 92 73
60 92 72
61 93 73
58 89 70
59 91 72
60 91 72
61 93 73
61 93 73
59 90 71
59 91 71
60 91 72
59 91 71
59 90 71
57 87 69
59 91 72
60 92 73
59 90 71
60 92 72
59 90 71
58 88 70
61 94 74
60 91 72
60 92 72
59 90 71
60 91 72
60 92 73
59 90 71
59 90 71
61 93 73
60 92 72
57 88 69
59 90 71
59 91 72
60 91 72
58 89 70
63 96 76
59 90 71
56 86 68
59 91 72
59 90 71
57 88 69
61 93 74
61 93 73
60 92 72
58 89 70
59 91 72
59 91 72
58 89 70
61 93 73
60 91 72
60 91 72
60 91 72
61 93 73
61 93 73
59 91 72
60 92 72
61 93 73
60 92 72
58 88 70
59 91 72
58 89 70
57 87 69
59 90 71
58 88 70
59 90 70
59 90 71
57 87 69
57 88 69
57 87 69
57 88 69
57 88 69
57 87 69
60 91 72
59 90 71
57 87 69
58 89 70
60 92 73
60 91 72
58 89 70
59 90 71
58 89 70
60 92 73
58 88 70
59 90 71
60 92 73
61 93 73
57 88 70
57 88 69
59 91 72
59 90 71
60 92 73
60 92 72
57 88 70
58 90 71
58 88 70
58 89 71
57 88 69
60 91 72
59 91 72
59 90 71
59 91 72
59 90 71
61 93 73
61 94 74
61 93 73
59 90 71
58 88 70
59 90 71
59 90 71
58 89 70
58 89 70
58 89 70
57 88 69
60 91 72
59 90 71
59 90 71
61 93 73
61 93 73
59 91 72
57 88 69
58 88 70
58 89 70
56 86 68
60 91 72
57 88 70
60 92 73
60 92 72
59 91 72
58 89 70
57 87 69
61 94 74
60 92 72
61 93 73
58 89 70
59 91 72
58 88 70
59 90 71
59 91 72
58 89 70
57 88 69
57 87 69
56 85 68
57 88 70
61 93 73
59 91 72
59 90 71
58 90 71
60 92 73
59 90 71
60 92 73
58 90 71
59 90 71
58 89 70
58 89 70
60 91 72
59 91 72
57 87 69
60 91 72
58 89 70
59 90 71
57 88 69
57 88 70
60 92 72
58 89 71
57 88 69
58 90 71
60 92 73
56 86 68
59 90 71
60 92 72
58 89 71
58 88 70
60 93 73
57 87 69
59 91 71
59 90 72
58 89 71
59 91 72
58 89 70
59 91 72
58 89 70
59 90 71
57 88 70
57 88 69
59 90 71
59 91 72
57 88 70
57 88 69
59 90 71
60 91 72
58 89 70
57 88 69
57 88 70
59 90 71
58 89 70
58 89 71
60 92 73
57 87 69
58 89 71
58 89 70
59 91 72
59 90 71
56 87 69
59 90 71
57 88 70
60 92 72
61 94 74
58 89 70
59 91 72
59 91 72
57 88 70
60 92 73
56 87 69
57 88 69
56 87 69
57 87 69
59 90 71
60 92 73
59 90 71
57 88 70
58 89 71
57 88 70
58 89 70
59 91 71
60 91 72
58 89 70
59 90 71
61 94 74
61 93 73
59 90 71
59 90 71
60 92 72
58 89 70
58 89 70
60 91 72
58 89 71
59 90 71
59 90 71
59 91 72
60 92 72
59 91 72
59 90 71
58 88 70
58 89 71
58 89 70
57 87 68
58 89 70
59 91 71
56 86 68
59 91 72
58 89 70
59 91 72
59 90 71
59 91 72
59 90 71
59 91 71
59 91 72
59 91 71
58 89 70
58 89 70
58 89 70
60 92 72
59 91 72
60 91 72
59 91 71
59 90 71
58 89 70
58 89 70
60 92 72
60 92 73
60 91 72
61 93 73
61 93 73
61 94 74
58 89 70
60 91 72
60 92 73
60 92 72
60 92 72
59 90 71
61 93 74
58 89 70
59 90 71
58 89 70
58 89 70
59 91 72
59 91 72
61 94 74
64 97 77
62 95 75
61 93 74
59 90 71
56 86 68
59 91 72
60 91 72
59 89 70
61 93 73
62 95 75
60 91 72
58 89 70
60 92 72
59 91 72
60 92 73
60 92 73
60 93 73
59 90 71
60 92 73
58 89 70
61 93 73
60 91 72
59 91 71
59 91 72
60 93 73
58 89 70
60 91 72
61 94 74
62 94 74
60 92 73
60 92 73
58 89 70
59 91 72
61 93 74
60 92 72
59 91 72
60 91 72
62 95 75
61 94 74
60 92 73
58 90 71
60 91 72
60 91 72
61 94 74
60 91 72
60 91 72
61 93 73
58 89 70
58 89 70
58 88 69
60 92 72
59 90 71
62 95 75
60 92 72
56 86 68
58 88 70
59 90 71
59 90 71
59 90 71
59 90 70
58 89 70
59 91 72
58 89 71
60 92 72
58 89 70
61 93 73
61 94 74
59 91 72
60 92 72
58 88 70
59 91 71
58 89 70
60 91 72
58 89 70
60 91 72
59 90 71
59 90 71
61 93 74
58 89 70
60 92 72
60 92 73
59 91 72
59 91 71
60 92 72
59 91 71
59 90 71
59 89 70
59 90 71
61 94 74
60 91 72
61 93 73
59 91 72
60 92 72
59 91 72
60 92 72
59 90 71
59 90 71
61 93 73
60 92 72
59 91 72
59 91 72
58 89 70
59 90 71
60 91 72
59 91 71
60 91 72
59 90 71
57 88 70
58 89 70
58 89 70
59 90 71
59 90 71
59 91 71
62 95 75
59 91 71
57 88 69
61 93 73
61 93 73
60 92 72
59 91 71
59 90 71
60 92 73
63 96 76
60 92 73
60 92 73
59 91 72
63 96 75
63 96 75
62 95 75
59 91 71
61 94 74
62 94 74
59 90 71
59 90 71
59 90 71
59 91 72
59 91 71
61 93 73
58 89 70
58 89 70
60 91 72
57 88 70
58 89 71
59 91 72
58 90 71
62 94 74
62 94 74
59 90 71
60 92 73
57 87 68
58 88 69
57 88 70
58 89 70
59 90 71
59 91 72
59 91 71
58 89 70
61 93 73
60 91 72
60 92 72
59 90 71
60 92 72
57 88 69
60 92 72
59 91 72
58 89 70
58 89 70
59 90 71
59 90 71
60 92 73
58 89 70
57 88 69
60 91 72
58 89 70
59 90 71
57 88 70
60 92 72
59 90 71
58 89 70
59 90 71
59 90 71
57 87 69
58 89 70
59 91 72
58 90 71
60 92 72
58 89 70
59 90 71
59 90 71
60 91 72
60 92 72
59 91 71
57 87 69
59 90 71
59 91 71
58 90 71
61 93 74
61 93 73
59 90 71
61 94 74
59 90 71
58 89 70
57 87 69
62 94 74
59 90 71
60 91 71
58 89 70
60 91 72
58 90 71
60 92 73
60 92 72
59 90 71
58 88 70
58 89 70
59 90 71
59 90 71
59 90 71
59 91 72
59 90 71
58 90 71
57 88 70
57 87 69
57 87 69
59 90 71
59 90 71
59 90 71
58 89 71
58 90 71
60 92 73
61 94 74
59 90 71
58 89 70
58 89 70
57 88 69
57 87 69
56 86 68
57 87 69
58 89 70
60 91 72
60 93 73
60 92 73
57 88 69
58 89 71
59 90 71
62 95 75
59 91 72
60 92 73
58 89 71
59 90 71
60 91 72
58 89 71
58 90 71
59 90 71
58 88 70
59 90 71
58 88 70
57 88 69
60 92 73
58 89 71
57 87 69
57 87 69
58 88 70
58 88 69
60 91 72
59 90 71
58 88 70
59 90 71
59 91 72
59 90 71
57 87 69
57 88 70
58 90 71
58 89 70
58 89 70
56 86 68
55 85 67
59 90 71
58 89 71
59 91 72
57 88 69
59 91 72
59 91 72
59 90 71
57 88 70
58 89 70
57 88 70
58 89 70
58 89 70
61 93 74
57 88 69
61 93 73
59 91 72
60 91 72
59 90 71
57 87 69
59 90 71
59 91 72
58 89 70
59 90 71
59 91 72
60 92 73
58 88 70
57 88 69
59 91 72
57 87 69
58 89 70
58 89 70
59 90 71
60 92 73
58 89 71
58 89 70
60 91 72
59 91 72
57 87 69
58 89 70
59 91 72
59 91 72
58 90 71
58 90 71
59 91 72
57 87 69
58 89 70
56 86 68
59 90 71
56 86 68
55 85 67
59 90 71
59 90 71
59 91 72
57 87 69
58 89 71
57 87 69
59 90 71
58 90 71
58 90 71
60 92 72
58 88 69
59 91 72
59 90 71
60 92 73
60 91 72
60 92 72
62 95 75
61 93 73
60 91 72
60 92 73
62 95 75
61 93 73
63 96 76
61 93 73
59 91 72
59 90 71
61 93 73
60 91 72
60 91 72
58 90 71
59 91 72
59 90 71
59 91 72
60 91 72
60 92 73
60 91 72
59 90 70
59 91 72
59 90 71
59 91 72
59 90 71
56 86 68
58 89 70
56 86 68
57 87 68
59 90 71
59 90 71
58 88 70
58 88 70
61 93 73
58 90 71
58 89 70
59 91 71
60 91 72
61 93 73
62 95 75
61 94 74
59 91 72
58 89 70
60 92 72
59 90 71
59 90 71
59 90 71
58 89 70
61 93 73
59 90 71
59 90 71
57 88 69
60 91 72
60 91 72
60 91 72
60 91 72
59 91 71
60 92 72
60 92 73
60 91 72
61 93 73
59 91 72
59 89 70
60 92 72
58 89 70
58 89 70
59 90 71
60 91 72
61 94 74
59 91 72
62 94 74
60 91 72
63 96 76
62 95 75
60 92 73
61 93 73
61 94 74
59 90 71
61 93 73
60 91 72
59 91 71
60 92 72
61 94 74
61 93 73
62 94 74
59 90 71
59 91 72
59 90 71
63 96 75
60 92 73
62 94 74
60 92 72
60 91 72
61 93 74
59 90 71
61 93 73
60 92 73
60 92 72
60 91 72
59 90 71
59 90 71
60 92 72
61 93 73
60 92 72
61 93 73
58 89 70
59 90 71
57 88 69
59 90 71
60 91 72
59 91 72
60 91 72
59 90 71
58 88 69
58 89 70
58 89 70
60 92 72
59 91 71
59 90 71
58 89 70
61 93 73
61 93 73
60 92 73
57 88 69
61 93 74
61 94 74
60 91 72
63 96 75
60 92 72
58 89 70
60 93 73
58 89 70
58 89 70
58 88 69
59 90 71
60 91 72
60 92 73
60 92 73
62 95 75
58 89 70
59 90 71
59 91 71
60 92 72
60 91 72
61 93 73
58 88 69
59 91 71
59 90 71
60 91 72
59 90 71
60 91 72
60 92 72
57 87 68
58 89 70
60 92 72
61 93 73
60 92 72
59 91 71
60 92 72
60 91 72
60 92 72
61 93 73
59 91 72
60 92 73
60 91 72
61 93 73
61 93 73
58 89 70
60 92 72
61 94 74
60 92 72
58 89 70
58 88 69
59 90 71
60 91 72
59 90 71
58 89 70
60 92 72
58 89 70
58 89 71
62 94 74
58 89 70
61 93 73
59 91 71
63 96 76
60 92 73
59 90 71
61 94 74
61 93 74
59 90 71
60 91 72
59 90 71
59 90 71
58 89 70
58 89 70
58 89 70
60 91 72
60 92 73
58 88 69
58 89 70
60 91 72
59 90 71
59 90 71
57 87 69
59 91 72
59 91 72
60 92 73
59 90 71
58 88 70
59 91 72
58 89 70
61 93 73
58 88 69
58 89 70
58 89 70
60 92 72
61 93 73
61 93 73
58 88 70
59 91 72
60 92 72
60 91 72
61 94 74
59 90 71
59 90 71
59 91 72
58 89 70
58 90 71
58 88 70
59 91 71
60 91 72
59 90 71
59 90 71
60 92 72
60 92 73
60 92 72
57 87 69
59 91 71
60 91 72
62 95 75
61 93 73
61 94 74
59 91 71
63 96 75
59 90 71
59 90 71
59 90 71
59 90 71
59 91 72
61 94 74
59 91 71
57 87 69
58 89 70
58 89 70
58 89 71
59 91 72
58 89 71
59 90 71
60 92 72
59 91 72
59 91 72
59 91 72
57 88 69
57 87 69
58 89 71
59 90 71
58 88 69
59 91 72
57 87 69
59 90 71
58 89 70
60 92 73
59 90 71
60 92 73
57 88 69
58 89 70
60 91 72
60 92 72
58 88 69
58 88 70
61 93 73
59 91 71
59 90 71
56 87 68
58 88 70
57 87 69
59 90 71
58 89 70
58 89 70
61 93 74
60 91 72
59 91 72
58 88 70
58 89 70
56 86 68
58 89 70
59 90 71
58 89 71
58 88 70
57 87 69
58 88 70
60 92 72
58 89 70
58 88 70
59 91 72
58 89 70
58 88 70
59 91 72
59 91 72
58 89 70
59 90 71
59 90 71
58 89 71
59 91 72
58 89 71
57 88 70
58 89 70
59 90 71
60 91 72
58 89 70
58 90 71
56 86 68
58 89 70
59 90 71
58 89 71
58 88 70
58 89 70
58 90 71
58 89 70
58 89 71
58 88 70
58 89 70
57 87 68
55 84 66
57 87 69
59 90 72
58 90 71
57 88 70
57 88 69
58 90 71
57 87 69
56 86 68
60 93 73
57 87 69
58 90 71
60 92 72
58 89 70
57 88 69
57 87 69
56 87 69
56 87 69
58 89 70
58 89 70
57 88 69
59 90 71
56 87 69
58 89 71
55 85 67
57 88 69
58 89 71
58 89 70
59 90 71
59 90 71
58 89 71
59 90 71
58 89 71
59 91 72
57 88 69
57 87 69
57 88 69
58 89 70
57 88 70
57 87 69
57 88 69
58 90 71
59 91 72
57 87 69
58 89 71
57 87 69
60 91 72
57 88 70
56 86 68
56 86 68
58 89 71
58 89 70
57 87 69
57 88 69
58 89 71
58 90 71
58 89 71
57 88 69
58 88 70
58 89 71
56 86 68
58 89 70
59 91 72
60 91 72
61 93 73
59 90 71
60 92 72
58 90 71
61 93 74
60 91 72
56 86 68
61 94 74
60 92 72
60 92 72
63 96 76
62 95 75
61 93 73
61 93 73
61 92 73
60 92 72
60 91 72
59 90 71
58 88 69
61 94 74
61 94 74
59 90 71
57 88 69
60 91 72
57 87 69
59 90 71
61 93 73
61 94 74
59 91 72
60 91 72
62 95 75
60 92 73
60 91 72
59 91 71
63 96 75
59 90 71
59 90 71
58 89 70
59 90 71
59 91 71
60 92 72
60 92 73
61 94 74
60 92 72
59 90 71
58 88 70
58 89 71
60 91 72
58 89 70
59 90 71
59 90 71
61 93 73
59 90 71
61 94 74
58 88 69
60 92 72
60 92 73
59 90 71
60 92 73
59 91 71
58 88 70
60 92 73
60 92 72
58 89 70
58 88 69
62 95 75
62 95 75
60 91 72
60 91 72
59 90 71
60 92 73
59 91 71
60 91 72
60 92 72
60 92 72
59 90 71
59 89 70
58 89 70
59 90 71
59 90 71
58 88 69
58 89 70
60 92 72
59 90 71
59 91 72
60 91 72
62 95 75
61 93 73
61 93 73
60 92 73
60 91 72
59 90 71
59 90 71
60 92 72
61 93 73
59 90 71
60 91 72
58 89 70
58 89 70
59 90 71
62 95 75
61 93 73
58 89 70
64 97 77
60 91 72
61 94 74
59 90 71
57 88 69
58 88 69
61 93 73
61 93 73
57 87 68
57 87 69
59 90 71
57 88 69
60 91 72
57 87 69
59 90 71
59 90 71
62 95 74
59 91 71
57 87 69
60 92 72
59 91 72
59 91 72
60 92 73
59 90 71
59 90 71
61 94 74
59 91 72
60 92 72
61 93 73
61 93 74
62 95 74
60 91 72
58 89 70
60 91 72
60 91 72
59 91 71
59 91 71
58 89 70
59 91 72
59 89 70
61 93 74
59 91 72
59 90 71
59 90 71
59 90 71
60 92 72
60 92 72
61 93 73
60 91 72
59 90 71
60 92 72
59 90 71
59 90 71
59 91 72
59 91 71
60 91 72
60 91 72
62 94 74
58 88 70
59 91 72
60 93 73
57 88 69
60 92 72
60 92 72
60 92 73
61 94 74
58 89 70
59 91 71
59 90 71
58 89 71
60 91 72
60 93 73
59 90 71
61 94 74
59 90 71
58 89 70
59 91 71
60 92 72
58 89 70
59 90 71
60 92 73
60 91 72
59 90 71
59 91 72
60 92 72
59 90 71
57 88 69
58 89 70
60 91 72
61 93 73
59 91 71
58 88 69
57 88 69
60 92 72
58 88 70
58 88 70
58 90 71
57 88 70
59 91 72
58 90 71
58 89 70
57 87 69
59 90 71
59 90 71
58 89 70
57 87 69
58 89 70
59 90 71
59 91 71
58 90 71
58 89 71
60 91 72
58 89 70
59 90 71
60 92 73
60 93 73
59 91 72
59 91 71
61 93 73
59 91 72
60 92 72
58 89 71
59 90 71
59 90 71
60 92 73
58 89 70
60 91 72
57 87 69
58 89 70
59 91 71
60 92 72
58 89 70
58 88 70
58 89 70
61 93 74
58 89 70
57 87 69
56 86 68
58 89 70
57 87 68
59 90 71
62 94 74
59 90 71
57 88 70
57 88 69
61 93 74
59 90 71
57 88 70
59 90 71
61 93 73
59 91 72
58 90 71
58 89 71
57 87 69
56 86 68
57 88 69
58 89 70
61 93 73
59 90 71
58 88 70
57 88 69
58 88 70
58 88 69
58 89 70
59 90 71
57 87 68
57 88 69
60 92 73
57 88 69
59 90 71
59 91 72
61 94 74
59 90 71
57 88 69
58 89 70
59 90 71
59 91 72
58 89 70
59 91 72
57 88 70
57 87 69
58 89 71
58 89 70
56 85 67
58 89 70
59 90 71
60 92 72
57 88 69
57 87 69
57 88 70
62 94 74
58 89 70
58 88 70
58 89 70
57 87 68
58 90 71
56 87 68
57 88 70
58 88 70
57 87 69
60 92 73
62 95 75
60 92 72
57 88 69
58 89 71
58 89 70
57 88 70
60 92 73
58 89 70
59 90 71
60 92 73
58 88 70
59 90 71
58 89 70
58 89 70
60 91 72
58 89 70
57 88 70
57 87 69
60 91 72
59 90 71
59 90 71
57 87 69
61 94 74
60 92 73
59 90 72
60 92 73
60 92 72
59 91 72
57 88 69
56 86 68
59 90 71
58 89 71
57 87 69
56 86 68
59 91 72
59 91 71
58 88 70
58 89 70
59 90 71
58 89 70
58 90 71
60 91 72
58 89 70
56 86 68
58 90 71
59 91 72
59 90 71
58 89 70
57 87 69
59 90 71
59 91 72
58 88 70
59 90 71
58 89 70
60 91 72
58 89 70
59 90 72
57 88 70
59 90 71
57 88 70
59 90 71
59 90 71
59 91 72
57 88 70
61 93 74
58 90 71
56 86 68
58 89 70
56 86 68
57 87 69
58 89 71
57 88 69
58 88 70
56 86 68
59 90 71
56 86 68
59 90 71
58 89 71
56 86 68
57 87 69
59 91 72
60 92 73
58 89 70
56 86 68
59 90 71
57 88 70
59 91 72
57 88 69
60 93 74
58 89 71
59 91 72
59 91 72
58 88 70
58 89 70
60 93 73
58 89 71
63 96 75
60 91 72
58 88 69
58 89 70
59 91 71
61 93 73
59 90 71
60 92 73
59 91 71
59 90 71
61 93 74
60 91 72
60 91 72
60 91 72
59 91 71
58 89 71
60 92 72
60 91 72
59 90 71
60 91 72
60 91 72
60 92 73
62 94 74
60 92 72
59 89 70
58 89 70
59 91 71
60 93 73
59 90 71
60 92 73
60 92 73
59 91 71
59 90 71
60 92 73
61 93 73
61 93 73
59 91 72
57 88 69
59 90 71
61 94 74
60 92 72
60 92 73
62 95 75
60 92 73
59 91 72
60 91 72
61 93 73
60 92 72
61 94 74
59 91 71
60 91 72
61 94 74
59 90 71
62 94 74
58 89 70
61 93 73
60 92 72
61 93 73
62 94 74
58 89 70
57 87 69
60 91 72
60 92 73
58 90 71
59 90 71
59 90 71
60 93 73
59 90 71
59 91 72
59 91 72
61 93 74
59 90 71
61 94 74
60 92 73
61 94 74
58 89 70
59 90 71
60 92 72
57 87 69
60 91 72
58 88 70
60 91 72
60 92 72
62 94 74
62 96 75
59 91 72
59 90 71
58 89 71
58 89 70
59 90 71
61 94 74
60 92 72
62 94 74
60 92 72
58 89 70
60 93 73
59 90 71
59 91 71
59 91 71
61 93 73
60 92 72
58 88 70
60 92 73
60 91 71
58 88 69
60 91 72
62 95 75
64 97 77
59 90 71
59 91 71
61 93 74
58 89 70
60 91 72
58 89 70
61 94 74
62 95 75
59 90 71
61 93 73
58 89 70
58 89 70
59 91 71
59 90 71
57 88 69
60 92 73
61 94 74
59 90 71
57 87 68
60 92 72
58 89 70
60 92 73
59 90 71
59 91 71
60 92 73
60 92 72
59 90 71
60 91 72
62 94 74
59 91 72
60 91 72
61 93 73
59 90 71
60 92 72
58 89 70
61 93 73
59 90 71
60 93 73
62 95 75
59 90 71
57 88 69
61 94 74
61 93 73
61 93 74
61 93 73
61 94 74
60 92 72
60 91 72
59 91 72
59 91 71
63 96 75
60 92 72
60 91 72
61 93 73
60 92 72
58 89 70
59 90 71
60 91 72
61 93 73
62 94 74
60 92 73
59 90 71
58 89 70
60 91 72
60 92 72
59 90 71
59 90 71
58 89 70
59 90 71
60 92 72
60 91 72
59 90 71
60 92 72
60 91 72
59 91 72
58 89 70
61 93 73
59 90 71
61 94 74
60 92 72
59 90 71
59 90 71
60 91 72
60 92 72
59 91 71
60 91 72
59 90 71
59 91 72
61 94 74
61 93 73
58 89 70
59 90 71
60 91 72
58 89 70
58 89 70
58 88 70
60 92 73
59 90 71
60 92 72
59 91 72
58 89 70
58 89 70
60 92 73
59 90 71
61 93 73
57 88 69
58 89 70
57 87 68
58 89 70
60 91 72
59 90 71
58 89 70
57 87 69
59 90 71
58 88 70
61 93 73
59 90 71
59 91 71
62 95 75
59 90 71
58 89 70
59 91 72
57 87 69
60 92 72
57 88 69
58 88 70
61 93 73
60 92 73
60 91 72
60 91 72
58 89 70
59 91 72
57 88 70
59 91 72
60 92 73
61 93 73
59 90 71
60 92 73
59 90 71
58 88 70
59 91 72
62 95 75
60 92 72
61 93 74
60 93 73
58 88 70
60 92 72
61 93 73
59 91 72
60 91 72
60 92 72
59 91 72
58 88 70
58 89 70
61 93 73
60 92 73
58 88 70
59 90 71
60 92 73
62 94 74
58 89 70
59 91 71
59 91 72
63 96 76
59 90 71
59 90 71
60 91 72
61 93 74
59 91 72
58 89 70
59 91 72
58 88 70
58 89 70
59 90 71
59 90 71
58 89 70
59 91 72
58 89 70
57 88 69
59 90 71
62 94 74
57 87 69
55 85 67
58 88 70
58 89 70
58 88 70
56 86 68
56 86 68
58 89 70
58 89 70
60 91 72
60 91 72
58 89 70
57 87 69
59 91 72
60 91 72
58 89 70
58 90 71
57 88 70
59 91 72
58 88 70
57 88 70
60 91 72
61 93 73
59 91 72
60 92 73
59 91 72
58 89 70
58 88 70
57 87 69
58 90 71
58 88 70
58 89 71
57 88 70
57 88 69
60 92 72
58 89 70
58 89 70
58 89 71
58 89 71
61 94 74
57 88 69
58 89 70
60 91 72
59 91 71
60 92 73
60 92 73
59 90 71
58 89 70
57 87 69
58 89 70
58 90 71
58 90 71
58 89 70
59 90 71
58 89 70
59 91 72
57 88 70
56 87 69
58 90 71
56 86 68
58 89 70
57 88 69
57 88 69
57 87 69
58 89 70
60 93 73
61 93 74
60 92 73
56 86 68
60 92 73
57 88 70
59 91 72
60 92 73
59 90 71
58 89 70
60 91 72
56 85 68
57 88 69
58 89 71
58 89 70
58 89 70
57 88 70
58 89 71
57 88 69
57 87 69
59 91 72
59 90 71
58 90 71
54 84 66
60 92 72
58 89 71
58 89 70
59 90 71
58 89 71
58 89 70
58 89 70
59 91 72
58 89 70
57 88 70
58 89 71
57 87 69
58 89 70
57 88 69
59 91 72
57 87 69
58 89 70
58 89 70
58 89 70
60 92 72
61 94 74
58 89 70
59 90 71
59 90 71
58 89 70
58 89 70
61 93 73
61 93 73
60 91 72
60 92 73
58 88 70
60 92 72
61 93 73
59 91 71
59 90 71
60 91 72
59 90 71
61 93 73
63 96 75
61 93 74
59 91 72
58 89 70
59 90 71
59 91 71
59 91 71
61 93 73
59 91 72
59 90 71
62 94 74
59 90 71
62 94 74
60 92 73
61 94 74
62 95 75
58 89 70
58 89 70
60 92 72
63 95 75
60 91 72
60 92 73
61 93 73
59 91 72
60 91 72
60 92 72
61 93 73
59 91 71
59 90 71
60 91 72
60 92 72
59 90 71
59 91 71
61 94 74
60 92 72
60 91 72
60 92 73
61 93 73
60 91 72
61 93 73
60 92 72
60 91 71
59 91 72
62 95 74
59 90 71
60 92 72
58 89 70
59 90 71
58 89 70
59 90 71
59 91 71
58 88 70
57 88 69
58 89 70
60 92 72
59 90 71
61 93 73
61 93 73
60 92 73
60 92 72
60 92 73
58 89 70
60 91 72
61 93 73
62 94 74
62 95 75
59 90 71
60 92 73
60 91 72
59 91 72
59 91 71
58 89 70
59 90 71
60 92 73
61 93 73
60 92 72
58 89 70
58 89 70
62 95 75
60 91 72
60 92 72
60 93 73
60 91 72
59 90 71
61 93 73
61 94 74
61 93 73
57 87 69
59 90 71
58 89 70
61 93 73
58 89 70
59 91 71
59 90 71
61 93 73
58 89 70
59 91 71
61 93 73
61 92 73
62 95 75
60 92 72
61 93 73
59 91 71
61 93 73
60 92 72
60 92 72
61 93 73
59 90 71
60 92 72
60 92 72
60 92 72
61 93 73
58 89 70
59 90 71
62 94 74
60 92 72
60 92 72
58 89 70
58 89 70
59 90 71
57 88 69
59 91 72
61 94 74
57 87 69
59 91 71
59 91 72
61 93 73
59 90 70
60 92 72
61 93 73
59 89 70
59 90 71
61 93 74
59 90 71
59 90 70
60 92 73
58 88 70
60 92 73
61 94 74
61 94 74
60 91 72
61 93 73
59 89 70
57 88 69
59 90 71
58 89 70
60 91 72
59 89 70
58 88 70
57 87 68
60 92 73
60 92 72
61 93 73
60 92 72
59 91 72
60 92 73
60 91 72
61 93 73
60 92 72
57 88 69
60 92 72
61 93 73
60 92 73
59 90 71
61 92 73
58 89 70
59 91 72
58 89 70
58 88 70
58 88 70
59 91 71
59 90 71
60 91 72
60 92 73
59 90 71
59 91 71
59 91 71
61 93 73
59 90 71
58 89 70
58 88 70
59 90 71
58 88 70
57 88 69
59 90 71
59 91 72
57 86 68
58 89 70
59 90 71
59 91 72
58 89 70
59 91 71
59 90 71
58 89 70
60 91 72
58 89 70
60 92 73
59 91 72
60 91 72
59 90 71
60 92 72
58 90 71
58 89 70
58 88 70
58 89 70
58 89 70
58 89 71
61 94 74
59 91 72
60 92 73
60 92 72
58 89 71
58 89 70
57 88 69
58 89 70
57 88 69
59 90 71
60 91 72
60 92 73
60 92 72
61 93 73
58 89 71
62 95 75
58 88 70
59 90 71
60 92 72
58 89 71
59 91 71
59 91 71
58 89 70
60 93 73
59 91 72
58 88 70
57 87 69
58 89 70
58 88 70
57 88 69
59 90 71
60 92 72
61 94 74
60 92 73
60 93 73
62 94 74
59 91 71
58 88 69
58 89 71
59 89 70
58 89 70
56 86 67
59 90 71
57 88 69
59 90 71
58 89 70
57 88 69
58 90 71
60 92 73
60 91 72
56 86 68
60 92 72
57 87 69
58 89 70
59 90 71
59 91 72
58 89 71
57 87 69
57 87 68
59 90 71
61 94 74
57 87 68
59 90 71
57 88 70
60 91 72
61 93 73
58 89 70
59 90 71
58 89 70
59 91 72
59 90 71
60 91 72
59 91 72
58 90 71
59 90 71
58 88 70
59 91 72
57 88 69
58 89 70
59 90 71
58 88 70
56 86 68
57 87 69
59 91 72
58 88 70
56 85 67
58 89 71
60 91 72
59 90 71
59 91 72
58 89 70
60 92 72
61 94 74
58 90 71
59 91 72
57 87 69
59 90 71
59 91 72
58 89 71
59 91 72
58 88 70
59 91 72
59 91 72
60 92 73
58 88 69
57 87 69
59 90 71
59 91 72
58 89 70
60 92 73
60 92 72
57 88 69
58 89 70
62 95 75
58 89 70
62 94 74
60 91 72
57 88 69
58 88 70
59 91 72
57 88 69
60 93 73
59 90 71
56 87 68
57 87 69
58 89 70
57 87 69
61 93 74
57 87 69
58 90 71
59 90 72
56 86 68
59 90 71
59 90 71
59 90 71
57 88 69
57 88 69
57 86 68
58 88 70
55 85 67
57 87 69
58 89 71
59 91 72
60 91 72
59 91 72
59 90 71
58 88 70
58 89 71
59 90 71
59 90 71
59 91 71
59 90 71
58 89 71
59 90 71
58 88 70
59 90 72
60 92 72
59 91 72
60 91 72
57 88 70
60 92 72
59 90 71
60 91 72
59 91 72
56 86 68
58 88 70
57 88 69
58 89 70
56 86 68
60 92 73
58 90 71
56 86 68
58 89 70
58 89 70
58 89 70
59 90 71
58 89 70
61 93 74
58 89 70
58 88 69
61 93 73
59 91 72
61 94 74
62 95 75
61 93 73
58 89 70
59 90 71
60 91 72
58 89 70
57 88 69
61 94 74
61 93 73
58 89 70
61 93 73
60 92 73
60 91 72
60 92 72
60 92 72
61 93 73
61 93 73
60 92 72
60 92 73
61 94 74
60 91 72
60 93 73
60 92 73
60 91 72
59 90 71
61 93 73
58 88 70
59 90 71
58 88 69
60 92 72
60 92 72
61 93 73
59 90 71
59 90 71
58 89 70
57 88 69
59 90 71
59 91 71
61 94 74
59 89 70
60 91 72
59 89 70
60 92 72
60 92 73
60 92 72
61 94 74
61 93 73
61 93 73
60 92 73
61 93 73
58 89 70
58 88 70
59 90 71
59 90 71
59 90 71
61 93 73
60 91 72
59 91 71
60 92 72
59 91 72
61 93 73
59 90 71
60 92 73
60 92 72
61 93 73
60 91 72
62 95 75
61 93 73
60 92 73
60 91 72
60 91 72
60 91 72
60 92 73
61 93 73
60 92 72
59 91 71
58 89 70
59 91 71
61 94 74
60 92 72
58 88 70
61 94 74
60 92 72
58 89 71
58 89 70
59 89 70
58 88 69
58 88 70
61 93 74
60 91 72
61 93 73
60 91 72
59 91 71
59 91 71
59 90 71
60 91 72
59 90 71
58 90 71
57 87 69
59 90 71
59 90 71
59 91 72
59 90 71
58 89 70
58 89 70
61 93 73
60 92 72
59 91 71
61 94 74
61 94 74
59 90 71
58 89 70
58 90 71
60 92 72
60 91 72
61 93 73
60 92 72
59 91 71
60 92 72
59 91 71
59 90 71
59 90 71
61 93 73
61 93 73
59 89 70
60 91 72
59 90 71
58 89 70
58 89 70
58 90 71
60 91 72
59 91 71
58 89 70
59 90 71
60 92 72
59 91 71
59 90 71
61 93 73
63 97 76
58 88 70
60 91 72
60 92 72
60 92 73
59 91 72
61 93 73
61 93 73
59 91 71
61 93 73
58 89 70
59 90 71
59 90 71
58 88 70
59 90 71
61 93 74
61 93 73
60 91 72
59 90 70
61 93 74
60 91 72
59 90 71
58 89 70
61 93 73
60 91 71
60 92 73
62 95 75
59 90 71
58 89 70
59 91 72
61 93 73
62 95 75
60 92 73
60 92 72
60 92 72
60 92 72
61 94 74
58 88 69
59 91 72
60 91 72
57 88 69
60 92 72
57 87 68
60 92 72
58 89 71
58 88 70
58 89 70
57 87 69
60 92 72
60 92 72
59 91 72
59 90 71
60 92 73
60 92 72
60 91 72
60 92 72
58 89 70
60 91 72
59 90 71
62 94 74
58 89 70
57 87 69
58 89 70
57 87 69
58 89 70
61 93 74
60 91 72
60 91 72
60 91 72
58 89 70
62 94 74
60 92 73
60 91 72
59 91 72
60 92 73
58 89 70
59 90 71
58 89 70
58 89 70
59 89 71
61 93 74
60 92 72
59 90 71
57 87 69
58 88 69
58 88 70
58 89 70
57 87 69
59 90 71
60 91 72
58 89 70
61 93 73
57 87 69
58 89 70
63 96 76
60 92 73
58 89 70
60 91 72
59 90 71
60 92 73
59 91 72
61 94 74
59 91 72
59 90 71
59 91 72
59 91 71
58 89 71
58 89 70
59 90 71
60 91 72
61 93 74
60 91 72
58 89 70
56 86 68
59 90 71
58 89 71
59 91 71
60 91 72
59 90 71
60 93 73
58 89 71
59 90 71
57 87 69
60 92 72
59 90 71
59 90 71
57 87 69
60 91 72
60 91 72
60 92 73
59 90 71
57 88 69
59 91 72
59 91 72
57 88 69
57 88 69
59 91 72
61 93 74
59 90 71
57 88 69
59 90 71
57 88 69
58 89 70
58 89 71
58 89 71
60 92 73
58 89 70
59 91 72
59 90 71
58 89 71
58 89 70
59 91 72
61 93 74
61 93 74
60 92 72
59 91 72
57 87 69
61 93 73
60 92 73
58 89 70
57 87 69
60 91 72
57 88 70
59 90 71
59 91 71
61 93 74
61 94 74
59 90 71
59 91 72
61 93 74
59 90 71
58 89 70
59 90 71
60 91 72
57 88 69
60 92 73
57 88 69
57 88 69
59 91 72
57 87 69
56 86 68
57 87 68
59 90 71
61 93 73
57 87 69
59 91 72
58 90 71
58 89 71
58 89 71
59 91 72
59 91 72
59 90 71
56 86 68
58 89 70
58 89 71
59 90 71
58 89 71
59 90 71
57 87 69
59 90 71
60 92 73
58 89 70
58 89 70
56 87 68
58 88 70
59 91 71
61 93 74
58 89 71
58 89 70
57 87 69
56 86 68
57 88 70
58 89 70
57 87 69
59 91 72
59 90 71
59 90 71
59 90 71
59 90 71
57 88 70
57 88 70
59 90 71
60 92 73
58 89 71
58 88 70
60 92 72
56 86 68
58 89 71
60 92 73
58 88 70
56 87 69
58 89 71
59 91 72
56 86 68
57 87 69
57 88 70
59 90 71
59 90 71
57 87 69
57 87 69
57 88 69
59 91 72
59 90 71
59 90 71
58 90 71
58 89 71
58 89 70
59 90 71
57 87 69
58 88 70
58 89 70
57 87 69
59 91 72
59 91 71
58 88 70
59 91 71
59 91 72
60 92 73
60 92 72
58 89 70
59 91 71
58 89 70
60 91 72
61 93 73
61 93 74
60 92 72
59 90 71
60 92 72
60 92 72
59 91 71
62 95 75
60 92 73
62 94 74
61 93 73
60 91 72
61 93 73
59 90 70
60 91 72
57 88 69
59 91 72
60 92 72
61 93 73
60 92 72
62 95 74
60 91 72
60 91 72
59 90 71
59 90 71
59 91 71
58 89 70
60 92 72
62 95 75
59 90 71
62 95 75
59 91 71
61 93 73
58 88 70
60 91 72
60 92 73
61 93 73
60 91 72
60 92 73
59 90 71
60 92 72
61 93 73
62 95 74
61 93 73
62 95 75
61 94 73
62 95 75
61 93 73
61 94 74
58 89 70
61 93 73
59 90 71
61 94 74
61 93 73
63 97 76
59 91 71
58 89 70
58 88 69
60 91 72
60 92 72
60 92 73
60 92 73
62 94 74
60 91 72
59 90 71
61 93 73
60 92 72
58 89 70
61 93 73
58 88 69
61 94 74
58 89 70
60 92 73
59 90 71
58 89 70
61 93 73
60 91 72
63 96 76
62 95 75
60 92 73
60 91 72
60 92 72
59 91 71
61 94 74
59 90 71
59 91 72
60 92 73
61 93 74
61 93 73
60 92 73
60 91 72
61 94 74
59 90 71
60 92 72
61 93 73
62 94 74
59 91 71
60 92 72
62 95 74
58 89 70
59 90 71
61 93 73
59 91 72
59 90 71
60 92 72
59 91 72
59 90 71
60 91 72
60 91 72
60 92 72
61 93 74
61 93 73
61 93 73
60 91 72
61 93 73
62 95 75
62 94 74
59 90 71
60 92 73
58 89 70
60 92 72
63 96 76
58 89 70
61 94 74
60 92 72
58 90 71
61 93 73
60 92 72
60 92 73
62 95 75
61 92 73
61 93 73
62 95 75
59 90 71
60 92 72
59 91 72
62 95 74
60 92 72
59 90 71
60 91 72
57 88 69
59 90 71
59 90 71
60 92 72
59 91 72
62 94 74
61 94 74
59 91 71
59 90 71
59 90 71
59 89 70
59 91 71
58 89 70
60 91 72
59 90 71
60 92 73
59 90 70
60 92 72
58 88 69
57 87 68
60 91 72
58 89 70
60 91 72
60 91 72
60 91 72
60 92 72
59 91 72
58 89 70
61 92 73
58 88 70
60 92 73
61 92 73
61 94 74
60 91 72
59 90 71
61 93 73
60 92 73
58 89 70
59 91 72
58 89 70
61 94 74
60 91 72
59 90 70
61 93 73
61 93 74
58 89 70
58 90 71
60 91 72
59 91 71
59 90 70
58 89 71
62 94 74
59 91 72
61 94 74
60 91 72
58 88 69
58 89 70
58 89 70
59 91 72
57 87 69
59 89 70
58 89 70
60 92 72
58 89 70
58 90 71
59 90 71
60 91 72
62 94 74
59 91 72
60 92 73
58 89 70
60 92 72
59 90 71
59 90 71
58 88 70
58 88 69
63 96 75
60 91 72
59 91 71
59 90 71
62 94 74
61 94 74
60 91 72
58 89 70
58 89 70
59 90 71
60 92 73
60 92 72
59 90 71
60 92 72
60 92 72
58 88 69
59 90 71
59 91 72
59 90 71
60 91 72
60 92 72
58 89 70
58 89 70
60 92 73
60 91 72
59 91 72
61 94 74
60 92 73
61 93 74
59 90 71
58 89 70
61 94 74
60 92 72
61 93 73
58 89 70
58 89 70
60 92 72
59 90 71
59 91 71
58 89 70
60 92 72
60 91 72
57 88 69
61 94 74
60 91 72
62 94 74
60 92 73
57 87 69
61 94 74
58 88 70
59 90 71
58 89 71
58 89 70
60 91 72
59 91 71
58 88 70
58 89 71
59 91 72
58 88 69
60 91 72
58 89 70
60 93 73
59 90 71
60 92 72
57 88 69
57 88 70
59 90 71
58 89 71
59 90 71
58 88 70
58 89 70
59 90 71
58 90 71
61 93 74
60 92 72
58 89 70
57 87 69
60 92 72
58 89 70
59 91 71
61 94 74
58 89 70
58 89 70
58 89 71
59 90 71
57 87 68
59 90 71
59 90 71
57 87 69
61 93 73
58 89 70
61 93 73
59 91 72
58 89 70
57 87 69
58 90 71
57 88 69
59 90 71
57 88 69
60 92 73
58 89 70
57 88 69
58 88 70
58 90 71
60 91 72
60 92 73
57 88 69
58 89 70
59 91 71
59 91 72
59 90 71
59 91 72
59 90 71
59 90 71
56 86 68
57 87 69
57 87 69
57 87 68
60 91 72
59 90 71
59 91 71
60 93 73
59 90 71
57 88 70
59 91 72
57 88 69
58 88 70
58 89 70
59 90 71
57 88 70
59 91 71
57 87 69
60 93 73
59 91 72
57 88 69
59 90 71
60 92 72
59 90 71
60 93 73
58 89 70
57 88 70
60 92 72
62 94 75
56 86 68
59 90 71
58 89 70
58 90 71
58 89 71
59 90 71
58 89 70
61 93 73
58 88 70
60 92 73
58 88 70
59 90 71
58 88 70
58 89 70
59 91 72
60 92 72
59 90 71
57 88 70
57 87 69
60 92 73
56 87 69
58 89 70
59 91 72
59 90 71
57 88 70
61 93 73
57 87 69
55 85 67
60 92 73
59 90 71
61 93 74
61 93 73
58 89 70
60 91 72
60 92 72
60 91 72
60 92 73
62 94 74
59 91 72
61 94 74
60 92 72
60 92 73
59 91 71
59 91 71
60 92 73
60 92 73
61 93 73
59 91 72
59 90 71
61 93 73
60 91 72
60 92 72
61 93 73
60 92 73
63 96 76
60 91 72
59 90 71
60 91 72
61 93 73
59 90 71
60 91 72
61 93 73
61 94 74
61 93 73
60 91 71
60 91 72
63 96 75
61 94 74
60 92 72
59 90 71
58 89 70
62 95 75
61 92 73
59 91 72
61 93 73
59 91 71
61 93 73
61 93 73
61 93 73
60 91 72
60 92 72
59 90 71
58 89 71
58 89 71
63 96 76
62 94 74
60 92 72
61 93 74
59 90 71
62 94 74
60 92 72
62 95 74
60 92 73
60 92 72
62 94 74
61 93 73
60 92 73
57 87 69
59 91 72
59 90 71
60 92 72
60 92 72
57 87 68
60 92 73
59 90 71
60 92 72
58 88 70
63 96 75
59 90 71
59 90 71
58 88 70
60 92 72
62 95 75
62 94 74
59 90 71
60 92 72
61 94 74
58 88 70
60 92 72
61 93 73
59 90 71
60 92 73
62 95 75
61 93 73
58 89 70
59 90 71
59 91 72
59 90 70
59 90 71
63 96 76
59 90 71
60 91 72
60 92 72
60 91 72
59 90 71
63 96 76
59 90 71
59 90 71
60 92 72
62 95 74
60 92 72
62 94 74
57 87 69
61 93 74
60 92 72
59 90 71
60 92 73
60 92 72
62 94 74
58 89 70
58 89 70
58 89 70
60 91 72
59 91 72
60 91 72
60 91 71
60 92 73
60 91 72
60 92 72
60 91 72
59 90 71
57 87 69
58 88 69
58 88 69
58 88 70
61 93 73
60 92 72
59 90 71
60 92 73
62 95 74
60 92 72
58 88 70
58 89 70
62 94 74
61 93 73
62 95 75
63 96 76
63 96 75
60 92 72
61 93 74
63 96 76
59 90 71
58 89 70
61 93 73
59 90 71
58 89 70
60 92 72
61 94 74
58 89 70
59 90 70
58 88 69
59 90 71
61 93 73
59 91 71
59 89 70
60 92 72
61 93 73
61 92 73
57 88 69
60 91 72
58 88 69
59 90 71
59 91 71
58 89 70
59 91 71
60 91 72
60 92 72
59 91 71
59 90 71
60 91 72
61 93 74
59 90 71
60 91 72
62 94 74
59 90 71
60 91 72
60 91 72
58 89 70
61 93 73
61 93 73
59 91 71
61 93 73
59 90 71
63 95 75
59 90 71
59 90 71
58 88 69
62 95 74
63 96 75
59 91 71
66 91 70
82 95 70
96 100 71
99 99 69
93 96 68
79 96 72
64 92 72
57 87 69
60 91 71
59 91 72
58 89 70
60 91 72
59 90 71
60 92 72
60 92 73
61 94 74
59 90 71
58 89 71
61 93 73
58 89 70
60 92 72
61 93 73
60 92 72
59 90 71
58 89 70
58 89 70
59 90 71
60 92 72
59 90 71
61 93 73
59 90 70
60 91 72
61 93 73
60 92 73
60 91 72
60 92 72
60 92 73
60 92 73
59 90 71
61 93 74
60 92 72
59 90 71
58 88 70
58 89 70
60 92 72
60 92 72
60 92 73
59 90 71
59 90 71
60 91 72
60 91 72
60 92 72
59 91 72
59 91 71
59 91 72
60 92 72
60 92 72
59 90 71
61 94 74
61 93 73
58 89 71
59 91 71
61 93 73
61 93 73
60 92 73
57 87 69
59 90 71
59 90 71
56 85 67
58 89 70
62 95 75
60 92 72
60 92 73
58 89 70
57 87 68
59 90 71
58 89 70
61 94 74
57 87 69
57 88 69
60 92 72
59 90 71
62 94 74
61 94 74
58 89 71
58 89 71
57 87 69
60 92 73
61 93 74
58 89 70
59 90 71
58 89 70
56 86 68
61 93 73
59 91 71
58 89 70
55 85 67
58 88 70
59 90 71
62 95 75
60 92 72
60 92 72
58 88 70
59 90 72
57 88 69
57 87 69
55 84 67
58 88 69
61 94 74
58 88 70
60 92 73
60 92 72
60 92 73
60 92 72
59 90 71
59 91 72
59 90 71
59 90 71
60 92 73
59 91 72
56 86 68
58 89 70
59 91 72
59 90 71
59 90 71
57 87 68
59 90 71
59 90 71
59 89 70
57 88 69
58 89 71
60 92 73
58 90 71
59 90 71
59 90 71
59 90 71
59 90 71
59 90 71
58 88 70
57 88 69
58 89 70
59 90 71
58 89 70
58 89 70
57 87 69
58 88 70
59 90 71
61 94 74
59 90 71
58 89 70
59 91 72
59 90 71
58 89 70
58 89 71
58 89 70
59 91 72
59 90 71
60 92 72
58 88 70
58 89 70
58 89 71
55 85 67
57 88 69
58 90 71
58 89 70
63 96 76
58 88 70
57 88 70
57 88 70
57 87 69
56 86 68
57 88 70
57 88 69
57 88 69
57 87 69
56 85 67
59 90 71
58 89 70
58 89 70
59 91 72
57 88 69
56 86 68
59 91 72
58 89 70
57 88 70
58 88 70
57 87 69
59 90 71
56 86 68
58 89 70
60 92 72
58 89 70
59 90 71
58 89 70
57 88 70
60 91 72
56 86 68
59 90 72
58 89 70
57 87 69
60 92 72
58 89 70
60 92 72
61 93 73
60 92 73
60 91 72
60 92 73
59 90 71
57 88 69
59 91 71
61 94 74
62 94 74
61 93 74
62 95 75
60 93 73
61 93 73
60 91 72
60 92 72
61 93 73
60 92 72
61 93 73
61 94 74
61 93 73
60 92 73
59 90 71
60 92 73
60 92 73
59 90 71
59 90 71
62 94 74
61 94 74
61 93 73
61 93 74
60 92 73
62 94 74
60 92 73
59 90 71
61 93 73
62 94 74
62 95 74
58 89 70
64 99 78
62 95 75
59 91 71
60 92 72
61 94 74
59 91 72
59 91 72
61 92 73
58 89 70
61 93 73
62 94 74
58 89 70
59 90 71
60 92 72
61 94 74
62 95 74
62 94 74
60 92 73
61 94 74
61 93 73
60 92 73
62 94 74
61 93 73
60 91 72
62 94 74
58 89 70
58 88 69
59 90 71
59 90 71
63 97 76
61 94 74
60 92 72
59 91 71
58 89 70
60 92 72
59 90 71
59 91 71
61 93 73
59 90 71
59 90 71
58 88 69
61 94 74
63 97 76
60 92 72
60 91 72
60 91 72
60 91 72
61 93 74
60 92 73
58 89 70
61 93 73
60 92 72
64 98 77
60 91 72
58 89 70
60 92 73
61 93 73
58 88 70
62 94 74
59 90 71
59 91 71
56 85 67
60 91 72
61 94 74
62 94 74
59 90 71
59 90 71
59 90 70
58 89 70
58 89 70
60 91 71
60 91 72
59 90 71
59 90 71
60 91 72
59 91 71
60 92 73
62 95 75
61 93 74
60 92 72
60 92 72
60 91 72
59 90 71
60 92 72
61 93 73
57 87 68
59 90 71
60 92 72
58 89 70
58 88 70
59 89 70
61 93 73
59 90 71
59 90 71
58 89 70
58 89 70
62 94 73
60 92 72
61 93 73
59 90 71
57 88 69
60 92 73
58 88 69
59 90 71
61 93 73
61 93 73
63 96 75
60 92 73
59 90 71
57 88 69
59 90 71
61 94 74
60 91 72
59 90 71
58 89 70
62 95 75
61 93 73
60 92 72
61 93 73
57 88 69
58 90 71
60 92 72
60 92 73
59 90 71
58 89 70
59 91 71
59 91 71
59 90 71
59 90 71
60 91 72
58 89 70
62 94 74
59 90 71
59 89 70
58 89 70
60 92 72
60 92 72
60 91 72
60 92 72
58 88 69
58 89 70
61 93 73
60 91 72
60 91 72
59 91 72
61 93 73
62 94 74
60 92 72
58 89 70
57 87 69
62 94 74
61 93 73
58 89 70
59 90 71
58 89 70
61 93 73
74 93 71
126 107 68
170 124 66
212 141 63
223 146 64
228 148 63
230 149 62
227 147 62
218 144 62
208 139 63
171 122 63
136 110 67
84 97 71
61 92 73
59 91 71
61 93 73
58 89 70
61 94 74
64 97 77
60 92 72
58 89 70
60 91 72
58 89 70
58 88 69
59 90 71
59 91 71
57 87 68
60 92 72
59 90 71
59 90 71
60 92 73
58 89 70
62 94 74
59 90 71
60 92 73
60 92 73
58 89 70
59 90 71
59 90 71
61 93 73
58 89 70
60 91 72
64 97 76
62 95 75
59 90 71
60 92 72
60 91 72
59 90 71
59 91 72
57 87 69
57 88 69
58 89 70
61 93 73
60 91 72
60 92 73
61 94 74
57 87 69
58 88 70
59 90 71
59 91 72
58 89 70
59 91 72
61 93 73
59 91 72
60 91 72
59 90 71
57 87 69
60 91 72
59 90 71
60 92 72
58 88 70
60 91 72
57 87 68
62 95 74
60 91 72
61 93 73
60 91 72
56 86 68
58 88 70
58 88 70
59 90 71
60 91 72
59 90 71
59 90 71
58 89 70
60 92 73
60 92 72
61 93 74
59 91 71
59 91 72
59 90 71
59 91 72
59 91 72
59 90 71
57 87 69
58 89 70
58 88 70
57 88 69
56 87 69
57 88 69
59 90 71
58 89 71
59 90 71
61 93 73
60 92 72
59 90 71
63 97 76
60 91 72
56 86 68
57 88 69
60 92 73
59 91 72
57 88 69
61 93 73
59 91 71
58 89 70
57 88 69
58 89 70
58 88 70
60 91 72
60 93 73
61 94 74
56 85 67
58 88 70
57 87 68
59 90 71
57 87 68
58 89 70
60 92 72
57 88 70
58 89 70
59 91 72
60 92 73
59 91 72
60 92 73
58 89 71
58 89 70
59 91 72
59 90 71
61 93 74
58 89 70
59 91 72
61 94 74
59 90 71
58 89 70
57 87 69
56 86 68
55 85 67
57 87 69
58 89 70
57 87 69
58 89 71
58 89 70
56 86 68
59 90 71
58 89 70
57 88 70
59 90 71
58 89 70
57 88 70
60 92 72
58 89 70
57 87 69
56 87 68
59 90 71
58 89 70
58 89 70
57 88 69
59 91 72
59 90 71
58 88 70
58 89 70
58 89 71
59 90 71
57 88 69
58 89 70
59 90 71
59 90 71
58 89 71
59 90 71
56 86 68
59 90 71
57 87 69
58 88 70
56 86 68
61 93 74
59 91 72
58 89 71
59 90 71
57 88 70
59 90 71
59 90 71
60 91 72
58 89 70
59 90 71
59 90 72
60 93 73
60 91 72
57 88 70
56 87 69
58 89 70
57 87 69
56 86 68
60 92 72
61 94 74
58 89 70
57 88 69
60 91 72
60 91 72
60 92 72
61 94 74
58 89 70
60 92 73
60 92 72
60 92 72
59 91 72
58 89 71
61 93 74
59 91 71
60 92 73
58 89 70
58 89 70
59 89 70
59 90 71
60 92 73
61 93 73
60 92 72
60 93 73
61 94 74
61 93 73
60 92 72
60 92 72
62 94 74
59 90 70
57 88 69
58 89 70
60 92 73
60 91 72
57 87 68
60 92 72
59 90 71
64 97 76
59 90 71
60 92 72
59 90 71
62 94 74
60 91 72
58 89 70
60 92 73
60 91 72
60 91 72
62 95 75
60 92 72
61 93 73
61 93 73
59 90 71
58 89 70
60 92 72
59 91 71
61 93 73
61 92 73
59 90 71
60 91 71
59 91 71
60 92 73
61 92 73
59 90 71
59 90 71
60 92 73
62 95 75
60 92 72
60 91 72
60 91 71
60 92 72
63 96 76
61 92 72
60 92 72
59 90 71
60 91 72
60 91 72
60 92 72
57 88 69
61 94 74
60 92 72
60 92 72
61 93 74
61 93 73
59 90 71
59 91 71
61 94 74
60 91 72
59 90 71
59 90 70
59 90 71
57 88 69
62 94 74
61 93 74
61 94 74
60 92 72
60 92 72
59 90 71
59 91 71
61 93 73
62 94 74
59 90 71
59 90 70
62 94 74
61 94 74
60 91 72
58 88 70
60 92 72
59 90 71
60 92 72
61 94 74
60 92 73
59 91 71
56 86 68
59 90 71
59 90 70
60 91 72
61 93 73
58 89 70
61 93 73
61 93 74
61 93 73
60 92 72
61 93 73
59 91 71
58 88 69
60 91 72
60 92 72
62 94 74
60 91 72
60 92 72
59 90 71
60 92 72
60 91 72
61 93 73
58 89 70
57 88 69
60 92 72
60 92 72
59 90 71
60 92 72
58 89 70
60 92 72
62 94 74
58 89 70
60 92 72
60 92 72
58 89 70
60 91 72
58 89 70
61 92 73
61 93 73
61 93 73
60 92 72
61 93 73
62 94 74
61 93 74
60 92 73
61 93 73
60 91 72
60 91 72
57 88 69
59 91 71
58 89 70
59 90 71
62 95 75
61 94 74
62 94 74
60 91 72
58 89 70
57 87 69
59 90 71
58 89 70
59 91 72
60 92 72
60 91 72
59 91 71
60 92 72
59 91 71
61 93 73
61 92 73
60 91 72
61 93 73
60 92 72
59 90 71
61 93 73
60 91 71
62 94 74
60 92 73
57 88 69
57 87 69
60 91 71
58 89 70
58 89 70
59 91 71
91 99 72
144 115 69
216 143 64
241 155 63
248 158 63
251 160 63
250 160 64
250 160 64
249 159 63
248 158 63
246 157 63
243 156 62
241 154 62
233 150 61
209 139 63
165 121 65
94 101 73
63 93 73
60 91 72
60 92 72
61 93 73
59 91 72
59 91 72
58 89 70
60 92 73
62 94 74
60 91 72
58 88 69
58 88 69
60 91 72
59 91 72
59 90 71
58 89 70
58 88 70
60 91 72
63 97 76
62 95 75
61 93 73
57 88 69
61 93 73
61 93 73
60 91 72
58 89 70
59 91 71
58 89 70
58 89 70
59 91 71
60 91 72
62 94 74
58 89 70
60 91 72
61 93 73
61 93 73
58 90 71
60 92 73
61 93 73
61 93 73
61 93 73
60 91 72
58 89 70
57 88 69
61 93 73
63 96 75
57 88 70
58 89 70
60 91 72
59 90 71
63 96 75
59 90 71
60 92 72
60 91 72
59 91 72
60 92 72
60 92 73
61 93 73
57 87 69
58 88 69
59 90 71
59 91 71
59 91 72
59 91 72
57 88 69
59 90 71
58 89 70
58 88 70
58 88 69
56 87 68
59 90 71
59 91 71
60 92 72
58 89 70
60 91 72
61 93 73
60 92 73
60 92 72
61 93 73
60 91 72
61 93 74
59 90 71
59 90 71
58 88 69
59 90 71
59 91 72
61 93 74
60 92 73
60 92 73
62 94 74
59 91 71
59 90 71
59 91 72
57 87 68
58 88 70
61 93 73
60 91 72
59 91 72
60 93 73
61 93 73
57 88 69
59 91 72
57 87 69
60 92 72
58 89 70
58 90 71
62 95 75
57 88 69
57 87 69
59 90 71
58 89 70
56 86 68
59 91 72
59 90 71
60 91 72
58 89 70
60 91 72
59 90 71
61 93 73
60 91 72
60 92 72
60 91 72
59 90 71
58 89 70
60 92 73
58 89 70
59 90 71
60 92 72
59 90 71
59 90 71
60 92 73
58 88 69
59 90 71
58 89 71
57 88 69
57 87 69
57 88 70
58 88 70
57 88 69
57 87 68
56 86 68
57 87 69
59 90 71
57 88 70
59 90 71
59 90 71
59 91 72
58 88 70
58 90 71
58 89 71
58 88 70
57 88 70
60 92 73
59 90 71
60 92 72
57 88 70
57 87 69
60 91 72
59 91 72
60 93 73
59 90 71
61 93 73
58 88 70
59 91 72
58 89 71
57 87 69
59 90 71
58 89 70
60 92 73
59 90 71
60 92 72
58 89 70
58 88 70
57 88 69
59 91 72
57 88 70
59 91 71
60 92 73
61 93 73
57 87 69
57 87 69
57 88 69
60 92 73
58 90 71
59 90 71
60 92 72
57 88 69
58 89 71
60 92 73
61 93 73
62 94 74
60 92 73
61 94 74
59 91 71
59 90 70
61 93 73
61 93 73
60 92 72
59 91 71
60 92 73
60 91 72
62 95 75
61 93 73
60 92 73
60 91 72
61 93 73
62 94 74
60 91 72
58 89 70
60 91 72
59 90 70
60 92 73
60 92 73
59 90 71
62 94 74
63 96 75
59 90 70
60 92 73
60 92 72
60 91 72
59 90 71
59 90 71
59 91 71
61 93 73
59 89 70
60 92 72
60 92 72
61 93 73
60 92 72
59 90 71
59 90 71
60 92 72
60 93 73
61 93 73
57 87 69
61 93 73
62 94 74
59 91 71
60 91 72
60 91 72
60 92 72
61 93 73
62 95 75
63 97 76
60 91 71
60 91 72
62 95 75
62 94 74
59 90 71
59 90 71
60 91 72
58 89 70
57 87 69
59 91 71
59 90 71
60 91 72
60 92 73
60 91 72
60 91 72
64 97 76
61 93 73
60 92 73
61 94 74
59 91 72
59 91 72
60 91 72
57 87 68
58 89 70
60 92 72
60 91 72
57 86 68
60 92 73
60 92 72
61 93 73
60 92 73
61 92 73
60 91 72
58 88 69
58 89 70
59 90 70
59 90 71
60 92 73
60 92 73
62 94 74
61 93 73
57 88 69
59 90 71
61 93 73
60 91 72
59 91 71
61 93 73
61 93 73
61 93 73
61 93 73
60 91 72
63 96 76
60 91 72
61 93 73
59 90 71
63 96 75
60 92 72
62 94 74
61 93 73
62 95 75
60 92 72
61 93 73
58 89 70
59 90 71
58 89 70
59 90 71
61 93 73
58 89 70
58 89 70
59 89 70
59 90 71
60 91 72
59 91 71
59 90 71
59 90 71
60 92 72
58 89 70
60 91 72
59 91 71
60 92 72
59 91 71
60 91 72
59 90 71
60 91 72
61 94 74
59 89 70
58 88 70
58 89 70
60 92 72
60 92 72
62 94 74
62 94 74
59 90 71
62 94 74
61 93 74
60 92 73
58 88 70
60 91 72
60 92 73
59 90 71
61 92 73
58 89 70
60 92 73
57 87 68
59 91 72
60 92 72
61 93 73
60 92 72
59 90 71
60 91 72
61 94 74
62 95 75
61 93 74
62 94 74
58 89 70
59 90 71
61 93 73
59 90 71
62 94 74
62 94 74
61 93 73
59 91 71
59 90 71
61 94 74
60 91 71
60 91 72
62 95 75
60 92 72
61 93 73
62 95 75
58 89 70
61 94 74
57 88 69
60 92 72
57 87 68
62 95 74
58 89 70
61 93 73
126 108 69
216 143 63
249 158 63
252 161 64
255 162 64
255 162 65
255 163 65
255 163 65
255 163 65
254 162 65
253 161 64
251 160 64
249 159 64
246 157 63
245 156 62
238 153 61
234 150 60
206 136 60
150 115 65
67 90 69
60 91 72
59 90 71
59 90 71
59 90 71
58 89 70
61 93 73
61 92 73
60 92 72
57 87 69
60 91 72
58 88 69
60 92 72
58 89 70
58 89 70
61 93 73
59 90 71
58 89 70
59 90 71
58 89 70
61 93 73
60 92 73
61 94 74
60 91 72
59 90 70
60 91 72
60 92 72
59 91 72
60 91 72
58 89 70
61 93 73
58 89 70
58 89 70
61 93 73
60 92 72
58 88 70
60 91 72
61 93 73
60 91 71
58 88 70
59 90 71
59 90 71
61 93 74
59 90 71
60 92 72
60 91 72
60 92 72
58 89 70
59 91 71
60 92 72
59 89 70
58 89 70
58 89 70
59 91 71
61 93 73
60 92 72
59 90 70
62 94 74
60 92 73
62 94 74
61 93 73
59 91 72
60 91 72
60 92 72
60 92 72
62 94 74
58 89 70
59 91 72
59 90 71
59 90 71
60 91 72
60 91 72
61 94 74
59 90 71
58 89 70
61 93 73
59 90 71
59 91 71
59 90 71
60 92 73
59 90 71
60 92 73
61 94 74
59 90 71
61 93 73
62 96 75
58 88 70
60 92 72
61 93 73
60 91 72
61 93 73
59 90 71
58 89 71
60 92 73
58 89 70
60 92 73
58 89 70
60 91 72
57 87 68
57 87 69
57 88 69
58 89 71
60 91 72
58 89 70
59 90 71
59 90 71
60 91 72
57 87 69
57 88 69
57 88 69
58 89 70
60 91 72
58 89 71
58 89 70
58 89 70
59 91 72
61 93 73
60 91 72
58 89 70
59 90 71
57 88 69
58 89 70
59 91 71
59 91 72
59 90 71
55 85 67
58 89 70
58 88 70
57 88 69
58 89 70
58 89 71
60 91 72
58 89 70
57 87 69
57 87 69
60 92 73
60 91 72
57 88 70
56 86 68
58 89 70
60 92 73
56 86 68
59 90 71
59 91 72
59 91 72
60 92 72
58 89 70
59 90 71
60 92 73
60 92 72
60 92 73
58 89 71
59 90 71
58 89 70
60 92 72
60 92 73
58 88 70
60 92 73
58 89 71
59 90 71
57 88 69
59 91 72
58 88 70
61 93 73
59 90 71
56 87 68
58 89 70
61 94 74
60 92 73
59 91 72
58 89 70
57 87 69
57 87 69
57 88 70
59 91 72
58 89 70
62 95 75
57 87 69
59 91 72
58 89 70
57 88 70
56 86 68
56 86 68
55 84 67
57 87 69
59 91 72
58 88 70
61 94 74
60 91 72
59 91 71
59 91 72
59 90 71
59 90 71
59 91 71
60 92 73
59 90 70
60 92 72
60 91 72
58 89 70
62 95 75
61 93 73
60 91 72
59 90 71
61 93 73
59 89 70
61 93 73
61 93 73
60 91 72
61 93 73
59 90 70
60 92 72
59 90 71
58 89 70
59 90 71
60 91 72
59 91 72
60 92 73
60 91 72
58 89 70
60 92 72
61 93 73
60 91 72
57 87 68
60 92 73
62 94 74
60 92 72
61 93 73
59 90 71
59 90 71
60 92 72
59 91 72
62 94 74
61 93 73
58 89 70
59 90 71
61 92 73
59 90 71
59 90 71
59 90 71
60 91 72
63 97 76
60 92 72
60 91 72
61 93 73
62 95 75
61 93 73
61 93 73
59 90 70
62 95 75
59 91 71
59 90 71
59 91 71
61 93 73
57 88 69
65 98 77
61 93 73
62 95 74
58 88 69
59 91 71
63 96 75
59 90 71
58 89 70
57 88 69
62 94 74
60 92 72
60 92 72
60 91 72
61 93 73
59 91 71
58 88 69
59 90 71
59 91 71
60 92 72
60 92 72
60 92 72
58 89 70
58 89 70
60 91 71
58 89 70
59 90 71
60 91 72
61 93 74
60 92 72
62 94 74
60 92 73
61 93 73
60 91 72
58 89 70
60 91 72
59 91 71
60 92 73
60 92 72
60 92 73
63 96 76
59 90 71
60 92 72
62 95 74
61 93 73
61 93 73
58 88 69
63 96 75
64 97 76
63 97 76
61 93 73
60 91 72
59 91 71
60 92 72
62 95 75
60 92 72
58 89 70
61 93 73
61 93 74
60 91 72
61 93 73
58 89 70
58 89 70
61 93 73
61 93 73
60 92 72
60 92 72
59 90 71
60 92 72
58 89 70
58 89 70
61 92 73
59 91 71
60 92 72
57 87 69
62 94 74
60 91 72
61 92 73
60 91 72
61 93 73
60 92 73
61 93 73
61 93 73
59 91 71
59 90 71
59 91 71
59 90 71
59 90 71
60 91 72
60 92 72
59 91 72
59 90 71
60 91 72
60 91 72
58 88 69
61 94 74
59 90 71
61 93 73
63 96 76
59 90 71
60 92 72
61 93 73
61 93 73
58 89 70
59 89 70
58 89 70
61 93 73
60 91 72
59 91 71
60 92 73
60 91 72
61 93 73
60 91 72
62 94 74
60 92 72
61 93 73
61 94 74
58 88 70
58 89 70
62 94 74
61 93 74
61 93 73
62 95 75
60 92 72
60 92 72
61 93 73
67 92 71
159 118 65
236 151 62
253 161 63
255 162 64
255 164 65
255 165 65
255 165 66
255 165 66
255 165 66
255 165 66
255 164 65
255 164 65
254 162 65
253 161 64
250 160 64
248 158 63
244 156 62
240 153 61
235 150 60
219 141 58
177 124 62
75 92 69
58 88 69
58 88 69
62 94 74
57 87 69
58 88 69
57 87 69
58 89 70
60 91 71
60 91 72
58 89 70
59 89 70
59 90 71
61 93 73
61 93 73
57 88 69
60 92 73
60 91 72
60 92 73
60 91 72
57 87 68
60 92 73
62 94 74
59 91 71
62 95 74
58 89 70
58 88 70
62 94 74
60 92 73
58 89 70
58 89 70
58 89 70
60 92 72
60 92 72
60 92 73
62 94 74
62 95 75
58 88 70
56 86 68
61 93 73
58 90 71
60 92 73
60 92 72
59 91 71
59 90 71
58 88 70
61 93 73
60 91 72
60 93 73
60 92 72
59 90 71
58 89 70
60 91 72
61 94 74
57 88 69
59 91 72
57 87 69
60 92 72
60 92 73
59 90 71
62 94 74
60 92 72
61 93 73
61 93 73
60 92 72
59 90 71
59 90 71
62 95 75
59 90 71
60 92 72
58 89 70
58 89 70
59 90 71
59 91 72
59 91 72
61 93 73
60 91 72
58 89 70
58 89 70
61 93 73
56 86 68
59 90 71
60 91 72
60 91 72
59 90 71
59 90 71
59 91 71
60 92 72
60 92 73
59 90 71
59 90 71
58 89 70
59 90 71
58 90 71
59 90 71
56 86 68
59 90 71
58 89 70
61 92 73
59 90 71
59 90 71
61 93 73
60 91 72
56 86 68
58 89 71
60 92 72
58 89 70
59 90 71
57 87 68
60 91 72
59 91 71
59 91 72
59 90 71
56 86 68
60 92 73
58 88 70
58 88 70
59 90 71
60 92 72
59 90 71
59 91 72
59 91 72
61 93 73
59 89 70
59 90 71
59 90 71
58 89 70
58 89 71
57 88 69
58 90 71
60 91 72
60 92 72
58 89 70
58 89 70
59 90 71
59 91 71
60 92 73
57 88 69
57 87 69
58 89 70
59 91 71
60 92 72
60 92 73
58 89 70
59 91 72
59 91 72
60 91 72
60 92 73
56 86 68
59 90 71
61 94 74
60 91 72
60 92 73
58 89 70
58 89 70
56 86 68
57 87 69
60 92 72
60 92 73
59 91 72
59 90 71
59 90 71
60 92 73
59 90 71
58 89 70
56 86 68
58 89 71
58 89 70
55 85 67
60 91 72
55 85 67
58 89 70
58 89 70
59 91 72
58 88 70
59 91 72
58 88 70
58 88 70
57 87 69
60 91 72
59 91 72
57 88 70
59 90 71
58 90 71
58 90 71
57 87 69
60 92 72
59 90 71
57 88 69
59 90 71
58 89 70
58 88 69
60 91 72
59 90 71
61 92 73
59 91 72
59 90 71
60 92 72
60 92 72
61 92 73
61 93 73
60 91 72
60 91 72
59 90 70
57 87 69
60 91 72
60 91 72
61 94 74
60 92 73
61 93 74
62 94 74
59 91 71
59 90 71
57 87 69
61 92 73
61 93 73
58 89 70
62 94 74
62 94 74
62 95 75
61 93 73
58 89 70
61 94 74
61 94 74
61 93 73
61 93 74
62 94 74
61 94 74
61 93 73
60 92 72
59 90 71
60 92 72
58 89 70
61 93 73
61 93 73
60 91 72
60 92 72
60 91 72
58 89 70
63 96 75
60 92 72
60 91 72
62 95 75
61 93 73
59 91 72
62 94 74
59 90 71
60 92 73
59 90 71
59 90 71
61 94 74
59 90 71
60 92 72
62 95 75
60 91 72
61 93 73
60 92 72
58 89 70
60 92 72
61 94 74
61 93 73
58 89 70
58 88 69
58 89 70
61 94 74
61 93 74
58 89 70
61 93 73
58 89 70
59 90 71
60 92 72
60 92 73
58 89 70
59 90 71
63 95 75
62 94 74
61 93 73
60 92 72
59 90 71
61 93 73
62 94 74
62 94 74
61 92 73
60 92 72
60 93 73
56 86 67
58 88 70
61 93 73
60 91 71
59 91 71
63 96 75
61 93 73
60 92 72
58 89 70
59 90 71
60 92 72
58 89 70
61 93 73
60 92 72
61 92 73
63 96 76
60 92 72
61 94 74
61 93 73
59 91 72
61 93 74
59 91 71
58 89 70
58 88 70
60 92 72
63 96 75
60 91 72
59 91 71
61 93 73
59 90 71
59 89 70
57 88 69
64 98 77
61 94 74
60 91 72
63 96 75
62 95 75
59 91 71
59 91 71
60 91 72
62 95 75
58 89 70
59 90 71
59 90 71
60 92 73
60 92 72
62 94 74
60 92 73
60 92 72
61 93 73
60 91 72
59 89 70
60 91 71
59 90 71
59 91 72
58 89 70
58 89 70
58 89 70
58 89 70
61 94 74
60 91 72
58 88 69
62 95 74
61 93 73
60 92 73
60 91 72
59 90 71
57 88 69
61 93 74
62 94 74
60 92 72
60 92 73
61 94 74
63 96 75
61 93 73
60 92 72
59 90 71
58 89 70
61 93 73
60 92 72
60 91 72
62 94 74
59 89 70
58 89 70
57 87 69
58 88 70
60 91 72
58 89 70
57 87 69
61 94 73
59 89 70
59 90 71
68 93 72
167 123 66
243 154 61
254 161 63
255 164 65
255 165 65
255 166 66
255 167 66
255 167 66
255 167 66
255 167 66
255 166 66
255 166 66
255 165 66
255 164 65
255 163 65
254 162 64
252 161 64
248 158 63
244 156 62
240 153 61
233 149 59
225 144 58
188 127 59
76 92 68
60 92 73
60 92 72
59 89 70
57 87 69
58 90 71
57 87 69
58 90 71
60 92 72
57 88 69
59 91 71
61 92 72
59 90 71
59 90 71
59 91 72
59 90 71
60 92 72
60 91 72
61 93 73
60 91 72
57 87 69
60 92 72
59 91 72
59 90 71
58 89 70
62 94 74
63 96 75
59 90 71
59 91 71
60 92 72
61 93 73
59 90 71
60 91 72
57 88 69
56 86 68
59 91 71
59 90 71
62 94 74
60 91 72
58 89 70
57 88 69
58 88 69
59 91 71
59 91 71
61 93 73
61 93 73
58 88 69
59 91 72
58 88 69
59 90 71
60 92 72
59 90 71
61 94 74
60 92 72
61 93 73
60 91 72
61 93 73
60 92 72
57 88 69
60 91 72
61 93 73
60 91 72
62 95 74
60 92 73
58 88 70
59 90 71
58 89 70
60 92 72
62 94 74
62 94 74
59 91 71
59 91 72
58 89 70
59 90 71
58 90 71
60 92 73
59 91 71
59 90 71
61 94 74
59 91 72
58 89 70
58 89 70
61 93 73
59 91 72
59 90 71
57 88 69
60 92 72
61 94 74
59 91 72
60 92 72
58 89 70
59 91 72
60 92 73
59 90 71
59 90 71
59 90 71
58 89 70
60 92 73
58 88 70
60 92 72
58 88 69
57 87 69
59 90 71
60 91 72
57 88 70
57 88 69
60 91 72
59 90 71
60 92 73
58 88 70
59 90 71
58 88 70
58 88 69
58 89 70
59 90 71
60 91 72
58 88 70
58 89 70
61 93 73
60 91 72
58 88 70
58 89 70
57 88 69
60 92 73
60 92 73
61 93 73
61 93 73
57 87 69
58 89 70
58 89 70
59 90 71
58 89 70
58 89 70
57 87 69
59 91 72
59 90 71
57 88 69
58 89 70
58 88 70
57 88 69
58 89 70
62 94 74
60 92 72
59 90 71
57 88 69
57 87 69
58 88 69
58 89 71
58 90 71
59 91 71
59 90 71
57 88 69
58 90 71
58 88 70
58 89 70
57 87 69
57 87 69
57 87 69
59 90 71
58 90 71
58 89 71
58 89 71
60 91 72
56 86 68
57 88 69
59 91 72
58 89 70
56 86 68
58 90 71
58 88 70
58 90 71
57 88 69
60 91 72
59 91 72
60 93 73
57 87 69
58 88 70
59 90 71
59 91 72
57 88 70
59 90 71
58 88 70
57 87 69
59 90 71
57 88 70
61 94 74
59 90 71
60 91 72
59 91 71
61 93 73
61 92 73
60 92 72
60 92 73
60 92 72
60 91 72
59 91 72
58 88 69
57 88 69
59 90 70
59 90 71
61 92 73
62 95 75
61 93 73
59 90 70
60 91 72
62 94 74
62 94 74
62 94 74
58 89 70
59 90 71
58 88 70
61 93 73
61 93 73
60 91 72
61 94 74
60 92 73
59 90 71
58 89 70
59 91 71
61 93 73
59 90 71
60 92 72
60 91 72
60 91 72
61 94 74
60 91 72
61 93 73
62 94 74
59 91 71
62 94 74
58 89 70
60 91 72
59 90 71
61 93 73
59 90 71
60 91 71
61 94 74
60 91 72
62 95 74
59 90 71
62 95 75
61 94 74
62 94 74
61 93 73
60 91 72
60 92 72
61 93 74
60 91 72
61 92 73
59 90 71
61 93 73
60 91 72
59 91 72
59 90 71
59 91 71
59 91 71
59 90 71
59 90 71
59 90 70
59 90 71
59 91 71
62 95 74
58 89 70
60 92 72
60 92 72
61 93 73
60 92 73
63 97 76
61 92 73
59 90 71
61 92 73
62 95 75
58 88 69
61 93 73
61 93 73
60 91 72
58 88 69
61 94 73
60 92 72
58 89 70
60 92 72
60 92 73
62 94 74
61 94 74
60 92 72
60 92 72
58 89 70
62 94 74
61 92 73
61 93 73
62 95 75
59 91 71
59 90 71
62 94 74
62 94 74
63 96 75
62 94 74
60 92 72
60 92 72
61 93 73
60 92 73
59 91 71
60 91 72
60 91 72
59 89 70
60 92 72
57 86 68
59 88 70
53 79 64
55 81 65
54 81 65
60 90 72
61 92 73
60 91 72
59 90 70
59 90 71
62 95 75
59 90 71
59 91 72
61 93 73
63 96 75
58 89 70
60 91 71
60 92 72
59 91 71
61 94 74
61 93 73
60 92 72
59 91 71
60 92 73
61 93 73
62 94 74
61 93 74
61 93 73
59 90 71
61 93 73
61 93 74
62 94 74
60 91 72
62 95 74
60 92 72
60 91 72
60 92 72
61 94 74
60 92 73
60 91 71
62 94 74
60 92 72
61 93 73
60 91 72
60 92 73
59 91 71
58 88 70
61 93 73
59 90 71
59 91 71
60 91 71
60 92 72
61 93 73
60 91 72
58 88 69
61 92 73
63 96 75
59 90 71
62 94 74
61 93 73
60 92 73
59 90 71
61 93 73
58 89 70
56 86 68
59 90 71
59 91 71
60 92 73
61 93 73
62 92 72
167 123 67
235 150 60
251 159 62
255 164 65
255 166 65
255 167 66
255 168 66
255 168 66
255 168 67
255 168 67
255 168 67
255 168 67
255 167 66
255 167 66
255 166 66
255 165 65
255 163 65
253 161 64
252 160 64
247 158 63
244 156 62
239 153 61
232 148 59
215 138 55
176 121 57
72 94 72
60 92 72
60 92 72
59 90 71
60 91 72
59 91 71
59 90 71
62 95 75
60 92 72
61 93 73
59 90 71
56 85 67
58 88 70
58 88 70
58 89 70
59 90 70
58 89 70
61 92 73
58 89 70
58 89 70
60 92 72
58 89 70
59 91 71
60 92 73
59 91 71
59 91 71
58 89 70
59 90 71
59 91 72
59 90 71
62 95 75
59 90 71
61 93 73
60 92 72
59 90 71
57 88 69
60 91 72
60 92 72
58 89 70
62 94 74
61 93 74
58 88 69
60 92 72
59 90 71
59 91 71
58 89 70
61 94 74
59 89 70
59 90 71
59 90 71
60 92 72
60 91 72
60 92 72
59 91 72
60 91 72
59 90 71
59 90 71
59 90 71
58 89 70
59 90 71
60 91 72
61 94 74
59 90 71
60 91 72
60 92 72
60 92 72
61 93 73
59 90 71
59 91 72
58 89 70
57 88 69
59 90 71
60 93 73
61 93 73
57 87 69
59 91 71
58 89 70
60 92 72
62 94 74
60 92 73
58 89 70
61 94 74
58 88 70
58 89 70
59 90 71
58 89 70
59 91 72
57 88 69
59 90 71
59 90 71
61 94 74
58 89 70
62 95 75
59 90 71
59 90 71
57 88 69
59 90 71
57 88 69
58 89 70
58 88 70
59 90 71
58 89 70
60 93 73
57 87 69
58 89 70
59 90 71
58 89 70
58 88 70
59 90 71
58 89 70
59 90 71
58 89 70
56 86 68
59 91 72
58 89 70
59 91 72
57 87 69
57 88 69
60 92 72
59 90 71
60 91 72
60 92 73
61 93 74
60 91 72
55 84 66
58 89 70
59 90 71
58 90 71
58 89 70
58 89 70
59 91 72
59 90 71
59 90 71
58 89 70
59 90 71
57 88 70
59 90 71
58 88 70
59 91 71
60 92 73
59 90 71
58 89 70
60 91 72
59 90 71
58 89 70
60 92 73
60 92 73
58 89 71
61 93 73
60 92 73
57 87 68
57 88 70
62 94 74
60 92 72
57 88 70
57 88 69
59 90 71
58 89 71
57 88 69
59 90 71
60 92 72
58 89 70
57 87 69
59 91 72
61 94 74
61 94 74
57 87 69
58 89 71
59 90 71
58 89 71
58 89 70
57 88 70
60 91 72
61 93 74
57 88 69
58 90 71
58 89 70
58 88 70
56 86 68
56 86 68
58 89 70
58 89 70
58 89 70
60 92 73
59 91 72
60 92 73
57 87 68
61 93 73
63 96 75
61 93 74
61 92 73
59 90 71
60 92 73
59 91 72
60 92 72
61 93 73
59 90 71
62 95 75
63 96 76
59 91 72
62 95 75
61 93 74
60 92 72
60 92 73
61 93 73
61 93 73
61 93 73
61 93 73
61 93 73
59 90 71
61 93 73
60 92 72
60 92 72
60 91 72
59 90 71
63 96 76
61 93 73
59 91 71
62 95 75
60 91 72
61 93 73
63 96 75
60 92 72
62 95 75
62 95 74
62 95 74
61 94 74
59 90 71
60 92 72
59 90 71
60 92 73
58 89 70
60 92 73
60 92 72
59 90 71
60 91 72
58 88 70
58 89 70
59 90 71
60 92 72
60 92 72
59 91 71
63 96 76
60 92 72
58 89 70
59 91 72
59 90 71
60 91 72
59 90 71
59 90 71
60 92 72
59 90 71
60 92 72
60 91 71
60 91 72
60 92 72
63 95 75
56 86 68
58 89 70
58 89 70
61 93 73
60 91 71
61 93 73
60 92 73
60 91 71
62 94 74
61 93 73
59 90 70
61 93 73
60 91 72
61 93 73
60 92 72
61 93 73
60 91 72
64 97 76
61 93 73
60 91 72
63 97 76
58 89 70
60 92 72
59 90 71
59 90 71
59 91 71
63 96 76
61 93 73
59 91 71
61 93 73
59 89 70
58 89 70
59 90 71
61 93 73
60 92 72
59 91 71
61 93 73
60 91 72
59 90 70
61 94 74
61 94 74
59 90 71
60 92 73
63 96 75
59 90 71
58 87 69
48 69 58
42 53 50
39 45 46
38 42 45
38 42 45
37 40 44
37 41 44
37 40 43
38 43 45
43 56 51
48 68 57
56 84 67
60 91 71
61 93 73
62 94 74
61 94 74
61 93 73
63 95 75
62 94 74
58 89 70
59 90 71
62 94 74
61 93 73
61 94 74
60 92 72
61 93 73
59 90 71
60 92 72
59 90 71
61 93 73
61 93 73
58 89 70
59 90 70
59 91 71
60 91 72
58 88 69
61 92 73
61 94 74
61 92 72
61 92 73
60 92 72
60 92 72
61 92 73
60 92 73
59 89 70
59 90 71
61 93 73
60 92 72
57 87 69
59 90 71
58 88 69
57 88 69
58 89 70
58 89 70
61 93 73
60 91 72
58 88 69
59 90 71
59 91 71
58 89 70
62 94 74
58 89 70
59 91 72
61 93 73
61 94 74
58 89 70
57 88 69
61 93 73
62 95 74
63 95 75
58 89 70
136 110 67
229 146 59
251 159 62
255 163 64
255 166 65
255 168 66
255 168 66
255 169 67
255 169 67
255 170 67
255 170 67
255 169 67
255 169 67
255 168 67
255 168 66
255 167 66
255 165 65
255 163 65
255 162 64
253 161 64
250 159 63
247 157 62
241 154 61
235 150 60
225 144 57
207 134 54
150 111 60
65 90 69
59 90 71
59 90 71
61 93 73
62 94 74
59 90 71
61 94 74
60 92 72
60 91 72
60 92 73
59 90 71
60 91 72
59 90 71
61 93 74
60 92 72
59 89 70
61 92 73
58 89 70
58 88 69
58 89 70
59 91 72
59 91 72
61 94 74
60 92 73
60 92 72
60 92 72
57 87 68
59 91 71
59 91 71
60 91 72
60 91 71
58 88 69
58 88 69
61 94 74
59 91 71
61 93 73
59 90 71
62 95 75
59 91 71
61 93 73
61 92 73
61 93 73
60 92 72
60 92 72
57 88 69
57 88 69
61 93 73
58 89 71
60 92 73
60 91 72
60 91 72
60 91 72
60 91 72
58 89 70
58 89 71
59 91 71
60 91 72
59 89 70
57 87 69
57 88 69
59 91 72
60 92 72
60 91 72
59 90 71
58 89 70
60 92 72
59 90 71
60 91 72
58 88 70
58 89 70
62 94 74
61 93 73
60 92 72
59 90 71
62 95 75
58 89 70
59 90 71
58 89 70
56 86 68
59 90 71
59 90 71
58 88 69
61 93 73
59 90 71
59 90 71
58 89 71
59 90 71
59 90 71
61 94 74
58 89 70
57 86 68
59 90 71
59 90 71
59 90 71
57 88 70
60 92 72
58 88 70
59 90 71
59 90 71
59 90 71
58 89 70
60 92 72
59 91 71
58 88 70
59 90 71
60 92 73
60 92 72
61 93 73
59 91 72
59 91 72
59 90 71
60 91 72
58 89 71
58 89 70
58 89 70
57 87 69
60 92 72
57 88 69
58 89 70
60 92 73
61 94 74
59 90 71
58 89 70
58 89 70
58 89 70
56 86 68
60 91 72
59 90 71
60 92 73
59 91 72
60 91 72
60 91 72
58 89 70
57 87 69
59 90 71
59 90 71
60 92 73
59 90 71
57 88 69
58 89 70
60 92 73
59 90 71
60 92 73
57 87 69
56 86 68
55 85 67
59 91 71
58 88 69
60 92 73
58 89 70
59 90 71
58 90 71
58 89 70
58 89 70
61 93 74
61 93 74
59 90 71
57 87 69
59 90 71
57 88 69
57 88 70
57 87 69
57 87 69
54 83 66
55 85 67
59 91 72
57 88 70
54 84 66
58 89 70
59 91 72
56 86 68
59 90 71
58 89 70
58 89 70
59 91 72
59 90 71
59 91 71
57 87 69
58 88 70
57 87 69
59 90 71
59 91 72
59 90 71
61 93 73
60 91 72
60 92 72
60 92 72
62 94 74
59 90 71
60 92 72
59 90 71
62 94 74
58 88 70
60 91 71
60 92 72
60 92 72
61 92 73
62 95 75
61 92 73
59 91 72
61 93 73
59 91 71
60 92 72
59 91 71
60 92 72
60 92 72
61 94 74
61 93 73
60 93 73
61 93 73
59 90 71
60 92 72
60 92 72
60 92 72
60 92 73
59 90 71
59 91 71
60 92 73
59 90 71
60 92 72
60 91 72
59 90 71
61 94 74
61 93 73
61 93 73
61 94 74
60 91 72
60 91 72
62 95 74
58 89 70
59 90 71
63 96 75
61 94 74
59 90 71
60 92 73
63 96 75
60 92 73
59 90 71
60 91 72
60 91 72
59 90 71
62 94 74
60 91 72
58 89 70
60 91 72
58 89 70
59 90 71
61 93 73
62 94 74
61 93 73
62 94 74
59 90 71
61 93 73
59 91 71
58 88 69
61 93 73
59 91 71
59 91 71
62 95 74
63 96 75
61 93 73
63 96 75
59 90 71
58 89 70
62 95 74
60 92 72
59 91 72
59 90 71
61 93 73
62 94 74
62 94 74
61 93 73
59 91 71
60 91 72
59 90 71
60 91 72
63 97 76
61 94 74
60 92 72
61 93 73
60 92 72
59 90 71
59 90 71
59 90 71
59 89 70
59 90 71
58 88 69
57 88 69
60 91 72
59 90 71
60 91 72
62 95 75
59 90 71
61 93 73
62 95 75
61 94 74
60 92 72
58 89 70
59 90 71
53 78 63
45 59 53
40 46 47
38 41 45
38 41 45
38 41 45
38 41 45
38 41 45
38 41 45
38 41 45
38 41 45
38 40 44
37 40 44
37 39 43
37 42 44
43 57 51
54 81 65
61 93 73
61 92 73
60 91 71
58 89 70
62 94 74
59 91 71
59 90 71
60 91 72
60 91 72
59 90 71
60 92 72
60 92 73
61 93 73
60 91 72
57 87 69
59 89 70
60 92 72
59 91 72
59 90 71
58 89 70
60 91 71
62 95 74
62 94 74
61 93 73
62 94 74
62 95 74
60 91 72
61 94 74
62 95 74
60 92 72
58 89 70
59 89 70
61 93 73
59 89 70
58 89 70
61 93 73
61 93 73
61 93 73
60 92 72
60 92 73
60 91 72
58 89 70
61 94 74
61 94 74
60 92 72
58 88 69
59 91 71
61 93 73
61 93 73
60 91 72
60 92 72
59 90 71
60 91 71
59 90 71
60 91 72
59 91 71
85 96 71
214 138 58
244 154 60
251 159 62
255 164 64
255 167 66
255 169 66
255 170 67
255 170 67
255 170 67
255 170 67
255 170 67
255 170 67
255 170 67
255 169 67
255 168 67
255 167 66
255 165 65
255 165 65
255 162 64
255 162 64
250 159 63
249 158 63
245 155 62
239 152 60
230 147 58
217 139 56
193 126 51
106 98 66
58 88 69
59 90 71
59 89 70
58 88 69
61 94 74
60 92 72
60 91 72
60 92 72
59 90 71
59 91 72
59 91 71
59 91 72
60 91 72
59 90 71
59 91 71
62 94 74
60 91 72
58 88 69
58 89 70
59 91 72
62 94 74
58 88 69
60 91 72
60 92 72
58 89 70
60 92 72
57 88 69
59 90 71
60 91 72
59 90 71
59 90 71
60 92 72
61 93 73
60 91 72
59 90 71
60 92 73
62 95 74
60 92 72
60 92 72
59 90 71
60 92 72
61 93 73
59 90 71
59 91 71
58 89 70
62 94 74
60 92 72
59 90 71
59 90 71
58 89 71
58 89 70
59 90 71
60 92 73
60 91 72
58 89 70
59 90 71
59 90 71
58 89 71
58 89 70
58 89 70
59 91 72
58 89 70
60 91 72
60 92 73
58 89 70
58 88 70
59 91 71
58 89 70
60 92 72
62 95 75
60 92 72
59 90 71
61 93 74
60 92 72
59 90 71
58 88 69
60 92 73
59 90 71
60 92 72
59 90 71
57 87 69
59 90 71
57 87 69
58 88 70
59 89 70
57 88 69
61 94 74
60 91 72
60 92 73
59 91 72
61 94 74
60 92 72
61 94 74
59 91 72
57 88 69
59 90 71
59 90 71
60 92 73
59 90 71
56 86 68
57 87 68
58 89 70
57 87 69
59 91 72
61 93 73
59 90 71
60 92 73
58 88 69
59 91 72
61 93 73
58 89 70
60 93 73
59 90 71
58 89 70
59 90 71
60 92 73
58 90 71
59 90 71
59 91 71
62 95 75
59 91 71
57 87 69
58 89 71
59 90 71
55 85 67
59 90 72
57 88 70
58 89 70
59 91 72
59 90 71
59 90 71
60 92 73
56 86 68
59 90 71
61 93 74
56 86 68
59 91 72
58 89 70
57 88 69
60 92 73
58 88 70
60 92 73
58 89 70
59 90 71
57 87 68
59 90 71
59 90 71
58 88 70
56 86 68
57 88 69
60 92 73
59 90 71
59 90 71
56 86 68
57 88 69
57 87 69
60 91 72
59 91 72
59 91 72
58 89 71
59 91 72
60 92 73
59 91 72
60 92 73
59 90 71
59 90 71
56 86 68
57 87 69
58 89 70
60 92 72
59 90 71
58 90 71
59 90 71
59 90 71
59 91 72
57 87 69
58 89 70
61 93 73
61 93 74
58 90 71
59 90 71
60 92 73
60 91 72
58 88 70
60 92 72
60 91 72
60 92 72
60 92 73
59 91 71
60 91 72
60 91 72
60 91 72
58 89 70
58 89 70
62 95 74
63 96 75
60 92 72
58 88 69
59 91 71
61 93 73
59 90 71
59 90 71
58 89 70
59 89 70
59 89 70
62 94 74
60 91 72
58 89 70
60 91 72
60 92 72
59 90 71
58 89 70
62 95 75
62 95 74
62 95 75
61 94 73
59 90 71
61 93 73
61 93 73
60 92 72
59 90 71
62 95 75
63 96 75
60 91 71
62 94 74
59 91 71
60 91 72
57 88 69
58 89 70
59 90 71
60 91 72
62 94 74
60 91 72
61 92 73
63 97 76
60 91 72
61 92 72
60 92 72
59 91 71
63 96 76
63 96 75
59 90 71
60 91 72
59 91 71
61 93 74
61 93 73
59 91 71
60 92 72
62 94 74
58 89 70
61 93 73
61 93 73
59 90 71
62 94 74
59 90 71
60 92 72
60 92 72
58 89 70
61 93 73
60 91 71
60 92 72
58 89 70
58 89 70
58 89 70
60 92 72
59 90 71
58 89 70
61 94 74
58 89 70
60 92 72
61 92 72
59 91 71
61 93 73
63 97 76
62 95 75
61 92 73
61 93 73
61 93 73
61 93 73
61 93 73
60 92 73
62 95 75
60 91 72
58 88 70
60 92 72
58 89 70
61 92 72
60 92 72
60 92 73
60 92 72
59 89 70
60 91 72
59 90 71
60 91 72
59 90 70
61 92 73
58 87 69
46 64 55
39 45 46
38 41 45
39 41 45
39 42 46
39 42 46
39 42 46
39 42 46
39 42 46
39 42 46
39 42 46
38 41 45
38 41 45
38 41 45
38 40 44
37 40 44
36 39 43
36 42 43
47 66 56
58 88 70
61 93 73
61 94 74
60 92 72
60 91 72
59 91 71
59 90 71
61 93 73
61 93 73
60 92 73
59 90 71
60 92 72
59 90 70
58 89 70
62 95 75
61 93 73
60 92 72
60 92 72
61 93 73
60 91 72
62 94 74
61 93 73
63 96 75
61 93 73
62 95 74
62 94 74
61 94 74
60 92 72
61 93 73
62 95 74
62 94 74
58 89 70
59 90 71
62 94 74
61 92 72
61 94 74
60 91 72
60 91 72
59 91 71
61 94 73
60 92 72
59 91 71
60 91 72
60 91 72
60 92 72
59 90 70
61 93 73
60 91 72
58 89 70
60 91 72
58 89 70
61 93 73
61 93 73
62 94 74
62 92 72
163 118 63
235 148 58
247 155 61
255 162 63
255 165 65
255 168 66
255 169 66
255 170 67
255 171 67
255 171 67
255 171 67
255 171 67
255 171 67
255 170 67
255 169 67
255 168 66
255 167 66
255 165 65
255 165 65
255 164 65
255 163 64
252 159 63
250 159 63
246 156 62
239 152 60
230 146 58
222 142 57
205 132 52
162 114 56
74 96 73
60 92 72
59 90 71
58 89 70
60 92 72
59 90 71
59 90 70
62 94 74
60 92 72
60 92 73
60 92 72
62 94 74
60 91 72
62 95 74
63 96 75
61 93 73
59 89 70
60 92 72
58 89 70
61 93 74
64 98 77
59 90 71
60 92 72
59 91 71
59 90 71
62 94 74
61 94 74
62 95 75
62 94 74
60 93 73
63 95 75
60 91 72
60 91 71
61 93 73
60 92 72
61 93 73
60 92 72
58 89 70
60 92 72
60 91 72
57 87 69
58 89 70
59 90 71
59 90 71
62 95 75
63 96 76
61 93 73
57 88 69
60 91 72
59 90 71
58 89 70
59 90 71
59 91 71
58 88 70
59 90 71
59 90 71
59 90 71
61 93 73
58 88 70
58 88 69
57 88 69
57 87 69
59 91 71
60 92 72
60 92 72
59 90 71
59 90 71
57 87 69
60 92 73
58 90 71
60 91 71
61 93 73
61 93 74
62 95 74
58 89 70
59 91 72
60 91 72
57 88 69
57 88 69
60 91 72
60 92 73
60 92 73
60 91 72
58 88 70
61 93 73
59 90 71
59 90 71
58 89 70
60 92 73
59 89 70
57 88 69
58 89 70
60 92 72
61 93 73
60 92 73
62 94 74
57 87 69
59 90 71
57 87 69
58 90 71
59 91 72
57 87 69
59 90 71
57 87 69
58 89 70
58 89 70
58 90 71
58 88 70
59 91 71
60 92 72
59 90 71
59 90 70
58 89 70
59 90 71
59 90 71
58 89 70
58 89 70
57 87 68
60 92 73
61 94 74
59 91 71
59 89 70
58 89 70
60 91 72
59 90 71
59 91 72
58 88 69
56 86 68
61 93 74
60 92 72
61 94 74
59 90 71
59 91 72
61 93 73
58 89 70
59 91 72
59 90 71
59 90 71
58 89 70
59 91 72
57 88 69
58 89 70
59 91 72
58 89 70
58 89 70
61 93 73
61 93 73
60 93 73
58 88 70
59 90 71
59 91 72
57 88 69
59 91 72
58 90 71
58 88 70
59 90 71
60 92 73
59 91 72
59 90 71
59 90 71
60 91 72
58 88 70
58 89 71
61 93 74
61 93 73
60 93 73
59 91 72
56 86 68
60 93 73
60 92 72
59 91 72
59 91 72
57 88 70
58 89 70
59 90 71
58 89 70
57 87 69
59 90 72
58 89 70
60 92 73
58 89 70
60 92 72
58 89 70
60 92 73
61 93 73
62 94 74
60 92 72
59 91 71
60 92 72
61 93 73
60 91 72
59 90 71
61 94 74
62 94 74
60 92 72
60 92 72
60 92 72
61 93 74
61 93 73
59 90 70
60 92 72
61 94 74
61 94 74
61 93 73
60 92 72
61 93 73
59 90 71
60 91 72
58 89 70
61 93 73
58 88 69
62 95 74
61 93 73
60 92 72
60 92 72
61 94 74
62 94 74
63 96 75
64 97 77
63 96 76
60 92 72
59 90 71
60 91 72
61 94 73
60 92 72
64 97 77
59 91 71
61 93 73
60 91 71
59 90 71
64 97 76
62 95 74
62 95 74
60 92 73
60 91 72
58 89 70
59 91 71
58 89 70
59 90 71
61 93 74
62 94 74
60 92 72
61 94 74
62 94 74
60 91 72
60 92 72
63 96 75
62 95 75
63 96 75
60 92 72
61 93 73
61 93 73
61 93 73
63 96 76
59 90 71
61 93 73
59 89 70
58 88 69
58 89 70
62 94 74
63 96 76
61 93 73
60 92 72
61 93 74
61 94 74
61 92 73
62 95 74
60 91 72
61 93 73
60 92 72
61 93 74
60 91 71
61 93 73
63 96 75
59 91 71
61 93 73
60 92 72
58 89 70
59 90 71
60 91 71
61 92 73
60 92 72
60 91 72
59 90 70
62 95 74
59 90 71
59 90 71
61 93 73
63 96 76
61 94 74
61 93 73
61 93 74
60 91 72
60 92 72
62 95 74
57 85 68
41 51 48
38 40 44
39 41 45
39 42 46
39 42 46
39 42 46
40 42 46
40 42 46
40 42 46
40 42 46
39 42 46
39 42 46
39 42 46
39 42 46
39 41 45
38 41 45
38 41 45
37 40 44
36 39 43
35 38 41
39 50 47
55 82 66
59 91 71
62 94 74
60 91 72
63 95 75
62 95 75
60 92 72
60 93 73
59 90 71
62 95 74
62 95 74
60 92 72
59 91 71
60 92 72
60 92 73
61 94 74
62 94 73
58 88 69
59 91 71
61 92 72
61 92 72
58 88 69
60 92 72
61 93 73
60 92 72
62 94 74
61 93 73
60 92 72
60 92 72
59 89 70
59 90 71
61 92 72
62 95 75
62 95 75
61 93 73
59 91 71
58 89 70
58 88 69
57 87 69
59 90 71
60 91 72
58 88 69
59 90 71
60 91 72
60 92 72
57 88 69
60 92 72
60 91 72
60 92 72
59 91 71
61 94 73
60 92 72
61 93 74
91 98 71
208 134 55
236 149 58
248 156 61
254 160 62
255 164 64
255 166 65
255 170 66
255 170 67
255 171 67
255 171 67
255 172 68
255 172 69
255 173 70
255 173 70
255 171 68
255 168 66
255 167 66
255 166 65
255 165 65
255 164 65
255 162 64
254 160 63
251 158 62
246 155 61
241 152 60
231 146 58
219 140 55
208 134 53
187 122 50
105 97 63
61 93 73
58 88 70
59 89 70
58 89 70
59 90 71
61 93 73
58 89 70
59 90 70
58 88 69
60 91 72
60 92 72
60 92 72
63 96 75
60 91 72
59 90 71
60 92 72
60 92 73
59 89 70
60 91 72
60 92 72
58 89 70
59 91 72
62 94 74
60 91 71
59 90 71
60 91 72
59 90 71
61 93 73
58 88 69
60 91 72
57 88 69
60 91 72
60 92 73
63 96 76
62 94 74
61 93 73
61 93 73
60 92 73
60 91 72
57 87 68
59 90 71
59 91 71
59 91 71
58 89 70
59 90 71
59 91 72
59 90 71
58 89 70
58 88 69
57 88 69
59 91 71
59 90 71
59 90 71
60 91 72
61 93 73
58 88 69
59 90 71
59 91 72
58 89 70
57 87 69
59 90 71
59 90 71
59 90 71
60 91 72
58 89 70
59 90 71
59 91 71
59 90 71
58 89 70
58 88 70
59 89 70
59 90 71
61 93 73
59 91 72
60 92 72
60 91 72
60 92 72
59 90 71
62 94 74
59 90 71
61 93 73
59 90 71
62 95 75
60 92 73
58 88 69
58 89 70
60 91 72
61 93 74
60 91 72
60 91 72
60 92 73
60 92 73
61 93 73
59 90 71
59 90 71
58 89 70
58 89 70
56 85 67
60 91 72
58 89 70
60 92 72
59 91 72
59 91 71
61 93 73
59 91 71
62 95 74
59 90 71
57 87 69
59 91 72
57 87 69
58 89 70
62 94 74
60 92 73
61 93 73
56 85 67
59 90 71
58 89 70
57 88 69
60 92 73
59 91 71
60 91 72
58 89 70
62 94 74
59 91 72
60 91 72
58 88 70
59 90 71
59 91 72
58 89 71
58 89 70
59 90 71
58 89 70
57 88 69
56 86 68
58 89 70
58 88 69
61 93 73
58 89 70
59 91 72
59 90 71
59 91 72
58 89 70
57 88 69
60 91 72
60 92 73
58 89 70
59 91 72
58 89 70
59 91 72
58 89 70
61 94 74
58 89 70
57 88 69
57 87 69
59 91 72
58 90 71
58 88 70
57 87 69
57 87 69
61 94 74
58 90 71
57 87 69
62 95 75
61 94 74
60 92 73
59 90 71
57 87 69
58 89 70
59 91 72
59 90 71
57 88 69
57 88 69
59 90 71
58 89 70
58 89 70
61 93 73
59 90 71
59 90 71
56 86 68
59 90 71
58 89 70
61 93 73
59 90 70
59 91 71
61 93 74
59 91 71
60 91 72
61 93 73
61 92 73
62 95 74
61 94 74
60 91 72
61 94 74
61 93 73
60 92 72
60 92 72
62 95 75
63 95 75
61 94 74
63 96 75
59 90 71
60 91 71
61 93 73
61 93 73
60 91 72
62 95 75
62 95 75
61 94 74
60 92 72
62 95 75
61 93 73
62 95 74
59 90 71
60 92 72
60 91 71
62 94 74
61 94 74
60 92 72
61 92 73
61 93 73
61 92 72
59 90 70
60 91 71
61 94 74
60 92 72
62 94 74
61 93 73
59 91 71
61 93 73
60 91 71
62 95 75
62 95 74
59 90 71
60 92 73
59 90 71
56 86 68
58 89 70
59 89 70
59 90 71
60 91 72
62 94 74
60 92 72
61 94 74
58 89 70
59 90 71
60 92 72
63 96 75
63 97 76
61 94 73
59 90 71
61 93 73
62 94 74
61 92 73
58 89 70
59 90 71
60 91 71
60 92 72
61 92 73
60 92 72
60 92 72
61 93 73
62 94 74
58 89 70
61 93 73
60 92 72
61 93 73
61 92 73
62 95 74
61 94 74
59 90 71
60 91 72
62 95 74
60 92 72
59 91 71
59 90 71
59 90 71
61 92 73
61 92 72
60 91 71
57 88 69
58 89 70
62 94 74
61 93 73
62 94 74
59 90 71
60 92 72
62 94 74
60 92 72
60 92 72
60 92 73
59 90 71
59 90 70
60 92 72
56 83 67
41 52 48
38 40 44
39 42 45
39 42 46
40 42 46
40 43 46
40 43 47
40 43 47
40 43 47
40 43 47
40 43 47
40 43 47
40 43 47
40 42 46
39 42 46
39 42 46
39 41 45
38 41 45
38 41 44
37 40 44
36 39 43
35 38 41
36 44 42
54 81 65
61 92 72
59 90 71
58 89 70
63 97 76
63 96 76
62 94 74
62 95 75
62 94 74
63 96 75
59 90 70
59 89 70
58 88 69
59 91 71
61 93 73
59 89 70
59 90 71
60 92 72
61 92 73
63 96 75
59 90 70
60 92 72
61 93 73
60 91 72
60 92 73
61 93 73
61 93 73
63 96 75
61 93 73
59 91 71
60 92 72
64 97 76
59 90 71
61 92 73
59 90 70
59 91 71
58 88 69
59 90 71
64 97 76
62 94 73
60 91 71
61 93 73
60 91 72
59 89 70
60 92 72
60 92 72
58 89 70
62 95 74
57 88 69
60 91 72
61 93 73
60 91 72
142 111 66
223 141 55
243 152 59
248 155 60
253 159 62
255 163 63
255 165 64
255 169 66
255 170 66
255 171 67
255 172 68
255 174 71
255 180 81
255 186 91
255 185 91
255 176 77
255 169 68
255 167 66
255 167 66
255 164 64
255 163 64
255 162 63
254 160 63
251 157 62
244 154 60
241 151 60
230 144 57
221 140 55
211 134 53
192 124 49
146 106 54
60 90 70
56 86 68
59 90 71
60 92 72
60 92 72
61 93 73
61 93 73
60 91 72
61 92 72
61 93 73
61 92 72
60 92 72
61 93 73
60 91 71
58 88 69
60 91 72
58 89 70
57 88 69
59 90 71
58 89 70
58 89 70
59 90 70
59 90 71
58 89 70
59 90 70
60 92 72
63 96 75
60 92 72
58 88 69
58 88 70
58 89 70
61 93 73
60 91 72
61 93 73
62 95 75
62 94 74
60 92 72
60 92 73
59 90 71
58 89 70
61 93 73
62 94 74
60 92 72
60 91 72
57 87 68
62 95 74
58 89 70
60 91 72
61 93 73
59 90 71
59 90 71
58 89 70
59 89 70
58 89 70
59 90 71
58 88 70
60 92 72
58 89 71
60 91 72
59 90 71
57 87 69
61 93 73
62 94 74
60 91 72
58 89 70
58 88 69
61 92 72
59 90 71
60 92 72
59 90 71
58 89 71
60 92 72
60 92 72
61 93 73
59 90 71
61 93 73
59 90 71
60 91 71
60 91 72
59 89 70
58 89 70
62 94 74
61 93 73
57 88 69
59 90 71
59 90 71
59 90 71
60 92 73
60 91 72
58 89 70
58 89 70
60 91 72
61 93 74
57 87 69
61 94 74
61 93 73
60 92 73
57 87 69
59 90 71
57 88 69
59 91 71
57 87 69
60 92 72
58 89 70
58 89 70
62 95 75
63 97 76
58 89 71
57 88 69
59 90 71
58 89 70
58 89 70
59 90 71
59 91 72
57 88 69
60 91 72
59 90 71
61 93 73
61 92 73
58 88 69
60 92 72
59 90 71
58 89 70
58 89 70
58 89 70
57 88 69
57 87 69
60 92 72
60 92 73
58 89 70
60 92 72
61 93 74
61 94 74
56 86 68
59 90 71
58 88 69
58 89 70
57 88 69
58 89 70
57 87 69
59 90 71
60 92 73
61 93 73
61 94 74
59 90 71
58 88 70
59 90 71
58 89 70
59 91 72
58 88 70
59 90 71
61 94 74
58 89 70
60 92 73
58 89 70
57 88 69
59 90 71
59 90 71
60 91 72
58 89 70
56 86 68
56 86 68
60 91 72
60 92 73
60 93 73
59 91 72
58 88 70
58 89 70
58 89 71
60 92 73
58 89 70
58 89 70
57 88 69
58 89 70
57 88 69
60 92 72
60 91 72
60 92 72
59 91 72
60 92 72
59 91 72
60 92 72
63 95 75
65 98 77
59 91 71
61 93 73
59 91 71
61 94 74
62 95 75
60 92 72
60 91 72
59 90 71
60 91 72
61 93 73
60 92 72
60 92 72
61 93 73
60 92 72
61 93 73
60 91 72
61 93 73
62 94 74
62 94 74
59 90 71
57 87 68
61 93 73
61 94 74
60 92 72
61 93 73
58 89 70
59 90 71
59 91 71
60 92 72
60 92 72
60 91 72
60 92 72
60 91 72
61 92 73
62 95 74
60 91 72
59 90 71
59 90 71
61 93 73
61 93 73
61 93 73
58 89 70
60 92 72
60 92 73
60 92 73
61 93 73
61 94 73
61 92 72
62 95 74
60 92 72
60 92 72
60 92 72
61 92 73
60 92 72
59 90 71
60 92 73
61 93 73
59 90 71
62 94 74
59 90 71
60 91 72
60 92 72
60 92 72
62 94 74
62 95 74
60 92 72
59 90 71
62 94 74
61 93 74
60 91 72
62 94 74
60 92 72
61 93 73
60 92 72
60 91 72
61 93 73
61 93 73
61 93 74
61 93 73
61 93 73
59 91 72
63 96 75
59 90 71
61 93 73
63 96 75
59 90 71
61 93 73
61 92 72
61 93 73
60 92 72
60 92 72
62 94 73
60 91 72
58 89 70
57 87 69
59 90 71
61 93 73
58 89 70
60 92 72
60 91 71
61 93 73
59 90 71
59 90 70
55 84 66
61 93 73
59 91 71
60 91 72
60 91 72
56 85 67
40 51 48
38 40 43
39 41 45
40 42 46
40 42 46
40 43 47
40 43 47
40 43 47
40 43 47
40 43 47
40 43 47
40 43 47
40 43 47
40 43 47
40 43 47
40 42 46
39 42 46
39 42 46
39 41 45
38 41 44
38 40 44
37 40 43
36 39 42
35 37 40
37 46 43
55 82 65
58 88 69
61 93 73
60 92 72
61 93 73
62 94 74
59 90 71
60 91 71
60 91 72
61 93 73
60 92 72
59 90 71
59 90 71
58 89 70
62 95 74
63 96 75
60 91 72
59 91 72
60 92 72
62 94 74
58 88 69
59 90 71
61 92 73
61 93 73
61 92 72
60 91 71
59 90 71
61 92 72
59 91 71
62 94 74
62 94 74
60 92 72
60 92 73
61 92 73
62 94 74
61 93 73
59 90 71
60 91 71
61 93 73
62 95 75
61 93 74
61 93 73
60 91 72
61 92 73
60 91 71
58 88 69
58 89 70
58 89 70
59 90 71
60 91 71
77 95 72
182 126 61
226 142 55
239 150 58
243 152 59
255 159 62
255 163 63
255 164 64
255 166 65
255 168 66
255 169 66
255 171 68
255 179 81
255 199 109
255 218 133
255 213 126
255 189 97
255 172 73
255 168 66
255 165 64
255 165 64
255 163 64
255 161 63
251 157 61
247 154 60
242 151 59
238 149 58
229 144 56
221 139 54
207 131 51
197 126 50
163 109 46
75 89 66
56 86 67
59 91 71
61 93 73
59 90 71
59 89 70
61 92 72
60 91 72
61 93 73
58 89 70
61 93 73
61 93 73
60 91 71
59 89 70
59 91 71
60 91 71
62 94 74
60 91 72
62 94 74
59 89 70
59 91 71
61 93 73
60 91 71
60 92 72
58 88 70
62 95 74
60 92 72
59 90 71
59 90 71
58 89 70
59 90 71
60 92 73
61 93 73
61 93 73
58 88 69
58 89 70
58 89 70
59 90 71
60 92 72
59 91 71
63 96 75
60 91 71
60 91 72
60 91 72
60 92 72
60 92 72
61 93 73
62 94 74
60 91 72
60 91 72
56 86 68
62 94 74
62 95 75
59 91 72
61 94 74
60 91 71
61 92 73
60 92 72
57 87 69
59 90 71
59 91 71
59 90 70
60 91 72
60 91 72
59 90 71
58 88 69
61 93 73
60 91 72
58 89 70
60 92 73
61 93 73
60 91 72
61 92 72
60 92 72
60 91 72
60 91 72
60 91 72
60 92 73
60 91 72
57 87 69
59 91 71
58 88 69
58 89 70
58 89 70
60 91 72
60 92 73
58 90 71
63 96 76
60 92 72
59 90 70
58 88 69
60 92 73
60 91 72
58 89 70
61 93 73
60 92 73
60 92 73
61 93 73
59 90 71
57 87 68
62 94 74
64 97 77
63 97 77
60 92 72
59 90 71
62 95 75
59 91 71
59 90 71
59 90 71
60 92 72
59 91 72
60 92 73
59 90 71
58 89 70
56 86 68
61 92 72
60 92 72
59 91 72
60 92 73
59 90 71
59 90 71
59 90 71
62 95 75
60 92 72
59 91 72
57 88 69
60 91 72
59 91 72
59 90 71
58 88 70
62 94 74
58 89 70
60 92 72
58 89 70
62 95 75
61 93 74
58 89 70
59 91 72
59 90 71
59 90 71
58 89 70
60 91 72
58 89 71
60 93 73
59 90 71
59 90 71
58 88 70
58 88 70
56 86 68
63 96 76
61 93 73
57 87 69
58 89 70
57 88 69
58 89 71
60 92 72
60 92 73
59 91 72
57 88 69
59 90 71
60 92 73
58 89 71
59 90 71
58 89 70
57 88 69
59 91 72
58 89 71
58 89 70
57 88 69
59 90 71
57 88 69
58 90 71
60 92 72
58 89 70
58 89 71
60 92 72
59 90 71
60 92 73
57 87 69
57 88 70
58 90 71
58 89 70
62 94 74
60 92 72
62 95 75
62 94 74
59 91 71
58 89 70
63 96 76
61 93 73
62 95 75
58 89 70
59 90 71
58 88 69
57 88 69
61 93 73
61 93 73
60 91 72
62 94 74
60 92 72
60 92 72
60 91 72
60 91 72
59 90 71
60 91 72
60 91 72
57 87 68
59 90 71
59 90 71
58 88 69
59 90 71
60 92 72
63 96 75
61 93 73
60 92 72
60 92 72
59 90 71
60 92 72
62 94 74
60 92 72
60 92 73
59 89 70
60 92 72
62 94 74
57 87 68
59 90 71
62 95 75
60 91 72
62 95 74
60 91 72
59 91 71
60 92 72
61 94 74
60 91 71
60 92 72
60 92 72
59 90 70
61 92 72
61 93 73
62 94 74
58 89 70
59 90 71
59 90 71
62 94 74
62 95 75
60 92 72
60 92 72
60 92 72
61 92 73
60 91 72
61 93 73
60 92 72
61 93 73
62 94 74
61 93 73
60 91 71
59 91 71
59 89 70
60 91 72
59 90 71
61 92 72
61 93 73
62 94 74
62 95 74
61 93 73
60 92 72
60 91 72
62 94 74
62 94 74
61 92 73
61 93 73
61 93 73
62 95 74
60 91 72
60 91 72
60 92 72
59 90 71
58 89 70
59 90 71
61 92 72
61 94 74
61 93 73
59 90 70
60 91 71
60 91 72
62 94 74
59 90 71
60 92 72
63 96 76
59 89 70
60 92 72
60 90 71
44 60 53
37 39 43
38 41 44
39 42 46
40 42 46
40 43 46
40 43 47
41 43 47
41 43 47
41 43 47
41 43 47
41 43 47
40 43 47
40 43 47
40 43 47
40 43 47
40 43 46
40 42 46
39 42 46
39 42 45
39 41 45
38 41 44
38 40 44
37 39 43
35 38 41
34 35 38
39 52 47
59 89 71
59 89 70
57 88 69
58 89 70
60 91 72
61 93 73
60 92 72
56 86 67
59 89 70
59 90 71
62 94 73
60 92 72
60 91 71
60 91 72
62 94 74
60 91 72
59 89 70
60 92 72
62 94 74
60 92 72
63 96 76
63 97 76
62 94 74
61 93 73
61 94 73
63 95 74
60 92 72
58 88 69
59 90 71
60 91 72
58 88 69
59 91 71
60 92 72
59 90 71
62 94 74
61 94 74
61 94 73
58 89 70
61 93 73
61 93 73
60 91 72
62 94 74
62 94 74
59 90 71
58 88 69
58 88 69
60 91 71
59 90 71
60 91 71
83 93 68
193 126 53
222 139 53
236 148 57
245 153 59
253 158 61
255 159 62
255 163 63
255 164 64
255 166 64
255 168 65
255 168 68
255 183 89
255 216 131
255 240 158
255 231 149
255 195 107
255 172 75
255 166 66
255 163 63
255 162 63
255 161 62
254 158 62
251 155 60
248 153 60
244 151 59
236 148 58
229 144 56
222 140 55
206 130 51
196 124 49
163 106 42
98 96 65
61 93 73
59 90 71
60 91 71
60 91 72
59 90 71
60 91 72
59 89 70
59 91 71
59 90 71
61 93 73
58 89 70
59 90 71
57 87 69
61 93 73
59 90 70
61 92 73
57 87 68
60 91 71
58 88 69
61 93 73
59 89 70
59 90 70
61 93 73
58 88 70
57 87 68
59 91 71
61 92 73
61 93 73
60 92 73
61 93 73
58 88 69
57 87 68
58 88 69
60 91 71
61 93 73
60 91 72
59 90 71
63 96 75
61 94 74
60 92 73
61 93 73
59 91 72
61 94 74
60 91 72
60 92 72
59 91 71
61 93 73
58 89 70
59 89 70
59 89 70
59 90 71
60 92 72
58 88 69
58 89 70
61 93 73
64 97 76
61 93 73
62 95 75
60 91 72
57 87 68
58 88 70
60 91 72
58 89 70
60 92 72
61 94 74
61 94 74
58 89 70
59 90 71
59 90 71
62 94 74
60 91 72
63 96 75
58 89 70
60 92 72
62 95 75
59 89 70
61 93 74
60 92 72
58 89 70
61 93 73
58 88 70
60 91 71
59 90 71
62 95 74
60 91 72
60 92 73
58 89 70
60 93 73
59 91 71
59 91 72
59 90 71
58 89 70
59 90 71
60 91 72
60 92 72
61 94 74
62 94 74
59 91 72
57 87 68
60 92 72
59 90 71
59 90 71
59 90 71
56 86 68
58 89 70
57 88 69
59 91 72
57 87 69
59 90 71
59 90 71
59 91 71
60 92 72
57 88 69
59 91 72
60 92 72
58 89 70
59 90 71
58 89 70
58 89 70
58 88 69
59 90 71
58 89 70
57 88 69
58 89 70
58 88 69
61 92 73
58 89 70
59 91 72
58 88 70
59 90 71
59 90 71
58 89 70
60 91 72
59 90 71
61 93 74
58 89 70
58 89 70
59 91 72
60 92 73
59 90 71
57 88 69
59 90 71
61 94 74
60 92 73
59 89 70
57 87 69
58 88 69
58 89 70
56 86 68
59 90 71
59 91 72
60 92 72
59 91 72
58 89 71
57 88 69
59 89 70
58 89 71
59 90 71
60 92 72
59 91 72
59 90 71
59 91 72
58 89 70
59 90 71
60 92 72
60 91 72
59 90 71
61 94 74
59 90 71
58 89 71
57 88 69
60 92 72
59 91 72
59 90 71
59 90 71
58 89 71
59 91 72
61 93 73
60 92 73
59 90 71
60 91 72
57 88 69
61 92 72
61 94 74
61 92 72
62 95 75
61 94 74
62 94 74
60 92 72
59 91 71
59 90 71
59 90 71
58 89 70
58 89 70
59 90 71
60 92 72
62 94 74
60 92 72
61 93 73
61 93 73
58 88 69
60 92 72
63 96 75
60 91 72
59 90 71
61 93 73
63 96 75
60 92 72
58 89 70
64 97 76
63 96 75
63 96 76
59 90 70
61 94 74
62 94 74
61 93 74
60 91 72
62 95 75
60 92 73
58 89 70
59 91 71
62 94 74
60 91 72
57 87 68
59 91 71
62 95 75
61 93 73
58 88 69
61 92 73
57 88 69
60 92 72
60 91 71
60 91 72
61 93 73
59 89 70
60 91 71
59 90 71
59 90 71
60 92 72
59 90 71
62 94 74
64 97 76
61 93 73
63 95 75
61 93 73
59 89 70
61 93 73
58 89 70
60 92 72
62 95 75
61 93 73
61 92 73
60 91 72
62 94 74
59 90 71
61 93 73
59 89 70
59 90 71
58 89 70
58 89 70
61 93 73
61 94 74
63 97 76
60 91 72
62 95 75
60 91 72
61 93 73
64 97 76
62 94 74
58 88 69
61 93 73
63 96 75
59 90 71
59 90 71
62 94 74
60 91 72
60 91 71
59 90 71
58 89 70
63 96 75
64 97 77
61 93 73
63 96 75
61 92 72
59 90 71
61 93 73
60 92 72
58 89 70
60 92 72
60 92 72
53 78 63
36 40 42
37 40 43
39 41 45
40 42 46
40 43 46
41 43 47
41 43 47
41 44 47
41 44 47
41 44 47
41 44 47
41 44 47
41 44 47
41 43 47
41 43 47
40 43 47
40 43 47
40 42 46
39 42 46
39 42 46
39 41 45
38 41 45
38 40 44
37 39 43
36 38 41
35 37 40
32 34 37
45 66 54
59 90 70
59 90 70
62 95 74
58 89 70
61 94 73
61 93 74
59 89 70
60 91 71
58 89 70
63 96 75
63 96 75
58 89 70
58 88 70
60 91 72
60 92 72
59 90 71
60 92 72
61 93 74
59 89 70
62 95 74
61 93 73
58 89 70
59 90 70
60 91 72
61 93 73
63 95 75
59 90 70
61 93 73
60 91 72
60 92 73
60 92 72
60 91 71
60 92 72
63 95 75
62 95 74
62 94 74
59 90 71
62 95 74
62 95 75
61 93 73
58 88 69
60 91 71
57 86 68
62 94 74
59 91 72
59 89 70
59 90 71
59 90 71
110 101 67
207 131 51
220 138 53
229 143 55
239 149 57
244 152 59
252 159 66
254 160 66
255 161 64
255 165 64
255 165 64
255 167 67
255 177 83
255 201 114
255 223 140
255 210 127
255 187 97
255 169 71
255 165 65
255 163 63
255 160 62
254 157 60
252 156 60
247 153 59
238 147 57
238 148 58
228 140 54
226 141 55
215 134 52
201 126 49
187 120 47
165 107 42
103 91 57
61 93 73
61 93 73
61 93 73
61 92 72
60 92 72
58 88 69
60 91 72
59 89 70
60 91 71
60 92 72
59 90 71
62 94 74
61 93 73
62 95 74
61 93 73
60 91 72
58 88 69
62 95 74
59 90 71
60 91 72
58 89 70
58 89 70
58 89 70
57 86 68
58 89 70
62 94 74
58 88 69
59 90 71
60 91 72
59 90 71
58 88 69
58 89 70
61 93 73
60 92 72
60 92 72
62 94 74
62 94 74
58 88 69
59 89 70
59 90 71
59 90 71
57 87 69
59 90 71
60 91 72
58 89 70
59 91 71
58 89 70
58 89 70
57 88 69
58 89 70
63 96 75
61 93 73
60 91 72
61 92 73
61 92 73
59 90 71
60 92 72
60 91 72
60 91 72
60 92 73
61 94 74
61 93 73
59 90 71
59 90 70
62 94 74
61 93 73
61 94 74
59 91 71
61 93 73
60 91 72
60 91 72
62 95 74
59 91 71
61 93 73
59 90 71
58 89 70
61 93 74
61 93 73
61 93 73
60 91 72
60 91 72
61 93 73
60 92 72
61 94 74
59 91 71
61 93 74
58 88 70
58 88 69
61 93 73
61 92 73
62 95 75
60 91 72
58 89 70
61 92 73
59 91 72
63 96 76
61 93 73
59 90 71
58 89 70
60 91 72
59 91 72
59 91 72
60 92 72
59 90 71
59 91 72
59 90 71
56 86 68
58 89 71
60 91 72
58 89 70
59 90 71
59 91 72
57 87 68
59 90 71
59 90 71
58 89 70
55 85 67
59 91 71
58 89 70
62 95 74
58 89 70
57 87 68
60 91 72
60 91 72
60 91 72
56 85 67
58 89 70
60 92 72
59 90 71
62 95 74
61 93 73
58 89 70
58 90 71
59 90 71
58 89 70
57 88 69
57 87 68
58 90 71
58 89 70
60 92 73
59 90 71
59 91 72
59 91 71
59 91 71
58 88 70
59 90 71
58 90 71
60 92 72
61 93 73
60 92 73
61 92 73
56 85 67
58 89 70
58 89 70
60 93 73
59 91 72
57 87 68
55 84 66
57 88 69
59 90 71
60 91 72
57 88 69
59 90 71
60 92 73
59 91 72
59 91 72
59 90 71
59 91 71
58 89 70
60 92 73
59 90 71
61 93 74
58 88 69
56 86 68
60 91 72
60 92 72
60 92 72
58 89 70
58 88 70
59 91 72
61 93 73
61 92 73
60 92 72
62 95 75
61 93 73
62 94 74
60 92 72
59 90 71
64 98 77
64 97 76
63 95 75
61 93 73
60 92 72
60 92 73
60 92 72
61 93 73
62 94 74
61 93 73
59 90 70
61 93 74
60 91 72
61 94 74
63 97 76
60 92 72
61 92 73
60 91 72
63 96 75
59 90 71
60 91 72
62 94 74
61 93 73
61 93 73
60 91 72
60 91 71
59 89 70
59 90 71
60 91 72
59 90 71
62 94 74
61 92 73
62 95 75
60 91 72
60 91 72
61 94 74
60 92 72
60 91 71
57 88 69
59 90 71
58 89 70
60 91 72
61 93 74
61 93 73
58 89 70
61 93 73
60 92 72
60 92 72
62 95 75
60 91 71
60 91 72
63 96 75
60 91 72
60 91 72
59 91 71
61 93 73
62 94 73
60 91 72
62 94 74
62 94 74
59 90 71
61 93 73
62 95 75
63 96 76
61 93 73
61 92 72
61 94 74
60 92 72
61 93 73
63 96 75
60 92 72
60 91 71
60 92 72
59 90 71
63 97 76
61 93 73
62 95 75
61 93 73
61 94 74
62 94 74
63 96 76
60 92 72
58 88 69
61 94 73
63 96 75
61 93 73
63 97 76
62 94 74
60 91 72
61 93 73
61 93 73
62 94 74
60 92 72
59 90 71
60 92 72
60 92 72
61 92 73
60 91 72
59 89 70
58 88 69
59 89 70
57 87 69
38 47 44
36 39 42
38 41 44
39 41 44
40 42 46
40 43 46
41 43 47
41 44 47
41 44 47
41 44 47
41 44 47
41 44 48
42 44 48
42 44 48
42 44 48
41 44 47
41 43 47
40 43 47
40 42 46
39 42 45
39 42 45
39 41 45
39 41 45
38 41 44
37 39 43
36 38 42
35 37 40
33 35 37
31 36 36
55 84 66
62 94 74
63 95 75
61 93 73
62 94 74
62 94 74
60 92 72
58 88 69
61 93 73
60 91 71
61 92 72
61 93 73
60 91 71
59 90 71
61 94 73
59 91 71
62 95 74
60 91 71
60 91 71
60 92 72
60 92 72
60 91 72
60 91 72
62 94 73
60 91 71
61 92 72
61 93 73
59 89 70
59 90 71
58 89 70
60 92 72
62 95 74
60 91 71
60 92 72
61 93 73
61 92 73
60 92 72
59 90 71
58 89 70
60 91 71
63 96 75
59 90 70
58 88 69
61 93 73
59 89 70
60 92 72
62 94 73
59 90 71
121 103 65
201 127 48
216 135 51
230 144 55
239 151 63
235 165 107
218 168 131
204 166 136
227 177 140
251 179 122
255 162 72
255 163 64
255 168 71
255 178 87
255 186 98
255 181 92
255 171 76
255 163 65
255 159 62
255 157 60
253 156 60
253 157 61
247 153 59
243 151 58
241 149 58
234 146 57
227 140 54
216 134 52
209 129 50
197 122 47
185 115 44
165 106 41
116 92 52
59 90 70
61 93 73
63 96 75
61 93 73
61 94 73
60 91 72
60 92 73
62 95 75
60 92 72
59 90 71
60 91 71
62 94 74
60 92 72
59 90 71
61 94 73
59 90 71
59 90 71
58 89 70
60 91 71
61 94 74
61 93 73
60 91 72
59 90 71
63 96 76
61 93 73
59 90 71
60 91 72
61 92 72
61 92 73
62 94 74
60 91 72
64 97 77
58 89 70
61 93 73
59 90 70
60 91 72
62 94 74
60 91 72
59 90 71
58 89 70
59 91 71
59 90 71
59 90 71
57 87 69
58 88 69
59 90 71
58 89 70
59 90 71
60 92 72
58 88 69
59 90 71
60 91 72
59 90 71
61 93 73
59 90 71
58 89 70
59 90 71
61 93 73
58 89 70
58 89 70
60 92 72
61 93 73
60 92 72
61 94 74
61 93 73
59 90 71
58 89 70
60 92 72
61 93 74
59 90 71
61 93 73
59 90 71
59 90 71
55 85 67
57 88 69
61 94 74
59 90 71
56 85 67
61 93 73
60 92 72
59 90 71
60 91 72
60 91 72
61 94 74
60 92 72
59 90 71
60 92 72
60 92 72
60 91 72
58 89 70
58 89 70
60 91 72
60 92 72
60 92 73
59 90 71
58 88 69
59 90 71
58 88 70
61 93 73
61 94 74
58 89 70
61 93 74
60 92 73
57 88 69
59 91 72
57 87 69
58 89 70
59 90 71
59 90 71
59 91 71
57 88 69
57 86 68
57 88 69
58 88 70
60 92 73
57 88 69
58 89 70
60 91 72
60 92 73
60 92 72
58 88 69
61 93 73
59 90 71
60 91 72
59 90 71
61 93 73
59 90 70
59 91 71
60 93 73
61 93 74
59 90 71
59 89 70
59 90 71
62 95 75
60 92 73
58 89 70
58 88 69
59 91 72
59 90 71
61 93 73
60 91 72
56 86 68
61 93 73
58 89 70
61 93 73
59 90 71
57 88 69
58 89 70
57 87 68
58 89 70
60 92 73
55 84 67
59 90 71
59 91 72
59 90 71
60 91 72
59 91 71
57 88 69
59 90 71
58 89 70
61 94 74
58 89 70
60 91 72
55 85 67
58 89 70
58 88 70
60 91 72
58 89 70
60 91 72
59 90 71
60 92 72
61 92 73
60 91 72
59 91 72
58 89 70
56 86 68
61 93 74
59 91 72
59 91 72
60 92 73
57 87 69
60 92 72
60 92 72
60 91 72
60 91 71
60 92 72
62 95 75
58 89 70
62 94 74
61 93 73
60 92 73
62 94 74
63 95 75
59 91 71
60 92 72
58 89 70
59 91 71
57 87 68
58 88 69
58 89 70
58 89 70
58 88 69
60 92 73
58 88 69
59 89 70
60 91 72
60 91 72
58 88 69
61 93 73
60 92 72
62 95 74
61 93 73
59 91 71
60 92 73
59 91 71
58 89 70
60 91 72
62 95 74
61 93 73
61 93 73
61 92 73
60 91 72
62 94 74
62 95 74
61 92 72
60 91 71
57 88 69
62 95 75
63 97 76
63 96 75
64 98 77
61 93 73
60 91 72
61 93 73
61 93 73
62 94 74
60 92 72
61 93 73
64 97 76
60 92 73
59 89 70
60 91 72
61 92 72
60 91 72
61 93 73
59 90 71
63 96 75
61 93 73
64 97 76
60 92 72
59 91 71
62 95 74
62 95 74
59 90 71
61 93 73
60 92 72
60 91 71
62 95 74
63 96 75
61 93 73
62 94 74
60 91 71
61 93 73
59 91 71
65 99 77
60 92 72
59 90 70
61 93 73
62 94 73
58 89 70
60 92 72
62 94 74
60 91 71
60 91 72
64 98 77
63 95 75
60 92 72
62 94 74
62 94 74
60 92 73
61 93 73
61 93 74
60 91 72
62 95 75
61 94 74
59 90 70
61 92 72
61 94 74
61 93 73
50 73 60
34 37 39
37 39 42
38 40 43
39 41 44
40 42 45
41 43 46
41 43 47
41 44 47
41 44 47
41 44 47
43 45 48
48 49 51
55 55 55
57 57 57
50 51 52
43 46 48
41 43 47
40 43 46
40 43 46
40 42 46
39 42 45
39 42 45
39 41 45
38 40 44
37 39 42
36 38 41
35 37 39
33 35 37
31 33 35
43 61 51
59 90 71
63 95 75
60 92 72
59 91 71
60 91 72
63 95 75
63 96 76
63 96 75
60 92 72
61 93 73
61 93 73
60 91 71
59 90 71
61 94 74
63 95 75
60 91 71
62 94 74
61 92 73
60 91 71
62 95 75
61 92 72
62 95 74
64 97 76
61 93 73
62 95 75
60 91 71
62 95 75
62 95 75
61 92 72
61 92 72
60 91 71
58 88 69
60 91 71
59 90 71
60 91 72
59 90 71
60 92 72
60 91 71
59 90 70
60 92 72
60 91 71
58 89 70
59 89 70
59 90 71
58 88 69
62 94 74
59 90 71
132 106 63
197 124 47
216 136 52
227 143 56
208 154 110
151 128 109
159 138 122
163 142 125
156 136 120
147 127 112
229 179 141
255 169 94
255 162 63
255 161 66
255 164 68
255 163 68
255 159 63
252 156 60
250 155 60
249 154 59
247 152 58
246 151 58
240 148 57
238 146 56
234 143 55
226 139 54
225 140 54
211 132 51
206 128 49
192 121 46
177 113 44
154 100 39
119 91 48
57 86 67
59 90 71
59 90 70
59 90 71
60 91 72
61 93 73
60 91 72
60 91 72
58 89 70
58 89 70
59 89 70
58 88 69
61 92 72
58 89 70
60 92 72
60 91 71
61 93 73
58 89 70
61 92 72
61 93 73
61 92 72
59 90 71
60 91 72
61 94 74
59 90 71
58 89 70
57 87 68
60 91 72
59 90 71
61 93 73
60 92 72
59 90 70
58 89 70
61 94 73
61 93 74
62 95 75
61 92 73
62 95 74
58 88 69
58 89 70
61 94 73
61 94 74
58 88 69
60 92 72
60 91 71
59 89 70
60 91 72
59 91 71
59 90 71
59 91 72
61 94 74
61 93 73
58 88 69
60 91 72
60 92 72
60 91 72
61 94 73
61 93 73
60 92 72
59 91 72
60 92 73
59 91 71
61 94 74
59 90 71
59 91 71
59 90 71
60 91 72
62 94 74
58 88 70
60 92 72
61 93 73
60 91 72
57 87 68
58 88 69
61 92 72
57 87 68
60 91 72
57 88 69
57 87 69
58 89 70
57 88 69
60 91 71
61 94 74
61 93 73
58 89 70
59 90 71
60 92 73
58 89 70
60 91 72
58 89 70
58 88 69
60 92 72
57 88 70
60 91 72
59 91 71
60 91 72
60 92 72
60 92 73
62 95 75
59 90 71
59 89 70
59 90 71
62 94 74
58 88 70
61 93 73
61 93 73
59 91 72
60 91 72
59 90 71
61 94 74
58 88 70
59 90 71
59 90 71
57 88 69
60 92 72
61 93 73
59 91 72
61 93 73
56 86 68
57 87 69
59 90 71
58 88 70
60 92 72
58 89 71
60 91 72
59 91 72
58 89 70
57 87 69
59 91 72
59 90 71
58 88 69
58 89 70
58 89 70
61 94 74
62 94 74
57 87 69
59 91 71
61 93 73
61 93 73
60 92 72
58 89 70
59 90 71
59 91 71
59 91 72
60 91 72
60 92 73
59 90 71
59 90 71
57 87 69
60 91 72
57 87 68
57 88 69
60 91 72
59 91 71
58 89 71
59 90 71
61 93 73
58 88 70
58 89 70
59 90 71
58 89 70
59 90 71
59 91 71
59 90 71
61 93 73
60 91 72
56 87 68
58 88 70
57 87 69
59 90 71
60 92 72
61 93 73
59 90 71
57 87 69
59 90 71
59 91 72
59 91 72
58 89 70
60 92 72
60 91 72
60 91 72
60 92 72
62 94 74
59 90 70
58 89 70
60 91 71
61 94 74
63 96 75
58 88 69
58 88 69
60 91 72
62 95 75
59 91 71
60 92 72
59 91 71
61 94 74
62 94 74
61 92 72
61 92 73
60 91 72
61 93 73
61 93 73
62 94 74
59 91 71
61 93 73
62 95 74
63 96 75
60 91 72
61 93 73
63 96 75
62 95 74
61 92 72
59 91 72
60 92 72
63 95 75
61 94 74
59 90 70
62 95 74
62 94 74
60 91 71
61 93 73
59 91 71
60 92 72
61 94 73
61 92 72
59 91 71
60 92 72
59 90 70
59 90 71
60 92 72
61 94 74
63 96 75
64 97 77
62 95 75
58 89 70
60 91 72
64 97 76
62 95 74
60 92 72
59 90 71
60 92 72
61 93 73
59 91 71
62 94 74
60 92 72
63 97 76
60 91 72
61 92 73
61 93 73
62 95 75
60 92 72
59 89 70
60 91 71
62 94 74
61 93 73
60 92 72
62 95 75
60 91 72
60 91 72
60 91 72
58 88 69
59 90 71
58 89 70
61 93 73
60 92 72
59 90 71
62 95 74
60 92 72
62 94 74
61 94 74
61 93 73
60 92 72
61 92 73
60 91 71
59 90 71
61 92 72
61 92 73
60 92 72
62 94 74
60 92 72
59 91 71
60 92 73
63 96 76
61 94 74
60 91 71
58 89 70
58 88 69
60 92 72
61 93 73
44 60 52
35 37 40
37 39 42
38 40 43
39 42 45
40 42 46
40 43 46
41 43 46
41 43 47
41 44 47
42 45 48
50 51 52
74 72 67
102 96 86
103 97 87
84 81 74
57 56 56
43 45 48
41 43 47
40 43 46
40 42 46
40 42 45
39 41 45
38 41 44
38 40 43
37 39 42
36 38 40
35 36 39
34 35 38
31 33 35
32 39 37
58 88 70
59 90 71
62 94 74
60 91 72
60 91 71
60 92 73
60 91 72
61 93 73
61 93 73
61 92 72
59 91 71
60 91 72
61 93 73
58 88 69
62 94 74
60 91 71
60 92 72
60 91 72
60 92 72
58 89 69
59 91 71
60 92 72
60 92 72
61 93 73
62 94 74
59 90 71
63 95 75
59 90 71
61 94 74
64 97 76
59 89 70
59 89 70
59 90 71
60 92 72
58 89 70
59 90 71
59 90 71
59 90 71
62 94 73
58 88 69
57 87 68
58 89 70
59 90 71
59 91 71
60 92 72
61 92 72
62 94 74
122 103 64
198 125 47
210 132 50
213 148 92
135 115 99
196 171 150
215 188 164
218 189 166
222 193 170
206 180 158
131 113 99
200 163 133
247 160 80
249 154 59
248 154 59
253 157 61
252 157 60
250 154 59
244 150 57
246 151 58
241 148 56
238 148 57
235 145 55
231 141 54
225 138 53
219 135 51
213 132 50
203 126 48
198 122 47
186 116 45
167 104 40
146 95 37
117 90 49
56 87 69
59 90 71
59 90 71
59 90 70
60 92 72
59 90 70
58 88 69
61 92 72
58 89 70
61 94 73
62 94 74
62 94 74
59 90 71
57 87 69
61 93 73
62 94 73
61 93 73
59 90 70
60 92 72
58 89 70
61 92 72
59 90 70
59 90 71
61 93 73
64 98 77
62 95 75
62 95 75
61 93 73
58 88 69
62 94 74
62 95 74
60 91 72
60 92 72
60 92 73
61 92 73
61 92 73
61 93 73
61 92 73
60 92 73
59 90 71
60 92 72
61 92 73
61 93 73
62 94 74
61 92 72
60 91 71
62 94 74
60 91 71
61 93 73
60 92 72
58 89 70
63 96 75
59 90 71
59 91 71
59 90 71
60 92 72
60 92 72
57 87 68
59 90 70
57 87 68
58 89 70
58 89 70
58 88 69
61 93 73
60 92 72
60 91 71
59 90 71
60 92 73
59 90 71
59 90 71
61 93 73
59 90 71
59 90 71
58 89 70
60 92 72
59 90 71
59 90 71
61 93 73
63 96 75
62 95 74
59 90 71
61 93 73
60 91 72
60 92 73
59 90 71
60 91 72
59 90 71
59 90 71
63 95 75
60 92 73
58 89 70
59 90 71
59 91 71
62 94 74
60 91 72
58 89 70
59 90 70
60 91 72
60 92 72
59 89 70
58 88 69
59 91 71
59 91 71
59 91 71
58 88 69
57 88 69
60 92 73
59 90 71
59 90 71
58 89 70
61 93 73
58 89 70
60 91 72
61 93 73
62 95 75
60 92 72
60 91 72
59 90 71
58 89 70
57 88 69
57 88 69
58 89 70
62 94 74
60 91 72
60 92 72
59 90 71
59 90 71
58 89 71
60 91 72
59 91 71
60 92 73
61 94 74
60 92 73
60 91 72
60 91 72
58 89 70
59 91 71
59 90 71
59 90 71
58 89 70
59 90 71
58 89 70
59 90 71
59 90 71
57 87 69
61 93 73
58 89 71
59 90 71
60 92 73
59 91 72
58 88 70
58 90 71
61 93 74
58 89 71
60 92 73
60 92 72
58 88 70
57 87 69
58 88 69
60 92 73
59 91 72
63 96 76
59 90 71
58 89 70
57 87 69
60 92 73
61 93 73
58 90 71
60 92 72
59 90 71
57 87 69
61 93 73
58 88 70
58 88 70
59 91 72
60 92 73
61 93 73
56 87 68
59 90 71
57 88 70
60 92 72
64 97 76
60 92 72
61 93 73
59 90 70
63 96 75
59 90 71
63 96 76
61 93 73
62 94 74
63 96 76
62 94 74
62 94 74
60 92 72
61 93 73
62 94 74
60 92 72
60 91 72
61 93 73
63 97 76
62 95 75
61 93 73
60 92 72
62 94 74
59 90 71
59 90 71
61 93 73
60 92 72
60 92 72
59 91 72
63 96 76
59 91 71
59 90 70
61 94 74
60 91 72
61 93 73
59 90 71
63 95 75
61 93 73
58 89 70
59 90 70
60 92 72
60 91 72
60 92 72
62 94 74
60 92 72
58 88 69
60 91 72
62 94 74
62 94 74
61 93 73
59 90 71
61 94 74
60 91 71
61 93 73
61 93 73
61 93 73
63 96 76
62 94 73
59 90 71
59 90 71
59 90 71
58 89 70
60 92 72
61 93 73
59 90 70
60 92 72
61 94 74
59 89 70
63 96 75
61 93 73
63 96 75
60 91 72
59 90 70
59 91 71
60 92 72
59 90 71
62 94 74
60 92 72
61 92 72
60 91 71
61 93 74
62 94 73
63 95 75
63 95 75
59 89 70
59 91 71
61 93 73
62 94 74
62 94 74
62 95 75
61 93 73
62 94 74
62 94 74
59 90 71
61 92 72
60 92 72
60 91 71
60 91 71
63 95 75
61 92 72
62 94 74
61 93 73
59 91 71
62 95 75
60 92 72
60 92 72
59 90 71
55 83 66
34 38 39
35 37 40
37 39 42
38 40 43
39 41 44
40 42 45
40 42 45
40 43 46
41 43 47
41 43 47
44 46 48
66 65 62
112 105 93
160 149 129
166 154 133
127 119 104
75 72 67
48 49 50
41 43 46
40 42 45
40 42 45
39 42 45
39 41 44
39 41 44
37 39 42
36 38 41
36 38 40
35 36 39
32 34 36
31 33 36
27 30 32
49 72 58
59 90 71
63 96 75
58 89 70
56 86 67
62 94 74
61 94 73
58 88 69
61 93 73
60 92 72
59 90 71
60 91 71
60 91 71
59 90 70
61 92 73
62 95 75
60 91 71
61 92 73
60 90 71
60 92 72
62 95 75
57 87 69
63 96 75
60 92 72
62 95 74
61 93 73
59 90 71
60 92 72
60 91 71
60 91 71
60 91 71
60 91 71
62 95 74
59 89 70
61 93 73
59 90 71
62 94 73
59 89 70
60 91 71
60 91 71
57 88 69
57 87 68
59 89 70
61 93 73
60 91 71
59 90 70
61 92 72
116 99 62
180 114 43
206 130 50
174 131 95
166 146 127
204 179 156
168 146 127
150 130 114
192 168 148
224 196 172
211 183 160
130 114 100
221 169 130
242 152 63
242 150 57
244 151 58
245 152 58
245 151 58
242 148 56
244 150 57
236 144 55
233 142 54
230 140 53
223 137 52
216 132 50
215 133 51
205 127 48
193 120 46
190 119 45
172 105 40
157 99 37
137 90 35
106 86 49
59 89 71
55 84 66
55 84 67
57 88 70
58 89 70
57 87 69
57 87 69
59 90 71
59 90 71
60 91 71
62 94 74
60 92 72
59 89 70
59 90 70
60 91 72
61 93 73
62 94 74
61 93 73
62 94 74
60 91 71
62 94 74
63 95 75
61 94 74
61 93 73
59 90 70
61 93 73
64 97 76
57 88 69
58 88 70
60 90 71
75 100 80
97 111 93
118 123 106
124 128 111
128 131 115
115 121 105
112 121 104
82 103 84
64 93 74
60 92 72
59 90 70
60 92 72
58 88 69
58 89 70
57 87 68
60 92 72
60 92 72
62 94 74
60 90 71
59 89 70
61 94 73
61 93 73
59 90 71
57 88 69
58 89 70
60 92 72
58 89 70
58 88 69
58 89 70
60 92 72
60 92 72
60 91 71
59 90 70
60 91 71
62 94 74
57 87 68
59 90 70
58 88 70
59 90 71
57 86 68
62 95 74
59 91 71
59 91 71
61 93 74
62 94 74
60 92 73
59 91 71
62 94 74
60 91 72
60 92 72
59 90 71
57 87 68
59 90 71
58 89 70
59 90 71
59 90 71
60 91 71
61 93 73
59 89 70
60 92 72
60 92 73
60 92 73
57 87 69
60 91 72
60 91 72
60 91 72
61 93 74
58 88 70
61 93 73
58 88 69
60 91 72
62 94 74
60 92 72
58 89 70
57 88 69
57 88 69
59 90 71
59 90 71
59 91 71
58 88 70
58 89 70
60 91 72
62 95 74
59 91 72
59 90 71
61 93 74
60 91 72
60 92 73
60 91 72
59 90 71
60 92 72
59 90 71
59 90 71
61 93 73
59 89 70
59 90 71
60 92 73
60 91 72
58 89 70
56 86 68
59 90 71
60 91 72
58 89 70
61 94 74
59 90 71
59 90 71
58 88 69
58 89 70
56 85 67
57 88 70
57 87 69
58 89 70
57 88 69
58 88 69
60 92 73
59 90 71
58 89 70
58 90 71
60 92 73
58 89 70
57 87 69
61 93 74
59 90 71
60 91 72
60 91 72
57 87 68
57 88 70
61 94 74
60 92 72
59 91 72
59 91 71
57 88 69
58 88 70
60 91 72
59 91 72
60 91 72
58 88 70
58 88 70
58 89 70
58 89 70
59 90 71
58 89 70
59 91 72
59 90 71
60 91 72
59 90 71
58 90 71
59 90 71
59 91 71
60 92 73
61 94 74
63 95 75
62 94 74
61 93 73
62 95 74
61 94 74
61 93 73
60 91 72
60 92 72
63 96 75
62 94 74
61 93 73
61 93 73
63 96 76
62 95 75
59 90 71
59 90 71
63 95 75
62 95 74
62 95 75
61 93 73
59 90 71
59 90 71
61 94 74
61 94 74
61 93 73
59 90 71
60 91 72
64 97 76
60 92 73
61 93 73
62 95 75
61 94 73
60 92 72
62 94 74
61 93 73
61 93 73
61 92 73
62 94 74
60 91 71
58 89 70
60 92 72
62 94 74
61 94 74
59 90 71
59 89 70
61 93 73
62 95 75
64 98 77
62 95 74
61 93 73
57 87 68
61 92 72
58 89 70
60 91 71
58 88 69
61 93 73
61 94 73
61 92 73
61 93 73
61 94 73
64 98 77
63 95 75
61 93 73
61 93 73
61 94 74
60 92 72
61 93 73
62 95 74
62 95 74
59 90 71
60 91 72
60 91 71
61 93 73
58 89 70
60 92 72
60 91 71
62 95 74
61 93 73
61 93 73
61 93 73
61 94 73
62 94 74
61 93 73
61 93 73
59 89 70
59 90 70
63 97 76
61 92 73
62 94 73
61 93 73
58 88 69
62 94 74
61 93 73
59 91 71
60 92 72
60 92 72
61 93 73
60 91 71
62 94 73
62 94 74
62 94 73
58 89 70
60 91 72
61 93 73
60 91 72
60 92 72
62 95 74
53 77 62
32 34 36
35 37 40
36 38 41
38 40 42
39 41 43
39 41 44
40 42 45
40 42 45
40 42 45
41 43 46
46 48 49
74 71 67
128 120 105
183 170 146
186 173 148
140 131 114
83 79 72
49 50 51
41 43 46
40 42 45
39 41 44
39 41 44
38 40 43
38 40 43
37 39 42
36 38 41
35 38 40
34 36 38
32 34 36
31 33 35
28 30 32
39 56 47
60 91 72
60 92 72
59 91 71
60 92 72
64 97 76
63 96 76
60 91 72
63 96 76
60 92 72
61 92 73
59 90 71
61 93 73
60 91 71
60 91 71
59 91 71
60 92 72
59 90 71
61 92 72
62 95 74
60 92 72
59 90 70
60 91 71
61 92 73
60 91 72
61 93 73
57 88 69
59 89 70
60 92 72
58 88 69
61 92 72
62 94 73
60 92 72
62 95 74
59 89 70
58 88 69
60 91 71
60 91 71
61 92 72
62 94 73
60 91 71
60 91 71
62 94 73
61 92 72
60 92 72
60 91 72
61 92 72
101 94 62
169 110 43
195 124 52
152 123 98
189 166 144
164 144 125
43 38 33
28 25 21
42 37 32
160 140 122
215 188 163
187 162 142
152 128 108
238 159 89
240 148 56
236 146 55
236 146 55
239 148 56
234 144 55
230 141 53
232 142 54
222 136 51
213 131 49
210 130 49
213 131 50
203 125 47
197 122 46
192 118 45
176 110 41
167 105 40
154 98 37
134 89 34
95 82 50
54 83 66
54 83 66
53 81 65
55 85 67
55 83 66
55 83 66
55 83 65
61 93 73
59 90 71
59 90 71
59 90 71
59 90 71
60 91 71
61 93 73
59 89 70
59 90 70
61 93 73
59 90 70
61 93 73
61 93 73
63 96 75
63 96 75
60 91 72
60 92 72
60 91 72
58 88 69
57 87 68
71 97 77
122 125 109
176 163 146
204 184 167
217 196 179
221 199 182
225 202 185
225 201 185
223 200 184
218 196 180
208 189 173
195 178 163
150 146 130
109 118 101
68 95 76
59 90 71
60 92 72
60 91 72
62 94 74
62 95 75
62 95 75
63 96 76
62 95 75
61 92 73
61 93 73
62 95 74
59 90 71
58 88 69
61 93 73
59 90 71
57 88 69
60 92 72
60 92 72
63 96 75
61 93 73
60 92 72
60 92 72
60 90 71
59 91 71
62 95 75
61 94 74
59 90 71
60 91 72
60 92 73
62 95 75
62 94 74
59 90 71
59 91 71
59 90 71
59 90 71
60 91 72
57 88 69
59 91 71
59 89 70
60 92 72
61 92 73
60 92 73
62 95 75
63 96 76
61 93 74
60 92 72
62 94 74
59 90 71
59 90 71
58 88 70
56 85 67
56 86 68
58 89 70
60 91 72
61 93 73
60 92 72
60 92 72
61 93 73
59 91 72
59 90 70
57 88 69
59 91 71
58 88 70
57 88 69
59 90 71
60 92 73
59 90 71
61 93 73
59 90 71
59 90 71
60 92 72
58 89 70
60 91 72
60 91 72
59 90 71
59 90 71
60 91 72
59 90 71
61 93 73
59 90 71
60 92 72
61 94 74
59 91 71
60 92 73
61 93 73
60 92 72
61 93 73
57 87 68
59 91 71
61 93 73
62 95 75
57 87 68
62 94 74
59 89 70
60 92 73
58 89 70
58 89 70
59 90 70
59 90 71
59 90 71
60 92 72
62 94 74
59 90 71
58 88 69
61 93 73
59 91 71
62 95 75
58 89 70
59 90 71
58 89 70
58 89 70
59 90 71
58 88 70
58 89 70
59 90 71
60 92 73
62 94 74
58 88 70
56 85 67
59 90 71
57 87 69
59 90 71
58 88 69
62 94 74
59 90 71
57 88 69
60 91 72
60 91 72
59 91 71
59 90 71
57 87 69
59 90 71
57 87 69
58 90 71
60 92 73
61 94 74
59 90 71
58 89 70
61 93 73
62 94 74
59 90 70
60 91 72
66 100 78
63 96 75
62 95 74
61 92 73
60 92 72
59 89 70
60 92 72
61 93 73
61 93 73
59 89 70
61 93 73
59 91 71
64 98 77
61 93 73
61 93 73
59 91 71
60 92 72
61 93 73
61 92 72
62 94 74
62 94 74
60 92 72
60 92 72
60 91 72
60 91 71
61 93 73
62 94 74
65 98 77
63 96 75
61 93 73
64 97 76
61 93 73
59 90 71
61 93 73
60 91 72
60 91 72
60 91 72
61 93 73
60 91 71
59 90 71
61 93 73
61 93 73
60 91 72
60 92 73
63 95 75
62 95 74
63 96 75
61 93 73
63 97 76
59 90 71
59 90 71
60 92 72
60 91 72
62 94 74
59 90 71
62 95 74
64 97 76
60 92 72
60 92 72
61 92 73
60 91 71
62 94 73
65 99 78
60 92 72
60 92 72
60 91 71
60 91 71
59 90 70
62 94 74
59 90 71
61 93 73
62 94 74
62 94 73
61 93 73
63 97 76
63 96 75
61 92 72
62 95 75
59 90 71
61 93 73
60 92 72
61 93 73
62 95 74
64 98 77
61 93 73
62 94 74
63 96 75
61 94 74
60 91 72
62 94 74
58 88 69
56 86 67
59 90 71
59 90 71
61 93 73
59 90 71
60 92 72
59 89 70
60 92 72
60 92 72
60 91 71
60 91 71
59 91 71
60 92 72
47 63 52
33 35 38
35 37 39
36 38 41
37 39 42
38 40 43
38 40 43
39 41 44
39 41 44
40 42 45
40 42 45
44 45 47
64 62 59
109 103 91
149 139 120
152 141 122
116 109 95
68 66 62
45 46 47
40 42 44
39 41 44
39 41 44
39 40 43
38 40 42
38 39 42
36 38 41
35 37 40
35 37 39
34 35 38
32 33 36
30 32 34
28 30 32
31 41 36
61 92 72
59 90 70
60 90 71
60 92 72
59 90 70
64 98 77
61 93 73
61 93 73
61 92 72
60 91 71
58 88 69
60 92 72
60 91 71
58 89 70
61 94 73
60 91 71
60 91 71
62 94 74
62 94 74
60 91 71
61 92 72
60 91 71
60 92 72
63 95 74
64 98 77
58 88 69
60 91 71
61 93 73
60 92 72
61 93 72
57 87 68
60 91 72
59 90 70
61 94 73
60 92 72
61 93 73
59 90 70
58 88 69
62 94 73
58 88 69
61 92 72
58 89 69
59 90 70
59 91 71
61 92 72
59 89 69
79 89 65
163 105 42
176 113 49
150 120 93
179 157 135
104 91 78
109 95 82
182 159 137
135 117 101
49 43 36
185 161 139
211 184 160
135 118 102
216 161 116
231 143 54
233 144 54
232 143 54
228 141 53
227 139 52
226 140 53
223 134 50
212 129 48
214 131 49
203 124 46
197 120 45
196 120 45
182 112 42
183 113 42
169 105 39
154 98 37
144 92 35
115 79 30
89 80 52
49 77 62
52 80 65
52 80 64
53 81 64
57 87 69
56 85 68
57 87 69
58 88 69
56 86 68
61 92 72
58 89 70
62 95 75
60 91 71
62 93 73
61 93 73
61 93 73
60 90 71
58 88 69
59 90 70
61 93 73
61 93 73
60 91 71
60 91 72
61 93 73
62 94 74
76 99 81
139 138 121
202 183 165
226 202 184
232 207 189
234 208 190
233 209 191
232 208 191
232 208 190
230 207 190
229 206 189
228 204 188
225 202 186
222 200 184
219 197 181
209 189 174
177 164 150
121 124 109
63 92 73
59 90 71
59 89 70
62 94 74
61 93 73
60 92 72
62 94 74
61 93 73
60 91 72
59 90 71
60 91 72
61 93 73
58 88 69
60 92 72
58 89 70
62 95 75
61 93 73
62 95 74
58 88 69
58 89 70
58 89 70
59 90 70
61 93 73
59 90 71
57 86 68
60 92 72
60 92 72
59 90 71
59 90 71
58 89 70
61 93 73
59 90 71
59 91 71
59 91 71
60 92 72
59 90 71
61 92 73
60 91 72
60 91 71
61 94 74
60 92 72
62 95 74
59 89 70
61 93 73
59 90 71
55 84 67
59 89 70
58 89 70
62 95 75
59 91 71
60 91 72
60 92 73
59 90 71
59 90 71
61 94 74
60 91 72
59 90 70
57 87 69
58 89 70
61 93 73
62 95 74
61 93 73
58 89 70
60 91 72
62 95 75
59 91 71
61 93 73
59 90 71
60 92 73
59 90 71
59 90 71
60 91 72
60 91 72
61 94 74
58 88 69
61 93 73
59 90 71
60 91 72
59 90 71
62 94 74
58 89 70
61 94 74
63 96 75
61 93 73
62 94 74
61 93 73
61 92 73
58 89 70
62 94 74
60 91 72
58 88 69
63 97 76
59 90 71
59 91 71
59 91 71
59 90 71
59 91 71
60 92 72
59 90 71
61 93 73
60 91 72
59 90 71
61 93 73
60 92 72
61 93 73
60 91 72
60 92 72
58 89 70
60 91 72
58 89 70
57 87 69
59 90 71
58 89 70
60 91 72
62 95 75
61 93 73
60 92 72
58 89 70
57 88 69
57 87 69
58 88 69
59 90 71
59 91 72
57 87 68
58 88 70
60 92 72
58 89 70
58 89 70
57 87 69
56 87 68
57 87 68
59 90 71
59 91 72
58 89 70
58 89 70
60 92 72
60 92 72
60 91 72
65 100 78
61 93 73
58 89 70
58 89 70
62 94 74
61 92 73
60 92 72
60 92 72
63 96 75
61 93 73
61 93 73
59 90 71
61 93 73
59 90 71
59 90 71
60 92 72
60 92 73
61 92 72
62 94 74
58 89 70
59 90 71
59 91 71
62 94 74
63 96 75
60 91 71
60 92 72
58 88 69
62 94 74
62 94 74
63 96 76
61 92 73
59 90 71
59 91 71
61 94 73
62 95 75
63 95 75
61 93 73
60 91 71
61 93 73
57 87 68
60 91 71
58 88 69
61 93 73
62 94 74
62 94 74
62 94 73
62 94 74
63 96 76
60 92 72
61 93 73
61 93 73
62 95 74
61 94 74
61 93 73
61 93 73
62 94 74
60 91 72
62 95 74
63 96 76
60 91 72
60 91 72
61 92 73
63 96 75
62 94 74
59 90 70
62 95 75
64 97 76
61 92 72
58 89 70
60 91 72
60 91 72
60 91 71
61 94 74
63 95 75
60 91 72
60 92 72
62 94 74
64 97 76
63 95 75
62 94 74
61 93 73
62 95 75
62 94 74
59 89 70
62 94 74
61 93 73
60 92 72
58 89 70
62 95 74
62 94 74
62 94 74
62 94 73
62 94 74
60 92 72
58 89 70
59 90 71
60 91 72
60 91 71
59 91 71
59 91 71
60 92 72
60 91 71
60 91 71
59 91 71
60 91 72
62 95 74
61 92 72
73 79 68
32 34 36
34 36 39
36 38 40
37 39 41
37 39 42
37 39 42
38 40 43
39 41 44
39 41 43
39 41 44
41 42 45
48 48 49
69 67 63
91 86 77
89 84 76
72 69 64
52 51 51
41 42 44
38 40 43
39 40 43
38 40 43
38 40 42
37 39 41
36 37 40
36 37 40
35 37 39
34 35 38
32 34 36
30 32 33
30 32 34
27 28 30
28 35 32
59 89 70
61 94 74
64 97 76
61 93 73
60 92 72
58 88 69
59 89 70
62 95 74
60 92 72
62 94 73
61 93 73
59 89 70
60 91 71
61 93 73
62 94 74
60 91 71
61 93 73
61 93 73
61 93 73
58 87 68
61 92 72
59 91 71
59 90 70
60 91 71
62 94 74
60 92 72
61 94 74
62 94 73
62 94 74
59 89 70
61 92 72
64 97 76
63 94 74
63 95 74
59 90 70
62 94 74
61 92 72
60 92 72
62 94 73
59 90 71
59 90 70
58 88 69
59 90 70
58 88 69
60 91 71
61 93 72
61 89 69
136 96 46
172 109 41
137 105 75
163 143 123
99 87 74
133 115 99
197 170 146
192 167 143
62 54 47
143 123 106
205 178 153
144 126 109
198 154 120
224 137 52
218 136 51
222 137 51
222 136 51
214 132 49
209 128 48
213 129 48
205 124 46
200 122 45
201 123 46
191 118 44
193 119 45
176 108 40
163 100 37
162 102 38
142 90 33
137 88 34
114 79 33
60 75 58
49 76 61
50 78 63
50 79 63
52 80 64
53 81 65
55 85 67
55 85 67
56 85 68
60 91 72
57 86 68
58 88 69
59 90 70
61 92 72
61 93 73
60 90 71
59 90 70
62 94 74
63 96 76
59 91 71
59 90 70
58 88 69
60 91 72
59 90 71
59 90 71
101 111 94
196 176 156
230 204 186
236 210 191
236 210 192
238 212 193
237 212 194
238 212 194
237 212 194
236 211 193
235 210 193
233 209 192
231 207 190
229 206 189
227 204 187
224 202 186
221 199 183
215 194 179
207 187 172
163 152 138
84 98 80
59 90 70
60 92 73
60 92 72
60 92 73
63 95 75
61 93 73
61 93 73
60 92 72
60 92 72
60 91 71
62 94 74
58 89 70
60 92 73
60 92 73
61 93 73
60 91 72
59 89 70
59 91 71
58 88 70
58 88 69
57 87 69
61 92 73
60 91 72
57 88 69
58 89 70
59 90 71
60 92 73
57 87 69
60 92 73
60 92 72
59 90 70
59 90 71
61 93 73
60 92 72
63 96 75
62 94 74
60 91 71
60 91 72
59 90 71
61 93 73
58 89 70
60 92 73
58 89 70
59 91 71
64 98 77
60 91 71
62 94 74
60 91 72
59 90 70
60 92 72
57 87 69
58 88 69
61 94 74
59 91 71
59 89 70
61 94 74
59 91 71
58 89 70
59 91 71
62 95 75
58 89 70
59 89 70
61 93 73
59 90 71
60 92 73
61 92 73
59 91 71
59 91 71
59 89 70
58 89 70
58 89 70
58 88 70
61 93 73
60 91 72
57 87 68
58 88 70
57 87 69
60 92 72
59 90 71
60 92 73
62 95 75
61 92 73
59 90 71
58 88 69
60 92 72
59 91 71
60 91 72
59 91 71
59 91 72
56 86 68
58 89 70
59 91 72
59 90 71
56 86 67
58 89 70
59 91 72
59 90 71
55 84 66
58 89 70
58 89 70
58 89 71
60 92 72
61 93 74
62 94 74
64 97 76
61 93 74
60 92 72
60 93 73
57 87 69
57 87 68
59 91 72
59 90 71
58 89 70
57 88 70
60 91 72
58 88 70
58 89 70
57 88 69
58 88 69
59 91 71
59 90 71
58 89 70
58 89 70
60 91 72
58 90 71
60 92 73
60 91 72
59 90 71
58 88 70
59 91 72
57 87 68
58 88 70
57 87 69
59 90 71
59 91 71
60 92 72
66 100 78
62 95 74
60 92 72
60 91 72
59 91 71
63 95 75
62 95 75
61 93 73
62 94 74
62 95 74
62 95 74
61 92 73
60 91 72
63 96 75
59 91 71
59 90 71
63 96 76
59 90 71
62 94 74
61 93 73
59 91 71
62 94 74
62 94 74
61 93 73
61 92 72
60 92 72
61 92 72
61 94 73
62 95 75
62 94 74
60 92 72
61 93 73
62 95 74
62 94 74
60 91 72
62 94 74
61 94 74
62 95 75
62 94 74
60 92 72
62 94 74
61 94 73
61 92 73
62 95 74
61 93 73
63 96 76
63 96 75
63 96 75
64 98 77
62 94 74
63 95 75
60 92 72
60 91 71
62 95 75
62 95 75
62 94 74
62 94 74
61 93 73
60 91 72
62 94 73
60 92 72
60 91 72
59 90 71
62 94 74
62 94 74
62 94 74
61 93 73
59 90 70
62 94 73
61 92 72
60 91 71
62 94 74
62 94 74
59 91 71
63 95 75
62 94 74
62 95 74
61 93 73
61 92 73
60 92 72
62 94 74
61 93 73
61 92 73
59 90 70
62 94 74
62 94 74
59 90 70
59 90 70
59 89 70
62 95 74
60 91 71
60 92 72
61 93 73
59 90 70
59 90 71
61 93 73
59 90 70
60 92 72
61 93 73
59 90 71
60 91 72
59 90 71
58 89 70
57 88 69
60 92 72
61 92 72
63 93 73
89 86 75
37 38 39
33 35 37
34 36 38
35 37 39
36 39 41
36 38 40
37 39 41
38 40 42
39 41 43
38 40 43
40 41 44
41 42 44
46 47 48
51 51 50
50 50 49
45 46 46
40 42 44
39 41 43
38 39 42
38 39 42
37 39 41
37 39 41
36 38 40
36 37 40
35 37 39
34 36 38
33 34 35
32 33 35
30 32 33
28 30 31
27 28 30
24 27 28
56 85 67
62 94 74
61 93 73
61 93 73
60 91 71
60 92 72
59 90 70
59 90 71
59 90 71
60 91 72
61 93 73
61 92 72
61 92 72
57 87 68
60 92 72
63 95 75
62 94 73
61 93 73
59 89 70
61 92 72
58 88 69
57 86 67
59 90 71
60 91 71
59 89 70
59 90 70
61 93 73
60 91 72
58 89 69
57 87 68
61 93 73
60 91 71
62 94 74
63 95 75
61 92 72
59 90 70
60 91 71
61 92 72
62 93 73
60 90 70
59 90 71
60 91 71
61 92 72
61 92 72
59 89 70
59 89 69
59 89 70
109 94 57
157 101 37
151 106 63
139 123 103
132 116 98
89 78 65
177 154 130
180 155 132
52 45 38
131 113 97
194 169 143
140 122 104
178 142 112
213 134 54
215 133 49
218 134 50
214 132 49
206 126 47
204 125 46
205 126 47
194 119 44
198 120 44
191 117 43
183 113 42
178 110 41
167 104 38
149 93 34
149 94 35
121 78 28
112 75 27
109 78 36
43 68 56
44 69 55
47 74 60
50 77 62
50 78 62
51 79 63
57 87 70
56 86 68
59 90 72
57 86 68
56 85 67
57 87 68
59 90 71
60 90 71
60 91 71
62 93 73
61 93 73
62 94 74
59 89 70
59 90 71
62 94 73
57 87 68
58 89 69
67 92 73
153 147 129
219 194 174
236 208 189
239 212 193
239 213 194
240 214 195
241 214 196
241 215 196
240 214 196
239 214 196
239 214 195
237 212 195
236 211 194
235 210 193
232 207 190
230 206 189
227 204 187
224 201 185
221 198 183
216 195 179
209 189 174
190 168 154
113 104 86
63 93 73
60 92 72
58 88 69
60 92 72
61 92 72
60 91 71
60 91 71
60 92 72
60 92 72
63 96 75
60 91 71
59 90 71
60 92 72
63 96 75
61 93 73
60 92 72
59 90 71
57 87 68
59 89 70
58 89 70
60 92 72
63 96 75
60 92 72
59 91 71
58 88 70
57 87 69
58 89 70
59 90 71
60 91 72
61 93 73
59 90 70
60 91 71
59 91 71
61 93 73
62 94 74
62 94 74
60 91 71
59 90 71
60 92 72
62 94 74
60 91 72
59 90 71
59 90 71
59 90 71
58 89 70
62 95 75
58 88 69
57 87 69
59 90 70
57 87 69
60 91 72
58 88 69
62 95 75
60 92 72
61 92 73
58 89 70
58 89 70
61 93 73
60 92 73
58 89 70
61 93 73
59 90 71
59 91 72
58 89 70
59 90 71
59 90 71
59 91 71
59 90 71
57 87 68
59 91 71
60 92 72
60 92 72
62 95 75
59 91 71
61 93 73
60 92 72
60 92 72
59 91 72
58 88 69
61 92 73
59 90 71
58 88 70
58 88 69
59 90 71
59 90 71
56 86 68
61 93 73
59 89 70
59 90 71
58 89 70
58 89 70
60 92 73
59 90 71
60 91 72
60 91 71
60 92 72
59 90 71
57 88 69
58 89 70
59 89 70
57 88 69
60 91 72
62 95 75
62 95 75
59 90 71
59 90 71
59 90 71
57 88 69
61 93 74
62 94 74
59 90 71
58 88 70
58 89 70
60 91 72
61 94 74
61 93 73
60 91 72
58 88 70
58 89 70
57 88 69
57 87 69
61 93 74
58 89 70
57 87 68
57 87 69
60 91 72
58 89 70
58 89 70
57 88 69
58 89 70
60 92 72
58 89 70
58 89 70
68 91 70
59 91 71
61 93 73
58 89 70
62 95 74
60 92 72
64 97 76
59 90 71
57 88 69
59 90 70
59 90 71
62 95 74
61 93 73
62 95 75
62 95 75
63 95 75
63 96 75
60 92 72
63 96 76
62 94 74
60 92 72
62 94 74
62 94 74
63 97 76
61 93 73
59 89 70
62 94 73
62 94 74
62 95 75
60 91 72
64 97 76
62 94 74
63 96 75
60 92 72
60 92 72
61 93 73
62 94 74
61 93 73
63 96 76
64 98 77
60 91 72
61 93 73
61 93 73
64 98 77
62 95 74
62 95 75
60 91 72
62 95 74
62 94 74
61 92 72
61 92 72
59 91 71
62 95 74
61 94 74
58 88 69
60 92 72
61 93 73
61 94 74
60 92 72
60 91 72
60 92 72
62 95 74
61 93 73
65 99 78
60 91 72
63 95 75
63 96 75
62 95 74
61 93 73
60 91 72
59 90 71
59 90 71
59 91 71
63 96 75
57 88 69
58 89 70
59 90 70
60 92 72
65 98 77
63 96 75
62 94 73
60 92 72
61 92 73
61 93 73
62 94 74
63 96 75
60 92 72
59 90 70
62 94 74
61 93 73
63 96 75
60 91 72
60 91 72
61 93 73
61 93 73
61 93 73
61 93 73
59 89 70
62 94 74
61 93 73
59 90 71
58 88 69
61 92 72
62 94 74
63 96 75
60 91 72
62 94 74
61 93 73
65 96 76
101 100 86
37 37 38
33 35 37
34 36 38
36 38 40
36 38 40
37 39 41
36 38 40
37 39 41
38 40 42
37 39 41
38 40 42
38 40 42
38 40 42
39 40 42
38 39 41
39 41 43
38 39 41
37 39 41
37 39 41
38 39 42
36 38 40
36 38 40
36 38 40
35 36 38
34 36 38
33 35 37
32 34 35
31 32 33
29 31 32
27 29 30
26 28 29
23 26 26
54 82 65
59 90 71
57 87 69
62 95 75
59 91 71
59 89 70
59 90 71
60 91 71
59 90 71
61 92 72
60 90 71
59 89 69
61 92 72
60 91 71
59 89 70
62 94 73
59 89 70
61 92 72
62 94 74
59 90 70
59 91 71
60 92 72
60 91 71
61 92 72
62 94 73
60 92 72
61 92 72
60 92 72
61 92 72
59 89 70
59 89 70
59 90 70
59 90 71
60 91 71
61 92 72
62 95 74
61 92 72
59 90 70
60 91 71
61 93 73
59 89 69
63 95 74
59 90 70
59 89 69
62 93 73
59 89 69
59 89 70
76 89 64
138 92 38
157 104 49
124 103 80
153 135 112
87 77 64
64 56 47
74 64 55
40 34 28
154 133 112
191 164 138
122 106 89
181 143 110
207 129 49
206 128 47
205 127 47
200 124 45
196 121 44
196 120 44
190 116 42
189 114 42
183 112 41
174 107 39
176 109 40
160 99 36
148 93 34
144 91 33
132 84 31
108 72 26
95 66 24
74 68 45
43 68 56
43 68 56
44 69 56
46 72 59
48 75 60
49 76 61
54 83 66
54 84 66
57 87 69
56 85 67
58 87 68
61 92 73
57 87 68
59 89 70
61 92 72
60 90 71
60 91 71
60 92 72
59 89 69
61 93 72
60 91 71
61 92 72
63 94 74
155 147 129
227 199 179
238 210 190
240 213 193
242 215 195
243 216 196
244 216 197
243 216 197
243 216 197
243 216 197
242 216 197
241 215 197
240 214 196
239 213 195
237 212 194
234 209 191
233 208 191
230 206 189
226 203 186
223 200 184
220 197 181
216 194 179
208 187 172
187 157 143
115 87 69
60 91 71
60 91 72
61 93 73
60 92 72
60 91 72
62 94 74
60 91 71
60 91 71
59 90 71
58 89 70
60 91 72
62 95 74
61 93 73
60 91 71
60 92 72
60 91 72
60 92 72
61 94 74
60 90 71
58 88 69
61 92 73
63 95 75
60 92 72
60 91 71
60 92 72
59 90 71
60 92 72
60 91 71
59 90 71
59 90 71
61 92 72
60 91 71
60 92 73
61 93 73
62 95 74
61 92 73
59 89 70
58 88 69
60 92 72
58 88 69
59 90 71
58 88 69
59 91 71
58 89 70
62 95 75
62 94 74
58 89 70
61 93 73
58 89 70
59 90 71
56 86 68
61 94 74
63 96 75
59 90 71
58 88 69
59 89 70
59 90 71
59 90 71
59 90 71
58 89 70
60 92 72
59 91 71
60 91 72
59 91 71
61 93 73
58 88 69
58 89 70
56 86 68
59 90 71
58 89 70
60 91 72
59 90 71
58 89 70
61 93 73
60 92 72
59 90 71
58 89 70
63 96 75
59 90 70
59 91 71
57 87 68
62 94 74
60 91 72
61 93 73
58 89 70
60 92 72
59 91 72
60 91 72
60 92 72
58 88 70
60 91 72
56 86 68
59 90 71
59 91 71
59 90 71
58 89 70
58 88 69
58 88 69
58 88 69
61 93 73
59 90 71
58 89 70
58 88 69
58 89 70
58 89 70
60 92 73
57 87 68
62 95 74
59 91 71
60 92 72
61 93 73
60 91 72
60 92 72
60 91 72
59 90 71
60 92 73
59 91 72
59 90 71
57 87 68
59 91 72
59 90 71
58 88 69
60 93 73
60 92 72
58 89 70
60 92 73
58 89 70
58 89 70
56 85 67
59 91 72
57 88 69
61 88 69
133 107 69
61 93 73
61 93 73
61 92 72
62 95 75
62 95 74
62 95 75
62 95 74
60 91 72
62 94 74
62 95 74
62 95 75
62 95 74
61 92 72
59 90 71
61 92 73
60 92 72
61 93 73
62 94 74
63 96 75
61 93 73
62 94 74
61 93 73
61 93 73
62 95 74
60 91 71
63 96 75
60 92 72
63 95 75
61 92 72
63 96 75
61 93 73
62 94 74
61 93 73
61 93 73
60 92 72
61 93 73
60 92 72
63 95 75
63 96 75
57 87 68
63 96 75
63 96 75
61 93 73
59 90 70
60 91 71
59 90 71
62 95 74
63 97 76
61 93 73
61 93 73
58 89 69
62 94 73
61 92 72
60 92 72
60 91 72
61 93 73
61 92 72
60 92 72
60 91 72
60 92 72
60 91 71
62 94 74
62 95 74
59 90 70
58 88 69
59 90 71
61 92 72
59 90 71
61 93 73
61 93 73
61 93 73
62 95 74
61 93 73
59 91 71
60 92 72
60 92 72
60 92 72
60 91 72
61 93 73
62 95 75
59 90 71
62 95 74
61 94 73
62 94 74
60 91 72
59 89 70
59 89 70
60 91 72
61 92 73
58 89 70
58 88 69
58 89 70
61 93 73
60 91 71
59 89 70
60 91 72
59 90 71
61 92 72
62 94 74
59 90 71
59 90 70
61 92 72
61 92 72
60 91 71
60 91 71
64 97 76
58 88 69
61 90 71
111 108 92
56 53 50
31 33 34
33 35 36
34 36 38
34 36 37
35 37 39
35 37 39
35 37 39
36 38 40
37 39 41
37 38 41
38 39 42
37 39 41
37 38 41
37 39 41
37 38 41
37 38 40
36 38 40
36 38 40
36 38 40
36 37 39
35 36 38
34 35 37
34 36 38
33 35 37
32 34 35
30 32 33
29 31 32
29 30 31
26 27 28
25 26 27
23 28 26
52 79 63
56 86 68
56 86 68
59 90 71
60 92 72
59 89 70
61 93 73
60 90 71
62 94 74
60 91 71
58 88 69
60 91 71
61 93 72
60 91 71
62 94 73
60 90 70
60 90 71
59 89 70
64 98 76
60 91 71
62 94 73
58 88 69
59 90 70
58 88 69
59 91 71
59 90 70
60 92 72
59 89 70
59 90 70
60 91 71
60 92 72
64 97 76
61 92 72
60 91 71
61 92 71
61 93 72
61 92 71
62 94 73
60 91 71
58 88 69
59 89 70
60 91 71
58 88 68
59 89 69
59 88 69
59 89 69
59 89 69
59 87 68
104 82 46
141 90 32
135 98 61
127 111 92
147 130 107
119 104 86
102 90 74
129 113 94
180 157 132
168 146 122
103 89 74
191 137 90
199 123 44
196 122 44
196 121 44
198 120 44
192 118 43
186 112 40
177 108 39
174 106 38
171 105 37
168 101 36
149 93 33
142 90 32
136 85 30
122 79 28
115 75 27
93 64 22
93 69 30
42 64 52
42 67 55
44 70 58
44 69 56
47 74 60
48 75 60
51 79 63
50 77 62
53 81 64
55 84 67
55 84 66
57 88 69
58 89 69
60 92 72
61 92 72
61 92 72
58 88 69
58 89 69
61 93 73
58 87 68
60 91 72
62 95 74
67 95 75
156 149 130
224 195 174
235 208 188
242 214 193
243 216 195
244 217 197
245 218 197
246 218 198
245 218 198
245 218 198
245 218 198
243 217 198
243 217 198
242 216 197
240 214 196
238 213 195
236 211 193
234 209 192
232 208 190
230 206 188
226 202 186
221 198 181
219 196 180
213 191 176
203 182 168
182 123 110
102 87 67
61 93 73
61 93 73
61 93 73
61 93 73
62 94 74
60 91 72
61 92 73
61 93 73
61 92 72
59 90 71
58 88 69
60 91 71
59 91 71
57 87 68
59 90 71
59 90 71
59 90 70
60 92 72
62 94 74
60 92 72
59 91 71
62 95 75
62 94 74
60 92 72
59 90 71
61 93 73
59 90 71
59 90 70
58 89 70
57 86 68
60 90 71
62 95 74
57 87 69
58 89 70
58 89 70
60 92 72
59 91 71
60 92 73
61 93 73
59 90 71
57 86 68
59 91 71
58 88 69
58 89 70
59 91 71
62 95 74
60 92 72
61 93 73
61 92 73
58 88 69
58 88 70
59 90 70
58 89 70
60 91 71
59 89 70
61 94 74
63 96 75
60 92 73
59 90 71
61 93 73
63 96 75
59 91 71
61 93 73
58 89 70
61 93 73
61 92 73
60 92 72
58 89 70
60 91 72
61 93 73
59 91 71
60 91 72
57 87 69
58 89 70
62 95 75
57 87 69
59 90 71
57 87 69
59 90 71
57 87 69
58 88 69
58 89 70
62 94 74
58 89 70
57 88 69
58 89 71
60 92 73
58 89 70
60 91 72
61 94 74
59 91 72
58 89 70
58 89 70
59 91 71
59 91 72
62 95 74
61 94 74
59 90 71
59 90 71
58 89 71
57 88 69
61 94 74
62 95 75
60 92 72
60 91 72
60 92 73
60 92 72
60 91 72
58 89 71
60 92 72
60 92 73
61 94 74
60 93 73
58 89 70
62 95 75
59 91 71
56 86 68
58 89 70
60 92 72
58 89 70
59 90 71
59 91 71
58 89 70
61 93 73
64 97 77
59 91 72
62 95 75
59 90 71
56 86 68
59 89 70
121 103 69
154 115 71
60 91 72
63 96 75
60 92 72
61 93 73
62 94 74
59 89 70
60 91 71
60 92 72
63 95 75
62 95 75
60 91 72
63 96 75
61 93 73
62 95 74
63 96 75
59 91 71
60 91 71
60 92 72
61 93 73
61 93 73
63 96 76
63 96 75
58 88 69
60 92 72
61 94 74
61 93 73
62 95 74
64 98 77
62 94 73
62 94 74
60 92 72
60 91 72
62 94 74
61 94 73
63 96 76
59 91 71
61 92 73
62 95 74
62 95 74
59 89 70
63 95 75
64 97 76
62 94 74
63 96 75
61 93 73
60 91 72
61 93 73
62 95 75
61 93 73
62 94 74
59 91 71
60 91 72
61 93 73
59 90 71
61 94 73
62 94 74
59 90 71
61 93 73
60 92 72
61 92 72
58 89 70
62 95 74
61 93 73
63 96 75
58 89 70
59 90 71
63 96 75
61 93 73
61 93 72
60 92 72
60 92 72
61 93 73
61 93 73
60 91 72
60 92 72
61 93 73
62 95 74
63 96 75
58 89 70
61 92 72
61 93 73
60 91 72
60 92 72
58 89 70
62 94 74
62 94 74
61 93 73
62 95 74
63 96 75
59 89 70
61 93 73
60 92 72
62 95 75
61 92 72
63 96 75
59 90 71
60 91 71
61 93 73
60 92 72
59 89 70
61 93 73
59 90 70
60 91 71
60 92 72
63 96 75
61 92 72
59 90 71
59 90 71
107 107 90
65 60 54
30 32 33
31 33 35
33 35 37
33 35 36
34 36 38
34 36 37
35 37 39
35 37 39
36 37 39
36 38 39
37 38 40
35 37 38
36 38 40
35 37 39
36 37 39
35 37 39
35 36 38
36 37 39
35 37 39
34 35 37
34 35 37
34 35 37
32 34 35
32 33 35
31 33 34
29 30 31
28 30 31
27 28 29
24 26 27
23 24 25
25 34 31
51 79 63
57 88 69
57 87 69
55 85 67
59 90 71
59 90 71
56 86 68
56 86 67
61 92 73
57 87 68
55 84 65
59 90 70
61 92 72
64 96 75
59 89 70
58 88 69
59 90 71
58 87 68
61 92 72
60 91 71
59 90 71
62 94 74
60 91 71
61 92 72
57 87 68
59 89 70
61 92 72
58 88 68
60 91 72
62 94 74
62 93 73
61 92 72
61 92 72
59 89 70
60 91 71
60 91 71
60 91 71
61 92 71
61 92 72
61 92 72
61 91 71
60 90 70
58 88 68
60 90 70
57 86 67
59 89 69
57 85 66
57 85 66
66 83 62
116 79 32
134 87 33
127 96 65
122 107 87
150 133 109
161 140 116
166 144 119
159 138 114
120 106 89
139 114 88
183 121 61
186 116 42
182 114 40
182 113 40
180 112 40
178 110 39
177 108 39
170 105 37
168 103 37
158 95 33
147 91 32
135 83 28
132 83 29
114 73 25
103 69 23
90 61 21
83 62 23
69 66 44
40 63 52
41 64 52
42 66 54
44 69 57
42 66 54
45 70 57
49 75 60
51 78 62
55 85 67
57 87 68
56 85 66
59 89 70
59 89 69
59 89 70
60 91 71
62 93 73
59 90 70
57 88 69
60 91 71
59 90 70
59 90 70
62 94 74
133 131 113
220 193 173
234 205 184
238 210 190
243 215 194
245 217 197
247 218 198
247 219 198
247 219 199
247 219 199
247 219 199
246 219 199
245 218 199
245 218 198
244 217 198
242 216 197
239 213 193
238 212 193
235 209 190
233 208 190
230 205 187
228 204 186
224 200 183
221 198 181
216 193 178
207 185 170
199 161 148
174 68 52
80 90 70
60 92 72
60 92 72
61 94 74
61 94 74
60 92 72
61 93 73
60 92 72
62 95 75
61 93 73
59 90 71
60 91 71
62 94 74
59 90 71
58 89 70
61 93 73
58 88 69
59 91 71
63 96 75
62 94 74
59 90 71
62 94 74
61 93 73
62 94 74
60 91 72
60 92 72
58 89 70
58 88 70
60 92 72
59 90 71
59 91 71
60 91 72
59 90 71
57 87 68
57 87 69
57 87 69
60 92 72
60 91 72
60 92 72
61 93 73
58 88 69
59 89 70
58 88 69
59 90 71
59 90 71
58 88 70
62 95 74
61 94 74
60 91 72
60 92 72
60 92 73
62 94 74
60 92 73
59 90 71
60 91 71
59 91 71
59 91 71
58 89 70
60 92 72
61 93 73
63 96 75
62 94 74
59 91 71
60 92 72
59 90 71
61 94 74
59 89 70
62 94 74
60 92 72
60 92 72
60 92 72
59 90 71
60 91 72
59 90 71
58 88 69
59 91 71
59 90 71
59 90 71
60 91 72
60 92 72
63 95 75
60 92 72
59 89 70
58 89 70
59 90 71
61 93 74
60 92 73
57 87 69
57 87 69
59 90 71
58 88 70
57 87 68
57 87 69
60 92 72
56 86 68
59 90 71
60 92 72
58 89 70
58 89 70
58 88 69
59 90 70
62 95 74
61 93 73
60 92 72
62 95 74
60 91 72
59 90 71
59 90 71
60 92 73
58 89 70
58 89 70
59 90 71
60 91 72
57 88 69
59 90 71
60 91 72
57 87 69
58 88 70
58 88 69
60 91 72
59 90 71
59 91 71
60 92 72
58 89 70
60 91 72
62 94 74
60 92 73
60 92 73
59 89 70
119 103 70
153 114 71
157 117 73
60 91 72
62 94 73
62 95 74
62 94 74
62 94 74
61 93 73
62 95 74
62 94 74
63 96 75
60 92 72
60 91 71
60 91 72
62 94 74
62 95 74
61 93 73
63 96 75
60 91 71
62 95 74
63 96 75
62 94 74
61 94 73
61 94 74
63 96 76
62 94 74
61 94 74
61 93 73
59 90 71
59 90 71
60 92 72
62 94 74
62 94 74
64 97 76
60 92 72
61 93 73
61 92 72
61 94 73
61 93 73
65 98 77
62 95 74
60 91 72
64 98 77
63 95 75
57 88 69
63 96 75
59 89 70
62 95 74
61 93 73
62 94 74
62 95 74
60 91 71
61 93 73
63 95 75
62 94 74
60 91 71
61 93 73
60 92 72
62 95 74
60 91 72
60 91 71
62 94 74
64 98 77
61 94 73
62 95 74
60 91 71
59 90 71
59 89 70
61 93 73
60 91 72
61 93 73
62 94 74
60 91 72
63 95 75
58 89 70
59 90 71
61 93 73
61 93 73
59 91 71
62 95 74
58 88 69
63 95 74
62 95 74
63 96 76
61 92 72
64 98 77
62 94 74
63 96 75
57 87 69
61 93 73
63 96 75
60 92 72
62 95 75
59 90 71
60 92 72
61 94 73
60 91 72
64 98 77
61 93 73
61 92 72
61 92 72
60 91 71
62 95 74
60 91 72
62 95 74
62 94 73
60 92 72
61 93 73
61 93 72
60 91 72
100 109 91
91 83 73
28 30 31
30 32 33
32 34 35
32 34 35
33 35 37
33 35 36
34 36 38
34 36 38
35 37 38
34 36 37
35 36 38
34 36 37
35 36 38
35 36 38
34 35 36
35 37 38
35 36 37
34 36 37
33 34 36
33 35 36
33 34 35
32 34 35
31 33 34
31 32 33
29 31 31
29 30 31
27 28 29
26 27 27
23 25 25
21 23 24
28 40 34
50 77 62
52 81 65
54 83 66
53 81 65
56 86 68
59 90 71
59 91 72
60 91 71
60 91 72
59 89 70
57 87 68
62 94 73
62 94 73
61 92 72
58 88 68
59 88 69
58 88 69
58 88 68
62 93 73
60 92 72
58 89 69
61 92 72
61 93 73
60 90 71
61 92 72
59 89 69
59 90 70
60 91 71
60 92 72
60 92 72
59 90 70
59 89 70
59 89 69
61 92 72
57 87 68
61 92 72
61 92 72
59 89 69
62 93 72
59 89 69
58 88 68
59 89 69
59 89 69
59 88 69
58 87 68
61 91 71
59 88 67
56 84 65
55 82 64
73 75 50
114 76 28
136 90 37
131 96 57
105 89 69
110 96 78
113 99 81
101 90 72
130 108 84
163 113 63
172 107 38
170 106 37
174 108 38
174 109 39
170 106 37
166 100 35
163 101 35
153 94 33
148 93 32
140 87 30
134 83 28
121 76 26
112 73 25
92 62 20
78 57 19
80 59 20
62 56 31
42 61 50
40 62 51
39 61 50
40 63 52
42 67 55
46 72 58
47 72 58
49 75 60
51 78 62
55 84 66
57 86 68
60 91 71
58 87 68
57 86 67
60 90 70
58 88 68
59 89 70
58 89 70
61 93 73
59 89 70
60 92 72
60 90 71
78 99 79
202 179 159
229 201 181
235 207 186
242 213 193
245 216 195
248 219 197
248 219 198
248 220 199
249 220 199
248 220 200
248 220 200
248 220 199
246 219 199
246 218 199
245 217 198
243 216 197
240 214 194
237 211 191
236 211 192
233 208 191
232 206 188
230 205 188
226 202 184
222 198 182
219 195 179
213 190 174
203 175 160
188 78 63
144 72 54
65 90 71
59 90 70
63 96 75
60 92 72
59 91 71
61 92 72
62 94 74
62 94 74
62 94 74
60 92 72
58 88 70
60 91 72
58 89 70
59 90 70
61 93 73
62 94 74
58 89 70
62 94 74
61 92 72
59 90 70
60 91 72
59 90 71
60 92 72
60 91 71
62 94 74
61 92 73
59 90 70
62 94 74
60 91 72
59 90 71
60 92 72
60 92 73
61 93 73
58 89 70
58 89 70
58 89 70
60 92 72
59 90 71
60 92 72
59 90 71
61 93 74
60 92 73
59 91 71
58 88 69
58 89 70
60 91 72
62 94 74
60 91 71
60 91 72
60 91 72
61 93 73
58 89 70
57 88 69
59 90 71
58 88 69
59 91 71
58 88 69
60 91 72
61 92 73
61 93 73
58 89 70
62 95 74
60 92 72
60 91 72
58 89 70
59 91 71
59 90 71
61 93 73
62 95 75
61 92 73
59 90 71
62 94 74
59 89 70
59 90 71
61 93 74
61 93 74
59 90 70
59 90 71
62 95 75
61 93 73
60 92 72
60 92 72
58 89 70
59 90 71
60 92 72
59 91 71
61 93 73
61 93 73
60 91 72
58 89 70
61 93 74
62 94 74
59 90 71
60 91 72
59 91 71
61 94 74
59 90 71
60 91 72
59 91 72
63 96 76
61 94 74
59 90 71
59 90 71
61 93 73
62 94 74
60 91 72
58 89 70
58 89 70
60 91 72
58 89 70
57 87 68
57 88 69
58 88 70
66 94 75
101 111 95
130 131 115
138 137 121
134 133 118
140 138 122
125 127 111
101 111 95
83 102 84
62 92 73
58 89 70
61 94 74
58 89 70
58 89 70
113 101 70
154 115 71
157 117 72
158 118 73
63 97 76
59 90 71
63 96 75
60 92 72
61 93 73
64 97 76
59 90 71
61 93 73
61 93 73
60 91 71
61 94 73
60 91 72
61 93 73
62 95 74
60 92 72
60 92 72
60 91 72
59 90 71
60 92 72
62 95 74
63 96 75
61 92 72
63 95 75
61 92 72
61 93 73
62 95 74
61 92 73
61 93 73
63 96 75
62 95 75
62 95 75
62 94 74
60 92 72
61 93 73
61 93 73
60 92 72
59 90 71
61 93 73
60 92 72
60 91 72
60 91 72
62 94 74
61 93 73
60 92 72
61 93 73
61 93 73
61 93 73
63 95 75
62 95 75
61 93 73
58 89 70
63 96 75
59 90 71
60 91 71
59 91 71
64 97 76
61 92 73
58 88 69
60 92 72
61 94 74
62 94 74
60 92 72
62 95 74
61 93 73
62 94 74
59 90 71
61 93 73
62 94 74
60 91 71
60 92 72
60 91 72
63 96 75
61 92 73
60 91 72
60 92 72
58 89 70
61 93 73
61 93 73
61 93 73
60 91 71
60 92 72
63 96 75
63 95 75
64 97 76
61 93 73
60 92 72
60 91 72
59 90 71
58 89 70
59 91 71
59 90 71
60 91 72
61 92 72
61 94 73
61 92 72
60 91 72
60 91 71
62 94 74
61 93 72
60 91 72
61 93 73
62 94 74
61 93 73
60 91 71
57 87 68
59 90 70
61 93 72
57 87 68
74 95 76
97 90 77
29 31 31
30 32 33
29 31 32
31 33 34
31 33 34
32 34 35
33 34 36
33 35 36
33 35 37
33 35 36
34 35 36
33 34 36
33 35 36
34 35 37
33 35 36
33 34 36
33 34 35
32 34 35
33 34 36
31 33 34
31 33 33
31 33 34
31 32 33
29 31 32
29 30 31
26 27 28
26 27 28
23 25 25
20 22 22
19 20 20
33 50 41
48 75 60
52 80 64
51 79 63
52 81 65
52 80 63
57 87 69
60 92 72
57 88 69
59 90 70
60 91 71
63 95 75
60 91 72
60 91 71
61 93 72
59 90 71
61 92 72
62 95 74
61 93 73
65 98 77
63 95 74
60 91 71
60 91 72
61 92 72
63 95 74
59 89 70
58 89 69
59 90 70
62 93 73
60 91 72
58 87 68
58 87 67
61 92 72
59 90 70
59 89 69
57 87 68
61 92 72
61 92 72
60 91 71
61 93 72
59 89 70
60 90 70
60 90 70
58 86 67
60 90 70
59 89 69
58 86 66
61 90 69
58 87 67
56 84 65
57 82 63
68 67 42
112 75 26
124 80 27
132 89 40
134 97 56
139 101 62
148 107 64
151 100 47
156 98 34
158 98 34
160 100 35
159 99 34
152 96 33
152 96 33
147 93 32
151 96 33
139 89 30
130 84 28
126 80 27
119 77 26
103 69 22
82 58 18
75 55 17
74 56 18
63 54 27
48 61 47
38 59 48
40 62 51
41 65 53
39 61 50
42 65 53
44 69 55
48 75 60
50 76 60
51 79 62
55 84 65
58 88 68
57 86 67
59 89 69
61 91 71
60 91 71
61 91 71
59 90 71
57 86 67
57 86 67
61 92 72
61 93 73
61 92 72
168 151 131
221 193 172
231 203 182
238 210 189
243 215 194
247 217 196
249 220 198
250 220 199
250 221 199
249 221 200
249 220 200
249 221 200
249 220 200
247 219 199
247 219 199
246 218 198
243 215 196
240 213 194
238 211 192
237 211 192
234 208 189
233 207 188
230 204 186
226 201 184
225 200 183
218 195 179
213 190 174
206 182 166
192 92 77
172 60 43
114 76 59
60 92 73
60 91 71
63 96 76
60 91 72
60 92 72
63 96 76
61 93 73
60 91 72
63 96 76
60 91 72
60 91 72
61 93 73
58 89 70
59 91 71
61 92 72
59 91 71
59 90 71
59 90 71
60 92 72
59 90 71
58 88 69
58 88 69
57 86 68
61 93 73
59 91 71
58 88 69
58 89 69
59 91 71
58 89 70
60 91 72
63 95 75
59 89 70
63 96 75
63 96 75
60 92 72
59 91 71
59 90 71
60 92 72
59 90 71
62 94 74
63 96 75
60 91 71
61 92 72
59 90 71
58 89 70
61 93 73
61 92 73
61 93 73
61 93 73
59 90 71
60 92 72
57 87 68
59 90 71
60 92 72
62 95 74
59 91 71
62 94 74
63 95 75
60 92 72
57 87 69
57 88 69
59 89 70
60 92 73
58 88 69
61 93 73
60 91 72
58 89 70
64 98 77
60 92 72
62 95 74
60 92 72
61 92 73
61 93 73
62 94 74
58 89 70
59 90 71
60 91 72
57 87 68
61 94 74
59 90 71
60 92 73
57 88 69
60 92 73
59 90 71
58 89 70
61 93 73
61 93 73
61 94 74
58 88 70
59 91 72
63 97 76
58 89 70
59 91 71
57 88 69
60 92 72
60 92 73
59 90 71
59 91 71
57 87 69
58 88 70
59 91 71
61 93 73
62 94 74
60 92 73
62 94 74
57 87 69
57 87 68
60 91 72
64 92 73
92 108 90
163 154 138
194 177 160
212 191 174
222 199 182
225 202 185
226 202 185
225 201 185
221 199 183
218 196 181
213 192 177
198 181 166
171 161 146
131 131 116
82 101 84
60 92 73
105 101 72
153 114 71
155 116 72
158 118 73
159 119 74
60 92 72
60 92 72
64 97 76
62 94 74
59 90 71
62 94 73
59 90 71
60 91 72
61 93 73
63 96 75
62 94 74
59 90 71
58 88 69
61 93 73
60 91 71
60 91 71
59 90 71
60 92 72
62 94 73
61 93 73
61 92 72
63 96 75
59 90 71
60 92 72
61 93 73
62 94 74
62 94 74
64 98 77
63 96 75
62 95 74
62 94 74
62 94 74
64 98 77
60 92 72
59 90 71
61 93 73
60 92 72
61 92 72
63 96 76
58 89 70
62 95 74
60 92 72
59 90 71
63 96 75
59 90 70
61 93 73
63 95 75
63 96 75
61 92 72
61 92 72
61 94 74
63 96 75
61 94 73
64 97 76
61 92 72
61 93 73
60 92 72
62 94 73
63 95 74
58 89 70
58 89 70
61 93 73
58 89 70
60 91 71
64 97 76
64 97 77
60 92 72
62 94 74
60 92 72
60 92 72
62 95 74
62 95 74
62 95 75
61 93 73
63 95 75
62 94 74
60 92 72
62 94 74
60 92 72
61 93 73
60 91 71
62 95 74
61 93 73
60 91 71
60 90 71
60 91 71
58 88 69
59 90 70
59 89 70
59 90 70
58 88 69
62 94 74
60 91 72
64 96 75
60 91 71
57 87 68
61 92 72
62 94 73
60 92 72
61 93 73
61 92 72
60 92 72
61 93 73
59 90 70
60 90 71
58 88 69
60 91 72
60 91 71
61 88 69
92 90 76
35 36 33
27 29 30
28 30 31
29 31 32
30 32 33
30 32 33
32 34 35
32 33 34
31 33 34
33 34 35
32 33 34
33 34 35
33 34 35
32 34 35
31 33 34
32 33 34
32 33 35
32 34 35
31 32 33
30 31 32
30 31 32
29 31 31
29 31 31
28 29 30
27 28 29
25 27 27
24 25 26
21 22 22
19 21 21
18 22 20
39 61 50
46 73 59
47 73 59
50 77 62
52 81 64
54 82 65
55 84 67
56 86 68
57 86 68
59 91 71
59 89 69
59 89 70
61 93 72
63 96 75
60 92 72
60 91 71
59 89 69
59 90 70
58 88 69
61 92 71
62 94 74
60 91 71
62 93 73
62 93 73
60 91 71
60 91 71
65 97 76
61 93 73
60 91 71
61 93 72
58 87 67
60 91 71
59 90 70
61 92 72
60 90 70
59 89 69
63 95 74
58 88 68
63 94 72
59 88 68
59 89 69
58 87 67
61 91 71
59 89 69
58 86 66
60 89 68
57 86 66
57 86 67
54 81 62
55 82 64
56 83 64
50 70 53
72 63 35
93 66 22
114 76 25
124 81 27
128 83 28
130 84 28
135 87 29
139 90 30
140 89 30
140 88 30
136 88 29
134 86 29
136 88 30
133 85 29
128 83 27
123 80 26
109 73 24
104 69 22
95 65 21
77 56 17
64 49 14
62 50 15
65 55 26
39 56 44
38 58 47
37 58 47
38 59 48
39 61 50
41 64 52
44 69 56
47 73 58
50 77 61
55 83 65
52 80 63
56 84 65
56 84 65
58 87 68
57 86 67
60 91 71
58 87 68
59 90 70
62 93 73
60 91 71
58 87 68
59 89 69
60 90 70
94 108 90
206 181 160
223 195 173
230 201 179
239 211 189
242 213 192
246 217 195
249 219 197
251 221 199
251 221 199
251 222 200
250 221 200
250 222 200
250 222 201
250 222 200
248 220 199
247 219 198
243 215 195
242 215 195
240 212 192
238 211 191
236 209 190
234 208 189
229 204 186
229 204 186
226 201 183
219 195 178
215 192 176
207 180 164
195 92 77
180 60 43
149 65 49
70 94 73
60 91 71
59 90 71
62 94 73
62 94 74
62 95 74
62 94 74
64 97 76
62 94 74
59 89 70
61 92 73
61 92 72
61 92 72
62 94 74
60 91 72
60 91 71
60 91 71
60 92 72
61 93 73
59 89 70
59 89 70
61 93 73
58 89 70
59 90 71
58 88 69
58 88 69
60 91 72
59 90 71
59 89 70
61 93 73
59 90 71
61 93 73
62 94 73
61 93 73
61 92 72
59 90 71
59 91 71
58 88 69
59 91 71
58 89 70
60 91 71
59 90 71
60 92 72
63 96 76
60 91 71
62 94 74
58 89 70
59 91 71
60 91 71
60 92 72
61 93 73
61 93 73
65 99 77
61 94 74
57 87 68
60 92 72
60 92 73
60 92 73
60 92 72
60 92 72
60 92 73
58 89 70
59 90 71
62 94 74
61 92 73
60 91 72
59 90 71
59 91 71
60 91 72
60 91 71
59 91 71
61 92 73
60 91 72
58 88 70
58 88 69
61 93 73
63 95 75
61 93 73
59 91 71
58 89 70
60 91 72
64 98 77
62 95 75
60 91 72
58 89 70
59 91 71
57 87 68
59 90 71
59 90 71
60 92 72
60 92 72
62 94 74
61 93 73
58 89 70
60 92 72
57 87 68
60 92 72
62 95 75
60 91 72
58 89 70
61 93 73
59 89 70
60 92 72
60 91 72
59 91 71
59 90 71
64 94 75
93 110 91
171 161 144
221 197 179
231 206 187
233 208 189
233 208 190
232 208 190
232 207 190
230 206 189
228 205 188
227 203 187
223 201 184
223 200 184
219 198 182
216 195 180
212 191 177
199 181 167
146 133 112
151 113 70
155 116 71
157 118 73
158 118 73
157 117 73
60 92 72
65 99 77
59 90 71
60 92 72
62 94 74
63 95 75
61 93 73
61 92 72
61 92 73
63 96 75
61 94 74
62 94 73
60 91 71
62 94 74
63 95 75
60 91 71
60 92 72
61 93 73
59 89 70
62 95 74
62 94 74
63 95 75
63 96 75
62 95 75
61 94 73
60 91 72
61 94 73
63 96 75
61 93 73
61 94 73
63 96 75
62 95 74
62 95 74
62 94 73
62 95 75
60 92 72
60 91 71
61 93 73
60 91 71
61 93 73
62 94 73
57 88 69
62 94 74
59 90 71
61 93 73
62 95 74
61 94 74
62 95 74
61 93 72
63 95 75
61 93 73
61 93 73
65 99 78
63 95 75
63 96 75
61 93 73
61 92 72
61 92 72
60 91 71
61 93 73
59 90 71
59 90 71
61 93 73
60 92 72
60 91 72
59 90 70
59 89 70
63 96 75
60 92 72
62 95 75
65 98 77
61 93 73
62 95 74
60 91 71
60 92 72
61 93 73
58 88 69
60 92 72
61 93 73
65 100 78
62 94 74
63 95 75
60 92 72
62 95 74
61 93 73
60 91 71
61 93 73
61 93 73
58 89 70
61 93 72
61 92 72
64 98 77
61 92 72
59 90 70
62 94 73
62 94 73
60 92 72
60 91 71
61 92 72
62 94 73
59 90 70
59 90 70
60 91 71
61 93 73
62 94 73
59 90 70
59 90 70
59 90 71
59 89 70
91 101 83
47 46 41
25 27 27
27 28 29
27 29 29
28 30 31
29 31 31
30 32 32
30 32 32
31 32 32
30 32 32
31 32 33
31 32 33
31 32 33
31 32 33
31 32 33
31 32 33
29 31 31
30 31 32
29 31 31
30 31 32
29 31 31
28 29 29
27 29 29
26 28 28
23 25 25
23 24 24
21 22 22
18 20 19
16 18 17
23 34 29
41 65 53
42 67 55
47 73 60
49 76 61
52 81 65
51 80 64
53 81 65
55 83 66
57 86 68
58 89 70
58 89 70
57 87 68
59 90 70
61 93 73
61 92 72
61 93 72
59 89 69
61 92 72
59 90 70
61 92 72
61 92 72
61 92 72
62 94 74
57 87 68
58 88 68
59 90 70
61 92 72
62 94 73
60 90 71
59 89 69
60 92 72
59 89 70
56 86 67
60 90 70
61 92 72
60 90 70
59 89 69
57 86 67
59 89 69
58 87 68
60 90 69
60 90 70
60 89 69
58 87 67
57 85 66
57 85 65
56 83 64
56 83 64
55 83 63
55 81 61
52 76 58
46 68 52
43 61 46
53 51 29
79 58 19
99 67 21
105 71 23
112 75 24
119 77 25
124 81 26
127 83 27
123 80 26
120 79 26
119 78 26
117 77 26
111 74 24
106 71 23
104 70 22
92 63 20
80 57 17
69 51 15
60 49 13
56 47 13
58 53 28
36 52 40
33 50 40
37 56 45
40 61 49
37 58 47
39 62 50
41 63 51
47 72 57
48 74 59
51 78 62
53 80 62
57 85 66
59 89 69
59 89 69
62 93 72
59 88 68
59 89 69
61 92 71
61 92 72
60 91 70
60 90 70
60 91 71
60 90 71
64 94 74
157 142 122
218 190 168
227 199 177
233 205 184
237 208 186
240 210 187
246 215 193
248 218 196
250 219 197
252 221 199
251 221 200
252 223 201
255 226 203
255 231 207
255 231 207
254 225 203
247 218 197
244 216 195
242 214 194
240 212 192
238 210 189
234 207 187
233 206 187
230 204 184
229 203 184
225 199 181
218 194 176
212 189 171
206 179 163
195 75 59
190 63 45
165 57 41
97 82 64
59 89 70
59 90 71
60 91 72
59 90 71
58 89 70
59 90 70
61 92 73
61 93 73
61 94 74
60 91 72
60 92 72
59 90 71
61 92 73
59 90 70
57 87 68
59 90 70
61 92 72
60 91 71
60 91 71
60 91 72
61 92 72
61 93 73
61 94 74
59 91 71
57 87 68
58 89 70
58 89 70
61 93 73
60 92 72
60 91 72
60 92 72
58 89 69
58 88 70
61 94 74
59 90 71
58 89 70
62 95 74
60 92 72
61 93 73
61 93 73
60 92 72
59 89 70
62 95 74
60 92 72
59 90 71
64 98 77
59 90 71
59 90 71
59 90 71
60 91 72
59 90 71
61 92 72
62 95 74
60 91 72
59 91 71
59 89 70
58 89 70
57 88 69
60 91 72
60 91 72
57 88 69
59 90 71
60 92 73
63 96 76
60 91 72
59 91 71
62 94 74
60 91 72
60 91 72
60 92 73
59 90 71
57 88 69
61 93 73
61 93 73
60 91 72
61 94 74
63 96 76
62 94 74
60 91 72
57 87 68
58 89 70
59 89 70
60 92 72
61 93 73
60 92 72
62 94 74
60 91 72
61 93 73
60 92 72
62 95 74
60 92 73
60 92 72
62 94 74
61 93 73
57 88 69
58 89 70
63 95 75
61 93 73
60 91 72
59 91 72
61 93 73
61 93 73
58 88 69
58 89 70
66 94 75
155 148 130
205 183 166
202 180 164
210 187 171
220 196 179
228 203 185
234 209 191
236 211 193
236 210 193
233 208 191
231 207 190
230 206 189
227 203 186
226 203 187
224 201 185
220 198 183
217 196 181
200 176 158
153 116 75
156 117 72
158 118 73
159 119 74
160 119 74
158 118 73
62 95 74
65 99 77
61 93 73
62 94 74
60 92 72
59 91 71
61 92 72
63 97 76
60 91 72
60 92 72
59 89 70
63 96 76
62 95 74
60 91 71
63 95 74
60 92 72
59 90 70
61 93 73
59 91 71
59 89 70
62 94 73
62 94 74
63 95 75
60 92 72
61 93 73
62 95 74
59 90 71
58 89 70
62 94 74
60 92 72
61 93 73
64 98 77
60 92 72
62 95 75
63 95 75
61 92 72
61 93 73
62 94 74
62 94 74
63 96 76
62 94 74
63 96 75
64 98 77
61 92 73
60 91 72
61 94 74
63 95 75
61 93 73
60 92 72
60 92 72
60 92 72
61 94 73
61 93 73
61 94 73
64 98 77
61 93 73
59 90 70
60 92 72
61 93 73
62 95 74
60 92 72
61 93 73
62 94 74
60 91 71
61 93 73
63 96 75
63 95 75
58 89 70
60 91 72
62 94 74
61 92 72
61 94 73
62 94 74
62 95 74
63 95 75
62 94 74
60 92 72
60 92 72
59 90 71
63 96 75
61 93 73
63 96 75
61 92 72
62 94 73
63 96 75
63 96 75
63 96 75
62 94 73
60 91 72
64 97 76
62 95 74
59 90 71
61 93 73
58 89 69
61 93 73
58 88 69
62 94 74
61 92 72
61 93 72
62 94 74
61 92 72
59 90 70
61 92 72
59 90 70
61 93 73
60 91 71
60 90 70
60 91 71
59 90 70
61 87 68
53 56 46
22 24 24
24 26 26
26 28 29
27 29 29
28 29 30
29 31 31
29 31 31
29 30 30
29 31 31
30 32 32
29 30 31
30 31 32
30 31 31
28 29 29
29 30 31
28 29 29
29 30 30
28 30 30
27 29 29
27 28 28
25 27 27
24 26 25
24 25 25
22 24 23
21 23 23
19 21 21
15 17 16
16 18 16
28 43 36
43 69 57
41 66 54
43 68 56
45 71 58
48 75 61
51 79 63
55 84 67
57 88 69
56 85 67
58 88 69
59 89 69
58 87 68
59 90 70
60 90 71
58 88 69
58 87 68
55 83 64
59 89 70
62 93 73
62 94 73
60 91 71
62 94 74
59 90 70
60 91 71
59 88 69
61 91 71
57 86 67
59 89 69
61 92 72
57 86 67
59 88 68
60 89 69
61 91 71
60 89 69
60 91 71
60 90 69
58 87 67
58 87 68
61 92 71
59 87 67
60 91 71
57 85 66
58 86 66
58 86 66
55 83 64
55 82 63
55 81 62
54 80 61
56 82 62
57 84 64
53 79 60
52 78 60
46 68 52
38 57 43
47 51 34
65 50 19
80 58 17
91 63 19
94 64 20
100 68 21
107 71 22
102 69 22
106 71 22
103 69 22
97 67 21
91 63 19
83 60 18
72 54 16
67 51 14
65 51 14
57 47 13
57 47 18
44 47 29
34 48 37
32 49 39
31 48 39
36 54 44
37 57 46
40 61 49
41 63 51
44 68 54
49 74 58
51 77 60
58 88 69
55 83 64
57 86 66
61 92 71
58 87 67
59 89 69
59 87 67
61 93 72
60 90 70
62 93 72
60 90 70
59 89 69
62 93 73
62 94 73
80 93 73
188 162 140
214 188 166
224 197 175
229 201 179
237 207 185
240 211 188
243 213 190
246 215 193
249 217 195
249 218 196
252 221 198
255 226 202
255 241 215
255 255 226
255 254 225
255 236 211
251 221 199
243 215 194
240 212 191
242 214 193
236 208 187
234 206 185
234 206 186
232 205 185
227 201 181
223 198 179
218 194 175
209 186 168
205 154 139
198 69 51
186 62 44
168 57 40
129 70 53
59 89 70
58 88 69
63 95 75
63 95 75
59 90 71
60 91 71
62 94 74
59 90 71
59 89 70
60 92 72
58 88 69
59 89 70
60 92 72
57 87 69
59 90 71
61 93 73
63 95 74
61 93 73
63 96 76
61 93 73
59 90 71
59 90 71
57 87 69
61 93 73
59 90 71
57 87 68
60 91 71
61 93 73
61 94 74
60 92 72
62 95 74
60 91 71
57 87 68
61 93 73
60 92 72
62 94 74
57 87 68
63 97 76
60 92 72
62 94 74
60 92 72
61 93 73
60 92 72
60 91 71
58 89 70
59 90 71
61 93 73
60 91 71
60 91 71
59 90 71
61 93 73
58 88 69
59 90 71
57 87 68
58 89 70
58 89 70
58 89 70
57 88 69
60 92 73
60 92 72
58 88 69
59 90 71
62 94 74
58 89 70
58 88 69
62 94 74
61 93 73
60 91 72
57 88 69
58 88 69
59 90 71
58 89 70
57 88 69
60 91 72
60 92 72
60 91 71
61 93 73
61 93 73
58 89 70
60 91 71
60 92 73
59 89 70
60 92 72
62 95 75
60 92 72
61 93 73
62 94 74
60 92 72
59 90 71
61 93 73
59 90 70
60 91 72
61 93 73
57 87 69
59 91 71
58 89 70
58 89 70
59 91 72
59 90 71
57 88 69
61 94 74
60 91 72
60 92 73
57 86 68
65 70 63
69 65 62
45 46 49
46 47 49
49 49 51
52 52 53
81 76 73
105 96 91
147 132 122
163 147 135
199 179 164
229 205 187
230 206 188
230 206 189
228 204 187
227 204 187
223 200 184
211 187 169
155 119 81
155 116 71
159 118 73
158 118 73
159 118 73
158 119 74
158 119 74
59 90 71
63 95 75
59 90 70
61 94 73
58 89 70
59 90 71
59 90 71
61 93 73
61 93 73
62 95 74
62 94 74
60 92 72
63 96 75
60 91 72
63 95 75
60 92 72
59 90 71
59 90 70
60 91 71
59 90 71
62 94 74
62 94 74
60 92 72
62 94 74
59 90 71
62 94 74
60 92 72
61 93 73
62 94 74
62 95 74
64 97 76
62 95 75
62 95 74
62 95 74
59 90 71
62 94 74
62 94 73
61 92 72
63 96 75
60 91 72
62 94 74
63 96 76
60 92 72
61 93 73
61 93 73
61 92 72
64 97 76
62 94 74
63 95 75
62 95 74
64 97 76
63 97 76
61 93 73
61 92 73
61 92 73
62 94 74
59 90 70
59 90 71
61 92 73
62 94 74
60 92 72
62 94 74
62 94 74
61 93 73
61 92 72
66 100 79
59 90 71
60 92 72
61 93 72
61 93 72
62 94 73
62 95 74
64 98 77
62 94 74
61 93 73
61 93 73
59 91 71
61 92 72
61 93 73
61 93 73
60 91 71
62 94 73
61 93 73
62 95 74
60 92 72
60 91 71
60 91 71
60 91 71
61 93 73
60 91 71
61 92 72
59 90 71
62 95 74
61 93 73
61 92 72
58 89 70
61 92 72
58 87 68
61 93 72
59 89 70
63 95 75
59 89 69
60 92 72
61 93 73
58 88 69
59 90 70
59 90 71
59 89 70
58 89 70
58 89 69
62 79 63
26 29 27
22 24 24
24 26 25
25 26 26
25 27 27
27 28 28
27 28 28
28 29 29
27 29 28
28 29 29
28 30 30
27 29 28
27 28 28
27 28 28
27 28 28
28 29 28
27 29 29
26 28 27
26 27 27
26 27 27
25 26 25
22 24 23
21 23 22
20 21 20
18 20 19
15 18 17
14 16 15
20 29 25
37 59 49
41 66 54
41 66 55
43 68 55
44 70 57
50 78 63
51 79 62
50 77 61
56 85 67
55 84 66
57 87 68
57 87 68
57 86 68
61 92 72
58 89 69
60 91 71
57 86 67
61 92 72
61 92 72
62 93 72
61 92 72
61 92 72
61 93 72
57 86 67
62 93 72
58 87 68
58 88 69
56 84 66
59 90 70
60 91 71
59 89 69
59 89 69
60 89 69
62 94 73
60 90 70
59 89 69
60 89 69
61 91 71
61 92 71
59 88 68
60 90 70
58 86 67
57 86 66
59 89 69
56 84 65
58 87 67
57 85 65
60 89 68
58 86 66
56 82 63
57 85 65
57 83 63
54 79 59
50 72 54
45 67 51
36 53 40
32 41 29
47 40 19
60 46 14
64 50 14
67 51 14
78 55 16
75 54 16
75 55 16
71 53 15
71 52 15
69 51 14
65 49 14
59 47 13
64 49 14
61 46 13
46 41 20
39 43 30
29 44 34
30 44 35
32 50 41
33 51 41
35 53 42
38 58 46
40 60 47
46 70 54
51 76 59
54 80 62
56 82 63
59 88 67
58 87 67
58 87 67
58 86 67
57 86 67
56 84 65
58 85 66
58 87 67
60 91 71
62 93 73
60 89 69
56 85 66
61 92 72
59 89 70
106 98 79
204 175 153
214 188 166
225 198 176
226 197 174
235 205 182
238 207 185
241 210 187
246 214 191
246 214 191
249 219 196
251 220 197
255 229 205
255 253 223
255 255 242
255 255 238
255 245 217
254 224 200
244 214 193
241 212 190
239 210 190
237 208 187
236 206 185
231 202 181
228 201 181
226 199 180
221 195 176
214 189 171
206 182 164
208 119 103
196 65 46
186 62 44
167 56 40
138 56 41
68 91 71
59 89 70
60 91 71
61 93 73
62 94 73
60 91 71
60 91 72
59 90 70
61 93 73
62 95 74
61 93 73
59 90 71
61 93 73
59 91 71
61 93 73
60 91 72
60 92 72
61 92 72
59 90 70
57 87 68
58 89 70
61 93 73
60 92 72
60 91 72
61 93 73
60 91 71
59 90 71
60 91 71
63 97 76
58 88 69
61 93 73
60 91 72
57 87 68
59 90 70
58 88 69
61 92 73
58 89 69
59 90 71
60 92 72
58 89 70
59 89 70
60 90 71
59 90 71
60 91 72
60 91 72
62 96 75
63 96 76
60 92 72
61 92 72
61 93 73
61 93 73
60 92 72
60 91 72
61 92 72
60 92 72
59 90 71
59 90 71
62 94 74
60 92 72
61 92 72
61 93 73
61 93 73
59 90 71
58 88 69
58 88 69
60 91 71
58 89 70
59 90 71
60 92 72
59 90 70
59 90 70
62 94 74
58 89 70
59 90 71
59 91 71
61 93 73
62 94 74
59 90 71
62 94 74
61 92 73
60 91 72
60 92 72
60 91 71
59 90 71
60 91 71
59 90 71
61 93 73
62 94 74
63 96 75
59 91 72
60 91 72
59 90 71
61 93 73
58 89 71
61 93 73
59 90 70
57 87 68
58 89 70
59 91 71
63 96 76
60 92 72
60 91 72
54 81 65
41 50 47
38 41 44
40 42 45
40 43 46
40 43 46
40 43 47
40 43 47
40 43 47
40 43 47
40 43 47
40 42 46
46 47 50
71 67 66
108 99 93
163 147 136
202 181 166
224 200 183
216 192 174
157 122 84
155 116 72
157 118 73
157 118 73
159 119 73
158 118 73
158 118 73
157 118 73
65 100 78
59 90 71
62 94 74
61 93 73
61 93 73
61 92 73
60 92 72
63 95 75
61 93 73
58 88 69
59 90 71
59 91 71
59 91 71
60 92 72
64 97 76
63 97 76
61 93 73
63 95 75
61 93 73
61 93 73
62 94 74
61 93 73
63 96 75
61 93 73
60 92 72
61 93 73
58 88 69
62 94 74
63 95 75
62 95 74
62 95 75
60 92 72
62 95 75
61 92 72
63 96 75
61 93 73
60 91 71
59 90 71
63 96 75
62 94 74
61 92 73
59 90 70
59 90 71
62 95 74
62 94 73
61 93 73
59 90 70
59 90 70
61 92 72
63 96 75
60 92 72
62 95 74
62 94 74
61 93 73
64 97 76
60 92 72
60 91 71
60 92 72
62 94 73
63 96 75
61 93 73
63 95 75
62 94 73
61 93 73
65 100 78
64 98 77
63 96 75
58 88 69
61 93 73
61 93 73
59 90 70
59 89 70
59 89 70
58 88 69
61 93 73
62 94 74
61 92 72
64 96 76
61 93 73
58 89 70
62 95 74
62 94 74
59 90 70
61 93 73
61 92 72
60 91 71
61 93 72
60 91 71
61 93 73
60 91 71
61 93 73
62 94 74
63 96 75
62 93 73
59 90 70
61 93 73
59 89 69
58 89 69
59 90 70
59 90 71
58 87 68
57 86 67
60 91 71
62 94 74
62 94 73
59 90 70
60 91 71
58 88 68
56 84 66
59 89 69
54 83 65
32 47 38
19 21 21
22 24 24
22 24 23
24 25 25
24 26 25
25 26 25
24 26 25
25 27 26
25 26 26
26 27 27
26 27 26
25 27 26
25 26 26
25 27 26
26 27 26
25 27 26
24 26 25
23 24 23
23 24 24
21 23 22
20 22 21
19 21 20
17 19 18
14 16 15
12 15 14
14 19 16
32 50 42
38 61 51
39 63 52
40 65 54
42 66 54
45 69 56
48 75 60
50 77 61
55 85 67
55 84 66
57 86 67
58 87 68
60 90 70
57 87 68
58 88 68
57 86 67
58 88 69
58 87 68
62 93 73
58 87 68
62 94 74
60 91 71
62 93 72
61 92 72
61 92 72
62 93 73
60 90 70
56 85 66
58 88 68
60 90 70
61 92 71
58 88 69
60 91 71
61 91 71
59 88 69
58 88 69
58 87 68
58 87 68
59 88 68
60 89 69
61 92 71
62 93 71
57 86 67
57 84 65
58 86 66
59 87 67
56 83 64
55 82 63
59 87 66
55 81 61
55 81 62
54 80 60
57 84 64
55 81 61
53 78 58
49 71 53
43 62 46
37 55 42
27 40 30
27 37 27
37 32 17
47 38 16
58 44 13
55 43 13
55 43 11
62 46 12
58 44 12
57 44 12
56 43 13
49 38 12
42 35 17
28 33 23
24 36 29
27 41 32
27 42 33
31 47 37
34 51 40
38 57 45
43 66 51
47 69 54
50 75 58
52 77 59
55 81 63
56 83 64
57 84 65
57 85 66
56 83 64
56 83 64
59 88 68
58 87 67
59 87 67
60 91 70
59 89 69
59 89 69
62 92 72
59 90 70
61 92 71
58 87 68
61 92 72
137 95 76
202 173 152
213 186 164
218 190 167
226 197 175
230 202 179
236 205 183
237 206 183
240 209 186
244 213 191
246 214 191
250 219 196
255 224 200
255 244 216
255 255 232
255 255 229
255 240 212
249 220 197
242 211 188
240 209 186
236 206 185
235 206 186
232 203 181
231 203 182
226 197 176
224 196 175
214 188 168
214 188 169
206 163 146
198 70 52
196 65 46
175 58 41
169 57 40
144 53 38
76 86 67
59 90 71
61 92 72
60 91 72
60 90 70
60 91 71
60 91 71
59 90 71
61 93 73
64 98 76
62 94 74
59 90 70
61 92 73
61 93 73
59 89 70
60 91 72
58 88 69
62 94 74
60 91 71
59 89 70
60 91 72
61 92 72
59 91 71
60 91 71
61 93 73
61 93 73
60 91 71
61 92 72
58 88 70
58 88 69
59 90 71
59 90 71
61 93 73
59 90 70
58 89 70
60 91 71
58 88 69
60 91 71
61 93 73
61 93 73
61 93 73
62 94 74
61 92 72
59 90 71
57 87 68
60 91 72
62 94 74
60 91 71
59 90 71
61 93 73
62 95 74
61 92 72
58 88 69
58 89 70
61 93 73
59 90 71
59 91 71
60 92 72
61 92 72
59 89 70
59 90 71
59 90 71
61 93 73
60 92 72
59 90 71
61 93 73
60 92 73
59 91 71
62 94 74
58 89 70
61 93 73
61 93 73
60 91 72
62 94 74
57 86 68
60 91 72
58 89 70
58 89 70
60 91 72
60 92 72
62 95 75
61 93 73
60 91 72
61 93 73
60 92 72
58 89 70
61 92 73
59 90 71
56 86 68
59 90 70
59 90 71
59 91 71
58 88 70
60 92 72
58 89 70
60 92 72
60 92 72
60 92 72
61 93 73
60 92 73
58 88 70
56 84 67
39 46 46
38 41 44
40 42 45
40 42 46
41 43 47
41 43 47
41 43 47
41 43 47
41 43 47
40 43 47
40 43 47
40 42 46
39 42 46
39 42 46
39 42 46
39 41 45
50 50 52
107 94 85
156 122 87
154 115 71
158 118 73
159 119 73
158 119 73
158 118 73
159 119 74
157 118 73
156 117 73
64 97 76
63 96 76
60 92 72
60 92 72
59 89 70
59 90 70
61 93 73
62 95 74
63 97 76
64 97 76
61 92 72
63 96 75
61 93 73
59 90 71
58 88 69
61 93 73
61 92 73
59 91 71
61 93 73
61 93 73
63 95 75
60 91 72
62 95 74
62 94 74
60 92 72
63 96 75
60 92 72
63 95 75
62 94 74
61 93 73
61 93 73
62 95 74
61 93 73
61 92 72
61 94 74
60 91 72
61 93 73
62 94 74
60 91 71
62 94 74
61 93 73
62 95 74
63 96 75
60 91 71
65 99 78
62 94 74
61 93 73
61 93 73
63 97 76
61 93 73
62 95 74
61 92 72
64 97 76
64 98 77
63 96 75
60 91 72
60 92 72
60 92 72
64 97 76
66 100 78
64 97 76
61 93 73
61 93 73
62 95 74
64 97 76
62 94 74
60 92 72
61 93 73
60 91 71
61 93 73
63 96 75
60 91 72
59 90 70
59 90 70
62 95 74
61 92 72
62 95 74
61 92 72
61 92 72
60 92 72
59 90 71
64 97 76
65 99 78
63 95 75
59 89 70
62 94 74
61 93 73
60 92 72
61 92 72
59 90 70
63 95 74
60 91 71
60 90 71
59 89 70
63 95 75
63 96 75
58 89 69
60 91 71
62 94 73
60 90 71
58 88 68
59 89 70
60 92 72
61 92 72
61 92 71
60 90 71
61 93 72
58 89 69
55 83 65
54 81 63
57 87 68
49 75 59
22 31 27
18 20 19
21 23 22
21 22 21
23 25 24
22 23 22
23 25 24
22 24 23
23 25 24
23 25 23
23 24 23
23 25 24
23 24 23
23 24 23
23 25 24
22 23 22
22 24 23
22 23 22
20 22 20
20 21 20
17 19 18
15 17 16
14 16 15
11 14 12
12 16 13
24 39 32
35 56 46
37 60 50
39 63 52
39 63 52
40 63 51
45 70 57
48 75 60
50 76 60
55 84 66
57 87 68
58 87 68
59 89 70
60 90 70
57 86 67
61 92 72
56 85 66
60 91 71
61 92 72
61 92 72
61 92 72
58 88 69
62 93 73
62 93 72
60 91 71
58 87 68
60 90 70
59 89 69
59 89 70
61 92 72
61 92 72
60 91 71
59 88 68
66 99 78
60 90 70
58 87 68
60 89 69
60 90 70
60 90 70
60 91 71
58 86 67
60 90 70
61 91 70
58 85 66
59 88 68
60 89 69
58 85 65
56 83 64
59 88 67
60 89 68
57 83 63
56 82 62
54 80 61
56 81 61
54 78 58
55 80 60
53 76 56
52 76 57
50 72 53
42 60 45
36 52 38
32 47 35
26 36 27
24 29 20
27 30 21
27 27 16
26 24 13
26 27 16
22 24 16
21 22 15
21 27 19
23 34 27
25 37 29
26 38 29
30 45 35
36 53 41
41 62 48
43 63 48
47 69 53
51 74 56
53 77 59
54 80 61
58 86 66
57 85 66
57 85 66
60 88 67
58 87 67
56 83 64
59 88 68
60 89 69
60 90 70
58 88 68
62 92 72
61 91 71
62 92 72
61 91 71
58 88 68
59 89 69
61 92 72
63 93 72
151 83 64
205 172 150
211 186 163
218 188 166
221 192 170
228 198 175
231 201 177
236 205 182
238 207 184
242 211 188
240 209 186
245 213 190
249 217 193
255 227 201
255 239 211
255 233 205
253 222 198
242 212 189
238 207 184
237 207 185
234 204 182
232 201 179
231 200 178
227 197 175
223 195 173
219 191 170
215 188 167
209 177 157
204 107 90
198 65 45
186 61 42
175 58 41
162 54 38
137 47 33
87 79 62
63 95 75
64 96 75
60 91 72
59 90 70
60 91 72
59 90 71
57 87 68
57 87 68
59 91 71
59 90 70
59 89 70
60 91 72
60 92 72
61 93 73
58 88 69
62 95 74
62 95 74
61 92 72
62 94 74
62 94 74
60 91 72
60 91 72
61 93 73
58 88 69
62 94 73
58 88 69
57 87 69
61 93 73
59 89 70
61 93 73
60 92 72
62 94 74
59 90 70
60 91 72
59 90 71
60 91 72
61 92 72
63 96 75
61 93 73
63 96 75
60 91 72
60 91 72
62 94 74
60 91 72
60 92 72
61 93 73
61 92 72
58 89 70
60 91 71
59 89 70
60 92 72
61 93 73
60 92 73
59 91 71
61 92 72
62 94 74
59 90 71
61 93 73
58 89 70
59 90 71
63 95 75
61 92 73
60 92 72
60 92 72
60 92 73
59 90 71
58 88 70
61 93 73
60 91 72
63 96 75
60 91 71
59 91 71
59 91 71
58 89 70
63 95 75
59 90 71
58 89 70
59 89 70
60 92 72
60 93 73
59 90 71
60 92 72
60 91 72
61 92 73
63 96 76
60 92 72
59 90 71
58 89 70
62 95 75
60 91 72
60 91 71
61 93 73
61 94 73
60 92 72
58 88 69
59 90 71
59 89 70
62 95 75
60 91 72
54 82 65
40 49 46
38 40 43
39 41 44
40 42 45
41 43 46
41 43 47
41 43 47
41 44 47
41 43 47
41 43 47
41 43 47
40 43 47
40 43 46
40 42 46
40 42 46
39 42 46
39 42 45
57 51 48
136 102 65
155 116 72
157 118 73
158 118 73
159 119 74
158 118 72
158 118 73
158 118 73
156 116 72
155 117 72
63 96 75
62 95 74
60 91 71
61 92 72
59 90 71
62 94 74
62 95 74
60 91 71
63 96 75
64 97 76
66 101 79
63 96 75
62 95 74
62 94 74
58 88 69
61 93 73
61 94 73
61 93 73
62 95 74
64 97 76
63 96 75
61 94 73
60 91 71
61 92 72
61 93 73
62 95 75
63 95 74
66 100 78
61 92 73
64 97 76
63 96 75
62 94 74
64 98 77
60 92 72
61 93 73
61 93 73
61 93 73
61 93 73
61 93 73
62 94 74
62 94 74
61 92 72
63 95 75
62 94 74
62 95 74
64 97 76
60 92 72
62 94 73
64 97 76
61 92 72
62 94 74
62 94 73
63 96 75
64 97 76
66 100 78
61 93 73
60 91 72
62 94 74
59 89 70
64 97 76
61 93 73
60 92 72
61 92 72
61 93 73
60 91 71
60 92 72
61 92 72
60 92 72
62 94 74
62 95 74
63 95 74
60 91 71
60 91 72
62 94 74
60 91 71
61 92 72
60 91 71
59 90 71
60 92 72
61 93 73
63 95 74
60 92 72
62 95 74
60 91 71
60 91 71
64 97 76
60 91 72
60 91 71
61 92 72
58 88 69
61 92 72
60 92 72
62 93 73
62 95 74
62 94 73
61 92 72
58 88 69
58 88 69
63 96 75
61 92 72
60 91 70
58 88 69
59 89 69
62 94 73
59 90 70
58 88 69
56 85 66
56 84 65
57 86 66
52 79 61
53 81 64
53 81 63
43 66 53
18 24 21
16 18 16
18 21 19
18 21 19
19 21 20
20 22 20
21 23 21
20 22 21
20 22 21
21 22 21
21 22 21
21 23 21
20 22 20
20 22 20
20 21 20
19 20 19
17 19 18
17 19 17
15 18 16
14 17 15
12 15 12
10 13 10
10 14 12
21 33 27
36 57 47
34 55 45
35 56 46
35 56 47
37 58 48
40 63 51
48 75 60
47 72 57
54 83 65
54 81 63
56 84 66
59 89 69
60 91 70
61 93 73
59 89 69
59 89 69
61 92 72
61 93 73
62 94 73
61 93 72
61 92 72
61 92 71
61 92 72
61 91 70
62 94 73
60 91 71
63 95 74
59 89 69
59 89 69
61 91 71
62 94 74
60 90 71
62 94 73
60 90 70
59 89 70
58 86 67
59 89 69
59 89 69
59 88 69
60 90 70
62 93 72
60 89 69
60 89 69
60 88 68
57 86 66
60 89 68
57 84 64
56 83 64
58 87 67
58 86 66
57 84 64
60 89 68
55 81 61
58 85 64
56 83 63
54 78 59
57 83 62
55 79 59
52 76 57
53 76 56
50 72 53
49 70 51
43 61 45
41 58 42
40 56 41
36 52 38
36 52 39
33 48 35
37 54 40
35 51 38
37 53 39
39 57 43
38 55 41
43 62 46
49 71 54
50 73 55
52 76 57
52 76 58
54 79 60
58 85 64
56 82 63
55 80 61
58 85 65
58 85 66
57 84 65
59 88 68
59 87 67
56 84 64
59 88 68
60 89 69
63 95 74
59 89 70
60 89 69
57 86 67
60 90 70
59 89 70
60 91 71
60 90 70
60 90 70
58 87 68
159 71 52
195 153 133
203 177 155
215 187 164
217 189 166
222 192 168
231 202 179
228 198 175
230 200 176
239 208 186
238 206 183
234 204 180
242 209 186
245 212 189
245 213 188
245 214 190
238 208 184
234 203 179
235 204 180
231 200 177
232 202 180
229 198 176
227 197 176
223 194 172
223 194 174
215 187 166
210 180 160
204 117 99
199 64 45
190 62 43
182 60 42
172 57 40
164 55 38
141 48 34
94 77 59
60 92 72
61 94 74
61 93 73
60 91 71
60 91 71
58 88 69
58 88 69
59 89 70
59 89 69
61 92 73
58 88 69
62 94 74
60 92 72
59 89 70
60 91 71
60 91 71
60 92 72
61 93 73
64 97 76
61 92 73
63 95 75
60 91 72
61 92 72
60 92 73
60 92 72
61 93 73
59 90 70
58 88 69
60 92 72
62 94 74
60 91 71
60 92 72
60 92 72
62 94 74
61 92 73
59 91 71
59 89 70
60 92 72
60 91 72
60 91 72
59 90 71
62 94 74
59 90 70
61 92 72
58 89 70
61 93 73
59 90 71
58 89 70
60 92 72
62 94 74
59 90 70
61 92 72
58 89 70
58 89 70
59 90 71
60 92 72
61 93 73
60 91 72
62 94 74
59 91 71
59 90 71
61 93 73
58 88 69
59 89 70
60 92 72
60 91 72
61 93 73
59 90 71
62 94 74
62 95 74
59 90 71
61 93 73
62 94 74
60 92 72
60 92 72
59 90 71
58 88 69
60 92 72
59 90 71
59 90 71
60 91 72
60 91 71
62 94 74
62 95 74
58 89 70
57 86 68
61 93 73
59 90 70
61 92 72
58 89 70
60 91 72
60 92 72
60 91 71
59 90 70
60 91 72
60 92 72
61 93 73
58 88 70
59 90 71
44 58 51
36 39 41
39 41 43
40 42 45
40 43 46
41 43 47
41 44 47
41 44 47
41 44 47
41 44 47
41 44 47
41 43 47
40 43 47
40 43 46
40 42 46
40 42 46
39 42 46
52 48 47
133 100 64
155 115 71
157 118 73
158 118 73
159 119 74
159 119 74
158 118 73
158 118 73
157 118 73
156 117 73
154 115 71
61 92 72
58 89 70
61 93 73
62 94 74
64 98 77
63 95 75
62 95 75
60 91 71
61 93 73
62 94 74
63 96 75
61 93 73
65 98 77
62 95 74
61 92 72
63 96 75
63 96 75
60 91 71
63 96 75
65 99 77
63 95 74
63 96 75
60 92 72
63 96 76
60 92 72
61 93 73
64 97 76
62 94 74
62 94 74
62 94 74
61 92 72
61 92 72
63 96 75
63 96 75
62 94 74
61 93 73
60 91 71
62 95 74
62 94 74
65 99 78
62 94 73
61 93 73
60 91 71
60 91 72
63 96 75
60 91 71
64 97 76
62 95 74
61 93 73
60 92 72
61 94 73
62 94 74
66 101 79
61 93 73
63 95 75
62 94 74
61 92 72
63 95 74
63 96 75
62 94 74
60 91 71
63 95 74
61 93 73
61 93 73
59 90 71
61 93 73
63 95 75
60 92 72
62 94 74
62 95 74
61 93 73
63 95 75
61 92 73
60 91 71
61 92 72
61 93 72
60 91 71
62 94 74
61 92 72
58 88 69
60 92 72
64 97 76
61 93 72
63 95 75
58 88 69
60 92 72
61 93 73
62 95 74
64 97 76
63 96 75
57 87 68
58 89 69
61 92 72
59 89 70
59 89 70
59 90 70
59 89 70
59 90 70
59 90 70
61 92 72
60 91 71
62 94 73
59 89 69
58 88 69
59 88 69
57 87 68
58 87 68
59 89 69
59 89 69
55 83 64
53 79 62
51 78 62
42 64 50
35 54 43
17 25 21
13 16 14
14 17 15
17 20 18
17 19 17
17 19 18
18 20 18
18 20 18
18 20 19
18 20 19
18 20 18
18 20 18
18 20 18
17 19 17
16 18 16
15 17 15
14 17 14
11 14 12
10 13 11
9 12 10
9 13 10
21 33 27
31 49 40
36 58 48
35 56 46
35 57 47
36 57 47
40 62 51
43 67 54
49 75 59
53 80 63
56 85 66
59 89 69
59 89 69
58 87 68
60 91 71
60 90 70
57 86 67
59 89 69
59 89 69
63 95 74
63 95 74
60 90 70
60 91 71
61 92 71
60 90 70
59 89 69
59 89 69
57 86 67
62 94 73
62 94 73
59 89 70
58 88 68
59 89 70
60 90 69
61 91 71
58 87 68
60 90 71
60 90 70
60 91 71
62 92 72
61 93 73
58 87 67
62 93 72
61 91 70
61 90 69
59 86 66
58 86 66
57 85 66
59 88 67
60 91 70
61 91 70
57 85 65
57 85 65
55 82 62
57 84 64
62 90 69
60 88 67
57 82 62
55 79 59
55 80 60
55 80 60
55 79 59
54 78 58
55 78 58
52 75 55
52 75 55
54 79 58
52 75 55
52 74 55
49 71 53
51 73 54
52 76 57
52 75 56
54 79 59
52 76 57
50 73 54
56 81 61
56 83 63
55 80 61
55 81 61
55 81 62
55 82 62
60 88 67
58 86 66
59 88 68
58 86 66
60 89 68
63 93 72
61 90 69
56 84 65
59 87 67
58 85 66
59 89 69
62 92 71
61 92 72
60 89 69
57 86 67
59 89 69
60 91 71
58 87 68
61 91 71
63 88 68
152 70 51
192 121 102
202 176 154
209 183 160
219 190 167
219 190 167
222 192 169
229 197 174
231 200 176
229 199 176
232 200 176
234 203 179
235 203 180
235 205 182
235 204 180
232 201 178
234 203 180
234 203 180
230 199 176
227 195 172
230 198 175
225 193 169
223 193 171
220 190 168
212 184 162
208 176 155
208 131 113
202 65 45
194 63 43
189 61 42
179 59 41
170 56 39
150 50 35
139 48 34
83 74 58
58 88 69
60 91 72
57 86 68
59 90 71
60 91 71
62 94 74
59 90 70
59 90 71
60 90 71
62 95 74
58 88 69
60 91 71
59 91 71
60 91 71
62 94 73
59 90 71
60 90 71
60 92 72
59 90 71
59 89 70
63 96 75
61 93 73
60 92 72
59 89 70
60 91 71
59 90 71
58 88 69
61 92 72
61 93 73
59 89 69
61 93 73
59 90 71
61 92 72
61 93 73
61 93 73
61 93 73
62 94 74
60 92 72
60 92 72
61 93 73
60 91 72
57 87 69
63 96 75
60 91 72
57 88 69
59 90 70
58 88 69
61 93 73
60 91 72
59 90 70
60 91 72
59 91 71
56 86 67
58 89 70
59 90 71
58 88 69
59 91 71
59 90 71
60 91 72
61 92 72
60 92 72
59 91 71
56 86 68
59 89 70
62 95 75
58 88 69
58 89 70
59 90 71
60 92 72
59 90 71
61 93 73
60 91 72
58 89 70
61 92 73
59 91 71
60 91 72
58 89 70
60 92 72
57 87 68
59 90 71
57 87 69
59 90 71
61 92 72
59 90 71
57 86 68
61 93 74
61 93 73
60 91 72
60 91 72
57 87 68
62 95 75
61 94 74
62 94 74
57 87 68
58 88 69
60 92 72
61 93 73
58 89 70
49 71 58
36 38 41
38 40 43
39 41 44
40 42 45
41 43 46
41 43 46
41 44 47
41 44 47
41 44 47
41 44 47
41 44 47
41 43 47
40 43 46
40 43 46
40 43 46
40 42 46
41 43 46
129 98 64
155 116 71
158 118 73
158 118 73
158 118 73
159 118 73
158 118 73
158 118 73
158 118 73
155 117 72
155 116 72
153 115 71
64 98 77
62 94 74
60 92 72
63 96 75
59 90 70
61 93 73
61 93 73
61 93 73
60 92 72
65 99 77
63 96 75
59 90 70
60 91 72
63 96 75
61 93 73
63 96 75
63 95 75
63 96 75
62 94 74
60 91 71
65 99 77
60 92 72
63 95 75
61 93 73
60 92 72
63 95 75
61 93 73
60 91 71
59 91 71
63 97 76
63 95 75
61 93 73
62 95 74
64 98 77
61 93 73
61 93 73
62 94 74
62 95 74
64 97 76
63 97 76
64 97 76
63 96 75
60 91 71
63 96 75
65 98 77
61 93 73
61 93 73
62 94 73
63 96 75
61 93 73
62 94 74
61 92 72
62 94 73
61 93 73
61 92 72
64 98 76
60 90 71
62 95 74
63 96 75
62 94 73
61 93 73
61 92 72
60 91 71
58 89 69
63 96 75
60 92 72
59 89 70
59 90 70
57 87 68
59 90 71
60 91 71
63 96 75
58 89 70
61 93 73
61 93 73
60 90 71
62 94 74
62 94 73
59 90 71
60 91 72
62 94 73
59 90 70
62 94 74
61 93 73
60 91 72
61 93 73
61 93 73
60 91 71
63 95 74
62 94 74
61 93 72
62 95 74
64 97 75
61 92 72
61 93 72
59 89 70
61 92 72
61 92 72
63 96 75
60 91 71
61 92 72
61 93 72
62 93 73
59 90 70
59 89 69
60 90 70
57 86 66
57 86 67
58 88 68
57 85 66
55 83 65
47 71 55
45 69 54
40 62 50
33 52 42
20 31 25
11 15 12
12 14 12
14 16 14
14 17 14
15 17 15
15 18 16
16 18 16
16 18 16
15 17 15
15 18 15
15 17 15
14 16 14
12 15 13
11 14 11
11 14 11
10 13 10
10 13 10
12 19 15
21 33 26
28 44 36
29 46 37
32 52 42
34 55 45
36 57 46
39 61 49
45 70 56
47 71 56
52 79 61
54 81 63
57 86 67
59 89 69
57 86 67
57 87 67
59 89 68
59 90 70
57 86 67
59 90 70
61 92 72
60 92 71
57 87 68
59 90 70
60 91 71
59 90 70
61 93 72
61 93 72
59 90 70
59 90 70
59 88 68
59 88 69
61 92 72
59 88 68
61 91 71
59 88 69
58 88 68
59 89 69
59 89 69
61 92 72
62 92 72
61 93 72
62 93 73
58 87 68
56 84 65
58 87 68
58 87 67
57 86 66
60 90 69
59 89 69
61 91 70
56 84 65
60 88 68
58 86 66
58 84 64
58 85 65
60 88 68
57 84 64
58 85 65
59 86 65
59 86 66
59 86 66
58 84 64
57 84 63
57 83 63
55 80 60
53 76 57
55 80 60
53 76 57
54 79 59
54 79 60
56 81 61
52 75 56
55 80 60
58 84 63
53 77 58
55 80 60
55 82 62
55 80 61
56 82 62
56 83 63
54 80 61
56 81 62
55 81 63
57 84 65
57 85 65
60 89 69
60 89 68
58 86 66
59 86 67
59 89 69
59 88 68
60 90 70
58 87 68
58 87 68
61 92 71
62 93 72
60 90 70
63 93 72
57 85 66
61 91 70
57 86 67
56 85 66
66 89 69
151 67 48
185 71 52
197 162 141
204 178 155
211 184 161
212 184 161
213 183 159
221 193 168
225 195 171
227 197 173
228 198 175
229 199 175
229 198 174
232 201 177
226 197 174
231 200 176
231 200 177
230 200 176
224 194 170
223 192 169
218 187 164
220 190 168
218 188 166
215 186 164
210 174 153
204 113 95
203 65 44
195 62 42
192 62 43
171 55 38
170 56 39
163 54 38
144 48 33
130 45 31
94 74 58
57 88 69
55 84 66
57 87 68
57 86 68
60 91 72
59 89 70
60 92 72
60 91 72
58 88 69
57 87 68
59 90 71
59 90 71
59 90 71
58 88 68
59 90 70
58 89 70
60 91 71
64 97 76
61 93 73
60 92 72
60 91 71
62 95 75
61 92 72
62 95 74
60 92 72
59 89 70
61 92 73
61 92 72
60 91 71
58 89 70
61 92 72
58 89 70
60 92 72
60 91 71
59 90 71
59 90 71
61 92 73
60 92 72
61 92 73
59 90 71
58 88 69
59 90 70
62 95 74
61 93 73
61 93 73
60 92 72
59 90 70
61 92 72
59 89 70
61 93 73
61 92 72
60 91 71
60 91 72
60 91 71
58 88 69
59 90 71
60 92 72
61 93 73
59 89 70
58 89 70
59 89 70
60 92 72
56 86 68
59 90 70
63 95 75
59 89 70
59 89 70
60 92 72
62 94 74
61 93 73
59 89 70
61 93 73
58 88 69
61 92 73
61 92 73
61 92 73
60 92 72
60 91 71
59 89 70
59 90 71
59 91 71
58 89 70
59 90 71
59 90 71
60 90 71
57 87 69
59 90 71
60 92 72
61 94 73
61 92 73
60 91 72
59 90 71
61 93 73
60 91 72
60 91 72
60 91 72
60 91 72
56 84 67
37 44 43
36 38 40
38 40 43
39 41 44
40 42 45
41 43 46
41 43 46
41 44 47
41 44 47
41 44 47
42 44 47
42 44 48
44 46 48
45 46 49
43 45 48
41 44 47
42 43 46
123 94 62
154 115 71
157 117 72
157 117 72
158 118 73
159 119 74
159 119 74
159 119 74
156 117 73
155 117 72
155 116 72
152 114 71
152 114 71
63 95 75
60 91 72
62 94 74
63 96 75
63 95 75
62 95 75
63 96 76
62 94 73
62 95 74
63 95 75
64 98 77
62 94 74
61 93 73
62 94 74
65 99 77
64 98 77
60 91 71
63 96 75
60 91 71
62 94 74
65 99 77
63 96 75
61 93 73
63 96 75
62 94 74
61 93 73
59 89 70
62 94 74
61 93 73
64 98 77
61 93 73
58 89 70
60 91 72
64 97 76
61 93 72
64 98 77
62 95 74
62 95 75
63 96 75
60 91 71
61 92 72
61 94 73
61 93 73
62 95 74
59 89 70
59 90 71
61 93 73
62 95 74
60 91 72
63 96 75
60 91 71
60 92 72
62 95 74
61 93 73
61 92 72
62 94 74
59 90 71
64 97 76
63 95 75
62 95 74
62 94 74
63 95 74
61 93 73
62 94 73
63 96 75
63 96 75
60 91 71
61 93 73
61 93 73
58 88 69
61 93 73
64 98 76
60 91 71
63 95 75
62 94 74
60 92 72
60 91 71
60 92 72
61 93 72
61 93 73
63 96 75
62 94 74
61 93 72
61 93 73
58 88 69
60 91 72
60 90 71
63 95 75
59 90 70
62 94 73
60 91 71
62 93 72
62 94 74
59 90 70
58 88 69
61 93 72
60 92 72
60 91 71
59 90 70
58 88 68
58 88 69
58 87 68
55 84 65
60 91 71
57 87 67
60 91 71
56 85 66
55 82 64
55 83 64
56 83 64
54 81 62
53 79 61
47 71 55
45 69 54
36 56 45
30 48 39
23 35 28
12 18 14
10 14 11
10 13 11
11 14 11
11 14 12
12 14 12
12 15 12
12 14 12
11 14 12
11 13 11
9 13 10
9 12 10
10 13 10
9 12 9
10 14 11
14 22 17
20 32 26
27 42 34
28 45 36
28 44 36
31 49 40
36 55 44
42 65 52
46 70 56
49 75 59
52 78 60
55 83 64
57 85 66
54 81 63
59 89 69
57 86 66
58 86 67
59 88 69
61 92 72
57 86 67
59 90 70
60 91 71
60 90 70
61 91 71
57 87 68
60 91 71
59 89 70
60 91 71
61 93 72
61 92 72
57 86 67
60 91 71
63 95 74
59 89 69
59 90 70
60 90 70
61 92 72
60 91 71
61 91 71
60 90 70
59 89 70
58 87 67
59 90 71
60 89 69
63 94 73
59 89 69
57 85 67
58 87 68
59 88 68
59 88 68
60 90 70
59 88 68
59 88 67
59 87 67
58 86 66
59 88 68
59 88 68
59 87 67
60 89 68
60 88 67
58 85 65
58 85 64
57 84 63
57 84 64
57 84 64
54 78 59
57 82 62
57 84 64
58 84 64
57 83 63
58 85 64
58 83 63
54 80 60
57 84 64
56 82 62
55 81 62
56 82 62
57 83 63
56 82 62
57 84 64
59 87 66
56 83 63
56 82 63
57 83 64
57 84 65
56 83 64
60 89 68
61 90 70
59 88 68
59 88 68
59 88 68
56 84 65
58 87 67
58 87 68
59 88 69
61 91 70
61 91 71
59 89 69
59 89 70
57 86 67
57 86 66
60 91 71
61 92 71
57 86 67
59 85 66
148 61 43
181 58 39
191 96 78
196 160 138
201 175 152
209 182 158
212 185 161
218 190 166
219 190 166
222 193 169
220 191 167
223 194 170
226 196 172
224 192 169
224 191 167
228 197 174
218 188 164
223 193 170
218 187 163
215 185 162
218 187 164
214 185 162
210 180 157
209 158 138
210 101 83
200 64 44
195 61 41
186 59 40
184 60 41
172 55 38
159 52 35
151 50 35
137 47 33
127 44 31
79 75 59
53 81 64
54 83 66
56 86 68
54 83 66
59 90 71
56 86 67
57 87 68
60 91 71
58 88 69
58 89 70
60 92 72
58 88 69
62 94 74
60 92 72
58 87 68
64 97 76
62 94 73
62 94 74
63 95 75
61 93 73
59 90 70
61 93 73
59 90 71
59 90 70
61 93 73
62 94 74
62 95 74
60 91 71
60 92 72
61 92 72
60 91 71
61 93 73
59 89 70
60 92 72
59 89 70
59 90 71
58 89 70
61 93 73
61 92 72
61 93 73
62 95 74
59 90 71
61 93 73
60 92 72
63 96 75
59 90 71
57 87 68
60 92 72
61 93 73
60 91 72
59 90 70
58 89 70
60 91 71
59 89 70
57 88 69
58 88 69
61 93 73
63 95 74
61 92 73
58 88 69
62 95 74
60 91 72
60 91 72
60 91 71
60 91 71
58 89 69
58 89 69
60 92 72
63 96 75
60 92 72
57 87 68
60 91 71
60 91 71
61 93 73
62 94 74
62 95 74
63 96 76
62 95 74
59 90 71
60 92 72
60 91 71
60 91 72
59 89 70
59 90 70
58 89 70
59 89 70
59 90 71
60 91 72
59 91 72
56 85 67
60 91 72
59 90 71
58 88 70
61 94 74
59 90 71
58 88 69
58 89 70
52 74 60
35 37 39
37 38 40
38 40 42
39 41 44
40 42 45
40 42 45
41 43 46
41 43 46
42 44 47
42 44 47
44 46 48
51 51 52
63 62 60
69 67 64
61 61 59
48 49 51
114 88 60
153 114 71
158 118 73
160 119 74
159 119 74
159 119 73
158 118 73
157 118 73
157 118 73
157 117 73
156 117 73
154 115 71
152 114 71
150 113 70
62 95 75
59 90 70
65 98 77
61 93 73
60 92 72
63 96 75
61 93 73
61 93 73
60 91 72
62 95 74
59 90 71
60 92 72
61 92 72
60 92 72
59 90 70
64 97 76
62 95 74
62 94 74
62 95 74
63 96 75
62 94 74
61 93 73
63 96 75
62 94 73
63 96 76
60 91 71
62 95 74
62 94 73
59 89 70
61 93 73
61 92 72
62 95 75
61 93 73
59 90 70
64 97 76
64 97 76
65 98 77
60 91 72
58 89 70
62 95 74
61 93 73
62 94 73
65 99 78
63 95 75
63 96 75
63 96 75
63 96 76
60 92 72
63 96 75
63 95 75
61 92 73
61 92 72
63 95 75
62 95 74
62 95 74
61 93 72
62 94 74
59 90 70
61 92 72
60 92 72
60 92 72
64 97 76
63 96 75
63 96 75
63 96 75
63 95 75
60 92 72
61 92 72
64 97 76
63 95 74
63 96 75
64 97 76
60 91 71
62 93 73
59 90 71
59 90 70
60 91 71
61 93 73
62 94 73
60 90 71
61 92 72
61 93 72
61 92 72
59 90 71
59 90 70
61 93 73
59 90 70
61 93 73
61 93 73
61 93 73
62 94 73
61 92 72
61 92 72
61 93 73
60 91 71
60 90 70
62 94 73
59 90 70
61 92 71
61 92 71
60 91 71
59 89 69
59 89 69
60 90 70
59 89 69
56 84 65
59 88 68
59 89 68
54 81 63
53 79 60
55 82 62
54 80 61
51 76 58
45 68 52
42 64 50
36 55 44
28 44 35
26 40 32
17 26 21
15 23 18
10 14 11
9 12 9
9 12 9
8 11 9
9 12 9
11 13 10
10 12 9
9 11 9
9 11 9
9 12 9
15 22 17
18 27 21
22 34 27
22 35 28
24 37 30
31 48 39
34 53 43
37 57 45
43 65 51
45 68 53
51 77 60
54 81 63
55 83 64
59 88 68
57 85 65
59 88 68
58 88 69
60 90 70
58 87 68
60 90 70
63 95 74
59 88 68
58 88 69
63 96 74
59 88 69
59 88 69
62 93 73
60 90 70
60 91 71
61 93 72
61 92 71
61 92 71
59 89 69
61 92 71
61 92 72
64 96 75
60 91 71
60 91 71
59 90 70
59 90 70
59 89 69
60 90 70
59 89 69
61 92 71
63 95 74
60 90 70
61 91 70
60 89 69
58 88 68
58 88 68
61 91 70
59 88 69
58 87 68
61 91 70
59 88 68
61 91 70
58 86 66
59 89 69
60 90 69
59 88 68
59 88 68
60 89 68
58 85 65
58 86 66
60 89 68
60 89 68
62 90 68
59 87 66
61 90 68
63 91 69
58 84 63
56 82 63
58 85 64
59 86 65
57 83 63
60 88 67
57 84 64
58 85 65
60 88 68
59 87 66
61 90 69
57 84 63
60 88 67
58 86 66
58 85 65
62 91 70
60 89 68
60 88 68
58 86 67
60 90 69
59 88 68
62 92 72
62 93 72
60 89 69
59 88 69
59 88 68
64 96 74
62 93 72
61 91 70
60 88 68
58 87 68
60 90 70
62 93 72
60 90 70
61 93 72
59 88 68
61 92 71
120 69 52
171 55 37
186 62 42
194 88 69
196 153 131
202 175 151
203 177 152
212 185 161
216 188 164
214 184 160
216 187 162
217 188 164
217 189 165
214 186 162
219 187 163
220 188 164
217 187 163
216 187 163
215 184 160
214 184 160
206 176 153
203 163 140
205 116 97
200 65 45
196 63 43
192 62 42
185 59 40
177 56 38
172 55 38
166 54 37
152 49 34
147 49 34
127 43 30
112 40 28
70 72 57
51 79 63
52 80 64
53 82 65
54 82 65
54 83 66
58 87 69
61 84 72
64 83 74
68 79 77
71 80 80
73 80 81
71 86 81
63 83 73
59 86 70
61 93 73
61 93 73
58 88 69
61 93 73
60 91 72
58 88 69
61 93 73
60 91 71
60 91 71
63 96 75
59 89 70
62 94 74
60 91 72
60 92 72
59 90 71
62 94 74
59 90 70
61 92 72
59 91 71
64 98 77
59 90 71
61 92 73
58 89 70
60 92 72
60 92 72
61 93 73
61 92 72
61 94 74
60 91 71
61 93 73
64 97 76
62 94 74
61 93 73
60 92 72
60 90 70
62 95 74
62 94 74
63 96 75
60 91 72
61 92 72
58 89 70
58 89 70
61 93 73
61 93 73
60 91 71
59 89 70
59 90 71
61 93 73
60 91 72
60 91 71
60 92 72
57 87 69
58 88 70
56 86 67
59 90 71
59 91 71
59 90 71
59 89 70
58 89 70
59 89 70
59 90 71
61 94 74
63 97 76
60 92 72
59 89 70
59 90 71
59 90 71
59 89 70
60 91 72
59 91 71
60 92 72
60 92 72
60 91 72
59 90 71
59 90 71
61 93 73
60 92 72
60 91 72
58 88 69
58 89 70
59 91 71
60 92 72
58 88 69
43 53 47
35 36 39
37 39 41
38 40 43
39 41 43
40 42 45
40 42 45
41 43 46
41 43 46
41 43 46
43 45 48
55 55 54
83 80 73
116 109 96
120 113 99
104 98 87
120 95 67
152 114 70
157 118 73
159 118 73
159 119 74
159 119 73
158 118 73
158 118 73
158 118 73
155 116 72
155 116 72
152 114 71
151 113 70
149 112 69
148 111 69
61 93 73
60 92 72
63 95 75
64 97 76
61 93 73
61 92 72
63 96 75
63 97 76
59 90 71
62 94 74
59 90 71
60 91 71
60 91 71
61 93 73
60 92 72
63 95 75
59 90 70
61 92 72
61 93 73
62 94 74
59 90 70
63 96 75
62 94 74
61 92 72
62 94 73
61 93 73
61 94 73
59 90 71
61 93 73
62 95 75
65 98 77
63 97 76
61 93 73
62 94 73
60 92 72
61 92 72
63 96 76
62 94 74
59 90 70
61 93 73
63 96 75
63 96 76
61 92 72
63 95 75
62 94 73
61 93 73
64 98 77
62 94 74
59 90 71
61 93 73
62 94 74
60 92 72
59 90 70
60 91 71
61 93 73
61 93 73
64 97 76
61 93 73
63 96 75
60 91 72
63 95 75
63 95 75
61 93 73
61 92 72
60 91 71
63 95 75
59 90 71
61 92 72
62 94 74
60 92 72
62 94 74
63 96 75
60 91 71
62 94 74
62 94 74
60 91 72
62 94 74
62 94 73
62 95 74
62 95 74
63 95 74
61 93 73
61 92 72
61 92 72
63 96 75
60 91 71
62 94 74
60 91 72
63 94 76
60 89 77
61 88 83
73 91 91
76 90 89
74 91 86
74 92 84
70 92 80
63 91 74
62 93 74
57 86 67
60 91 71
59 89 69
61 92 72
60 90 70
58 87 67
59 88 68
60 91 70
59 89 69
57 85 66
59 88 68
57 86 66
57 84 65
54 81 62
54 81 62
49 72 55
49 72 55
44 66 51
42 62 48
34 51 40
28 43 34
19 30 24
15 23 19
15 23 18
12 18 14
10 15 12
9 13 10
8 12 9
9 14 11
11 16 13
12 18 14
17 26 21
18 28 22
24 37 29
23 36 29
31 48 38
34 52 41
41 60 47
41 62 47
50 75 58
52 78 59
54 80 61
54 80 62
56 84 65
58 87 68
58 87 67
60 90 70
59 87 67
59 88 68
58 88 69
58 88 68
56 85 66
58 87 68
59 89 69
58 88 68
59 90 70
60 90 70
60 90 70
60 90 70
58 87 68
58 88 69
59 89 70
61 92 72
61 93 72
60 91 71
60 91 71
57 86 67
60 91 70
56 85 66
59 90 70
59 89 70
63 96 74
59 89 69
58 87 68
60 90 70
59 89 69
60 91 71
59 89 69
63 95 74
60 91 71
60 90 70
59 88 68
59 88 69
62 93 72
59 89 69
60 90 70
60 90 70
61 91 70
60 90 69
62 92 71
58 86 66
57 85 66
57 84 65
62 92 71
58 86 66
59 88 67
59 87 67
63 93 72
61 90 69
63 94 73
63 92 71
63 92 70
59 88 67
58 86 65
58 86 66
56 82 63
58 85 65
57 85 65
57 83 63
61 90 69
59 88 68
60 88 68
59 88 67
57 83 64
61 90 69
59 87 67
59 87 66
58 85 66
61 90 69
60 89 68
58 87 67
59 89 69
58 86 67
60 90 70
60 89 69
58 87 67
58 87 67
57 86 67
58 87 68
56 83 65
61 90 69
59 89 69
59 88 69
61 92 72
61 91 70
62 93 73
60 90 70
62 93 73
62 93 72
107 74 56
162 53 35
176 57 38
189 61 41
190 71 52
195 123 102
198 162 139
205 177 153
206 178 154
208 180 156
212 183 159
215 185 161
212 184 159
209 181 157
210 182 159
207 177 152
209 181 157
209 181 157
205 171 147
204 151 129
197 109 90
202 73 53
197 62 41
190 60 41
190 60 40
184 59 40
173 55 37
172 55 37
164 53 36
156 50 33
141 46 31
134 45 31
125 43 29
107 44 32
57 75 60
50 78 62
49 76 61
55 83 68
64 81 74
80 75 88
88 70 96
95 65 102
96 64 104
96 64 104
96 64 104
95 63 104
95 63 103
92 64 101
88 65 96
83 73 93
74 82 84
62 88 72
58 86 68
58 88 69
61 92 72
61 92 72
59 90 71
59 90 70
61 92 72
61 92 72
62 93 73
61 92 72
58 88 69
61 93 73
60 92 72
59 89 70
60 92 72
60 90 71
59 90 71
61 93 73
62 94 74
61 94 73
62 95 74
60 91 71
58 89 70
62 94 74
60 92 72
61 93 73
61 93 73
58 89 70
58 89 69
63 96 75
59 89 70
57 87 69
62 95 75
63 95 75
59 90 71
59 90 71
63 96 75
65 98 77
62 95 74
60 91 71
60 90 71
59 90 71
61 92 73
60 92 72
61 93 73
60 91 72
62 94 73
60 91 71
59 89 70
59 90 70
60 91 71
60 91 72
60 91 72
61 93 73
58 88 69
62 94 74
60 91 72
57 88 69
61 93 73
60 92 72
62 94 74
59 91 72
59 90 71
58 88 69
60 91 72
58 88 70
56 86 67
57 87 68
58 89 70
59 89 70
60 92 72
60 92 72
61 92 73
60 92 72
62 94 74
60 91 71
58 89 70
60 92 72
62 95 74
61 87 69
34 36 37
36 37 39
37 39 41
38 39 42
39 41 43
39 41 44
40 41 44
40 42 45
41 43 45
41 43 46
46 47 49
72 70 65
122 115 101
173 161 138
178 165 142
147 128 103
152 114 70
156 117 72
159 118 73
158 118 73
159 119 74
158 118 73
158 118 73
157 118 73
156 117 72
154 116 72
155 116 72
150 112 70
150 113 70
147 110 68
146 110 68
64 98 77
62 95 74
59 90 71
62 94 74
61 92 72
63 96 75
59 89 70
62 94 74
59 90 71
63 95 74
62 95 74
62 95 74
60 91 71
61 93 73
63 96 75
60 91 71
61 92 72
62 94 74
61 92 72
62 94 74
60 92 72
65 98 77
63 95 75
62 95 74
64 97 76
64 97 76
63 95 75
63 96 75
63 96 75
63 97 76
63 95 75
64 96 75
61 93 73
60 92 72
63 95 75
59 89 70
61 93 73
61 93 73
62 95 74
65 98 77
60 91 71
60 92 72
63 95 75
61 92 72
58 89 70
58 89 69
62 95 74
63 96 75
63 96 75
62 94 74
61 93 73
64 97 76
62 95 74
62 95 75
61 93 73
62 94 73
61 93 73
61 93 73
60 91 71
59 90 71
58 89 70
63 95 74
61 93 73
59 90 70
59 91 71
63 95 75
65 99 77
62 94 74
63 96 75
63 95 75
63 95 75
64 97 75
65 99 77
60 91 71
61 92 72
59 90 71
58 88 69
61 93 73
63 95 75
59 90 70
62 94 73
61 93 73
64 97 76
60 91 71
60 91 71
62 93 79
60 84 85
59 70 101
60 64 111
75 71 121
130 118 133
153 137 133
194 174 160
209 187 172
186 166 153
177 158 147
175 159 146
157 146 135
108 111 102
67 91 77
62 93 73
57 87 67
60 90 70
60 90 70
60 90 70
58 87 67
57 86 66
57 85 66
61 91 71
55 82 63
56 84 65
54 81 62
55 82 63
51 76 57
57 84 64
53 79 59
49 73 56
45 67 51
41 59 44
36 53 40
32 47 36
27 40 31
29 43 33
22 33 25
20 30 24
23 34 27
21 32 24
21 32 25
26 40 31
30 45 35
33 49 38
36 54 42
39 58 44
45 67 51
48 71 54
49 74 56
52 77 59
53 78 60
56 83 63
56 84 65
58 87 67
59 88 67
58 88 68
59 88 68
58 87 67
59 89 69
59 89 69
57 86 66
58 88 68
58 87 68
58 87 68
59 89 69
57 86 67
59 89 70
59 89 69
59 89 70
60 91 71
61 92 71
57 86 67
62 93 72
61 92 72
63 95 74
61 92 72
58 88 69
59 89 70
62 93 72
59 89 69
62 94 74
61 92 72
61 92 71
62 93 73
60 90 70
62 94 73
59 89 69
61 92 72
59 90 70
61 91 71
57 86 67
61 91 71
64 95 74
63 93 73
58 87 68
60 91 71
61 92 72
60 90 70
58 87 67
61 92 72
61 92 71
61 91 70
62 92 71
60 89 69
58 86 67
62 93 72
62 92 71
60 88 68
59 87 67
61 91 70
62 91 70
59 87 67
57 86 67
59 88 68
57 85 66
59 87 66
61 89 69
59 87 67
59 87 67
59 88 68
60 88 68
60 89 68
63 93 71
60 89 68
56 84 65
60 90 69
63 93 71
60 89 68
61 91 71
61 91 70
59 88 68
60 88 68
61 91 70
56 84 65
60 89 68
57 86 67
60 90 70
57 85 66
58 87 68
62 92 72
58 88 68
61 91 71
60 89 70
63 95 74
60 90 70
59 89 69
59 89 69
56 85 66
61 91 70
61 91 71
84 82 63
150 52 35
169 55 37
175 56 37
189 61 41
186 60 39
200 79 59
194 104 85
201 137 115
202 156 133
200 165 141
199 168 143
207 175 151
205 170 146
200 164 140
204 153 131
206 141 119
198 120 99
198 83 63
199 65 45
195 61 41
195 62 42
188 59 40
183 58 38
175 56 37
178 56 38
172 55 37
164 52 35
150 48 32
139 45 30
133 44 30
121 41 28
112 39 27
98 50 38
48 75 61
49 73 61
70 71 78
90 67 96
99 65 105
99 66 106
99 66 107
99 66 107
99 66 107
99 66 107
99 65 107
98 65 106
97 65 105
96 64 105
95 63 103
94 62 102
93 62 101
87 62 96
76 76 86
66 89 78
60 91 71
61 93 73
58 88 69
59 89 69
64 97 76
59 90 70
62 95 74
61 92 72
61 93 73
60 91 71
61 93 73
60 91 71
61 92 72
60 91 72
61 93 73
63 95 75
60 92 72
58 89 70
62 94 73
59 90 70
61 92 72
60 92 72
59 89 70
61 93 73
62 94 74
59 89 70
61 93 73
61 93 73
61 92 73
60 91 71
60 92 72
62 94 74
61 93 73
59 90 70
61 93 73
59 89 70
59 89 70
60 92 72
65 99 78
60 92 72
59 89 70
61 93 73
59 90 70
60 92 72
60 92 73
61 93 73
59 90 70
57 87 68
59 90 70
61 93 73
61 92 73
59 90 71
59 90 71
61 93 73
61 93 72
59 90 70
59 90 71
58 89 70
59 89 70
58 88 69
57 87 68
60 91 71
61 94 73
62 94 73
60 91 71
57 87 68
58 89 70
60 92 72
59 90 71
65 99 78
58 89 70
58 89 70
59 90 70
57 88 69
58 88 69
61 93 73
62 95 74
58 77 63
33 35 36
36 37 39
36 37 39
37 39 41
39 40 43
38 40 42
40 41 44
39 41 43
40 42 45
41 42 45
49 50 50
82 78 71
139 129 112
186 173 148
179 160 131
153 114 71
157 118 73
158 118 73
158 118 73
159 119 74
158 119 74
160 120 74
158 118 73
158 118 74
156 117 72
153 115 71
150 112 70
149 112 69
149 112 70
146 110 69
144 109 68
63 96 75
64 97 76
61 93 73
60 92 72
62 94 74
60 91 72
59 91 71
61 93 73
64 97 76
63 96 76
63 96 75
62 95 74
63 96 75
64 97 76
62 94 74
59 91 71
63 96 75
66 100 78
60 92 72
63 95 75
63 96 75
62 95 74
63 96 75
62 94 74
60 92 72
61 93 73
62 94 73
62 94 73
62 94 74
61 93 73
61 92 73
63 96 75
62 94 74
62 94 74
63 95 75
65 100 78
65 99 77
64 98 76
63 95 74
63 96 75
62 94 73
61 92 72
60 92 72
58 88 69
59 90 71
61 93 73
60 92 72
63 95 75
64 97 76
62 95 74
60 92 72
63 95 75
60 91 71
61 92 72
61 93 73
61 92 72
63 95 75
60 92 72
60 91 71
62 95 74
62 94 73
65 99 77
63 96 75
60 91 72
61 92 72
60 91 72
61 92 72
61 92 72
60 92 72
63 95 74
60 92 72
61 92 72
61 92 72
63 95 75
61 93 73
61 93 73
61 93 73
60 91 71
64 96 75
62 94 74
61 93 73
61 92 72
61 92 72
59 86 74
57 73 91
60 65 111
61 58 119
61 59 120
62 59 121
173 155 159
140 125 114
230 206 188
231 206 189
121 108 98
62 55 50
136 121 111
143 128 117
130 116 106
173 154 140
176 159 148
105 104 100
66 88 80
58 87 68
59 89 69
63 94 73
58 88 68
59 89 69
57 85 66
57 85 66
57 86 66
57 85 66
55 82 63
54 81 62
54 81 62
57 85 65
52 78 59
52 78 59
50 74 56
53 78 59
49 72 55
48 70 53
47 69 52
50 73 55
46 67 51
46 68 51
45 66 50
45 65 49
45 67 51
48 71 54
46 68 51
51 74 56
51 74 56
51 75 57
54 80 60
56 82 62
57 85 65
54 81 62
55 82 63
53 79 61
57 85 65
60 90 69
55 82 63
59 88 68
58 87 67
58 87 67
59 89 69
60 91 71
57 86 67
59 89 69
58 88 68
58 87 67
61 92 71
57 86 67
58 88 69
60 90 70
58 88 69
58 88 69
60 91 71
60 90 70
62 94 73
61 92 72
63 94 74
62 93 73
62 94 73
62 93 72
62 94 73
61 93 73
63 95 74
60 92 72
59 89 70
59 89 69
60 91 71
61 92 71
60 90 70
57 85 66
58 88 69
58 87 68
61 92 71
58 89 69
62 93 72
62 93 72
59 88 68
62 93 72
60 90 70
65 98 76
63 95 74
62 93 72
61 91 70
60 90 70
60 89 69
61 91 71
59 88 68
60 89 70
60 90 69
60 90 70
61 90 69
62 93 72
61 91 71
59 88 68
61 91 71
60 89 69
59 87 67
60 89 69
59 87 67
58 87 67
58 88 68
59 88 68
59 88 68
59 87 68
61 90 70
58 87 67
60 89 69
61 89 69
61 90 70
60 89 69
59 87 67
60 90 70
59 88 68
60 90 70
60 88 68
61 91 70
62 94 73
61 90 70
63 95 74
57 86 67
63 94 73
59 89 69
60 90 70
60 89 70
60 90 70
61 91 71
60 90 70
61 92 71
59 89 69
59 88 68
58 86 67
58 87 68
64 86 67
127 56 39
152 49 32
163 53 34
175 57 37
187 60 40
186 59 39
194 62 41
195 63 42
196 65 44
200 71 50
196 76 56
200 80 60
200 75 55
198 68 47
194 64 44
191 60 40
198 63 42
192 61 40
188 60 40
184 58 38
185 59 39
179 56 37
177 57 38
168 53 35
166 53 36
159 50 33
146 47 31
146 47 32
131 43 29
121 41 27
106 37 25
102 36 24
82 56 44
62 71 71
89 66 95
99 65 105
101 66 107
101 67 108
101 67 108
101 67 109
101 67 109
101 67 109
101 67 108
100 66 108
99 66 108
98 65 107
98 65 106
97 64 105
95 63 104
95 63 103
93 62 101
91 61 99
87 59 96
75 71 85
64 93 75
62 94 74
60 91 71
63 96 75
60 91 71
61 93 73
62 95 74
61 92 72
61 92 72
61 93 73
60 90 71
61 93 73
59 90 70
59 90 71
59 90 70
58 88 69
60 92 72
60 91 71
60 91 71
56 85 67
59 89 69
56 85 67
60 91 72
61 92 72
60 92 72
59 90 71
60 91 72
60 92 72
61 92 72
59 90 71
61 94 74
64 97 76
61 92 72
59 90 71
61 92 72
59 90 71
60 91 71
60 91 71
57 86 68
61 92 72
57 87 69
59 90 71
61 93 73
62 94 73
60 91 71
58 88 69
59 90 71
59 90 71
59 90 71
61 93 73
63 95 75
61 93 73
59 91 71
59 89 70
59 90 70
59 90 70
60 91 71
58 88 69
60 91 71
62 94 73
62 94 73
61 92 73
59 91 71
60 91 72
59 90 70
61 92 72
59 90 71
60 92 72
59 90 71
61 92 72
61 93 73
62 94 74
59 90 71
58 89 70
60 91 71
58 88 69
44 58 49
33 34 35
35 36 38
37 38 40
37 38 40
38 39 41
39 41 43
39 41 43
39 41 44
40 41 44
41 42 45
46 47 48
73 70 65
118 110 97
154 137 113
152 115 73
156 117 72
158 118 73
158 118 73
159 119 74
158 118 73
158 118 73
157 117 72
156 117 73
153 115 71
153 115 71
151 114 71
150 113 70
148 111 69
147 111 69
144 108 67
143 108 68
62 94 74
64 98 76
62 94 74
63 96 75
62 94 74
62 94 74
64 98 77
65 98 77
67 102 80
61 92 72
59 90 71
61 93 73
61 93 73
62 94 74
63 96 75
61 92 72
60 91 72
63 96 75
60 92 72
59 91 71
61 92 72
62 94 73
63 96 75
59 90 70
61 93 73
63 96 75
61 93 73
63 95 74
62 95 74
66 100 78
61 93 73
62 94 73
63 96 75
63 95 74
63 96 75
61 93 73
62 95 74
64 97 76
60 92 72
59 90 70
62 94 73
61 93 73
64 97 76
62 94 74
61 92 72
64 97 76
62 94 73
61 93 73
63 95 74
61 93 73
63 95 75
61 93 73
60 91 71
65 98 77
64 97 76
65 98 77
62 94 74
62 94 74
62 95 74
63 96 75
58 89 69
62 94 73
62 94 74
65 98 77
60 91 71
61 93 73
61 93 73
60 92 72
62 95 74
60 92 72
60 92 72
63 95 74
63 96 75
62 94 73
64 98 77
63 95 75
61 93 72
62 94 74
64 98 76
63 96 75
64 97 76
61 92 74
62 84 91
59 63 109
61 58 119
62 59 121
62 60 122
63 60 123
71 67 125
185 166 159
142 126 115
239 214 195
228 203 186
65 58 53
89 80 73
222 199 182
233 209 191
223 199 182
115 103 94
133 119 110
211 188 172
141 127 124
74 84 92
61 91 74
58 88 68
58 87 67
60 90 70
57 86 67
55 83 64
57 86 66
54 81 62
56 84 65
58 87 66
58 87 67
60 89 69
53 78 60
55 82 62
55 81 62
52 77 59
52 77 59
55 80 61
52 76 58
53 78 59
50 74 56
51 75 56
53 77 58
52 76 57
52 77 58
50 73 55
50 75 57
52 77 59
54 81 62
57 85 65
58 87 67
54 81 62
56 84 64
56 83 64
58 86 66
56 84 65
59 89 69
57 86 67
58 88 68
60 90 70
58 87 67
59 89 69
60 90 70
60 90 70
60 91 71
59 88 69
59 89 69
59 90 70
60 90 71
58 88 69
61 91 71
62 93 73
59 89 70
60 90 71
60 91 71
61 92 71
60 91 71
58 88 69
62 93 73
61 92 72
61 93 72
59 89 69
61 91 71
61 92 72
59 89 69
62 92 72
65 99 77
59 89 69
59 89 69
59 89 69
60 89 69
62 94 73
60 91 71
59 89 69
63 95 74
61 92 72
61 92 71
58 87 68
62 93 72
60 90 70
60 90 70
62 94 73
62 93 73
59 89 69
61 91 71
58 87 68
61 92 72
59 89 69
61 91 70
59 89 69
59 87 67
60 89 70
63 94 72
63 95 74
62 92 71
60 90 70
59 89 68
62 94 73
63 94 72
63 93 72
61 91 70
58 87 67
63 93 72
61 92 71
62 93 72
60 89 69
59 88 68
62 92 71
61 91 70
59 88 68
58 87 68
61 91 70
61 92 71
60 90 69
60 90 69
60 90 70
60 90 70
59 88 68
62 93 73
58 87 68
61 92 71
59 87 68
59 89 69
62 92 72
64 94 72
60 89 69
61 91 70
61 92 72
60 89 69
59 90 70
61 91 70
59 88 68
60 89 69
62 94 73
63 94 73
93 66 49
140 46 30
164 53 35
166 54 35
172 56 36
182 59 39
186 60 39
185 59 39
185 59 38
186 60 39
190 61 40
188 60 39
191 61 40
189 60 39
187 60 39
185 58 38
184 58 38
181 57 38
181 57 37
173 55 36
168 53 34
165 52 34
167 52 34
163 52 34
152 48 31
145 46 30
139 45 29
131 43 28
118 40 26
103 36 23
104 36 24
97 38 30
79 63 80
96 64 101
100 66 106
102 67 108
102 67 109
102 68 109
102 68 110
102 68 110
102 68 110
102 67 110
101 67 109
101 67 109
101 67 109
100 66 108
98 65 107
98 65 106
97 64 105
96 64 104
95 63 103
93 62 102
91 61 99
88 59 97
78 64 87
61 83 72
62 93 73
61 92 72
57 87 68
62 93 73
61 92 72
58 89 70
60 91 71
59 89 70
58 89 70
60 91 71
60 91 71
60 92 72
57 87 68
58 88 69
61 93 73
61 93 73
60 90 70
59 90 71
61 92 73
61 92 72
61 93 73
62 94 74
65 98 77
57 87 68
59 90 70
62 94 73
60 91 72
62 93 73
58 89 70
61 93 73
58 88 69
62 94 74
60 91 71
56 86 67
60 92 72
61 92 72
59 90 70
59 90 71
61 93 73
61 93 73
63 95 75
58 89 70
58 89 70
61 93 73
60 91 71
61 92 73
60 91 72
60 91 72
61 92 72
58 89 70
60 91 71
60 91 72
58 88 69
61 94 74
63 96 75
59 90 71
59 90 70
59 90 70
60 91 71
58 89 70
61 93 73
60 91 71
58 89 70
60 92 72
62 94 74
60 92 72
58 88 69
61 93 73
61 93 73
61 94 73
60 92 72
58 89 70
58 88 70
61 92 73
40 53 46
33 35 36
34 36 38
36 38 39
37 39 41
37 38 40
37 39 41
38 39 41
39 41 43
38 40 42
40 41 44
42 43 45
54 53 52
93 82 69
150 113 71
156 116 72
157 118 73
159 119 74
161 120 74
159 119 74
158 119 74
158 118 73
157 118 73
155 117 72
154 116 72
152 114 71
151 113 71
147 111 69
147 110 69
144 108 67
142 107 67
139 105 65
62 94 74
63 95 75
62 94 73
61 92 72
62 94 74
63 96 76
64 97 76
64 97 76
66 100 79
61 92 72
61 92 72
61 93 73
60 91 71
60 92 72
62 95 74
61 93 73
59 90 70
60 90 71
63 96 75
62 94 74
61 93 73
60 92 72
64 97 76
59 91 71
61 93 73
61 93 73
63 96 75
62 95 74
64 97 76
63 96 75
60 91 72
62 95 74
62 93 73
61 93 73
60 92 72
61 93 73
63 96 75
60 92 72
62 94 74
66 100 78
62 94 74
62 95 74
61 93 73
61 93 73
61 93 73
58 88 69
60 92 72
63 96 75
60 91 71
62 94 74
62 95 74
63 96 75
61 93 73
60 92 72
65 98 77
62 94 73
60 91 71
62 94 74
65 99 77
63 96 75
64 97 76
65 99 77
60 92 72
61 93 72
61 93 73
60 91 71
62 95 74
59 90 70
62 94 73
64 97 76
60 92 71
58 89 70
60 92 72
61 93 73
62 94 74
62 94 73
61 93 73
62 94 74
63 95 74
59 90 70
61 91 75
58 69 98
60 57 116
62 59 121
62 60 122
63 60 123
63 60 123
63 60 124
65 62 125
176 158 164
124 111 101
214 191 175
241 215 197
213 190 174
97 87 79
87 77 71
158 141 129
158 141 129
66 59 54
39 35 32
207 185 169
205 183 168
140 126 124
63 69 98
58 84 76
60 91 70
60 90 70
58 87 68
54 81 63
59 89 69
58 88 68
57 86 67
55 82 63
56 83 64
58 86 66
53 79 61
53 80 61
52 77 59
54 80 61
55 82 63
57 84 64
55 82 63
54 80 62
54 81 62
55 82 62
55 81 62
53 78 59
54 80 62
57 84 64
53 79 60
56 84 64
54 81 62
55 82 63
54 81 62
55 83 64
56 85 65
58 87 67
57 86 66
55 83 64
56 85 65
57 85 66
58 87 67
57 86 67
59 90 70
60 90 70
61 92 71
61 92 72
62 93 72
60 90 70
59 89 69
63 95 74
62 94 73
59 90 70
63 95 74
59 90 70
61 93 72
64 97 75
61 92 72
59 89 70
60 91 71
61 93 72
64 96 75
61 92 72
59 90 70
61 93 72
62 94 74
61 92 72
60 91 71
60 91 71
62 94 74
60 91 71
59 89 70
58 87 68
62 93 72
59 89 69
63 95 74
62 94 73
61 93 73
62 93 72
62 93 73
63 95 74
63 96 75
59 89 69
59 89 70
61 93 72
59 90 70
61 93 72
60 90 70
63 94 73
61 92 72
61 91 71
59 88 68
61 91 71
59 88 68
59 88 68
61 91 71
63 94 72
60 90 70
61 91 71
63 94 73
64 95 73
60 90 70
62 93 73
60 90 69
61 92 71
61 91 71
60 90 69
61 90 70
61 90 70
63 93 72
59 88 68
62 93 72
58 87 68
60 89 69
58 86 67
62 93 73
58 86 67
64 95 74
60 91 70
60 91 71
62 92 71
61 91 71
61 92 72
62 92 71
60 90 70
59 87 67
60 90 70
60 89 69
61 91 70
60 90 70
58 87 67
60 90 70
59 89 69
58 87 68
60 89 69
58 87 68
60 90 70
60 89 69
63 85 66
119 48 33
139 46 29
151 49 32
163 53 34
167 54 35
168 55 35
174 55 36
176 56 36
174 56 36
184 59 39
181 58 38
180 57 37
179 57 37
180 57 37
174 55 36
177 56 37
176 56 36
165 52 33
169 53 34
159 50 32
157 49 31
157 50 32
150 48 31
146 46 30
132 43 27
126 41 27
116 38 25
96 33 21
102 36 24
91 34 28
94 53 77
98 64 102
101 66 107
103 68 109
103 68 109
103 68 110
103 68 110
103 68 110
103 68 111
103 68 110
103 68 110
102 68 110
102 68 110
101 67 109
101 67 108
99 66 107
99 66 107
97 65 106
96 64 105
96 64 104
94 63 103
92 61 100
91 61 99
88 59 96
79 59 87
64 81 74
59 90 71
62 94 73
60 91 71
59 89 70
60 91 71
63 95 75
59 90 71
60 90 70
60 91 71
58 88 69
60 91 72
59 90 71
61 92 72
58 88 69
61 92 72
61 92 72
61 92 72
60 91 72
61 92 72
60 91 71
61 92 72
59 90 71
61 93 73
61 93 73
59 90 70
65 99 78
58 88 69
59 89 70
62 95 75
60 91 72
61 93 73
61 92 72
60 91 72
63 95 75
61 92 72
61 93 73
61 93 73
60 91 71
61 94 74
61 93 73
59 90 71
60 91 71
60 91 71
61 93 73
61 92 72
60 91 71
59 90 71
60 91 71
58 89 70
59 89 70
60 92 72
58 88 69
60 92 72
62 94 73
59 89 70
57 87 68
59 90 71
61 93 73
60 91 71
62 95 74
61 92 72
63 95 75
60 92 72
62 94 73
59 90 70
59 90 71
58 88 69
57 86 67
58 89 70
59 89 70
58 88 69
59 90 71
59 89 70
35 45 40
32 34 35
33 35 36
35 36 38
37 38 40
37 38 39
37 38 40
37 39 41
38 39 41
38 40 42
38 39 41
39 41 43
64 55 48
145 109 68
156 116 72
157 118 73
159 119 74
159 119 73
158 118 73
159 119 73
159 119 74
157 117 73
155 116 72
153 115 71
154 115 72
151 113 70
148 112 69
145 109 67
145 109 68
143 108 67
139 105 65
136 103 65
64 97 76
64 97 76
64 97 76
64 98 77
63 96 75
65 99 77
65 99 77
59 90 71
63 96 75
58 89 70
61 92 72
59 90 70
60 91 71
63 96 75
67 102 80
61 93 73
61 93 73
62 94 74
59 90 71
60 91 72
60 90 71
62 94 74
63 96 76
63 95 74
60 92 72
61 92 72
63 95 75
61 93 73
65 99 77
63 96 75
62 94 73
64 97 76
61 93 73
64 96 75
63 95 74
63 95 75
61 93 73
60 91 71
62 94 74
63 96 75
65 99 78
60 92 72
60 91 71
60 92 72
60 92 72
62 94 74
61 93 73
68 103 81
63 95 74
63 96 75
62 95 74
62 94 74
63 95 74
62 95 74
64 97 76
64 97 76
61 93 73
61 93 73
58 89 69
58 88 69
60 92 72
64 97 76
60 92 72
62 95 74
58 88 69
60 92 72
61 93 73
62 94 73
63 96 75
65 98 77
63 96 75
61 93 73
63 95 75
62 95 75
63 96 75
62 94 74
62 94 73
64 98 76
60 92 72
58 87 71
57 64 103
60 57 117
62 59 121
63 60 122
63 60 123
63 61 124
64 61 124
64 61 125
64 61 125
89 82 132
194 174 170
139 124 113
195 174 159
239 214 195
236 210 192
191 171 156
147 131 119
128 114 104
138 123 113
181 162 148
228 204 186
226 202 185
119 107 98
134 120 134
53 55 100
58 83 79
59 89 69
58 87 68
59 88 68
61 92 72
60 90 70
57 86 67
56 84 65
57 86 66
58 87 67
55 83 64
57 86 67
57 86 66
57 85 66
54 81 62
55 81 63
56 84 64
57 86 66
55 83 64
55 82 63
56 83 64
57 85 65
53 80 61
56 83 64
54 81 62
54 82 63
58 88 68
57 86 66
58 88 68
58 88 68
58 88 68
57 85 66
58 87 68
57 87 68
59 89 69
57 86 66
58 87 67
62 94 73
61 91 71
61 93 72
60 90 69
60 90 70
60 90 70
61 92 71
58 88 69
59 90 70
58 89 69
58 88 68
60 91 71
63 95 74
60 90 70
59 89 70
61 92 72
59 90 70
62 94 73
61 92 72
60 91 71
58 87 68
61 92 72
62 94 73
62 94 73
63 94 73
59 90 70
62 94 74
59 88 69
64 96 75
58 88 69
57 87 67
61 91 71
57 87 68
63 94 74
61 91 71
63 95 74
62 93 72
61 92 71
62 93 73
66 100 78
61 92 72
58 87 67
59 90 70
59 89 70
61 92 72
61 91 71
61 92 71
59 89 69
60 89 69
62 94 73
60 90 70
60 91 71
62 93 72
60 91 70
60 90 70
62 92 71
61 91 71
60 89 69
62 93 72
59 89 69
63 93 72
59 89 69
59 88 69
59 89 69
62 93 72
63 94 73
62 92 72
64 96 75
61 91 70
59 89 69
60 90 70
63 94 73
59 88 69
61 90 70
59 89 70
59 88 69
60 90 70
60 89 69
61 92 72
60 91 71
62 94 73
61 91 71
61 91 70
60 90 70
60 90 70
60 91 71
62 94 73
59 89 69
59 88 68
64 96 75
62 92 72
60 90 70
63 94 73
59 87 67
59 88 68
58 87 67
57 85 66
82 67 50
129 45 29
142 46 29
145 48 30
157 51 32
163 52 33
162 51 33
169 54 35
167 54 34
170 54 34
172 54 35
168 53 34
170 55 35
170 54 35
170 54 35
166 53 34
161 51 33
163 52 34
155 49 31
151 48 30
147 47 30
137 44 27
133 42 27
123 40 25
118 39 25
109 36 23
86 30 18
76 28 17
88 33 28
91 52 77
98 64 102
99 65 105
103 68 109
104 68 110
104 69 110
104 69 111
104 69 111
104 69 111
104 69 111
104 69 111
103 68 111
103 68 111
102 68 110
102 68 110
101 67 109
100 66 108
99 66 107
98 65 107
97 65 105
96 64 104
95 63 103
94 62 102
92 61 101
90 60 98
85 57 93
78 57 87
63 86 73
58 88 69
59 90 71
63 95 74
59 90 71
60 91 72
58 89 69
60 91 72
59 90 71
60 91 71
62 94 74
58 88 69
61 93 73
62 94 74
60 91 72
60 91 71
59 89 70
62 95 74
62 94 74
61 93 73
61 92 72
58 89 70
59 91 71
60 92 72
60 91 71
63 96 76
63 95 75
57 87 68
59 90 71
63 95 75
62 95 74
60 91 71
59 90 70
60 91 71
55 84 66
58 88 69
57 86 68
60 92 72
59 90 71
59 91 71
60 92 72
58 89 70
59 89 70
58 89 70
58 88 69
59 90 70
58 88 69
59 89 69
59 90 71
58 88 69
62 95 74
60 91 71
58 89 69
58 88 69
61 93 73
60 92 72
58 88 69
59 90 71
59 89 70
63 95 74
62 94 74
59 89 70
58 88 69
60 92 72
59 91 71
60 92 72
57 87 68
57 87 68
59 90 70
58 88 69
60 92 72
61 92 72
59 89 70
34 44 39
31 33 34
33 34 35
34 35 36
35 36 38
36 37 39
36 37 38
37 38 39
36 38 39
37 38 40
37 39 40
52 47 43
141 106 67
156 116 71
158 118 73
159 119 73
159 119 73
159 119 73
158 118 73
158 118 73
157 117 73
155 116 72
154 115 71
153 115 71
151 113 70
148 111 69
146 110 68
144 108 67
141 106 66
137 103 64
137 104 64
132 100 62
62 95 74
62 95 74
60 91 72
62 94 73
65 99 77
63 96 75
63 96 76
62 95 74
62 94 74
61 93 73
61 93 73
60 91 71
62 94 74
62 95 74
63 96 75
62 95 74
63 96 76
61 93 73
62 94 74
64 97 76
63 96 75
61 94 73
59 90 71
62 94 74
61 93 73
59 91 71
60 91 71
64 98 77
64 97 76
63 95 74
61 93 73
61 93 72
61 93 73
63 95 75
63 95 74
61 93 73
62 94 73
59 89 70
60 91 71
66 100 79
62 95 74
61 92 72
61 93 73
62 95 74
63 95 74
58 88 69
59 90 71
65 99 77
62 94 73
60 92 72
60 91 71
60 92 72
63 96 75
63 96 75
61 92 72
60 91 71
64 97 76
59 90 71
58 88 69
61 93 73
64 96 76
62 95 74
62 94 73
59 89 70
60 92 72
61 92 72
63 95 74
61 93 73
63 95 74
62 93 73
62 94 74
62 94 73
64 98 76
61 93 72
62 94 73
61 93 72
61 93 73
62 95 74
59 87 75
57 62 102
61 58 117
62 59 121
63 60 122
63 60 123
64 61 124
64 61 125
64 61 125
64 61 125
64 61 126
64 61 126
72 68 128
173 155 161
172 153 143
148 132 120
202 180 164
235 210 191
239 213 194
239 213 194
237 211 193
235 209 191
225 201 183
184 164 150
146 130 118
141 127 141
55 53 108
52 52 99
53 74 75
61 93 72
60 91 70
61 91 70
58 88 68
57 86 67
60 90 70
61 92 72
60 90 69
57 85 66
58 87 67
58 87 68
55 82 63
55 83 64
57 86 66
58 86 67
56 84 65
57 86 66
55 83 64
57 85 65
56 85 66
55 82 64
57 85 66
58 87 68
58 87 67
56 83 64
57 86 67
55 83 64
58 88 68
56 84 65
58 87 67
58 87 67
59 89 69
59 89 69
56 84 65
57 85 66
60 91 70
58 87 68
61 91 71
59 89 69
59 89 69
61 91 71
61 92 72
64 97 76
60 91 71
59 90 70
59 90 70
59 89 70
61 91 71
59 89 69
59 90 70
60 90 70
60 91 71
61 92 71
62 94 73
62 94 73
59 90 70
61 91 71
62 93 73
63 96 75
60 89 70
62 93 73
62 93 73
61 92 72
64 97 75
62 94 73
61 93 72
60 91 71
63 96 75
65 98 77
61 92 72
61 92 72
62 94 73
61 91 70
65 97 75
66 99 77
64 97 76
60 91 71
58 88 68
63 95 74
60 91 71
59 90 70
60 90 70
59 89 70
58 87 68
63 95 74
62 93 72
62 93 72
63 95 74
61 91 71
59 88 68
64 95 74
63 95 74
63 94 73
63 95 74
59 88 69
59 88 68
65 97 75
62 94 74
62 92 72
61 91 70
63 95 74
62 92 71
62 92 71
62 92 71
60 90 69
64 96 75
59 88 68
57 86 67
61 91 71
61 91 71
62 93 73
58 88 69
58 87 68
61 90 70
61 93 72
64 95 74
60 89 70
63 95 74
59 88 68
58 87 67
63 93 72
60 90 70
62 92 71
59 87 67
58 86 67
60 89 69
60 91 70
59 88 68
56 83 64
58 86 67
60 89 69
58 86 67
63 85 65
94 51 36
123 41 26
137 45 28
139 46 29
146 47 30
152 49 31
152 49 31
153 49 31
156 50 31
158 51 32
161 52 33
158 51 32
157 51 32
163 52 33
155 50 32
151 48 30
143 46 29
141 44 27
135 43 27
127 41 25
121 39 24
116 37 23
113 37 23
96 32 19
85 30 19
68 26 15
79 30 23
86 48 71
96 62 98
100 65 105
102 67 108
104 68 110
105 69 110
105 69 111
105 69 111
105 69 111
105 69 111
104 69 111
104 69 111
104 69 111
103 68 111
103 68 110
102 68 110
101 67 109
104 71 110
105 72 110
106 75 110
121 93 118
105 74 108
98 66 105
94 63 102
93 62 100
90 60 98
88 58 96
83 55 90
75 56 82
63 89 75
61 92 72
62 94 74
62 94 74
64 97 76
59 90 71
57 87 68
59 89 70
61 92 72
58 88 69
58 88 69
60 91 72
59 89 70
62 93 73
59 89 70
61 94 74
62 95 74
61 93 73
61 92 72
63 95 75
61 92 72
59 90 71
59 90 70
59 90 70
62 94 74
64 97 76
60 91 72
60 92 72
60 91 71
63 95 75
60 91 72
61 92 72
61 92 72
59 91 71
56 85 67
57 87 68
58 88 69
58 88 69
61 93 73
57 87 68
60 91 71
60 91 71
61 92 72
60 91 71
58 88 69
58 88 69
59 90 71
61 93 73
59 90 70
61 93 73
58 88 69
58 88 69
59 91 71
62 94 74
58 88 69
58 88 69
57 86 67
59 90 71
63 96 75
59 90 71
60 91 71
59 90 71
61 93 73
61 93 73
60 92 72
60 91 71
60 91 71
62 94 73
59 90 71
59 90 70
60 91 72
59 90 71
37 48 42
37 37 36
52 49 46
74 66 60
80 72 65
82 71 63
61 56 52
38 39 39
36 38 39
36 37 39
46 43 41
135 102 64
156 116 72
158 118 73
158 118 73
158 118 73
159 119 74
158 118 73
158 118 73
157 117 73
155 116 72
154 116 72
152 114 71
151 114 71
149 112 69
148 111 69
145 109 68
141 106 66
139 105 66
136 103 64
132 100 62
130 99 62
62 94 74
61 93 73
62 94 74
63 95 75
63 96 75
60 91 71
61 92 72
64 97 76
62 95 74
64 97 76
63 96 75
61 92 72
62 94 74
61 94 74
65 98 77
62 95 74
61 93 73
63 96 75
63 96 75
63 96 75
62 95 74
61 93 73
60 92 72
62 95 74
62 94 73
63 95 74
58 89 69
64 98 76
64 98 77
60 91 72
62 94 73
61 92 72
65 99 78
60 92 72
57 87 68
59 89 70
61 93 73
60 91 71
60 91 71
64 97 76
66 99 78
62 93 73
61 92 72
62 94 73
61 93 73
60 91 72
62 94 73
65 99 77
62 94 73
60 92 72
61 92 72
61 93 73
64 98 77
60 92 72
60 92 72
61 92 72
63 95 74
63 96 75
63 95 75
60 92 72
62 94 73
62 94 73
62 95 74
59 89 70
63 95 74
61 92 72
63 96 75
63 95 75
60 91 71
60 91 71
61 93 73
61 93 72
60 92 72
62 94 74
65 99 78
62 94 73
58 89 70
61 92 75
59 70 100
59 56 114
62 59 119
63 60 122
64 60 123
64 61 124
64 61 125
65 61 125
64 61 126
65 62 126
65 62 126
65 62 126
64 62 126
64 62 126
107 97 137
178 159 163
181 161 154
165 147 134
150 133 122
149 133 121
151 135 122
150 134 123
147 131 120
157 139 128
177 158 157
82 76 121
57 54 112
54 52 106
51 53 95
60 87 77
61 92 71
61 92 72
58 87 68
59 90 70
59 89 69
57 86 67
60 90 70
61 93 72
58 87 68
58 87 68
56 84 65
57 86 66
58 88 68
58 87 68
59 88 68
62 93 72
60 90 70
58 88 68
58 88 68
59 89 69
55 83 64
55 84 65
57 86 67
59 89 69
58 88 68
57 86 66
62 93 72
61 92 72
59 89 69
60 91 71
60 90 70
63 94 73
61 92 72
61 92 72
60 90 70
62 93 73
60 90 70
62 94 74
62 94 73
59 89 69
61 93 72
61 93 72
61 91 71
62 93 72
59 89 70
61 92 72
57 87 67
58 88 69
60 91 71
64 96 75
59 90 70
63 95 74
62 95 74
61 92 72
62 93 72
61 93 73
63 96 75
59 89 70
60 91 71
62 94 73
62 93 73
64 97 75
61 92 72
61 92 72
61 92 72
62 94 74
62 94 74
63 96 75
63 95 74
60 92 72
63 95 74
60 90 71
60 90 70
59 89 69
62 93 72
61 92 72
59 89 69
59 89 70
60 92 72
63 95 74
60 91 70
62 93 73
61 92 72
63 94 74
63 94 74
62 94 73
60 91 70
61 91 71
60 90 69
60 90 70
63 93 72
64 96 75
63 93 72
60 90 71
59 89 69
61 91 71
61 91 71
60 90 70
62 92 71
60 90 70
62 93 72
59 89 69
62 92 72
60 90 70
64 95 74
62 92 71
59 89 69
61 92 72
64 96 75
62 94 73
63 94 73
61 90 69
61 92 71
62 94 73
59 89 69
62 93 73
60 90 70
60 90 70
58 87 68
58 87 68
59 88 68
63 94 73
63 94 73
59 86 67
61 92 71
57 86 66
58 87 68
60 90 69
60 89 69
60 89 69
59 87 67
56 84 65
60 76 58
90 38 25
115 39 23
125 42 26
131 43 26
135 44 27
140 45 28
147 47 30
145 47 29
147 48 30
146 47 30
149 48 30
143 46 29
142 46 28
145 47 29
134 43 27
135 43 27
129 42 26
123 40 24
114 37 22
110 36 22
102 34 21
94 32 19
86 30 18
70 26 16
65 25 15
71 39 54
93 60 95
98 64 101
101 66 105
104 68 108
105 69 110
105 69 111
106 69 111
105 69 111
106 69 112
105 69 112
105 69 112
105 69 112
104 69 111
105 70 112
127 97 123
158 131 142
198 171 165
216 190 178
228 203 186
229 204 188
223 198 183
219 194 180
212 188 176
188 165 158
146 122 131
107 80 108
89 60 97
86 57 94
81 55 90
71 60 80
60 89 71
61 93 73
60 91 71
62 95 74
60 91 71
59 90 71
59 90 71
59 89 70
58 88 69
60 90 70
64 96 75
60 91 72
58 89 69
62 94 74
60 91 71
61 93 73
60 91 71
60 91 72
60 91 71
60 91 71
64 97 76
60 91 71
58 89 70
62 94 74
61 92 72
62 94 73
60 91 72
60 91 71
59 90 70
61 93 73
59 90 71
61 93 73
59 90 71
59 90 70
59 91 71
60 92 72
59 90 70
61 93 73
57 87 68
59 89 70
59 90 70
58 88 69
60 91 71
55 84 66
60 91 71
62 94 73
61 93 73
58 88 69
62 94 74
59 89 70
58 88 69
61 93 73
61 92 73
62 94 74
59 90 71
61 93 73
61 92 72
59 90 70
60 90 70
60 91 71
59 89 70
59 90 70
62 94 73
60 92 72
62 94 74
62 93 73
61 93 73
59 90 71
57 87 68
60 91 72
59 90 71
74 78 65
150 130 110
180 156 134
186 161 137
201 175 151
200 173 148
200 172 148
183 159 137
182 158 138
143 124 108
133 100 65
155 116 71
157 117 72
158 118 73
160 119 74
158 118 73
158 118 73
158 119 74
158 118 73
156 117 73
155 116 72
152 114 71
152 114 71
149 112 70
148 112 70
144 109 68
141 107 66
141 107 67
135 102 63
131 100 62
128 98 61
129 98 61
65 99 77
61 93 73
59 90 70
63 96 75
64 97 76
60 92 72
58 88 69
63 95 74
60 92 72
64 97 75
67 102 80
60 92 72
60 92 72
61 92 72
67 102 80
61 93 73
61 93 73
62 95 74
63 95 75
62 94 74
60 92 72
60 92 72
60 91 71
61 94 73
62 94 73
61 92 72
60 91 71
59 90 70
61 92 72
62 94 74
60 92 72
63 96 75
60 91 72
62 95 74
62 94 73
60 91 71
61 92 72
61 93 73
62 94 73
59 90 70
62 94 74
65 98 77
63 96 75
62 94 74
61 93 73
59 89 70
60 91 71
61 93 73
60 91 71
63 95 74
64 98 76
62 94 74
62 94 73
62 94 74
62 94 74
64 97 76
64 97 76
61 93 73
61 93 73
60 91 72
66 100 78
62 94 74
63 96 75
62 94 74
62 94 73
62 94 74
62 95 74
62 94 74
61 93 73
60 91 71
62 94 73
61 92 72
59 90 71
62 94 74
59 90 70
62 94 74
60 92 72
58 75 92
57 55 110
60 57 116
62 59 121
63 60 123
64 61 123
64 61 124
64 61 125
65 62 125
65 62 126
65 62 126
65 62 126
65 62 126
65 62 126
65 62 126
64 62 126
64 61 125
78 72 128
109 99 137
154 138 153
172 154 158
172 154 157
162 144 151
157 140 151
111 101 133
73 68 120
59 57 115
57 54 111
56 53 107
53 51 104
51 59 90
58 86 72
62 93 72
61 92 72
60 90 69
63 95 74
58 88 69
61 93 72
59 89 69
57 86 67
60 90 70
58 88 69
58 88 68
60 90 70
59 89 69
58 87 68
59 89 69
61 91 71
61 93 72
59 89 69
62 94 73
58 88 68
57 86 67
58 87 67
61 92 72
58 87 68
60 90 70
62 94 73
61 93 72
58 87 68
58 88 69
59 89 69
59 89 70
59 89 69
59 88 69
62 93 72
60 91 70
60 90 71
62 93 73
62 94 73
58 88 69
63 95 74
59 90 70
59 90 70
59 90 70
59 89 70
63 95 74
60 90 70
61 92 72
65 98 76
62 94 73
61 93 73
62 93 73
62 93 73
62 93 73
59 89 69
62 94 73
61 92 72
60 90 70
62 93 72
60 92 72
61 92 72
61 93 72
64 96 75
64 98 76
61 92 72
61 93 72
65 98 76
60 90 70
63 95 74
61 92 71
59 89 69
61 92 72
62 93 73
60 90 70
61 92 71
62 93 72
61 92 72
61 92 72
61 92 71
65 98 76
60 90 70
59 88 69
62 93 73
58 88 69
61 92 72
61 91 71
59 88 69
60 91 70
62 93 73
60 90 70
61 92 72
60 90 70
60 91 70
59 89 70
62 94 74
64 95 74
60 90 70
64 96 75
62 92 72
60 90 70
60 91 70
60 90 70
64 95 74
63 95 74
60 91 71
62 93 73
61 92 71
60 89 69
63 95 74
61 91 71
61 91 71
58 87 68
61 91 70
62 93 73
61 91 70
60 90 70
59 88 68
60 89 69
58 87 67
60 89 69
57 85 66
60 90 70
59 88 68
61 91 71
61 92 71
57 86 66
59 87 68
58 86 66
57 84 64
58 85 65
58 86 66
55 82 63
53 78 60
59 61 46
84 37 24
99 34 20
109 37 22
119 40 24
126 42 25
126 41 25
128 42 26
130 43 26
135 44 27
131 43 26
132 43 27
128 42 25
128 42 25
125 40 25
119 40 24
113 38 22
106 35 21
99 33 20
88 30 17
80 29 16
71 26 15
63 24 13
60 24 13
70 30 30
86 55 86
94 61 97
99 64 102
102 66 106
104 68 108
105 69 110
106 69 111
106 69 111
106 70 112
106 69 112
106 69 112
106 69 112
106 71 112
147 119 135
197 170 166
233 206 190
241 214 195
240 213 194
237 211 192
236 210 192
233 208 190
232 207 188
229 205 187
226 202 185
224 200 182
222 199 182
211 188 174
169 146 144
101 76 102
83 55 90
75 50 82
63 75 73
63 95 74
61 93 72
60 91 71
61 93 73
59 89 70
58 88 69
58 88 69
61 92 72
60 91 71
60 91 72
60 90 71
59 89 70
61 93 73
62 93 73
63 96 75
60 92 72
60 92 72
60 92 72
60 91 72
59 89 70
61 93 73
60 91 71
60 92 72
61 93 73
58 88 69
58 88 69
62 94 74
60 91 71
61 92 72
60 90 71
60 91 71
60 91 71
60 91 71
58 89 70
58 89 69
59 90 71
60 91 71
60 91 71
60 92 72
58 89 69
57 87 68
60 92 72
60 91 72
60 91 71
60 91 71
59 90 71
60 91 71
62 94 74
62 95 74
57 86 68
61 92 72
59 90 71
61 93 73
63 96 75
59 90 70
59 89 70
56 85 66
59 89 69
59 90 70
61 93 73
58 89 70
59 90 70
59 90 71
59 89 70
61 92 72
58 89 69
59 89 70
59 90 71
59 90 71
61 92 72
120 117 96
172 150 127
185 162 138
190 165 141
194 167 141
201 174 148
201 174 148
208 179 153
211 182 156
172 139 107
156 117 72
158 118 73
157 118 73
158 118 73
160 119 74
159 119 73
158 118 73
158 118 73
155 116 72
155 116 72
152 114 71
152 114 71
149 112 69
147 111 69
146 110 68
143 108 67
140 106 66
136 103 64
133 101 63
130 99 62
125 95 59
123 94 59
63 95 75
62 94 74
62 94 73
64 97 76
62 94 74
61 93 73
61 92 72
62 94 73
61 92 72
64 97 76
63 95 75
62 95 74
60 91 71
62 94 73
63 96 75
63 96 75
62 94 73
59 90 70
60 92 72
59 90 71
64 97 76
58 89 70
62 94 74
62 94 73
63 95 75
61 94 73
59 90 71
59 90 71
60 91 71
62 95 74
61 93 73
63 95 75
64 97 76
63 95 75
62 94 74
59 90 71
58 88 69
60 92 72
62 94 74
61 92 72
66 100 78
64 97 76
61 92 72
67 102 79
64 97 76
63 96 75
65 99 78
63 96 75
60 92 72
63 96 75
62 93 73
62 95 74
64 98 76
63 96 75
62 95 74
65 99 77
64 97 75
60 91 71
63 95 74
63 96 75
66 101 79
59 90 70
64 98 76
63 96 75
65 99 78
62 93 73
61 93 73
63 96 75
62 94 74
62 94 74
62 94 73
62 95 74
60 91 72
61 93 73
61 93 73
60 91 71
60 88 80
55 55 104
59 56 114
62 59 119
62 59 121
64 60 123
64 61 124
64 61 125
65 61 125
65 62 126
65 62 126
65 62 126
65 62 126
65 62 126
65 62 126
65 62 126
65 62 126
65 62 126
64 61 125
64 61 125
64 61 124
63 60 123
63 60 122
62 59 121
62 59 120
61 58 119
61 58 118
59 56 115
58 55 112
56 52 106
54 51 103
50 48 97
50 67 76
59 89 69
59 89 69
61 93 73
58 88 69
59 89 69
59 88 69
60 91 71
57 86 67
60 90 70
61 91 71
63 95 74
61 92 72
60 91 71
60 90 70
59 88 68
60 90 70
62 93 73
59 89 69
62 94 73
63 94 73
60 90 70
60 90 70
62 93 72
57 85 67
58 88 68
63 95 74
61 93 73
61 93 73
61 92 72
61 92 72
63 94 73
58 88 68
61 92 72
63 95 74
61 92 72
60 90 70
61 93 72
60 91 71
59 89 69
63 96 75
62 94 74
63 95 74
60 90 70
60 91 71
62 94 73
64 97 76
65 98 76
61 92 72
62 93 72
61 92 72
59 90 70
62 94 73
63 95 74
59 90 70
62 93 73
61 93 73
59 90 70
62 94 73
62 93 73
78 96 74
110 98 76
141 87 66
143 88 67
138 85 65
140 85 65
116 90 70
91 91 71
66 93 72
64 98 77
61 91 71
62 94 73
61 91 71
59 89 70
60 91 71
63 95 74
60 90 71
61 92 72
61 92 72
60 90 69
62 93 72
62 93 73
61 92 71
60 89 70
61 92 72
62 94 73
61 92 71
61 93 72
62 93 72
59 89 69
62 93 72
62 94 73
63 95 74
62 93 72
58 88 68
58 87 68
61 93 72
64 96 75
62 93 72
65 97 76
62 93 73
57 85 66
60 90 70
64 97 75
61 91 71
59 89 69
59 89 69
58 87 68
60 90 70
60 90 70
61 91 71
62 93 73
63 95 74
61 91 70
60 90 70
58 87 67
60 89 69
59 88 68
62 92 71
62 92 71
60 88 68
60 88 68
60 91 71
56 83 65
57 86 67
60 88 68
59 87 68
59 87 67
56 84 65
56 83 64
54 80 61
55 81 62
53 78 59
50 74 57
49 57 43
71 32 20
89 31 18
100 35 20
107 36 21
110 38 22
113 38 23
115 39 23
116 39 23
115 38 23
117 39 23
115 39 23
110 37 22
108 37 22
107 36 21
100 34 20
90 31 18
85 30 17
73 27 14
60 24 12
60 24 13
51 22 11
57 30 20
71 46 67
93 60 95
97 63 99
101 66 105
102 66 106
104 67 108
105 69 110
106 69 111
106 70 112
106 70 112
106 70 112
106 70 112
131 100 125
200 172 167
245 217 197
247 219 199
244 216 196
243 216 196
241 213 193
237 210 191
236 209 191
233 207 188
232 206 187
231 205 187
229 204 186
226 201 184
222 198 181
219 196 179
213 190 173
188 167 156
120 98 111
78 53 84
69 51 77
57 83 68
60 91 71
60 90 71
64 97 75
60 91 71
58 88 69
58 88 69
59 90 71
61 92 72
60 90 71
60 91 71
58 88 69
58 88 69
58 88 69
62 94 74
62 94 74
59 90 70
63 95 74
58 88 69
61 92 72
60 92 72
61 93 73
63 95 75
60 91 71
59 89 70
59 89 70
60 91 71
59 90 71
60 91 71
60 91 72
58 88 69
62 93 73
60 91 72
60 91 72
61 92 72
58 89 69
61 93 72
61 93 73
58 89 69
59 90 70
59 89 70
58 89 69
60 91 71
62 94 74
61 92 72
64 98 76
57 87 68
59 90 70
62 94 73
60 91 71
59 89 70
61 93 73
60 92 72
57 86 67
60 92 72
61 93 73
61 93 73
61 93 73
59 90 70
59 89 70
58 88 69
58 89 70
59 90 71
59 90 71
61 93 73
58 88 69
62 94 74
58 88 69
59 90 70
59 89 70
96 103 82
164 144 121
177 155 131
187 162 138
189 164 139
193 167 141
200 172 145
204 176 151
174 141 109
153 114 71
157 117 73
159 119 73
159 119 73
157 118 72
158 118 73
157 118 73
157 117 73
157 117 73
156 117 72
154 115 72
151 114 71
150 113 70
148 111 69
147 110 69
143 108 67
140 106 66
138 104 65
133 101 62
132 100 63
129 98 61
121 93 58
120 92 57
63 96 75
60 92 72
62 94 74
61 93 73
63 95 74
62 94 74
64 98 76
63 97 76
62 94 74
64 98 76
61 94 73
62 94 73
61 93 72
61 92 72
60 91 71
63 95 75
64 98 77
61 93 73
61 93 73
60 91 71
64 97 76
61 92 72
63 95 74
61 93 73
64 97 76
63 96 75
60 92 72
59 90 70
60 92 72
62 94 73
61 93 73
62 93 73
61 93 73
64 97 76
63 95 75
62 94 73
64 97 76
60 92 72
60 91 72
61 92 72
64 97 76
61 93 73
63 95 74
62 95 74
62 95 74
62 94 73
59 90 70
58 88 69
61 93 73
63 95 74
59 90 71
64 97 76
63 96 75
61 92 72
63 96 76
60 91 71
64 96 75
62 95 74
62 94 73
60 91 71
61 93 73
61 93 73
63 96 75
61 93 72
65 98 77
63 95 75
61 92 72
64 97 76
60 91 71
59 90 70
63 96 75
63 96 75
61 93 73
60 91 71
64 98 76
63 95 75
57 71 92
56 53 108
59 56 113
62 59 119
62 59 120
63 60 121
64 61 124
65 61 125
65 62 125
65 62 126
65 62 126
65 62 126
66 63 126
68 64 127
70 67 128
71 68 128
68 65 127
66 63 126
65 62 125
64 61 125
64 61 123
63 60 122
63 60 122
62 59 121
62 59 120
61 58 119
61 58 117
60 56 115
58 54 110
56 53 107
54 50 102
52 49 100
46 47 87
56 82 72
60 90 70
58 88 69
61 92 72
61 92 71
59 89 70
62 94 74
58 88 68
62 94 73
60 91 71
57 87 67
58 87 68
61 93 73
60 91 71
59 88 69
61 93 72
58 88 69
59 89 69
58 88 68
58 88 68
62 95 74
59 90 70
60 91 71
62 93 72
62 93 73
62 94 73
59 90 70
62 94 73
60 91 70
64 96 75
60 91 71
61 92 72
60 91 71
61 93 73
60 91 71
56 85 66
60 91 71
62 94 73
62 95 74
57 87 68
60 91 71
63 95 74
59 90 71
61 93 73
60 92 72
61 93 73
66 99 77
64 97 76
61 92 72
62 93 73
60 90 70
62 94 73
67 101 79
61 92 72
66 100 78
66 97 76
108 93 72
169 83 62
202 81 59
226 77 55
231 76 54
233 77 55
233 77 55
232 77 55
230 76 54
227 75 54
222 75 53
205 78 57
177 81 61
130 88 67
70 91 71
59 90 70
57 86 68
64 96 75
61 93 73
59 89 70
59 89 69
57 87 68
60 91 70
58 89 70
63 95 74
58 88 69
60 91 71
60 90 71
61 92 72
62 93 72
63 95 74
59 89 69
60 90 70
60 90 70
61 92 72
59 89 70
61 92 71
62 94 73
61 92 71
64 96 75
62 93 72
61 93 73
64 96 75
62 93 73
61 92 72
64 97 76
64 95 74
61 92 72
61 90 70
60 91 71
63 95 74
61 92 72
65 98 76
62 93 72
62 92 72
61 92 71
61 90 70
59 88 68
60 90 70
62 93 72
61 91 71
59 88 68
60 89 69
59 88 68
63 94 73
58 86 66
57 85 66
59 88 68
59 87 67
57 84 64
58 85 65
56 83 63
58 85 65
56 82 63
58 86 65
55 81 61
50 74 56
42 63 48
48 56 43
56 31 20
71 27 14
82 29 16
90 32 18
99 34 20
99 34 20
99 35 20
99 34 20
98 34 19
97 34 19
94 33 19
91 32 18
84 30 17
80 28 16
75 27 14
63 24 12
58 23 12
57 24 12
51 24 13
51 35 22
48 51 46
88 58 89
95 62 98
98 64 102
99 64 103
102 66 105
104 68 108
106 69 109
106 69 110
106 70 111
107 70 112
108 71 112
165 136 145
245 216 197
255 226 204
255 226 204
250 222 200
245 217 196
243 215 195
239 212 192
238 211 191
235 208 188
234 208 188
234 207 188
234 208 189
227 202 184
226 201 183
225 199 181
219 195 178
214 191 174
204 182 165
195 173 159
124 104 112
72 48 79
61 72 71
58 88 68
60 91 71
59 90 70
58 88 69
61 93 72
59 89 70
62 95 74
58 87 69
59 90 70
59 89 70
60 90 70
59 90 71
61 92 72
60 91 72
59 89 70
59 90 70
62 94 74
60 91 72
61 93 72
61 93 73
61 93 73
61 93 73
61 93 72
57 86 68
61 93 73
58 89 70
59 90 70
60 91 72
57 86 68
60 91 71
60 91 71
61 93 73
60 91 72
59 90 71
59 89 70
59 89 70
61 92 72
63 96 75
59 91 71
57 86 67
61 92 72
58 89 69
59 90 70
57 87 68
61 92 72
64 98 76
59 90 71
60 91 71
59 89 70
57 87 68
63 96 75
58 89 69
57 86 68
58 88 69
59 89 70
60 91 71
58 89 70
60 92 72
55 84 65
58 88 69
56 85 66
55 84 66
60 91 71
59 89 70
59 90 70
59 90 71
58 88 69
57 87 68
57 86 67
72 93 74
147 131 110
162 141 117
173 151 126
185 160 135
181 157 131
187 161 136
173 142 111
153 115 71
156 117 72
158 118 73
158 118 73
159 119 74
159 119 74
158 119 74
155 116 72
157 118 73
155 116 72
154 115 72
152 114 71
148 111 69
147 110 69
146 110 68
143 108 67
141 106 66
136 103 64
134 102 64
133 101 63
127 97 60
125 95 60
121 93 58
114 88 55
65 99 77
63 95 74
62 95 74
63 95 74
59 89 70
61 93 73
60 92 72
62 94 74
62 93 73
61 93 73
64 97 76
60 92 72
61 93 72
63 95 75
59 89 70
62 95 74
64 96 75
64 97 76
59 90 71
62 94 74
63 96 75
59 90 70
65 98 77
64 97 76
62 94 74
64 97 76
63 95 75
62 93 73
62 95 74
60 91 71
61 93 73
64 97 76
62 93 73
65 99 77
66 101 79
62 93 73
62 95 74
62 95 74
61 92 72
63 96 75
65 100 78
65 99 77
64 98 76
61 93 73
64 97 76
60 91 71
58 89 69
60 91 71
61 93 73
66 100 78
60 91 71
64 97 76
65 98 77
62 95 74
61 92 72
59 90 70
61 93 73
62 95 74
61 93 73
57 86 67
64 98 76
63 96 75
63 95 75
65 98 77
64 97 76
65 98 77
63 96 75
63 96 75
62 94 74
64 97 76
61 92 72
60 92 72
61 92 72
60 91 71
64 97 76
62 90 81
52 51 98
57 54 109
59 56 113
61 58 116
62 59 119
63 59 120
64 61 123
64 61 124
65 61 125
65 62 125
65 62 126
66 63 126
72 68 128
84 79 133
98 91 138
102 96 140
88 82 134
74 70 128
66 63 125
64 61 124
63 60 123
63 60 123
63 60 122
63 59 121
62 59 120
62 58 118
60 56 114
60 56 113
58 55 111
56 53 107
53 50 103
51 48 97
47 45 91
50 64 78
59 90 70
60 91 71
59 89 70
59 89 70
60 90 71
61 93 72
57 86 67
60 91 71
64 96 74
62 93 73
62 94 73
62 94 73
60 90 71
60 91 71
60 91 71
63 95 74
62 94 74
59 89 69
60 91 71
62 94 74
64 96 75
62 94 74
58 88 68
62 93 73
62 94 73
58 88 69
62 94 73
62 93 73
61 93 73
61 93 73
60 91 71
57 87 68
62 94 73
59 90 70
61 92 72
60 91 71
64 97 76
59 89 69
58 88 68
62 94 73
63 96 75
59 90 70
62 93 73
61 92 72
63 96 75
63 96 75
58 88 69
63 95 74
61 91 71
61 91 71
60 91 71
62 93 73
63 87 68
121 88 69
193 83 61
231 77 55
237 78 56
238 78 56
238 79 56
239 79 56
238 79 56
238 79 56
237 78 56
236 78 56
234 77 55
232 77 55
230 76 54
226 75 54
220 73 53
202 73 53
149 81 61
86 91 71
61 92 72
64 96 75
62 93 73
60 91 71
61 92 72
61 93 72
59 89 70
64 97 76
61 93 72
62 94 73
63 94 74
61 93 73
61 91 71
62 94 73
61 92 72
59 89 69
62 93 73
63 94 73
64 96 75
62 94 73
61 92 72
58 87 68
63 95 74
59 89 69
64 96 75
57 86 66
60 89 69
62 92 72
63 95 74
62 92 71
61 91 71
60 90 70
61 90 70
63 94 73
59 89 69
60 90 70
61 91 71
60 91 71
58 87 67
59 88 68
60 90 70
64 94 73
60 90 70
60 89 69
56 83 65
58 86 67
57 85 66
59 88 68
58 87 67
60 88 68
60 88 68
58 86 67
59 86 66
57 83 64
54 79 60
57 84 64
55 81 62
55 80 61
58 85 64
52 76 58
47 69 53
42 62 48
37 51 39
46 34 25
62 26 14
65 25 13
68 26 13
78 28 15
78 29 16
81 29 16
79 28 15
74 27 15
72 27 14
64 25 13
63 25 13
60 23 12
54 22 11
55 23 11
60 26 13
50 36 22
45 44 30
32 46 35
59 50 62
91 59 93
95 61 97
99 64 102
100 65 103
102 67 106
103 66 105
105 68 108
105 69 110
106 69 111
111 76 114
189 160 159
254 224 202
255 236 211
255 245 219
255 244 217
255 231 207
249 220 199
241 213 192
240 213 193
238 210 190
237 209 189
236 209 189
231 205 185
231 205 185
228 202 183
226 200 181
223 197 178
221 195 176
212 188 171
206 183 167
195 174 159
185 164 150
100 81 94
61 54 69
63 94 74
58 88 68
57 86 68
62 94 73
63 95 74
59 89 70
62 94 73
60 91 71
61 92 72
59 89 70
59 89 70
60 91 71
59 89 70
61 93 73
60 92 72
64 97 76
59 89 70
60 91 72
62 95 74
59 89 70
60 91 72
56 86 67
58 87 68
61 93 73
61 93 73
63 95 74
62 93 73
62 94 74
59 90 71
58 88 68
59 91 71
59 90 71
59 90 71
62 94 73
61 92 72
58 88 69
59 90 70
62 95 74
57 87 68
57 87 68
59 89 70
59 90 70
58 89 70
61 92 72
64 97 76
63 95 74
59 90 70
59 90 71
56 86 67
56 85 67
59 90 71
63 95 75
57 87 68
64 97 76
60 91 71
60 91 71
59 89 69
56 86 67
58 88 69
60 91 71
59 90 70
57 87 68
56 85 67
55 84 65
56 85 66
59 90 70
58 87 68
57 87 68
58 88 69
62 91 72
127 117 95
147 130 105
163 141 116
169 147 122
181 157 131
168 138 107
153 114 70
158 117 72
159 118 73
160 119 74
159 119 74
158 118 73
158 118 73
157 118 73
156 117 73
155 117 72
154 115 72
152 114 70
151 114 71
148 112 69
144 109 68
143 108 67
141 106 66
137 103 64
135 103 64
131 99 62
130 99 62
122 93 58
120 92 57
114 88 55
106 82 51
61 93 73
63 95 75
62 94 74
62 95 74
64 97 76
63 95 74
63 95 74
60 91 71
63 96 75
63 96 75
62 94 73
62 94 73
62 94 73
62 95 74
60 92 72
60 92 72
59 90 70
61 93 72
61 92 72
60 92 72
61 93 73
62 94 74
62 94 73
61 93 73
63 96 75
65 99 78
64 97 76
63 95 75
64 97 76
60 91 72
62 95 74
62 94 74
61 92 72
63 95 74
61 92 72
62 94 74
62 95 74
62 94 73
61 93 73
62 95 74
63 96 75
61 93 73
61 93 73
64 97 76
64 97 76
63 96 75
63 96 76
60 92 72
59 89 70
62 94 73
65 98 77
61 93 73
67 101 79
65 98 77
62 95 74
60 92 72
63 95 75
62 95 74
64 97 76
63 95 75
63 95 75
61 92 72
64 97 76
62 94 74
62 94 74
62 94 74
62 94 74
62 95 74
63 95 74
62 95 74
63 96 75
61 93 73
63 96 75
63 96 75
60 92 72
56 73 88
55 52 105
57 54 109
59 56 113
61 57 115
62 59 119
64 60 121
64 60 122
65 61 124
65 61 124
65 62 125
66 62 126
69 66 127
89 83 134
121 112 148
149 138 163
152 141 165
130 121 153
91 85 134
70 66 126
65 62 124
64 60 123
63 60 122
63 60 121
63 59 120
62 58 119
61 58 117
60 57 116
59 56 113
58 54 109
57 53 108
55 52 105
52 49 99
48 45 92
45 46 83
61 91 74
59 89 70
61 92 71
62 94 73
59 90 70
61 93 72
61 92 72
58 88 68
64 97 75
61 92 72
61 93 72
61 92 72
61 92 72
60 91 71
60 91 71
60 91 71
61 91 71
59 89 69
59 89 69
61 92 71
59 89 70
60 91 71
62 94 73
61 92 72
63 96 75
62 94 73
64 97 75
59 89 69
62 93 72
65 98 77
61 93 72
60 91 71
59 89 70
62 94 74
60 91 71
60 90 71
59 90 70
60 91 71
62 93 73
62 94 73
58 88 69
60 91 71
65 98 77
66 100 78
60 91 71
59 90 70
61 92 72
60 91 71
59 88 69
61 93 72
64 97 76
93 97 78
191 90 70
231 81 59
240 79 56
241 79 56
241 80 57
242 80 57
242 80 57
242 80 57
241 80 57
240 79 57
239 79 57
239 79 56
237 78 56
235 78 56
233 77 55
232 77 55
228 75 54
225 74 53
219 73 52
192 76 56
122 84 64
68 97 75
61 92 72
62 94 73
62 93 73
63 95 74
62 93 73
62 93 73
62 94 73
61 92 71
62 93 72
59 89 69
59 89 70
59 90 70
62 93 73
62 94 73
62 93 73
60 90 70
62 93 72
63 95 74
61 92 72
59 89 69
62 93 73
60 90 70
59 89 70
61 91 71
64 96 75
61 92 72
60 90 70
60 91 71
60 90 70
62 94 74
62 93 73
60 90 70
63 93 73
61 91 71
63 95 74
62 93 72
61 91 71
59 88 69
61 91 71
64 96 74
61 91 71
59 87 68
60 90 70
64 95 74
57 84 65
57 85 66
61 91 70
59 87 67
59 88 68
57 84 65
57 84 65
59 88 68
56 81 62
56 81 61
54 79 60
56 82 62
56 81 61
57 83 62
51 74 55
46 67 50
40 59 45
32 49 37
33 38 29
41 28 19
57 24 14
57 24 12
61 24 12
59 23 11
59 23 12
59 23 12
59 23 12
60 24 12
59 23 12
63 27 15
57 33 20
51 40 25
48 48 32
32 42 30
25 39 31
30 42 36
121 102 102
158 132 131
97 65 98
97 63 99
100 64 101
102 66 104
102 66 105
104 68 108
104 67 107
108 72 110
201 172 165
253 222 200
255 233 208
255 254 225
255 255 239
255 255 234
255 244 216
252 223 201
243 215 194
241 213 193
240 211 190
239 211 190
235 208 188
233 206 186
230 203 184
227 201 182
226 199 180
223 196 177
218 192 174
214 189 172
207 184 166
198 174 157
182 162 146
164 146 135
76 60 77
62 86 73
60 90 71
59 89 69
58 87 68
62 93 73
60 90 71
60 90 71
62 94 74
60 91 71
61 92 72
58 89 69
59 90 71
57 87 68
61 92 72
60 91 71
58 88 69
64 96 75
57 87 68
61 92 72
61 92 72
61 92 72
62 94 74
61 93 73
64 97 76
61 93 72
59 89 70
57 87 68
60 91 71
61 92 73
61 93 73
61 93 73
58 88 69
59 90 70
61 92 72
61 93 73
60 91 71
62 94 74
60 92 72
62 94 74
60 91 71
59 90 70
59 90 70
60 91 71
60 91 71
59 90 70
60 91 72
61 92 72
63 95 74
62 94 73
60 91 71
60 91 71
60 91 71
62 94 74
61 93 73
59 90 70
61 92 72
56 85 66
58 89 69
63 96 75
61 93 73
57 87 68
57 87 67
57 86 67
60 91 71
57 87 67
59 90 70
58 88 69
58 87 68
59 89 69
58 87 68
86 97 77
137 121 97
152 133 109
165 143 118
159 132 101
155 116 73
157 117 73
159 119 74
159 119 74
159 119 74
158 118 73
159 119 74
158 118 73
156 117 73
155 116 72
154 116 72
153 114 71
151 114 71
148 111 69
147 111 69
144 108 67
144 108 68
138 104 65
134 102 63
133 101 63
129 98 61
125 95 59
120 92 58
116 89 56
106 82 51
106 83 52
62 94 74
64 97 75
62 94 74
65 98 76
64 97 76
61 92 72
61 92 72
61 92 72
62 94 74
61 92 72
61 92 72
61 93 72
61 93 73
62 94 73
63 96 75
59 91 71
59 90 71
59 90 71
62 95 74
64 97 76
62 94 74
63 96 75
65 99 77
63 96 75
61 93 73
63 95 75
64 97 76
61 92 72
63 95 74
64 97 76
61 92 72
64 98 76
60 91 71
62 94 73
63 96 75
64 98 76
63 95 75
61 92 72
67 101 79
64 97 76
61 93 73
61 93 73
60 91 71
61 93 73
59 90 71
65 98 77
64 97 76
60 91 71
62 94 74
65 99 77
63 96 75
62 95 74
62 94 73
62 94 73
63 96 75
61 92 72
60 92 72
64 97 76
65 99 77
63 96 75
61 93 72
62 95 74
64 97 76
63 96 75
64 98 77
63 95 74
61 92 72
59 90 70
64 96 75
62 94 73
65 98 77
66 100 78
65 98 77
62 94 74
62 93 74
52 57 93
54 52 104
57 54 109
59 56 113
60 57 114
61 58 117
62 59 119
64 60 122
64 60 122
64 61 123
65 61 125
66 63 125
74 70 128
102 95 139
151 140 164
194 180 189
193 178 188
155 144 166
106 98 140
74 70 127
65 62 123
63 60 121
63 60 121
63 59 120
62 59 118
62 58 117
61 57 116
60 56 113
59 55 111
57 53 107
56 52 105
53 50 100
52 49 98
48 45 92
44 42 84
55 80 75
62 93 73
61 93 73
61 92 72
63 95 74
60 90 70
60 90 70
59 89 69
63 95 74
61 93 72
61 92 72
61 92 72
63 96 75
65 99 77
59 89 69
59 90 70
60 90 70
59 89 69
59 89 70
59 90 70
60 90 70
60 90 71
61 92 72
59 89 70
60 90 70
61 93 72
61 92 72
59 90 70
60 91 71
61 93 73
60 92 72
61 93 72
59 90 70
61 93 73
59 89 70
59 89 69
60 90 71
65 98 77
65 99 77
63 95 74
61 93 72
63 95 75
60 90 70
61 92 71
61 92 72
62 94 73
61 92 72
62 94 73
61 92 72
65 98 76
127 95 76
211 85 65
237 78 55
242 79 56
243 80 57
243 80 57
244 80 57
244 80 57
244 81 57
244 80 57
244 80 57
243 80 57
242 80 57
241 80 57
239 79 57
237 79 56
236 78 56
233 77 55
232 77 55
228 75 54
226 75 53
219 73 52
210 70 50
155 77 58
80 95 74
60 90 70
61 92 72
65 98 77
62 92 72
63 95 74
65 97 76
62 92 72
62 94 73
62 93 72
62 93 72
64 96 75
60 90 71
63 94 74
63 95 74
63 94 74
59 89 70
61 92 72
60 90 70
62 93 73
62 93 72
59 88 69
61 91 71
60 91 71
63 95 74
64 96 75
62 93 73
62 93 72
59 88 69
61 91 71
61 91 71
59 88 69
60 91 71
62 93 72
59 89 70
61 91 71
58 87 67
60 91 71
62 92 71
59 88 69
62 93 72
60 89 69
60 88 68
62 92 71
58 86 66
63 94 73
60 88 68
60 89 68
59 87 67
59 86 66
57 83 64
57 84 65
57 83 64
56 81 62
57 83 64
55 80 61
55 80 60
54 78 59
50 72 54
52 75 56
45 65 48
42 61 45
37 54 40
24 36 26
24 31 22
29 28 20
37 25 16
44 30 19
52 30 18
48 33 20
55 36 22
53 38 24
45 39 25
37 38 25
28 32 21
27 33 24
22 34 26
24 38 30
25 40 32
47 51 44
112 97 85
132 115 103
145 119 122
96 62 99
99 64 101
101 65 104
103 66 106
103 66 105
106 69 107
181 151 151
247 217 194
251 220 197
255 234 209
255 255 228
255 255 243
255 255 237
255 242 214
252 222 199
244 215 194
239 211 191
238 210 189
235 207 186
233 205 185
234 207 187
227 200 180
226 200 180
221 195 175
217 191 172
215 190 171
210 184 166
205 181 163
196 173 156
187 166 150
169 151 137
115 99 101
61 73 70
62 93 73
62 94 73
59 89 70
58 88 69
60 91 71
60 90 71
60 92 72
62 93 73
63 95 74
58 88 69
61 92 72
61 93 73
59 89 70
58 89 70
59 89 70
62 94 73
59 89 70
58 88 69
59 89 70
62 94 74
61 93 73
61 92 72
63 96 75
64 97 76
61 92 72
59 90 70
59 89 70
60 91 71
58 88 69
61 92 72
62 94 73
61 93 73
61 93 73
62 93 73
59 90 71
59 89 70
57 87 68
61 93 73
60 91 71
59 89 70
60 91 71
60 92 72
59 89 70
61 92 72
58 89 69
59 89 69
58 88 69
60 91 71
61 93 72
58 88 69
55 84 65
58 88 69
55 84 65
55 84 66
60 90 70
57 87 68
58 88 69
60 91 71
61 93 72
60 90 70
60 90 70
62 93 73
60 90 71
58 88 69
57 86 67
57 86 67
57 87 68
54 82 64
54 82 64
60 83 65
109 105 84
139 122 99
149 125 95
155 116 72
157 117 72
159 119 73
159 119 74
160 120 74
159 119 73
158 118 73
158 118 73
157 118 73
155 117 72
153 115 71
151 114 71
149 112 70
148 111 69
147 111 69
144 109 67
141 106 66
140 105 66
137 104 65
133 101 63
127 97 60
125 96 60
119 91 57
113 87 54
110 85 53
105 82 51
98 77 49
60 91 71
61 93 73
61 92 72
60 90 71
63 95 75
61 93 73
63 95 74
64 97 76
62 94 73
63 96 75
64 97 76
63 95 74
61 93 73
58 89 70
63 95 74
58 89 70
59 90 70
61 92 72
62 95 74
64 98 76
62 94 73
63 96 75
61 93 73
62 94 73
60 92 72
64 97 76
61 93 73
60 92 72
62 95 74
62 94 74
61 92 72
65 98 77
65 98 77
63 96 75
63 95 74
64 97 76
61 93 73
60 91 71
63 95 75
64 96 76
62 94 73
63 96 75
63 96 75
61 92 72
60 91 71
63 95 75
61 93 73
60 91 71
61 93 73
60 91 72
59 90 70
60 92 72
64 97 76
63 96 75
61 93 73
62 94 73
60 92 72
62 94 73
62 94 74
63 95 74
64 97 75
63 96 75
63 95 75
63 95 74
61 92 72
61 93 73
60 91 71
62 94 73
64 97 75
61 93 72
60 91 71
65 99 77
65 98 77
61 93 73
60 88 77
50 48 95
54 51 103
57 54 109
57 54 108
60 57 115
61 57 116
62 58 118
63 59 119
63 59 119
64 61 122
65 61 122
66 62 124
73 69 126
103 96 139
151 139 163
186 172 183
186 172 183
149 138 162
100 93 137
72 68 125
65 61 122
64 60 122
63 60 121
62 59 120
62 58 118
61 57 115
60 55 111
59 55 110
58 54 109
57 52 105
55 51 103
52 48 97
51 47 95
47 44 89
45 42 84
49 66 75
60 90 71
63 95 74
60 91 71
63 95 74
61 93 72
63 95 74
62 94 73
61 92 72
59 90 70
60 91 71
60 90 70
61 93 73
58 88 69
61 92 72
59 89 69
61 93 73
61 92 72
62 94 73
58 87 68
60 91 71
60 91 71
60 91 72
56 85 66
60 92 72
60 90 70
64 97 76
59 89 70
65 99 77
62 93 73
64 97 76
63 95 74
64 97 76
62 93 73
62 94 73
61 93 73
64 97 76
62 94 73
61 93 72
63 95 74
60 90 71
59 90 70
59 90 71
59 89 69
62 94 74
61 92 72
61 92 72
64 96 75
63 93 73
163 88 68
226 77 56
237 78 55
243 80 56
244 80 57
245 81 57
246 81 57
245 81 58
246 81 58
246 81 58
246 81 58
245 81 58
244 81 57
243 80 57
242 80 57
241 80 57
240 79 57
237 78 56
236 78 56
233 77 55
231 76 55
228 75 54
223 74 53
220 73 52
211 70 50
175 75 55
85 95 74
63 95 74
62 94 73
61 92 72
64 97 76
63 95 74
64 96 75
60 91 71
62 93 73
62 93 73
62 93 73
59 89 69
61 92 72
62 93 73
60 91 71
60 91 71
61 92 72
62 93 72
59 89 70
61 92 71
64 96 75
62 93 73
61 92 72
61 92 72
63 95 74
60 90 70
61 92 72
59 88 68
60 90 69
59 89 69
61 91 71
60 90 70
59 89 69
61 92 71
58 87 67
58 86 67
63 95 74
59 87 67
60 89 69
60 90 70
64 95 74
59 88 68
59 88 68
58 86 67
64 94 73
58 86 67
60 89 69
59 87 67
60 88 68
56 83 64
60 87 66
61 88 68
56 83 64
59 85 65
59 84 64
53 77 58
54 79 60
56 82 62
55 79 60
54 78 59
49 70 52
44 63 46
42 61 46
36 53 39
34 50 37
24 36 27
19 28 20
19 28 21
20 30 22
17 26 19
17 24 17
17 26 20
20 31 24
20 31 24
23 35 27
22 34 26
27 41 32
31 48 37
94 88 76
190 167 146
163 144 126
157 134 123
101 68 101
97 62 98
99 64 101
100 64 102
101 65 103
150 119 130
243 211 189
244 212 188
250 218 194
255 226 200
255 241 212
255 253 223
255 250 221
255 227 201
247 216 192
240 211 189
238 209 188
238 209 188
235 207 186
230 203 183
227 201 180
227 200 179
224 197 177
220 193 174
218 191 171
214 188 169
210 184 166
202 179 162
192 170 153
180 160 144
168 152 137
148 133 122
65 65 70
60 91 71
57 87 67
58 87 68
62 94 73
60 91 71
60 90 70
61 92 72
58 87 68
60 91 71
59 89 70
61 92 72
61 92 72
61 92 72
59 89 70
60 91 71
59 90 70
59 89 70
62 94 74
61 93 73
57 87 69
60 91 71
62 95 74
62 94 74
60 91 71
57 86 68
60 91 71
59 90 70
59 89 70
59 89 70
60 91 71
57 87 68
59 90 70
60 92 71
60 90 71
61 92 72
60 92 72
59 89 70
60 91 72
62 94 74
62 93 73
59 90 70
59 90 71
59 90 71
61 92 72
59 89 70
61 92 72
58 87 68
61 92 72
58 88 69
56 85 66
57 86 68
58 88 68
61 92 72
60 91 71
62 93 73
58 88 68
60 91 71
57 86 67
58 88 69
59 90 70
54 82 64
58 88 68
61 92 72
58 87 67
57 86 67
56 84 65
55 83 64
56 86 67
57 87 67
53 80 62
71 84 65
129 110 82
153 115 71
157 117 72
158 118 73
158 118 73
158 118 73
159 119 74
159 119 74
158 118 73
158 118 73
156 117 72
155 116 72
152 114 71
152 114 71
149 112 70
147 111 70
143 108 67
143 108 67
138 104 64
136 103 64
133 101 63
129 98 61
124 95 59
120 92 57
113 87 54
110 86 54
108 84 53
98 78 49
93 74 47
61 93 73
62 94 74
61 93 73
61 92 72
63 95 75
64 98 76
62 95 74
62 95 74
62 94 73
64 97 76
62 94 74
63 95 74
63 95 74
58 89 69
64 97 76
60 91 72
62 94 74
62 94 74
65 99 77
64 97 76
62 95 74
65 99 78
63 95 75
60 91 71
63 96 75
62 95 74
63 96 75
62 94 74
65 98 77
63 96 75
64 97 76
64 98 77
64 97 76
64 93 75
71 86 80
79 80 87
85 75 93
89 74 97
91 71 99
91 71 99
90 72 98
87 74 95
83 78 92
74 82 83
67 90 78
61 91 72
61 93 72
62 94 74
60 91 71
63 95 74
60 91 72
59 89 70
60 90 71
60 92 72
61 92 72
60 92 72
63 96 75
61 92 72
64 98 77
66 100 78
63 95 75
62 94 74
58 89 69
59 90 71
62 94 73
61 92 72
58 88 69
63 96 75
63 95 75
64 97 76
61 93 73
60 91 71
63 96 75
59 90 70
55 75 79
50 48 95
53 50 101
55 51 103
56 53 107
59 56 113
60 56 113
61 57 115
61 57 116
62 59 118
63 59 119
64 60 121
64 61 121
70 65 124
87 81 130
119 111 146
141 131 157
138 128 155
115 106 143
85 79 129
68 64 122
64 60 121
63 59 120
62 58 118
61 58 116
60 57 114
59 55 110
60 55 112
58 54 109
57 53 107
55 51 104
54 50 100
52 48 96
49 45 90
46 43 86
43 40 81
42 48 74
62 94 74
61 92 72
64 97 76
65 98 77
62 94 73
62 93 73
61 92 72
63 95 74
59 90 70
58 88 68
60 91 71
59 90 70
60 91 71
60 92 71
61 93 72
62 94 73
63 95 74
61 91 71
61 92 71
64 97 75
61 93 73
59 89 70
61 92 72
63 95 74
62 94 73
61 92 72
60 91 71
63 95 74
62 94 73
62 93 73
59 90 70
62 94 74
63 95 74
62 94 73
61 93 72
61 93 73
60 91 71
63 95 74
61 93 72
62 94 74
60 91 71
61 93 73
65 97 76
63 96 74
64 97 76
64 97 76
62 93 73
147 93 73
228 78 56
238 78 55
244 80 56
245 80 57
247 81 57
247 81 58
248 81 58
248 81 58
247 81 58
247 81 58
246 81 58
246 81 58
246 81 58
244 81 58
243 80 57
242 80 57
241 80 57
239 79 56
236 78 56
234 77 55
232 77 55
230 76 54
227 75 54
223 74 53
216 71 51
207 68 49
178 72 53
78 91 71
60 90 71
63 95 74
62 93 72
60 90 70
62 94 73
63 95 74
61 92 72
61 93 72
61 92 72
61 93 73
61 93 72
63 95 74
60 90 70
63 95 74
61 91 71
62 93 73
64 97 75
60 90 70
60 90 71
61 91 71
63 94 73
57 86 67
63 95 74
61 91 71
60 90 70
61 91 71
60 90 70
60 90 70
61 92 72
61 92 72
60 90 70
64 96 75
62 93 72
60 90 70
60 90 70
60 90 70
60 90 70
60 91 71
64 96 75
59 87 67
60 89 69
60 88 68
60 89 69
61 88 68
60 89 69
59 87 67
61 89 69
59 86 66
61 88 67
60 87 67
58 85 65
56 82 63
58 84 64
57 82 62
54 78 59
56 80 61
52 74 55
58 82 62
54 78 59
51 73 54
50 72 54
50 72 53
48 68 49
47 67 49
41 58 42
39 57 42
36 52 39
37 54 40
33 49 36
34 51 37
36 54 41
36 53 40
39 58 44
38 57 43
39 58 44
45 67 50
128 119 102
196 172 151
199 173 152
135 118 105
128 101 113
95 62 97
97 62 98
99 64 101
119 87 112
226 194 174
240 209 186
243 212 189
243 213 190
248 217 192
253 222 197
255 227 201
252 222 196
246 216 192
240 211 188
238 209 187
237 209 187
232 204 182
230 202 181
229 202 182
228 201 181
225 198 177
220 193 173
219 192 172
213 185 164
209 183 164
202 178 159
194 171 154
190 168 151
177 157 141
168 150 135
154 140 128
92 85 83
59 89 70
58 88 69
60 90 71
61 92 72
60 91 71
60 91 71
63 95 74
58 88 68
61 92 72
62 93 72
64 96 75
60 92 72
60 92 72
60 91 72
61 92 72
64 97 76
59 89 70
60 92 72
58 88 69
60 91 71
59 90 70
61 93 73
62 94 73
59 89 70
61 93 73
60 92 72
56 86 67
59 89 70
60 92 72
56 85 67
62 94 74
58 88 68
60 91 72
59 89 70
60 91 71
62 93 73
55 84 66
60 91 71
61 93 73
60 91 71
57 87 68
60 91 71
61 92 72
59 89 70
58 87 68
61 92 72
61 93 72
60 91 71
60 92 72
62 93 72
57 86 67
59 89 70
60 91 71
59 89 70
58 88 68
58 88 68
58 88 69
59 90 70
59 90 70
59 89 70
54 82 64
54 82 63
57 87 67
55 84 65
56 85 66
58 87 67
55 82 64
57 86 67
57 86 66
57 85 66
78 91 68
148 112 70
154 115 71
157 117 73
158 119 74
159 119 74
159 119 74
158 119 73
158 118 73
157 117 73
155 116 72
154 115 72
153 115 71
150 112 70
149 112 70
148 111 69
144 109 68
142 107 67
139 105 65
135 102 64
131 100 62
129 98 61
127 97 60
119 92 57
115 89 55
112 87 54
104 81 50
98 77 48
90 72 45
89 71 45
61 92 72
62 95 74
63 96 75
66 100 78
59 89 70
64 97 76
62 95 74
62 95 74
59 89 70
62 95 75
62 95 74
63 95 74
61 93 73
62 94 73
61 93 73
61 92 72
62 95 74
62 94 73
65 98 77
60 92 72
63 96 75
61 93 73
60 91 71
61 92 72
61 92 72
62 95 74
62 94 73
60 91 71
62 94 73
63 96 75
60 91 71
69 89 79
83 77 91
94 68 101
99 65 106
99 66 107
100 66 107
100 66 107
100 66 107
100 66 107
100 66 107
99 66 106
98 65 106
97 64 104
95 64 102
88 69 96
78 77 87
64 88 74
63 95 74
62 94 73
60 91 71
64 96 75
66 100 78
60 92 72
62 95 74
60 91 71
60 90 71
61 92 72
60 91 71
62 94 73
60 91 72
63 96 75
64 97 76
64 96 75
64 97 76
62 94 73
62 94 73
61 93 72
61 92 72
65 98 77
64 96 75
63 96 75
63 96 75
63 96 75
53 70 79
48 46 91
53 50 100
54 51 102
56 53 106
58 55 110
60 56 113
60 56 112
60 57 114
62 58 116
62 58 116
62 59 118
63 60 120
65 61 120
71 67 123
83 77 128
95 88 133
92 85 131
81 76 126
69 65 121
64 60 119
62 58 117
62 58 117
62 58 116
60 57 114
59 55 111
58 54 109
58 54 109
58 53 106
55 51 101
55 51 102
53 49 99
50 46 93
49 44 88
45 42 83
43 40 81
40 43 72
62 94 76
65 99 77
63 95 74
62 94 74
65 99 77
63 96 75
61 92 71
63 96 75
64 97 75
60 91 71
62 93 73
62 94 73
61 93 73
66 99 78
62 93 73
65 99 77
61 92 71
60 91 71
61 93 73
60 90 70
64 96 75
62 94 73
60 91 71
61 93 73
66 100 78
59 89 70
59 89 70
62 94 73
62 94 73
63 95 74
61 93 73
63 95 74
62 94 73
62 93 73
65 98 77
64 97 76
60 91 71
63 95 74
61 92 72
61 91 71
64 97 75
60 91 71
64 98 76
63 94 74
64 96 75
63 95 74
140 88 67
220 76 55
237 77 54
242 79 56
246 81 57
246 81 57
248 81 58
248 81 58
249 82 58
249 82 58
249 82 58
248 82 58
248 82 58
247 81 58
246 81 58
245 81 58
244 81 57
244 80 57
242 80 57
240 79 57
236 78 56
235 78 55
233 77 55
231 76 54
227 75 53
224 74 53
219 72 52
213 70 50
203 67 48
160 74 56
65 91 71
62 93 73
61 92 72
58 89 69
63 95 74
62 94 74
65 98 76
62 93 73
65 98 77
61 93 72
61 92 72
63 94 74
64 97 76
62 94 73
61 92 72
62 93 73
62 93 72
61 91 71
63 95 74
66 100 78
63 94 73
58 87 68
63 95 74
61 91 71
59 88 69
62 92 72
62 94 73
61 91 71
64 95 74
61 91 71
63 94 73
61 92 72
65 97 75
60 89 69
64 97 75
60 89 69
62 93 73
63 95 74
62 92 71
59 88 68
60 89 69
62 92 71
59 87 67
59 87 68
61 89 69
60 88 68
59 86 66
61 89 69
64 94 73
63 92 71
57 82 63
58 85 65
58 84 64
58 84 64
58 83 64
57 83 64
55 80 61
57 82 63
56 81 61
56 81 61
55 78 59
56 80 60
53 75 56
53 76 57
50 71 53
53 76 57
50 72 53
47 68 50
51 73 54
49 71 53
49 72 53
50 73 55
50 73 54
52 75 56
52 76 58
53 78 59
112 106 89
97 84 72
197 171 150
145 127 111
150 123 124
94 60 94
97 63 98
98 62 98
178 149 144
237 206 183
233 203 180
236 207 183
237 206 183
239 209 185
235 206 183
240 210 186
238 208 185
238 208 185
233 203 181
234 204 182
230 202 180
232 204 183
229 201 180
223 196 175
221 195 174
220 193 173
217 190 170
213 187 167
209 183 163
203 178 158
196 173 154
192 170 152
185 163 146
176 155 138
164 147 132
147 133 119
99 91 88
57 84 67
59 89 70
60 90 71
58 88 69
58 88 69
57 87 68
56 85 67
60 90 71
59 89 70
62 94 73
60 92 72
60 91 71
60 91 71
59 88 69
59 89 70
59 90 71
61 92 72
59 90 70
59 90 71
59 90 70
61 93 73
64 97 76
61 92 73
58 87 68
61 93 73
60 91 71
61 92 72
61 93 73
59 90 70
60 91 72
56 86 67
59 90 70
60 91 71
63 95 75
63 96 75
61 93 72
60 92 72
62 94 74
58 89 69
58 88 68
61 92 72
60 91 71
60 91 71
57 87 68
61 92 72
60 90 70
59 89 70
61 93 73
61 92 72
59 89 70
59 89 70
59 89 70
58 87 68
60 92 72
59 90 70
58 88 68
57 85 66
60 91 71
56 85 66
59 89 69
61 92 72
58 88 68
57 86 67
58 87 67
60 91 70
56 84 65
58 88 67
55 83 65
56 84 64
75 91 68
144 111 70
156 117 72
157 117 72
160 119 74
158 118 73
158 118 73
159 119 74
158 119 74
156 117 73
156 117 73
155 116 72
152 114 71
150 113 70
149 112 70
147 111 69
145 109 68
143 108 67
140 106 66
136 103 64
134 102 64
129 98 61
124 95 59
121 92 58
118 90 57
114 88 55
107 83 52
101 79 50
95 76 48
88 71 45
88 71 45
61 93 73
64 97 76
61 93 73
62 94 73
59 90 71
63 96 75
62 94 74
65 98 77
59 90 71
63 96 75
64 97 76
60 92 72
63 96 75
66 100 78
62 94 73
63 96 75
61 93 72
59 90 71
61 92 72
63 95 74
61 93 73
65 98 77
61 93 73
61 93 73
65 98 77
61 93 73
64 97 76
63 96 75
62 93 73
71 89 81
88 76 96
98 65 105
100 66 107
101 67 108
101 67 108
101 67 109
102 67 109
101 67 109
101 67 109
101 67 109
101 67 109
101 67 108
100 66 108
99 66 107
99 65 106
97 64 105
96 64 103
91 63 98
82 73 90
68 92 79
60 92 72
61 93 73
62 95 74
63 95 75
62 94 73
63 95 74
63 96 75
66 100 78
59 89 70
65 98 77
62 93 73
60 92 72
65 98 77
61 92 72
61 92 72
63 96 75
63 95 74
62 95 74
60 92 71
61 93 72
60 90 71
60 90 71
62 93 73
64 97 76
49 62 80
47 44 89
50 47 95
54 50 101
56 52 105
57 53 106
58 54 107
58 55 110
60 56 112
60 56 113
61 57 114
61 57 113
63 59 117
62 58 116
64 60 119
66 62 119
68 64 119
68 64 121
65 61 119
63 59 118
62 58 116
61 57 115
60 57 114
61 57 115
59 56 112
59 54 108
58 54 108
58 53 107
56 52 103
54 50 99
52 48 97
51 48 96
50 47 93
49 46 91
44 40 80
41 39 77
36 35 67
54 80 67
61 92 72
62 94 73
64 97 76
61 92 72
61 93 72
60 90 70
61 92 72
63 96 75
59 90 70
63 95 75
62 93 73
59 89 70
64 97 76
62 94 73
64 98 76
60 91 71
58 88 69
60 91 71
59 89 70
63 94 73
61 92 72
60 90 71
58 88 68
60 90 71
62 94 73
61 92 72
60 92 72
60 91 71
63 95 74
63 96 75
60 91 71
60 91 71
61 92 72
61 92 72
61 92 72
64 96 75
63 95 74
62 93 73
60 90 70
64 96 75
60 91 71
60 91 71
60 90 71
63 96 75
91 91 71
218 73 51
233 76 54
238 78 55
245 80 56
247 81 57
248 81 57
250 82 58
249 82 58
250 82 58
250 82 58
250 82 58
249 82 58
249 82 58
248 82 58
247 81 58
246 81 58
245 81 57
244 80 57
242 80 57
241 80 57
238 78 56
236 78 56
234 77 55
232 76 54
228 75 54
226 75 53
223 74 52
216 71 51
207 68 48
196 65 46
131 78 59
61 92 72
63 96 75
63 95 74
61 92 72
59 90 70
62 93 73
60 90 70
66 99 77
60 90 71
62 94 73
62 94 73
64 97 75
61 93 73
63 95 74
62 93 72
64 97 75
60 91 71
61 92 72
62 94 73
60 91 71
63 94 73
63 95 74
62 93 73
63 93 72
61 91 71
62 93 72
63 95 74
63 94 74
63 95 74
59 88 69
60 90 70
59 89 69
61 92 72
63 94 73
64 97 76
63 94 73
62 93 72
61 90 70
60 89 69
60 88 68
64 95 74
59 87 67
57 84 65
61 91 71
59 87 68
58 85 66
62 91 70
61 89 69
62 90 69
61 91 71
58 83 63
60 86 66
56 81 63
54 77 59
57 82 63
58 85 65
55 80 61
56 80 60
54 77 58
56 82 62
55 79 60
52 75 57
52 75 57
55 80 61
53 77 58
53 76 57
52 76 57
52 75 57
53 77 59
53 76 57
54 80 60
56 82 62
55 79 59
56 81 62
56 82 63
85 84 70
62 54 48
173 151 131
163 143 125
152 128 122
93 60 94
93 60 93
116 87 106
220 189 168
230 199 176
232 201 177
232 202 179
234 204 181
233 203 180
233 203 180
233 204 181
232 202 179
230 201 178
228 199 176
229 201 179
228 200 178
226 197 175
219 192 171
221 194 172
217 191 171
217 190 169
212 186 166
208 181 160
203 178 158
200 175 156
193 168 148
187 164 146
184 162 145
171 152 136
153 136 120
138 125 112
107 99 94
58 85 68
57 87 69
60 91 71
59 89 70
61 92 72
58 88 69
63 96 75
59 90 71
58 88 69
60 90 71
62 93 73
59 89 69
59 90 70
61 93 73
62 94 73
62 95 74
60 91 71
58 88 69
61 92 72
58 89 70
58 88 68
60 91 71
63 95 75
62 95 74
59 90 70
61 93 72
63 95 74
62 94 74
62 94 74
62 94 73
60 91 71
63 96 75
61 92 72
64 97 76
59 90 70
61 92 72
59 90 71
62 94 74
60 91 71
58 88 69
59 89 70
60 91 71
59 90 70
58 88 69
65 94 74
95 110 92
134 133 116
160 151 135
192 176 159
194 177 161
197 180 163
192 175 158
172 161 145
166 157 141
145 142 125
103 112 95
69 92 74
57 87 68
60 91 71
56 84 65
57 86 67
54 82 64
56 84 65
56 85 65
57 86 66
58 87 67
55 83 64
55 82 63
59 80 61
140 109 69
155 116 72
157 117 72
159 119 73
159 119 74
158 118 73
158 119 73
159 119 74
157 117 73
154 116 72
155 116 72
153 115 72
150 113 70
150 113 70
149 112 70
145 109 68
143 108 68
141 106 66
136 103 65
132 101 63
130 99 62
129 99 62
123 94 58
121 93 58
114 88 55
107 83 52
100 79 49
89 71 45
84 68 43
83 67 42
80 65 40
62 94 74
64 98 76
61 93 73
64 98 76
61 93 73
65 98 77
66 100 78
65 98 77
62 95 74
64 97 76
65 99 78
62 94 73
63 95 75
64 97 76
59 89 70
63 95 75
61 93 73
61 93 72
63 95 74
61 92 72
63 96 75
64 97 76
62 94 73
64 97 76
61 92 72
63 95 74
62 94 73
67 97 79
81 79 89
97 64 103
100 66 107
101 67 108
101 67 109
102 67 109
102 68 110
102 68 110
102 68 110
102 68 110
102 68 110
102 68 110
102 67 110
102 67 109
101 67 109
101 67 108
100 66 108
99 66 107
98 65 105
97 64 104
94 62 101
89 62 96
73 75 82
64 94 75
62 94 73
66 100 78
65 99 77
63 96 75
64 97 76
61 93 72
61 92 72
63 95 74
62 94 74
66 100 78
62 94 73
63 96 75
63 95 74
61 92 72
65 98 77
63 96 75
61 92 72
61 92 72
60 91 71
64 96 75
62 94 73
60 92 72
50 62 80
45 43 85
50 47 95
52 49 98
54 50 101
55 51 102
57 54 107
57 53 106
57 54 107
59 55 111
60 56 112
61 57 114
61 57 114
61 57 114
62 58 116
62 58 116
62 59 117
62 59 117
61 57 114
61 57 114
60 56 112
60 56 112
60 56 112
59 55 110
58 55 110
58 53 106
57 52 103
56 52 102
54 50 99
52 48 95
52 48 97
50 46 92
48 44 88
47 43 85
43 40 79
40 37 75
34 33 63
55 81 69
63 96 75
60 91 71
61 92 72
62 94 74
60 91 71
63 95 75
60 91 71
61 93 72
62 94 74
61 93 73
61 93 72
63 95 74
62 95 74
61 92 72
61 93 72
64 97 76
59 89 70
60 91 71
60 91 71
58 87 68
65 99 77
63 95 74
59 89 70
59 90 70
63 95 74
61 92 72
61 93 73
60 91 71
62 94 74
61 92 72
59 90 70
61 92 72
61 92 71
64 96 75
62 94 73
65 98 77
65 99 77
60 91 71
63 96 75
61 92 72
62 94 74
60 91 71
62 94 73
76 96 74
181 73 54
224 73 52
235 77 54
239 78 55
246 80 57
248 81 57
249 82 58
250 82 58
250 82 58
251 82 58
250 82 58
250 82 58
249 82 58
249 82 58
249 82 58
248 82 58
247 81 58
246 81 58
245 81 57
243 80 57
240 79 56
239 79 56
237 78 56
235 77 55
232 76 54
231 76 54
227 75 53
224 74 53
219 72 51
209 69 49
198 65 46
176 61 44
92 90 70
62 93 73
63 95 74
61 91 71
60 90 70
62 95 74
61 92 72
64 97 75
63 95 74
64 97 75
65 99 78
61 93 73
62 94 73
61 92 72
63 95 74
63 95 74
62 94 73
63 95 75
62 94 73
58 88 69
56 85 66
60 90 71
62 94 73
61 91 71
59 88 68
60 90 70
62 92 71
62 93 72
62 93 72
59 89 70
62 92 71
61 91 70
64 95 74
60 91 71
63 93 73
64 95 74
64 95 74
67 100 77
65 99 77
61 91 70
63 93 71
61 91 71
56 83 65
62 91 70
61 90 70
59 88 68
57 85 65
57 84 65
57 84 65
58 86 67
59 86 66
58 84 64
58 85 65
57 83 64
59 86 66
58 84 64
59 86 66
58 83 64
58 85 65
60 87 66
55 78 59
58 83 63
52 76 58
56 80 61
56 81 62
55 80 61
54 78 59
55 80 61
54 78 59
56 81 62
57 84 64
55 81 62
54 79 61
55 82 62
54 80 61
96 93 77
150 132 114
134 117 101
179 156 136
146 124 115
89 57 88
92 59 92
160 132 128
220 190 166
224 195 171
231 201 177
228 199 176
226 197 174
230 201 177
229 200 177
229 199 175
229 200 177
227 197 174
225 197 174
225 197 174
223 196 174
219 192 170
220 193 172
213 188 166
213 187 165
211 185 164
206 178 156
206 180 160
201 174 153
198 172 152
188 164 145
179 159 141
175 154 137
164 145 128
148 132 117
136 124 110
109 101 92
56 83 66
57 86 68
57 87 68
59 89 70
58 88 69
57 86 67
62 94 73
61 93 73
59 90 71
59 90 70
62 93 72
61 92 72
61 93 73
63 95 74
62 93 73
62 94 73
61 92 72
60 90 70
59 89 70
60 91 72
60 92 72
61 92 72
60 91 71
60 90 71
59 90 71
61 92 72
61 93 73
62 93 73
60 90 71
57 87 68
59 90 70
61 92 72
60 91 72
60 92 72
60 91 71
60 92 72
62 94 73
59 90 70
58 88 69
57 87 68
61 92 72
60 92 72
82 105 85
162 152 134
204 184 165
225 201 183
231 206 188
233 207 189
232 207 189
231 206 189
230 205 188
227 203 186
225 201 184
223 200 184
218 196 180
214 193 178
194 177 161
151 145 130
101 113 95
58 87 67
59 88 69
58 87 68
56 84 65
58 88 68
55 82 63
55 83 63
54 80 62
58 82 62
136 108 69
154 115 71
157 117 72
159 119 74
159 119 73
159 119 73
158 118 73
159 119 74
158 118 73
155 116 72
155 116 72
153 115 71
151 113 70
149 112 70
146 110 68
144 108 67
142 107 66
140 106 66
137 104 65
134 102 63
131 100 62
129 98 61
121 93 58
117 90 56
112 86 54
110 85 54
102 80 50
93 74 46
89 71 45
84 68 43
83 67 42
82 66 41
61 92 72
61 93 72
59 90 71
63 96 75
63 95 74
65 99 77
66 100 78
64 96 75
61 93 73
62 94 74
63 95 74
63 96 75
65 98 76
62 94 74
62 94 74
63 95 74
62 95 74
64 97 76
64 97 76
61 92 72
62 94 74
63 95 74
62 94 74
61 93 73
61 92 72
62 94 74
65 88 75
91 72 98
98 65 105
101 66 107
101 67 108
102 67 109
102 68 110
103 68 110
103 68 110
103 68 111
103 68 111
103 68 111
103 68 111
103 68 111
102 68 110
102 68 110
102 68 110
101 67 109
101 67 108
100 66 108
99 66 107
99 65 106
97 64 104
95 63 101
91 60 97
80 75 89
65 95 76
63 96 75
60 91 71
62 94 73
60 91 72
60 91 71
63 95 74
62 95 74
64 96 75
63 95 74
63 96 75
64 97 76
62 94 73
62 94 74
62 94 74
62 93 73
60 90 71
62 94 73
63 96 75
61 92 72
62 94 73
62 94 74
48 62 76
44 42 83
48 45 91
50 47 94
52 49 97
52 48 96
56 52 104
55 51 102
57 53 106
56 53 105
58 54 108
59 56 110
60 56 112
60 56 112
60 57 113
60 56 112
60 57 113
61 57 114
60 56 111
60 56 112
58 55 109
58 54 107
58 55 109
57 54 107
57 53 106
56 52 102
56 52 103
54 50 99
52 49 96
53 48 96
50 47 93
49 44 88
47 44 89
43 41 81
41 38 76
37 35 69
33 31 62
54 80 68
61 92 72
62 94 73
63 96 75
61 92 71
62 94 73
62 93 73
61 92 72
62 94 74
63 96 75
61 93 72
60 90 70
65 98 76
63 96 75
62 94 73
62 94 73
63 95 74
61 93 73
60 91 71
61 93 72
60 92 71
65 99 77
62 95 74
61 93 73
62 95 74
60 91 71
60 90 70
60 92 71
61 92 72
64 97 76
60 90 70
63 95 74
60 91 71
63 96 75
63 95 74
63 95 74
62 94 73
64 97 76
60 91 71
65 97 76
61 93 72
63 95 74
63 95 74
63 95 74
141 83 63
216 71 50
229 75 53
233 76 53
242 79 56
247 80 56
249 81 57
250 82 58
250 82 58
250 82 58
250 82 58
251 82 58
251 83 59
251 84 60
251 85 61
250 85 61
249 83 60
247 82 58
246 81 58
245 81 57
243 80 57
241 79 56
238 78 55
237 78 55
235 77 55
233 77 54
230 76 54
228 75 53
223 73 52
217 71 51
209 69 49
199 65 46
187 62 44
151 66 49
67 95 74
67 101 79
62 93 73
62 94 73
62 93 72
62 94 73
62 94 73
62 94 73
61 92 72
61 92 72
60 89 69
58 87 68
62 93 73
62 93 73
60 90 70
58 87 67
60 91 71
62 93 72
62 93 73
63 95 74
62 93 73
62 93 73
65 97 75
61 91 71
62 93 72
62 93 72
63 95 74
61 92 72
60 90 70
58 88 68
61 91 70
59 88 68
60 90 70
60 91 71
65 96 75
64 95 74
62 92 71
62 93 72
59 89 69
61 90 70
60 89 69
60 89 69
62 92 71
60 89 69
62 93 72
61 90 70
60 88 68
65 96 74
61 90 70
62 91 71
59 88 68
59 87 67
60 88 68
59 86 66
59 86 66
56 82 62
61 89 68
54 80 61
56 80 62
56 81 62
57 84 65
57 82 63
58 84 64
59 85 65
58 83 63
56 81 62
60 88 67
57 83 63
56 82 63
59 86 66
55 81 62
60 88 68
59 86 66
58 85 65
91 90 75
163 142 122
112 98 85
184 160 139
144 122 109
95 65 90
96 66 92
199 169 151
223 194 170
221 190 166
221 191 167
224 195 171
223 194 170
223 194 170
223 195 171
218 190 166
223 195 172
220 192 169
216 188 165
218 190 167
220 192 169
215 188 166
210 184 161
210 184 162
207 180 158
205 179 157
199 174 151
198 174 154
195 170 149
187 164 144
184 163 144
176 155 137
170 149 131
150 133 117
141 127 111
123 113 99
108 103 92
55 83 66
57 87 68
57 86 68
59 90 71
57 87 69
58 88 69
60 92 72
63 95 75
61 92 73
57 86 68
59 90 71
59 89 70
59 90 71
58 88 69
61 92 71
60 91 71
57 86 67
61 92 72
58 89 70
59 90 70
62 93 73
61 93 72
59 90 70
60 91 71
62 93 73
59 90 71
58 87 69
60 91 71
59 89 70
60 91 71
60 91 71
59 89 70
59 90 70
62 95 74
61 92 72
62 95 74
64 97 76
64 97 76
59 89 70
58 88 69
82 103 83
167 156 138
221 197 177
235 208 189
237 211 192
237 211 193
237 211 193
237 211 193
236 211 192
235 210 192
232 207 189
230 206 189
230 206 189
226 202 185
224 201 185
221 199 183
220 197 181
215 194 178
210 189 174
169 158 143
97 110 92
61 89 69
59 89 68
56 84 65
56 84 65
55 82 63
60 86 65
131 104 67
154 116 71
157 117 72
160 120 74
159 119 73
160 119 74
159 119 74
158 118 73
157 118 73
156 117 73
154 116 72
154 115 72
152 114 71
149 112 70
148 111 69
145 109 68
143 108 67
140 106 66
137 104 65
137 104 65
130 99 62
129 98 61
122 94 58
121 93 58
117 90 57
108 84 52
104 81 51
94 74 47
88 71 45
87 70 44
87 70 44
80 65 41
74 60 37
64 97 76
61 92 72
60 92 72
64 96 75
61 93 73
63 96 75
66 100 78
64 97 76
65 99 78
64 97 76
61 93 73
61 92 72
64 98 76
62 94 73
63 95 74
63 95 74
62 94 73
63 95 74
61 93 73
62 94 73
63 96 75
64 98 76
63 96 75
63 96 75
62 95 74
69 88 79
92 64 99
98 65 105
100 66 107
102 67 108
102 68 109
103 68 110
103 68 110
103 68 111
104 69 111
104 69 111
104 69 111
104 69 111
104 69 111
103 68 111
103 68 111
103 68 110
102 68 110
102 68 110
101 67 109
101 67 108
100 66 107
99 66 106
98 65 105
96 64 103
94 62 102
90 59 96
80 60 87
66 89 76
63 96 75
62 94 74
60 90 71
62 94 73
61 92 72
61 93 72
61 92 72
58 88 69
61 93 72
64 98 76
61 92 72
64 97 76
61 92 72
62 94 74
59 90 70
61 92 72
60 91 71
62 93 73
63 96 75
60 91 71
50 68 73
43 41 80
46 43 86
48 45 89
52 48 96
52 49 96
53 50 99
55 51 101
56 52 104
57 54 107
56 53 104
58 54 108
58 54 106
59 55 109
59 55 110
58 55 109
58 55 109
59 55 110
57 53 105
59 55 109
58 54 108
58 54 108
56 53 105
56 53 104
56 53 104
54 51 100
55 50 100
53 49 96
52 48 95
50 46 91
48 44 87
47 43 84
46 42 83
43 40 79
39 36 71
35 33 65
31 31 59
52 77 65
58 88 69
57 86 68
59 90 70
59 90 71
62 93 73
60 91 71
59 89 70
61 92 72
60 91 72
61 93 72
65 98 76
61 92 72
61 92 72
61 93 73
61 92 72
63 95 74
63 95 74
61 92 72
60 90 71
61 93 72
61 93 72
63 96 75
64 96 75
62 94 73
62 94 74
61 92 72
61 93 72
64 96 75
60 91 71
60 90 70
59 90 70
65 98 77
60 91 71
60 91 71
62 94 74
63 95 75
62 94 73
61 93 72
63 96 75
60 91 71
63 95 74
61 92 72
65 95 74
185 72 52
217 71 49
229 75 52
238 78 54
242 79 55
245 80 56
249 81 57
251 82 58
251 82 58
251 82 58
251 82 58
252 83 59
252 86 62
255 95 70
255 102 77
255 101 76
253 94 70
249 86 62
247 82 58
245 81 57
243 80 57
240 79 56
237 78 55
236 78 55
235 77 55
232 76 54
231 76 54
227 75 53
222 73 52
214 70 50
210 69 49
200 66 47
189 62 44
173 58 41
100 82 63
60 90 70
63 95 74
63 94 73
64 97 75
61 91 71
62 93 73
64 96 75
63 94 74
62 94 73
62 93 73
63 95 75
61 91 71
64 97 76
63 95 74
63 94 74
62 93 72
62 93 72
62 94 73
64 97 76
63 95 74
59 88 68
60 90 70
60 90 70
63 95 73
62 93 72
59 88 69
62 93 72
59 90 70
59 89 69
60 90 70
62 93 73
60 90 70
63 94 74
58 87 68
62 93 72
61 90 70
60 89 69
61 90 70
59 89 69
58 86 67
62 92 72
59 89 69
63 93 72
62 92 71
59 88 68
60 88 68
64 94 73
62 91 70
64 93 72
61 90 69
59 87 67
59 86 67
55 80 62
61 89 69
60 87 67
59 86 66
59 85 66
62 91 70
57 83 64
59 85 65
58 85 66
56 83 64
57 83 64
57 83 64
58 85 65
57 83 64
60 88 68
57 83 64
58 86 66
57 82 63
58 85 65
57 84 65
59 88 68
83 87 70
145 128 109
86 75 64
178 154 132
141 122 108
95 65 90
105 76 96
208 179 156
210 181 157
212 183 158
215 187 162
217 188 164
216 189 165
218 190 166
216 188 165
215 187 164
214 187 164
212 185 161
212 185 162
216 189 166
209 182 158
208 182 160
206 182 160
207 182 160
206 180 158
202 177 155
195 168 146
188 165 143
187 163 143
182 160 140
176 154 134
168 148 129
156 139 121
148 131 115
136 121 106
116 108 95
93 90 80
57 86 68
58 88 70
58 89 70
57 88 69
55 84 66
56 86 68
58 88 69
62 94 74
59 90 70
58 88 69
58 87 68
60 90 71
59 90 71
63 96 75
57 87 68
57 87 68
58 87 68
61 92 72
63 96 75
60 91 71
62 94 73
59 89 69
61 92 72
58 88 69
59 90 70
61 93 73
64 97 76
60 90 70
60 91 71
58 88 69
63 95 74
62 94 74
62 93 72
61 92 72
60 91 72
62 93 73
59 90 70
57 87 68
63 93 73
141 139 121
216 193 174
235 209 189
239 212 192
240 214 194
241 214 195
241 214 195
241 214 195
240 214 195
238 213 195
237 212 194
234 209 191
234 209 191
232 207 190
230 206 189
228 204 187
225 202 185
223 200 184
220 197 181
215 193 177
211 190 174
199 180 166
149 143 128
70 92 74
56 84 65
59 88 68
60 86 66
128 104 67
153 114 70
158 118 73
158 118 73
159 119 74
159 119 73
157 118 73
157 118 73
158 118 73
155 116 72
154 116 72
154 116 72
152 114 71
149 112 70
149 112 70
147 111 69
143 108 67
140 106 66
138 104 65
136 103 64
131 99 62
127 96 60
128 97 61
117 90 56
115 88 55
112 87 54
105 82 51
95 75 47
90 72 45
85 69 43
83 67 42
78 63 39
75 61 38
72 60 37
63 96 75
63 96 75
63 96 75
64 97 76
63 95 74
63 96 75
63 96 75
65 98 77
63 95 75
63 96 75
65 99 77
62 95 74
61 92 72
61 93 73
63 95 75
62 94 73
61 93 73
64 96 75
61 92 72
62 95 74
60 91 71
65 98 77
61 92 72
66 100 78
69 93 80
90 64 95
98 64 104
100 66 106
102 67 108
102 67 109
103 68 110
103 68 110
104 68 111
104 69 111
104 69 111
104 69 112
104 69 112
104 69 112
104 69 111
104 69 111
103 68 111
103 68 111
103 68 110
102 68 110
102 67 109
101 67 108
100 66 107
100 66 107
99 65 106
98 65 105
96 63 102
93 61 99
88 57 94
80 60 87
67 91 77
62 94 73
61 92 72
62 94 73
64 97 76
64 98 76
63 95 74
64 97 76
61 92 72
62 94 73
61 93 73
63 96 75
60 91 71
60 91 71
64 97 76
59 90 70
64 96 75
59 89 70
58 88 68
60 90 70
49 68 69
42 40 79
44 41 81
47 44 88
48 45 88
50 46 92
51 47 93
53 49 98
52 49 96
55 51 102
56 52 102
56 52 103
57 53 105
57 54 106
57 54 106
57 53 105
57 53 105
57 53 105
56 53 104
55 52 101
56 52 102
55 52 102
55 51 101
54 51 101
52 49 95
53 49 96
53 49 97
50 47 92
51 47 92
48 44 86
46 42 82
46 43 85
43 39 77
40 38 74
36 34 67
33 31 59
30 32 54
53 80 65
56 85 67
60 91 71
58 89 70
59 90 70
57 86 68
60 90 70
62 95 74
61 92 72
63 95 74
60 92 72
60 91 71
61 92 72
61 92 71
57 87 68
64 96 75
65 98 76
61 92 72
65 97 76
63 96 75
62 93 73
61 93 72
64 96 75
64 97 76
63 95 74
64 96 75
65 99 77
64 96 75
63 96 75
62 93 73
61 93 72
59 89 69
60 91 71
62 93 73
63 95 74
60 91 71
62 94 74
63 95 74
62 93 72
60 90 70
62 94 74
63 96 75
61 93 72
104 84 65
206 68 47
218 71 49
227 74 52
237 77 54
240 78 54
244 79 56
247 81 57
249 81 57
251 82 58
252 82 58
252 83 58
253 86 62
255 99 74
255 124 97
255 142 113
255 143 114
255 120 94
254 96 72
248 84 60
245 80 57
241 79 56
241 79 56
240 79 56
236 77 55
235 77 55
233 77 54
231 76 54
226 74 53
223 73 52
216 71 50
208 68 48
202 66 47
192 64 45
176 58 41
137 65 48
62 93 73
61 92 72
61 92 72
62 94 74
60 91 71
62 94 73
61 92 71
62 93 73
60 91 71
62 93 72
64 95 74
59 89 69
64 96 75
63 94 74
59 90 70
63 96 75
58 88 69
64 97 75
61 92 72
62 93 72
63 93 73
59 89 70
60 90 70
61 93 72
63 94 73
63 94 73
62 93 72
64 95 74
63 94 73
62 92 72
64 94 73
62 92 72
59 89 69
63 94 73
64 95 74
62 93 72
60 89 69
63 93 72
65 97 75
64 96 75
63 94 73
61 92 71
63 95 74
62 92 72
60 90 70
62 92 71
61 90 70
61 89 69
63 92 71
62 90 70
60 89 69
60 88 68
58 84 65
61 89 69
60 89 69
58 85 65
61 88 68
60 87 67
61 89 69
62 91 70
61 89 69
57 84 65
58 85 66
57 84 65
58 84 65
57 84 65
59 85 65
60 89 69
60 87 67
60 88 68
62 91 70
59 87 67
58 85 66
79 88 70
81 71 60
84 74 63
177 153 130
130 111 96
85 58 82
134 109 110
205 178 154
206 178 154
210 182 159
209 181 157
214 186 163
206 180 156
212 186 162
214 187 164
210 183 159
206 181 157
208 182 159
210 184 161
205 178 155
200 176 152
207 182 160
200 176 154
201 176 154
199 174 152
191 167 144
190 166 145
184 162 141
176 154 133
169 149 129
160 142 123
158 139 121
142 128 111
140 125 108
126 115 100
120 111 98
92 94 82
51 78 62
51 79 63
54 82 65
51 78 63
52 80 63
53 80 63
55 84 66
53 80 63
55 84 66
57 87 68
57 87 68
59 89 70
58 87 68
59 90 71
62 95 74
59 89 70
59 89 70
61 91 71
61 92 72
62 94 74
60 90 71
60 91 71
59 89 70
59 90 70
58 88 69
62 94 74
60 91 71
61 93 72
59 89 70
57 86 67
62 93 73
59 90 70
59 89 69
59 89 70
58 88 69
58 88 69
57 87 68
83 100 82
179 163 144
230 203 183
238 210 190
242 214 194
243 216 196
244 216 196
243 216 197
243 216 197
243 216 197
241 215 196
240 215 196
239 214 195
236 211 193
233 208 190
232 207 189
232 207 190
229 206 189
227 204 187
224 201 185
223 200 184
218 196 181
214 193 177
210 189 174
204 184 169
172 159 145
94 106 89
59 88 68
120 101 67
154 115 71
156 117 72
160 119 73
159 119 74
159 119 74
159 119 74
159 119 74
158 118 73
155 116 72
156 117 72
153 115 71
152 114 71
150 113 70
148 112 69
146 110 68
143 107 67
141 107 66
137 104 65
133 101 62
130 98 61
130 99 62
125 95 60
121 93 58
115 89 55
109 85 53
104 81 51
98 77 48
88 71 45
85 68 43
82 66 41
81 66 41
79 64 39
76 62 38
46 56 44
62 94 73
63 95 74
67 101 79
65 99 77
62 94 74
63 96 75
62 94 74
65 99 77
61 93 73
65 99 78
61 93 72
61 93 72
63 96 75
63 96 75
62 95 74
63 95 75
63 95 75
60 91 72
62 94 74
62 94 73
61 93 73
62 94 73
62 93 73
65 91 75
86 64 92
96 64 103
99 65 105
102 67 108
102 67 109
103 68 110
104 68 110
104 68 111
104 69 111
104 69 111
104 69 112
104 69 112
105 69 112
104 69 112
104 69 112
104 69 111
104 69 111
104 69 111
103 68 111
103 68 110
102 67 109
102 67 109
101 67 108
100 66 107
99 66 106
98 65 105
97 64 104
95 62 99
91 59 96
87 57 92
73 62 79
62 89 73
63 95 74
62 95 74
61 92 72
63 96 75
60 90 70
61 93 72
63 95 74
64 97 75
64 97 76
61 93 73
62 94 74
60 90 71
62 95 74
62 94 74
64 97 76
66 100 78
59 89 70
60 91 71
58 85 74
37 36 70
40 38 74
44 41 81
47 44 86
48 45 88
50 46 92
51 48 94
52 49 96
53 49 97
52 48 94
54 51 100
54 51 99
55 52 103
55 52 101
56 52 103
55 52 102
55 52 102
54 51 100
55 52 102
53 49 96
54 50 99
54 51 100
52 49 96
52 48 94
51 47 92
50 47 91
49 45 87
47 43 84
46 42 82
44 42 81
43 40 79
40 37 73
36 33 63
34 33 63
31 29 56
33 42 53
54 83 66
55 84 67
56 85 67
59 90 71
62 94 74
61 93 73
59 89 69
62 94 73
61 92 72
61 93 73
57 87 68
60 90 70
64 96 75
63 95 74
59 90 70
58 88 69
61 92 72
60 91 71
62 94 73
67 102 80
62 94 73
61 92 72
60 90 70
67 102 80
60 91 71
62 94 73
62 95 74
63 95 75
62 94 73
61 92 72
61 93 72
60 90 70
61 93 73
61 91 71
61 93 72
59 90 70
60 91 71
60 92 72
62 94 73
63 95 74
62 93 73
60 91 71
63 95 74
159 76 57
208 68 47
221 72 50
231 75 53
233 76 53
240 78 55
244 80 56
245 80 56
248 81 57
251 82 58
251 82 57
252 83 59
254 90 65
255 116 90
255 156 125
255 185 151
255 180 146
255 143 114
255 106 81
248 86 63
245 81 57
240 78 55
241 79 56
240 79 56
236 77 54
235 77 55
232 76 54
229 75 53
221 73 51
218 71 50
214 70 49
205 67 47
196 64 45
194 64 45
183 60 43
156 55 39
74 89 69
60 91 71
61 92 72
62 93 73
60 90 70
60 91 71
61 92 72
60 90 70
60 90 70
62 93 72
61 92 72
59 89 69
62 94 74
61 92 72
60 91 71
60 90 70
60 91 71
64 96 75
59 89 69
62 94 73
60 90 71
62 93 72
61 92 72
60 90 70
58 87 68
62 92 71
62 94 73
61 92 72
62 93 73
61 92 72
59 89 69
58 87 68
62 92 72
65 97 76
62 93 73
63 94 73
60 89 69
62 93 72
63 93 73
61 92 72
64 96 75
62 93 73
62 91 71
62 93 72
61 91 71
60 89 69
61 90 70
59 88 68
61 91 70
61 90 70
58 85 66
62 91 71
59 87 68
59 87 67
60 89 69
61 89 69
57 86 66
60 88 68
60 87 67
65 96 74
61 90 70
63 91 70
65 95 74
58 85 66
58 84 65
62 90 70
60 88 68
57 85 66
59 86 66
60 89 69
62 90 69
56 82 63
56 84 65
63 86 67
58 51 42
117 104 87
160 141 120
125 108 94
84 57 79
148 123 117
196 167 143
196 168 143
203 175 151
201 176 151
202 175 150
207 180 156
203 177 153
205 178 155
201 177 152
200 175 151
200 174 150
204 178 155
199 174 150
197 172 150
198 174 151
189 167 144
194 170 148
184 162 139
185 163 140
183 160 139
174 151 130
171 149 129
168 148 128
155 138 118
148 132 113
143 127 110
128 117 101
115 105 89
113 106 91
77 87 73
46 72 58
51 79 64
48 75 60
53 82 66
50 77 61
53 82 65
54 83 66
55 84 67
56 85 67
55 84 67
56 85 66
59 89 70
58 89 69
59 90 70
63 95 74
59 90 70
58 87 69
60 90 71
56 85 66
60 91 71
59 90 70
60 90 71
57 86 68
61 93 72
61 93 72
60 91 71
61 93 73
58 88 69
59 89 70
60 91 71
62 93 73
64 97 75
63 95 74
62 94 74
61 92 72
61 92 72
87 103 84
197 177 157
234 205 184
240 211 190
244 215 194
244 217 196
245 217 197
245 218 198
245 217 198
245 218 198
244 217 198
244 217 198
242 216 197
241 215 196
237 211 193
235 209 191
234 209 191
231 206 188
230 206 188
229 205 188
227 203 186
224 201 184
221 198 182
216 194 178
213 192 176
210 189 174
198 179 164
179 164 151
127 111 84
153 114 70
156 117 72
158 118 73
160 119 73
159 119 74
159 119 73
158 119 73
158 118 73
157 117 73
155 116 72
153 115 71
153 115 71
148 111 69
149 112 70
146 110 68
145 109 68
139 105 65
138 104 65
136 103 64
133 101 63
128 98 61
123 94 59
121 92 58
116 89 56
108 84 52
104 81 51
98 77 49
93 74 47
83 67 42
84 68 43
85 68 42
78 63 39
70 58 35
45 52 39
32 51 42
67 102 79
62 95 74
65 99 77
64 96 75
60 92 72
60 91 71
65 99 77
60 91 71
62 94 73
65 98 77
64 97 76
63 96 75
64 96 75
64 96 75
65 99 78
59 90 70
65 99 77
60 91 71
60 92 72
61 92 72
61 93 73
61 93 73
64 95 76
82 74 89
93 62 98
97 64 103
100 66 106
102 67 108
103 68 109
103 68 110
104 68 110
104 69 111
104 69 111
105 69 111
105 69 112
105 69 112
105 69 112
105 69 112
105 69 112
104 69 112
104 69 111
104 69 111
104 68 111
103 68 110
102 68 109
102 67 108
102 67 108
101 66 107
100 66 107
99 65 106
98 64 104
95 62 100
92 61 98
88 58 95
83 54 88
70 72 78
64 96 75
63 96 75
61 92 72
62 94 73
60 91 71
61 92 72
61 93 73
63 96 75
64 97 76
64 96 75
61 92 72
63 96 75
64 97 75
60 91 71
61 92 72
62 93 73
62 93 73
59 89 70
57 86 68
39 42 69
38 36 70
42 39 77
44 41 80
46 43 84
47 44 87
47 44 86
50 46 90
50 46 90
51 48 93
52 49 95
53 50 97
55 51 101
55 51 101
53 49 96
54 51 100
53 50 98
53 50 97
52 49 95
53 49 96
52 48 94
52 49 96
50 47 91
50 47 92
49 45 87
47 44 84
47 42 82
46 42 82
44 41 79
43 39 74
42 38 74
38 35 68
34 32 62
30 28 53
26 26 48
36 49 54
50 78 62
54 83 66
55 84 66
55 84 66
56 86 68
59 90 71
59 90 70
59 90 70
62 93 73
61 91 71
59 89 69
64 96 74
61 93 72
63 95 74
61 93 72
60 91 71
61 92 72
59 89 69
64 96 75
62 94 73
63 96 75
60 91 71
60 91 71
63 96 75
63 96 75
63 95 74
60 91 71
61 92 72
60 91 71
63 95 74
65 98 76
61 92 72
62 94 74
60 91 71
61 91 71
62 92 72
59 90 70
59 90 70
60 91 71
62 94 73
60 91 71
65 98 76
79 94 73
182 66 47
204 66 46
218 71 50
224 73 51
230 75 52
238 77 54
240 78 55
242 79 55
247 80 56
247 80 56
248 81 57
251 83 59
253 91 67
255 120 93
255 164 133
255 189 154
255 182 148
255 144 115
255 104 79
245 85 61
242 79 56
243 79 56
240 78 55
237 77 54
235 77 54
233 76 54
229 75 53
226 74 52
224 73 52
216 71 50
210 69 49
200 66 46
197 65 45
188 62 44
178 59 42
162 54 38
103 75 58
63 94 73
62 94 74
57 86 67
62 94 74
62 93 73
61 92 72
64 96 75
61 91 71
62 94 73
65 98 76
63 95 74
61 91 71
59 90 70
60 91 71
63 95 74
63 94 73
60 91 71
59 89 69
60 91 71
57 86 67
58 88 69
60 90 70
61 91 71
65 97 76
58 87 67
62 93 72
62 94 73
61 91 70
62 93 72
60 90 70
59 89 69
60 90 70
62 93 73
64 95 74
61 91 71
65 97 76
63 93 73
60 90 70
60 90 71
62 93 72
61 91 71
59 89 70
61 91 70
60 90 70
62 92 72
57 85 66
64 95 74
60 89 69
59 88 68
60 88 69
61 90 70
60 90 70
62 93 72
61 90 69
61 89 69
62 92 71
61 90 70
58 86 66
60 88 68
63 91 70
61 90 69
60 90 69
58 85 65
63 92 71
59 86 67
61 92 71
60 89 69
57 84 65
61 90 69
60 88 68
59 88 67
61 89 69
60 87 68
115 108 90
155 137 115
139 123 102
122 105 92
78 52 74
148 122 114
191 165 141
196 170 146
191 165 139
194 167 142
196 171 146
200 174 150
197 172 148
194 169 144
196 171 146
191 167 143
199 174 151
190 167 143
190 166 143
193 169 146
189 166 143
190 167 145
182 160 137
181 159 137
178 155 133
169 148 127
160 142 120
160 140 119
149 132 111
148 131 111
136 122 105
133 121 106
114 106 91
111 103 89
95 90 75
52 73 60
45 71 58
45 71 58
49 76 61
48 74 59
50 77 62
51 79 63
54 83 66
54 83 66
53 82 65
53 80 63
58 89 70
55 83 66
57 87 69
60 91 71
56 84 66
59 89 70
59 90 70
60 91 71
60 91 71
57 87 68
58 88 69
62 93 72
59 89 70
61 92 72
58 89 69
56 85 66
62 94 73
61 93 73
62 94 73
63 94 74
58 88 68
56 85 66
59 89 70
60 90 70
60 91 71
86 104 84
202 180 160
234 205 184
239 210 189
243 214 193
246 217 196
247 218 198
247 219 198
247 219 199
247 219 199
246 218 199
245 218 199
244 218 198
243 216 197
241 214 195
237 211 192
238 212 193
235 210 192
233 207 189
232 207 189
230 205 188
227 203 187
225 202 185
220 197 181
220 197 181
217 195 180
213 191 176
209 189 174
178 153 133
153 114 70
157 117 72
157 118 73
160 119 74
159 119 73
160 119 74
158 118 73
158 118 73
157 118 73
155 116 72
153 115 72
152 114 71
149 112 70
147 111 69
147 111 69
143 108 67
144 108 67
138 104 65
135 102 64
131 99 62
128 98 61
124 95 59
119 91 57
120 92 58
108 84 53
105 81 51
99 78 49
89 71 45
83 67 42
84 67 42
81 66 41
82 66 41
74 61 37
52 59 44
40 62 49
39 60 47
63 95 74
64 96 75
60 92 72
63 95 75
63 96 75
63 95 75
64 98 77
63 95 74
63 95 74
65 98 76
64 97 76
65 98 77
60 92 72
65 98 77
64 97 76
63 96 75
59 90 71
64 97 76
64 97 76
61 93 72
62 94 74
62 93 73
74 85 83
91 60 96
95 63 100
99 65 105
101 67 107
102 67 108
103 68 109
104 68 110
104 69 110
104 69 111
104 69 111
105 69 111
105 69 112
105 69 112
105 70 112
106 70 112
106 70 112
105 70 112
105 69 111
104 69 111
104 68 111
103 68 110
103 68 109
102 67 108
102 67 108
101 66 107
100 66 106
99 65 105
97 64 103
96 62 100
92 60 96
89 58 94
85 55 90
77 51 82
62 81 71
61 93 72
63 95 75
59 90 70
61 92 72
62 94 73
63 95 74
63 95 74
66 100 78
64 97 75
60 91 71
58 88 69
63 95 74
59 90 70
61 92 72
60 90 70
64 96 75
59 89 69
61 93 72
41 55 62
34 33 64
37 35 67
40 38 73
42 39 76
45 41 80
46 42 82
47 43 84
48 45 88
48 45 87
50 46 89
51 48 92
51 48 94
52 49 96
52 49 95
52 48 94
51 48 93
52 49 96
49 46 89
50 46 89
49 46 89
50 47 92
49 46 89
48 46 89
45 43 81
48 44 86
45 42 80
42 39 76
42 38 73
40 37 71
37 34 64
34 31 59
31 30 56
27 26 49
25 24 45
38 54 53
48 75 61
50 77 61
53 82 65
53 82 65
55 84 66
57 87 68
59 90 70
60 91 71
62 94 73
61 93 72
59 88 69
61 92 72
64 97 76
60 91 71
63 94 73
64 97 76
63 95 74
59 89 70
63 95 74
62 94 73
61 92 71
61 92 72
63 96 75
59 89 69
60 90 70
63 95 74
63 96 75
62 93 73
59 89 69
61 93 72
62 94 73
60 90 70
62 94 73
60 91 71
62 93 73
63 95 74
62 93 72
60 90 70
59 89 69
61 92 72
61 92 71
60 91 71
99 86 66
190 63 44
208 68 47
212 69 48
220 72 50
228 74 51
234 76 53
237 77 54
242 79 55
243 79 55
246 80 56
248 81 56
249 82 58
251 88 64
255 108 82
255 139 111
255 156 126
255 145 116
255 119 93
250 94 70
244 82 58
242 79 55
240 78 54
239 77 54
235 76 54
232 76 53
229 74 52
226 73 51
221 73 51
215 71 50
216 71 50
209 68 48
204 67 47
194 64 45
181 59 41
172 57 40
159 53 37
112 68 52
60 91 71
61 93 72
64 96 75
62 93 72
61 92 72
61 91 71
62 94 73
67 101 78
63 95 74
60 90 71
61 93 72
62 94 73
60 91 71
64 95 74
60 90 71
62 93 73
64 96 75
62 93 73
60 91 71
62 95 74
62 94 73
66 99 77
61 92 72
62 94 73
63 94 73
61 91 71
63 94 73
61 92 71
62 93 73
60 90 71
66 99 77
62 94 73
62 93 73
58 87 68
60 90 70
61 91 71
63 95 73
62 92 71
61 92 71
60 89 69
63 95 74
61 91 71
60 90 70
62 93 72
58 87 68
58 87 68
64 94 73
59 88 69
58 86 67
62 92 72
60 90 70
59 88 68
63 93 72
61 92 71
58 85 66
60 88 68
60 89 69
59 88 68
61 90 70
62 92 71
59 89 69
57 86 66
58 86 66
58 85 66
60 88 68
59 89 69
59 87 68
62 91 71
62 92 71
58 86 67
58 86 67
61 91 71
59 87 67
89 97 78
138 123 102
98 86 70
128 111 99
74 47 71
139 117 106
176 153 128
187 162 137
181 157 132
188 163 138
196 170 146
195 170 145
194 170 146
191 167 142
189 165 140
189 165 141
190 165 141
183 160 136
190 167 145
179 157 134
185 162 140
179 158 135
175 154 132
175 154 132
167 147 125
165 146 125
156 137 116
153 135 115
143 127 108
136 123 105
127 115 97
116 107 91
100 95 80
106 98 82
89 91 78
42 67 55
44 70 57
43 68 56
46 73 59
47 73 59
47 74 60
48 75 60
52 80 64
51 79 63
49 76 60
54 82 64
56 86 67
57 87 68
55 84 66
57 87 68
54 82 65
58 88 69
58 88 69
60 90 70
58 88 69
60 91 71
59 90 71
60 90 70
62 94 73
62 95 74
57 87 68
57 87 68
61 93 73
62 94 73
59 89 70
57 87 68
60 91 71
60 91 71
60 91 71
63 95 74
69 94 74
180 163 144
230 201 180
239 208 186
246 215 193
247 218 196
249 219 198
248 220 198
248 220 199
248 220 199
248 220 199
247 219 199
246 219 199
245 218 198
244 217 198
242 215 196
238 211 192
239 213 194
235 210 191
232 207 188
231 206 188
231 206 188
229 204 187
224 200 183
221 198 181
221 198 181
216 194 178
213 191 176
193 167 147
155 117 74
157 117 72
159 119 74
158 118 73
160 120 74
159 119 74
159 119 74
158 118 73
156 117 72
155 117 72
154 115 72
153 115 71
150 113 70
148 111 69
147 111 69
144 108 67
142 107 67
140 106 66
137 104 65
133 101 63
129 98 61
128 98 61
121 93 58
114 88 55
112 87 55
105 82 51
100 79 49
88 70 44
86 69 44
85 69 43
81 65 41
76 62 38
70 58 35
60 63 44
45 68 52
47 71 54
49 74 57
61 93 73
61 93 73
60 92 72
65 98 77
60 91 71
61 92 72
65 99 77
64 97 76
62 94 74
64 97 76
61 93 72
65 98 76
62 95 74
62 94 73
62 94 74
65 98 77
62 94 74
62 94 73
64 97 76
65 98 77
61 93 73
67 99 79
84 64 89
92 61 98
97 64 103
99 65 104
101 67 107
103 67 108
103 68 109
104 68 110
104 69 110
105 69 111
105 69 111
105 69 111
105 69 112
106 71 112
110 75 114
113 79 116
113 79 116
110 76 115
107 71 112
105 70 111
104 69 111
104 68 110
103 67 108
102 67 109
101 67 107
100 66 107
100 66 107
99 65 104
98 63 102
96 63 101
93 60 97
90 60 94
142 119 124
142 121 122
87 76 82
61 92 72
62 93 72
65 98 76
59 90 70
59 89 70
62 95 74
61 92 72
63 95 74
61 93 72
61 92 72
59 90 70
60 91 71
59 89 70
60 90 71
58 87 68
57 87 68
62 94 73
61 92 72
54 80 68
32 31 59
35 33 64
38 35 67
39 37 71
40 37 71
42 39 74
45 41 80
45 42 81
47 44 84
46 44 83
50 47 90
50 47 91
50 47 90
50 47 91
50 47 92
51 48 94
49 46 90
49 47 90
48 45 88
47 44 85
47 44 86
48 45 87
46 44 85
45 42 80
43 41 78
43 39 75
40 37 70
40 37 70
36 34 64
34 32 61
31 29 55
29 28 52
24 24 44
25 29 40
43 66 58
45 71 57
48 74 59
51 79 64
49 76 60
55 85 67
56 85 67
58 88 69
57 86 68
60 91 72
62 94 74
62 94 73
59 90 70
62 93 73
58 89 69
60 90 70
62 93 73
59 89 69
61 93 73
60 91 71
62 93 73
63 95 74
59 89 70
60 91 71
62 93 73
61 92 72
61 92 72
64 96 75
62 94 73
58 88 69
62 94 73
61 92 72
59 89 69
63 95 74
64 97 76
59 89 70
63 94 73
62 94 73
62 94 73
61 93 72
61 92 72
62 93 73
63 96 75
115 88 67
190 62 43
202 66 45
213 69 48
222 72 50
225 73 51
230 75 52
236 77 53
236 77 53
240 78 54
240 78 54
245 80 55
243 79 55
245 82 58
250 91 67
253 103 78
255 111 86
255 106 81
251 96 72
244 83 60
240 78 55
238 77 54
237 77 54
234 75 53
234 76 53
230 75 52
227 74 52
224 73 51
220 72 51
215 70 49
209 68 48
200 66 46
200 66 46
194 63 44
183 60 42
164 55 38
153 51 36
117 59 44
60 90 70
65 98 76
61 92 72
60 90 70
60 91 71
59 89 69
60 90 71
64 97 75
65 98 76
64 96 74
59 89 69
61 91 71
65 97 76
60 90 71
61 91 71
60 90 71
65 97 76
64 97 76
61 92 72
61 92 71
64 96 75
66 100 78
62 93 73
62 93 73
59 90 70
65 97 76
63 94 73
61 92 72
61 92 72
62 92 71
61 91 70
60 90 70
61 92 72
64 96 75
62 93 72
62 94 73
64 94 73
63 94 73
58 87 67
59 89 69
63 95 74
61 90 70
61 91 71
61 91 71
60 90 70
63 93 73
60 90 71
61 91 70
62 93 72
61 92 72
61 90 70
58 87 67
62 91 70
64 95 73
62 92 71
61 91 71
64 96 74
60 88 69
58 86 67
61 91 70
61 91 70
60 90 69
59 88 68
60 87 67
61 91 70
62 91 71
62 91 71
58 85 66
59 87 67
59 88 69
57 84 65
61 91 70
61 90 70
66 90 70
72 69 55
82 72 59
107 89 84
69 45 65
121 100 93
170 148 123
174 150 124
177 154 128
179 154 129
186 161 136
181 159 133
183 160 135
183 161 136
177 155 131
182 159 135
174 152 127
180 159 135
175 154 131
174 153 131
172 152 129
170 150 128
166 147 125
161 142 119
150 132 110
155 137 116
150 133 112
143 127 107
137 122 103
125 112 93
118 107 90
97 92 76
99 94 77
90 87 71
56 70 58
40 64 53
39 63 52
41 64 52
43 68 56
47 75 61
47 73 59
48 75 60
50 77 61
49 76 61
52 80 64
54 82 65
57 86 68
57 86 68
59 89 70
57 87 68
58 87 69
59 89 70
58 89 69
61 92 72
60 91 71
58 88 69
61 92 72
64 96 76
60 91 71
60 91 71
59 89 70
61 93 72
59 89 69
61 92 71
59 90 70
62 94 73
62 94 74
59 89 70
58 87 68
64 95 74
148 141 122
224 195 174
237 207 184
241 210 188
245 216 194
248 218 196
249 220 198
249 220 199
249 220 199
250 221 200
249 221 200
248 220 200
247 220 199
245 218 198
244 216 197
239 212 192
238 211 192
237 211 191
236 210 191
234 208 189
233 207 189
230 205 187
228 203 185
226 202 185
225 202 185
222 199 183
218 195 178
200 175 155
153 116 74
154 115 71
157 117 72
158 119 73
161 120 74
159 119 74
159 119 74
158 118 73
157 117 73
154 116 72
154 116 72
153 115 71
150 112 70
147 111 69
147 111 69
143 108 67
141 106 66
140 106 66
135 102 63
132 100 62
129 98 61
125 95 59
122 93 58
117 90 56
112 87 54
104 81 51
100 78 49
95 76 48
86 69 44
84 68 42
86 69 43
76 62 39
78 64 39
60 66 46
52 78 59
51 76 58
52 78 59
52 78 59
64 97 76
64 97 76
61 92 72
62 95 74
62 93 73
66 100 78
64 98 76
66 101 79
64 97 76
63 96 75
62 95 74
64 97 76
64 98 77
64 97 76
61 93 72
62 94 74
63 96 75
63 95 74
63 96 75
64 97 76
63 96 75
69 77 77
88 59 93
93 61 98
97 64 102
99 65 104
101 66 106
103 67 108
103 68 109
104 68 110
104 69 110
105 69 111
105 69 111
105 69 111
107 71 112
114 80 116
127 96 125
144 114 135
144 114 135
133 102 128
116 83 117
107 72 112
104 69 111
104 68 110
103 68 109
102 67 107
102 67 107
101 66 107
99 65 105
98 64 104
97 63 101
95 62 99
93 61 98
148 125 127
145 128 115
86 77 69
116 101 95
72 86 75
61 93 73
63 95 74
60 91 71
61 92 72
59 89 70
61 92 72
60 91 71
61 92 72
62 94 73
61 92 71
62 94 73
62 94 73
61 92 72
58 88 69
62 94 73
65 98 76
63 95 74
64 96 75
35 47 51
30 29 54
34 32 61
35 33 62
39 37 70
39 37 69
42 39 74
43 40 77
44 41 78
46 43 82
46 44 83
47 44 85
46 43 83
48 46 88
48 45 87
47 44 85
48 45 87
46 43 82
45 42 81
44 42 79
45 43 81
44 42 80
44 41 79
42 40 75
41 39 74
39 37 70
37 35 65
35 32 61
32 30 55
28 27 49
25 23 41
25 24 43
22 22 40
30 43 45
42 66 55
44 70 58
44 69 56
50 78 62
51 78 63
55 84 67
55 84 67
57 87 68
59 89 70
59 90 70
59 90 70
59 89 69
62 94 73
63 95 74
61 93 73
62 94 74
62 93 73
60 91 71
61 92 72
60 91 71
60 90 70
61 93 73
61 92 72
60 91 71
61 92 72
62 93 73
62 94 73
60 91 71
59 90 70
62 93 73
59 90 70
61 93 72
61 92 72
62 93 73
62 94 73
61 92 72
63 95 74
65 98 76
65 98 76
63 96 75
65 97 76
62 94 73
63 96 75
132 79 60
190 62 43
195 64 44
211 69 47
218 71 49
220 72 49
225 73 51
233 76 52
231 75 52
237 77 54
238 77 54
240 78 54
242 79 55
239 78 55
241 80 56
243 84 60
248 87 63
243 84 60
243 81 58
240 78 55
239 77 54
233 75 52
231 74 52
232 75 52
229 74 52
224 73 51
221 72 50
222 72 51
217 71 49
212 69 48
207 68 47
200 66 46
194 64 44
182 60 41
176 58 40
169 57 40
148 50 35
131 55 40
67 93 72
61 92 72
60 91 71
61 93 72
65 97 76
62 92 72
60 90 70
60 91 71
62 92 72
62 93 72
64 97 76
65 98 76
61 92 72
63 95 74
63 94 73
61 92 72
61 93 73
63 95 74
60 91 71
62 94 73
63 96 75
63 94 73
62 93 72
60 91 71
60 89 69
64 96 75
60 90 71
62 93 72
62 93 72
61 92 72
60 91 71
60 90 69
60 90 70
62 94 73
63 94 73
63 95 74
64 96 75
61 91 71
62 94 73
61 91 71
63 94 73
66 98 77
61 92 72
59 88 68
64 96 75
60 91 71
59 88 69
63 94 73
60 88 69
61 92 72
63 94 73
59 88 68
62 93 72
64 95 74
60 89 69
60 90 70
63 94 73
63 94 73
61 90 70
61 91 70
59 89 69
59 88 68
60 89 69
59 88 68
59 88 68
61 89 69
60 90 69
62 93 72
60 89 69
60 89 69
60 89 69
60 90 70
59 88 68
59 88 68
71 80 65
99 85 77
62 43 57
63 41 60
100 77 78
159 138 112
169 146 122
167 145 119
168 146 121
170 147 121
172 150 123
176 154 129
172 151 125
175 153 128
172 151 127
173 153 129
171 150 127
169 150 126
165 146 122
162 144 121
161 143 121
159 142 120
153 137 116
147 130 108
147 130 108
130 118 97
122 110 89
120 108 88
113 104 87
95 89 71
99 93 77
90 86 69
77 81 67
45 69 57
41 65 54
39 62 51
40 63 52
42 66 55
43 68 56
43 67 55
44 70 57
49 75 61
50 78 62
55 85 68
57 87 69
55 84 66
56 85 67
57 86 67
56 85 67
59 89 69
60 91 71
60 90 71
58 88 69
62 94 74
60 90 70
58 88 69
61 93 73
58 88 69
58 88 68
58 88 69
60 91 71
59 90 70
61 92 72
58 87 68
61 92 71
64 98 76
58 87 68
59 89 69
107 115 97
219 191 170
229 201 179
238 208 186
241 211 189
245 216 194
247 217 195
250 220 199
250 221 199
250 221 200
250 221 200
249 221 200
248 220 200
247 219 199
246 218 197
243 215 195
241 213 193
239 212 192
239 212 192
238 211 192
234 208 190
232 207 188
231 205 187
227 202 184
226 202 184
223 198 181
222 198 181
207 182 163
155 117 75
156 116 72
158 118 73
159 119 74
159 119 74
159 118 73
159 119 74
158 118 73
157 118 73
156 117 72
153 115 71
153 115 71
152 114 71
148 112 69
146 110 68
144 108 67
142 107 66
140 106 66
137 104 65
133 101 63
127 97 60
126 96 60
123 94 59
119 91 57
108 84 52
106 83 52
98 77 48
92 73 46
87 70 44
87 70 44
87 70 44
79 64 39
72 59 36
66 66 45
55 82 62
55 83 63
58 87 67
57 86 65
55 83 64
64 97 76
64 96 75
64 97 76
62 93 73
67 102 79
62 94 73
62 93 73
62 94 74
63 95 74
64 98 76
62 93 73
62 95 74
63 96 75
64 97 76
62 94 73
62 94 74
63 95 74
62 93 73
62 94 74
62 94 73
64 97 76
78 65 83
88 58 92
93 61 98
97 64 102
98 64 103
101 66 106
102 67 107
104 68 109
104 68 110
104 68 110
104 69 110
105 69 111
106 70 111
110 75 114
128 96 125
160 131 145
189 160 164
189 160 165
165 136 148
131 100 126
112 78 114
105 70 111
103 68 109
103 68 109
103 67 108
101 67 107
101 66 106
99 65 104
97 64 102
95 62 99
95 62 99
98 68 99
167 143 133
117 103 94
183 161 146
164 143 130
101 98 90
62 92 73
61 93 73
59 89 70
61 93 73
60 92 71
60 90 70
60 91 71
63 95 74
62 93 73
61 91 71
61 92 72
63 95 74
61 92 72
59 89 70
58 88 68
58 88 68
61 92 72
60 91 71
48 69 63
27 27 50
30 29 54
33 31 58
35 33 61
38 35 66
39 37 70
40 37 69
42 40 75
44 41 78
45 42 80
45 42 81
45 43 81
45 43 81
45 42 80
46 43 82
44 41 78
46 44 84
44 42 79
42 40 76
42 40 75
40 38 71
41 39 73
37 36 66
38 36 68
36 33 62
35 32 59
32 30 55
29 28 51
23 23 40
21 21 36
19 20 32
22 24 40
34 54 46
40 64 53
42 66 54
43 67 55
43 68 55
48 74 59
54 83 66
51 78 62
56 86 67
58 88 69
61 92 72
59 89 69
59 89 70
61 93 72
60 90 70
63 95 74
63 95 74
61 92 72
61 92 72
61 92 72
62 94 73
60 91 71
60 91 71
60 91 71
63 95 74
61 92 72
61 92 72
64 97 76
59 89 69
58 88 69
60 90 70
62 94 74
62 94 73
65 97 76
63 95 74
64 97 76
64 96 75
62 94 74
60 90 70
63 95 74
61 92 72
65 97 76
60 90 70
62 93 72
133 72 53
184 60 41
199 65 44
208 68 47
217 71 49
217 71 49
224 73 50
226 73 51
235 76 53
234 76 53
234 76 52
235 76 53
234 76 53
234 75 52
239 78 54
238 77 54
237 77 54
235 76 53
234 76 53
234 75 52
232 75 52
233 75 53
231 74 52
229 74 52
225 73 51
221 71 50
218 71 49
214 69 48
210 68 47
206 68 47
201 65 45
200 66 46
188 61 42
178 59 40
171 57 39
163 54 37
143 48 34
124 49 35
62 84 65
63 96 75
61 92 72
61 92 72
65 98 76
64 97 75
67 100 77
61 91 71
60 90 70
60 89 69
63 96 75
62 94 73
63 95 74
60 90 70
60 91 71
62 94 73
61 91 70
63 95 74
60 91 71
60 91 71
64 97 76
64 96 74
65 97 76
62 94 73
63 95 74
59 88 69
57 86 67
67 101 79
66 99 77
63 94 73
62 94 73
64 96 75
63 95 74
61 92 72
63 94 73
61 93 72
62 93 72
63 94 73
60 90 70
61 92 71
59 88 69
63 94 73
64 96 74
61 92 71
61 92 71
59 89 69
64 96 74
62 92 71
62 93 72
63 95 74
62 93 73
61 92 72
60 90 70
65 97 75
62 93 72
61 91 71
61 90 70
59 88 68
63 92 71
60 89 69
57 84 65
61 91 70
59 88 69
58 86 67
57 86 66
58 85 66
56 83 64
60 88 68
59 88 68
58 87 67
57 84 65
57 85 66
58 86 66
55 82 62
55 81 63
47 40 46
54 36 52
57 38 54
75 57 63
143 124 102
153 133 108
160 141 116
156 137 112
162 142 117
164 144 120
166 146 121
164 144 119
161 142 117
160 141 116
158 139 114
159 140 115
156 138 114
156 139 115
150 134 111
147 131 108
144 129 107
144 128 107
133 120 99
126 114 93
127 114 94
110 102 83
104 97 77
91 87 69
86 83 64
87 83 66
82 82 66
50 69 57
39 62 51
39 62 51
38 61 50
40 63 52
40 64 53
40 64 53
44 71 58
47 73 59
47 73 59
47 73 59
51 78 63
52 80 63
54 83 66
55 84 66
55 84 66
61 92 72
56 85 67
59 89 69
63 95 74
61 92 72
60 91 71
61 93 73
61 92 72
61 93 73
61 92 72
60 91 71
60 90 71
59 90 70
59 90 70
62 95 74
60 91 71
61 93 72
58 88 69
62 93 73
63 92 72
182 165 145
226 198 176
235 205 182
239 208 185
243 213 191
247 216 194
249 219 197
251 220 198
251 221 199
251 222 200
250 221 200
250 221 200
250 221 200
249 220 199
246 218 197
245 216 196
242 214 194
241 214 194
238 211 192
237 210 191
236 210 191
232 205 186
229 203 184
228 203 185
227 202 184
223 199 181
214 188 169
157 120 81
157 117 73
157 118 73
158 118 73
159 119 74
160 119 74
159 118 73
156 117 73
157 118 73
156 117 72
155 116 72
154 115 72
152 114 71
147 111 69
146 110 69
146 110 69
141 107 66
140 106 66
136 103 64
133 101 63
131 100 62
126 96 60
122 93 58
117 90 56
111 86 54
110 85 53
103 80 51
94 74 47
91 72 46
85 68 43
82 66 41
81 66 41
76 62 38
68 62 41
57 83 63
55 83 63
58 88 67
58 87 66
56 84 65
55 83 63
59 90 70
64 97 76
63 96 75
61 92 72
63 96 75
62 94 73
64 97 76
63 96 75
61 92 72
63 96 75
67 101 79
65 98 77
62 93 73
60 91 71
62 94 73
61 93 72
60 92 72
64 97 76
62 94 73
64 97 76
65 86 75
83 56 88
89 58 93
92 61 96
97 64 102
98 64 103
100 65 105
101 66 106
103 67 108
104 68 109
104 68 110
105 69 110
105 69 110
106 70 111
113 79 116
139 108 131
179 151 158
214 185 182
215 186 183
182 153 159
141 111 132
114 81 116
106 70 111
104 68 109
102 67 108
101 66 107
102 66 106
100 65 105
99 65 103
97 63 102
95 62 98
93 61 97
123 94 110
147 128 116
177 155 139
189 165 149
175 156 141
141 125 115
62 87 70
62 94 74
62 93 73
60 91 71
63 95 75
61 92 72
59 90 70
62 93 73
62 93 73
61 92 72
62 94 74
62 93 72
62 94 73
61 93 72
62 93 73
63 95 74
60 91 71
59 90 70
57 86 68
31 42 46
26 26 46
27 26 48
31 30 54
34 32 59
36 34 64
36 34 63
39 37 68
41 38 73
44 41 77
42 40 75
43 41 76
43 41 76
42 40 74
42 40 75
41 39 73
41 39 72
41 39 73
40 38 72
38 37 67
38 36 67
38 36 66
36 35 65
35 33 60
33 31 57
31 30 55
27 27 49
24 23 40
20 20 33
19 20 34
17 19 30
31 46 45
35 56 47
37 60 50
38 61 51
41 64 53
44 68 55
48 74 59
48 74 59
53 82 65
55 84 66
57 86 68
60 91 71
61 92 72
57 85 66
60 92 72
59 88 69
62 93 72
61 92 71
60 92 71
61 92 71
61 91 71
62 94 73
61 93 72
61 92 72
62 93 73
62 93 72
62 93 72
60 91 71
61 92 72
60 90 70
60 90 70
59 89 69
59 89 70
63 96 75
63 95 74
61 92 71
61 91 71
62 94 73
61 92 71
61 92 71
62 93 73
60 90 70
62 94 73
63 96 75
61 92 71
136 72 54
182 59 41
193 63 43
204 66 46
212 69 47
213 69 47
219 71 49
223 72 50
225 73 50
229 74 51
231 75 52
229 74 51
231 75 52
233 76 52
232 75 52
232 75 52
227 73 50
234 76 53
231 75 52
225 73 50
228 73 51
226 72 50
223 72 50
219 70 48
215 69 48
219 71 49
214 69 48
208 67 47
209 68 47
203 66 46
200 65 45
192 63 44
183 60 41
175 58 40
164 54 37
151 50 35
145 49 34
114 43 30
68 88 68
63 95 74
61 92 72
63 95 74
63 94 74
65 98 76
63 95 74
61 92 71
60 91 71
59 89 70
62 93 73
63 95 74
62 93 73
63 94 73
62 94 74
63 95 74
61 91 71
64 97 75
65 97 76
62 93 72
63 94 73
61 92 71
61 91 71
63 96 75
63 95 74
60 91 71
61 92 72
63 95 74
61 93 72
63 95 74
61 92 72
60 90 70
63 95 74
61 92 72
61 91 71
61 91 71
60 90 70
63 95 74
63 94 73
60 91 71
60 90 70
60 91 71
62 94 73
61 90 70
60 90 70
61 92 72
62 93 73
61 90 70
62 92 72
64 96 74
61 92 72
64 95 74
62 93 73
64 96 74
61 91 71
58 88 68
60 90 70
61 90 70
59 88 68
61 91 71
60 90 70
59 88 68
61 90 70
58 87 67
63 93 72
58 86 66
60 89 69
59 87 67
61 91 70
54 80 61
57 84 65
57 84 65
59 88 68
58 85 65
58 86 66
54 76 60
46 34 43
50 33 46
55 37 51
116 101 84
140 123 98
145 126 103
143 127 102
154 134 109
153 134 109
152 134 109
153 135 110
150 133 108
155 136 111
148 132 107
150 133 109
149 132 107
147 132 109
143 128 105
133 120 98
134 121 99
126 116 94
128 117 97
115 106 85
105 97 78
101 92 73
83 81 63
83 81 61
91 85 67
75 76 58
57 66 52
38 61 50
38 61 50
39 61 50
40 64 53
40 63 52
41 66 54
42 67 55
42 65 53
43 67 55
47 74 60
47 73 58
52 81 64
54 82 64
55 84 66
54 82 65
55 83 65
60 91 71
60 91 71
60 91 71
61 92 72
57 87 68
59 89 70
63 96 75
60 91 71
61 93 72
58 88 69
60 92 72
60 91 71
63 95 74
59 89 70
61 92 72
61 92 72
58 88 69
61 93 72
58 88 68
111 119 99
211 185 163
225 196 173
236 206 183
240 209 185
244 213 190
245 215 193
247 217 194
251 220 198
252 221 199
252 222 200
252 222 200
251 222 200
252 223 201
253 224 201
251 222 200
247 218 196
242 214 193
239 212 191
238 211 190
238 211 191
235 208 188
235 209 190
231 205 186
230 204 185
225 200 182
218 193 174
162 126 90
156 117 72
157 117 72
159 119 74
160 119 74
159 119 74
159 119 74
159 119 74
157 117 73
158 118 73
156 117 73
153 115 71
151 113 70
149 112 70
147 111 69
147 110 69
142 108 67
141 106 66
137 103 64
133 101 63
132 100 62
128 98 61
121 93 58
119 91 57
112 87 54
109 84 53
100 78 49
96 76 47
90 72 45
83 67 42
84 67 42
81 65 40
75 61 38
72 64 41
56 80 61
56 84 64
56 84 64
58 87 67
59 88 68
57 86 66
57 86 66
64 97 75
60 91 71
64 98 76
62 95 74
63 96 75
64 97 76
63 95 75
63 96 75
64 98 76
61 92 72
61 92 72
62 94 74
63 96 75
61 92 72
59 89 70
61 92 72
59 90 70
63 95 75
63 95 74
60 91 71
70 80 78
83 55 87
89 59 93
93 61 97
96 63 101
98 64 102
99 65 104
101 66 106
101 66 106
103 67 108
103 68 108
104 68 109
105 69 110
106 70 111
112 78 115
133 102 127
169 140 151
195 166 168
197 168 170
168 139 150
133 102 127
112 78 114
105 69 109
103 67 108
102 67 107
101 66 105
100 65 105
99 64 103
97 63 102
96 62 98
94 61 97
93 60 96
133 108 119
126 110 99
191 168 150
170 149 134
114 101 92
155 139 126
91 97 83
65 98 76
63 95 74
57 87 68
62 94 73
60 91 71
63 95 74
61 92 72
62 93 73
63 95 74
62 93 73
60 90 70
62 93 72
59 88 69
60 91 70
57 86 67
59 89 69
57 86 67
56 84 66
49 74 60
24 28 41
25 25 44
28 27 48
30 29 51
31 30 54
34 32 59
37 35 64
37 35 64
37 36 65
40 38 72
38 37 67
39 37 69
39 37 68
39 38 69
40 38 71
37 36 65
37 35 64
36 35 63
36 35 63
35 34 62
35 34 62
33 32 58
30 30 52
29 27 49
26 26 45
23 23 39
20 20 33
17 18 29
16 18 29
23 32 35
36 57 48
35 56 47
37 60 50
38 60 50
41 64 53
45 70 57
49 74 59
49 75 60
50 77 61
57 87 68
57 86 67
59 90 70
59 90 70
57 86 67
58 88 68
62 94 73
60 90 70
59 90 70
61 92 71
63 95 74
62 92 72
62 92 72
62 94 73
65 98 76
60 90 70
64 96 75
62 93 73
59 89 69
61 93 72
60 91 71
59 89 70
60 90 70
61 91 71
65 99 77
65 97 76
63 94 73
65 97 76
61 92 72
59 89 70
62 94 73
64 97 76
63 95 74
63 95 74
61 93 73
65 97 76
117 73 55
176 58 39
188 61 42
198 65 44
204 67 46
207 67 46
211 68 47
218 71 48
216 70 48
225 73 50
223 72 50
224 73 50
228 74 51
228 74 51
224 72 50
230 74 51
227 73 50
222 71 49
227 73 50
226 73 50
224 72 50
219 70 49
218 70 49
218 70 48
212 68 47
210 67 47
209 68 47
201 65 45
199 64 44
198 64 44
191 62 43
184 60 42
177 58 40
170 56 38
161 53 37
148 50 34
133 46 32
117 47 34
63 81 63
61 92 72
62 93 73
59 90 70
61 92 72
60 91 71
64 96 75
58 88 68
62 93 73
63 94 73
61 92 72
62 93 73
64 96 75
63 94 73
64 96 74
62 92 72
66 99 77
61 93 72
62 93 73
64 97 76
65 97 75
60 91 70
60 90 70
60 90 70
60 90 70
63 94 73
60 91 71
60 91 71
59 89 69
63 94 73
59 89 69
62 93 72
64 96 75
63 94 74
62 93 72
63 95 74
59 88 69
59 89 70
61 91 71
62 92 71
62 93 72
61 92 72
60 90 70
59 89 69
56 85 66
60 89 70
62 93 72
64 96 75
63 95 74
60 90 70
61 91 71
59 88 69
63 94 73
61 91 70
61 91 70
58 87 67
59 88 68
59 88 68
62 93 72
60 90 70
57 85 66
59 88 68
58 87 68
59 88 68
60 90 70
59 88 67
59 89 69
62 93 71
57 85 66
58 86 66
61 92 71
59 87 66
57 84 64
54 80 62
56 82 63
53 79 60
43 56 47
41 28 37
47 31 44
72 58 57
124 111 87
132 117 92
136 121 96
139 124 99
138 122 97
135 120 95
136 121 96
137 121 97
138 123 99
137 124 100
135 121 97
138 123 99
133 120 96
130 119 96
125 114 91
121 111 90
123 113 91
107 100 80
94 92 72
86 85 66
69 73 53
75 77 58
67 70 49
60 67 47
58 65 50
39 59 49
40 65 54
40 64 53
38 60 50
40 63 52
38 61 51
39 62 51
39 63 52
44 69 57
43 68 55
46 72 58
46 71 57
50 77 61
51 78 62
56 86 68
55 84 66
54 83 65
56 84 66
59 89 70
61 93 73
61 92 72
60 90 70
64 97 75
60 91 71
59 89 69
62 94 73
61 92 72
59 89 70
60 91 71
58 88 69
58 88 69
61 93 72
61 92 71
60 91 71
56 85 67
65 95 74
174 156 136
217 190 167
225 196 173
232 201 178
237 205 182
243 212 189
242 212 189
247 216 193
249 218 195
250 220 198
252 221 199
252 221 199
254 224 202
255 230 206
255 238 212
255 239 212
255 232 207
250 222 199
242 214 193
239 211 191
238 210 190
236 208 188
232 205 186
232 205 186
229 203 184
225 200 181
169 134 100
156 117 72
158 118 73
159 119 73
160 120 74
160 119 74
158 118 73
159 119 74
157 118 73
156 117 73
155 116 72
153 115 71
151 114 71
151 113 70
148 111 69
145 109 68
142 107 67
141 106 66
140 106 66
134 102 63
130 99 62
125 95 59
124 95 59
118 91 57
113 87 55
106 82 52
105 82 51
95 75 47
91 72 46
84 68 43
82 66 41
82 66 41
79 64 39
69 60 38
59 86 65
57 85 66
55 83 64
61 91 70
60 90 70
59 88 68
57 86 66
56 85 66
63 95 74
63 95 74
62 94 73
64 96 75
63 96 75
61 93 73
62 94 73
64 98 76
60 91 71
60 91 71
60 92 72
62 94 74
64 97 75
60 92 72
63 96 75
64 96 75
61 92 72
62 93 73
65 98 76
61 93 73
71 68 77
84 55 88
88 58 92
91 60 95
95 63 100
96 63 100
98 64 102
99 65 104
101 66 106
101 66 106
102 67 107
104 68 108
103 68 108
105 69 109
108 73 111
119 86 117
138 108 130
154 125 140
155 126 141
138 107 129
118 85 116
106 71 110
102 67 106
102 66 106
101 66 105
100 65 104
98 64 102
97 63 101
97 63 100
94 61 97
93 60 96
91 59 94
146 120 122
123 108 97
193 169 151
179 158 141
72 62 55
151 134 122
111 107 95
60 90 70
61 93 72
58 88 68
61 92 72
59 89 70
61 92 71
60 91 71
62 93 73
58 88 69
59 89 70
60 91 71
61 92 72
60 90 70
56 84 65
61 92 72
56 85 66
56 85 66
53 81 64
51 77 60
40 59 50
21 23 36
22 23 38
26 25 44
28 27 48
32 30 54
32 30 54
35 33 61
34 33 60
36 35 63
36 35 64
35 34 62
36 34 61
36 34 62
35 34 60
35 34 61
34 33 59
34 33 59
33 32 57
31 30 54
29 29 51
29 28 50
27 27 47
25 25 43
22 22 36
18 20 33
16 18 29
18 20 33
17 22 29
31 50 42
35 56 46
36 57 47
35 56 47
37 59 49
42 65 53
45 70 56
48 74 59
53 80 64
53 81 64
57 86 67
58 88 68
60 90 70
61 92 72
60 90 70
60 91 71
61 92 72
60 91 71
61 92 72
64 97 75
63 94 73
61 91 71
63 94 73
57 87 68
57 86 67
59 90 70
62 94 73
61 91 71
62 93 73
62 93 72
62 94 73
62 93 73
61 92 72
62 93 72
67 100 78
61 92 72
60 91 71
62 93 73
62 93 73
61 92 72
60 90 70
59 89 69
62 93 73
61 92 71
60 90 70
62 94 73
109 76 57
167 55 37
176 58 39
188 61 42
199 65 44
202 66 45
205 66 45
209 68 46
214 70 47
217 70 48
219 71 49
217 70 48
220 71 49
220 71 49
223 72 50
225 73 50
221 71 49
218 70 48
219 71 49
219 70 48
217 70 48
216 69 48
211 68 47
212 68 47
205 66 45
210 68 47
206 67 46
196 64 44
192 62 42
190 62 42
187 61 42
179 59 40
175 57 39
159 52 36
152 51 35
138 47 32
121 42 28
112 46 33
57 83 65
60 91 72
58 89 70
62 94 74
60 91 71
59 89 70
59 90 70
60 91 71
62 93 73
61 91 71
63 95 74
60 91 71
62 93 72
60 90 70
62 93 72
62 94 73
64 96 75
66 100 78
63 95 73
60 90 71
61 91 71
61 92 72
61 92 71
61 91 70
63 95 74
62 93 73
60 90 70
60 90 70
62 93 73
64 97 75
65 98 76
62 94 73
62 94 73
60 91 71
62 94 73
60 91 71
57 86 67
59 90 70
62 93 73
62 93 73
64 96 75
62 93 72
61 92 72
64 97 75
63 94 73
62 93 72
61 93 72
63 95 74
65 97 76
62 93 72
63 94 73
62 93 73
62 94 74
60 90 70
62 93 72
64 96 75
58 88 68
59 89 69
60 89 69
60 90 69
58 87 67
60 90 70
62 92 71
63 94 73
59 88 68
60 90 69
59 87 67
58 87 67
60 89 68
58 85 65
60 89 68
59 88 67
59 88 67
56 83 63
57 83 63
54 79 61
54 80 62
38 46 39
35 26 34
42 29 39
91 82 67
115 104 80
116 106 81
119 108 83
125 111 86
119 109 84
121 110 86
126 113 88
125 113 87
125 112 87
124 113 88
116 107 83
116 107 84
115 107 84
105 99 76
104 99 77
95 92 70
89 87 66
70 74 53
68 72 51
66 69 48
62 68 47
58 63 44
60 68 53
39 58 48
34 54 44
36 57 47
36 57 48
38 61 51
37 60 49
37 58 48
40 63 51
40 63 52
42 65 53
45 70 57
46 71 57
50 77 62
51 78 62
56 85 67
55 84 66
60 92 72
58 87 68
61 92 72
61 92 72
57 87 68
58 87 68
60 90 70
60 91 71
59 89 70
59 90 70
58 88 69
63 96 75
61 92 72
61 93 72
62 94 73
64 96 75
61 93 72
60 91 71
61 92 71
62 94 74
89 105 85
203 178 156
222 192 170
226 197 174
234 204 181
238 206 183
242 211 188
242 211 188
245 214 191
247 216 193
250 219 196
251 221 198
252 222 200
255 226 202
255 245 217
255 255 230
255 255 233
255 249 220
255 228 204
246 217 195
239 211 190
235 207 187
233 205 185
232 205 185
232 205 185
230 203 183
171 138 107
155 116 72
157 117 72
160 119 74
159 119 73
159 119 74
158 119 73
158 118 73
156 117 73
157 118 73
156 117 73
154 116 72
152 114 71
149 112 70
148 111 69
145 109 68
144 109 68
140 106 66
137 104 65
134 102 63
129 98 61
130 99 62
121 92 57
120 92 58
112 86 54
109 85 53
103 81 51
98 77 49
89 71 45
87 70 44
85 68 43
78 64 39
79 64 40
66 57 35
60 80 60
58 87 67
56 85 65
55 82 63
56 83 64
58 88 68
59 88 68
57 86 66
59 90 70
62 93 73
61 93 73
60 91 71
63 96 75
68 102 80
63 96 75
62 94 74
61 92 72
60 91 71
61 92 72
62 95 74
64 96 75
62 94 73
60 91 71
63 96 75
65 98 77
62 95 74
62 94 73
64 97 75
67 101 79
74 63 80
85 56 89
87 57 91
91 60 96
93 61 97
94 62 98
97 63 101
98 64 102
99 65 103
100 65 104
101 66 105
101 66 105
102 66 106
102 67 106
104 68 108
107 72 110
114 80 114
118 85 116
119 86 117
112 79 112
105 71 108
102 67 106
102 66 105
100 65 104
98 64 102
99 65 103
97 63 101
96 63 100
95 62 98
93 60 96
92 60 96
91 59 94
144 120 120
129 114 101
188 164 145
183 161 143
106 93 82
123 109 98
118 110 98
58 88 68
63 95 74
62 93 72
60 91 71
58 87 68
61 92 71
64 97 76
62 94 73
59 88 69
59 89 69
59 89 69
58 87 68
63 95 73
57 86 67
56 84 65
59 88 69
58 87 68
51 77 60
53 81 64
48 73 58
31 46 43
18 21 31
20 21 36
22 22 38
26 25 44
28 27 48
31 30 52
30 29 52
32 31 54
31 31 55
31 30 53
31 31 54
32 32 56
32 31 54
32 31 55
31 30 54
29 29 49
29 28 49
27 27 47
25 26 43
23 24 40
21 22 35
20 22 35
17 20 31
17 19 29
16 18 27
16 21 26
28 43 38
30 48 40
36 57 47
35 56 46
36 57 47
36 58 48
42 65 53
48 74 59
51 77 62
51 78 61
55 83 65
56 85 66
57 85 66
64 97 75
64 96 74
59 89 70
61 92 71
60 91 70
60 91 71
60 91 71
59 90 70
59 89 70
61 92 72
60 91 71
64 95 74
60 91 71
65 97 76
64 97 75
59 89 69
62 93 72
62 93 73
59 90 70
62 93 73
62 93 72
62 94 74
61 91 71
61 92 72
58 87 68
61 91 71
59 88 69
58 87 68
59 89 70
62 93 73
60 91 70
60 90 70
61 91 71
63 95 74
101 80 62
156 52 35
171 56 38
181 59 40
189 62 42
197 64 43
202 66 44
202 66 44
211 69 47
217 70 48
211 69 47
213 69 47
213 69 47
218 70 48
211 68 46
218 70 48
213 68 47
216 69 47
212 68 47
209 67 46
209 67 46
213 68 47
207 66 45
206 66 46
199 64 44
202 65 45
199 64 44
191 62 42
183 59 40
178 58 39
178 58 40
172 56 38
162 53 36
153 51 35
147 49 34
131 44 30
115 40 27
104 56 42
57 87 69
57 86 68
57 85 67
56 85 67
60 90 71
58 88 69
63 94 74
60 89 69
63 94 74
60 90 70
62 92 72
60 91 71
63 96 75
61 91 71
58 87 68
62 94 73
64 96 75
63 95 74
63 95 74
62 93 72
64 96 75
62 94 74
62 93 72
63 95 74
63 95 74
60 91 71
63 95 74
60 90 71
60 91 71
63 94 74
63 94 73
65 98 76
63 95 74
61 92 71
61 92 72
60 90 70
60 91 71
61 91 71
62 94 73
65 98 76
62 93 73
62 92 72
63 95 73
62 93 72
59 89 70
62 93 72
62 93 72
64 96 75
62 93 72
62 93 72
63 94 73
63 95 74
63 95 74
63 94 73
61 90 70
60 89 69
64 95 74
60 91 71
61 92 71
61 91 70
62 93 72
63 94 72
61 91 70
64 94 72
58 87 67
58 86 67
58 86 66
57 86 66
58 86 66
62 91 69
55 82 63
54 81 62
58 85 65
57 85 65
55 81 61
50 74 57
51 74 57
44 65 50
34 44 37
31 25 29
46 39 38
90 84 63
97 92 69
107 99 74
107 100 75
107 98 74
108 101 76
108 101 77
111 103 78
109 101 77
108 101 77
105 99 75
96 92 69
97 93 69
88 86 63
84 84 61
76 79 57
70 75 53
62 69 47
64 71 49
56 65 43
60 67 47
50 61 45
35 54 44
34 54 45
36 58 48
36 57 47
37 58 48
36 57 47
38 61 51
36 58 48
40 64 52
42 66 54
45 70 57
49 76 61
49 75 60
51 78 62
52 80 63
56 86 67
53 81 63
57 86 67
57 86 67
61 92 72
58 88 68
59 88 69
60 91 71
56 85 66
59 90 70
61 92 72
59 89 69
60 90 70
63 94 73
60 91 71
59 90 70
59 89 70
64 97 76
60 91 70
62 94 74
63 96 75
64 97 76
133 130 110
205 179 157
215 185 162
226 196 173
229 201 177
232 203 180
238 208 185
242 211 189
244 213 190
248 216 193
247 217 194
248 217 195
249 218 194
255 229 204
255 253 222
255 255 242
255 255 240
255 253 224
255 229 205
243 215 193
238 209 188
236 208 187
233 206 186
232 205 185
233 205 185
178 145 114
155 115 71
159 118 73
158 118 73
159 119 73
159 119 74
159 119 74
159 119 74
157 117 73
155 116 72
156 116 72
153 115 71
152 114 71
149 112 70
148 112 70
146 110 68
144 108 67
140 106 66
137 104 64
135 102 64
131 100 62
129 98 61
124 95 59
119 91 57
114 88 55
106 82 51
103 81 51
95 75 47
88 71 44
86 69 43
87 70 44
80 65 40
77 62 38
70 59 36
62 83 63
59 88 68
59 89 69
59 89 69
60 90 70
58 87 67
61 91 70
56 85 65
57 85 66
59 90 70
63 95 74
65 99 77
61 92 72
62 95 74
64 97 76
67 101 79
63 95 74
60 91 71
61 92 72
61 93 73
63 96 75
61 92 71
62 95 74
62 94 73
60 92 72
62 94 73
61 93 73
61 93 73
65 98 77
63 93 74
75 58 79
81 54 85
85 56 89
89 59 93
92 60 96
94 62 98
95 62 99
96 63 100
99 65 103
99 65 103
98 64 102
100 65 104
100 65 104
101 66 105
101 66 105
102 67 105
103 68 106
104 69 106
105 70 108
103 68 106
101 66 104
101 66 104
100 65 104
99 65 103
98 64 102
97 63 100
96 63 99
93 61 96
93 60 96
92 60 95
89 58 91
89 58 91
143 119 119
121 107 95
186 164 145
179 157 139
145 127 113
86 77 69
115 108 97
62 92 72
58 88 69
58 88 68
61 92 72
63 95 74
62 93 72
62 93 72
59 89 70
61 93 72
62 93 73
62 93 73
58 87 68
58 88 68
59 89 69
59 89 69
58 87 67
56 83 65
56 85 67
52 79 62
46 70 55
42 65 52
32 49 43
17 20 30
15 18 27
19 20 33
23 23 39
24 24 41
26 26 44
26 26 45
28 28 48
28 28 47
28 28 47
27 27 46
27 27 45
26 26 45
25 26 43
25 26 43
23 24 40
21 23 36
19 21 33
17 20 30
16 19 28
17 20 29
16 18 27
16 19 28
17 20 28
26 41 36
32 50 42
32 51 42
34 55 45
33 53 44
35 56 46
37 57 46
43 66 53
48 73 58
48 73 58
54 81 63
52 79 62
58 88 69
60 91 70
61 92 71
60 91 70
60 90 70
60 90 70
60 91 71
62 93 72
61 92 71
64 96 75
59 88 69
64 96 74
63 94 73
63 95 74
59 89 69
61 93 72
65 97 76
59 89 70
60 91 71
63 95 73
61 92 72
61 92 72
62 93 72
61 91 71
59 89 69
58 86 67
62 94 73
63 95 74
64 97 75
64 96 75
61 92 71
64 96 75
62 94 73
62 92 72
61 92 72
62 94 74
75 88 68
141 51 35
164 54 36
176 57 39
182 59 40
193 63 43
198 64 44
203 65 44
201 65 44
201 65 44
208 67 46
202 65 44
205 66 45
210 68 46
210 68 46
210 67 46
207 66 45
210 68 46
206 67 45
208 67 46
205 66 45
201 64 44
198 64 44
194 62 42
195 63 43
192 62 42
188 60 41
182 59 40
181 59 40
168 55 37
167 55 37
160 52 35
161 53 36
142 47 31
131 45 30
122 42 29
106 38 25
88 57 44
54 82 65
53 80 64
58 87 69
56 85 67
54 83 65
57 86 67
59 89 70
59 90 70
60 90 70
63 94 73
61 92 72
63 94 73
63 95 74
63 95 74
62 93 72
62 93 73
62 94 73
63 94 73
61 92 71
60 90 70
60 91 71
63 95 74
63 95 74
62 94 73
63 93 72
64 96 75
60 91 71
66 100 77
66 99 77
63 96 75
58 88 68
63 94 73
58 87 68
61 92 72
66 98 77
64 97 76
62 94 73
63 95 74
63 95 74
60 91 71
64 96 75
65 98 76
60 90 70
61 92 72
61 92 71
59 89 69
61 92 71
60 91 71
61 92 72
60 90 70
62 94 73
63 95 74
63 95 73
61 92 71
61 92 71
60 91 71
63 94 73
58 88 68
60 89 69
60 89 69
61 91 70
60 90 70
63 95 73
64 96 74
60 89 69
60 90 69
58 87 68
60 90 69
59 87 67
56 83 64
55 80 62
55 82 63
56 83 63
53 78 59
57 83 63
53 78 59
48 70 52
44 65 50
41 61 47
29 40 33
24 23 24
36 32 31
76 75 53
86 84 60
87 84 61
91 88 64
90 87 64
96 92 67
95 91 66
90 87 63
86 86 62
83 83 59
80 80 56
73 76 52
66 71 47
64 69 46
62 67 45
60 68 45
57 65 42
51 60 38
50 60 39
40 51 38
30 47 39
30 48 40
29 45 37
34 54 45
35 54 45
35 55 46
35 57 47
36 58 47
39 62 51
42 65 53
42 66 53
44 68 54
51 78 62
51 79 62
51 77 61
56 85 67
60 90 70
57 85 67
58 88 68
61 91 71
58 88 69
59 90 70
58 87 68
57 87 67
62 93 73
59 90 70
58 87 67
62 93 73
62 93 72
58 88 69
58 88 68
58 88 68
59 89 69
61 92 71
61 93 73
61 92 72
60 91 71
65 98 77
156 143 122
200 174 151
212 184 161
219 190 166
226 196 171
229 199 176
235 204 181
240 210 186
244 213 189
244 213 190
244 213 189
245 214 191
247 216 193
255 228 203
255 243 214
255 255 228
255 255 225
255 241 213
252 222 198
243 213 191
237 208 187
235 208 187
235 207 186
232 204 184
184 153 125
155 116 71
157 117 72
159 119 73
158 119 73
160 119 74
158 118 73
158 118 73
157 118 73
156 117 73
156 117 73
154 116 72
152 114 71
150 112 70
148 111 69
146 110 68
143 108 67
141 107 66
137 104 65
137 103 64
131 99 62
128 98 61
122 93 58
120 92 57
118 90 57
113 87 54
106 83 52
97 76 48
92 73 46
87 70 44
82 66 42
80 65 40
79 64 40
69 57 34
60 75 56
57 85 66
56 85 65
61 92 71
60 91 70
57 86 66
57 86 67
57 85 66
60 91 71
56 85 66
57 87 68
63 96 75
62 94 73
62 95 74
60 91 71
64 97 76
63 95 74
62 94 73
64 97 76
62 93 73
61 92 72
59 89 70
61 93 72
65 98 77
61 93 72
61 93 73
63 96 75
63 96 75
62 94 73
65 98 77
62 92 73
74 52 78
79 53 82
82 55 86
87 58 91
89 59 92
92 60 96
94 62 98
95 62 98
97 63 100
97 63 100
97 64 101
98 64 101
99 64 102
99 65 102
101 66 105
100 65 103
100 65 103
100 65 104
101 65 103
99 64 101
100 65 103
98 63 101
97 63 100
96 62 98
94 61 97
94 62 98
93 61 95
92 60 95
91 59 93
89 58 92
88 58 91
87 57 89
133 110 113
116 101 89
180 157 139
177 154 136
158 140 124
62 53 48
112 102 91
63 92 72
62 94 73
63 94 73
60 91 70
60 91 71
62 94 73
60 90 70
60 90 70
60 90 70
64 97 75
61 91 71
60 90 70
59 88 68
62 93 72
59 89 69
57 85 65
54 81 63
53 80 62
51 77 60
47 72 57
42 65 52
34 54 44
31 49 42
17 23 28
13 17 25
16 18 27
18 20 31
19 21 33
19 21 34
20 22 35
22 23 37
21 23 37
23 24 39
21 23 37
21 23 36
20 22 34
20 22 34
18 20 31
17 20 30
16 19 28
17 19 28
16 19 27
15 18 27
15 18 26
17 24 26
24 38 33
28 45 37
30 47 39
29 45 37
31 49 41
36 57 47
39 61 50
43 66 53
44 68 53
47 71 56
52 79 62
56 84 65
56 83 64
55 82 64
58 87 67
59 88 68
60 91 71
60 89 69
62 93 73
62 93 72
64 97 76
58 87 68
62 93 73
61 92 72
62 94 73
64 97 75
64 96 74
62 93 72
60 90 70
59 88 69
62 95 74
61 92 72
63 94 73
62 93 72
56 85 66
64 97 75
62 93 72
60 90 70
64 96 75
58 88 69
62 93 72
62 94 73
62 92 72
62 94 73
58 86 67
64 96 74
60 89 70
63 94 74
63 95 74
63 89 69
126 57 41
154 51 34
165 54 36
175 57 38
180 59 39
190 62 42
191 62 42
195 63 43
194 63 42
205 66 45
203 66 45
204 66 45
199 64 43
201 65 44
200 64 43
200 64 44
195 62 42
193 62 42
197 63 43
195 63 43
192 62 42
195 63 43
191 61 42
185 60 41
184 60 41
177 57 39
177 57 39
170 56 38
167 54 37
155 51 34
148 49 32
149 49 33
134 45 30
123 42 28
109 38 25
95 34 22
72 67 53
48 73 59
53 82 65
52 80 64
52 79 62
54 81 64
55 84 66
58 88 69
58 87 68
59 88 69
61 92 72
61 91 71
60 90 71
64 97 75
64 96 75
61 92 72
62 92 72
59 87 68
63 95 74
62 94 73
61 91 71
60 90 70
66 99 78
65 98 76
62 93 72
62 93 72
60 91 71
62 93 72
62 94 73
64 97 76
62 93 73
62 93 73
63 95 75
62 93 72
63 95 74
69 104 81
62 94 73
64 96 75
61 91 71
61 92 71
61 92 71
62 93 73
66 99 77
61 91 71
59 89 69
59 89 70
62 93 72
61 91 71
63 95 74
60 90 70
63 94 73
63 94 73
60 91 70
64 96 75
60 90 70
62 94 73
59 89 69
62 93 72
65 97 75
63 95 73
60 91 70
61 91 70
61 92 71
60 89 69
58 86 67
60 89 69
59 88 68
57 85 66
56 83 64
58 86 66
54 80 61
63 94 73
59 86 66
56 84 64
53 78 59
57 83 63
54 81 62
52 76 58
48 70 53
43 63 48
36 54 42
29 43 34
23 26 24
31 31 27
52 54 38
65 69 46
68 71 47
69 72 49
67 71 48
70 72 49
70 73 49
64 70 46
70 74 49
62 68 44
62 68 44
62 68 44
61 68 44
60 68 44
60 66 43
49 58 38
44 53 35
32 47 37
27 42 34
29 47 38
30 47 39
32 51 42
35 54 45
36 57 47
35 56 46
35 56 47
39 61 50
42 66 54
42 65 52
46 71 57
49 75 60
54 82 65
53 81 64
53 81 63
55 83 65
57 86 67
56 85 66
56 85 66
60 91 71
61 92 72
57 85 66
61 92 72
55 83 65
58 88 69
57 86 67
59 89 69
60 90 70
61 92 72
63 95 74
60 91 71
61 92 72
59 89 70
62 94 73
62 93 73
62 93 72
61 92 72
65 98 76
173 156 135
206 180 158
214 185 161
221 193 169
227 198 174
229 200 177
235 206 183
233 202 178
234 203 179
238 208 184
240 210 186
239 209 185
243 213 190
246 215 191
255 227 202
255 232 205
255 230 203
253 223 198
241 213 190
238 209 187
234 206 185
233 205 184
233 205 184
193 161 135
155 116 72
157 117 73
159 118 73
160 119 74
159 119 73
159 119 73
160 120 74
158 118 73
156 117 72
156 117 72
154 116 72
151 114 71
151 113 70
148 112 69
146 110 68
142 107 66
140 106 66
139 105 65
136 103 64
132 100 62
128 97 61
124 95 59
120 92 57
119 91 57
112 86 54
106 83 52
99 78 49
91 73 46
84 68 42
83 67 42
75 61 38
79 64 40
70 58 34
67 77 56
57 86 67
59 89 69
58 88 68
59 89 69
59 89 69
58 88 68
60 91 70
58 88 68
59 89 70
58 87 68
57 86 67
62 94 73
63 96 75
66 100 78
63 96 75
64 97 76
65 99 77
58 88 69
61 93 72
63 95 75
62 93 73
60 91 71
63 95 74
63 95 74
62 94 73
65 99 77
62 93 73
64 97 76
62 94 74
65 98 76
63 92 74
71 53 75
77 51 79
82 54 85
85 56 88
87 57 90
90 59 93
92 60 94
94 61 96
95 62 98
94 62 97
97 63 99
96 63 99
97 63 99
97 64 101
97 63 99
99 64 102
97 63 100
98 63 99
97 63 99
98 64 101
96 62 98
97 63 100
96 62 98
94 61 96
93 60 95
94 61 97
92 60 94
91 59 93
89 58 91
87 56 89
88 57 90
84 54 85
110 86 97
129 111 97
173 152 133
170 151 132
156 138 123
66 57 49
100 95 84
64 92 72
59 89 69
61 92 71
59 88 69
60 91 71
62 93 72
61 92 71
60 91 71
58 88 68
61 92 71
60 91 70
62 93 72
62 93 72
59 88 68
57 85 66
54 81 62
55 83 64
57 85 66
53 79 61
49 73 57
45 68 54
37 56 45
33 53 43
25 39 33
18 26 27
15 19 26
17 19 28
15 18 26
17 19 28
16 19 28
16 19 28
16 19 29
16 19 29
17 19 29
16 19 28
16 19 28
16 19 28
16 19 28
17 19 29
16 19 27
16 19 27
15 18 27
14 17 24
19 28 27
21 34 28
24 38 31
30 47 39
28 43 36
32 50 41
32 51 41
38 59 48
46 70 56
49 75 59
48 72 57
53 80 63
55 83 64
57 84 65
56 85 66
58 87 67
59 88 68
58 87 67
59 88 68
64 96 75
63 96 75
60 91 70
59 89 70
59 89 69
58 88 69
62 93 72
63 95 74
61 92 72
64 96 75
64 95 74
63 94 73
62 94 73
62 93 73
64 97 76
64 97 75
59 89 69
61 92 72
60 91 71
61 91 71
61 91 71
60 91 70
59 89 69
63 94 73
62 93 72
66 100 77
63 94 73
61 92 71
59 88 68
59 88 68
63 94 73
62 93 72
62 92 72
100 70 53
138 46 30
154 51 34
165 54 36
173 57 38
181 59 40
182 60 40
191 62 42
190 62 41
194 63 42
191 62 41
191 61 41
195 63 42
187 60 40
188 60 41
191 61 41
186 60 40
190 61 41
190 61 41
181 58 39
189 61 41
189 60 41
180 58 39
175 56 37
171 55 37
170 55 37
171 56 37
159 51 34
164 54 36
151 49 33
146 49 33
126 42 28
123 42 28
111 38 25
106 37 24
101 41 29
50 69 56
49 75 61
50 77 62
51 78 62
48 74 59
53 81 64
56 85 67
56 85 67
58 88 69
59 89 70
60 90 71
61 92 72
61 91 71
63 95 74
58 88 68
63 94 73
63 95 74
59 89 69
62 93 72
60 91 70
61 92 72
65 97 76
63 95 74
62 93 72
63 93 72
61 92 71
65 99 77
64 96 75
61 92 72
61 91 71
61 92 71
66 99 77
60 91 71
62 94 73
61 92 71
65 97 75
64 97 75
62 93 72
61 91 71
60 91 71
59 89 69
63 96 75
60 90 70
60 91 71
60 90 70
60 91 71
61 92 72
62 93 72
65 97 75
59 89 70
60 90 70
61 92 72
63 95 74
60 90 70
63 95 74
63 95 74
66 98 76
62 93 73
61 91 71
60 90 69
59 89 69
59 88 68
63 95 73
64 96 74
61 91 70
61 91 70
60 89 69
58 86 67
59 87 67
56 84 65
56 83 64
59 87 67
57 85 65
58 86 66
58 86 66
52 77 59
51 75 57
53 77 59
54 79 60
48 70 54
42 61 46
33 49 37
26 38 30
21 29 24
23 22 21
45 45 32
55 58 38
59 64 41
59 64 41
56 63 40
59 65 42
57 63 41
59 65 42
62 68 44
63 67 43
59 63 41
57 62 40
54 60 39
45 51 34
33 41 30
26 41 33
27 42 35
28 44 36
27 43 35
31 49 40
31 50 41
30 48 39
32 51 42
37 59 49
38 58 47
41 65 52
44 68 54
45 69 55
50 77 60
56 85 67
55 83 65
55 84 66
56 84 66
56 85 67
57 85 66
57 85 66
57 86 67
57 85 66
60 90 70
58 88 68
60 90 70
57 86 67
59 89 70
60 91 71
59 88 69
60 90 70
62 93 72
64 96 75
59 89 69
60 90 70
60 91 70
62 94 73
58 89 69
56 85 66
59 89 69
71 95 75
178 156 135
203 176 152
214 186 163
218 189 165
221 191 167
226 197 174
230 201 177
234 203 180
235 205 182
238 208 185
235 205 181
235 205 182
237 207 183
238 208 184
241 210 186
242 212 188
242 213 189
240 211 188
236 208 186
237 207 185
234 205 183
231 203 182
195 164 137
153 114 70
155 116 71
159 119 73
159 119 73
158 118 73
158 118 73
159 118 73
158 118 73
157 118 73
155 116 72
153 115 71
152 114 71
152 114 71
148 112 69
147 111 69
145 109 68
141 106 66
139 105 66
137 104 65
131 100 62
128 98 61
126 96 60
122 94 59
117 89 56
111 86 54
107 84 53
97 76 48
93 74 47
87 70 44
80 65 41
82 66 41
80 65 40
70 58 35
65 73 52
59 89 69
61 92 72
59 89 69
60 91 71
57 87 68
60 90 70
59 90 70
61 92 71
61 92 72
59 89 69
61 92 71
58 88 69
62 93 73
64 97 76
63 95 74
63 95 74
64 97 76
63 95 74
64 96 75
60 91 71
62 95 74
63 96 75
63 95 74
63 96 75
61 92 72
60 91 71
61 92 72
62 93 73
66 100 78
65 99 77
63 95 74
62 93 73
69 51 73
73 48 75
80 53 83
83 55 86
87 57 89
86 57 88
91 59 93
90 59 92
92 60 94
92 60 94
93 60 95
94 61 96
94 61 96
94 61 96
95 62 97
94 62 97
96 63 99
94 61 96
96 62 98
95 62 97
93 60 94
91 59 93
92 59 93
91 59 93
91 59 93
89 58 91
89 58 91
87 57 90
86 56 88
84 54 85
83 54 84
80 51 80
84 57 83
127 111 99
145 129 113
157 137 119
143 127 110
94 84 76
85 79 70
62 90 70
60 90 71
61 93 72
58 88 68
58 88 68
61 92 72
58 88 68
59 89 69
60 90 70
60 90 70
61 91 71
59 88 68
59 88 68
58 87 67
59 88 68
60 89 69
59 89 68
57 85 66
51 77 59
48 73 56
48 73 57
43 65 51
34 52 42
29 45 37
27 43 35
21 32 28
15 21 23
16 18 27
17 19 28
15 18 26
16 19 27
15 18 26
16 18 26
15 18 26
16 18 27
15 18 27
16 19 27
16 18 26
15 18 26
13 16 23
15 20 25
17 23 24
20 32 26
21 33 26
25 38 31
24 38 32
25 40 33
28 44 36
32 49 39
40 60 48
44 66 51
47 71 56
51 77 60
57 85 66
55 83 64
60 90 70
60 90 70
60 91 70
59 88 68
59 88 68
60 89 69
57 85 66
62 93 72
60 91 70
59 88 69
61 92 72
60 90 70
58 88 68
62 94 73
59 89 69
61 91 71
63 94 74
64 96 75
63 95 74
64 96 75
60 90 70
60 89 69
63 94 73
62 93 72
60 90 70
64 97 76
63 95 74
62 92 72
60 89 69
63 94 73
60 91 70
63 94 73
61 91 71
62 93 72
62 93 72
64 96 74
62 92 72
59 88 68
63 95 73
61 91 71
72 81 62
121 44 30
146 48 32
157 52 34
165 54 36
175 57 38
173 57 37
181 59 39
182 60 40
183 60 40
187 60 40
184 59 40
179 58 38
189 61 41
183 59 39
184 59 39
182 58 39
185 60 40
179 58 38
176 57 38
172 55 36
174 56 37
171 55 37
168 54 36
166 53 36
159 52 34
152 50 33
150 50 33
150 49 32
137 45 29
130 44 28
121 41 27
105 37 24
104 36 24
100 36 23
84 43 32
42 66 54
44 68 55
48 74 60
46 71 57
49 75 60
51 77 62
50 75 60
53 81 64
56 85 67
56 85 67
59 89 69
59 88 69
61 91 71
59 87 68
63 94 73
62 93 72
64 96 74
66 99 77
61 93 72
62 93 73
66 97 75
60 91 71
61 92 72
60 90 70
61 91 71
62 94 73
62 94 73
58 88 68
60 91 71
61 92 72
59 89 69
60 91 71
66 99 77
60 90 70
60 90 70
62 94 73
62 92 72
63 95 74
65 98 76
61 91 71
62 92 72
61 92 71
60 89 69
60 91 71
63 94 73
63 94 73
60 90 70
62 93 73
62 93 72
63 95 74
59 89 69
62 94 74
59 89 69
61 92 71
62 92 72
65 98 76
60 89 69
60 90 70
59 89 69
57 86 67
61 92 71
61 91 70
62 93 72
59 88 68
59 89 69
59 88 68
57 85 66
60 89 69
59 88 68
59 88 68
56 84 65
59 87 67
56 83 64
60 89 68
56 83 64
56 83 63
56 82 62
53 76 57
56 83 64
54 79 59
48 69 52
41 60 46
37 55 42
29 44 34
21 32 26
20 27 22
19 23 20
30 31 23
46 49 33
52 56 36
53 56 36
54 59 38
53 57 37
46 52 33
47 51 33
43 47 30
31 36 24
24 31 24
22 34 27
24 37 30
29 45 36
30 47 38
29 46 38
29 45 37
32 50 41
30 47 39
35 54 43
34 53 43
41 62 50
45 68 54
49 75 60
45 68 54
50 76 60
52 79 62
57 85 67
55 83 64
57 86 66
55 82 64
59 89 69
60 91 71
60 90 70
59 90 70
62 93 72
62 93 72
60 91 71
59 90 70
57 86 67
56 85 66
59 89 70
60 91 71
60 90 70
60 90 70
60 91 71
61 92 72
62 93 73
61 93 72
60 91 71
59 90 70
61 93 72
62 94 73
70 95 75
178 155 133
195 170 147
207 180 156
208 181 156
219 191 168
219 190 165
224 195 171
231 200 176
228 199 175
229 201 177
235 206 182
231 201 176
231 202 178
234 204 181
237 207 184
234 204 180
234 204 181
233 204 182
230 201 178
229 200 178
228 201 179
201 172 147
153 115 71
158 118 73
159 119 73
160 120 74
158 118 73
159 119 74
159 119 74
159 119 73
158 118 73
157 118 73
154 116 72
153 115 71
151 113 70
148 111 69
147 111 69
145 109 68
141 106 66
140 106 66
136 103 64
131 100 62
129 98 61
126 96 60
120 92 57
116 89 56
109 84 52
104 81 51
98 77 48
94 75 47
84 68 43
87 70 44
81 66 41
78 64 39
76 62 38
68 73 52
57 87 68
58 87 68
58 87 68
58 88 68
60 91 71
57 86 66
57 86 67
55 84 65
56 84 66
57 86 67
60 90 70
58 88 69
60 91 71
59 89 70
61 92 72
62 94 73
63 96 75
62 93 73
61 93 72
63 95 75
65 99 77
61 93 73
63 96 75
65 99 77
63 95 74
62 93 73
61 93 73
62 94 73
61 92 72
64 96 75
63 95 74
63 96 75
64 96 75
63 55 67
74 49 77
77 51 79
80 53 83
83 54 85
85 56 87
86 56 88
88 58 90
90 59 92
90 59 92
91 60 93
91 60 93
92 60 94
91 59 93
92 60 93
93 61 95
94 61 95
93 61 96
92 60 93
93 60 94
93 61 95
92 60 94
91 59 93
90 58 91
89 58 90
87 57 89
87 57 88
85 55 86
85 55 87
81 53 82
82 54 84
78 51 79
76 49 75
130 111 102
104 92 81
154 136 118
136 122 105
108 97 84
84 84 72
63 93 73
63 95 74
61 92 72
60 90 71
57 86 67
59 89 69
57 85 66
57 85 66
61 91 71
62 94 73
61 91 71
56 84 65
59 89 68
56 85 65
59 88 68
57 85 66
55 81 62
57 85 65
52 78 60
48 71 54
51 76 59
44 65 50
37 55 43
33 50 40
28 43 35
21 33 27
20 32 27
18 28 23
16 25 23
15 20 22
14 17 23
14 16 24
14 16 23
15 17 25
14 16 24
15 17 24
14 16 23
12 16 20
14 19 21
15 23 20
15 23 19
18 28 23
21 33 27
26 39 32
25 39 32
27 42 34
33 51 41
34 52 41
43 65 51
47 71 55
51 77 60
53 80 62
56 83 64
60 90 69
60 91 70
59 88 68
59 89 68
58 88 68
57 86 67
57 86 67
59 89 69
59 88 69
59 89 69
61 91 71
59 89 69
60 90 70
61 92 72
61 92 71
64 96 75
64 96 75
58 88 69
64 96 75
63 94 73
62 93 72
62 94 73
62 93 72
64 97 75
60 90 70
61 93 72
61 91 71
63 95 74
62 93 72
62 94 73
61 92 72
61 92 71
62 93 73
60 90 70
60 90 70
60 90 70
61 92 72
63 94 73
63 93 72
62 92 71
60 88 68
59 87 67
61 90 69
95 58 43
123 42 27
139 47 30
150 50 32
162 53 35
166 54 36
170 55 36
168 55 36
171 56 36
173 56 37
178 58 38
176 57 38
175 57 37
173 56 37
180 58 39
171 55 36
170 55 36
168 54 36
173 56 37
167 54 36
165 53 35
164 53 35
155 50 33
159 52 35
146 48 31
144 47 31
144 48 31
134 44 29
129 43 28
122 41 27
111 38 25
97 35 22
96 34 22
84 32 21
55 55 45
42 65 54
41 63 52
45 70 57
44 69 56
45 69 56
53 81 64
49 76 60
55 84 66
54 80 63
55 82 64
56 85 67
58 87 69
60 90 70
59 89 69
59 88 69
59 89 69
62 93 73
62 93 72
63 94 73
60 91 71
62 93 72
65 97 76
64 96 75
60 90 70
61 91 71
60 91 70
62 93 72
61 92 72
61 93 72
60 90 70
62 93 73
60 91 71
63 94 73
63 95 74
59 89 70
63 96 75
60 89 69
57 86 67
63 95 74
59 89 70
60 90 70
63 95 74
65 98 76
63 95 74
65 98 76
63 95 74
62 93 72
59 88 69
61 92 71
64 96 75
62 93 72
60 90 70
62 93 72
62 93 72
62 93 73
60 90 70
61 92 71
60 90 70
62 92 72
62 93 73
62 92 71
59 88 69
60 89 69
61 90 70
59 88 69
57 86 66
63 94 73
61 91 71
60 90 69
61 90 69
59 88 67
58 87 67
58 87 67
55 82 63
59 88 67
56 83 63
55 82 62
56 82 62
54 78 59
55 81 61
54 78 59
51 74 56
45 66 50
41 59 44
36 53 40
29 43 33
25 37 29
19 28 22
17 26 21
16 24 19
18 24 19
21 27 21
20 26 19
19 25 19
19 30 24
18 27 22
17 27 21
19 29 23
23 36 29
24 38 30
25 39 31
27 42 33
32 50 40
32 51 41
33 50 40
40 61 49
42 64 50
42 64 50
46 70 54
49 73 57
50 76 59
53 79 62
55 83 64
56 85 65
59 89 69
60 90 70
58 87 67
57 87 67
58 87 67
61 91 71
62 93 72
57 86 67
60 90 70
59 90 70
60 90 70
59 89 69
61 92 71
57 85 66
60 90 70
60 90 70
59 90 70
61 92 71
60 90 70
58 88 68
59 89 69
59 89 70
61 92 72
59 89 69
61 92 72
59 89 69
88 101 82
176 155 134
192 167 143
203 176 153
209 182 158
214 187 163
216 188 164
222 193 169
223 194 170
229 200 176
225 196 172
226 198 174
228 199 175
231 201 177
229 200 176
227 198 174
232 203 180
228 200 176
225 196 174
226 198 175
224 196 174
206 176 151
154 115 72
156 116 72
158 118 73
158 118 73
160 120 74
159 119 74
159 119 74
159 119 74
156 117 72
155 116 72
153 115 71
153 115 71
151 114 71
149 112 69
145 109 68
145 109 68
141 107 66
140 106 66
136 103 64
132 100 62
130 99 62
127 97 60
124 95 60
119 91 57
110 85 53
106 83 52
101 79 50
97 77 49
82 67 42
83 67 42
84 68 42
80 64 40
76 62 38
70 73 52
58 88 68
60 90 70
59 89 70
58 87 67
58 88 68
60 90 70
60 91 71
58 88 68
60 91 71
61 93 72
62 94 73
60 90 70
57 87 67
61 92 72
60 91 71
60 91 71
60 90 70
61 92 72
62 94 73
61 92 72
59 90 70
63 96 74
61 92 72
61 93 72
64 97 75
61 93 72
60 90 71
64 97 75
63 95 74
62 94 74
64 96 75
63 95 74
65 97 76
63 95 74
62 63 68
70 47 74
73 48 75
77 51 79
82 54 84
83 54 85
84 55 86
87 57 89
87 56 88
86 57 88
90 58 91
90 58 91
90 59 92
90 58 91
89 58 91
89 58 90
90 59 92
91 60 94
90 58 91
90 59 92
89 58 90
89 57 90
88 57 90
86 56 88
86 56 87
84 55 86
85 56 87
85 55 87
81 53 82
79 52 80
78 51 79
75 49 76
75 49 76
103 84 88
98 85 75
131 118 101
125 114 98
115 105 92
69 71 60
54 81 64
55 84 66
59 89 70
59 90 70
55 83 64
58 87 68
55 83 64
56 84 65
60 90 70
58 87 67
61 92 71
59 89 69
57 86 66
59 88 68
54 80 62
54 81 62
56 83 63
56 83 63
56 83 63
55 82 63
54 81 62
48 71 54
45 67 51
42 62 48
33 50 38
33 51 40
27 41 33
20 31 25
19 29 24
16 24 20
16 26 21
16 24 20
13 19 16
15 22 19
13 20 17
12 18 16
15 22 18
13 20 17
19 27 22
21 32 26
21 32 25
23 35 28
24 37 30
31 49 39
32 49 39
38 57 44
44 66 51
46 68 53
51 76 59
54 81 62
53 80 61
54 80 62
55 82 63
64 96 73
58 87 67
58 86 67
58 86 67
59 88 68
59 88 69
59 89 69
59 89 69
62 93 72
63 94 73
61 92 71
57 86 67
60 90 70
59 88 69
62 94 73
64 97 75
63 94 73
62 94 73
62 94 73
61 92 72
62 93 73
62 93 72
64 96 74
61 92 72
60 90 70
61 92 71
64 96 75
63 95 74
58 88 68
64 96 75
60 90 70
57 86 66
64 96 75
61 91 71
60 90 70
60 90 70
60 90 70
61 91 70
65 97 76
59 87 67
61 90 70
58 86 66
57 85 66
64 84 65
110 41 27
126 43 26
146 48 31
154 51 33
159 52 34
162 53 35
163 53 35
163 53 35
165 54 35
164 53 35
172 56 37
165 54 35
166 54 35
167 54 36
163 52 34
165 53 35
156 50 32
167 54 35
152 50 32
156 50 33
154 50 33
144 47 31
143 47 31
135 44 28
134 44 28
127 43 27
125 42 27
115 39 25
98 35 22
98 35 23
91 33 21
84 31 19
77 48 37
41 63 52
42 67 55
40 63 52
42 65 53
45 69 56
47 72 58
48 74 59
52 80 64
53 80 63
58 87 68
57 85 67
57 86 67
58 88 69
63 95 74
61 91 71
62 93 73
64 96 75
62 93 73
62 93 72
62 94 73
65 97 76
61 91 71
61 92 71
59 88 69
62 93 73
58 87 68
62 94 73
62 93 73
62 92 72
62 94 73
61 92 72
62 94 73
58 88 69
61 92 72
62 94 73
63 94 73
66 99 77
61 92 72
61 91 71
60 90 70
59 88 69
63 95 74
62 93 72
60 91 71
60 90 71
61 92 72
60 90 70
63 95 74
63 95 74
61 92 72
58 87 68
64 96 74
61 92 72
62 93 72
62 94 73
65 97 75
65 98 77
63 95 74
59 89 70
65 98 76
61 92 72
61 92 71
58 87 68
61 92 71
62 92 71
62 92 71
57 85 66
57 84 65
60 90 69
58 87 67
58 86 67
62 93 71
59 88 68
59 88 68
55 81 62
58 85 66
58 86 65
53 79 60
55 82 62
57 83 63
56 81 61
54 79 59
52 75 56
53 78 59
49 71 53
48 69 52
45 66 49
40 59 45
33 48 36
32 48 36
26 38 29
26 38 29
24 36 28
27 41 32
20 31 24
23 34 27
25 38 29
26 39 31
27 42 34
29 45 35
31 48 37
33 51 39
38 59 46
36 55 42
43 64 50
43 65 51
47 71 55
46 69 53
49 74 57
51 76 58
53 79 61
55 83 64
57 86 66
57 85 65
59 89 68
57 86 66
64 96 74
59 89 69
61 91 71
59 89 69
63 95 74
63 94 73
58 87 67
58 87 68
58 88 69
60 91 70
61 91 70
61 92 71
62 94 73
60 91 71
59 88 69
60 90 70
60 91 71
61 92 71
60 90 70
58 88 68
61 92 72
59 89 70
59 89 69
59 90 70
60 91 71
62 86 67
166 147 125
185 162 139
195 171 146
207 180 155
208 183 158
208 182 157
217 187 164
215 187 163
219 189 165
218 190 166
224 195 170
221 193 169
225 198 174
224 194 169
222 194 170
227 198 174
222 194 171
222 194 171
223 196 173
207 179 154
153 115 73
157 118 73
158 118 73
160 120 74
159 119 73
159 119 74
158 118 73
157 117 73
156 117 73
156 117 73
155 116 72
155 116 72
151 113 70
149 111 69
147 111 68
146 110 68
142 107 67
140 106 66
137 104 65
133 101 63
125 95 59
124 95 59
124 95 59
117 90 56
113 87 55
110 85 54
103 81 51
94 74 47
88 71 44
84 67 42
81 66 41
76 62 38
74 60 37
70 67 45
64 94 73
60 90 70
66 99 77
62 93 73
56 85 66
57 87 67
61 92 72
61 92 72
57 87 68
58 88 69
64 98 76
60 92 72
58 89 69
59 90 70
56 84 66
65 99 77
62 94 73
62 93 73
64 97 76
65 98 77
62 93 73
64 98 76
62 94 73
63 96 74
61 93 73
63 95 74
62 93 73
60 91 71
63 95 74
62 94 73
66 99 77
65 98 76
61 92 72
60 91 71
65 98 77
58 73 66
63 43 66
72 48 75
74 49 76
78 51 80
80 53 82
82 53 83
84 55 86
83 54 84
86 56 88
85 56 87
86 56 88
85 56 86
89 58 91
87 57 88
88 57 89
86 56 86
88 57 89
88 57 89
87 57 88
87 57 89
85 55 85
85 55 86
85 55 85
84 55 85
80 52 81
80 52 80
80 52 81
75 49 75
75 49 75
76 49 76
73 48 74
70 45 70
65 45 64
115 102 90
70 63 53
115 105 92
74 70 59
52 61 53
54 82 65
54 83 65
54 82 64
55 83 65
59 89 69
60 91 71
57 85 66
55 83 64
56 84 65
57 86 67
61 92 72
59 89 69
58 86 67
58 86 67
59 88 68
59 87 67
56 84 64
54 80 61
59 87 66
59 87 66
57 84 64
55 81 62
52 77 58
54 80 61
48 70 53
43 63 48
37 56 42
36 53 41
32 48 37
29 45 35
25 38 30
20 31 24
20 31 24
23 35 28
20 30 24
21 32 25
19 29 23
23 35 28
24 36 29
26 40 32
33 49 38
36 54 42
38 57 44
40 60 46
41 60 46
49 73 56
52 78 60
57 84 64
54 81 62
56 83 64
59 88 68
54 80 61
58 87 67
56 84 65
59 88 68
57 85 66
61 92 71
59 89 69
59 89 69
61 92 71
58 87 67
59 89 70
65 98 76
60 90 70
58 88 68
66 99 77
65 98 76
61 91 71
64 96 75
62 93 72
62 94 73
60 90 70
65 98 76
59 88 68
60 90 70
61 92 72
64 96 75
62 94 73
63 95 74
60 90 70
63 94 73
62 92 71
59 89 69
62 92 71
59 88 68
60 90 70
58 86 67
60 89 69
61 91 71
61 90 70
61 91 71
63 93 72
62 92 71
62 93 72
61 91 70
60 89 69
58 85 66
72 60 45
100 35 21
126 42 27
137 46 29
144 48 31
150 49 32
155 51 33
154 51 33
155 51 32
160 52 34
154 50 32
156 51 33
155 50 32
153 49 32
155 50 32
152 48 31
148 48 31
150 49 31
148 47 30
143 46 30
138 45 28
136 44 28
129 43 27
127 42 26
117 39 24
109 37 23
106 37 23
93 33 20
91 33 21
85 31 19
80 31 19
77 33 22
41 53 44
37 57 47
40 63 53
41 64 53
42 66 54
44 69 56
45 69 55
48 74 59
51 77 62
51 78 62
53 81 64
56 84 66
56 84 65
57 86 67
59 88 69
61 92 72
60 90 71
62 93 72
62 93 73
57 86 67
58 87 67
63 95 74
61 91 71
62 92 72
61 92 72
62 93 72
61 92 72
61 92 71
60 89 70
63 94 74
60 91 71
61 93 72
60 91 71
62 92 72
61 93 72
60 90 70
62 93 72
65 98 76
60 90 70
62 93 72
61 93 73
59 89 69
61 91 71
65 98 77
62 94 73
58 88 68
60 91 71
61 92 71
64 97 76
62 93 72
61 91 71
60 90 70
64 97 75
60 91 71
63 95 74
62 93 72
63 94 73
61 92 71
61 91 71
65 97 75
61 92 72
62 94 73
61 92 71
61 91 71
60 90 69
61 91 71
60 90 70
60 89 69
59 88 68
61 91 70
59 89 69
59 88 68
64 95 73
59 88 68
60 89 69
56 83 64
58 86 66
59 87 67
58 85 65
56 83 63
55 82 62
53 78 60
53 77 58
53 78 59
55 82 62
54 80 60
52 76 57
52 76 57
52 76 57
50 73 54
48 70 52
45 66 50
44 65 48
43 63 47
42 61 46
41 60 44
45 67 50
42 62 46
41 60 45
42 62 46
43 64 48
43 63 48
45 67 50
47 69 52
50 75 57
54 81 61
57 84 64
57 85 65
55 82 63
56 83 63
58 87 67
60 89 68
60 90 69
59 88 68
56 85 66
60 89 69
56 84 65
61 91 70
58 87 68
60 91 70
62 92 72
64 96 74
63 95 74
59 88 68
58 87 67
59 89 69
60 90 70
67 101 79
61 92 71
60 90 70
62 94 73
61 93 72
62 93 72
57 86 67
59 90 70
59 89 69
58 87 68
60 90 70
58 88 68
60 91 70
62 93 73
60 90 70
67 92 72
161 141 119
178 155 132
187 162 138
201 176 152
206 179 154
208 182 158
206 180 155
213 186 161
218 190 166
216 188 164
216 189 165
222 194 170
219 191 167
216 189 164
223 195 171
219 191 167
218 190 167
215 188 164
210 182 159
159 122 82
157 117 73
158 118 73
159 119 73
160 119 74
160 120 74
159 119 73
158 118 73
157 117 73
156 117 72
155 116 72
155 116 72
152 114 71
150 113 70
148 111 69
146 109 68
141 107 66
140 106 66
137 104 65
135 103 64
132 100 63
126 96 60
119 91 57
117 90 56
113 87 54
111 86 54
104 81 51
92 73 46
92 73 47
85 68 43
84 68 42
82 66 41
72 59 36
68 61 39
58 86 67
60 91 71
63 95 75
59 90 70
60 90 71
61 93 72
61 93 73
59 89 69
61 93 72
61 93 72
57 86 67
59 89 69
63 96 75
59 89 70
62 94 73
61 93 72
66 99 77
63 96 75
61 93 73
63 95 74
61 93 73
61 92 72
63 95 75
61 93 73
63 95 74
61 92 72
59 89 69
59 90 70
62 94 74
64 97 76
59 90 70
61 93 73
64 97 75
58 87 68
63 96 75
64 96 75
60 86 70
59 43 63
66 44 68
69 46 71
73 48 74
76 51 78
77 51 78
79 52 80
82 54 84
84 55 86
84 55 85
83 54 84
83 54 83
84 55 85
84 55 86
84 54 84
87 57 88
85 55 85
84 55 84
84 54 84
84 55 86
83 54 83
82 54 83
82 53 83
79 51 79
78 51 79
77 50 77
77 50 77
74 48 74
71 47 72
69 45 69
69 44 67
64 42 64
61 40 60
77 63 68
94 85 72
67 63 53
63 60 52
47 66 55
47 72 57
51 78 61
56 86 68
57 86 68
57 86 67
55 83 65
56 85 66
58 88 68
57 86 66
60 89 69
57 85 66
57 85 66
61 91 71
60 89 69
57 86 66
57 86 66
57 86 66
57 85 65
61 91 70
59 87 67
54 80 61
56 82 63
55 81 62
55 80 60
57 83 63
50 74 56
51 75 57
50 73 55
47 70 53
46 68 52
44 65 49
40 59 45
39 57 44
36 54 41
39 58 45
36 54 42
40 59 45
43 62 47
43 63 48
46 68 51
46 67 51
51 75 57
51 75 56
50 74 56
55 81 62
55 81 62
61 90 69
55 82 63
56 84 64
55 82 63
57 84 64
57 86 66
57 84 65
56 83 63
57 86 66
57 86 66
58 87 67
56 84 65
59 88 69
61 92 72
67 100 78
57 86 67
62 92 71
59 89 69
64 96 75
61 92 72
62 93 73
63 94 73
62 92 72
59 89 69
62 92 72
61 92 72
61 91 71
62 92 72
62 94 73
61 92 72
64 95 74
61 92 71
63 94 73
59 89 69
62 93 73
62 92 72
64 96 75
60 90 70
60 89 69
66 99 77
59 89 69
60 90 70
61 90 70
59 88 68
58 86 67
62 93 72
63 93 72
60 90 70
64 96 74
57 83 64
56 84 65
60 84 65
84 44 31
104 36 22
122 41 26
129 43 27
134 44 28
138 46 28
141 47 29
149 49 31
141 46 29
144 47 30
143 47 30
139 45 28
145 47 30
145 46 29
140 45 29
139 45 29
130 42 27
133 43 27
127 42 26
126 42 26
123 41 26
119 40 25
115 39 24
109 37 23
98 35 22
87 32 20
85 32 19
82 31 19
79 30 18
72 28 17
56 47 38
38 58 48
38 59 48
38 59 49
41 63 52
44 68 56
44 69 56
44 69 56
45 70 56
52 78 62
50 75 59
53 79 62
58 88 69
59 87 68
59 88 69
58 87 68
61 91 70
60 90 70
60 91 71
61 92 72
64 97 75
62 92 72
64 96 75
60 91 71
61 91 71
61 91 71
66 99 77
62 93 73
57 86 67
63 94 73
64 96 75
62 94 73
63 95 74
58 87 68
63 95 74
65 98 76
63 95 74
60 91 71
64 96 74
62 94 73
63 94 73
61 92 72
61 92 71
62 94 73
59 88 69
64 96 75
61 93 72
61 92 72
61 92 72
60 90 70
62 94 73
62 93 72
63 94 73
60 91 71
60 90 70
61 92 72
62 93 73
62 94 73
59 89 69
64 97 75
61 92 71
63 95 74
64 95 74
62 94 73
60 90 70
59 89 69
62 93 71
64 95 74
60 91 70
59 89 69
61 91 70
61 90 69
57 85 65
62 93 72
61 91 70
60 88 68
58 87 67
59 87 66
56 83 64
56 82 63
59 87 67
57 84 64
56 82 62
58 85 65
52 76 58
61 90 68
55 81 61
56 81 61
53 78 58
57 83 62
53 78 59
56 83 62
53 78 59
52 76 57
51 74 55
51 75 55
54 80 59
53 77 57
51 75 56
55 81 61
53 78 58
53 79 59
53 79 59
54 79 59
53 79 60
55 82 62
52 77 59
58 86 65
56 84 64
57 85 65
58 86 66
57 84 64
60 89 68
57 86 66
56 83 64
58 87 67
56 84 65
57 85 66
58 87 67
58 87 67
59 89 69
57 86 67
62 93 72
60 90 70
59 89 69
63 94 73
58 87 67
62 93 72
57 86 67
59 89 69
57 86 67
59 89 69
59 88 69
63 95 74
62 93 72
63 95 74
60 91 71
61 91 71
59 88 69
59 89 69
63 94 73
63 95 74
60 91 70
58 86 67
142 129 108
171 150 126
185 163 138
194 170 146
199 174 150
200 174 149
207 180 156
208 181 157
206 179 154
214 187 162
212 185 161
214 187 162
214 186 162
213 186 162
214 186 162
217 189 166
212 186 162
205 178 153
156 120 80
155 116 71
158 118 73
157 118 73
160 120 74
160 120 74
157 118 73
157 118 73
158 118 73
156 117 72
156 117 73
153 115 71
151 114 70
151 113 70
148 112 69
144 108 67
142 107 66
140 106 65
136 103 64
133 101 63
129 98 61
126 96 59
123 94 59
119 92 57
115 89 56
108 84 52
102 80 50
96 76 48
87 70 44
87 70 44
87 69 43
80 64 40
80 64 40
76 66 42
56 81 63
60 91 71
57 87 68
64 97 75
59 89 69
56 86 67
58 89 69
59 89 69
60 91 71
61 93 73
60 91 71
58 87 68
63 95 75
62 94 74
57 86 67
62 94 73
61 93 73
64 96 75
61 92 72
61 92 72
63 95 74
61 93 73
61 93 73
64 96 75
61 92 72
66 100 78
62 93 72
61 93 73
61 92 72
64 97 76
62 94 73
63 95 74
64 97 76
61 92 72
61 92 72
60 90 70
63 96 75
64 97 75
55 54 61
60 41 63
64 43 66
70 47 71
70 46 71
74 49 75
77 51 79
78 51 78
76 50 77
80 52 80
80 52 80
82 54 84
82 53 82
82 53 82
82 53 82
82 53 82
81 53 81
79 52 79
80 52 80
80 52 80
82 53 83
76 50 76
77 50 77
75 49 74
76 50 76
72 47 72
72 47 72
70 46 70
70 46 70
67 44 67
64 42 64
61 41 61
56 37 55
53 35 53
59 47 53
59 50 51
37 34 37
46 70 57
48 74 59
52 80 64
53 81 64
55 84 66
55 84 66
56 85 66
57 86 67
57 86 67
58 87 67
56 84 65
59 89 69
58 86 67
57 85 66
57 85 66
56 84 64
61 90 69
57 85 66
59 88 67
58 87 67
57 84 64
55 82 63
56 83 63
53 79 60
58 85 64
57 84 64
54 79 60
54 80 61
54 79 60
53 78 59
55 81 61
54 79 60
53 78 59
51 74 56
50 73 55
50 74 56
53 78 59
50 74 56
52 76 58
55 80 61
57 84 64
55 82 62
57 84 64
54 80 61
56 83 63
58 86 65
57 85 64
61 90 69
57 85 65
58 86 66
60 89 69
58 87 67
58 87 67
57 84 65
62 93 72
60 90 70
59 88 68
62 92 72
60 90 70
61 91 70
60 90 70
60 90 70
59 88 69
58 86 67
64 96 75
65 97 75
58 88 68
59 89 69
60 90 70
62 94 73
59 88 69
63 95 74
59 88 69
61 92 71
63 95 73
62 93 72
61 91 71
62 93 72
63 94 73
64 96 75
59 89 69
60 89 69
60 90 70
64 97 75
62 93 72
60 90 70
61 91 70
63 94 73
58 86 67
62 92 71
61 91 71
61 91 70
59 88 68
62 91 70
59 88 68
63 94 73
60 89 69
57 84 65
55 82 64
51 65 50
81 36 24
99 35 21
105 37 22
117 40 25
129 44 27
128 43 26
133 44 27
133 44 27
133 44 27
130 43 27
130 43 26
131 43 26
125 41 25
130 43 27
126 41 25
122 40 25
116 39 23
118 39 24
111 37 22
110 37 22
103 35 21
96 34 20
93 33 20
71 28 16
79 30 17
78 30 18
72 28 16
71 28 16
47 41 32
38 59 48
37 57 47
35 53 44
39 58 48
39 62 51
42 64 53
43 65 53
45 68 54
47 71 56
47 71 56
53 79 62
52 78 61
54 81 63
54 82 64
57 86 67
58 88 68
62 93 72
61 91 71
63 94 73
63 94 73
62 92 71
62 92 71
62 93 72
61 90 70
61 92 71
62 92 72
63 95 74
62 94 73
60 91 71
65 98 76
65 98 76
65 97 76
62 93 72
62 92 72
64 96 75
65 98 76
62 93 73
65 98 76
61 92 72
62 93 72
61 91 71
64 96 75
63 94 74
65 97 76
61 92 72
60 90 70
62 93 72
62 93 73
61 91 71
62 94 73
61 92 72
60 91 71
66 99 77
60 91 71
63 94 73
59 89 70
63 95 74
63 95 74
60 90 70
62 93 72
64 96 74
64 97 75
62 92 72
62 93 72
64 96 74
61 92 71
58 88 68
60 90 70
58 88 68
60 90 69
61 92 71
59 89 69
58 87 68
61 91 70
60 89 69
61 91 70
60 89 69
58 86 66
59 88 68
59 88 67
56 83 63
60 90 68
58 86 66
59 87 66
54 81 61
56 83 63
56 82 62
56 83 63
57 84 63
55 82 62
57 83 62
56 83 63
55 82 62
55 82 61
53 78 59
55 81 61
54 80 60
55 81 61
57 83 62
54 79 60
60 88 67
59 88 66
59 88 67
57 85 64
55 82 63
57 85 65
56 83 63
57 84 64
59 88 67
61 92 71
59 88 67
59 88 67
56 85 65
57 86 66
54 82 63
55 83 64
55 83 64
59 89 69
60 89 69
58 86 67
62 93 72
64 96 74
60 90 70
60 90 69
56 85 66
59 89 69
58 88 68
59 88 68
58 87 67
59 89 69
63 94 73
60 91 70
62 93 72
66 99 77
65 97 76
60 89 69
62 94 73
61 91 71
58 87 67
62 94 73
61 92 71
61 91 71
61 91 71
58 88 69
123 117 96
163 144 120
175 154 129
181 158 133
196 171 147
195 169 144
201 176 152
203 177 152
205 179 154
203 178 153
208 182 157
209 183 159
210 183 159
206 180 156
208 181 157
206 180 156
202 176 152
161 125 87
157 117 72
158 118 73
158 118 73
159 119 74
159 119 74
159 119 73
157 118 73
158 118 73
157 118 73
155 117 73
154 116 72
151 114 70
150 113 71
147 110 68
145 109 68
144 109 68
140 106 66
137 104 65
134 101 63
133 101 63
128 97 61
124 95 59
119 91 57
112 87 54
108 83 52
107 84 53
97 77 48
87 70 44
91 73 46
84 68 43
82 66 41
76 62 38
74 63 39
59 82 63
56 86 67
60 91 71
58 88 69
56 85 66
60 92 71
62 94 73
61 93 72
59 89 70
59 90 70
62 94 73
63 96 75
62 94 73
58 88 69
63 95 75
60 91 71
58 88 69
58 88 69
63 95 74
63 95 74
62 94 74
63 95 74
64 96 75
60 91 71
66 100 78
63 96 75
65 99 77
64 97 75
62 94 73
64 97 76
61 91 71
57 87 68
60 91 71
63 95 74
61 93 72
60 91 71
61 93 72
61 92 72
64 97 75
59 76 67
57 39 60
62 42 64
65 44 67
68 45 69
70 46 71
72 48 73
76 50 77
77 50 78
76 50 76
76 50 77
78 51 78
77 50 76
79 51 78
76 50 76
80 52 79
80 52 80
77 51 77
75 49 75
78 51 78
75 49 74
75 49 75
72 47 71
73 48 74
73 48 73
71 47 71
66 44 65
68 45 68
65 43 64
61 41 60
58 39 57
55 36 53
50 34 50
46 31 45
39 27 39
36 25 37
35 41 39
44 69 56
43 68 55
50 77 61
48 74 59
49 76 60
52 79 62
56 85 66
60 90 70
61 92 71
56 85 66
58 87 67
55 82 64
57 85 65
59 89 69
56 83 64
54 81 63
57 85 66
54 80 62
56 83 64
55 81 62
57 84 65
53 78 60
53 80 61
58 86 66
58 86 65
55 81 62
53 78 60
56 83 63
55 81 62
55 81 61
54 80 61
55 82 62
54 80 60
57 84 63
54 80 61
56 82 62
55 81 61
54 80 61
57 84 64
56 83 64
56 82 62
56 83 63
56 82 63
56 83 64
58 85 65
60 88 68
60 89 68
57 84 65
59 88 68
58 86 67
59 88 68
62 93 72
62 92 71
61 92 71
63 93 72
65 98 76
59 88 68
60 90 69
60 89 69
61 91 71
62 93 72
58 87 68
61 91 71
61 91 71
64 96 75
60 90 70
61 92 71
59 88 69
65 98 77
63 94 73
60 89 69
62 93 72
59 88 69
61 91 71
67 101 79
63 95 74
65 97 75
64 96 74
61 91 71
62 93 73
66 98 76
66 99 77
58 86 67
64 95 73
61 90 70
60 89 69
63 93 72
59 89 69
63 94 73
61 90 70
63 93 72
62 93 72
59 87 67
62 91 70
60 89 69
62 91 70
60 88 68
57 84 64
53 78 60
54 82 64
54 62 48
70 31 19
78 29 16
93 33 19
104 36 21
109 38 22
110 38 23
115 39 24
115 39 23
120 40 24
119 39 24
117 39 23
115 38 23
118 39 23
112 37 22
108 36 21
103 35 20
101 35 20
95 33 19
91 32 19
85 30 17
85 31 18
74 28 16
76 30 17
66 26 14
69 27 15
66 26 14
58 38 29
32 48 40
35 53 44
37 57 47
33 51 42
37 57 48
38 59 49
38 59 49
43 67 54
47 71 57
48 72 57
51 77 61
55 83 65
55 82 64
57 85 66
56 84 65
57 84 65
64 95 73
63 94 72
64 95 74
66 98 76
62 92 72
64 95 74
60 90 69
65 97 76
62 92 71
60 90 70
62 94 73
64 96 75
65 97 76
62 93 72
64 96 75
59 89 69
63 95 74
62 93 72
60 90 71
61 91 71
63 95 74
65 97 75
61 91 71
61 92 72
60 91 71
63 94 73
66 99 77
65 97 75
65 99 77
62 94 73
62 93 72
61 92 72
60 90 70
62 93 72
60 90 70
62 93 72
63 95 74
62 94 73
61 92 71
63 95 73
65 97 76
60 91 71
66 98 76
61 92 72
62 93 72
60 91 70
64 96 75
61 91 71
61 92 72
62 94 73
64 96 75
61 93 72
66 99 76
63 94 72
60 90 70
63 94 72
61 91 70
59 88 68
58 87 67
61 91 70
61 91 70
61 91 70
62 91 70
58 87 67
58 85 65
57 85 65
57 84 64
56 83 64
58 87 67
57 85 65
57 84 64
56 83 63
57 85 64
56 83 63
59 87 66
57 84 63
57 84 64
58 85 64
60 89 68
60 89 67
57 84 64
59 87 66
57 85 65
58 86 65
55 82 62
57 84 64
57 84 64
60 88 67
55 82 63
57 84 64
56 84 64
57 84 64
56 84 64
57 85 65
60 89 68
59 88 68
60 90 69
63 94 73
61 92 70
57 86 66
58 87 67
57 85 66
58 87 66
58 88 68
59 88 68
59 89 69
61 92 71
65 97 75
59 89 68
58 88 68
60 91 71
59 88 68
62 93 72
64 96 74
59 89 69
62 93 72
61 92 72
58 88 68
62 93 72
60 91 71
61 92 71
62 94 73
61 92 72
61 92 72
61 92 71
61 92 71
59 88 68
57 86 67
62 93 72
99 105 84
155 137 113
175 153 130
175 154 129
186 163 138
188 164 139
191 166 141
194 169 143
198 173 148
203 178 154
204 178 153
203 178 153
203 177 153
200 175 151
197 172 147
200 174 150
160 125 88
156 116 72
158 118 73
159 119 73
159 119 73
159 119 74
158 118 73
159 118 73
157 118 73
156 117 73
156 117 72
152 114 71
151 113 70
150 113 70
148 111 69
147 111 69
144 108 67
141 107 66
137 103 64
133 101 63
130 98 61
126 96 60
122 93 58
121 93 58
114 88 55
110 85 54
106 82 52
97 77 48
86 69 43
89 71 45
85 69 43
83 67 42
76 62 38
78 63 39
64 81 61
55 84 66
58 88 69
61 93 73
58 89 69
61 93 73
60 91 71
60 92 71
59 89 69
60 91 71
59 90 70
62 94 73
62 93 72
62 93 73
61 92 72
59 90 70
59 90 70
60 92 72
61 92 72
69 105 82
66 100 78
59 90 70
64 96 75
61 92 72
63 95 74
63 95 74
59 89 69
63 95 74
62 93 73
66 99 77
61 92 72
66 100 78
65 98 76
62 94 73
64 97 75
63 95 74
61 93 72
60 91 71
60 91 71
61 92 72
64 95 75
48 41 53
54 37 56
59 40 61
59 40 60
64 43 65
67 44 67
69 46 70
72 48 73
72 47 72
68 45 67
74 49 74
73 48 73
75 49 75
74 48 73
73 48 73
72 47 71
75 49 74
72 47 71
72 47 71
72 47 71
73 47 72
71 47 71
69 45 67
65 43 64
64 43 64
65 43 64
62 41 62
60 40 60
58 39 57
53 36 53
50 34 49
45 31 44
36 26 36
35 26 36
34 25 35
36 54 46
39 61 50
43 67 54
43 67 54
47 72 58
48 73 57
50 76 60
55 82 64
53 80 62
58 87 68
58 86 67
58 87 68
56 83 64
63 95 73
58 88 68
57 85 66
57 85 66
56 85 65
58 86 66
60 89 69
58 85 65
61 91 70
56 84 64
55 82 63
56 84 65
58 86 66
62 92 71
56 83 64
58 86 66
58 86 66
58 85 65
60 90 69
56 83 63
57 85 65
55 81 61
56 83 64
59 87 66
56 83 63
57 83 63
57 85 65
57 85 65
58 86 66
57 85 65
57 84 65
57 84 65
57 84 65
59 89 68
63 94 73
59 88 68
59 89 69
60 89 68
58 86 67
60 90 69
58 87 68
59 89 69
60 90 70
61 92 71
62 93 72
63 94 73
64 95 74
60 90 70
60 90 70
60 90 70
65 98 76
62 93 72
61 92 71
62 93 73
59 88 68
62 92 72
64 96 75
61 91 71
63 94 73
61 91 71
61 91 70
65 98 76
63 95 74
63 95 74
62 94 73
61 92 71
63 94 73
60 89 70
62 92 71
60 89 69
62 93 72
61 91 70
63 94 73
60 90 70
62 92 71
60 89 69
58 87 67
66 98 76
61 91 71
58 87 67
59 88 68
57 84 64
57 83 63
57 84 64
58 86 66
56 82 64
56 82 63
50 73 57
46 68 53
48 55 43
63 33 23
72 28 15
78 29 16
93 33 19
93 33 19
99 35 20
103 36 21
101 35 20
99 34 20
101 35 20
98 34 20
90 32 18
93 33 19
89 31 18
83 30 17
78 29 16
72 27 14
76 28 15
70 27 15
68 27 14
63 26 13
65 26 13
63 26 13
56 25 13
47 40 31
36 50 41
34 52 42
35 52 43
36 55 46
34 52 43
37 55 45
38 59 48
38 57 47
39 59 48
45 68 54
50 75 60
52 77 61
56 83 65
57 86 67
59 90 70
58 87 67
60 90 70
61 90 70
61 91 70
62 93 72
65 97 75
59 88 68
60 90 70
61 91 70
59 89 69
61 93 72
64 96 74
64 96 75
62 94 73
61 93 72
59 88 68
64 96 75
61 92 72
62 93 72
60 90 70
60 90 70
63 95 74
60 91 71
65 98 77
63 94 73
61 91 71
63 95 74
63 95 74
60 91 71
62 94 73
65 97 76
64 96 74
62 93 73
62 93 73
64 97 76
63 94 73
64 96 75
60 90 70
59 89 69
64 97 75
59 89 69
62 93 73
63 95 74
61 92 72
61 91 71
62 93 72
60 90 69
68 101 78
62 93 72
62 94 73
63 95 73
64 97 75
60 89 69
61 92 72
63 94 72
59 89 69
62 92 71
63 94 73
64 96 75
61 91 70
60 90 70
61 92 71
59 87 67
59 88 68
59 88 68
58 86 66
59 88 68
58 87 67
58 87 67
59 89 68
57 84 65
58 86 66
59 88 67
61 91 70
59 87 66
61 91 70
57 84 64
58 86 66
59 87 66
60 89 68
59 87 66
59 87 66
59 87 66
58 86 65
57 86 65
60 90 68
59 88 68
56 83 63
57 84 64
61 92 70
59 88 67
59 87 66
62 93 72
58 86 66
60 89 69
57 86 66
61 92 71
60 90 69
60 90 69
59 88 68
60 89 69
57 86 66
62 93 72
61 91 70
59 89 68
56 83 64
61 91 71
61 92 72
60 90 69
58 88 68
60 90 69
62 94 73
59 88 68
58 87 67
61 92 72
60 91 71
59 89 69
61 92 71
62 94 73
59 88 68
61 92 71
58 88 68
61 91 70
57 86 67
58 88 68
61 92 72
59 89 69
61 93 72
59 88 68
58 88 68
64 96 74
78 97 75
141 124 102
160 140 116
172 151 127
178 154 129
180 158 133
187 162 137
186 163 137
191 166 141
190 165 140
196 171 146
194 169 144
189 164 139
194 170 145
197 171 147
161 128 93
154 115 71
157 117 72
160 119 74
160 119 74
159 119 73
159 119 73
160 119 74
157 117 73
155 116 72
157 117 73
154 116 72
153 115 71
151 114 71
148 111 69
147 110 68
144 109 68
141 106 66
139 105 65
134 102 63
130 99 62
130 99 62
124 95 59
120 92 58
117 90 56
106 83 52
105 82 51
98 77 49
89 71 45
85 69 43
83 68 42
84 68 42
79 64 39
72 59 36
58 73 55
57 87 68
58 88 69
60 91 71
58 88 69
58 89 70
58 88 69
57 87 68
58 88 69
58 88 69
61 93 73
58 88 69
59 90 71
58 88 68
57 87 68
58 88 69
62 94 74
60 91 71
60 91 71
59 89 69
61 92 72
63 95 74
60 91 71
67 101 79
60 90 70
64 97 76
61 92 72
69 105 82
63 94 73
65 98 76
63 94 74
61 91 71
62 94 73
61 93 72
59 88 69
60 90 70
60 91 71
63 95 74
62 93 73
63 95 74
64 96 75
56 85 66
51 69 59
49 35 52
52 36 53
57 39 58
60 41 60
62 42 62
66 44 66
67 44 67
68 45 68
67 44 67
71 47 71
69 46 69
71 47 70
70 46 70
70 47 70
69 45 67
70 46 68
68 45 67
71 47 71
67 44 65
67 44 65
65 43 63
63 41 61
62 41 60
58 39 56
59 39 57
58 39 58
54 36 53
51 35 50
46 32 45
44 30 43
39 28 39
31 23 30
34 25 35
33 37 38
36 58 48
39 62 51
41 64 52
46 71 58
45 70 56
47 72 57
50 75 59
52 79 62
55 82 64
59 90 70
58 87 68
57 86 67
59 88 68
63 94 73
62 92 71
62 93 72
61 91 70
60 90 69
58 86 67
59 88 68
64 96 74
61 90 69
56 84 64
58 87 67
59 88 68
58 87 67
59 87 67
58 87 67
56 83 64
55 82 63
57 85 65
59 88 67
57 84 65
55 82 63
57 85 65
60 89 69
60 90 69
58 87 67
54 80 61
57 84 65
59 88 68
57 85 65
59 89 68
61 91 71
57 86 66
57 85 66
60 89 69
60 90 70
60 90 70
59 89 69
59 89 69
62 93 72
60 89 69
58 86 67
62 93 72
58 88 68
63 95 73
62 92 71
65 97 75
59 89 70
58 87 67
63 95 73
63 94 73
67 100 78
61 91 71
63 95 74
62 93 73
62 94 73
61 93 72
60 90 70
62 93 73
64 95 74
65 98 76
63 94 73
66 100 78
61 91 71
61 92 72
62 94 73
61 91 71
63 95 74
63 94 73
65 97 75
62 92 72
64 94 73
60 90 70
61 91 71
59 87 68
60 90 70
61 91 70
60 88 68
58 86 66
60 90 69
55 82 63
59 87 67
55 81 62
59 86 66
60 88 67
59 87 66
55 80 61
55 81 62
49 72 55
45 67 52
41 61 48
35 46 36
54 32 22
60 25 12
66 26 13
72 27 14
72 27 14
78 29 16
78 29 16
79 29 16
83 30 16
77 29 16
75 28 15
78 28 15
71 27 14
66 26 13
64 25 13
65 25 13
65 26 13
69 27 14
63 25 12
65 26 13
61 25 12
58 25 14
42 38 29
32 46 37
31 46 38
32 48 39
32 49 41
34 53 43
34 52 42
36 55 45
37 58 47
46 69 55
47 70 55
50 75 59
54 80 63
56 84 66
57 85 66
58 86 67
59 88 68
61 91 70
59 88 68
60 89 69
62 93 72
61 90 70
61 92 71
63 94 73
63 94 73
62 93 72
61 91 70
60 90 70
61 91 71
60 90 70
61 92 71
60 90 70
64 96 75
62 92 72
62 93 72
65 96 75
61 91 71
61 92 72
63 95 74
62 94 74
63 95 74
67 101 79
61 92 72
60 90 71
60 90 70
64 97 76
64 96 75
62 93 72
62 93 72
65 97 76
63 95 74
59 89 69
57 86 67
65 98 76
61 93 72
60 91 71
61 91 71
62 93 72
60 90 70
63 95 74
61 92 72
58 88 68
60 91 71
60 90 70
62 92 72
59 89 69
62 93 72
64 96 74
63 94 73
61 91 70
63 94 73
61 91 71
61 92 71
62 94 72
62 93 72
58 87 67
60 90 69
58 87 67
62 93 72
60 91 71
59 88 68
60 89 68
61 91 70
61 90 70
57 84 65
64 95 73
62 93 72
57 84 65
57 85 65
59 89 69
60 89 69
59 88 67
59 87 67
61 90 69
63 94 72
62 92 71
60 90 69
59 88 67
60 90 69
59 88 67
58 85 65
58 86 66
59 87 66
59 88 67
61 91 69
60 90 69
59 89 68
57 86 66
62 93 71
62 92 71
59 89 68
60 89 68
65 97 75
59 89 69
58 87 67
60 89 69
58 87 67
59 88 68
57 86 66
62 92 71
62 93 71
62 93 72
60 90 70
61 92 71
60 91 71
60 90 70
61 92 71
56 85 66
60 91 71
59 88 67
59 88 68
59 89 69
61 91 70
64 96 74
64 97 75
60 90 70
60 90 70
60 91 70
61 91 71
60 90 70
61 93 72
63 94 73
59 88 68
55 83 64
61 93 72
59 88 68
61 92 71
63 94 73
61 91 70
117 112 90
147 129 105
164 145 121
168 148 123
178 154 129
171 149 124
178 156 132
186 163 137
193 169 144
191 167 142
184 161 135
189 166 142
189 166 141
164 131 96
155 115 71
157 117 73
158 118 73
160 119 74
159 119 74
159 118 73
159 119 74
158 118 73
156 117 73
153 115 71
155 116 72
152 114 71
151 114 71
148 112 69
146 110 68
145 109 68
141 106 66
138 104 65
136 103 64
131 99 62
132 100 63
125 96 59
119 91 57
118 91 57
114 88 55
108 84 53
96 76 47
91 72 46
86 69 43
81 66 41
78 64 40
77 63 39
71 58 35
57 68 50
51 79 63
51 79 63
58 88 69
61 93 73
57 87 68
56 86 68
58 88 69
60 91 71
61 92 72
57 87 68
59 89 69
57 87 68
58 87 68
58 89 69
59 90 71
59 90 70
60 91 71
60 91 72
58 89 69
56 85 67
60 91 71
62 94 73
61 93 73
63 95 74
63 95 74
64 97 75
64 98 76
62 93 73
61 92 72
61 92 72
61 92 72
62 94 74
63 95 74
62 94 73
60 91 70
60 90 70
61 92 71
63 94 73
67 101 79
61 92 72
58 88 69
59 88 69
54 82 65
45 48 51
47 33 49
52 36 53
55 38 56
58 39 58
60 40 60
65 43 65
60 40 59
64 42 62
67 44 66
66 44 65
65 43 64
67 44 66
67 44 65
67 43 64
65 43 63
65 43 62
65 43 63
63 42 61
64 42 61
61 40 59
59 39 57
58 39 56
55 37 54
53 35 51
51 35 49
50 34 49
46 32 45
41 29 39
36 26 36
33 24 32
32 24 32
31 28 32
31 48 40
36 58 48
38 60 49
37 58 47
43 67 54
46 71 56
47 72 57
51 78 61
57 86 67
56 84 65
59 88 68
62 93 72
59 88 68
60 90 69
61 91 71
59 89 69
55 83 64
57 86 66
60 90 70
62 93 72
60 89 69
62 93 72
58 87 67
60 89 69
59 88 67
58 87 67
57 86 66
61 92 71
59 88 68
57 85 66
60 90 70
55 82 63
61 91 70
60 89 69
57 85 66
57 85 66
57 85 66
58 87 67
61 90 69
59 88 68
59 88 68
60 90 70
59 89 68
57 85 65
55 82 63
59 88 68
60 90 69
61 91 71
58 88 68
60 89 69
63 95 73
58 86 67
58 87 68
60 90 70
62 93 72
62 94 73
60 90 69
61 91 70
60 90 70
60 91 71
59 89 69
60 90 70
63 95 73
59 89 70
59 89 69
63 94 73
64 96 75
58 87 68
62 92 72
63 95 73
61 91 71
58 88 68
62 93 73
62 93 72
62 93 72
60 90 70
61 91 71
63 95 74
63 93 73
59 89 69
66 98 76
62 93 72
60 90 70
60 89 69
62 92 71
61 91 70
60 89 69
58 87 67
57 85 66
61 91 71
63 94 72
61 91 70
58 87 67
59 88 68
59 87 67
58 85 65
61 89 68
63 93 71
60 89 68
56 82 62
51 75 57
53 78 60
47 69 53
43 65 51
37 55 44
31 45 37
40 34 26
64 27 15
62 24 12
61 25 12
64 26 13
65 26 13
67 26 13
63 25 13
65 26 13
65 26 13
65 26 13
63 25 13
62 25 12
62 25 12
64 26 13
65 25 13
59 24 12
63 25 13
56 22 11
45 27 18
34 36 28
29 44 35
32 48 39
31 49 40
34 51 41
33 49 40
33 50 41
37 56 45
40 60 49
41 61 49
46 69 55
49 74 58
53 79 62
54 80 63
57 84 65
61 90 70
60 89 69
58 87 68
60 89 69
60 89 69
64 95 74
63 94 73
62 93 72
65 97 75
64 95 74
66 98 76
64 96 74
62 93 72
62 94 73
61 91 70
66 98 76
63 94 73
63 94 74
65 98 76
61 92 72
60 90 70
64 96 75
63 94 73
64 96 75
61 92 71
62 94 74
61 92 72
60 90 70
66 98 76
60 91 70
59 89 69
63 95 74
60 90 70
60 90 71
59 89 69
63 95 74
63 95 73
61 91 71
65 99 77
64 95 74
62 93 73
59 89 69
61 91 71
67 100 78
61 91 71
62 93 72
63 95 74
60 90 70
63 95 74
62 93 72
62 93 72
60 90 70
65 98 76
60 90 70
61 92 71
63 95 74
59 89 69
59 88 68
60 90 70
61 92 71
60 90 70
60 90 69
62 93 73
60 90 70
64 96 74
61 92 72
61 91 71
63 95 73
60 90 69
60 90 69
59 88 68
59 88 68
62 92 70
59 88 68
58 87 67
57 86 66
57 84 64
63 93 71
61 91 70
58 87 67
59 89 68
59 88 68
60 90 69
57 85 65
61 92 70
61 90 69
56 83 64
61 92 71
57 85 65
59 89 68
59 88 67
64 95 73
65 97 74
58 86 66
58 87 67
62 92 71
61 92 71
59 89 69
59 88 68
61 92 71
62 93 71
57 85 66
58 87 68
61 90 69
63 94 73
58 88 68
61 92 71
61 90 70
57 86 66
59 89 69
59 89 68
60 91 70
58 86 67
60 90 69
62 94 73
60 90 70
57 86 66
59 88 68
59 89 69
61 92 71
59 89 70
60 90 69
63 95 73
60 91 70
60 90 70
60 91 70
60 90 70
59 89 69
60 91 70
58 88 68
59 88 68
63 95 74
60 90 70
57 87 67
60 90 69
85 101 79
136 121 98
148 132 108
155 137 112
162 141 116
172 150 125
172 151 126
175 154 128
177 155 129
181 158 133
182 159 133
180 156 131
166 135 103
155 115 71
156 117 72
159 119 74
160 120 74
159 119 73
159 119 74
159 119 74
157 118 73
156 117 73
156 117 72
154 115 71
151 113 70
150 113 70
149 112 70
147 111 69
144 109 67
142 107 67
139 105 66
135 102 64
131 100 62
130 98 61
126 96 60
120 92 57
119 91 57
113 88 55
105 82 52
99 78 49
94 74 47
86 69 43
88 70 44
84 68 42
71 59 36
75 61 38
62 65 46
52 81 64
56 85 68
55 85 67
54 83 66
54 83 66
54 83 65
55 84 66
57 87 68
58 89 70
55 84 65
60 91 72
60 90 70
61 93 72
59 90 70
60 91 71
59 89 69
58 88 69
59 90 70
61 92 72
59 90 70
56 85 66
65 99 77
65 98 77
65 98 77
62 94 73
63 96 74
63 95 74
63 95 74
61 92 72
63 94 73
62 93 73
63 95 74
64 97 75
58 88 68
64 96 75
60 91 71
61 92 72
57 86 67
63 95 74
61 92 72
62 94 73
59 89 69
56 85 67
58 89 69
50 74 60
39 35 43
46 33 47
50 35 51
54 37 55
55 37 54
56 38 55
57 39 57
59 40 58
60 40 59
61 41 60
61 40 59
60 40 59
60 40 58
61 40 58
62 41 59
63 42 60
61 41 60
58 38 55
58 38 55
54 36 51
56 37 53
51 34 48
52 35 48
47 32 44
43 30 41
42 29 39
37 27 36
33 25 33
33 25 33
28 22 28
28 23 27
34 47 41
33 53 44
33 54 45
37 59 49
38 59 48
41 64 52
45 68 54
51 78 62
52 79 62
53 79 62
58 88 69
57 86 67
59 89 69
55 83 64
61 91 71
55 83 64
56 85 66
59 88 68
63 94 73
60 90 70
62 93 72
61 91 71
58 87 67
55 82 63
61 91 70
62 93 72
62 93 72
61 91 71
57 84 65
56 83 64
61 90 69
59 88 68
59 87 67
58 87 67
63 95 73
61 92 71
57 86 66
59 88 68
57 86 67
59 88 68
62 92 71
64 95 73
60 90 69
59 88 68
61 91 71
60 90 69
57 86 67
60 89 69
61 91 71
60 89 69
61 91 71
58 88 68
57 85 66
61 91 71
62 93 72
63 95 73
62 94 73
60 89 69
62 93 72
60 90 70
62 93 72
60 90 70
61 91 71
62 93 72
61 91 71
60 91 71
63 94 73
61 92 71
60 90 70
64 96 74
62 93 72
63 94 73
64 96 74
61 91 71
61 92 71
62 94 73
61 91 71
62 92 71
63 94 73
61 90 70
62 93 72
66 99 77
58 86 66
59 88 68
62 92 71
61 91 70
59 88 68
59 87 67
60 90 70
59 88 68
61 91 70
63 94 73
59 88 68
61 90 70
61 91 70
60 88 68
59 87 67
61 89 68
57 84 65
61 88 67
58 84 64
58 85 65
52 74 56
54 79 60
46 68 52
39 57 44
34 50 39
28 42 34
25 33 26
39 30 22
52 22 12
57 23 11
62 24 12
64 25 13
60 24 12
62 24 12
59 24 12
62 24 12
61 24 12
61 25 12
56 22 11
60 24 12
61 24 12
56 23 13
46 23 14
32 30 23
24 35 28
25 36 29
27 41 33
31 46 37
30 45 37
33 50 41
34 52 42
36 55 45
41 61 49
44 67 54
43 65 51
52 78 61
52 76 59
55 81 63
60 88 68
60 89 69
63 94 72
61 90 70
60 89 69
61 91 71
63 94 72
59 88 68
61 91 71
62 92 71
59 88 68
62 94 73
61 91 71
62 92 72
62 93 73
60 90 70
63 93 72
61 91 71
59 89 69
61 92 72
63 94 73
62 93 72
61 92 71
64 97 76
61 92 72
62 93 72
61 92 72
60 91 71
62 93 72
60 90 70
64 96 74
62 93 73
59 89 70
63 96 75
63 94 73
62 93 72
61 92 71
64 97 76
61 92 72
60 90 70
65 98 76
63 95 74
61 93 72
61 92 71
62 93 72
65 98 76
62 92 72
60 91 71
58 88 68
63 95 74
66 99 77
62 93 73
62 94 73
62 93 72
64 96 75
62 93 73
61 92 71
62 93 73
60 91 71
59 89 69
60 90 70
62 93 72
62 93 72
61 92 71
60 90 70
62 93 72
61 92 71
63 94 73
62 93 72
63 95 73
59 89 69
62 91 70
61 92 71
62 93 72
60 90 70
60 90 70
57 85 66
60 89 69
61 90 70
61 90 69
64 96 74
61 91 71
63 94 72
62 93 72
60 89 69
58 87 67
62 92 70
63 94 73
60 89 68
61 91 70
60 90 69
61 92 71
61 91 70
63 95 73
61 91 71
64 96 74
60 89 68
59 88 68
58 87 67
58 87 67
60 90 69
61 92 71
64 95 73
61 91 71
62 93 71
59 89 69
62 93 72
60 90 70
59 89 69
58 88 68
58 88 68
59 88 68
57 86 66
59 89 69
59 88 68
55 83 64
61 92 71
58 87 67
59 88 68
60 91 70
63 94 73
61 93 72
60 90 69
62 93 72
64 96 74
65 97 76
60 91 70
58 88 68
57 86 66
59 89 69
61 92 71
55 82 64
55 82 63
61 91 70
60 90 69
60 90 69
57 86 66
58 86 66
113 106 86
135 120 96
146 130 106
153 135 110
157 138 113
163 144 118
165 145 120
168 148 122
173 152 126
169 149 124
163 134 102
154 115 71
158 118 73
159 119 73
159 119 74
158 118 73
160 119 74
158 118 73
159 119 74
158 118 73
156 117 72
156 117 73
152 114 71
150 113 70
148 111 69
146 110 69
144 109 68
142 107 66
139 105 66
136 103 64
133 101 63
129 99 61
125 95 59
122 93 59
116 89 56
111 85 53
109 85 53
102 80 50
94 75 48
87 70 44
88 70 44
84 67 42
84 68 42
76 62 38
68 65 45
53 81 65
53 81 65
51 80 63
52 80 64
55 84 66
59 90 71
56 85 67
55 83 66
57 87 68
58 88 69
58 88 69
59 89 70
56 86 67
59 89 70
59 89 70
62 93 73
62 95 74
63 95 74
61 92 72
64 98 76
59 90 70
59 90 70
65 98 76
61 93 72
61 92 72
61 92 72
63 95 74
60 90 71
65 98 76
62 94 73
67 101 79
65 98 76
65 98 76
62 94 73
61 93 72
58 88 68
59 89 69
61 92 71
63 95 74
60 91 71
59 89 70
58 87 67
58 87 67
58 88 69
55 83 65
50 76 60
44 61 52
38 30 40
41 30 43
42 30 43
48 33 47
51 36 51
53 36 51
53 36 51
54 36 51
54 36 52
55 37 53
57 38 54
56 38 53
55 37 52
54 37 52
56 37 53
54 36 51
54 36 51
53 35 50
52 35 50
49 33 46
46 32 44
45 31 42
41 29 37
37 27 35
34 25 32
30 23 29
30 23 29
25 21 25
27 21 26
27 34 32
33 53 44
32 51 42
35 56 47
36 58 48
37 57 47
42 65 52
46 71 56
50 76 60
52 79 62
54 81 64
55 82 64
57 86 66
59 89 68
58 87 67
59 88 68
61 91 70
61 92 72
63 94 73
61 92 71
60 90 70
61 91 71
59 88 68
59 88 68
59 89 69
60 89 69
57 86 66
61 91 70
60 89 69
59 89 69
60 90 70
59 89 69
62 92 71
59 88 67
64 96 74
59 89 69
60 90 70
61 91 71
57 86 66
62 93 72
60 90 70
60 91 71
59 88 69
59 89 69
61 92 71
59 88 68
60 91 70
58 88 68
63 94 73
61 91 71
60 89 69
58 88 68
55 82 64
59 88 68
63 94 73
62 93 72
65 97 76
66 98 76
61 92 72
62 93 72
57 86 67
64 96 75
59 89 69
60 90 70
59 89 69
58 86 67
61 90 70
63 95 74
65 98 76
59 89 69
63 94 73
64 96 75
66 99 77
63 94 73
62 94 73
60 89 69
64 96 74
62 93 72
64 96 74
63 95 74
61 92 72
63 95 74
60 90 70
61 91 71
59 89 69
62 93 72
63 94 73
63 94 73
60 90 70
61 91 71
62 91 70
60 89 68
61 90 70
62 92 71
63 93 72
61 90 69
61 91 71
64 94 72
60 88 67
58 84 64
59 86 66
58 83 63
56 81 61
58 84 63
56 81 61
50 73 55
44 64 49
41 60 46
35 51 40
28 41 32
23 34 27
23 30 23
29 25 19
41 24 17
46 21 12
54 22 12
53 21 10
55 22 11
53 21 10
54 21 10
52 20 10
52 22 12
45 20 12
33 25 19
23 28 22
20 28 22
22 33 26
25 38 31
26 38 31
28 41 33
32 48 39
30 46 37
37 56 46
37 55 44
42 62 50
44 64 50
51 75 59
50 73 56
52 77 59
54 80 61
59 87 67
60 88 68
62 90 70
62 92 71
59 87 68
56 83 64
63 94 73
59 89 69
63 93 72
59 88 68
62 92 72
59 89 68
62 93 72
58 86 67
60 89 69
62 93 72
63 95 74
60 90 70
60 90 70
61 92 72
61 91 71
62 93 72
60 90 70
61 91 71
64 96 75
59 90 70
63 94 73
64 96 74
60 90 70
63 95 74
64 97 75
61 92 72
62 93 72
61 92 72
62 93 72
66 99 77
66 99 77
61 93 72
65 97 76
67 101 79
65 98 76
63 95 74
59 89 69
62 93 72
62 93 73
61 92 72
59 90 70
63 94 73
64 96 74
62 94 73
63 95 74
64 96 74
62 94 73
66 98 76
62 94 73
60 89 69
60 91 71
62 93 73
64 96 75
63 94 73
60 90 70
61 92 72
66 99 77
62 92 72
60 90 70
69 103 80
65 97 75
62 93 72
63 95 73
61 92 71
58 88 68
59 89 69
58 87 67
62 94 73
60 89 69
62 93 72
61 92 71
59 88 68
62 93 72
59 88 68
59 89 69
66 99 76
60 89 69
60 89 68
64 96 74
59 88 68
57 86 67
63 93 72
58 87 67
62 93 72
59 88 68
57 86 67
61 92 71
61 91 70
59 89 69
61 91 70
60 89 69
60 90 69
61 91 71
61 92 71
59 89 69
64 95 73
64 97 75
63 93 72
60 89 69
64 95 73
62 93 72
65 97 76
62 93 72
62 93 72
63 95 73
61 92 71
60 91 70
59 88 68
58 87 68
60 89 69
63 95 73
60 89 69
62 94 73
59 89 69
61 92 71
60 90 70
58 87 68
61 91 70
58 86 66
59 88 68
60 89 68
59 89 69
58 87 67
60 90 70
60 90 70
59 88 68
62 93 72
57 86 67
58 86 66
57 85 65
57 86 66
62 92 71
59 88 67
72 91 69
116 107 84
132 118 94
141 125 100
144 128 103
147 131 106
153 136 110
158 139 113
156 137 112
154 129 98
155 115 71
157 117 72
160 119 74
160 119 74
159 119 74
161 120 74
159 118 73
158 118 73
156 117 72
156 117 72
156 117 73
152 114 71
150 112 70
150 113 70
147 111 69
143 108 67
142 107 67
140 105 66
135 103 64
133 101 63
130 99 61
126 96 60
124 95 59
118 91 57
112 87 54
105 82 51
100 78 49
96 76 48
87 70 44
84 68 43
83 67 42
80 65 40
74 60 37
67 61 40
48 74 59
50 77 61
49 77 61
53 81 65
53 82 65
52 80 63
56 85 67
57 86 67
59 90 71
59 89 70
58 88 69
56 86 67
56 86 67
58 89 70
62 94 73
61 93 72
64 97 76
60 91 71
62 94 73
60 91 71
58 87 68
63 95 74
60 91 71
69 103 80
66 99 77
60 90 70
63 95 74
61 92 71
60 91 71
59 90 70
65 97 76
61 92 72
63 95 74
59 89 69
65 97 76
62 94 73
61 93 72
62 93 72
66 100 77
60 91 70
61 92 71
64 97 75
60 91 70
57 86 67
54 81 64
53 80 63
49 74 59
46 71 56
38 49 44
32 26 33
38 28 39
41 29 41
45 32 44
43 31 42
46 32 44
48 33 47
49 33 46
48 33 47
46 32 44
50 34 47
49 33 46
48 33 45
48 32 44
48 33 45
45 31 42
43 30 40
43 30 40
39 28 37
40 28 37
36 26 33
34 25 31
30 23 29
28 22 27
29 23 28
26 21 26
28 22 27
29 37 33
30 47 39
31 50 42
33 52 44
37 59 49
36 57 47
41 63 51
44 69 55
46 69 54
49 74 58
51 78 61
55 82 64
56 85 66
61 92 71
58 87 67
56 84 65
60 90 70
56 84 65
62 92 72
65 96 74
59 88 68
65 97 75
60 90 69
62 93 72
60 91 70
60 90 69
60 89 69
66 98 76
62 93 72
61 92 71
62 93 72
61 91 70
61 91 71
61 92 71
61 91 71
61 91 71
63 94 73
66 99 76
64 95 74
61 92 71
62 93 72
61 91 71
62 93 72
59 88 68
62 93 72
59 89 69
60 90 70
60 90 70
59 90 70
61 92 72
60 91 71
62 92 72
60 89 69
62 93 72
61 92 72
62 93 73
63 94 73
61 92 71
64 97 75
64 95 74
64 96 75
62 93 72
64 96 75
64 96 74
61 91 71
61 91 71
64 96 75
63 95 74
65 97 75
64 96 75
59 88 69
66 99 77
66 99 77
61 91 71
59 89 69
62 93 72
61 91 71
57 85 66
64 96 74
64 95 74
65 98 76
63 94 73
58 87 67
59 88 69
62 94 73
61 92 71
60 88 68
62 94 73
59 87 68
61 91 71
65 97 75
62 92 71
60 89 68
61 90 70
63 92 71
63 93 72
58 85 66
60 89 68
64 94 72
58 85 65
60 88 68
59 86 66
60 87 67
58 85 65
61 90 68
60 88 67
55 80 60
53 76 57
50 71 54
44 63 48
39 57 44
32 46 35
26 37 29
22 32 25
19 28 22
19 28 22
17 24 19
18 21 16
25 23 17
23 21 16
20 23 18
19 20 15
20 29 23
18 27 21
18 26 21
20 29 23
24 36 29
23 34 28
27 41 34
29 42 34
30 45 36
35 52 42
39 58 46
43 65 51
45 67 52
46 69 53
50 74 58
55 80 62
57 84 65
59 88 68
58 86 66
59 87 67
60 89 69
66 98 76
63 94 73
61 91 70
60 89 68
61 91 70
60 89 69
65 97 75
60 89 69
60 90 69
58 86 67
64 95 73
62 92 71
60 91 70
64 95 74
66 99 77
58 87 68
65 97 75
64 95 74
60 90 70
63 95 74
61 91 70
63 95 74
65 98 76
63 95 74
62 93 73
62 94 73
64 95 74
61 90 70
63 96 74
61 92 71
62 94 73
67 100 78
62 94 73
64 97 76
63 95 74
63 95 74
64 96 74
61 92 72
63 94 73
58 88 68
59 88 69
64 96 75
61 93 72
64 97 75
60 89 69
64 95 74
64 97 75
58 87 68
62 93 72
64 96 75
62 93 72
65 98 76
62 94 73
63 94 73
61 91 71
61 92 72
63 95 74
69 103 80
63 95 74
60 89 69
60 90 69
61 92 71
64 96 74
59 89 69
59 88 68
59 89 69
64 97 75
61 91 70
67 101 79
60 91 70
63 95 74
66 98 76
60 90 70
60 90 70
62 93 72
60 91 71
61 92 71
61 91 70
64 95 73
61 92 71
62 93 71
60 90 70
59 88 68
60 90 69
58 88 68
59 88 68
57 85 66
60 90 70
60 90 69
60 90 70
58 88 67
61 91 70
61 92 71
59 89 69
58 87 67
63 94 73
62 94 72
63 94 73
59 89 69
61 92 71
62 92 72
61 92 71
60 91 70
61 91 70
60 91 70
63 94 73
60 90 70
62 93 72
58 87 67
60 90 70
61 91 70
59 89 69
58 87 67
61 92 71
60 91 70
59 88 68
61 92 71
60 91 70
61 92 71
60 90 69
61 92 71
59 89 69
59 89 69
61 91 70
57 86 67
60 90 70
62 94 72
58 87 67
57 86 66
60 90 69
57 86 66
60 90 69
61 91 70
58 87 67
59 88 67
58 87 67
59 88 67
56 82 63
82 89 68
112 103 81
123 111 88
140 125 101
139 124 99
144 128 103
148 131 105
151 126 94
153 114 70
157 117 72
159 119 73
160 120 74
159 119 74
159 119 74
159 119 74
159 119 73
156 117 72
157 117 73
155 116 72
154 115 71
152 114 71
149 112 70
148 111 69
143 108 67
142 107 67
140 106 66
136 103 64
132 101 63
131 99 62
126 97 60
122 93 58
119 91 57
112 87 54
109 84 53
101 79 50
96 76 48
85 68 43
85 68 43
81 65 41
80 65 40
76 62 38
65 58 38
48 71 57
47 73 59
47 73 59
51 79 63
53 81 64
54 83 66
56 86 68
56 86 68
54 82 65
55 84 66
61 93 72
57 86 67
62 93 73
61 92 72
59 90 70
62 95 74
60 91 71
62 95 74
61 93 72
59 90 70
58 88 68
59 89 69
58 89 69
61 93 73
65 99 77
66 100 78
62 94 73
59 89 70
65 98 76
63 95 74
61 92 72
61 91 71
62 94 73
60 90 70
60 91 71
62 94 73
60 90 70
60 91 70
63 95 74
61 92 72
61 92 71
59 89 69
61 91 70
59 89 69
60 91 71
58 88 68
50 75 59
47 71 56
47 73 58
42 66 53
34 48 41
31 31 34
36 27 38
31 24 31
34 26 34
39 29 39
37 27 35
40 28 37
39 28 36
44 30 41
42 29 39
42 29 38
41 29 38
39 28 37
39 28 37
38 27 35
36 27 34
35 26 33
32 24 30
30 23 28
29 23 27
26 21 25
26 21 25
25 21 24
24 21 24
26 22 25
23 29 27
28 45 37
30 47 39
30 47 39
30 48 40
31 49 40
36 57 46
40 62 50
42 65 51
50 75 58
51 77 60
54 81 62
58 86 67
59 87 67
59 88 68
61 91 70
62 93 72
60 91 70
57 85 66
61 92 71
59 89 69
59 88 68
60 90 70
63 94 73
58 87 67
60 91 71
61 92 71
58 87 67
59 88 69
62 93 73
60 90 70
57 86 66
60 90 70
59 89 69
61 92 71
62 93 73
60 91 70
63 94 73
64 96 74
60 90 70
62 94 73
61 92 71
62 94 73
66 99 77
61 92 72
62 93 73
62 93 72
61 92 71
63 94 73
58 87 67
61 93 72
58 87 67
60 90 70
63 95 74
60 91 71
65 98 76
59 89 69
63 95 74
63 95 74
64 96 74
60 90 70
64 96 75
66 99 77
65 98 76
63 94 73
61 91 71
62 93 72
63 94 73
63 94 73
66 100 78
60 91 71
62 94 73
64 96 75
64 97 75
61 91 71
60 90 70
60 91 71
65 96 75
63 95 74
61 91 71
62 93 72
64 95 74
68 102 79
60 90 70
60 90 70
60 89 69
64 96 74
63 94 73
60 90 69
63 93 72
62 93 72
60 90 70
61 92 71
58 86 67
58 85 66
63 93 72
62 92 71
65 96 74
62 90 69
61 89 69
58 85 65
59 87 66
57 83 64
59 87 67
58 85 65
59 86 65
58 84 64
57 83 63
56 81 61
56 81 61
52 75 57
49 71 53
44 63 47
41 59 45
37 54 41
31 43 33
26 38 30
25 36 29
26 38 30
17 25 20
20 29 23
21 30 24
19 28 22
24 35 28
23 33 26
29 41 32
25 36 29
29 43 34
29 42 33
35 51 41
38 57 44
43 62 48
45 65 51
49 72 55
50 74 57
50 73 56
54 80 61
59 87 67
60 89 68
57 84 65
59 86 66
58 85 65
59 87 67
63 94 72
59 88 68
61 90 70
60 89 69
65 96 74
62 92 71
63 95 73
62 92 71
61 91 70
62 92 71
63 94 73
61 91 71
63 93 72
61 91 71
63 94 73
61 92 72
62 93 72
63 95 74
61 91 71
57 86 67
63 94 73
61 92 72
64 96 74
61 92 71
65 98 76
60 90 70
62 93 73
62 93 72
61 92 72
65 98 76
64 97 75
63 95 74
63 95 74
64 95 74
60 90 70
59 89 69
60 91 71
63 95 74
65 97 76
64 96 75
65 98 76
63 94 73
64 96 75
61 92 72
61 91 71
60 90 70
63 95 74
65 98 76
62 92 72
65 98 77
62 94 73
64 98 76
62 94 73
61 92 71
61 92 71
63 95 74
61 92 71
63 95 74
64 97 75
65 96 74
60 90 70
63 95 74
65 97 76
59 90 70
63 95 74
63 95 73
58 87 67
68 102 79
60 90 70
63 94 73
60 90 70
62 93 72
63 94 72
63 94 73
60 90 70
64 97 75
65 97 75
59 89 69
63 95 74
58 87 67
59 90 70
59 87 67
59 89 69
63 94 73
64 95 73
64 96 74
63 94 73
63 94 73
65 98 76
59 88 67
63 93 72
61 92 71
63 95 73
61 92 71
63 94 73
63 95 74
61 91 71
63 95 73
63 95 73
60 90 69
63 95 73
67 101 79
60 90 70
61 92 71
61 91 70
62 94 73
60 91 70
60 91 70
58 88 68
61 91 70
64 97 75
61 92 71
59 89 69
63 94 73
58 88 68
64 96 74
60 90 70
60 90 70
62 93 72
62 93 72
64 96 75
58 88 68
59 88 68
66 100 77
64 95 73
59 89 69
63 95 73
62 93 72
59 88 67
59 89 69
61 91 70
59 88 68
57 86 66
59 88 68
54 80 62
60 90 69
57 85 65
56 84 64
55 82 63
54 80 61
73 77 56
100 94 70
114 104 79
123 112 88
131 116 91
137 117 88
154 116 73
157 118 73
158 118 73
159 119 73
159 118 73
159 119 74
158 118 73
159 119 74
158 118 73
156 117 72
155 116 72
154 115 72
151 113 70
148 112 69
148 111 69
146 110 68
140 106 65
141 106 66
136 103 64
135 103 64
128 98 61
127 97 61
124 95 59
119 91 57
117 90 57
109 85 54
99 78 49
95 75 47
91 73 46
81 66 41
77 63 39
81 65 40
69 57 34
70 60 38
43 63 51
45 70 57
47 73 59
46 72 58
48 75 60
53 82 65
55 85 67
56 87 69
56 86 68
55 84 66
58 88 69
60 91 72
58 88 69
57 86 68
58 88 68
58 88 69
59 89 69
63 95 74
61 93 73
64 96 75
57 86 67
60 92 71
58 88 68
61 92 72
61 92 72
62 94 73
65 98 76
63 95 74
61 93 72
60 91 71
65 97 76
66 100 78
61 92 72
61 92 72
60 91 71
63 96 74
62 94 73
62 94 73
63 95 74
58 88 68
60 90 70
61 92 72
60 91 70
60 90 70
61 92 71
62 94 73
55 83 64
53 80 63
49 75 59
46 71 56
41 64 52
37 59 48
32 47 40
31 30 33
27 22 26
27 22 27
26 22 26
30 24 29
31 24 30
33 25 31
33 25 30
32 24 30
31 24 30
30 24 29
31 24 30
30 23 28
29 23 28
29 23 27
26 22 25
26 22 25
27 22 25
28 22 26
28 22 26
27 22 25
26 21 24
23 20 22
23 31 28
23 36 29
29 46 38
29 46 38
31 49 40
31 49 41
35 54 44
38 58 47
45 69 55
53 79 62
52 78 61
55 82 63
59 88 68
59 88 68
60 89 69
59 87 67
63 95 74
59 88 68
62 93 72
60 90 69
56 84 65
58 87 67
60 89 69
57 85 66
60 90 70
66 99 77
58 87 67
60 90 70
58 88 68
63 95 73
60 90 69
63 94 73
62 93 72
62 93 73
61 91 71
62 92 72
64 96 74
64 96 74
61 92 71
60 91 70
60 89 69
61 91 70
64 96 75
62 94 73
63 95 74
63 95 74
61 92 72
61 92 72
60 90 70
65 97 75
60 90 70
62 93 72
61 92 72
59 88 69
64 96 74
63 94 73
65 97 75
66 99 76
62 94 73
64 96 75
63 95 74
63 94 73
58 88 68
58 87 68
60 90 70
58 87 68
63 94 73
65 98 76
63 94 73
63 95 74
63 94 73
62 94 73
64 97 75
64 95 74
60 90 70
64 94 73
63 95 74
63 94 73
61 91 71
62 94 73
62 92 71
60 90 70
63 93 72
61 91 71
62 92 72
64 95 74
61 91 71
61 91 70
58 87 68
60 89 69
63 93 72
64 95 74
62 92 71
61 90 70
64 95 73
60 89 68
63 93 72
63 93 72
60 89 68
62 91 71
59 87 67
62 91 70
63 92 71
60 87 67
60 88 67
63 91 69
59 86 65
57 83 63
60 87 66
55 79 59
55 80 60
56 81 60
53 75 56
52 74 56
52 75 56
48 68 51
48 69 52
44 62 46
44 62 47
40 56 42
39 55 42
38 53 41
37 53 40
34 49 37
37 53 40
36 52 40
37 54 41
41 60 46
42 60 46
46 65 50
51 74 57
50 74 57
52 76 58
55 79 60
56 82 63
60 88 67
58 85 65
61 90 69
59 86 66
59 87 67
63 92 71
59 87 67
66 97 74
60 89 69
64 95 73
64 94 73
62 92 71
58 86 66
62 92 72
65 97 75
61 92 71
62 93 72
62 93 72
62 92 72
63 95 73
62 92 71
60 89 69
62 93 72
61 92 72
62 92 72
60 90 70
63 95 73
60 90 70
65 97 76
59 88 69
62 93 72
64 95 74
63 95 74
63 94 73
60 91 71
64 95 74
64 96 75
66 99 77
63 95 74
62 94 74
63 94 74
64 95 74
64 96 75
63 94 73
64 95 74
60 90 70
62 92 72
64 96 75
62 93 72
62 93 73
64 97 75
61 92 72
62 94 73
63 96 75
62 93 73
61 91 70
62 94 73
65 98 76
68 101 79
60 90 70
62 93 72
60 90 70
60 91 71
63 95 74
61 92 71
59 89 69
60 91 70
58 88 68
61 92 72
61 91 71
62 94 73
66 99 77
63 95 74
64 96 74
61 92 72
64 96 75
62 93 72
65 98 76
67 100 78
65 98 76
61 91 71
62 93 72
63 94 73
63 94 72
62 93 71
64 95 74
61 92 71
57 87 67
62 92 71
63 95 73
59 88 68
61 92 72
62 93 72
60 90 70
61 92 71
63 95 73
60 90 70
62 94 72
59 89 69
66 99 77
57 85 66
65 97 76
62 94 73
62 94 73
62 93 73
57 86 66
60 90 69
59 90 70
62 94 73
61 91 71
64 97 75
64 96 75
60 91 70
60 90 70
60 90 69
61 92 71
61 91 70
61 92 71
61 91 70
60 90 70
59 89 69
61 92 71
62 92 71
59 88 69
64 95 74
60 90 70
57 85 66
63 94 73
61 92 71
61 92 71
60 90 69
60 90 69
60 90 70
57 85 65
59 89 68
58 87 67
62 93 71
60 89 69
64 95 72
61 91 70
58 88 67
60 90 69
58 86 66
59 88 67
60 89 68
55 82 63
55 81 62
55 82 62
53 78 59
53 77 58
71 75 54
92 88 65
106 99 74
124 108 79
154 115 72
158 118 73
159 119 74
160 120 74
160 119 74
159 119 74
158 118 73
158 118 73
158 118 73
156 117 72
156 117 72
153 115 71
151 114 71
150 113 70
147 111 69
145 109 68
141 107 66
139 105 65
138 104 65
134 102 63
132 100 63
126 96 60
122 94 58
119 91 57
113 87 55
108 84 52
101 79 50
96 76 48
85 68 43
84 68 42
81 65 41
80 65 41
75 61 37
72 60 37
45 60 48
42 66 54
44 70 57
47 73 59
49 77 61
48 74 59
51 79 62
51 79 62
53 81 64
55 84 66
57 87 68
59 90 71
55 84 66
60 91 71
62 94 73
63 96 75
60 90 70
58 88 69
63 95 74
61 92 72
60 90 70
62 94 74
61 93 73
57 87 68
58 89 69
57 86 67
61 92 72
60 91 71
62 94 73
63 95 74
60 91 70
62 94 73
63 94 73
59 89 69
62 94 73
63 95 74
59 90 70
65 97 75
61 92 71
63 94 73
57 86 67
60 90 70
60 90 69
63 94 73
60 90 69
59 88 68
58 87 67
56 84 65
50 76 59
51 78 61
46 70 55
38 58 47
37 58 47
34 54 44
30 46 39
29 37 34
26 23 26
26 21 25
26 21 24
28 22 26
27 22 26
26 21 25
27 22 25
27 22 25
25 21 24
27 22 26
28 23 26
28 22 26
27 22 26
25 21 24
28 22 26
27 22 25
27 21 25
25 20 23
27 20 24
21 20 21
21 31 26
22 34 28
25 40 33
27 43 36
30 48 39
31 49 40
38 58 46
43 67 53
42 64 50
47 70 54
55 82 64
58 87 68
58 86 66
57 86 66
58 87 67
62 92 71
59 88 68
60 90 70
58 88 68
63 94 72
63 94 73
58 87 67
61 91 71
64 96 75
62 93 72
60 91 71
61 91 71
61 92 71
60 89 69
58 88 68
62 93 72
60 90 70
61 92 71
62 93 73
60 90 70
59 89 69
61 91 71
61 92 71
64 96 74
59 89 70
60 91 71
64 95 74
61 91 71
64 97 75
60 91 71
61 92 72
61 92 72
61 92 71
64 97 75
65 97 76
62 92 72
62 93 73
64 96 74
65 98 76
61 92 71
61 92 71
66 99 77
64 96 75
64 96 75
63 94 73
63 95 74
63 94 73
64 97 75
67 101 78
64 96 75
64 96 75
61 91 71
61 92 72
62 93 73
65 97 76
63 94 74
63 94 73
64 95 74
61 92 71
60 90 70
59 89 69
64 96 75
61 92 72
62 93 72
61 92 72
62 93 72
68 102 79
64 95 74
64 96 75
65 98 76
61 91 71
60 90 70
63 94 73
61 91 71
61 91 70
59 89 69
61 90 70
65 97 75
62 92 71
65 96 75
61 90 70
62 91 70
60 89 69
64 94 73
61 89 69
61 90 69
62 91 70
62 91 70
59 87 67
59 86 66
59 88 68
57 84 64
62 90 69
59 85 65
55 80 61
57 83 63
56 81 61
58 85 64
59 86 65
58 82 62
55 79 59
55 80 60
54 77 58
54 78 59
50 72 54
53 75 56
52 75 56
52 75 57
54 78 59
52 75 57
51 72 55
52 75 57
53 77 58
52 76 57
51 75 57
54 78 59
58 84 64
58 84 64
56 82 63
57 84 64
58 84 64
57 84 65
58 86 65
59 86 66
61 90 69
60 88 67
59 88 68
61 90 70
64 94 73
58 87 67
61 90 69
62 92 71
62 92 71
62 92 71
63 93 71
64 94 73
60 90 70
67 99 77
63 94 73
65 96 74
62 93 73
60 89 69
61 91 71
65 97 75
63 95 73
66 100 77
63 94 73
66 99 77
65 97 76
64 96 75
63 95 74
63 95 74
64 95 74
61 91 71
65 97 75
61 92 71
60 90 70
62 93 72
63 95 74
60 90 70
66 100 78
65 98 76
62 94 73
65 98 76
60 91 70
65 97 75
63 95 74
62 94 73
59 89 69
61 92 72
61 92 72
62 93 72
65 99 77
65 97 75
64 96 75
60 91 71
64 96 75
59 89 69
64 96 75
63 96 75
66 99 77
60 91 71
61 92 72
64 96 74
61 91 71
58 88 68
60 90 70
62 93 73
61 92 72
61 91 71
62 94 73
67 101 78
61 91 71
63 94 72
61 91 71
61 91 71
60 91 70
62 93 73
63 95 74
67 100 78
63 95 74
62 93 72
63 95 74
60 90 70
61 92 71
62 93 72
62 94 73
63 95 74
60 90 70
61 91 71
60 91 71
61 91 71
65 97 75
62 93 72
58 87 67
61 92 71
61 91 70
66 99 77
62 94 73
62 93 72
60 90 70
62 92 72
60 90 69
60 91 70
63 94 73
64 97 75
63 95 73
63 94 73
61 91 71
60 91 71
59 88 68
65 98 76
61 91 70
57 86 66
61 92 71
61 92 71
61 92 72
60 90 70
62 94 73
64 96 74
59 89 69
57 86 67
58 87 67
62 92 72
64 96 74
62 93 72
62 94 73
62 93 72
59 89 69
62 94 73
61 92 71
61 91 71
59 89 69
58 87 67
59 88 68
61 91 70
59 88 68
58 87 67
62 92 71
60 89 68
58 87 66
59 88 68
61 91 70
59 88 67
57 86 65
58 87 66
56 83 63
53 78 59
54 81 62
55 82 62
55 82 62
49 70 53
58 67 46
90 84 58
150 113 70
157 117 72
159 118 73
158 118 73
160 120 74
160 120 74
159 119 74
159 119 73
158 118 73
156 117 72
156 117 73
153 115 71
150 113 70
151 113 70
147 111 69
145 110 68
141 107 67
141 106 66
136 103 64
134 101 63
130 99 62
126 96 60
120 92 57
121 93 58
114 88 55
109 85 53
100 78 49
97 76 48
93 74 47
89 72 45
84 68 43
80 65 40
73 60 37
74 61 38
51 62 48
38 61 50
42 67 55
44 69 56
47 73 58
50 77 62
47 73 58
51 79 62
53 81 64
57 87 68
59 89 70
58 88 69
60 92 72
58 89 70
59 89 69
61 92 71
60 90 70
59 89 69
58 88 69
60 90 70
63 96 75
64 97 76
59 90 70
60 90 70
61 93 73
59 89 70
60 90 71
63 95 74
67 102 79
62 93 73
65 98 76
64 97 75
64 97 75
62 93 72
58 88 69
62 93 73
58 88 68
61 92 71
60 91 70
60 90 70
60 90 70
63 94 73
58 87 68
59 89 69
60 89 69
59 88 68
59 89 68
58 87 68
57 86 66
53 79 61
53 79 62
51 78 61
44 67 53
41 64 52
36 56 46
31 48 40
28 44 36
27 41 34
22 28 25
24 23 24
24 20 23
27 21 25
27 21 25
25 21 24
27 22 25
27 22 25
27 21 25
28 22 26
28 22 25
27 21 25
26 21 24
25 20 23
25 20 23
24 19 22
23 24 23
16 23 20
17 26 21
21 32 26
25 40 33
27 42 35
27 41 34
35 53 43
34 52 41
43 66 52
44 67 52
51 77 60
53 79 61
53 78 60
55 82 63
55 82 63
59 88 68
59 88 68
62 93 72
60 91 70
62 92 71
63 94 73
62 93 72
63 94 73
62 94 73
66 98 76
63 95 74
59 89 69
64 96 74
62 94 73
60 90 70
60 91 70
62 94 73
66 99 77
58 87 68
58 88 68
61 91 71
63 94 73
62 94 73
63 94 73
63 95 74
65 97 76
64 96 75
60 90 70
63 95 74
59 89 69
64 96 75
64 96 74
61 92 71
61 91 71
61 91 71
64 96 74
66 99 77
64 96 75
62 93 73
64 96 74
61 92 72
67 100 78
67 101 79
67 100 78
60 90 71
63 95 74
62 94 73
62 94 73
64 96 74
62 94 73
64 96 74
61 92 71
67 101 78
63 95 74
62 92 72
59 89 69
65 99 77
62 93 72
64 95 74
64 96 75
63 94 73
61 92 72
62 93 72
60 91 70
60 90 70
62 93 72
62 93 72
63 94 73
65 98 76
64 95 74
61 91 71
64 95 74
62 92 71
63 94 73
57 86 67
60 89 69
63 94 73
63 94 73
62 93 72
58 86 67
61 90 69
61 91 70
61 90 70
66 97 75
64 94 72
60 90 69
63 93 72
58 86 67
58 86 66
59 86 66
61 89 69
63 92 71
63 92 71
60 87 66
59 87 66
58 84 64
62 90 69
61 88 67
59 87 66
58 84 64
56 82 63
58 85 64
55 80 61
57 83 63
58 84 63
57 83 63
54 78 59
55 78 59
61 87 66
58 84 63
56 80 61
54 78 59
54 78 59
56 82 62
59 87 66
61 89 68
60 87 67
55 79 60
58 84 64
58 85 65
61 87 66
63 90 69
64 93 72
57 84 64
59 86 66
60 88 67
59 86 66
62 91 70
63 93 71
59 87 67
58 86 66
58 86 67
62 92 71
61 90 69
64 95 73
60 89 69
59 89 69
61 91 70
63 94 73
63 94 73
63 95 74
62 93 72
60 89 69
64 95 74
61 92 71
64 96 74
63 93 73
59 88 69
60 90 70
62 94 73
64 95 74
66 98 76
63 95 74
59 89 69
63 94 73
62 94 73
61 92 72
61 91 71
61 91 71
62 93 72
63 94 73
61 92 71
63 96 75
63 94 73
63 94 73
63 95 74
64 96 75
63 94 73
62 93 73
62 94 73
59 89 69
61 92 72
61 91 71
65 97 76
63 95 74
59 88 69
64 96 75
59 89 69
61 92 71
63 95 73
63 95 74
66 98 76
62 94 73
63 95 74
66 99 77
61 92 71
64 97 75
61 91 71
61 92 71
61 92 71
61 92 71
61 93 72
58 87 68
65 98 76
62 92 71
63 94 73
62 93 72
64 97 75
58 87 68
60 91 70
62 93 72
61 92 71
60 91 71
64 98 76
65 98 77
65 97 75
65 98 76
63 95 74
60 90 69
66 99 77
63 95 73
60 91 71
64 96 75
62 93 72
61 92 71
62 93 72
62 93 72
62 93 72
62 93 72
63 94 73
61 92 72
62 94 73
63 95 73
66 99 77
60 89 69
62 93 72
61 91 70
61 92 72
59 89 69
63 95 74
64 96 74
61 92 71
60 90 69
61 92 71
61 92 72
63 96 74
61 92 72
62 93 73
65 98 76
61 91 70
60 91 71
58 88 68
60 90 69
58 87 68
60 90 70
61 92 71
59 89 69
60 89 69
62 93 72
62 93 72
60 90 69
59 89 69
61 92 71
57 86 66
59 89 69
61 92 71
60 90 70
59 89 69
60 89 69
59 89 68
59 89 69
60 89 68
55 82 63
58 86 66
59 88 67
60 89 68
56 84 64
59 87 66
58 85 64
58 86 65
54 79 59
51 76 56
47 70 52
44 65 49
58 68 50
144 109 67
157 116 72
158 118 73
159 119 73
158 118 73
160 119 74
159 119 73
159 119 74
157 118 73
156 117 72
155 116 72
153 115 71
152 114 71
151 113 70
148 111 69
147 111 69
141 107 66
140 106 66
136 103 64
132 100 62
131 99 62
129 98 61
125 96 60
118 91 57
117 90 56
110 84 53
104 81 51
96 76 48
94 75 48
85 68 43
85 68 43
79 64 39
75 62 38
75 61 37
52 60 45
39 62 50
40 64 52
43 67 54
43 67 54
46 72 58
51 78 62
51 78 63
52 80 63
54 83 65
53 82 64
57 87 68
59 89 70
62 94 74
63 96 75
57 87 67
59 89 69
61 92 72
58 88 69
59 89 69
62 94 73
63 96 75
61 92 72
58 88 69
60 91 71
59 90 70
59 90 70
64 97 76
63 95 74
59 90 70
62 94 74
61 92 72
61 92 72
62 94 73
64 96 75
63 96 74
61 92 72
61 92 72
59 89 69
62 94 73
63 96 74
62 94 73
63 94 73
60 90 70
57 86 66
60 89 69
61 91 70
60 90 69
60 90 69
55 83 64
53 79 61
52 77 60
50 75 58
47 72 56
42 64 51
38 58 46
33 51 41
27 42 35
28 44 36
26 40 33
23 36 29
22 30 26
21 22 21
23 20 22
24 20 23
24 19 22
26 20 23
24 19 22
24 20 23
26 20 23
24 18 21
21 18 20
19 19 19
16 15 16
18 25 20
20 32 26
18 28 23
20 32 26
26 41 33
24 39 32
30 47 38
36 54 43
39 59 46
42 63 49
49 74 57
52 78 60
56 84 65
59 88 67
59 88 67
57 84 65
57 86 66
57 85 65
59 88 68
61 91 70
60 89 69
59 88 68
60 90 70
62 92 71
60 90 70
63 94 73
59 89 69
61 92 71
63 95 74
59 88 68
60 90 70
62 94 73
63 94 73
65 98 76
66 100 77
62 93 72
58 88 68
63 94 73
64 96 75
62 94 73
63 95 74
60 90 70
58 88 69
62 93 73
61 92 71
64 97 75
61 92 72
61 91 71
62 94 73
65 97 75
64 96 75
60 91 71
63 95 73
64 96 75
60 91 71
61 92 71
64 96 75
61 92 72
63 95 74
63 94 74
64 96 75
59 88 69
63 95 74
65 98 76
62 93 73
62 93 72
64 96 75
61 93 72
60 91 71
64 97 76
60 91 71
59 89 69
62 93 72
61 92 71
62 92 72
64 95 74
63 95 74
61 91 71
63 95 74
63 94 73
65 97 75
64 97 75
66 99 77
65 96 75
59 89 69
62 93 72
64 96 75
65 98 76
63 94 73
60 89 69
61 92 71
62 93 72
60 89 69
64 95 74
64 95 73
64 95 73
59 88 69
62 91 71
58 86 66
62 92 71
61 91 71
60 89 68
62 92 71
64 95 74
61 88 68
60 87 67
63 92 71
60 88 68
62 92 71
63 92 71
65 96 74
62 92 70
61 89 68
61 89 68
60 88 67
57 83 63
60 87 66
59 86 66
68 80 62
91 82 65
99 70 58
107 64 55
116 64 56
121 63 56
118 62 56
116 63 55
115 64 56
103 70 59
87 74 59
71 75 58
59 82 63
55 81 61
61 89 68
61 89 68
61 89 68
63 92 70
55 81 62
58 86 66
61 89 68
62 92 70
60 89 68
63 93 71
62 91 70
62 91 70
58 86 66
60 89 69
63 93 71
64 95 74
62 92 71
61 91 71
60 89 69
59 87 67
58 87 67
60 90 70
63 93 72
62 93 72
61 91 71
58 86 67
62 93 72
61 92 71
63 94 74
61 93 72
62 94 73
62 94 73
60 91 71
59 89 69
59 88 69
62 94 73
62 93 72
58 87 68
65 98 77
64 96 75
60 89 69
60 90 70
62 94 73
64 97 75
64 97 76
64 96 74
63 95 74
63 94 73
60 91 71
60 91 71
63 94 74
65 98 76
62 93 73
62 94 73
61 92 72
63 95 74
65 98 76
60 91 71
63 95 74
62 94 73
60 92 72
63 95 74
62 94 73
62 94 73
63 94 73
65 98 76
63 94 73
59 89 70
62 94 73
64 97 75
62 93 73
63 95 74
63 94 73
60 91 71
63 95 74
60 91 70
64 96 74
62 93 72
62 94 73
62 93 73
67 102 79
61 92 72
63 95 74
64 96 75
61 92 72
65 98 76
64 96 75
64 96 75
65 97 75
63 95 73
61 92 72
61 93 72
60 91 71
63 94 73
63 94 73
60 89 69
62 93 72
62 93 72
64 97 75
65 97 75
61 92 71
64 97 75
60 90 70
59 90 70
62 93 72
63 95 74
62 93 72
61 91 71
66 100 78
61 92 72
63 95 74
61 92 71
60 90 69
62 94 73
64 96 75
62 94 73
61 92 71
60 90 70
61 91 71
61 92 71
64 97 76
63 94 73
60 91 71
60 91 71
64 96 74
61 91 71
59 89 69
58 88 68
57 86 66
60 91 70
60 90 69
57 86 66
60 90 70
60 91 70
61 92 71
61 92 71
64 96 74
62 92 71
59 88 68
59 89 68
62 93 71
62 93 72
59 89 68
59 88 68
60 90 69
62 93 71
60 90 69
58 87 67
61 92 70
58 87 66
57 84 64
60 90 69
55 81 62
58 86 65
55 81 61
54 80 60
57 84 62
51 74 55
67 84 62
141 107 67
157 117 72
157 117 72
158 118 73
159 119 73
160 119 74
159 119 74
159 119 74
158 118 73
158 118 73
155 116 72
154 115 72
153 114 71
151 114 71
149 112 70
146 110 68
143 108 67
139 105 65
138 104 65
135 102 63
132 100 63
127 97 60
124 95 59
118 91 56
117 90 57
114 88 56
107 84 53
99 78 49
89 71 45
83 67 42
87 70 44
79 64 40
81 65 40
72 59 36
54 59 44
39 63 51
41 65 53
43 68 55
47 73 59
47 73 58
49 76 60
49 75 60
50 76 61
58 88 70
57 87 68
55 84 66
58 88 68
59 89 69
60 90 70
57 86 67
58 87 68
59 89 69
58 88 69
59 90 70
63 95 74
61 92 72
60 92 71
60 90 70
59 89 69
57 86 67
60 92 71
62 93 73
61 92 71
60 91 71
60 91 71
60 90 70
58 87 68
61 92 72
62 94 73
66 99 77
60 91 70
57 86 67
60 90 70
63 95 74
60 89 69
63 95 73
61 92 71
60 91 71
59 89 69
58 87 68
61 91 70
59 89 69
58 86 66
59 88 68
60 90 69
55 82 63
59 87 67
58 87 67
47 71 55
51 76 59
46 69 54
40 61 48
35 53 42
32 49 40
26 41 34
24 37 30
22 35 28
21 32 26
21 32 26
18 27 22
16 22 18
15 16 15
18 24 20
15 19 17
14 18 16
17 25 21
17 26 21
15 23 18
20 31 25
17 27 21
20 31 25
21 33 27
26 41 33
30 47 38
34 53 42
43 65 51
41 62 48
48 72 55
53 79 61
54 80 61
57 85 65
57 85 65
58 87 67
59 87 67
59 89 68
60 90 69
62 92 70
62 93 72
62 93 72
57 86 67
61 91 71
57 85 66
57 85 66
61 92 71
59 88 68
62 92 71
65 97 75
62 93 72
62 93 72
61 92 71
62 93 72
66 99 77
59 89 69
62 93 72
62 93 72
61 92 72
62 94 73
60 91 71
65 98 76
65 97 75
62 93 72
62 94 73
64 97 75
59 89 69
64 97 75
62 93 73
63 95 74
59 89 70
62 94 73
63 94 73
62 93 72
65 97 75
64 97 76
62 93 72
61 92 72
63 95 74
65 98 76
63 95 74
61 92 72
61 91 71
64 97 76
58 88 68
66 99 78
64 97 75
66 100 78
62 94 73
63 94 73
63 93 73
65 98 76
62 93 73
64 96 75
63 95 74
62 93 73
62 93 72
60 91 71
62 92 72
63 94 74
59 90 70
62 94 73
62 94 73
61 92 71
62 94 73
62 93 73
60 90 70
60 89 69
62 93 72
61 92 72
59 88 69
63 94 73
60 90 70
60 89 70
64 96 75
58 86 67
64 97 75
62 91 71
62 93 72
61 91 71
63 94 73
65 97 76
60 89 69
60 89 70
63 92 71
66 97 75
63 92 71
62 92 71
63 94 73
60 89 69
64 94 73
60 89 68
59 88 68
59 87 67
63 92 71
59 86 66
58 86 66
73 92 71
94 80 64
115 65 56
131 60 55
131 59 56
132 60 56
132 60 56
132 60 56
131 60 56
131 59 56
130 59 56
129 59 55
129 58 55
127 58 54
125 57 53
116 59 53
103 69 58
75 81 63
58 85 65
58 84 64
62 90 69
64 94 72
58 85 65
62 90 69
59 87 67
56 82 63
63 92 71
58 86 67
58 86 67
59 87 67
60 90 69
65 95 73
61 91 70
65 96 74
65 98 76
59 88 68
64 95 74
59 88 68
59 88 68
60 90 70
67 100 78
63 93 72
64 96 75
62 93 72
61 91 70
65 94 73
69 92 71
76 93 71
75 92 70
82 94 72
59 88 69
59 88 69
61 92 72
62 92 72
57 86 67
63 95 74
60 90 70
61 92 72
63 94 73
60 90 70
61 93 72
64 96 75
62 93 72
61 92 72
62 93 73
61 92 72
60 90 70
60 90 70
63 95 74
63 95 74
64 95 74
63 96 75
63 95 74
63 95 74
65 98 76
64 97 75
63 94 73
58 88 69
63 95 74
66 99 77
64 96 75
60 91 70
61 91 71
62 93 72
60 90 70
61 92 71
65 98 76
65 99 77
65 97 76
63 95 74
63 95 74
61 92 72
59 89 69
59 89 69
62 93 72
60 91 71
64 97 75
60 91 70
60 91 71
61 92 72
59 90 70
64 96 74
66 99 77
64 96 74
59 89 69
64 96 74
65 98 76
65 98 76
62 94 73
65 97 75
62 94 73
61 92 72
60 90 70
61 92 71
62 92 71
62 93 72
57 86 67
63 95 74
61 92 71
61 92 72
62 93 71
60 90 70
61 92 72
61 92 71
63 95 74
61 93 72
62 93 73
60 90 70
61 92 72
62 93 72
60 90 70
61 92 71
66 100 77
64 96 75
63 95 73
62 94 73
59 88 69
64 96 75
60 89 68
62 94 73
62 95 74
61 92 72
62 92 72
62 93 72
60 91 71
59 89 70
61 92 71
62 93 72
62 93 72
63 94 73
61 92 71
60 91 70
62 92 71
62 94 73
60 90 69
57 86 66
58 87 68
62 94 73
65 98 76
56 84 65
61 91 70
62 93 72
61 91 70
61 90 69
58 87 66
58 87 66
61 91 69
56 84 65
57 85 65
60 89 67
58 86 65
55 82 62
56 83 63
55 82 61
59 78 57
132 104 67
155 116 71
158 118 73
159 119 74
158 118 73
160 119 74
159 119 73
158 118 73
158 118 73
156 117 73
155 116 72
155 116 72
151 113 70
149 112 70
149 112 70
145 109 68
144 108 67
141 107 66
137 103 64
133 101 63
135 102 64
129 99 61
123 94 59
124 95 60
117 90 56
109 85 53
104 81 51
99 78 49
91 72 46
88 70 44
86 69 43
85 68 42
75 61 37
78 64 39
58 57 40
41 66 54
41 65 53
43 68 54
43 67 53
48 74 59
49 75 59
50 77 60
51 78 61
57 87 68
55 84 66
57 86 67
57 86 67
58 87 68
61 93 73
62 94 73
64 97 76
62 94 73
60 90 70
62 94 73
63 95 74
63 96 75
56 84 66
56 86 67
58 88 69
61 93 73
60 91 71
59 89 70
58 88 68
61 93 73
63 95 74
64 96 75
60 91 71
61 92 72
61 93 72
62 93 72
67 100 78
59 89 69
62 93 72
63 95 74
61 92 72
64 96 74
62 93 72
63 95 73
65 98 76
58 87 67
65 98 76
64 96 74
61 91 71
59 88 68
63 95 73
57 85 66
59 88 68
58 87 66
56 83 64
59 88 68
51 76 58
49 72 56
50 76 59
43 65 50
41 62 49
35 53 42
28 43 34
25 39 31
25 39 31
23 36 29
21 32 26
18 29 23
18 29 23
20 31 25
18 28 23
20 31 25
21 33 27
21 32 26
24 37 29
24 37 29
27 42 34
30 45 36
34 51 41
37 55 43
43 64 49
47 69 53
47 69 53
53 78 60
57 84 64
58 86 65
56 84 64
59 88 67
58 86 66
59 88 68
56 84 64
59 87 67
57 85 65
59 89 68
62 93 72
58 87 67
61 92 71
64 96 74
60 91 71
61 91 71
64 97 75
61 92 71
57 86 67
63 94 72
64 97 75
63 94 73
64 96 75
61 92 72
64 96 74
65 98 76
61 90 70
63 96 74
62 94 73
60 90 70
64 97 75
62 94 73
67 101 78
60 90 70
67 101 78
62 93 73
64 96 74
62 94 73
60 91 71
62 94 73
63 96 74
63 95 74
59 89 69
61 92 72
65 98 76
65 98 77
61 92 72
62 93 72
62 93 72
64 97 75
63 94 73
66 99 77
60 90 70
60 90 70
63 95 74
65 97 75
65 98 76
66 99 77
64 97 75
61 92 72
59 89 69
58 87 68
67 101 79
60 91 71
64 96 75
61 91 71
63 94 73
61 92 71
62 93 72
64 96 75
65 98 76
64 95 74
61 91 71
62 93 73
63 94 73
63 95 74
64 97 75
60 90 70
60 89 69
62 93 72
65 97 75
66 98 76
62 93 72
63 94 73
61 92 71
61 92 71
63 93 72
63 93 73
60 89 69
62 92 71
61 89 69
63 94 73
63 95 74
64 96 75
64 94 73
59 88 68
64 94 73
62 93 72
62 92 72
64 94 73
56 83 64
60 88 68
63 91 70
63 92 71
62 90 69
70 89 69
104 72 60
127 62 56
132 60 56
133 60 56
134 60 57
134 60 57
133 60 57
133 60 57
133 60 57
132 60 57
132 60 57
131 60 56
130 59 56
130 59 56
128 58 55
128 58 55
127 58 54
125 57 54
121 55 52
105 63 55
76 81 64
63 91 70
59 87 67
58 85 66
59 87 67
56 82 63
61 90 70
58 87 67
61 90 69
59 87 67
63 93 72
62 92 71
62 91 70
63 94 73
60 88 68
61 91 70
59 89 69
59 88 68
61 90 70
58 87 68
58 87 68
59 88 68
91 107 88
148 143 125
172 144 123
220 129 95
240 117 70
245 117 69
251 119 70
250 119 70
242 117 70
231 114 69
210 109 69
183 105 69
127 95 69
82 95 73
62 92 71
59 89 69
61 91 71
61 92 71
63 94 73
66 100 78
67 100 78
64 96 75
64 97 75
61 91 71
61 91 71
66 99 77
63 94 73
61 92 71
65 98 76
64 96 75
61 91 71
60 90 70
61 91 71
63 95 74
66 99 77
61 91 71
59 89 70
62 94 73
61 92 71
67 101 79
65 98 76
62 93 73
60 90 70
62 94 73
58 88 69
62 94 73
61 91 71
61 92 72
61 92 72
67 101 79
63 95 74
60 91 71
62 93 72
61 92 72
62 94 73
62 94 73
63 95 74
59 89 69
62 93 72
66 100 77
62 93 73
69 103 80
67 102 79
61 92 72
63 94 73
63 95 74
65 98 76
61 92 72
62 93 72
65 99 77
61 93 72
63 95 74
64 97 75
64 97 75
59 89 69
60 91 70
63 95 73
63 94 73
58 88 69
62 94 73
61 92 71
62 93 72
59 89 70
62 93 72
63 95 74
64 96 74
62 94 73
65 97 75
63 95 74
62 93 72
65 98 76
66 98 76
61 92 71
60 90 70
61 92 71
62 93 72
65 98 76
64 95 74
63 95 74
59 89 69
60 90 70
59 89 69
62 94 73
59 89 69
62 93 72
59 88 68
57 86 66
62 93 72
63 95 74
62 93 72
60 91 71
60 90 70
59 88 68
60 90 70
59 89 69
63 94 72
62 93 71
62 93 72
55 83 64
60 89 69
58 87 67
62 94 72
59 88 67
58 86 66
57 85 65
60 90 69
59 88 67
60 89 68
57 84 63
58 86 66
56 84 63
60 88 66
64 85 62
131 103 65
156 116 72
158 118 73
160 119 74
160 120 74
159 119 73
160 119 74
159 119 73
158 118 73
157 118 73
156 117 73
154 115 71
154 115 72
150 113 70
150 113 70
145 110 68
145 109 68
140 106 66
139 105 66
134 101 63
132 100 62
128 98 61
127 97 60
121 93 58
115 89 55
113 87 55
110 85 54
98 78 49
91 72 46
86 69 44
83 67 42
83 67 42
80 65 40
72 59 36
58 58 40
36 57 46
44 69 55
46 70 56
47 73 58
46 71 56
46 71 56
50 76 60
56 86 67
55 84 66
56 86 67
58 87 68
59 90 70
62 93 72
58 88 69
62 93 72
62 94 73
62 94 73
60 91 71
61 91 71
60 90 70
63 94 73
61 93 72
61 92 72
60 91 70
60 91 71
66 100 78
62 94 73
59 90 70
58 88 69
58 87 68
61 92 72
63 96 75
62 93 73
62 93 73
61 92 72
62 93 72
67 101 79
60 90 70
65 97 75
65 98 76
59 88 68
61 91 71
59 89 69
60 91 70
62 94 73
60 90 69
58 86 67
57 85 66
61 91 70
60 90 70
57 85 65
57 85 66
56 83 64
58 86 66
56 83 64
57 85 65
56 83 63
51 76 58
53 79 60
50 74 57
51 75 57
45 66 51
41 62 47
42 63 49
39 58 45
33 50 38
36 54 42
30 46 36
28 42 32
33 49 38
34 50 39
32 48 37
31 46 35
36 54 42
38 56 44
39 58 45
43 64 49
45 67 51
48 70 53
52 76 58
51 76 58
54 80 61
56 83 63
57 84 64
61 90 69
58 86 66
58 87 66
63 94 72
61 91 70
60 89 69
59 88 67
61 90 69
59 88 68
63 94 73
60 89 69
62 93 72
59 88 68
62 93 72
60 90 70
65 97 76
59 89 68
59 88 69
61 92 71
60 91 71
60 91 70
62 93 72
66 99 77
65 98 76
63 96 74
63 94 73
60 91 71
62 94 73
62 93 73
65 98 76
60 90 70
63 96 74
63 95 74
63 95 74
62 94 73
62 93 72
61 92 72
64 96 75
64 96 75
62 93 72
66 99 77
60 91 71
64 95 74
68 101 79
60 90 70
68 103 80
61 92 71
63 95 74
64 96 74
69 104 81
58 88 68
64 97 75
63 95 74
64 97 76
65 97 75
63 94 73
65 98 76
63 94 73
60 91 71
62 94 73
61 93 72
69 102 80
69 104 81
65 99 77
64 96 75
63 93 73
67 101 79
65 98 76
64 97 75
59 89 69
61 91 71
63 94 73
60 90 70
60 89 69
63 94 74
62 93 72
65 98 76
64 95 74
63 94 73
62 92 72
63 95 73
60 90 70
61 90 70
61 92 71
65 96 75
65 96 75
61 92 72
58 87 68
62 92 71
64 95 73
61 90 70
61 91 71
59 87 68
62 91 71
61 91 71
60 90 70
62 92 71
62 92 71
62 93 72
63 92 71
60 89 68
60 90 69
63 93 71
65 94 72
91 77 62
125 61 56
133 60 56
134 60 57
134 61 57
134 61 57
135 61 57
134 61 57
134 61 57
134 61 57
134 61 57
133 61 57
133 60 57
132 60 57
132 60 57
131 59 56
130 59 56
129 59 56
128 58 55
127 58 55
125 57 54
123 56 53
117 54 50
97 71 59
69 91 70
61 90 70
60 89 68
59 88 68
61 92 71
65 95 74
65 98 75
62 91 70
68 100 78
63 93 72
64 96 74
63 94 73
59 88 68
63 93 72
63 95 73
66 98 76
62 92 71
62 90 70
136 133 115
197 177 159
232 206 187
244 193 170
255 132 87
255 124 73
255 124 73
255 124 73
255 123 73
255 123 72
255 122 72
253 121 71
251 120 71
249 119 70
246 118 69
233 113 67
194 107 69
130 105 76
69 101 78
61 92 72
62 93 73
64 96 74
65 98 76
66 99 77
62 93 72
62 93 72
65 98 76
65 98 76
65 98 76
62 94 74
62 93 72
65 98 76
61 92 72
61 92 72
62 93 73
63 94 74
65 97 76
63 95 74
57 87 67
59 88 69
63 95 74
66 99 77
62 93 72
60 89 70
60 91 71
65 97 76
62 93 73
62 94 73
60 90 70
61 92 71
62 94 73
61 92 72
61 92 71
64 96 74
64 97 75
66 99 77
60 90 70
63 95 74
63 95 74
61 91 71
67 100 78
65 98 76
64 95 74
62 93 73
62 93 73
62 93 72
61 92 71
60 92 71
64 97 75
58 87 67
62 93 73
63 95 74
66 99 77
63 95 74
63 95 74
62 94 73
64 97 75
64 97 75
60 90 70
62 92 72
64 97 75
60 91 71
60 91 71
60 90 70
62 94 73
62 94 74
60 91 70
61 92 71
65 98 75
61 91 71
61 91 71
63 95 74
61 92 72
61 93 72
65 98 76
66 98 76
63 95 73
59 89 69
62 93 72
62 93 72
66 99 76
61 92 72
59 90 70
63 95 73
64 96 74
60 90 70
61 91 70
62 93 72
58 87 68
62 93 72
64 96 75
62 93 72
61 92 72
63 95 73
61 92 71
64 96 74
60 89 69
58 87 68
61 91 71
60 89 69
56 84 65
59 89 69
57 85 65
59 88 68
60 90 69
56 84 64
58 87 66
57 84 64
57 85 65
55 83 63
61 90 69
61 90 68
59 87 65
62 89 67
121 102 68
155 116 72
157 117 72
160 119 74
160 119 74
160 119 74
160 120 74
158 118 73
158 118 73
157 118 73
154 116 72
155 116 72
153 115 71
150 113 70
149 112 69
147 111 69
144 108 67
142 107 66
138 105 65
135 102 64
133 101 63
132 101 63
126 96 60
121 92 58
116 90 56
113 87 55
107 83 52
98 77 49
94 74 47
85 68 43
86 69 43
80 65 41
78 63 39
81 65 40
63 59 40
42 64 51
41 64 51
46 70 55
48 73 58
52 79 62
52 79 62
51 78 61
55 83 65
53 80 62
58 87 68
58 88 68
59 89 69
58 87 68
60 92 71
59 89 70
63 96 75
64 97 75
61 93 73
60 91 71
59 89 69
61 91 71
60 91 71
63 95 74
61 92 72
62 94 73
57 86 67
60 91 71
61 92 72
61 93 72
59 89 70
59 90 70
62 93 72
63 95 74
67 101 79
63 94 73
66 99 77
62 94 73
65 98 76
61 91 71
63 94 73
62 94 73
59 89 69
62 93 72
58 88 68
60 90 70
63 95 73
60 90 69
59 89 69
61 92 71
61 91 70
60 90 70
61 90 69
59 88 68
62 92 71
57 84 65
59 88 67
60 89 68
58 85 65
58 86 66
57 84 64
58 87 66
55 81 62
56 82 62
54 81 61
52 77 58
53 78 59
52 76 58
45 67 51
48 71 54
47 70 53
45 67 51
49 73 55
46 68 52
47 69 52
49 73 55
52 76 57
52 77 59
51 75 57
58 85 64
58 85 65
56 83 64
57 85 64
56 82 63
60 90 69
57 85 65
60 90 69
56 84 64
59 89 68
60 90 70
61 91 70
60 90 69
59 88 68
62 92 71
60 89 69
59 88 68
68 102 79
62 93 72
60 90 69
63 94 73
63 95 73
63 95 74
60 91 70
63 95 73
63 95 74
61 92 72
62 93 72
64 96 75
65 97 76
61 92 71
61 92 71
61 91 70
64 96 75
62 94 73
66 99 77
62 93 73
61 92 71
60 91 71
59 89 69
63 96 74
62 93 73
64 97 75
62 94 73
63 95 74
64 96 74
62 92 72
61 92 71
63 94 73
63 95 74
63 94 73
63 95 74
67 101 79
63 95 74
61 92 72
66 99 77
65 97 76
62 92 72
61 92 72
64 96 75
62 92 72
62 93 72
66 99 77
63 95 74
64 96 75
65 98 77
61 92 72
62 93 72
63 96 75
64 96 74
63 95 74
62 92 72
61 93 72
61 91 71
59 89 69
62 93 72
64 96 75
62 94 73
62 94 73
67 100 78
67 100 78
62 93 73
64 96 75
62 93 72
61 91 71
59 89 69
62 93 72
65 97 75
63 96 75
60 89 69
64 95 74
61 91 70
61 91 71
65 97 75
62 92 72
63 94 73
58 87 68
64 96 74
63 94 73
62 92 71
65 98 76
64 95 74
57 84 65
63 94 73
63 93 72
64 95 73
67 99 77
61 90 70
67 98 76
68 89 70
108 71 60
130 58 55
133 60 56
134 61 57
135 61 57
135 61 57
135 61 58
136 61 58
136 61 58
135 61 58
135 61 58
134 61 58
134 61 57
134 61 57
133 60 57
132 60 57
131 60 57
131 59 56
130 59 56
129 58 55
128 58 55
126 57 54
125 57 54
122 55 52
120 54 51
106 58 51
75 83 66
64 95 73
59 88 68
63 94 73
62 91 70
63 93 71
62 93 72
63 92 71
65 97 75
60 90 70
58 88 68
62 93 72
64 95 74
65 96 75
65 93 72
141 137 118
210 187 168
239 211 191
241 214 194
247 196 173
255 128 79
255 125 74
255 125 74
255 125 74
255 125 74
255 124 73
255 124 73
255 123 73
255 123 72
255 122 72
252 120 71
250 120 71
247 118 70
244 116 69
239 113 67
201 104 65
127 95 68
60 90 70
64 96 74
64 96 75
63 94 73
64 96 75
62 93 73
62 94 74
64 95 74
59 89 69
61 92 71
61 91 71
61 91 71
63 95 73
63 95 74
62 94 73
64 96 75
62 93 73
62 93 72
60 91 71
65 98 76
64 96 75
62 93 72
62 94 73
60 91 71
63 94 73
61 92 71
60 90 70
58 88 69
63 94 74
62 93 73
62 93 72
60 89 69
64 96 75
63 95 74
62 93 72
62 94 73
65 98 76
59 88 69
59 89 69
63 95 73
65 97 75
59 89 69
61 92 72
63 94 74
63 94 74
60 91 71
63 95 74
64 96 75
61 93 72
64 96 75
65 97 75
61 92 71
61 93 72
66 99 77
63 96 75
63 95 73
60 90 70
64 97 75
60 90 70
64 97 75
59 88 69
62 93 73
67 100 78
61 91 71
62 94 73
60 90 70
61 92 71
59 89 69
62 94 73
68 102 79
63 95 74
63 95 73
61 92 72
62 94 73
64 97 75
62 94 73
64 96 74
64 97 75
60 91 70
60 91 70
64 97 75
64 96 75
65 97 75
65 97 75
60 91 71
63 95 73
60 90 70
60 90 70
62 93 72
61 92 72
63 95 74
61 92 72
61 92 71
61 91 71
60 90 69
61 91 71
62 93 72
62 94 72
59 89 69
59 89 68
59 89 69
59 89 69
57 86 66
61 91 70
58 86 66
58 86 66
62 92 70
59 88 68
58 86 66
58 86 65
59 88 67
60 88 67
64 95 72
118 104 69
156 116 72
158 118 73
160 120 74
160 119 74
160 120 74
159 119 73
159 119 74
159 119 73
157 118 73
155 117 73
155 116 72
152 114 71
150 113 70
150 113 70
145 110 68
145 109 68
143 108 67
140 105 65
135 102 63
132 100 62
127 97 60
126 96 60
123 94 59
116 89 56
110 85 53
105 81 51
101 79 50
95 75 48
89 71 45
86 69 44
86 69 43
74 61 37
78 63 39
69 61 40
47 70 55
47 71 55
47 71 55
48 74 58
53 80 62
53 81 63
56 84 65
56 85 66
57 87 67
59 89 69
56 85 66
60 90 70
62 93 73
58 87 67
61 92 71
58 87 67
58 87 68
58 88 68
61 92 72
61 92 71
59 89 69
62 94 74
60 91 71
63 95 74
60 91 71
59 90 70
63 95 74
57 86 67
60 91 71
63 95 74
59 89 70
59 89 70
60 91 71
62 93 72
67 101 79
60 91 71
64 97 75
63 95 74
61 92 71
63 95 74
65 99 77
63 95 74
60 90 70
64 97 75
61 91 71
64 97 75
65 97 75
63 95 74
61 91 70
61 92 71
63 94 72
59 89 69
61 91 70
62 92 71
57 84 65
62 93 72
59 89 68
63 94 72
61 91 70
58 87 66
60 89 68
60 89 68
56 83 63
58 85 64
56 83 64
57 84 64
55 81 61
55 82 62
58 85 65
54 80 61
54 80 61
56 82 62
56 83 63
55 82 62
58 86 65
56 82 62
58 85 64
56 82 63
57 85 64
57 85 65
58 86 65
56 84 64
59 88 68
60 90 69
59 88 67
58 87 67
63 94 73
57 85 66
60 90 69
56 84 65
61 91 70
60 90 69
63 94 73
59 88 68
63 94 73
60 90 70
59 89 68
62 93 72
59 89 69
60 90 70
64 96 74
63 95 74
62 93 72
60 89 69
64 96 75
59 88 69
59 89 69
61 92 71
64 96 74
62 93 73
62 94 73
64 96 75
64 96 75
66 99 77
64 96 75
60 91 70
66 99 77
63 95 74
62 93 72
61 92 72
63 96 74
68 103 80
66 99 77
60 91 71
64 96 74
61 92 72
65 97 75
64 97 75
64 96 74
63 95 74
61 92 72
62 94 73
63 95 74
62 92 72
62 94 73
64 96 75
66 99 77
64 96 75
62 94 73
64 96 75
62 94 73
63 96 75
60 91 71
63 95 74
65 97 76
64 96 74
62 92 72
60 90 70
63 95 74
59 89 69
61 93 72
63 94 73
62 92 72
64 96 75
62 93 72
59 88 68
62 93 72
61 91 71
61 91 71
64 96 75
59 89 69
64 95 74
66 98 76
66 99 77
64 97 75
61 91 71
62 93 72
64 96 74
60 90 70
63 94 73
64 96 75
63 94 73
64 95 74
63 93 72
63 94 73
62 93 72
62 94 73
61 90 70
61 91 70
65 96 75
60 89 70
61 91 70
63 94 73
63 95 73
67 98 76
65 97 75
64 95 74
77 97 76
117 64 56
130 58 54
133 60 56
135 61 57
135 61 57
136 61 58
136 61 58
136 62 58
136 62 58
136 61 58
135 61 58
135 61 58
135 61 58
134 61 58
134 61 57
133 61 57
133 60 57
132 60 57
131 60 57
130 59 56
129 59 56
128 58 55
127 58 55
126 57 54
124 56 53
122 56 52
119 54 51
112 53 49
81 83 66
60 88 68
61 91 70
59 87 68
59 87 67
57 85 66
59 89 69
63 94 73
60 89 69
63 95 73
62 92 71
63 94 73
96 114 93
201 180 160
236 207 187
241 213 193
244 216 196
247 206 184
255 134 87
255 126 74
255 126 74
255 126 74
255 126 74
255 126 74
255 125 74
255 125 74
255 124 73
255 123 73
255 122 72
254 121 72
252 121 71
250 119 71
247 118 70
244 117 69
239 115 68
230 110 65
189 102 66
94 100 76
64 96 75
61 92 72
63 94 73
63 94 73
63 95 74
62 93 72
62 94 73
61 91 71
63 95 74
59 89 69
63 95 74
63 95 74
66 99 77
62 93 73
61 92 72
61 91 71
61 92 72
64 96 75
65 97 76
63 95 74
62 94 73
62 93 72
63 95 73
65 98 76
65 97 75
65 98 76
62 95 74
70 105 82
64 97 76
62 93 72
62 93 73
61 91 71
63 95 74
66 99 78
61 92 72
59 89 70
62 93 72
66 100 77
65 99 77
63 95 74
60 90 70
60 90 70
61 92 71
61 92 71
61 93 72
65 97 76
57 86 67
62 93 72
63 96 75
61 91 71
64 96 75
62 94 73
62 93 73
63 95 74
62 94 73
61 92 71
59 89 70
62 94 73
66 99 77
61 91 71
63 95 74
66 99 77
64 97 75
60 90 70
64 96 75
64 96 75
63 94 73
62 93 72
62 94 73
60 91 70
63 96 74
61 92 71
61 92 72
60 91 70
60 91 70
65 98 76
60 91 71
57 87 67
64 97 75
63 95 73
64 96 74
61 93 72
62 94 73
64 97 75
66 99 77
62 94 73
65 98 76
62 93 72
61 91 71
61 92 71
60 91 70
60 90 69
62 94 73
63 95 73
61 92 71
62 94 72
61 92 71
60 90 70
60 90 69
61 92 71
58 87 67
60 91 70
59 89 69
62 93 71
58 87 67
59 88 67
61 92 70
58 87 66
57 86 65
59 88 68
114 100 68
153 114 70
158 118 73
159 119 74
159 119 74
160 119 74
159 119 73
158 118 73
158 118 73
158 118 74
155 116 72
154 115 72
153 114 71
152 114 71
149 112 70
146 110 68
145 109 68
140 106 66
139 105 65
134 101 63
132 100 62
131 99 62
126 96 60
124 94 59
116 89 56
111 86 53
106 83 51
98 77 48
94 74 47
86 69 44
86 69 43
81 66 41
82 66 41
78 63 39
66 58 37
52 73 56
49 75 58
53 80 62
54 81 62
55 82 63
58 88 68
57 86 67
57 86 67
58 87 67
62 94 73
57 86 66
59 89 69
60 90 69
59 89 69
64 96 75
63 95 74
58 88 68
60 90 70
56 84 65
63 95 74
61 92 71
58 88 69
62 93 73
62 94 73
64 97 76
61 92 72
62 93 73
61 92 72
63 95 74
59 89 70
60 91 71
62 93 73
59 89 69
64 97 75
64 96 75
61 93 72
61 92 72
65 98 76
66 100 78
63 96 75
62 94 73
62 93 73
63 94 73
59 89 69
62 94 73
61 92 71
64 96 75
66 99 77
59 89 69
62 93 72
63 94 73
59 89 68
62 93 72
61 90 69
58 87 67
62 93 72
59 89 69
56 83 64
61 91 70
63 94 72
59 88 67
56 83 64
57 85 65
59 87 67
57 85 65
56 83 63
54 79 60
58 86 66
54 80 61
58 86 65
54 80 61
54 80 61
54 79 60
59 88 67
57 84 64
58 85 65
58 85 65
57 84 64
58 85 65
54 79 60
56 83 64
57 84 65
65 97 75
58 87 67
60 89 68
61 90 70
61 92 71
59 88 68
56 84 65
64 95 74
65 97 75
59 89 69
61 91 71
63 95 74
61 91 71
57 86 67
62 93 72
64 96 75
63 95 74
62 94 73
61 92 71
61 91 71
63 95 74
62 92 72
65 98 76
60 91 71
62 94 73
62 94 73
61 92 71
65 97 76
63 96 74
66 99 77
63 94 73
61 91 71
63 95 74
65 98 77
62 94 73
66 99 77
61 92 71
63 95 73
63 95 74
63 95 74
63 95 74
68 102 80
64 96 74
66 100 78
65 98 77
61 92 72
59 90 70
65 98 76
60 91 71
61 92 71
61 92 72
64 97 76
62 94 73
61 92 71
63 96 74
63 95 74
62 93 72
62 93 73
60 90 70
62 93 72
65 99 77
63 95 74
68 101 79
66 100 78
62 94 73
62 94 73
60 91 70
67 101 78
61 92 72
64 96 74
61 93 72
60 90 70
66 99 77
62 93 73
61 92 72
62 93 72
62 93 72
61 91 71
63 95 74
63 94 73
65 97 76
61 92 71
60 91 70
63 94 73
66 98 76
64 96 74
65 97 76
63 94 73
62 93 72
64 96 74
66 97 75
64 95 74
60 90 70
64 95 74
65 97 75
63 94 73
60 90 70
57 86 67
63 93 72
64 96 74
63 95 74
61 91 70
60 89 69
63 93 72
66 99 77
75 95 74
112 63 55
128 58 54
133 60 56
136 61 57
136 61 57
136 61 58
136 62 58
136 62 58
136 62 58
136 62 58
136 62 58
136 62 58
136 61 58
135 61 58
135 61 58
134 61 58
134 61 57
133 60 57
132 60 57
132 60 57
130 59 56
130 59 56
128 58 55
126 58 54
126 57 54
125 57 54
123 56 53
120 54 51
118 53 50
110 51 48
77 71 57
59 88 68
62 91 71
63 94 73
62 91 70
66 98 76
65 96 74
59 88 68
66 99 77
59 89 69
125 127 108
222 196 176
236 208 188
243 215 194
245 217 196
246 215 194
255 149 110
255 127 75
255 127 75
255 127 75
255 127 75
255 126 75
255 126 74
255 126 74
255 125 74
255 125 74
255 124 73
255 123 73
255 122 72
254 122 72
251 120 71
248 119 70
246 117 69
244 116 69
238 114 68
234 111 66
207 105 65
117 95 69
61 92 71
62 94 73
63 94 73
61 92 72
63 95 74
62 93 72
61 92 72
63 95 74
62 93 72
63 95 74
65 98 76
64 96 75
61 92 72
63 94 73
65 99 77
62 93 73
63 95 74
65 98 76
66 99 77
62 94 73
61 93 72
61 92 72
62 93 73
67 100 78
64 96 75
65 99 77
65 98 76
68 103 80
62 94 73
60 91 71
64 97 76
62 93 73
65 98 76
63 95 74
61 92 72
62 93 73
65 98 76
67 100 78
61 93 72
60 91 71
61 92 72
68 101 78
64 96 74
61 92 72
62 94 73
62 93 72
62 94 74
66 99 77
62 94 73
66 100 78
64 97 75
63 95 74
61 91 71
65 97 75
65 98 77
62 94 73
63 95 74
63 94 73
62 93 72
64 96 74
65 98 76
62 93 73
65 98 76
60 91 71
60 91 71
63 94 73
62 93 72
66 99 77
62 93 72
65 98 76
62 94 73
62 94 73
60 91 71
65 99 77
62 94 73
63 96 74
61 92 72
62 93 72
65 98 76
59 89 69
59 90 70
62 93 73
64 96 75
64 96 74
64 97 75
62 94 73
63 96 74
68 102 79
63 95 73
62 93 72
64 96 74
63 95 74
59 89 68
64 96 74
63 94 72
62 92 71
61 93 72
62 93 71
59 88 68
63 94 72
59 89 68
63 94 73
59 88 68
57 86 66
61 91 70
61 91 70
58 87 67
58 87 67
105 98 67
154 114 70
157 117 73
159 119 74
159 119 73
159 119 74
160 120 74
159 119 74
160 119 74
157 118 73
156 117 73
154 116 72
154 115 71
152 114 71
150 113 70
147 111 69
146 110 68
142 107 67
139 105 65
137 104 65
133 101 63
130 99 62
126 96 60
120 91 57
116 89 55
111 86 53
107 83 52
100 79 49
93 74 47
90 72 46
86 69 44
83 67 42
81 65 40
73 60 36
71 63 40
56 78 59
53 79 61
55 82 63
58 87 67
58 87 67
59 88 67
60 90 69
63 94 72
58 87 67
59 89 69
58 87 67
57 85 66
56 84 65
59 89 68
59 89 69
60 91 71
61 92 71
61 92 72
61 92 72
63 95 74
60 90 70
59 90 70
62 94 73
62 93 73
60 91 71
63 95 74
63 95 74
60 91 71
60 91 71
61 92 72
59 90 70
62 94 74
68 103 80
63 96 75
63 95 74
64 96 75
66 99 77
66 99 77
62 93 72
61 92 72
63 95 74
62 93 72
61 93 72
61 92 71
60 91 71
62 93 72
62 94 73
62 94 73
63 95 73
59 89 69
62 93 72
61 92 71
61 91 70
62 93 72
59 88 68
60 90 69
59 88 68
63 95 73
62 93 72
56 83 64
61 91 70
59 89 68
61 90 70
59 88 68
59 88 68
57 84 65
57 84 64
58 85 65
57 84 64
57 85 65
60 89 68
58 86 66
56 83 63
62 93 71
59 87 67
55 81 61
61 91 70
59 88 67
65 96 74
58 85 66
57 84 65
59 88 68
59 87 67
61 91 70
63 94 73
60 89 69
62 92 71
60 90 69
60 89 69
62 93 72
63 94 73
62 92 71
61 92 71
60 90 70
64 95 73
60 90 70
61 92 71
61 92 71
57 86 67
63 95 74
62 93 72
62 93 72
58 87 68
61 92 71
59 89 70
64 97 75
62 93 72
61 92 71
60 91 70
63 95 73
64 96 74
62 94 73
62 93 72
63 96 74
65 98 76
60 91 71
61 92 72
63 96 74
61 92 72
63 95 74
71 106 82
67 101 79
64 97 75
67 100 78
58 88 68
63 95 73
66 99 77
64 96 75
64 97 75
60 90 70
62 94 73
63 95 74
61 92 72
64 96 75
69 103 80
59 90 70
62 94 73
64 96 74
62 92 72
61 91 71
65 98 76
64 96 74
58 88 68
63 95 74
66 99 77
63 96 74
67 101 79
61 92 71
63 95 74
64 97 76
65 99 77
61 92 72
65 98 76
63 95 74
60 91 71
64 96 75
62 94 73
65 98 76
65 97 75
63 95 74
63 94 73
60 90 70
59 89 69
64 97 76
60 91 71
64 96 75
66 99 77
67 101 79
64 96 75
62 93 72
65 98 76
62 92 72
64 95 74
61 91 71
62 92 71
63 95 74
62 93 72
62 92 71
64 96 75
66 99 77
63 94 73
62 92 72
66 99 77
65 97 75
63 94 73
63 92 71
62 92 72
68 91 71
114 63 55
127 57 53
133 60 56
134 60 57
136 61 57
137 62 58
137 62 58
137 62 58
137 62 58
137 62 58
137 62 58
136 62 58
136 62 58
136 62 58
135 61 58
135 61 58
134 61 58
134 61 57
133 61 57
132 60 57
132 60 57
131 59 56
130 59 56
128 58 55
128 58 55
127 57 54
125 57 54
125 57 53
122 55 52
120 54 50
116 52 48
109 52 47
77 80 63
61 91 70
62 93 72
61 92 71
62 93 72
60 90 70
59 88 68
63 94 73
149 140 122
230 200 179
238 209 189
244 215 195
246 217 197
247 218 198
255 173 142
255 128 75
255 127 75
255 128 75
255 127 75
255 127 75
255 127 75
255 126 75
255 126 74
255 126 74
255 125 74
255 124 74
255 124 73
255 122 72
253 121 72
251 120 71
248 119 70
247 118 70
243 116 69
242 116 68
236 113 67
226 108 64
214 105 63
127 97 70
63 94 73
66 99 77
62 93 72
63 94 73
64 96 75
62 93 72
69 103 80
62 93 73
64 96 75
61 92 72
62 93 72
64 96 75
61 92 71
63 94 73
61 93 72
61 92 72
62 93 72
66 100 77
62 94 73
60 90 70
62 93 72
63 95 74
62 94 74
61 92 72
59 90 71
62 94 73
61 92 72
65 97 75
65 98 76
65 98 76
65 98 76
64 97 75
61 92 71
62 92 72
69 104 81
61 92 71
60 91 71
67 100 78
57 86 67
62 94 73
63 95 74
63 95 74
64 97 76
62 93 72
60 91 71
66 100 77
64 97 75
60 90 70
65 98 77
63 95 74
64 96 75
65 98 76
59 89 70
62 93 72
61 93 72
62 94 73
62 93 73
63 95 74
62 93 73
64 97 75
61 91 71
61 92 72
65 99 77
66 100 77
59 89 69
61 91 71
59 90 70
58 88 68
62 94 73
62 94 73
62 93 72
61 92 72
66 100 77
61 91 71
63 95 74
61 92 71
61 92 72
63 96 75
63 95 73
65 97 75
61 92 71
61 92 71
59 90 69
60 90 69
61 93 72
61 93 72
67 100 78
61 92 72
63 94 73
62 93 72
60 90 69
63 95 73
64 96 74
62 93 72
61 92 72
59 89 69
58 87 67
60 90 70
61 91 70
62 93 72
61 92 71
62 92 70
59 88 68
62 93 72
62 92 70
60 90 69
100 95 66
153 114 70
157 118 73
158 118 73
159 119 74
158 118 73
159 119 73
159 119 74
158 118 73
156 117 72
157 117 73
155 116 72
154 115 71
150 113 70
150 113 70
149 112 70
145 110 68
143 108 67
141 106 66
135 103 64
134 101 63
129 98 61
126 96 60
124 94 59
118 90 56
115 89 56
108 84 52
103 80 51
97 76 48
91 72 46
84 67 42
85 68 43
77 63 39
75 61 38
72 60 37
60 80 60
60 90 69
56 83 63
56 84 65
61 91 70
61 91 70
56 83 64
59 88 68
62 93 71
63 94 73
61 91 70
58 87 68
60 90 69
61 92 72
61 93 72
59 89 69
58 88 68
61 91 71
58 88 68
61 93 72
61 92 71
59 89 69
62 94 73
59 89 70
58 88 69
60 90 70
65 98 76
61 93 72
61 93 72
63 95 74
66 100 78
60 90 71
60 91 71
61 93 72
60 90 70
60 91 71
62 93 72
61 92 72
67 101 79
60 91 71
63 96 74
64 96 75
64 96 75
65 98 76
64 96 75
65 98 76
63 95 74
60 91 71
67 101 78
62 93 72
64 96 75
62 92 72
62 93 72
62 93 72
59 88 68
60 90 70
61 91 71
63 94 72
61 92 71
58 87 67
62 93 71
62 93 72
60 90 69
61 90 70
61 92 71
58 86 66
57 86 66
58 87 67
62 93 71
59 88 67
60 90 69
63 93 72
64 95 73
59 87 67
60 89 68
58 87 67
59 88 68
58 87 67
61 91 70
63 94 73
59 89 69
59 88 67
58 87 67
60 91 70
61 91 71
60 89 69
61 90 70
59 87 67
62 93 72
58 87 68
62 93 72
61 92 71
60 90 70
61 91 71
57 86 66
63 94 73
63 94 73
60 91 70
64 96 74
59 88 68
65 97 75
65 98 76
66 98 76
63 95 74
60 91 70
67 100 78
64 96 74
62 93 72
63 96 75
58 87 68
66 100 77
61 92 72
62 93 72
65 98 76
64 96 75
68 102 79
65 97 76
64 96 75
63 95 74
59 89 69
59 90 70
65 97 76
62 94 73
60 90 70
64 97 75
65 98 76
65 98 76
61 92 72
68 103 80
64 96 75
63 95 74
65 98 76
64 97 75
60 91 71
63 95 74
60 90 70
62 93 72
62 94 73
64 96 75
61 93 72
60 91 71
62 93 72
64 96 74
65 97 76
65 97 76
67 100 77
63 95 74
65 98 76
66 99 77
66 100 78
64 96 75
62 93 73
66 99 77
65 98 76
65 97 76
63 94 73
61 92 72
61 92 72
63 94 74
66 98 76
62 93 72
63 95 74
60 90 70
61 90 70
60 90 70
63 95 74
61 91 71
62 93 72
63 95 74
62 94 73
63 94 73
67 101 78
60 89 69
66 99 76
64 97 75
72 107 83
62 94 73
63 95 74
63 94 73
61 91 71
64 95 74
65 97 75
60 89 69
61 90 70
61 90 70
61 91 71
65 97 75
66 96 75
108 72 60
126 57 52
130 58 54
133 60 56
136 61 57
136 61 57
137 62 58
137 62 58
137 62 58
137 62 58
137 62 58
136 62 58
136 62 58
136 62 58
136 62 58
136 61 58
135 61 58
134 61 58
134 61 57
133 61 57
133 60 57
132 60 57
131 60 56
129 59 55
128 58 55
128 58 55
126 57 54
125 57 53
123 56 53
122 55 51
121 54 51
119 53 49
113 50 47
103 52 46
74 93 73
65 97 75
63 94 73
63 94 73
61 91 71
65 95 74
148 140 120
226 196 175
237 207 186
243 214 194
244 215 195
247 219 198
254 199 174
255 130 78
255 128 75
255 128 75
255 128 75
255 128 75
255 127 75
255 127 75
255 127 75
255 126 75
255 126 74
255 125 74
255 125 74
255 124 73
255 123 73
255 122 72
253 121 72
251 120 71
247 118 70
245 117 69
244 116 69
239 114 68
234 112 66
225 108 64
214 104 62
138 96 68
64 96 75
61 92 72
60 90 70
63 96 75
63 94 73
66 100 78
62 94 73
60 91 71
61 91 71
64 96 75
61 92 72
62 93 73
62 94 73
62 94 73
62 94 74
61 91 71
66 100 78
63 94 73
63 94 74
63 94 73
62 94 73
63 95 74
63 95 74
60 90 70
65 98 77
62 93 72
67 100 78
63 95 74
67 101 79
63 95 74
60 90 70
64 97 75
63 95 74
66 100 78
64 96 75
62 94 73
64 97 75
62 94 73
65 99 77
61 92 72
60 90 70
63 96 75
62 94 73
63 95 74
66 100 78
64 97 75
62 93 72
64 96 75
63 95 73
63 96 74
63 95 74
62 94 73
67 101 78
62 93 72
63 96 75
59 90 70
60 91 71
61 92 71
62 93 73
61 92 72
63 95 74
62 93 72
62 93 72
58 88 69
59 89 69
61 91 71
60 90 70
64 97 75
63 95 74
63 94 73
62 93 72
63 96 75
60 91 71
64 97 75
62 93 72
60 90 70
62 94 73
63 95 74
61 92 72
61 92 71
60 91 71
65 98 76
61 91 71
64 97 76
60 90 70
60 91 71
58 87 67
66 99 77
57 86 67
61 92 71
63 94 73
64 97 75
64 96 74
62 93 72
60 90 69
61 91 71
63 94 73
57 86 66
63 94 73
63 94 72
65 98 75
58 87 66
61 91 70
58 87 68
92 95 68
153 115 71
157 117 72
159 118 73
159 119 74
160 119 74
159 119 73
157 118 73
159 119 74
157 118 73
156 117 73
155 116 72
155 116 72
150 113 70
150 113 70
148 111 69
146 110 68
142 107 67
140 106 66
138 105 65
134 101 63
130 99 62
127 97 60
122 93 58
117 90 56
116 89 56
110 85 53
103 81 51
97 76 48
91 72 46
89 71 45
85 68 43
81 66 41
74 61 37
70 58 35
63 80 59
59 88 67
60 89 68
61 92 70
56 84 64
57 85 65
56 85 65
60 90 69
61 91 71
62 93 72
59 89 69
59 88 68
60 90 70
60 89 69
55 83 64
58 88 68
63 95 74
58 88 68
59 89 69
58 87 68
61 93 72
60 91 71
63 95 74
58 88 69
58 88 68
59 89 69
59 89 69
60 91 71
56 85 66
61 93 73
61 92 72
64 97 75
60 91 71
61 93 72
60 91 71
61 92 72
65 98 76
66 100 78
65 98 76
62 93 73
64 97 75
66 100 78
61 92 71
63 95 74
63 95 73
66 100 78
61 92 71
66 99 77
64 97 75
65 97 76
64 96 74
65 98 76
62 93 72
61 92 71
64 96 74
59 89 69
62 94 73
65 97 75
66 98 76
63 94 73
58 87 67
64 96 74
60 89 69
58 87 67
59 89 68
66 98 75
63 94 72
60 89 69
62 92 71
61 92 71
61 90 69
63 94 72
62 93 72
60 90 70
62 93 72
61 92 71
61 91 70
62 93 72
62 92 71
63 94 73
58 87 67
61 91 71
62 93 71
61 91 70
59 87 67
59 89 69
61 91 71
62 94 73
61 92 72
63 95 73
64 96 74
69 104 80
63 94 73
58 88 69
62 92 71
63 94 73
64 95 74
63 95 74
63 95 73
60 91 70
61 91 71
61 92 71
61 92 71
61 93 72
64 97 75
63 95 74
60 90 70
64 97 75
60 91 70
59 88 69
63 95 74
62 93 72
61 91 71
64 96 74
63 96 74
63 94 73
61 93 72
62 93 72
63 95 74
65 97 75
61 92 72
64 96 74
65 98 76
61 91 71
66 100 78
62 94 73
63 95 74
64 97 76
67 100 78
64 96 75
63 95 74
66 100 78
64 96 74
64 97 76
65 97 76
63 94 73
63 95 74
62 94 73
68 102 80
66 98 76
60 90 70
62 94 73
65 98 76
62 94 73
64 96 75
63 95 74
61 92 71
64 96 75
62 94 73
63 95 74
61 93 72
63 96 75
61 92 72
65 98 77
63 95 74
62 94 73
72 108 84
64 97 75
61 92 71
63 95 74
64 96 75
61 92 71
62 93 72
64 97 76
62 93 72
63 95 74
64 96 74
61 91 71
63 95 74
60 91 71
61 92 71
60 90 70
62 92 71
63 95 74
62 94 73
66 99 77
63 95 74
61 92 72
63 95 73
61 92 72
63 94 73
62 94 73
65 97 75
60 89 69
64 95 74
61 92 71
62 93 72
66 98 76
92 89 71
122 55 51
129 58 54
131 59 55
134 60 56
136 61 57
137 62 58
136 62 58
136 62 58
137 62 58
137 62 58
137 62 58
137 62 58
137 62 58
136 62 58
136 62 58
136 62 58
135 61 58
134 61 58
134 61 57
133 60 57
133 60 57
132 60 57
131 59 56
130 59 56
128 58 55
128 58 55
126 57 54
125 56 53
124 56 53
123 55 51
122 54 51
120 53 50
118 52 48
113 49 45
99 58 49
66 97 75
63 94 73
62 92 72
62 93 72
126 125 106
224 193 174
232 200 179
239 208 188
244 214 192
246 217 196
248 217 196
255 147 106
255 128 75
255 128 75
255 128 75
255 128 75
255 128 75
255 127 75
255 127 75
255 127 75
255 126 75
255 126 74
255 125 74
255 125 74
255 124 73
255 124 73
253 121 71
252 120 71
251 120 71
247 118 70
248 118 70
243 116 69
239 114 68
234 112 66
230 110 65
217 104 61
208 101 60
115 98 72
62 93 73
61 92 72
63 94 73
64 97 76
58 87 68
63 95 74
66 100 78
61 92 71
65 98 76
62 93 72
63 95 74
60 90 70
62 94 74
63 95 74
63 94 73
62 93 72
61 92 72
63 95 74
64 97 76
60 91 71
61 92 71
63 95 74
63 96 75
64 96 75
65 98 76
61 92 72
62 93 73
60 91 71
64 96 75
62 93 72
65 98 76
62 94 73
62 94 73
63 94 74
64 97 76
68 101 79
58 88 69
62 94 73
61 93 72
59 89 69
62 94 74
62 94 73
62 94 73
63 94 73
59 89 69
61 91 71
63 95 73
61 93 72
59 89 69
63 96 74
64 97 75
65 98 77
61 92 71
60 90 70
61 91 71
61 92 72
60 91 71
60 91 71
61 92 72
61 92 71
64 97 76
62 94 73
61 92 72
63 95 74
63 95 73
61 92 72
65 98 76
64 96 75
69 104 81
61 92 72
60 91 71
60 91 71
63 95 73
63 95 74
63 95 74
63 96 74
63 94 73
65 98 76
62 93 72
62 94 73
63 96 74
60 90 70
61 92 72
63 95 74
61 91 71
62 94 72
59 89 69
64 96 74
62 93 72
62 92 71
65 97 76
61 92 71
60 90 70
63 94 73
61 92 71
64 97 75
61 91 71
60 89 69
61 92 71
64 95 74
61 90 69
60 90 69
90 98 71
147 111 69
156 116 72
158 118 73
160 120 74
159 119 74
160 120 74
159 119 74
159 119 74
158 118 73
157 118 73
155 117 72
153 115 71
151 113 70
150 113 70
148 112 69
145 109 68
143 108 67
140 106 66
138 104 65
134 101 63
131 100 62
128 97 61
125 95 59
119 91 57
117 90 56
107 83 52
102 80 50
98 77 49
89 71 45
85 69 43
78 64 39
80 65 41
75 61 38
75 61 37
64 79 58
59 89 68
57 85 65
58 87 67
59 88 67
61 91 70
61 92 71
58 87 67
57 85 66
59 89 69
57 86 66
58 87 67
58 88 68
61 92 71
61 91 71
59 89 69
61 92 72
60 91 70
62 93 73
57 85 66
58 87 68
62 93 72
61 92 71
59 90 70
58 88 68
60 91 71
60 91 71
64 97 75
61 92 72
57 87 67
59 90 70
63 96 75
59 89 69
61 92 72
64 96 75
58 88 69
60 91 71
62 93 72
62 94 73
64 96 74
62 94 73
60 90 70
61 92 71
63 95 74
60 91 71
61 93 72
70 106 82
60 91 71
62 94 73
64 97 76
66 98 76
61 92 71
65 98 76
61 93 72
63 95 73
62 93 72
58 88 68
60 90 70
63 94 73
62 93 72
64 96 74
62 93 72
63 95 74
62 93 72
62 93 72
61 91 70
61 91 71
60 90 69
63 95 73
67 100 77
58 86 67
61 92 71
61 91 70
61 91 71
59 89 69
62 93 72
64 95 73
62 93 72
62 93 72
62 93 72
61 92 71
60 90 69
60 90 70
67 100 78
59 89 69
57 84 65
60 90 70
62 92 71
61 91 70
64 96 75
61 92 71
61 92 71
63 95 74
65 98 76
61 92 72
62 93 72
60 90 69
58 88 68
60 90 70
65 98 76
65 97 75
60 91 71
64 95 74
60 90 70
62 93 72
62 94 73
60 91 71
60 91 71
61 91 71
67 100 78
62 93 72
60 91 71
62 93 72
62 94 73
59 89 69
67 100 78
64 96 75
67 102 79
65 97 75
61 92 72
66 99 77
62 93 73
65 99 77
60 91 71
62 94 73
63 96 75
65 98 76
62 94 73
61 92 72
63 95 74
63 95 74
63 95 74
61 91 71
66 99 77
64 97 75
64 96 74
64 96 75
67 100 78
66 99 77
65 97 76
66 99 77
62 94 73
68 103 80
66 99 77
64 96 75
64 96 75
63 94 74
67 100 78
65 98 76
64 96 75
61 91 71
63 95 74
63 94 73
61 92 71
65 98 76
62 93 72
63 95 74
64 97 76
67 100 77
61 92 71
60 90 70
62 92 72
65 97 75
63 94 74
64 96 75
64 96 75
62 92 72
64 96 75
61 91 71
66 99 77
65 97 75
66 99 77
67 100 77
64 97 75
61 91 71
63 95 74
64 95 74
64 96 74
63 94 73
63 95 74
63 95 74
64 95 74
65 97 75
62 94 73
63 95 74
63 94 73
62 92 71
59 89 69
73 87 68
117 56 51
125 56 52
129 58 54
133 59 55
135 61 57
136 61 57
137 62 58
137 62 58
136 62 58
137 62 58
137 62 58
137 62 58
137 62 59
138 64 60
139 66 62
139 68 63
138 67 62
136 64 60
135 62 58
134 61 57
133 61 57
133 60 57
132 60 57
131 59 56
128 58 55
128 58 55
127 58 54
126 57 54
125 57 53
126 56 53
123 55 52
122 54 51
120 53 49
118 52 47
116 50 46
108 47 43
82 79 63
65 98 76
62 93 72
103 112 92
210 178 158
229 198 177
238 207 187
241 210 189
246 217 196
247 218 197
255 187 158
255 128 75
255 128 75
255 128 75
255 128 75
255 128 75
255 128 75
255 127 75
255 127 75
255 127 75
255 126 75
255 126 74
255 126 74
255 125 74
255 124 73
255 123 73
255 122 72
252 121 71
251 120 71
248 118 70
246 118 70
244 117 69
241 116 68
236 113 67
230 110 65
222 107 65
205 139 115
177 142 124
84 106 85
67 100 78
65 97 76
61 93 72
61 92 72
60 90 70
63 94 73
65 98 76
67 100 78
63 96 75
60 91 71
61 92 72
61 92 71
61 92 71
60 91 71
62 93 72
66 99 77
61 91 71
63 94 74
58 87 68
59 90 70
62 94 73
65 98 76
68 102 79
62 94 73
61 93 72
65 98 76
63 95 74
64 97 75
61 93 72
60 91 71
62 94 73
61 91 71
60 90 70
64 97 75
62 94 73
59 88 69
62 93 72
63 95 74
63 95 74
62 94 73
63 95 74
61 92 72
63 96 74
62 92 71
60 91 71
61 93 72
64 96 74
61 91 71
63 96 74
67 100 78
59 90 70
62 94 73
64 96 75
61 91 71
58 88 68
60 90 70
62 94 73
61 91 71
62 94 73
65 98 76
61 91 71
62 94 73
65 98 76
64 97 76
63 96 74
60 89 69
64 96 75
65 98 76
62 93 72
59 89 69
63 96 74
63 95 73
66 100 78
63 95 74
62 93 73
64 95 74
62 93 72
60 90 69
64 96 74
61 93 72
61 92 71
59 89 69
62 94 73
62 93 72
63 96 74
62 93 72
61 91 71
61 91 71
64 97 75
64 97 75
61 92 71
59 89 69
60 91 71
66 98 76
61 92 71
61 91 71
60 90 69
60 90 70
63 95 73
62 92 71
78 93 70
148 113 71
156 117 73
159 118 73
159 119 73
160 119 74
160 120 74
159 119 73
159 119 74
158 118 73
157 117 73
155 117 73
155 116 73
153 115 71
150 112 70
147 111 68
145 109 67
145 110 69
140 106 66
138 105 65
133 101 63
132 101 63
127 97 60
124 95 59
121 93 58
115 88 55
108 83 52
105 82 51
101 79 50
90 72 45
84 68 43
83 67 41
84 68 42
76 62 38
80 65 40
62 74 54
58 87 66
57 85 65
58 87 67
56 84 64
60 90 69
59 88 68
62 93 72
59 89 69
57 85 66
59 88 68
61 92 71
60 90 69
58 87 67
58 87 68
61 91 70
58 86 67
59 90 70
64 97 75
58 87 68
58 88 69
59 89 69
60 91 71
62 93 72
58 88 69
58 88 68
61 92 72
60 90 70
62 94 73
61 93 73
62 94 73
57 86 67
64 96 75
60 91 71
59 89 69
60 92 71
59 89 70
57 87 68
62 93 73
65 98 76
65 98 76
62 93 72
62 93 73
60 90 70
60 91 70
63 95 74
64 97 75
64 96 74
67 101 78
63 95 74
65 97 76
65 97 76
61 92 72
61 93 72
64 97 75
65 97 75
65 98 76
61 92 71
61 92 72
62 93 72
61 92 71
60 90 70
62 93 72
62 93 72
62 93 72
62 93 72
58 87 68
63 95 74
62 94 72
63 95 73
63 95 73
58 88 68
59 88 68
58 88 68
59 89 69
60 90 70
62 93 72
66 99 77
65 97 75
64 95 73
63 95 73
65 98 76
61 92 71
64 96 74
67 99 77
60 90 69
59 88 68
63 95 74
63 95 74
62 93 72
59 88 68
62 92 71
59 88 69
64 96 74
58 88 68
61 92 71
63 94 73
61 92 72
61 92 72
60 91 70
62 94 73
66 99 77
62 93 72
61 93 72
63 95 74
63 95 73
60 90 70
66 98 76
62 94 73
64 96 75
62 94 73
63 95 74
63 96 74
63 95 74
60 90 70
62 93 72
60 91 71
64 97 75
62 93 73
63 96 74
63 94 73
61 92 71
60 90 70
66 99 77
61 92 71
68 102 79
58 88 68
63 95 74
68 103 80
66 99 77
65 99 77
64 96 75
64 97 75
67 101 79
63 95 74
64 95 74
67 101 78
67 101 78
61 92 72
65 97 76
63 95 74
61 92 72
66 100 78
67 100 78
64 96 75
61 92 71
64 96 75
60 90 70
65 98 76
67 101 78
64 96 75
64 97 76
63 95 74
65 98 76
68 103 80
63 95 74
66 99 77
64 96 75
62 93 72
62 94 73
63 94 74
64 96 75
60 90 70
64 96 75
62 93 72
63 94 73
65 97 75
61 91 71
62 94 73
64 96 75
65 97 76
62 94 73
68 101 79
62 93 72
60 91 71
61 92 71
65 98 76
64 96 74
65 97 75
63 96 75
66 99 77
65 97 76
62 93 72
67 101 79
60 90 70
62 93 72
63 93 72
62 92 71
62 93 73
99 68 57
119 54 50
127 57 52
130 58 54
132 59 55
134 60 56
136 61 57
137 61 57
136 62 58
137 62 58
137 62 58
136 62 58
137 63 59
140 67 62
145 77 70
152 87 78
154 91 80
151 87 77
143 76 69
137 66 61
134 62 58
134 61 57
133 60 57
132 60 56
131 59 56
129 59 55
129 58 55
127 58 55
126 57 53
124 56 53
125 56 52
124 55 51
124 54 50
121 53 49
120 52 47
118 50 45
113 48 43
102 49 42
67 90 70
77 102 80
188 161 141
222 189 168
231 199 177
239 208 187
242 211 190
244 214 193
250 213 190
255 139 94
255 128 75
255 128 75
255 128 75
255 128 75
255 128 75
255 128 75
255 128 75
255 128 75
255 127 75
255 127 75
255 126 74
255 125 74
255 125 74
255 124 73
255 123 72
254 121 71
253 121 71
250 119 70
247 118 70
245 117 69
243 116 69
239 114 67
239 114 68
231 113 70
209 165 145
200 179 164
187 167 152
151 143 128
69 97 77
65 98 76
64 96 75
61 91 71
62 93 72
63 96 75
63 95 73
60 90 70
63 95 74
63 95 73
63 95 74
65 98 76
61 91 71
65 97 76
65 97 76
62 94 73
64 96 75
60 92 71
59 90 70
59 89 69
64 97 75
63 96 74
66 99 77
65 98 76
62 94 73
62 93 72
57 86 67
64 96 75
64 96 75
58 87 68
62 94 73
60 91 71
62 93 73
64 96 74
63 95 74
65 97 76
59 90 70
66 100 78
64 97 75
66 100 78
62 94 74
63 95 74
62 94 74
64 96 75
65 99 77
62 93 72
64 97 75
60 91 71
64 96 74
63 94 73
61 92 72
62 94 73
59 89 69
62 94 73
66 99 77
61 92 72
62 94 73
63 96 74
60 91 71
64 96 75
63 96 75
64 96 75
62 94 73
66 99 77
63 95 74
66 100 77
62 94 73
61 91 71
62 93 72
62 94 73
60 90 70
63 94 73
63 95 74
61 91 71
60 91 70
61 93 72
63 95 74
64 96 75
62 93 72
61 92 72
63 95 73
62 93 73
63 95 74
61 92 71
65 97 76
61 92 71
61 91 71
63 95 74
67 101 78
62 93 72
65 98 76
62 93 72
64 95 74
59 89 69
60 90 70
60 91 70
61 91 70
60 90 69
61 92 71
74 97 73
145 112 71
156 116 72
158 118 73
159 119 74
160 119 74
160 119 74
160 120 74
159 119 74
158 118 73
157 118 73
155 116 73
155 117 73
151 114 71
150 113 70
150 113 70
145 109 68
142 107 66
143 108 67
139 105 65
134 102 63
130 99 62
130 99 61
126 96 60
120 92 57
117 90 56
110 85 53
103 81 50
101 79 50
90 72 45
86 69 43
86 69 44
82 67 42
76 62 38
75 61 37
59 67 47
58 87 67
58 87 66
57 86 66
60 89 69
57 86 66
59 89 69
58 87 67
62 93 72
61 91 71
59 89 69
60 90 70
62 93 72
62 93 72
63 95 74
63 94 73
62 93 72
62 93 72
61 91 70
60 90 70
56 85 66
62 93 72
62 93 73
59 90 70
59 88 69
58 88 68
60 90 70
61 93 72
61 93 73
65 98 76
60 91 71
62 94 73
60 91 71
59 90 70
61 92 72
60 92 71
62 94 73
63 95 74
64 97 76
65 98 77
63 95 74
67 101 78
66 99 77
62 94 73
66 99 77
62 94 73
64 96 75
65 98 76
63 95 74
65 98 76
67 101 79
63 94 73
63 94 73
61 92 71
62 94 73
61 92 71
63 94 73
60 90 70
66 99 76
62 94 73
60 90 70
59 89 70
58 87 68
63 95 74
60 91 70
62 93 72
63 94 73
60 90 70
65 97 75
61 92 72
64 97 75
59 89 69
59 89 69
63 95 74
61 92 71
66 99 77
61 92 71
62 93 72
63 95 73
68 102 79
66 99 77
63 95 73
65 97 75
61 92 72
65 97 75
62 94 72
58 86 67
63 95 74
66 100 77
61 91 71
64 96 75
60 91 70
59 88 69
64 96 75
61 92 72
63 95 73
60 91 70
67 100 78
63 95 74
61 91 71
63 95 74
62 93 72
62 93 72
62 93 72
64 96 75
63 95 74
64 97 75
62 94 73
63 96 74
61 91 71
62 93 72
60 90 70
63 94 73
61 91 71
63 96 75
67 101 78
62 93 73
63 95 74
67 100 78
65 98 76
63 96 74
63 95 74
61 91 71
62 93 72
64 96 75
62 94 73
64 97 75
65 98 76
67 102 79
63 96 75
67 101 79
63 96 74
65 98 76
66 99 77
67 101 79
63 95 74
60 91 71
63 95 74
63 95 74
62 93 73
61 92 72
65 98 76
63 96 75
62 92 72
63 94 73
62 94 73
63 94 73
65 98 76
60 91 70
67 101 78
63 95 74
62 93 73
66 99 77
66 99 77
61 92 71
64 96 75
68 102 79
60 90 70
66 99 77
64 97 75
66 98 76
63 95 74
61 92 71
61 92 72
63 94 73
60 91 71
65 98 77
61 92 72
64 96 75
68 103 81
64 95 74
63 95 73
63 94 73
70 105 82
67 101 78
63 94 73
61 92 71
64 95 74
62 93 72
62 93 72
67 100 78
65 98 76
61 92 72
66 99 77
63 94 73
65 98 76
63 95 74
60 89 69
64 95 74
74 90 70
114 52 47
121 55 50
128 58 53
129 58 54
133 60 55
134 60 56
136 61 57
136 61 57
136 61 57
137 62 58
137 62 58
137 62 58
139 66 61
147 79 71
164 104 91
185 131 113
189 136 117
178 123 107
160 100 88
143 75 68
135 64 59
133 61 57
133 60 57
132 60 56
131 59 56
128 58 54
128 58 54
126 57 54
125 56 53
124 56 52
123 55 52
123 54 51
123 54 50
122 53 49
119 52 47
116 50 45
115 48 43
106 44 39
80 71 56
144 133 114
214 179 159
225 191 170
231 198 177
237 205 184
243 214 193
246 217 196
255 169 136
255 128 75
255 128 75
255 128 75
255 128 75
255 128 75
255 129 76
255 130 77
255 131 79
255 130 79
255 129 77
255 127 76
255 126 74
255 125 74
255 125 74
255 124 73
255 123 72
253 120 71
251 119 70
248 118 70
246 117 69
246 117 69
243 116 68
239 114 67
236 116 72
217 164 142
205 184 167
200 180 164
187 168 153
177 158 143
110 117 100
65 97 75
63 94 74
65 98 76
62 94 73
68 101 79
64 96 75
61 92 72
60 91 70
65 98 76
63 95 74
62 94 73
64 97 75
60 91 71
64 96 74
60 91 71
62 94 73
62 93 73
62 94 73
64 96 75
66 99 77
61 92 72
63 95 74
64 97 75
66 99 77
68 102 79
61 92 71
63 95 74
64 96 74
61 93 72
60 91 71
61 92 72
61 91 71
63 95 74
65 99 77
63 95 74
60 91 71
63 95 74
66 100 78
64 96 75
61 92 71
62 94 73
61 93 72
60 91 71
63 94 73
66 99 77
66 99 77
62 93 73
62 93 72
60 91 71
64 97 75
63 96 75
62 94 73
64 97 75
66 100 78
61 93 72
63 94 73
68 102 80
63 95 74
64 97 75
59 89 69
62 93 73
66 99 77
62 93 72
61 92 71
66 99 77
63 95 74
59 90 70
61 92 72
65 98 76
64 96 75
64 96 75
67 100 78
65 98 76
60 91 71
61 92 71
63 96 75
67 101 78
61 91 71
61 91 71
64 97 75
63 94 73
58 87 68
59 88 68
60 91 71
57 86 67
64 97 75
62 93 72
62 93 72
63 95 74
63 95 73
57 86 67
63 95 73
61 92 71
60 90 70
62 93 72
59 89 69
62 93 73
71 94 72
137 109 70
157 117 72
158 119 74
160 119 74
160 119 74
160 120 74
160 120 74
159 119 74
157 118 73
157 118 73
157 118 73
154 116 72
153 115 71
152 114 71
148 111 69
146 110 68
142 107 67
141 106 66
140 106 66
136 103 64
131 100 62
130 99 62
124 94 59
122 93 58
119 92 58
112 86 54
107 84 52
101 80 50
90 72 45
86 69 44
82 67 41
84 68 42
82 66 41
72 59 36
73 73 51
58 87 67
62 93 72
62 93 72
64 95 74
60 89 69
62 94 73
59 88 68
61 91 70
58 87 67
58 87 67
59 89 69
64 96 75
58 87 68
61 92 71
62 94 72
62 93 72
59 89 69
62 93 73
61 92 71
58 88 68
58 88 69
58 87 67
59 89 69
57 87 68
57 87 67
57 87 67
62 94 73
59 90 70
60 91 71
60 90 70
65 98 76
63 95 74
60 90 70
64 96 75
61 93 72
59 90 70
60 90 70
64 97 75
69 104 81
63 95 74
68 102 79
66 99 77
61 92 72
64 97 76
67 100 78
66 99 77
61 92 72
60 90 70
62 93 72
61 92 72
64 96 74
60 90 70
61 91 71
62 94 73
64 96 75
61 91 71
58 88 68
62 94 73
62 93 72
61 92 72
64 96 75
64 96 75
64 97 75
61 92 71
66 99 76
62 92 71
67 100 78
62 93 72
62 93 73
62 93 72
60 91 70
61 92 71
59 89 69
61 92 72
62 93 72
60 90 70
61 92 71
62 94 72
63 95 73
62 93 72
63 94 73
61 91 71
61 92 72
61 91 71
59 89 70
63 94 73
66 99 77
64 96 75
62 93 72
62 93 72
65 98 76
62 93 72
65 98 76
67 102 79
63 95 74
60 91 71
63 94 73
64 95 74
62 94 73
64 96 75
61 92 72
62 94 73
62 94 73
67 100 78
62 93 72
58 87 67
60 90 70
61 92 72
62 93 72
61 93 72
62 93 72
65 98 76
64 97 75
62 94 73
62 93 73
64 97 76
66 99 77
59 89 69
61 93 72
62 94 73
68 102 79
66 99 77
62 94 73
64 96 75
63 95 74
61 91 71
63 95 74
65 98 76
63 94 73
62 93 72
68 102 79
60 91 71
61 91 71
65 98 76
61 92 72
67 101 79
64 96 74
59 89 69
63 95 74
62 92 72
64 96 75
68 102 79
66 100 78
63 95 74
61 93 72
64 96 75
62 94 73
67 101 79
64 96 75
62 94 73
64 96 75
62 93 73
59 89 69
64 96 75
66 100 78
64 97 75
65 98 76
65 98 76
64 97 75
65 98 76
65 98 76
66 98 76
63 95 74
62 94 73
64 96 75
67 100 78
64 96 75
63 94 73
63 95 74
64 96 75
62 93 73
62 93 72
68 103 80
68 103 80
64 96 75
66 99 77
62 93 73
62 93 72
64 96 74
61 92 72
58 88 69
62 93 72
60 90 70
62 94 73
57 86 66
63 95 73
63 94 73
62 93 72
66 99 77
92 75 61
119 54 50
122 54 50
126 56 52
129 58 53
132 59 55
134 60 56
135 60 56
136 61 57
137 62 57
137 62 57
137 62 58
138 63 59
142 72 65
160 99 87
190 137 118
220 171 146
227 178 152
204 153 131
173 118 102
147 82 73
137 66 61
133 61 57
132 60 56
131 59 56
130 59 55
129 58 55
128 58 54
125 57 53
126 57 53
125 56 53
123 55 51
122 55 51
123 54 50
122 53 48
120 52 47
118 50 45
114 47 42
108 44 38
99 57 49
189 153 133
215 179 158
225 191 169
233 201 180
240 210 188
242 211 190
248 207 183
255 132 82
255 128 75
255 128 75
255 128 75
255 128 75
255 129 77
255 133 81
255 140 89
255 145 95
255 145 95
255 139 88
255 131 80
255 127 76
255 125 74
255 125 73
255 124 73
255 122 71
253 120 71
250 119 70
247 118 69
247 118 69
245 117 69
243 116 68
238 114 67
226 161 137
211 188 171
207 186 169
199 178 162
190 171 155
176 159 145
156 143 130
69 100 78
66 100 77
63 96 74
64 96 75
62 92 71
61 92 72
67 101 79
63 96 74
65 97 75
63 94 73
61 92 72
60 90 70
63 94 73
63 95 74
63 95 74
60 91 71
62 94 73
61 92 72
60 91 71
66 99 77
61 92 72
65 98 76
60 91 70
62 93 72
63 94 73
66 99 77
66 99 77
69 104 81
64 97 75
61 92 72
60 91 71
63 95 74
62 94 73
65 98 76
61 92 72
59 89 69
63 95 74
65 98 77
64 97 76
61 92 71
62 94 73
63 96 74
61 92 72
60 90 70
62 93 73
66 100 78
64 96 75
64 96 75
62 94 73
58 88 69
59 89 70
61 93 72
62 93 72
59 89 69
59 89 69
62 94 73
64 97 75
60 90 70
63 94 73
61 92 71
64 96 75
67 101 79
64 97 76
63 96 75
63 96 75
63 95 74
61 93 72
60 91 71
60 91 71
65 97 76
61 92 71
66 99 77
65 98 76
61 92 72
64 97 76
65 97 75
65 98 76
65 99 77
63 95 74
61 93 72
61 92 71
60 91 70
58 87 68
60 91 71
61 91 71
63 95 74
63 95 74
62 93 72
60 90 70
61 92 72
60 90 70
60 91 70
63 95 74
62 93 72
64 96 74
60 90 70
67 96 74
132 105 67
154 115 71
157 118 73
159 119 74
161 120 74
160 120 74
160 120 74
158 118 73
158 119 74
157 118 73
156 117 73
155 116 72
154 115 72
150 113 70
150 113 70
146 110 68
145 109 68
142 107 67
137 104 64
134 102 63
135 103 64
129 98 61
127 96 60
121 93 58
117 90 57
114 88 55
105 82 51
101 79 50
91 73 46
84 68 43
85 68 43
82 66 41
81 66 41
75 61 38
61 60 40
59 88 68
58 87 67
60 90 69
59 89 68
63 95 74
59 89 68
59 90 70
63 94 73
61 92 71
59 89 69
59 89 69
62 93 72
64 96 75
61 92 71
57 86 66
57 86 67
60 90 70
59 89 69
66 99 77
59 89 69
61 92 72
58 88 68
58 88 68
62 94 73
61 91 71
62 94 73
62 95 74
65 99 77
63 96 75
59 89 69
60 91 71
63 96 74
59 90 70
60 91 71
57 87 68
61 93 72
60 91 71
61 91 71
61 92 71
64 97 76
66 99 77
63 95 74
66 99 77
65 99 77
65 98 76
66 100 77
62 93 72
67 100 78
66 99 77
64 97 75
63 95 74
64 96 74
65 98 76
62 94 73
63 96 74
65 98 76
64 96 75
64 97 75
64 97 76
65 97 75
63 95 73
62 93 72
64 97 76
64 95 74
60 90 70
62 93 72
61 93 72
64 96 75
61 92 71
63 95 74
63 95 74
61 91 70
60 90 70
59 88 69
62 94 73
62 94 73
63 94 73
63 94 74
63 95 74
61 92 71
61 92 71
60 90 70
61 92 71
66 99 77
62 93 73
61 92 71
63 95 74
65 98 76
62 93 72
63 96 74
63 95 73
62 94 73
64 96 74
65 98 76
66 99 77
68 102 79
63 95 74
64 96 75
62 93 72
63 96 74
59 89 70
61 92 71
67 100 78
65 98 76
61 92 71
67 100 78
62 93 72
61 92 71
64 96 75
64 96 75
62 94 73
60 91 71
62 94 73
63 95 74
61 93 72
62 93 73
63 94 73
62 94 73
62 94 73
65 98 76
59 89 70
64 96 75
64 96 75
65 97 76
62 94 73
64 96 74
60 91 71
61 92 71
65 98 76
62 93 72
66 100 77
65 98 77
61 93 72
64 96 75
63 95 74
68 102 79
66 100 77
66 99 77
62 94 73
61 93 72
62 94 73
60 90 70
63 95 74
63 95 74
63 95 74
64 96 75
63 95 74
64 96 75
66 100 78
66 99 77
65 98 76
62 94 73
64 97 75
64 96 75
64 96 75
64 97 76
62 94 73
62 93 72
66 99 77
65 99 77
63 95 74
67 101 79
65 98 76
63 95 74
63 96 75
59 88 69
70 106 82
67 100 78
70 105 82
67 100 78
63 95 74
65 97 76
63 94 73
67 101 78
69 104 81
66 99 77
62 95 74
65 97 76
60 90 70
67 101 78
64 96 74
64 97 75
61 91 71
61 92 71
62 94 73
60 90 70
65 97 76
67 100 78
66 98 76
68 98 76
107 56 49
119 54 49
122 55 50
126 56 52
130 58 54
130 59 54
134 60 56
134 60 56
136 61 57
136 61 57
136 61 57
137 62 58
138 64 59
145 77 69
167 107 94
202 151 129
229 181 154
232 184 157
209 160 136
174 119 103
147 83 74
136 66 61
133 61 57
132 60 56
130 59 55
129 58 55
128 58 54
127 58 54
126 57 53
125 56 53
123 55 52
123 55 51
122 54 50
122 53 49
119 52 48
119 51 45
117 50 45
116 47 41
110 44 38
137 96 83
204 167 147
217 181 160
225 190 169
233 201 179
238 206 184
243 211 189
255 173 142
255 127 74
255 128 75
255 128 75
255 128 75
255 129 76
255 133 81
255 147 96
255 165 116
255 177 127
255 174 124
255 157 108
255 139 89
255 129 78
255 125 74
255 124 73
255 124 73
255 122 72
253 121 71
250 119 70
248 118 69
245 117 69
244 116 68
242 115 68
234 141 109
215 191 174
211 188 172
205 183 166
196 176 160
188 169 153
185 166 152
168 153 140
108 115 99
60 91 71
60 91 71
62 93 72
61 93 72
63 95 74
66 100 78
63 94 73
66 99 77
62 93 73
59 89 69
67 100 77
64 97 75
59 89 69
61 92 72
57 85 66
62 94 73
66 99 77
61 92 71
67 100 77
62 94 73
63 95 74
64 96 75
67 101 78
62 94 73
63 94 73
61 92 72
63 95 74
63 94 73
63 95 73
65 98 77
64 96 75
64 95 74
62 93 72
63 95 74
62 93 72
67 101 79
65 99 77
62 94 73
63 95 74
60 91 71
64 97 75
65 98 76
67 101 79
63 95 74
60 90 70
64 96 75
67 101 78
61 92 71
60 90 70
60 91 71
63 95 74
62 94 73
59 89 69
62 94 73
64 97 75
65 99 77
63 96 75
64 96 75
60 90 70
62 94 74
62 93 73
66 99 77
64 96 74
64 96 75
62 94 73
61 93 72
63 95 74
63 95 74
63 95 74
61 93 72
64 96 74
63 95 73
62 93 72
61 92 72
62 93 72
62 94 73
66 99 77
63 95 74
62 94 73
62 93 73
63 96 74
62 94 73
60 89 69
62 94 73
61 92 72
59 90 70
59 89 69
62 93 72
61 92 72
62 93 72
62 94 73
63 94 73
59 88 69
60 90 70
61 87 67
130 106 69
154 115 71
158 118 73
159 119 73
159 118 73
160 119 74
159 119 74
159 119 74
158 118 73
158 118 74
156 117 73
155 116 72
154 115 72
151 113 71
148 111 69
145 109 68
145 109 67
142 107 66
141 107 66
135 102 63
130 99 61
128 97 60
126 96 60
120 92 57
114 88 55
113 87 54
109 84 53
100 79 49
91 72 45
88 70 44
86 69 43
86 69 43
79 64 40
76 62 38
68 65 43
60 86 65
62 93 72
61 92 71
61 91 71
59 88 68
57 86 67
59 88 68
60 89 69
59 89 69
64 97 75
60 91 70
64 95 73
63 95 74
60 90 70
63 95 73
59 89 69
59 90 70
60 91 71
59 90 70
61 92 72
62 94 73
63 95 73
62 93 72
63 96 75
63 95 74
57 86 67
60 90 70
59 89 70
62 93 72
65 98 77
60 91 71
63 95 74
64 96 75
60 91 71
62 94 73
60 91 71
59 89 69
61 92 72
58 88 68
58 88 69
60 91 71
61 92 72
58 88 69
67 101 79
63 95 74
63 95 74
61 92 72
63 96 75
67 101 79
65 98 76
63 96 75
61 93 72
64 96 75
65 98 77
63 95 74
64 97 76
66 100 78
61 92 72
65 98 76
63 94 73
61 93 72
67 101 79
62 94 73
61 93 72
67 101 79
63 96 74
60 90 70
60 90 70
65 98 76
62 94 73
66 99 77
62 94 73
64 96 75
67 100 78
61 93 72
65 98 76
64 97 76
61 92 72
63 95 74
64 96 74
65 98 76
62 94 73
64 96 74
66 100 78
66 99 76
64 96 75
67 101 78
66 99 77
63 95 74
68 102 80
65 97 75
63 95 74
65 98 76
62 93 72
62 94 73
63 95 74
62 94 73
67 101 78
62 93 72
63 95 74
62 93 72
63 96 74
63 94 73
64 97 76
60 90 70
63 95 74
66 100 78
69 103 80
62 93 73
66 99 77
65 98 77
62 93 72
60 91 71
59 89 69
62 94 73
63 95 74
66 99 77
62 94 73
62 94 73
67 102 79
66 100 78
67 102 79
64 95 74
63 96 74
63 94 73
67 100 78
66 100 78
68 102 80
64 97 75
65 98 76
64 96 75
64 96 75
62 93 72
66 99 77
67 101 78
65 98 76
68 102 79
63 95 74
64 97 75
63 95 74
64 96 75
62 94 73
65 97 76
60 90 70
60 91 71
62 94 73
65 98 76
70 106 83
62 94 73
65 98 76
65 98 76
62 94 73
62 94 73
66 99 77
62 94 74
66 100 78
61 91 71
63 95 74
63 94 73
65 98 76
67 100 78
66 99 77
62 93 73
67 101 78
63 95 74
64 96 75
64 97 76
68 101 79
66 99 77
67 100 78
63 95 74
63 95 74
62 94 73
62 93 72
62 92 72
61 91 71
63 94 73
63 94 73
66 99 77
61 91 71
62 93 72
62 94 73
65 98 76
66 99 77
64 95 74
63 95 74
64 97 75
66 98 76
64 95 74
62 92 72
80 91 72
111 50 46
118 53 48
121 54 50
125 56 52
128 57 53
130 58 54
132 59 55
134 60 56
135 60 56
134 60 56
135 61 57
137 61 57
138 64 59
144 74 67
159 98 86
187 133 115
207 157 134
207 157 134
187 134 116
159 100 88
142 75 68
135 64 59
132 60 56
131 59 56
130 59 55
128 58 54
127 57 54
127 57 54
125 57 53
123 56 52
123 55 51
122 54 50
120 53 49
122 53 48
119 51 46
119 51 46
118 49 43
115 47 41
108 42 35
161 121 104
202 162 141
217 181 159
225 192 172
233 200 179
238 207 186
243 202 179
255 131 83
255 127 74
255 127 74
255 128 74
255 128 75
255 130 78
255 140 89
255 164 114
255 193 143
255 210 159
255 200 150
255 174 125
255 147 98
255 131 81
255 126 74
255 124 73
255 122 71
255 121 71
252 119 70
249 118 69
250 119 70
247 117 69
244 116 69
240 125 84
222 185 166
214 191 174
209 186 169
201 178 161
200 179 164
195 175 159
179 161 145
170 154 140
139 129 116
60 90 70
62 93 72
64 96 75
67 101 78
66 99 77
62 92 71
63 95 74
65 97 76
61 92 72
63 95 74
61 92 71
63 95 74
62 93 73
63 94 73
64 96 75
63 95 74
65 97 75
63 94 73
68 102 79
64 96 75
67 100 78
62 93 72
65 98 76
65 98 76
63 95 74
62 94 73
65 97 76
62 94 73
59 89 69
63 95 74
63 96 74
65 98 77
62 94 73
62 94 73
63 96 75
64 96 75
64 96 75
62 93 72
63 96 74
62 94 73
62 93 73
64 97 76
59 90 70
63 95 74
63 95 74
66 99 77
62 94 73
66 99 77
61 92 72
64 96 74
64 97 75
59 90 70
59 90 70
63 95 74
63 96 74
66 99 77
62 93 72
59 90 70
64 96 75
63 95 74
63 95 74
60 91 71
62 93 72
63 95 74
61 92 72
64 96 75
65 97 76
63 95 74
61 92 71
62 94 73
63 95 74
64 96 75
62 94 74
62 94 73
61 91 71
61 92 72
62 93 73
58 88 68
61 92 72
63 95 74
61 92 72
62 94 73
64 96 74
61 92 72
63 96 74
63 94 73
61 92 71
62 93 72
62 94 73
62 94 73
65 98 76
61 91 71
60 91 70
62 92 71
122 104 70
155 116 72
158 118 73
158 118 73
160 119 74
160 120 74
159 119 74
159 118 73
158 118 73
158 118 74
157 118 74
155 117 73
153 115 72
150 113 70
149 112 70
145 109 68
144 108 67
141 107 66
139 105 65
136 103 64
134 101 63
130 99 61
126 96 60
123 94 59
120 92 57
112 87 54
107 83 52
101 79 50
95 75 47
89 71 45
85 69 43
82 66 41
82 66 41
76 61 38
73 63 40
61 86 66
64 97 75
58 88 68
61 92 71
64 97 75
62 93 72
64 96 74
58 88 68
61 92 71
58 88 69
61 91 70
62 93 72
59 89 69
59 89 69
63 95 73
60 90 70
62 94 73
60 91 71
60 90 69
59 90 70
61 92 71
60 91 71
62 93 72
62 93 73
61 93 72
60 91 71
61 92 72
61 92 72
61 92 72
58 87 67
59 90 71
60 90 71
65 98 77
62 94 73
62 93 72
62 94 73
59 89 70
60 91 71
59 89 70
57 87 68
55 84 66
58 89 69
66 99 77
62 94 73
60 91 71
63 96 74
65 98 77
60 91 71
64 97 75
59 90 70
60 90 70
65 98 76
61 92 72
67 101 79
60 91 71
62 94 73
62 94 73
63 95 74
60 91 71
61 92 72
60 91 71
64 96 74
60 91 70
64 97 76
60 90 70
64 97 75
64 97 76
63 95 74
63 95 74
61 92 71
63 94 73
68 102 79
62 93 73
66 98 76
63 95 74
62 94 73
64 96 75
61 92 71
60 91 70
61 92 71
65 98 76
66 100 78
64 97 75
63 95 74
65 97 75
65 97 76
62 94 73
66 99 77
65 98 76
61 92 71
62 93 72
65 98 76
62 93 72
65 97 75
66 99 77
64 95 74
64 97 75
66 100 77
63 95 74
61 92 72
66 100 78
62 94 73
64 96 75
64 96 75
68 102 79
63 95 74
61 92 71
63 95 74
64 96 75
72 108 84
69 104 81
65 98 77
66 99 77
63 95 73
61 93 72
61 91 71
64 96 75
66 100 77
63 94 73
63 95 74
68 103 80
63 95 74
63 95 74
64 96 75
63 94 73
62 93 72
61 92 71
63 94 74
64 96 75
61 92 72
70 105 82
65 98 76
62 94 73
68 102 79
65 97 76
66 99 77
66 99 77
67 101 78
62 93 72
60 91 71
68 103 80
65 98 77
62 94 73
66 99 77
61 91 71
66 99 77
65 98 77
65 98 76
63 94 73
67 101 78
65 98 76
64 97 75
65 98 76
65 98 76
63 95 74
63 95 74
64 96 75
64 96 75
65 98 76
64 97 75
63 94 73
65 98 76
64 95 74
70 105 82
65 97 76
62 94 73
65 97 75
63 95 74
63 96 74
60 91 71
66 99 77
65 98 76
60 90 70
64 95 74
66 99 77
62 93 72
62 93 72
63 95 74
62 94 73
60 90 70
62 92 72
64 97 75
64 96 75
67 100 78
61 91 71
59 89 69
64 96 75
63 94 73
59 88 68
65 98 76
63 94 73
85 74 60
110 49 45
120 54 49
120 54 49
124 56 51
133 70 64
164 119 106
176 134 120
181 138 124
147 87 79
134 60 56
134 59 55
136 61 57
136 62 57
139 67 61
148 81 72
162 102 89
171 114 99
169 112 98
159 99 86
144 78 70
136 66 61
133 61 57
132 59 56
130 59 55
128 58 54
127 57 54
127 57 54
125 56 53
124 56 52
122 55 51
120 53 49
119 53 49
122 53 49
121 52 47
120 51 46
117 49 44
116 48 43
114 46 40
108 42 36
167 127 109
205 166 145
217 180 159
226 192 170
229 195 173
237 204 181
251 173 144
255 125 73
255 125 73
255 126 73
255 127 74
255 128 75
255 131 79
255 144 93
255 171 122
255 203 153
255 218 166
255 205 155
255 175 126
255 146 96
255 130 80
255 125 74
255 123 72
255 123 72
252 120 70
249 118 69
249 118 69
246 116 68
243 115 68
243 116 68
228 167 143
216 193 175
211 188 170
205 182 165
199 178 161
196 175 159
189 169 153
183 164 149
170 155 141
156 143 130
82 100 81
63 95 74
64 97 75
60 91 71
64 96 74
63 95 74
63 94 73
62 94 74
63 95 74
64 96 75
69 104 81
65 98 76
65 98 76
62 94 73
66 100 78
65 98 76
61 92 72
65 97 76
65 98 76
62 94 73
66 100 78
61 92 72
65 98 76
65 98 77
64 97 75
66 99 77
65 97 76
63 96 75
60 90 70
61 91 71
62 93 72
63 95 74
66 99 77
63 96 74
66 100 78
63 96 74
61 92 72
59 89 69
63 95 74
65 97 75
59 90 70
61 93 72
63 95 73
64 96 74
68 102 79
65 99 77
62 93 73
63 95 74
61 92 71
60 91 71
67 101 78
60 90 70
63 95 74
59 89 69
63 95 74
64 96 75
61 92 72
67 101 78
64 96 75
61 92 72
63 95 74
63 95 74
64 97 75
64 96 75
65 98 76
63 95 74
63 95 74
61 92 72
62 94 73
61 92 72
62 94 73
63 95 73
61 93 72
58 87 68
63 95 74
62 93 73
62 94 73
66 99 77
61 92 72
62 94 73
59 89 69
65 98 76
60 90 70
58 88 69
59 89 69
62 93 72
61 91 71
63 95 74
65 98 76
61 92 72
61 93 72
60 90 70
65 98 76
114 102 70
154 115 71
159 118 73
159 119 74
159 119 73
160 119 74
160 120 74
160 119 74
159 119 74
157 118 74
157 118 74
155 116 73
152 114 71
152 114 71
149 112 70
147 111 69
146 109 68
143 108 67
139 105 65
135 102 64
132 100 62
131 100 62
126 96 60
122 93 58
119 91 57
113 88 55
108 84 52
102 80 50
96 76 47
87 70 44
90 72 46
86 69 43
78 64 39
74 61 37
68 60 38
64 92 71
61 92 71
64 95 73
64 95 74
63 94 72
59 89 69
61 92 71
60 90 70
64 96 75
61 92 72
60 90 70
57 85 66
58 88 68
59 90 70
61 92 71
65 99 77
61 92 72
62 93 72
62 93 72
60 90 70
65 98 76
61 92 71
58 88 68
60 90 70
59 89 69
60 91 71
57 86 67
64 96 75
64 97 76
62 94 73
59 90 70
64 97 76
58 88 68
61 92 72
63 95 73
66 99 77
61 93 72
61 92 71
62 94 73
59 90 70
58 88 69
59 89 70
60 90 71
62 94 73
64 97 75
65 98 76
61 93 72
62 93 73
61 92 71
66 99 77
63 95 74
61 92 72
64 97 75
67 101 78
62 94 73
61 92 71
63 95 74
64 97 75
63 95 74
66 100 78
61 92 72
65 98 76
64 97 75
59 89 69
64 96 74
62 93 72
62 93 72
60 90 70
62 93 72
62 93 72
62 93 72
59 90 70
63 95 74
64 96 75
66 100 78
61 92 71
59 90 70
60 91 70
61 92 71
67 100 78
66 100 78
63 95 74
65 98 76
64 96 74
65 98 76
60 90 70
66 100 78
61 92 72
63 95 74
64 96 75
65 97 76
62 93 73
67 101 79
62 93 72
62 94 73
61 93 72
63 96 75
63 95 74
64 96 74
61 91 71
63 96 74
62 94 73
60 91 71
67 101 78
60 91 71
65 97 76
64 95 74
60 91 71
64 97 75
63 95 74
68 102 80
62 93 73
66 99 77
70 105 82
66 99 77
66 99 77
62 93 72
70 106 82
61 91 71
61 92 72
65 97 75
65 98 76
66 99 77
62 94 73
62 94 73
61 93 72
63 94 73
65 98 77
63 95 74
66 100 77
64 96 75
66 100 77
67 101 79
63 95 74
65 99 77
64 97 76
64 96 75
63 96 75
66 100 78
63 95 74
64 97 76
60 90 70
62 93 72
61 92 72
66 99 77
66 100 78
68 102 79
64 96 75
63 96 75
65 98 76
62 94 73
64 96 75
65 99 77
62 94 74
62 94 73
67 101 79
65 98 76
63 94 73
60 91 71
63 95 74
67 101 79
64 97 76
68 102 80
65 98 76
61 92 72
66 99 77
61 92 72
63 95 74
65 97 76
69 103 81
62 93 72
67 101 78
63 95 74
62 93 72
60 91 71
65 98 76
63 94 73
61 91 71
58 88 68
63 94 73
66 100 78
61 92 72
66 100 78
68 102 79
63 95 73
62 93 72
62 93 72
63 95 74
61 91 71
61 91 70
64 96 74
64 96 75
91 66 54
110 50 45
116 52 48
120 54 49
156 113 102
198 169 150
160 141 125
148 129 115
158 138 123
203 177 159
195 155 139
139 70 64
135 60 55
135 61 56
136 62 58
139 67 61
143 74 67
145 79 71
144 77 69
140 72 65
136 65 60
134 61 57
132 60 56
130 59 55
129 58 54
127 57 53
126 57 53
125 56 53
123 55 52
123 55 52
119 54 50
120 53 50
119 52 49
119 52 48
118 50 45
117 50 45
118 49 43
117 48 42
111 44 37
105 42 35
179 137 117
208 170 149
215 181 160
223 190 168
232 199 176
236 200 178
255 128 81
255 123 71
255 124 72
255 125 73
255 126 74
255 127 74
255 130 78
255 140 90
255 162 112
255 186 136
255 194 144
255 183 134
255 159 110
255 139 89
255 128 77
255 124 73
255 122 71
255 121 71
250 119 69
250 118 69
247 117 69
247 117 69
240 113 66
237 138 103
219 193 175
213 190 172
210 186 169
204 181 163
199 177 160
196 175 158
185 165 149
181 163 148
165 149 135
152 139 126
113 117 102
63 95 73
66 98 76
61 91 71
62 93 72
62 94 73
62 93 72
63 95 74
64 96 75
63 94 73
65 98 76
64 96 75
63 94 73
59 89 70
64 95 74
60 91 71
71 107 83
67 100 78
67 100 78
59 89 69
64 96 75
63 95 74
62 93 72
64 97 76
60 91 71
61 92 72
60 91 71
62 94 74
66 100 78
65 97 75
60 91 71
63 95 74
64 97 75
61 92 72
63 95 73
61 91 71
64 96 75
62 94 73
60 91 71
60 91 71
64 97 75
62 93 72
62 94 73
63 94 74
64 96 75
65 98 76
62 93 72
63 95 74
63 96 75
60 90 70
59 89 69
61 91 71
62 94 73
65 97 76
64 96 74
62 93 73
60 91 71
60 91 71
61 92 72
62 93 73
66 100 78
65 98 76
63 95 74
65 99 77
61 93 72
63 95 74
60 90 70
61 92 72
65 98 76
68 102 79
64 96 75
61 93 72
61 92 71
63 96 75
65 99 77
61 92 71
63 95 74
63 95 73
63 95 73
61 92 72
61 92 71
62 94 73
61 93 72
61 92 71
63 95 74
61 92 72
66 99 77
63 95 74
61 92 71
61 92 72
57 86 66
61 91 71
109 102 71
155 115 71
158 118 73
159 118 73
160 119 74
161 120 74
160 119 74
158 118 72
159 119 74
158 118 73
155 116 72
155 117 73
154 116 73
151 113 70
151 113 70
148 111 70
144 109 68
143 107 67
142 107 67
136 103 64
134 102 63
130 99 62
127 97 60
124 95 59
118 91 57
115 89 56
110 85 54
101 79 50
95 75 47
91 72 46
84 68 43
80 65 41
79 64 40
81 65 40
79 65 40
60 80 61
58 88 68
57 86 67
62 93 72
65 98 76
59 89 69
57 86 67
61 91 71
60 90 70
58 87 68
61 92 71
59 89 69
61 92 72
64 96 74
63 95 73
60 90 70
60 91 71
61 91 71
60 90 70
60 91 70
63 96 74
59 89 69
59 89 69
61 93 72
59 89 70
59 90 70
61 93 72
61 93 72
62 94 73
60 90 70
59 90 70
58 88 68
60 90 70
61 93 72
64 96 75
61 93 73
61 93 72
62 93 72
60 91 71
67 102 79
59 89 69
65 98 76
62 95 74
60 91 71
65 98 76
64 97 76
63 96 75
63 95 74
65 99 77
62 93 72
64 96 75
64 97 76
63 95 74
64 97 75
65 98 77
68 103 80
64 96 75
61 92 72
62 93 73
61 92 71
68 102 79
68 103 80
64 97 75
63 95 74
61 92 72
59 90 70
63 95 73
59 90 70
63 94 73
60 90 70
69 104 81
64 96 74
61 91 71
63 94 73
63 94 73
63 94 73
63 95 74
66 99 77
60 91 70
60 90 70
67 100 78
63 95 73
65 98 76
65 98 76
67 101 78
67 100 78
62 93 72
62 94 73
62 93 73
64 96 75
63 95 74
62 93 72
62 93 72
63 95 74
62 93 73
65 98 76
63 95 74
66 100 78
62 94 73
61 93 72
61 92 71
61 93 72
62 94 73
64 97 76
64 97 75
67 101 79
66 99 77
68 103 80
65 97 76
61 92 71
63 95 74
68 102 79
64 96 75
62 94 73
64 97 75
65 97 76
66 99 77
62 94 73
67 101 79
68 102 80
60 91 71
63 95 74
68 102 80
65 98 76
67 101 79
67 101 78
64 97 75
66 100 78
64 97 75
64 96 74
64 97 76
66 100 78
67 101 79
64 97 75
63 96 75
64 97 76
63 95 74
64 97 75
67 101 79
66 100 78
66 99 77
68 103 80
65 99 77
66 99 77
65 98 76
64 97 75
61 93 72
68 102 79
63 94 73
63 96 74
65 97 76
63 95 74
61 92 72
67 101 79
68 102 79
61 92 72
65 97 76
61 92 72
66 99 76
62 94 73
65 97 76
65 97 76
66 100 77
70 105 82
68 102 80
65 98 76
64 95 74
62 95 74
64 96 75
62 94 73
65 98 77
63 95 74
64 96 75
63 94 73
64 97 75
63 95 74
65 98 76
62 94 73
61 92 72
65 97 76
65 98 76
61 92 71
61 91 71
62 93 72
60 91 71
62 92 72
64 96 75
65 98 76
64 96 75
64 96 74
61 92 72
60 90 70
64 96 74
99 57 48
108 49 44
114 51 47
146 101 91
157 136 121
108 95 84
174 152 135
187 163 144
172 152 136
94 83 74
135 116 103
218 186 166
150 92 83
134 59 55
132 59 55
134 61 57
135 63 57
135 63 58
134 63 58
133 61 57
132 60 56
131 59 55
129 58 54
128 58 54
128 57 53
126 57 53
126 57 53
123 55 51
122 55 51
120 54 51
119 54 50
119 53 50
117 51 47
116 50 46
119 50 45
115 49 44
114 48 42
115 47 41
109 43 36
111 56 47
185 143 122
206 170 149
213 177 156
224 190 168
226 193 170
240 177 150
255 120 69
255 121 70
255 124 72
255 125 72
255 125 73
255 125 73
255 127 75
255 133 82
255 144 94
255 156 106
255 159 110
255 152 103
255 140 90
255 130 79
255 125 74
255 122 71
254 120 70
251 118 69
251 119 69
248 117 68
247 117 69
245 116 68
242 116 69
222 181 160
215 190 172
210 186 168
204 181 163
202 180 163
194 174 157
189 170 153
185 166 149
174 156 140
163 147 133
153 140 128
119 117 103
61 93 72
63 95 74
63 94 73
60 90 70
63 95 74
64 96 75
66 100 77
64 96 75
58 88 69
64 96 75
66 100 78
59 90 70
60 91 70
67 101 79
63 95 74
65 98 76
62 94 73
63 95 74
61 93 72
66 100 78
63 95 74
64 97 75
64 96 75
64 96 75
62 93 73
62 92 72
63 95 74
66 100 77
62 94 73
61 91 71
61 92 72
60 90 70
61 92 71
64 96 75
62 94 73
59 90 70
64 96 74
62 93 72
63 95 74
64 97 75
64 96 74
68 102 80
62 93 72
59 89 69
61 93 72
63 95 74
67 101 78
62 94 73
58 87 68
66 100 78
63 96 74
62 94 73
64 96 75
63 96 74
63 95 74
60 91 71
64 96 75
61 92 72
64 97 76
60 90 70
64 96 75
63 94 73
61 92 72
67 100 78
59 89 69
64 96 75
65 98 76
67 100 78
62 93 73
65 97 76
63 96 74
63 94 73
62 93 72
63 94 73
60 91 70
61 92 71
60 91 70
61 93 72
60 91 70
67 100 77
64 97 75
64 97 76
60 91 71
63 95 73
61 93 72
64 96 75
68 103 80
62 94 73
61 92 72
62 94 73
100 100 71
154 115 71
157 117 72
159 118 73
160 119 74
160 119 74
160 120 74
159 119 73
160 120 74
158 119 74
157 118 74
156 117 73
155 116 73
150 113 70
150 112 70
149 112 69
145 109 68
143 108 67
139 105 65
137 103 64
134 101 63
132 100 62
125 95 59
124 95 59
119 91 57
112 86 54
109 84 53
103 80 50
99 78 49
87 70 44
90 71 45
81 66 41
83 67 42
73 60 37
72 59 36
65 81 61
59 89 69
58 88 68
57 86 67
58 88 69
59 89 69
59 88 68
56 85 66
66 99 76
58 88 68
58 88 68
59 89 69
61 93 72
63 94 73
62 93 73
60 91 71
64 96 75
60 90 70
60 91 70
60 91 71
60 91 71
64 97 75
60 90 70
61 93 72
58 88 69
59 89 70
61 92 72
61 92 72
60 91 71
63 95 74
60 91 71
56 85 66
63 95 74
61 93 72
61 92 71
63 95 74
63 96 75
60 91 71
59 89 69
58 88 69
66 99 77
60 91 71
60 91 71
62 94 74
58 87 68
61 93 72
62 93 73
66 99 77
67 101 78
64 96 74
63 95 74
62 94 74
70 105 82
66 100 78
64 96 74
65 97 76
66 100 78
63 95 74
62 93 73
64 97 75
65 98 76
67 102 79
66 99 77
63 95 74
64 96 74
61 92 72
62 94 73
63 95 74
69 103 80
63 95 74
64 97 76
62 93 73
62 93 72
64 96 75
63 96 75
62 94 73
66 99 77
61 92 72
64 97 76
71 107 84
62 93 72
66 99 77
62 92 72
68 102 79
62 93 73
67 100 77
64 96 74
66 99 77
62 94 73
66 99 77
65 97 75
63 95 74
65 98 76
62 94 73
65 98 76
61 92 72
64 96 75
66 99 77
62 93 72
62 94 73
65 98 76
66 100 78
60 91 70
64 97 75
64 97 76
60 91 71
59 88 69
66 99 77
64 97 76
64 96 75
60 90 70
68 102 80
64 97 76
64 96 75
60 91 70
62 93 72
62 94 73
66 99 77
63 95 74
65 98 76
60 91 71
66 99 77
65 98 76
62 93 73
63 95 74
65 98 76
65 99 77
65 98 76
65 97 75
65 97 75
63 96 75
65 98 76
65 98 76
64 96 75
63 95 74
61 93 72
67 100 78
65 98 76
71 106 82
60 91 71
64 96 75
63 95 74
64 97 75
61 93 72
64 97 76
60 91 71
68 103 80
65 97 76
67 101 79
71 106 83
63 95 74
65 98 76
62 94 73
65 96 75
63 95 74
70 105 82
63 95 73
68 103 80
67 101 78
65 97 76
63 94 73
61 93 72
65 98 76
61 92 72
60 91 71
64 97 75
61 92 71
63 94 74
68 102 80
64 96 74
63 94 74
66 100 78
66 99 77
63 94 73
62 93 72
66 98 76
63 94 73
62 93 72
59 89 69
62 93 72
63 95 74
64 96 74
63 94 73
61 92 71
59 89 69
61 91 71
61 91 70
62 93 72
65 97 75
60 90 70
63 95 74
63 94 73
65 97 75
65 94 73
96 47 42
107 48 44
114 54 50
169 145 128
134 118 103
216 190 168
226 198 175
231 203 181
230 201 178
230 202 180
170 147 131
105 93 83
206 174 156
141 78 72
130 58 54
131 59 54
131 59 55
131 59 55
131 59 55
131 59 54
130 58 53
128 57 53
126 56 52
126 56 52
126 57 53
124 56 52
123 55 51
122 55 51
122 55 51
118 53 49
114 52 48
115 51 47
115 50 46
115 49 45
114 48 44
114 48 43
114 47 41
112 45 39
107 42 35
113 60 50
185 143 122
199 161 140
212 177 156
218 183 161
223 189 167
246 138 102
255 119 69
255 119 69
255 122 71
255 122 70
255 123 71
255 124 72
255 124 73
255 126 75
255 131 79
255 134 84
255 135 85
255 133 82
255 127 77
255 124 74
255 122 72
255 121 71
251 118 69
249 117 68
246 116 68
247 117 68
244 116 68
243 115 67
229 149 120
214 189 170
214 189 171
205 182 164
203 180 163
198 176 159
190 169 152
191 172 156
177 160 144
171 154 139
161 146 131
148 137 124
129 122 109
65 94 73
60 91 70
66 99 77
62 93 72
64 96 74
62 93 72
63 95 74
62 93 72
61 93 72
63 95 74
66 100 77
65 98 76
59 89 69
64 97 76
62 93 73
68 102 79
62 92 72
61 92 71
63 94 73
62 93 73
60 90 70
65 99 77
63 95 74
63 95 74
63 96 75
63 95 74
61 92 72
62 94 73
61 93 72
63 96 75
62 93 73
60 91 71
62 93 72
61 92 71
61 92 71
61 93 72
62 94 73
60 90 70
64 96 75
61 92 71
62 94 73
62 93 72
64 97 76
60 91 71
60 90 70
60 90 69
63 94 73
60 91 71
64 97 75
63 95 74
60 90 70
66 99 77
59 88 69
62 94 73
64 96 75
62 95 74
60 91 71
62 93 73
63 96 74
62 94 73
60 91 71
63 94 73
63 95 74
65 97 76
62 93 73
62 93 73
65 98 76
61 91 71
64 97 76
63 96 75
61 93 72
60 91 71
64 97 75
60 91 71
60 90 70
65 99 77
60 91 71
60 90 70
59 89 69
62 93 72
63 94 73
66 100 78
59 89 70
65 98 76
61 93 72
60 91 71
59 89 69
64 96 75
63 94 73
96 101 73
152 114 71
157 117 72
160 119 73
159 119 74
160 119 74
161 120 74
160 119 74
159 119 73
158 118 73
157 118 74
156 117 73
155 116 73
153 115 71
151 114 71
147 111 69
147 111 69
143 108 67
140 106 66
137 104 65
136 103 64
131 99 62
129 98 61
126 97 61
119 92 58
112 86 54
109 85 53
106 83 52
101 79 50
93 74 47
87 70 44
84 68 43
82 66 41
79 64 40
72 60 36
60 76 57
58 87 68
64 97 75
57 86 67
59 89 69
61 92 72
61 92 72
60 90 70
56 85 66
63 95 73
59 89 69
58 88 68
64 97 75
59 89 69
61 92 72
59 89 69
62 93 72
62 94 73
60 91 71
59 89 69
61 93 72
59 89 69
58 87 68
65 98 76
62 93 72
62 94 74
64 96 75
63 95 74
62 94 73
61 93 72
61 92 71
60 92 71
55 83 65
60 91 71
64 97 76
62 93 72
60 91 71
61 93 73
59 90 70
58 88 69
60 92 72
62 94 73
64 97 75
63 95 74
63 95 74
61 92 72
67 100 78
63 95 74
64 96 74
64 97 75
63 95 74
62 94 74
65 97 76
64 97 75
69 104 81
66 99 77
66 100 78
60 91 70
65 98 76
66 100 78
61 93 72
62 93 73
61 92 72
67 100 78
66 100 77
69 104 80
62 94 73
64 96 75
69 104 80
70 106 82
63 95 74
61 92 71
69 103 80
63 96 75
67 101 79
64 97 75
62 94 73
63 95 74
64 96 74
66 99 77
61 92 72
61 92 72
64 96 74
65 97 75
65 99 77
67 102 79
63 95 74
66 99 77
60 90 70
64 97 75
61 92 71
60 91 71
61 92 72
62 94 73
61 92 72
61 92 72
64 96 75
62 94 73
59 90 70
61 91 71
64 96 75
65 99 77
63 95 74
61 92 72
67 101 79
67 101 79
68 102 79
66 99 77
64 97 76
66 99 77
62 93 72
64 97 75
61 92 71
65 98 76
66 99 78
66 99 77
61 92 72
64 97 75
66 99 77
68 102 80
67 101 78
62 94 73
69 103 80
68 102 79
62 94 73
62 93 72
65 98 76
65 98 76
67 100 78
62 93 72
65 99 77
64 97 75
61 92 72
66 99 77
58 88 68
59 89 69
62 93 73
63 95 74
66 100 78
61 92 72
61 92 72
65 97 75
67 102 79
64 96 75
63 95 74
64 97 75
61 92 72
64 96 75
65 99 77
62 94 73
63 96 74
64 96 75
64 97 76
68 102 79
61 92 71
62 94 74
59 89 69
62 94 73
61 93 72
66 99 77
64 97 75
63 95 74
65 98 76
63 96 74
62 94 73
64 96 75
63 95 74
64 96 75
68 102 79
65 98 76
62 93 72
62 93 73
67 101 78
67 101 78
62 94 73
66 100 77
63 95 74
62 94 73
62 93 72
62 93 72
66 99 77
63 95 74
66 100 78
63 95 74
65 97 75
61 92 72
61 92 71
61 92 72
61 92 71
66 100 78
60 91 70
63 94 73
63 95 74
64 95 74
65 96 75
97 47 42
107 48 44
145 109 96
120 105 93
206 180 158
215 188 165
219 191 168
220 191 169
224 195 173
225 197 174
230 199 177
176 153 135
126 109 97
199 163 146
129 57 53
130 58 53
129 58 53
129 58 53
128 57 52
130 58 53
127 56 52
126 56 52
126 56 52
125 56 52
123 55 51
123 55 51
120 54 50
119 53 49
117 53 49
116 52 48
113 50 46
114 49 45
114 49 45
114 48 43
112 47 42
111 47 42
109 44 39
110 44 38
106 41 34
122 74 61
184 144 124
201 164 142
211 176 154
218 185 163
223 180 156
248 116 67
247 114 66
250 117 67
255 119 69
255 121 70
255 122 70
255 122 71
255 122 71
255 122 71
255 124 73
255 124 73
255 125 74
255 124 73
255 123 72
255 121 71
255 120 70
252 118 69
250 118 69
244 115 67
245 116 68
241 114 66
242 115 67
238 119 77
215 182 161
214 190 171
208 185 167
203 181 163
197 175 157
195 174 157
189 169 152
181 163 147
176 158 142
170 154 139
158 144 129
140 130 117
119 113 100
78 102 82
65 97 75
64 97 75
61 91 71
60 91 70
63 95 74
69 103 80
62 93 72
59 89 69
65 97 75
64 96 75
65 97 76
60 90 69
61 92 72
62 94 73
66 99 77
64 96 75
62 94 73
60 91 71
62 94 73
62 93 72
65 98 76
64 96 75
66 100 77
65 98 76
64 97 75
57 87 67
59 89 70
61 92 72
67 101 78
60 91 71
63 94 73
62 94 73
61 92 72
59 89 69
66 99 77
61 92 71
64 97 75
62 94 73
62 94 73
62 93 72
63 96 74
62 94 73
64 97 76
62 95 74
59 90 70
61 91 71
62 94 73
65 99 77
63 94 73
63 96 74
61 92 71
63 96 75
63 95 74
63 95 74
61 92 72
61 92 71
63 95 74
63 95 73
62 94 73
64 96 75
65 98 76
64 97 76
59 90 70
63 96 74
65 98 76
63 94 73
64 96 74
61 92 72
60 91 71
63 94 73
66 100 78
63 95 74
64 97 75
66 100 78
65 98 76
65 99 77
61 92 72
63 95 74
61 92 72
60 90 70
62 93 72
61 93 72
63 95 74
62 94 73
60 90 70
61 92 71
65 98 76
84 97 72
150 113 70
157 117 72
159 119 74
159 119 74
160 120 74
160 120 74
161 120 74
160 119 74
157 118 73
156 117 73
157 118 74
155 116 73
149 112 70
149 112 70
148 111 69
146 110 68
142 107 67
141 106 66
139 105 65
135 102 64
130 99 61
129 98 61
123 94 59
122 93 59
113 87 54
112 86 54
109 85 54
95 75 47
91 73 46
87 70 44
86 69 44
80 65 41
79 64 40
79 64 39
64 75 55
60 90 70
65 98 76
59 88 68
61 91 71
61 92 71
62 94 73
59 89 69
58 87 68
58 88 68
60 91 71
61 91 71
57 86 67
62 93 72
61 92 71
64 97 75
63 95 74
62 95 74
60 90 70
64 97 75
60 91 71
59 89 69
62 94 73
61 93 72
61 92 71
60 91 71
60 91 71
58 88 69
59 89 70
59 89 69
62 94 73
64 97 75
61 92 72
57 86 67
59 90 70
60 91 70
60 92 72
66 101 79
64 97 75
59 89 70
60 91 71
62 94 73
56 85 67
63 95 74
62 94 74
56 85 67
59 91 71
68 102 80
64 97 76
60 90 70
65 98 76
62 93 72
61 92 71
62 94 73
68 102 79
62 94 74
65 98 77
62 94 73
63 94 73
66 100 78
65 99 77
62 94 73
63 96 74
66 100 77
67 100 78
66 100 77
63 95 74
63 94 73
64 97 75
67 102 79
64 96 75
61 92 71
60 90 70
60 90 70
64 97 75
64 96 74
64 97 75
62 93 73
66 100 78
64 96 75
58 88 68
66 100 78
66 100 78
67 101 78
65 98 76
64 97 76
63 95 74
68 102 80
65 98 76
62 93 73
62 94 73
66 99 77
64 97 75
66 99 77
62 94 73
62 93 72
65 97 75
63 94 73
65 98 76
65 98 77
64 97 76
60 91 71
64 96 75
64 97 75
60 91 70
65 97 76
61 92 72
63 95 74
63 95 74
66 100 78
63 94 73
64 96 75
64 97 75
68 103 80
64 96 74
63 94 73
62 94 73
66 100 78
67 101 79
66 100 78
67 101 78
65 99 77
63 95 74
61 92 71
66 99 77
63 95 74
65 98 76
74 111 87
61 92 71
65 98 76
63 95 74
68 103 80
67 101 78
62 93 73
64 96 75
63 95 73
67 100 78
67 101 79
62 93 72
67 102 79
61 92 72
62 93 72
63 95 74
63 95 74
66 100 78
60 91 71
68 102 80
68 103 80
66 100 78
64 96 75
63 94 73
63 94 73
66 100 78
62 93 72
64 96 75
64 97 76
68 102 79
65 99 77
63 94 73
65 98 76
62 93 72
64 97 76
63 95 74
61 93 72
62 94 73
60 90 70
62 93 72
67 101 78
66 99 77
62 94 73
61 91 71
64 96 74
61 92 71
67 100 77
66 99 77
64 96 74
66 99 77
64 96 74
67 100 78
63 95 74
68 102 80
61 92 71
63 95 74
66 100 77
60 91 70
63 95 73
63 94 73
65 98 76
62 92 72
62 92 72
67 100 78
64 96 75
64 96 75
68 103 80
65 97 76
60 83 64
95 44 40
105 47 43
145 119 104
160 141 125
202 178 156
170 149 131
60 53 47
0 0 0
101 88 77
207 179 158
225 195 173
226 197 175
122 106 94
200 173 154
143 86 77
126 56 52
127 56 52
128 57 52
128 57 53
125 56 52
126 56 52
125 56 52
123 55 51
121 54 50
122 54 50
119 53 49
118 53 49
117 52 48
115 52 48
115 51 48
111 50 46
112 49 45
111 48 44
110 47 42
110 46 41
111 45 40
107 44 38
106 42 36
103 40 33
118 74 61
183 144 123
194 158 137
204 170 148
210 177 155
235 150 119
243 112 64
246 114 66
249 117 67
253 118 68
254 119 69
255 121 70
255 120 69
255 121 69
255 121 70
255 120 69
255 121 70
255 120 70
255 121 70
253 119 69
252 119 69
249 117 68
248 117 68
246 116 67
242 114 66
241 114 66
238 112 65
241 114 66
224 146 118
209 184 165
205 181 163
205 182 164
202 179 160
196 175 158
189 168 151
182 163 146
177 159 142
172 155 139
165 149 134
154 140 125
135 125 112
128 120 107
74 91 74
62 93 72
60 91 71
61 92 72
66 99 77
63 94 73
66 99 76
62 94 73
62 93 72
65 98 76
61 92 72
66 99 77
61 92 71
62 93 73
63 95 74
70 105 81
61 92 72
62 92 72
62 93 72
62 94 73
64 97 75
63 95 74
65 98 76
61 92 72
61 92 72
62 94 73
61 93 72
61 93 72
67 100 78
66 100 78
63 94 73
64 96 75
61 92 71
65 98 77
66 100 78
65 97 76
61 92 72
59 89 70
64 96 75
61 91 71
57 86 67
58 87 68
59 89 69
64 97 75
65 98 76
62 94 73
62 95 74
64 95 74
65 98 76
60 90 70
63 95 74
62 93 72
66 99 77
65 97 76
62 93 72
59 89 69
61 93 72
65 98 76
60 90 70
64 96 74
59 90 70
64 96 75
62 93 72
61 92 71
59 89 69
64 97 75
62 94 73
62 93 72
61 92 72
63 96 74
60 91 71
65 97 76
64 97 75
62 94 73
61 93 72
62 93 72
65 98 76
60 90 70
59 89 69
67 101 79
63 95 74
61 92 72
62 93 73
67 102 79
59 89 69
61 93 72
62 93 72
89 100 74
148 113 70
156 116 72
159 119 73
159 118 73
160 120 74
159 119 74
160 120 74
159 119 73
158 119 74
157 118 74
157 118 74
153 115 72
153 115 71
151 113 70
149 112 70
147 111 69
145 109 68
143 107 67
137 104 64
134 102 63
131 100 62
128 98 61
125 95 59
125 95 60
117 90 57
113 87 55
107 83 52
97 77 48
90 72 45
82 67 42
81 65 41
82 67 42
86 69 43
79 64 40
68 75 54
59 87 68
61 92 71
62 94 73
58 88 68
57 86 67
59 89 69
66 99 77
65 98 76
62 93 72
63 95 74
61 93 72
65 98 76
66 99 77
64 97 75
58 88 68
64 97 75
62 93 73
61 91 71
64 96 75
61 92 72
60 90 70
59 89 70
63 96 74
66 99 77
61 93 72
57 86 67
65 98 77
63 95 74
60 92 71
56 86 67
61 92 71
63 95 74
64 96 74
60 91 71
56 85 67
56 86 67
62 94 73
68 103 81
61 92 72
58 87 68
58 88 69
62 94 73
59 89 70
60 91 71
59 89 70
59 90 70
62 95 74
62 93 73
65 98 76
65 98 76
67 102 79
66 100 78
65 98 76
61 93 72
63 96 75
61 92 72
68 102 80
70 105 82
68 102 79
63 95 74
66 100 78
64 97 75
62 94 73
62 94 73
67 100 78
61 93 72
62 94 73
64 97 75
68 102 79
66 99 77
63 95 74
63 96 74
64 96 75
61 92 72
66 100 78
61 93 72
66 98 76
67 101 79
65 98 77
61 93 72
60 91 71
62 93 73
61 92 72
65 98 76
65 99 77
66 99 77
63 95 74
65 97 76
63 95 74
64 97 75
67 100 78
62 94 73
70 106 82
65 97 76
60 91 71
68 103 80
67 101 78
62 94 73
64 97 76
65 97 76
62 94 73
61 93 72
65 97 75
65 98 76
62 94 73
69 105 81
66 99 77
68 102 79
62 93 72
65 98 76
67 101 78
62 94 73
60 91 71
61 92 72
62 94 73
64 97 75
62 94 73
64 96 75
64 96 75
62 93 72
62 93 72
66 99 77
65 99 76
66 99 77
65 98 77
64 96 75
60 90 70
66 100 78
61 92 72
65 98 77
68 103 80
65 99 77
67 100 78
61 93 72
64 97 75
65 98 76
63 96 75
59 89 69
59 89 69
63 95 74
63 96 74
63 95 74
63 96 75
64 97 76
60 90 70
68 103 80
64 97 75
70 105 82
64 96 74
60 91 71
61 92 72
66 99 77
62 93 72
62 93 72
65 98 76
65 98 76
65 99 77
65 98 76
70 106 82
65 97 76
60 90 70
61 92 72
68 101 79
67 101 79
67 101 78
65 97 75
62 94 73
64 97 75
65 98 76
65 99 77
66 99 77
65 97 76
65 97 75
63 95 74
62 93 72
59 89 69
65 98 76
61 93 72
66 99 77
69 103 80
63 94 73
65 98 76
63 94 73
63 95 74
64 95 74
64 96 75
61 92 71
68 103 80
62 93 73
66 100 77
67 100 78
66 98 76
61 91 71
64 95 74
63 94 73
59 86 67
89 45 39
99 45 40
129 107 94
181 160 140
194 170 148
34 30 26
0 0 0
0 0 0
0 0 0
74 65 58
211 185 164
218 189 167
195 170 152
118 102 91
183 145 129
124 56 51
124 55 50
125 56 51
125 55 51
123 55 51
123 54 50
122 54 50
120 53 49
117 52 48
117 52 48
116 52 48
117 53 48
116 52 48
110 50 46
111 50 46
110 49 46
108 47 43
105 45 40
111 46 41
107 45 40
106 44 39
103 42 36
102 41 35
97 37 30
114 73 60
175 135 114
194 157 136
199 164 141
207 174 152
233 114 73
239 111 63
242 112 64
245 114 66
245 114 66
250 117 67
253 118 68
252 117 67
253 118 68
255 119 69
255 119 69
254 119 68
253 118 68
250 117 68
249 117 68
249 117 68
245 115 66
245 116 67
243 114 66
241 113 66
239 113 66
236 112 65
233 115 72
209 178 158
210 186 166
203 179 161
200 177 159
199 176 158
188 167 148
188 168 150
180 161 143
170 153 136
164 148 132
161 146 131
145 133 118
134 123 109
127 118 105
83 100 82
62 93 72
64 96 74
65 97 75
62 92 71
59 88 69
61 92 71
63 95 74
64 96 74
63 94 73
64 96 74
68 102 79
66 99 77
61 92 71
62 93 72
68 102 80
64 97 76
61 91 71
61 92 72
61 93 72
61 92 72
62 93 72
65 98 76
64 97 75
64 97 76
66 99 77
59 89 69
60 90 70
66 100 78
64 96 75
65 98 76
64 96 74
61 93 72
65 97 76
61 92 72
59 89 69
61 92 72
65 97 76
61 92 71
63 95 74
64 97 75
66 100 78
62 93 72
65 98 76
65 98 76
64 96 75
61 92 71
61 92 71
64 97 75
64 96 75
62 93 72
62 93 72
63 95 73
60 91 71
63 94 73
64 97 75
61 92 71
60 91 71
60 90 70
63 94 73
65 97 76
59 89 69
65 98 76
63 96 75
58 87 68
65 99 77
63 96 75
63 95 74
67 101 79
60 91 71
64 97 75
65 99 77
64 96 75
62 94 73
59 89 69
61 92 72
65 99 77
63 94 73
66 99 77
64 97 76
60 90 70
62 94 74
60 90 70
64 97 75
60 91 71
65 98 76
79 100 75
148 112 70
156 116 72
159 119 73
159 119 73
161 120 74
159 119 74
159 119 74
159 119 74
157 118 73
157 118 74
155 117 73
155 116 73
155 116 72
151 113 70
148 111 69
146 110 68
145 109 68
141 106 66
137 104 64
134 102 63
132 100 62
126 96 59
126 96 60
121 93 58
116 89 56
112 87 54
105 82 52
99 78 49
94 74 47
90 72 45
80 65 41
79 65 40
80 65 40
80 65 40
66 70 49
64 96 74
63 94 73
64 96 75
63 96 75
60 91 71
64 97 75
63 95 74
63 95 74
64 96 74
63 94 73
58 87 68
63 95 74
63 94 73
62 93 72
62 93 72
58 88 68
59 89 69
65 98 76
62 94 73
62 93 73
65 98 76
60 91 71
59 90 70
60 90 70
59 89 69
60 90 70
59 89 69
61 92 72
59 89 70
62 94 73
63 95 74
59 89 69
62 94 73
62 94 73
61 92 72
59 89 70
60 91 71
63 95 74
62 93 73
62 94 73
58 87 68
59 89 70
60 91 71
60 90 71
60 90 70
59 89 70
60 91 71
61 92 72
64 96 75
62 94 73
68 103 80
66 100 78
70 106 82
65 99 77
64 96 75
60 90 70
64 97 75
64 96 75
68 102 80
64 96 75
66 100 78
61 92 71
66 99 77
66 99 77
62 94 74
68 102 79
62 94 73
62 94 73
66 99 77
64 97 76
68 103 80
68 103 80
62 94 73
65 98 76
64 96 75
59 89 69
64 97 75
70 105 82
67 101 79
66 99 77
66 99 77
64 97 75
66 99 77
62 94 73
65 98 76
62 94 73
64 96 74
63 95 74
67 101 78
61 92 71
64 96 75
63 94 73
64 96 75
65 98 76
66 99 77
63 96 74
63 95 74
63 94 73
67 101 78
66 100 78
67 101 78
64 96 74
65 98 76
66 100 77
65 97 75
63 95 74
66 100 78
64 97 76
67 102 79
64 97 75
63 94 73
64 96 75
65 98 76
65 98 76
59 89 69
68 103 80
62 93 73
63 95 74
61 91 71
61 92 71
61 92 72
61 92 72
63 94 73
64 96 74
65 98 76
61 92 71
62 94 73
63 94 73
63 95 73
63 95 74
62 93 72
68 102 79
64 97 75
62 94 73
64 97 76
60 91 71
67 101 79
66 99 77
63 95 74
62 94 73
68 102 79
68 103 80
69 104 81
67 101 79
62 94 73
65 98 76
62 94 73
65 98 76
66 100 78
66 100 77
64 97 76
62 94 73
61 93 72
64 97 75
64 97 75
69 104 81
66 99 77
62 94 73
59 89 69
66 99 77
63 94 73
68 102 79
65 98 76
64 96 74
64 96 75
64 96 75
69 103 80
65 98 76
62 93 73
62 93 72
65 98 76
65 98 76
59 89 70
67 100 77
63 95 74
67 100 78
68 102 79
62 93 73
59 89 69
64 96 75
61 92 72
65 98 76
62 93 72
60 91 71
64 96 74
66 99 77
60 91 71
65 98 76
67 100 78
63 95 74
67 100 78
63 95 74
66 98 76
63 94 73
63 94 73
63 94 73
64 95 74
83 46 39
95 43 39
117 100 87
190 168 146
163 143 126
0 0 0
145 127 111
187 161 140
119 105 92
0 0 0
141 123 108
214 186 164
219 191 168
92 80 70
191 161 142
124 56 51
118 52 47
122 54 49
120 53 48
120 53 49
119 52 48
120 53 48
116 52 47
116 52 48
116 52 48
115 52 47
114 51 47
113 51 47
111 50 46
107 48 44
104 47 43
107 47 43
104 45 41
102 44 39
103 43 39
102 42 37
101 41 36
99 39 32
94 36 29
110 72 60
173 135 114
188 153 132
194 162 141
210 155 132
229 105 60
231 107 61
236 110 63
240 112 64
244 114 66
240 112 64
247 115 66
245 114 65
247 115 66
247 115 66
247 115 66
247 115 66
248 116 67
247 115 67
244 114 66
239 111 64
241 113 65
241 113 65
237 111 64
235 111 64
232 109 62
229 108 62
220 152 127
207 182 163
202 179 160
201 178 159
195 172 154
190 168 149
185 165 147
179 160 143
176 157 141
172 155 139
162 146 131
146 134 118
138 126 112
125 118 105
122 116 102
81 99 81
64 96 74
65 98 76
65 97 76
61 92 72
63 95 74
64 95 74
62 93 72
64 96 75
62 93 72
64 97 75
60 91 70
63 95 73
60 90 70
61 92 71
61 92 72
62 94 73
69 103 80
64 96 75
62 93 72
62 93 72
62 93 72
62 93 73
58 88 68
63 94 73
63 95 73
64 96 74
63 94 73
59 89 69
60 90 70
61 92 71
59 89 69
61 92 72
63 95 74
58 87 68
62 93 73
64 97 75
58 87 68
61 92 72
62 93 72
65 98 77
62 93 73
64 96 75
60 91 71
64 96 74
63 95 74
63 96 75
62 93 72
64 97 75
60 91 71
64 96 75
59 90 70
65 98 77
63 94 73
63 95 74
65 98 76
64 96 75
61 92 71
63 95 74
63 95 74
63 95 74
62 94 73
65 99 77
63 95 74
60 91 71
62 94 73
61 92 71
64 97 75
65 99 77
63 96 74
66 100 77
71 106 83
63 96 75
67 101 78
62 94 73
59 88 68
65 98 76
61 92 72
58 88 68
59 89 69
62 94 73
65 98 76
63 95 74
65 97 75
64 97 75
72 96 73
143 110 69
155 116 72
159 118 73
159 119 73
159 119 73
159 119 73
159 119 73
159 119 74
159 119 74
159 119 75
157 118 74
154 116 73
151 114 70
150 113 70
148 111 69
146 110 68
144 109 67
139 105 65
137 104 64
136 103 64
133 101 63
128 98 61
125 95 59
117 90 56
118 90 56
113 87 55
106 82 52
98 77 48
94 74 47
88 70 44
89 71 45
81 65 41
79 64 40
74 60 37
65 63 42
60 88 68
63 94 73
62 94 73
62 93 72
58 87 68
58 87 68
63 95 74
62 93 72
62 94 73
64 97 76
62 93 72
59 90 70
62 94 73
61 93 72
57 86 66
62 93 72
66 100 78
60 91 70
61 91 71
62 94 73
62 94 73
60 91 71
64 96 75
63 95 74
64 97 75
59 89 69
58 87 68
59 90 70
60 91 71
60 91 71
60 91 71
58 87 68
66 100 78
61 93 72
61 91 71
60 90 70
63 96 75
61 92 71
62 94 74
64 97 76
64 96 75
60 90 70
60 91 71
60 91 71
58 88 68
61 92 72
60 91 71
62 93 73
65 98 76
65 99 77
65 98 76
69 104 81
66 100 78
66 100 78
64 96 75
66 99 77
61 92 72
61 92 72
63 95 74
64 96 75
63 96 75
66 99 77
65 99 77
66 99 77
63 95 74
67 102 79
68 103 80
68 102 80
65 98 76
66 100 78
64 96 74
66 99 77
63 96 75
70 105 82
66 100 78
60 91 70
65 98 76
70 105 82
65 98 76
66 100 78
62 93 73
66 100 77
65 98 76
64 97 76
64 97 75
65 98 76
62 95 74
61 92 71
66 100 78
67 101 79
65 98 77
63 95 74
61 92 72
66 99 77
67 101 78
63 95 74
63 95 74
64 97 76
66 99 77
66 99 77
65 98 76
61 92 72
67 101 79
65 97 76
64 96 75
66 99 77
62 94 73
67 102 79
65 99 77
63 95 74
66 100 78
65 98 76
66 99 77
69 103 80
63 95 74
61 92 72
62 93 72
60 91 71
60 90 70
64 96 75
63 95 74
65 98 76
66 99 77
63 95 74
67 102 79
59 89 69
63 95 74
64 97 75
64 96 75
65 99 77
62 94 73
69 104 81
63 95 74
64 96 75
63 95 74
64 96 75
64 96 75
61 93 72
61 92 72
66 100 78
65 98 76
69 104 81
61 92 71
67 102 79
64 97 76
63 94 73
64 97 75
65 99 77
64 96 75
63 95 74
64 97 75
66 99 77
64 97 75
64 96 75
62 94 73
65 98 76
63 94 73
65 98 76
65 97 76
69 104 81
65 98 76
64 96 75
66 100 78
67 101 79
64 96 74
64 97 76
62 94 73
64 97 75
64 96 75
62 94 73
63 95 74
63 95 74
66 99 77
64 96 74
66 99 77
61 92 71
60 90 70
64 96 74
63 95 74
63 95 74
69 104 81
64 97 75
63 95 74
63 95 74
62 93 72
65 97 75
64 97 75
60 90 70
63 94 73
61 91 71
59 88 69
61 92 71
67 101 78
64 97 75
64 97 75
63 94 73
62 94 73
63 94 73
79 52 43
91 41 37
118 99 86
179 158 137
135 120 104
46 38 33
198 171 148
200 174 151
201 175 153
59 52 46
49 42 36
212 185 163
207 180 157
132 113 98
182 156 137
129 74 67
118 52 47
119 53 48
120 53 49
120 53 49
116 51 47
116 51 47
115 51 46
114 51 47
112 50 46
112 50 46
110 49 45
107 48 44
108 49 44
104 47 43
103 46 42
99 43 38
101 43 38
99 42 37
101 42 37
97 40 35
96 38 33
91 35 29
86 32 25
108 74 61
164 127 107
182 150 129
193 163 141
211 136 108
221 101 57
227 105 59
232 108 61
235 110 62
234 109 62
239 111 64
244 114 65
238 111 63
243 114 65
244 113 65
242 113 64
245 115 66
240 112 64
242 114 65
237 111 64
236 110 63
234 110 63
235 110 63
235 110 63
232 109 63
225 106 61
221 106 62
206 171 149
202 179 160
197 173 153
192 170 152
186 165 146
182 162 144
176 157 139
176 158 140
167 150 133
161 145 129
149 135 119
143 132 117
135 126 113
129 120 107
123 115 102
81 98 80
62 94 73
62 93 72
64 96 74
61 92 72
62 93 72
63 94 73
63 96 74
60 90 70
64 97 75
62 93 72
60 91 71
61 91 71
62 94 73
59 89 69
62 94 73
63 95 74
61 92 72
61 92 71
64 95 74
62 93 72
62 93 72
64 97 75
63 95 74
63 94 73
65 98 76
66 100 78
64 96 75
64 96 74
60 90 70
70 104 81
60 91 71
63 95 74
60 91 71
61 92 71
67 101 79
62 94 73
61 92 72
62 94 73
65 98 76
63 95 74
65 99 77
61 92 72
64 96 75
64 96 75
64 96 75
62 93 72
60 91 71
62 94 73
62 94 73
65 98 76
64 96 75
60 91 71
64 96 75
64 97 76
60 91 71
63 95 74
61 93 72
63 95 74
59 89 69
59 89 69
58 87 68
61 92 72
63 95 74
63 95 74
62 94 73
60 90 70
60 91 71
65 99 77
64 96 75
66 100 78
62 93 72
67 101 79
61 92 72
62 94 73
64 96 74
60 90 70
58 87 68
62 94 73
63 95 74
63 95 74
61 91 71
63 95 74
61 92 72
73 100 77
138 110 70
156 117 72
159 119 73
159 119 74
160 119 74
159 118 73
160 119 73
159 119 73
159 119 74
158 118 74
158 119 74
155 116 73
151 113 71
151 114 71
150 113 70
146 110 68
142 107 66
144 108 67
139 105 66
135 103 64
134 102 63
130 99 62
124 94 59
121 93 58
117 90 56
115 88 56
106 82 52
102 79 50
91 73 45
89 72 45
83 67 42
86 69 43
78 64 40
75 61 37
69 63 41
59 88 68
61 92 71
61 92 72
61 92 71
60 90 70
63 95 74
57 86 67
58 88 69
60 90 70
56 84 65
58 87 68
59 89 69
64 97 75
60 91 71
57 86 67
59 88 68
62 93 72
61 92 71
58 88 69
60 91 71
60 91 71
59 89 70
59 89 69
60 90 70
59 90 70
60 91 71
59 90 70
66 100 78
59 89 69
62 94 73
59 89 69
59 89 70
61 93 72
61 93 72
62 93 73
61 93 72
60 91 71
63 96 75
61 93 72
64 97 76
62 93 73
62 93 73
62 94 73
61 93 72
58 88 68
62 94 73
65 99 77
68 103 80
61 93 73
64 97 76
61 92 72
63 95 74
72 108 84
69 105 82
64 97 75
63 95 74
63 95 74
63 95 74
66 100 77
64 97 75
68 102 80
68 102 80
66 100 78
64 97 75
72 108 84
64 97 76
63 95 74
65 99 77
64 97 75
65 99 77
64 97 76
63 96 74
62 93 72
65 98 76
63 96 74
62 94 73
61 93 72
62 93 72
63 95 74
66 100 78
65 99 77
63 94 73
62 94 73
65 98 76
65 98 76
61 92 72
65 97 76
64 97 75
64 96 75
64 97 75
64 97 76
65 98 76
67 100 78
63 96 75
61 92 72
60 90 70
61 92 72
59 89 69
61 93 72
64 97 75
66 100 78
62 94 73
63 95 74
64 96 75
65 98 76
66 100 77
66 99 77
64 97 75
62 94 73
61 91 71
64 97 76
60 90 70
65 98 76
61 93 73
62 94 73
65 97 76
64 96 75
65 98 76
68 102 79
63 94 73
65 98 76
64 96 75
61 92 72
65 98 76
65 98 76
62 93 73
61 93 72
63 94 73
61 93 72
67 100 78
62 94 73
60 91 71
69 104 81
67 101 79
67 100 78
68 102 79
66 99 77
66 100 78
66 100 78
64 96 75
63 95 74
65 98 76
63 96 75
66 99 77
65 98 76
64 97 75
60 91 70
63 96 74
62 93 73
62 93 73
62 93 72
65 98 76
68 102 79
63 95 74
67 101 79
65 97 75
60 91 71
62 94 73
64 96 75
63 94 73
64 97 75
59 89 69
61 92 71
62 94 73
67 100 78
65 98 76
65 98 76
66 100 77
64 96 75
66 99 77
65 98 77
67 101 79
64 96 74
64 96 75
64 96 74
65 98 76
63 94 73
61 92 72
61 91 71
62 94 73
62 94 73
63 94 73
61 92 71
63 94 73
59 89 69
60 91 71
60 90 70
66 98 76
64 95 74
65 98 76
64 96 74
67 101 79
63 95 74
62 94 73
66 99 76
71 106 82
61 92 71
61 91 70
63 95 73
70 59 47
90 41 37
109 86 75
167 148 128
130 115 99
35 30 27
191 167 145
201 176 154
198 174 151
98 84 72
25 22 20
194 169 148
204 178 156
155 135 117
158 136 120
137 89 79
113 50 46
113 50 45
113 50 46
112 50 45
114 50 46
112 49 44
110 49 45
109 49 45
109 48 44
106 48 43
105 47 43
104 47 42
104 47 42
99 45 40
97 44 40
100 43 38
97 41 37
99 40 36
93 40 35
90 36 31
92 37 32
87 34 28
81 30 24
107 76 62
157 126 106
177 145 124
185 155 134
209 107 70
218 100 57
220 101 57
226 105 59
231 108 61
234 109 62
236 109 62
237 110 62
235 110 63
236 110 62
237 111 63
233 109 62
238 111 63
234 109 62
240 112 65
234 109 63
231 109 62
232 109 63
233 109 63
224 105 60
226 106 61
219 103 59
215 132 102
198 175 155
198 174 155
192 170 151
192 171 152
184 163 145
179 160 142
178 158 141
170 153 135
160 144 127
153 138 121
149 135 119
139 128 112
134 125 112
124 116 103
114 110 96
77 98 79
60 91 71
61 91 71
59 89 69
62 93 72
62 93 72
67 100 77
61 92 72
61 92 71
62 94 73
62 94 73
62 94 73
61 91 71
63 95 74
67 102 79
59 90 70
60 90 70
63 95 73
63 95 73
64 95 74
61 93 72
63 95 74
58 88 68
63 94 73
65 97 75
63 95 74
64 97 75
60 91 70
58 88 69
61 93 72
62 94 74
63 96 75
61 92 72
66 99 77
63 95 74
63 95 74
64 97 75
65 98 76
62 93 72
63 95 74
62 94 73
63 95 74
60 91 71
61 92 71
62 93 72
61 91 71
59 89 69
62 93 73
67 101 78
67 101 79
62 93 72
62 93 73
61 92 72
64 96 75
64 97 76
61 92 71
62 93 72
67 102 79
63 96 75
66 100 78
62 94 73
64 97 76
60 91 71
59 89 69
66 100 78
63 94 73
66 99 77
62 94 73
59 89 69
63 95 74
65 99 77
63 96 74
62 94 74
59 89 69
62 93 72
61 92 72
59 90 70
63 96 74
60 91 71
61 92 72
59 89 69
65 98 77
63 95 74
67 98 76
133 108 71
156 117 72
159 119 73
159 119 74
160 119 74
160 119 74
159 119 74
159 119 74
158 118 73
159 119 74
158 119 75
156 117 73
153 115 72
151 113 70
149 112 70
146 110 68
145 109 68
141 106 66
139 105 65
138 105 66
133 101 63
129 98 61
126 96 60
122 94 58
117 89 56
110 85 53
109 85 53
103 81 51
97 77 48
90 72 46
88 70 44
83 67 42
79 64 40
82 66 41
69 62 40
64 90 69
64 97 75
61 92 72
61 92 72
59 89 70
62 94 73
60 91 71
59 90 70
58 87 68
61 93 72
59 89 70
57 86 66
66 100 78
61 92 71
63 95 74
60 91 71
58 87 68
58 88 68
62 93 73
63 95 74
62 94 73
60 90 70
62 94 73
61 93 73
63 95 74
65 98 76
64 97 76
61 92 72
58 88 68
58 89 69
59 90 70
65 98 76
60 90 70
63 95 74
64 96 75
62 94 73
61 93 72
60 90 70
61 92 72
61 92 72
60 91 71
63 96 74
63 95 74
63 95 74
61 92 72
58 88 69
61 92 72
58 88 69
62 94 73
61 92 72
64 97 76
62 93 72
63 96 74
61 92 72
69 104 81
61 92 72
64 96 75
69 104 81
64 96 75
62 93 73
63 95 74
69 103 80
63 95 74
66 100 78
62 93 73
66 100 78
64 96 75
65 98 76
62 94 73
68 102 80
66 100 78
61 93 72
65 97 76
63 95 74
63 95 74
66 99 77
63 94 73
63 95 74
65 98 76
64 97 75
65 98 76
64 96 74
63 95 74
65 98 76
64 97 75
67 102 79
64 97 75
66 99 77
58 88 68
60 90 70
61 92 71
65 98 76
64 96 75
63 95 74
62 94 73
61 92 71
67 101 78
63 95 74
65 98 76
64 97 75
68 102 79
65 98 76
69 104 81
67 101 78
65 99 77
62 93 72
62 94 73
67 101 78
65 98 76
66 100 78
61 93 72
63 95 73
66 99 77
65 98 76
65 97 75
62 93 72
61 92 72
66 100 78
63 95 74
63 96 75
68 102 79
65 98 77
66 99 77
69 104 81
66 100 78
65 98 76
64 96 74
67 101 79
67 101 79
67 101 78
64 97 75
64 97 76
62 94 73
63 94 73
61 91 71
65 98 76
64 96 74
62 94 73
63 95 74
62 94 73
64 96 74
62 93 72
62 93 73
62 94 73
67 100 78
64 97 75
64 97 75
67 100 78
64 96 75
66 99 77
66 99 77
65 98 76
65 99 77
61 92 71
68 102 79
66 100 78
68 102 79
65 98 76
64 96 75
64 96 75
60 90 70
61 93 72
58 88 68
63 94 74
63 94 73
66 100 78
64 97 75
66 99 77
66 99 77
64 97 75
64 96 75
64 96 75
63 94 73
64 97 75
61 92 72
63 94 73
65 98 76
63 95 74
64 96 75
60 90 70
63 94 73
63 95 73
64 95 74
67 100 77
62 93 72
62 93 72
62 94 73
63 94 73
64 96 74
66 99 77
61 91 71
63 94 73
65 97 76
62 94 73
63 94 73
62 93 72
63 95 74
62 93 72
61 92 71
60 90 69
67 71 56
80 37 32
113 86 74
150 133 116
159 139 120
27 24 21
130 113 97
185 162 139
184 162 140
55 49 43
19 17 15
185 161 139
193 169 146
140 121 106
147 129 112
135 91 80
112 49 45
109 48 44
113 50 46
112 50 46
109 48 44
106 47 42
107 48 43
108 48 43
107 48 43
105 47 43
101 45 41
102 46 41
99 44 40
98 44 40
96 43 39
95 42 37
92 40 36
92 37 32
88 36 31
90 35 31
81 32 27
79 30 24
70 26 20
96 69 57
148 117 97
169 140 120
181 141 118
203 94 54
205 93 52
217 100 56
216 101 57
221 103 58
227 106 60
226 105 59
228 106 60
232 109 62
231 108 61
231 108 61
232 107 61
229 106 60
233 108 61
233 109 63
230 108 62
231 108 62
226 106 60
219 103 59
221 104 59
216 102 58
213 100 57
199 158 135
197 174 155
190 168 148
184 163 144
182 160 141
176 155 137
171 152 134
166 149 132
164 147 129
157 141 124
150 136 120
146 133 119
131 122 108
121 115 101
113 107 92
112 109 94
70 97 77
57 86 67
58 88 68
59 89 69
58 88 69
62 92 72
62 93 73
65 97 75
62 93 72
62 93 72
60 91 71
65 98 76
60 91 70
65 98 76
65 98 76
58 88 68
59 89 69
64 96 74
61 92 71
60 91 71
63 95 74
67 100 78
58 88 68
60 91 71
71 107 83
64 97 76
67 101 79
68 102 79
62 93 72
68 103 80
65 98 76
66 100 77
63 95 74
66 99 77
64 96 75
57 86 67
65 97 76
61 91 71
64 97 76
68 102 79
62 93 73
61 92 72
61 93 72
58 88 68
62 94 73
62 94 73
61 92 72
62 94 73
67 101 79
63 94 73
62 92 72
67 101 78
61 92 72
59 89 70
63 95 74
63 95 74
63 95 74
62 95 74
62 93 73
61 92 71
64 96 75
62 93 72
67 101 79
63 95 74
65 98 76
62 94 73
59 89 70
64 96 75
60 90 70
64 97 76
66 99 77
64 96 75
61 92 71
63 95 74
61 93 72
60 90 70
62 93 72
60 91 71
62 94 73
60 90 69
64 96 75
61 93 72
62 92 71
127 106 70
155 116 72
160 119 74
159 119 73
159 119 74
160 119 74
160 119 74
159 119 73
159 119 74
158 119 74
159 120 75
156 117 74
152 114 71
151 113 70
148 111 69
147 111 69
145 109 68
143 108 67
139 105 65
135 102 64
133 101 63
128 97 61
126 96 60
120 92 57
118 90 56
114 88 55
108 84 53
103 81 51
95 75 47
87 70 44
87 70 44
87 70 44
80 65 40
75 61 37
71 62 39
65 89 68
60 91 71
60 91 71
61 93 72
59 89 69
61 92 72
63 96 75
68 101 79
62 93 72
65 98 76
66 100 78
60 91 71
64 97 75
63 95 74
63 95 74
64 97 75
60 90 70
59 89 69
60 90 70
64 97 76
64 96 75
66 100 78
58 88 68
59 90 70
61 92 72
66 100 78
62 94 73
62 93 73
61 93 72
60 91 70
61 93 72
63 95 74
68 102 79
65 98 77
60 91 71
60 90 70
60 91 70
65 98 77
60 91 71
62 94 74
60 90 70
61 92 72
61 92 72
62 94 73
65 98 76
60 91 71
63 96 75
61 92 72
65 98 77
60 90 70
58 88 68
59 90 70
71 106 83
64 97 75
65 98 77
63 95 74
67 102 79
62 94 73
66 100 77
67 101 79
64 96 75
65 98 76
63 95 74
63 95 74
63 95 74
64 97 75
68 103 80
67 102 79
69 104 81
60 91 71
64 97 75
62 93 73
64 97 75
64 96 75
64 96 75
63 95 74
66 99 77
64 97 75
62 93 73
65 98 76
66 100 78
68 102 80
69 104 81
64 96 75
66 100 78
65 98 77
62 95 74
65 98 76
66 100 77
59 89 70
62 93 73
66 99 77
63 95 74
68 103 80
65 98 76
67 101 78
62 94 73
68 103 80
65 99 77
67 101 78
66 99 77
66 100 78
63 95 74
65 99 77
65 97 76
66 99 77
67 101 79
66 100 78
61 92 71
65 97 75
66 100 77
64 97 75
59 89 69
66 100 78
62 94 73
61 92 72
62 94 73
65 98 77
67 100 78
66 100 77
68 103 80
67 100 78
66 100 78
61 93 72
62 93 73
66 99 77
64 97 75
63 95 74
65 98 76
65 98 76
68 102 80
63 95 74
63 95 74
66 100 78
69 104 80
66 99 77
67 100 78
63 95 74
64 96 74
68 102 79
63 96 74
67 100 78
66 100 77
66 99 77
64 96 75
66 100 78
58 88 69
65 98 76
65 99 77
66 100 78
62 93 73
64 97 76
74 111 86
66 100 78
70 106 82
65 99 77
66 99 77
67 100 78
62 94 73
63 95 74
67 100 78
62 93 72
61 91 71
64 97 75
68 102 79
61 92 72
64 96 74
62 93 73
64 96 75
64 97 75
62 94 73
65 98 76
62 94 73
66 99 77
64 97 76
62 93 72
64 97 75
62 93 72
68 102 79
63 95 74
64 96 74
62 94 73
67 100 78
62 92 72
66 99 77
66 99 77
64 95 74
64 97 75
65 97 75
60 89 69
59 89 69
62 93 72
65 97 75
61 92 72
64 96 74
61 92 71
61 91 71
65 97 75
64 96 74
67 100 77
63 94 73
62 86 67
77 38 33
88 53 46
113 101 86
165 146 124
111 97 83
14 12 10
93 80 68
68 58 49
0 0 0
77 68 58
186 162 139
193 168 145
128 112 97
156 135 117
117 69 60
106 47 42
107 48 43
108 48 43
106 47 42
105 46 42
104 46 41
104 46 42
103 46 41
101 45 41
102 46 42
96 43 39
98 44 40
94 43 38
94 42 38
90 41 37
91 40 36
90 38 34
85 36 32
83 35 30
79 31 26
80 30 25
73 27 22
62 23 17
81 55 46
136 110 91
155 128 107
178 119 94
193 88 49
204 94 52
205 95 53
212 99 55
217 101 57
220 103 58
221 103 58
229 106 60
225 105 59
226 105 59
224 104 59
227 105 59
221 103 58
218 102 57
221 103 59
224 105 60
218 102 58
221 103 59
216 102 58
218 103 58
211 99 56
210 118 84
186 164 143
184 161 141
181 159 140
181 161 143
173 154 134
170 151 133
170 152 134
159 142 125
155 140 123
150 136 120
141 129 112
131 122 107
118 112 98
112 106 93
108 104 89
102 101 86
54 82 64
56 86 67
57 86 68
57 85 67
59 90 71
63 94 73
57 86 67
57 87 68
60 90 70
62 93 72
62 93 73
61 93 72
60 91 70
61 92 72
63 95 74
59 88 69
61 90 70
64 96 74
63 95 74
59 90 70
62 94 73
60 91 70
65 97 75
64 96 75
59 89 69
61 92 71
64 96 74
63 95 73
63 95 74
64 96 75
62 93 72
62 93 73
68 102 80
67 101 79
66 100 78
65 99 77
65 98 76
61 92 72
61 92 71
62 94 73
60 90 70
64 97 75
63 95 74
60 91 71
60 91 71
60 90 70
63 95 74
62 94 73
64 98 76
61 92 72
61 92 72
60 91 71
64 96 74
61 92 71
64 96 74
66 100 77
68 102 79
62 94 73
64 97 75
65 98 76
60 91 71
63 96 74
62 94 73
62 93 72
58 88 68
65 98 76
65 98 76
64 97 76
64 97 75
67 101 78
60 90 70
60 90 70
60 91 71
67 101 78
64 97 76
62 93 72
64 96 75
61 93 72
61 93 72
60 91 71
61 92 72
59 89 69
123 107 72
155 116 72
158 118 73
159 119 73
161 120 74
160 120 74
160 120 74
159 119 74
157 118 73
157 118 74
157 118 75
157 118 74
153 116 72
151 114 71
149 112 70
147 111 69
146 110 68
141 106 66
140 106 66
135 102 64
134 102 63
132 100 63
126 96 60
123 94 59
120 92 58
114 88 55
105 82 51
99 78 48
94 75 47
86 70 44
87 70 44
78 64 40
82 67 42
85 68 42
72 60 37
66 89 67
60 91 71
61 92 71
62 94 74
62 93 72
64 96 75
62 94 73
59 90 70
59 89 69
66 99 77
65 98 77
63 95 74
66 100 77
62 93 72
58 88 68
61 92 71
65 99 77
65 98 76
61 92 71
61 91 71
62 94 73
60 91 71
61 92 71
62 94 73
64 97 76
60 91 71
58 87 68
60 90 70
61 91 71
62 94 73
60 90 70
60 90 70
63 96 75
61 93 72
63 95 74
57 87 68
60 90 70
61 92 71
63 95 74
57 87 67
62 93 72
60 91 71
63 95 74
62 93 73
59 89 69
64 96 75
59 90 70
63 94 73
62 93 73
61 92 72
61 93 72
62 94 73
60 91 71
64 97 76
64 97 75
71 108 84
65 99 76
66 100 78
67 102 79
64 97 76
64 96 75
64 96 75
66 100 78
67 101 79
59 89 70
67 101 79
67 100 78
66 100 78
68 103 80
64 97 75
66 100 78
70 105 82
65 98 76
64 96 74
69 104 81
66 99 77
66 100 77
61 93 72
65 99 77
64 96 75
60 91 71
66 100 78
66 99 77
65 98 76
63 95 74
67 101 79
61 93 72
64 96 74
63 96 74
62 94 73
64 96 75
65 97 75
64 97 75
67 100 78
63 94 73
63 95 74
61 92 72
70 106 82
59 90 70
64 98 76
65 98 76
66 99 77
67 101 79
66 99 77
67 101 78
67 101 78
65 98 76
69 103 80
65 98 77
65 98 76
65 98 76
67 101 78
67 100 78
64 96 75
69 103 80
68 102 79
64 97 75
67 101 79
66 100 78
64 97 75
72 108 84
62 93 73
63 95 73
66 99 77
63 95 74
65 98 76
68 102 80
65 98 76
65 98 76
61 93 72
63 95 74
68 102 79
61 93 72
61 93 72
62 93 73
63 95 74
64 97 76
65 98 76
63 96 74
63 95 74
68 102 79
62 94 73
64 96 75
66 100 78
65 98 77
67 102 79
71 107 83
64 96 75
64 97 75
63 95 74
66 99 77
64 96 74
68 103 80
66 100 78
63 95 74
69 104 81
63 96 75
62 94 73
61 92 72
65 98 76
66 99 77
64 96 74
68 102 79
64 97 76
64 96 75
63 96 74
70 106 82
64 96 75
66 99 77
68 103 80
63 94 73
64 97 75
67 100 78
62 94 73
60 91 71
66 99 77
64 96 75
68 102 79
65 98 76
65 98 76
61 92 72
62 94 73
62 93 72
63 95 74
60 91 71
64 97 75
63 95 74
68 103 80
64 96 75
63 94 73
63 94 73
64 96 74
61 92 71
64 97 75
64 96 75
63 94 72
59 89 69
66 98 76
66 98 76
62 93 72
62 93 72
62 92 72
67 99 76
67 48 39
77 36 31
112 94 79
141 126 108
166 147 126
90 80 67
0 0 0
0 0 0
36 31 25
156 136 117
182 159 136
181 156 134
72 64 55
170 146 127
105 52 46
104 46 41
103 45 40
103 45 40
102 45 40
106 46 42
101 44 39
102 46 41
102 45 41
97 43 39
97 43 39
92 42 37
89 40 36
94 42 38
87 39 35
82 37 33
86 38 34
79 34 30
81 33 29
78 31 26
72 28 23
70 28 23
61 23 18
56 20 15
68 48 39
129 104 86
151 124 104
171 110 86
187 84 46
193 89 49
201 93 52
205 96 54
208 98 54
211 98 54
217 101 56
221 103 58
217 101 57
222 103 58
220 103 58
217 101 57
221 103 58
215 101 57
218 102 57
219 103 58
216 102 58
210 99 56
208 98 55
212 100 57
209 98 56
195 142 118
184 163 142
176 156 136
173 152 132
175 155 136
166 148 128
166 147 129
162 144 126
153 138 120
141 128 111
137 126 109
126 116 100
118 111 96
115 108 95
113 108 93
102 99 84
90 96 79
54 82 65
51 78 62
60 90 71
53 80 63
54 83 65
58 88 69
64 97 76
56 84 66
61 93 72
61 92 72
61 92 71
60 91 70
64 96 75
62 93 72
63 95 74
63 95 74
63 95 74
67 101 79
66 98 76
60 90 70
61 93 72
62 93 72
61 91 71
65 98 76
61 92 71
60 91 70
64 97 75
62 93 72
63 95 74
63 95 74
62 93 72
65 98 76
62 94 73
63 96 74
61 92 71
65 98 76
70 105 81
61 91 71
61 92 72
63 95 74
60 91 70
61 92 71
60 91 71
65 97 75
61 92 71
62 94 73
64 97 76
61 92 72
62 94 73
61 92 71
62 93 72
64 96 75
61 92 71
62 93 72
62 93 72
65 98 76
65 99 77
62 94 74
63 96 74
62 93 72
60 90 70
65 98 76
63 94 73
66 100 78
59 89 70
61 93 72
60 91 71
60 91 71
67 101 78
70 106 82
65 98 76
62 94 73
64 97 75
63 95 74
65 98 77
66 99 77
64 97 76
63 95 74
63 95 74
61 93 72
60 90 70
113 103 71
155 116 72
158 118 73
158 118 73
160 120 74
161 120 74
160 119 74
159 119 74
158 118 74
158 118 74
158 119 75
156 118 74
156 117 73
150 113 70
149 112 70
147 110 68
145 110 68
143 108 67
139 105 65
136 103 64
134 102 64
131 100 62
127 97 61
123 94 59
119 91 57
113 87 54
111 86 54
104 82 51
96 76 48
87 69 43
85 68 43
83 67 42
79 64 40
78 64 39
68 57 34
62 80 60
59 90 70
62 93 72
64 98 76
66 100 78
61 92 71
63 96 74
64 97 75
62 94 74
62 93 72
64 96 74
61 92 71
57 87 68
60 91 71
60 91 71
66 100 78
64 97 75
63 96 74
64 97 75
58 87 68
61 93 72
63 95 74
64 97 75
60 91 71
61 93 72
62 93 72
61 92 72
61 92 72
61 93 72
60 91 71
63 96 75
61 93 72
57 86 67
59 90 70
60 91 71
57 87 67
64 96 75
64 96 75
59 89 70
63 95 74
63 95 74
64 97 75
61 92 71
59 89 70
60 91 71
60 91 71
62 94 73
59 89 69
61 92 72
63 96 74
65 99 77
58 88 69
59 90 70
62 94 73
62 94 73
62 94 73
65 99 77
65 99 77
67 101 79
65 98 76
64 96 75
65 98 76
66 99 77
67 102 79
62 95 74
64 97 75
65 97 76
62 94 73
63 95 74
64 96 75
62 94 73
66 100 78
63 96 74
66 100 78
64 97 75
61 92 72
63 95 74
62 94 73
65 98 76
67 101 79
69 104 81
66 101 78
62 94 73
63 95 74
69 104 81
65 99 77
64 97 75
69 105 81
64 97 75
64 97 76
65 99 77
66 99 77
65 98 76
68 103 80
67 101 79
64 96 75
67 101 79
66 100 78
63 95 74
65 97 75
62 94 73
64 97 75
67 101 78
60 90 70
63 96 74
63 95 74
63 96 74
64 97 76
64 97 75
66 100 78
60 91 71
62 94 73
68 103 80
62 94 73
62 94 73
67 100 78
63 95 74
62 94 73
62 94 73
68 102 79
66 99 77
70 106 82
62 94 73
61 92 72
61 91 71
62 94 73
62 94 73
63 96 75
66 100 77
63 95 74
62 94 73
65 98 76
64 96 75
67 102 79
65 98 76
63 95 74
62 94 73
64 96 75
68 102 79
67 101 78
62 93 72
61 93 72
62 94 73
61 93 72
63 94 73
66 99 77
67 102 79
65 98 76
64 97 75
65 97 75
62 94 73
66 100 77
63 95 74
64 96 74
61 91 71
63 96 75
61 92 72
63 95 74
62 94 73
61 92 72
59 90 70
64 96 75
66 99 77
61 91 71
64 97 75
64 97 75
63 95 74
61 92 71
65 98 76
61 91 71
62 93 72
62 93 73
64 97 75
61 92 72
64 95 74
62 93 72
68 101 79
60 90 70
64 95 74
65 98 77
61 93 72
64 97 76
65 98 76
68 102 79
67 100 78
61 92 71
66 99 77
63 94 73
60 91 70
62 93 72
64 96 75
60 90 70
67 100 78
63 95 74
60 90 70
64 96 74
64 96 74
64 96 75
60 90 70
61 91 70
61 90 70
62 92 71
58 86 67
66 98 76
63 78 60
71 33 29
88 56 46
97 87 73
150 132 113
158 140 118
138 122 103
127 113 96
159 139 118
176 156 135
172 151 128
146 128 111
92 80 68
150 121 105
96 43 38
97 43 38
99 44 39
98 43 39
100 44 39
97 43 38
96 43 38
95 43 38
92 42 37
92 41 36
93 42 37
90 41 36
86 39 34
87 39 35
83 38 34
82 37 33
79 35 31
77 33 29
71 30 26
73 28 24
68 26 21
60 23 18
59 22 17
48 19 13
49 33 25
112 90 73
138 114 95
159 85 56
175 80 44
186 86 48
195 90 50
189 89 49
204 95 53
205 96 53
209 97 54
210 98 55
209 98 55
211 98 55
208 96 53
210 98 55
209 97 55
206 97 54
207 97 55
208 98 55
206 97 55
201 94 53
202 95 54
201 95 54
191 96 60
176 150 129
172 152 132
177 157 138
173 153 135
167 149 130
169 150 132
160 143 125
150 135 117
151 137 120
128 118 101
130 119 103
119 112 97
112 106 92
104 101 86
104 101 85
106 103 88
72 85 70
47 71 57
51 78 62
50 77 61
51 79 62
53 81 63
53 81 63
56 84 66
57 86 68
59 89 69
60 90 70
57 86 67
63 95 74
62 93 72
61 92 71
62 94 73
65 98 76
61 92 71
65 98 76
65 98 76
63 95 74
66 99 77
66 100 78
65 98 76
63 94 73
61 93 72
64 96 74
67 101 78
64 97 75
61 92 71
63 95 74
62 93 73
59 89 69
60 91 70
64 97 75
59 89 69
62 93 72
63 95 74
67 101 78
62 94 73
59 89 69
60 90 70
65 98 76
66 100 78
63 95 74
63 95 74
61 92 72
66 100 78
63 96 74
66 100 78
63 96 74
65 98 76
70 105 81
62 94 73
63 96 75
59 90 70
65 98 76
63 95 74
62 93 72
62 93 73
62 94 73
60 91 71
62 94 74
62 94 73
61 92 71
64 96 75
63 95 74
61 93 72
62 93 72
62 93 72
63 95 74
63 95 74
65 98 76
64 96 74
61 92 72
61 93 72
69 103 80
65 98 76
63 95 74
68 103 81
62 94 73
115 104 72
154 115 71
159 118 73
161 120 74
159 119 74
160 120 74
159 119 74
159 119 73
160 120 74
158 118 74
158 119 75
156 118 74
154 116 72
152 114 71
150 113 70
147 110 68
145 109 68
143 108 67
142 107 66
135 102 63
136 103 64
131 99 61
129 98 62
124 95 59
120 92 58
113 87 54
109 85 53
107 83 52
99 78 49
92 73 46
84 68 43
84 68 43
81 66 41
78 64 39
68 57 34
67 81 60
60 91 71
61 92 72
62 93 72
66 100 78
66 99 77
65 98 76
63 95 74
60 91 71
61 92 72
57 87 67
64 96 75
60 91 71
55 84 65
58 89 69
64 97 75
64 96 74
62 94 73
64 97 76
62 93 72
58 88 68
59 89 69
61 93 72
68 103 80
64 97 76
64 97 75
60 90 70
60 91 71
58 87 68
65 98 77
60 92 71
60 90 70
59 88 69
66 100 78
62 93 73
60 91 70
60 91 71
57 87 68
57 87 67
63 96 75
67 101 78
65 99 77
58 87 68
61 92 72
61 93 73
61 92 71
60 91 70
60 90 70
63 96 75
65 99 77
57 86 67
62 94 73
57 86 67
60 90 70
60 90 71
62 94 73
65 98 76
61 93 72
63 96 75
66 99 77
68 102 79
67 101 78
65 98 76
66 100 78
68 103 80
65 97 76
64 97 76
64 96 75
68 102 79
65 99 77
66 100 78
59 95 72
58 98 73
56 98 72
55 100 73
53 99 71
52 98 71
55 100 73
55 99 72
57 96 72
64 103 78
68 105 81
64 96 75
60 90 70
61 92 71
61 92 72
63 95 74
63 96 74
68 103 80
68 103 80
63 95 74
66 99 77
64 97 75
62 93 72
61 93 72
67 100 78
67 102 79
62 94 73
64 96 75
63 94 73
65 98 76
62 94 73
63 95 74
64 97 75
66 99 77
66 99 77
67 101 78
67 102 79
67 100 78
63 96 74
64 97 75
65 98 76
66 100 77
62 93 72
65 97 76
64 96 75
64 97 75
63 96 74
67 101 78
65 98 76
66 99 77
69 105 81
64 96 75
68 103 80
66 99 77
62 93 73
68 102 80
64 97 75
63 95 74
62 93 73
66 99 77
63 95 74
61 92 72
61 92 71
65 98 76
66 99 77
65 99 77
62 93 73
61 92 72
67 101 79
61 92 71
62 94 73
63 95 74
64 97 76
69 103 80
63 96 74
65 97 76
67 100 78
67 101 79
62 93 73
64 96 75
64 97 75
63 95 74
68 102 79
62 94 73
62 94 73
68 103 80
63 94 73
64 97 75
67 100 78
69 104 81
70 104 81
68 103 80
63 95 74
61 92 72
64 97 76
62 94 73
65 97 76
59 89 69
61 92 71
65 99 77
65 98 76
63 94 73
62 94 73
64 96 75
69 103 80
64 96 75
61 92 71
63 94 73
70 106 82
66 99 77
64 96 75
63 94 73
66 99 77
65 98 76
67 101 78
62 93 72
67 101 79
66 99 77
62 93 72
66 98 76
62 93 72
62 92 71
64 96 74
65 97 76
61 91 70
64 97 75
64 96 74
62 93 72
62 92 71
62 92 72
58 87 67
60 90 70
64 95 73
64 94 73
62 92 71
59 34 28
73 34 29
97 75 63
96 86 72
139 123 102
157 139 118
155 137 115
158 139 116
158 138 116
144 126 106
59 52 44
152 133 115
107 67 59
93 42 37
93 41 36
94 42 36
94 42 37
92 41 36
90 40 35
91 40 35
89 39 34
89 40 36
89 40 36
85 39 34
84 38 33
81 37 33
80 37 32
78 36 32
72 33 28
75 34 30
69 30 26
60 26 22
65 26 22
61 25 21
51 19 14
48 19 14
42 16 11
31 16 12
96 78 63
128 107 88
158 77 47
159 73 40
172 79 43
181 84 46
186 87 48
194 91 50
191 90 50
199 94 52
202 94 52
202 94 53
200 93 52
207 96 54
198 93 51
205 96 54
198 92 51
198 93 52
202 95 54
193 91 50
194 92 51
193 91 51
187 87 49
181 116 89
170 150 129
172 153 133
164 144 125
160 142 123
157 141 122
148 134 115
146 131 112
143 129 112
134 123 105
127 117 101
120 111 96
109 103 88
113 107 92
111 107 92
107 104 89
104 101 87
57 75 63
46 71 57
45 70 56
51 78 62
48 73 58
51 77 61
59 90 70
58 88 69
59 89 70
59 88 69
60 89 69
61 91 71
57 86 67
59 89 69
64 96 74
65 98 76
66 99 77
62 92 71
64 97 75
63 94 73
62 93 72
68 102 79
62 93 73
61 91 71
58 88 68
63 96 74
60 90 70
64 96 74
67 101 78
63 95 74
66 99 77
65 97 75
65 98 76
66 100 77
63 96 75
66 99 77
64 96 75
62 94 73
60 90 70
62 94 73
63 95 74
60 91 71
59 89 69
62 93 73
61 93 72
61 92 72
64 96 75
61 93 72
62 94 73
62 94 73
62 94 74
60 91 71
67 101 78
60 90 69
62 94 73
61 92 72
66 99 77
62 93 72
63 95 74
62 93 73
63 95 74
67 102 79
62 94 73
68 102 79
62 93 73
59 90 70
65 98 76
62 93 73
62 94 73
62 94 73
65 97 76
65 98 76
61 92 72
62 93 73
62 94 73
63 94 73
64 97 75
63 95 74
63 95 74
63 95 74
98 98 70
155 115 71
157 118 73
159 118 73
158 119 73
160 120 74
159 119 74
159 119 73
159 119 74
159 119 74
159 120 76
158 119 76
156 117 73
152 115 71
149 112 70
146 110 68
147 111 69
142 107 66
139 105 65
136 103 64
134 102 63
131 100 62
129 98 61
128 98 61
121 93 58
115 89 55
110 85 53
104 81 51
100 79 50
89 71 45
86 70 44
85 68 43
83 67 42
80 65 40
74 61 37
62 72 52
60 90 70
62 94 73
63 95 74
60 91 71
63 96 74
63 95 74
60 91 70
60 91 71
58 88 68
63 95 74
66 99 77
61 92 71
64 96 75
61 93 72
60 91 71
65 99 77
65 99 77
62 93 73
62 94 73
64 96 75
63 94 73
57 86 67
60 91 71
61 93 72
59 90 70
64 96 75
62 93 72
64 97 76
59 89 69
60 90 70
62 94 73
60 91 71
61 92 71
61 93 72
63 96 74
62 94 73
65 99 77
61 93 72
62 94 73
62 94 73
61 93 72
58 88 69
61 93 72
60 91 71
61 92 72
61 92 71
57 87 68
60 90 70
64 96 75
63 95 74
60 91 71
61 92 72
57 86 67
56 84 65
61 91 71
65 98 76
67 101 79
65 98 76
67 100 78
66 99 77
64 96 75
63 95 74
69 103 80
66 100 78
70 105 82
61 92 71
67 101 79
61 94 72
61 101 76
55 102 74
49 102 72
48 103 72
49 104 73
49 104 73
49 105 73
49 105 73
49 104 73
49 104 73
48 103 72
48 103 72
48 102 71
47 100 70
49 96 68
53 94 69
63 100 76
63 96 74
68 102 79
67 101 79
68 103 80
63 95 74
62 93 73
62 93 73
66 99 76
61 92 72
63 95 74
66 100 78
63 95 74
64 96 75
60 91 71
61 92 71
64 97 76
64 96 75
65 98 77
64 96 75
61 92 71
68 103 80
64 97 75
63 95 73
66 99 77
66 100 78
65 98 76
64 97 76
65 98 76
66 99 77
68 103 80
70 106 82
68 102 79
63 95 74
64 97 76
65 98 76
66 100 78
62 94 73
66 99 77
62 94 73
60 91 71
63 95 74
62 93 72
62 93 72
59 89 70
75 112 87
66 99 77
64 96 75
59 89 70
65 97 76
63 95 74
64 96 75
60 91 71
63 96 74
66 99 77
67 101 78
65 98 76
66 99 77
65 98 76
62 93 72
64 97 76
66 100 78
62 94 73
67 101 79
70 105 81
63 96 74
69 104 81
62 94 73
65 98 76
66 99 77
65 98 76
67 101 78
62 94 73
62 92 72
62 93 72
64 96 75
66 100 77
65 98 77
69 104 81
63 94 73
65 97 76
58 88 68
63 95 74
61 92 71
65 97 76
65 98 76
65 98 76
67 101 78
61 93 72
63 96 75
66 99 77
62 94 73
64 97 75
63 95 74
63 94 73
65 98 76
62 93 73
63 95 74
63 94 73
63 94 73
59 89 69
61 91 71
60 90 70
63 95 73
65 97 75
62 94 73
62 93 72
65 98 76
59 89 69
62 93 72
61 92 72
62 93 72
64 95 74
63 94 73
65 97 75
64 96 74
62 93 72
65 97 75
59 89 68
65 97 75
61 91 70
63 94 72
54 64 49
62 30 25
66 31 26
97 76 61
91 81 65
93 84 69
125 109 91
132 114 94
108 96 80
54 48 41
131 115 97
114 85 72
89 39 35
87 39 34
88 39 34
88 39 34
87 39 34
89 40 35
86 38 34
87 39 34
84 38 34
82 37 32
82 37 32
81 37 32
77 35 31
75 34 30
76 35 30
69 32 28
67 31 27
64 29 25
63 28 24
55 24 19
56 23 18
56 22 17
48 19 14
41 17 12
35 15 10
24 25 20
70 63 50
114 95 76
143 66 37
152 69 37
167 77 42
176 82 44
179 84 46
181 85 46
182 86 47
190 89 50
188 87 48
192 90 50
193 90 50
191 89 49
191 89 50
191 90 50
194 90 49
191 89 49
186 87 48
188 88 49
185 88 49
183 87 49
181 86 48
164 128 106
164 146 125
159 142 123
158 141 122
146 131 112
145 131 112
137 124 105
141 128 111
138 126 109
125 115 99
117 110 94
101 98 82
103 99 84
107 104 88
101 99 84
102 99 84
81 85 70
41 64 52
45 70 56
45 71 57
48 75 60
50 77 62
53 82 65
53 80 63
56 85 67
55 84 66
54 82 64
61 92 72
58 88 69
62 93 73
57 87 67
62 93 72
63 95 74
60 91 71
62 93 72
62 93 72
66 99 77
61 92 71
62 93 72
62 93 72
64 97 75
62 93 72
67 101 79
62 93 72
67 100 78
66 99 77
61 92 71
66 99 77
64 96 74
62 94 73
65 99 77
60 91 71
68 103 80
61 92 72
66 100 78
61 93 72
66 98 76
62 94 73
60 90 70
59 90 70
66 99 77
60 91 71
64 96 75
65 98 76
61 92 71
68 102 79
65 98 76
64 97 75
61 92 71
67 101 79
68 102 79
65 98 76
59 89 69
60 91 71
65 98 77
64 97 76
63 95 74
64 97 76
64 96 75
62 94 73
66 100 78
62 94 73
62 94 73
62 95 74
59 90 70
63 94 73
65 98 76
62 93 73
62 93 72
64 97 75
64 97 76
60 91 71
65 98 76
62 94 73
65 97 76
61 92 72
95 97 70
152 114 71
157 117 72
160 119 74
160 120 74
159 119 74
160 120 74
158 118 73
158 118 73
158 119 74
159 120 76
159 120 76
156 118 74
153 115 72
150 113 70
147 111 69
145 109 68
144 108 67
140 106 66
138 104 64
135 102 64
130 99 62
130 99 61
123 94 59
121 93 58
116 89 56
110 85 53
103 81 50
99 78 49
91 72 46
85 68 43
85 69 43
79 64 40
80 65 40
78 63 39
64 70 49
64 96 74
66 100 77
61 92 72
64 97 76
61 93 72
66 99 77
62 93 72
58 88 69
64 96 75
58 88 69
64 97 75
62 94 73
61 91 70
61 92 72
60 91 71
61 93 73
64 96 75
66 99 77
63 95 74
63 95 74
64 96 75
63 96 75
61 93 72
61 92 72
63 95 74
63 95 74
66 99 77
60 90 70
60 91 71
61 93 72
61 92 72
62 94 73
62 93 73
64 97 75
65 99 77
65 98 76
62 94 73
62 95 74
63 96 74
60 90 71
65 98 77
63 95 74
62 94 73
61 93 72
60 91 71
63 95 74
62 93 73
61 92 72
61 92 72
60 90 70
63 96 75
58 88 69
63 96 75
61 92 72
58 88 69
63 95 74
66 100 78
64 96 75
64 96 75
68 103 80
65 99 77
63 94 74
66 99 77
63 95 74
61 92 72
63 95 73
64 101 77
53 98 71
48 101 71
48 104 72
49 105 73
49 105 74
49 106 74
49 106 74
49 106 74
49 106 74
49 106 74
49 105 74
49 105 74
49 105 74
49 105 73
48 104 73
48 104 72
48 103 72
47 101 70
46 98 69
51 98 70
55 94 70
66 101 78
66 100 78
64 96 75
61 92 72
65 98 76
61 92 72
65 99 77
68 103 80
62 94 73
61 92 72
63 96 74
65 97 76
65 98 77
66 99 77
64 97 75
71 107 83
61 92 72
66 99 77
64 97 75
66 99 77
69 104 81
63 95 74
66 100 78
65 98 76
64 96 75
64 96 74
65 99 77
64 96 75
62 94 73
64 96 75
62 93 72
69 104 80
68 102 80
65 98 76
66 99 77
68 103 80
64 96 75
64 96 75
63 95 74
64 96 75
64 97 75
67 101 78
66 99 77
64 96 75
66 99 77
68 102 79
62 94 73
62 93 72
62 94 73
64 96 75
63 95 74
68 103 80
61 93 72
68 103 80
64 96 75
62 93 73
65 98 76
65 98 76
67 100 78
64 97 75
66 100 77
66 100 77
62 93 73
65 98 76
64 96 74
64 97 75
64 97 75
61 91 71
65 97 76
65 98 77
64 97 75
62 94 73
66 100 78
63 94 73
66 99 77
66 99 77
63 95 73
61 92 71
65 99 77
65 97 76
65 98 76
61 92 72
60 90 69
66 99 77
69 103 80
64 96 74
66 100 77
66 99 76
60 90 70
63 95 73
64 96 75
65 98 76
64 96 74
61 92 72
63 95 74
61 92 71
65 97 75
60 90 70
61 93 72
60 91 70
63 94 73
65 97 75
61 92 71
64 96 74
62 92 72
63 95 73
64 96 74
60 90 69
62 93 72
60 89 69
63 94 73
66 99 76
61 91 70
60 90 69
59 89 69
63 94 73
61 91 70
59 87 67
59 88 68
58 87 67
53 40 32
58 28 23
66 31 26
89 67 55
109 95 78
97 86 72
88 77 61
111 97 79
131 113 92
107 78 65
83 37 32
84 38 33
83 37 32
84 37 33
80 36 31
83 37 32
81 36 31
81 36 31
78 35 31
77 35 30
78 36 31
76 35 30
74 34 30
71 33 28
70 33 28
68 32 27
67 31 27
61 29 25
54 26 21
55 24 20
52 23 18
45 20 15
45 18 14
41 18 13
38 16 12
27 14 9
28 43 35
41 49 39
100 78 61
128 59 31
142 66 35
150 70 37
164 77 41
168 79 43
172 81 44
174 82 44
180 84 45
174 82 44
185 85 46
182 85 47
180 84 46
182 85 47
185 86 47
181 86 47
181 85 47
178 84 46
181 86 48
171 81 45
167 80 44
176 93 60
155 135 114
151 135 115
147 131 111
144 129 110
140 126 107
139 125 106
132 119 101
129 118 100
117 109 92
112 105 88
107 102 85
102 99 84
93 92 77
98 97 81
94 94 78
98 96 81
56 69 56
39 63 52
44 69 56
41 64 52
42 65 53
45 71 57
50 77 61
51 79 63
54 81 64
53 80 63
53 80 63
54 82 64
59 88 69
57 86 67
64 96 75
61 92 72
58 87 68
61 92 72
60 91 70
64 96 75
66 98 76
67 101 78
65 97 75
62 93 72
61 92 72
60 91 70
60 91 70
66 100 77
61 92 71
64 96 74
62 93 72
60 91 70
58 88 68
66 100 77
65 97 76
63 95 74
63 95 73
63 95 74
65 97 75
66 99 77
62 94 73
65 98 76
63 95 74
62 94 73
61 92 71
64 97 75
64 96 75
63 95 74
60 91 71
64 96 75
61 92 71
60 90 70
63 94 73
65 98 76
71 107 83
65 97 76
63 95 74
60 91 71
61 92 72
61 92 71
62 93 72
57 87 67
64 96 74
60 91 71
62 94 73
57 86 67
61 92 72
62 94 73
64 96 74
64 97 75
66 100 78
68 102 79
60 91 71
62 93 72
68 103 80
62 93 72
59 89 69
58 87 68
62 94 73
92 101 74
150 112 69
156 116 72
159 119 73
160 119 74
160 119 73
160 120 74
160 119 74
159 119 73
159 120 75
159 120 76
159 120 76
155 117 74
153 115 72
150 113 70
149 112 70
145 109 68
142 107 66
141 107 66
139 105 66
134 101 63
131 99 62
128 97 61
124 95 59
118 91 56
115 88 55
112 87 54
106 83 52
100 79 50
95 75 47
87 69 44
86 70 44
81 66 41
82 66 41
77 63 38
67 69 48
58 87 68
68 102 80
64 96 75
60 90 70
64 96 75
61 93 72
61 92 72
59 90 70
59 89 69
65 98 77
63 95 74
63 95 74
64 97 76
61 92 71
62 93 73
62 94 73
57 86 67
62 95 74
66 100 77
61 92 72
62 94 73
63 95 74
59 89 69
58 88 68
61 92 72
60 90 70
60 90 70
64 96 75
62 94 73
57 87 68
66 100 78
59 90 70
60 91 71
59 89 69
63 95 74
63 95 74
61 92 72
65 97 76
69 104 81
64 97 76
60 90 70
62 94 73
62 93 73
60 91 71
64 96 74
64 97 76
63 95 74
60 90 70
60 90 70
59 90 70
63 95 74
60 91 71
63 95 74
60 90 70
59 90 70
61 92 72
58 88 68
60 91 71
68 102 80
67 101 78
63 95 74
65 98 76
69 104 81
65 98 76
69 104 81
64 100 77
53 98 71
48 101 71
49 104 73
49 105 73
49 106 74
50 106 74
50 106 74
50 106 74
50 106 75
50 106 75
50 106 75
50 106 74
50 106 74
49 106 74
49 106 74
49 105 74
49 105 73
49 104 73
48 104 73
48 103 72
48 102 71
47 100 70
46 98 69
48 96 68
57 93 70
69 103 80
67 101 78
64 96 75
65 98 76
62 94 73
65 97 76
66 99 77
61 92 72
62 93 72
62 93 72
61 92 72
65 98 76
69 104 81
63 96 75
66 99 77
59 90 70
66 100 78
60 90 70
62 94 73
65 98 76
68 103 80
65 98 76
62 93 72
63 95 74
69 104 81
62 94 73
63 96 74
64 96 75
67 101 78
66 100 77
64 96 75
65 97 76
66 99 77
63 96 74
63 94 73
64 97 75
61 93 72
63 95 74
62 94 73
68 102 79
62 94 73
69 104 81
64 97 76
67 101 78
66 99 77
63 96 74
61 92 72
66 100 78
66 99 77
62 94 73
60 91 70
63 95 74
63 95 74
65 99 77
63 95 74
61 92 72
66 100 78
64 96 74
68 103 80
66 99 77
66 99 77
63 95 74
61 92 72
61 93 72
63 95 74
68 102 79
66 100 78
65 98 77
63 95 74
59 90 70
62 94 73
62 93 73
68 102 79
67 101 78
62 93 73
62 93 72
65 98 77
63 94 73
65 99 77
63 96 74
57 86 67
68 103 80
64 97 75
66 99 77
63 94 73
61 92 71
63 95 74
64 97 75
68 103 80
66 99 76
66 99 77
63 95 74
61 91 71
68 102 79
63 94 73
63 95 74
61 91 71
65 98 76
65 97 75
66 99 77
61 91 71
60 91 71
60 89 69
59 88 68
64 95 74
65 97 75
59 89 69
63 95 73
60 90 70
62 93 72
65 96 74
62 93 72
64 96 74
61 91 70
60 89 69
60 90 69
63 93 71
61 91 71
51 70 54
54 32 26
60 29 24
62 29 24
64 30 25
76 48 39
84 56 45
83 54 44
75 35 29
76 35 30
78 35 29
76 34 29
78 35 30
78 35 30
79 36 30
76 34 29
76 34 29
72 33 28
72 33 28
74 34 29
69 32 27
70 32 27
66 31 26
66 31 27
61 29 24
60 28 23
62 29 25
53 26 21
43 21 17
48 22 18
46 20 16
43 18 13
39 18 13
34 15 10
28 14 10
25 30 24
30 46 38
31 48 39
67 58 45
113 53 28
131 60 30
147 70 37
146 68 35
160 75 40
162 77 41
162 76 40
163 77 41
170 79 42
171 80 43
177 82 44
173 81 44
179 84 46
175 83 45
173 81 44
169 80 44
167 79 43
164 78 42
171 82 45
165 79 43
159 98 70
150 135 114
146 132 113
142 127 108
136 123 104
131 118 99
131 119 101
118 109 91
106 100 82
111 104 88
100 97 81
92 93 76
99 97 81
106 103 87
98 97 81
89 90 73
76 81 66
40 64 52
39 60 49
38 59 48
41 64 52
40 63 51
45 69 56
49 75 61
46 71 57
51 78 62
55 85 67
52 79 62
55 84 66
57 86 68
61 92 72
64 96 74
61 92 72
62 93 72
60 90 70
58 88 68
60 91 70
61 91 71
62 93 72
60 91 71
62 93 72
61 92 71
63 95 74
60 91 70
65 98 76
66 99 77
68 103 80
61 92 71
62 94 73
64 97 75
58 87 68
64 96 75
67 101 79
59 90 70
62 94 73
64 96 74
64 97 76
66 100 78
66 100 77
65 98 76
65 98 77
62 93 72
59 89 69
69 104 80
68 102 80
65 98 77
66 99 77
64 97 76
62 93 72
62 93 72
70 105 82
69 104 81
67 101 78
65 98 76
63 96 74
59 90 70
66 100 78
61 92 72
67 100 78
61 92 72
62 94 73
62 94 73
60 91 70
64 96 75
65 99 77
65 98 76
63 96 74
66 100 78
63 95 74
66 99 77
62 94 74
61 93 72
60 91 71
65 99 77
69 103 80
86 102 77
148 112 70
157 118 72
158 118 73
160 119 74
161 120 74
160 119 74
160 119 74
158 118 73
159 120 75
159 120 76
159 120 77
155 117 74
154 116 72
151 113 70
149 112 69
147 110 68
144 109 68
142 107 67
138 104 65
137 103 64
132 101 63
130 99 62
126 97 60
122 93 58
116 89 55
112 86 54
106 83 52
96 76 47
94 75 48
87 70 44
89 71 45
82 66 41
83 67 42
77 63 39
66 68 47
66 97 75
61 93 72
57 87 67
58 87 68
61 92 72
65 98 76
60 91 70
58 87 68
62 94 73
63 95 74
61 93 72
63 95 74
63 95 74
61 92 72
62 94 73
64 97 76
64 96 75
62 93 72
61 92 71
62 94 73
62 94 73
60 90 70
60 90 70
67 101 78
64 96 75
58 88 68
60 91 71
62 94 73
61 92 72
62 94 73
64 96 75
63 95 74
60 91 71
62 93 73
57 86 67
60 91 71
66 99 77
60 90 70
62 94 73
64 97 75
61 92 72
60 91 71
61 92 72
60 91 71
62 94 73
65 98 76
64 97 75
65 98 76
61 92 72
61 93 72
61 92 72
64 96 75
61 92 72
60 91 71
57 87 68
58 88 69
61 92 72
66 100 78
61 92 71
62 94 74
64 97 75
63 95 74
63 95 74
60 90 70
66 100 78
55 95 70
50 101 71
48 103 72
49 105 73
49 105 74
49 106 74
50 106 74
50 106 75
50 107 75
50 107 75
50 107 75
50 107 75
50 107 75
50 107 75
50 106 75
49 106 75
49 106 74
49 106 74
49 105 74
49 105 73
49 104 73
48 104 73
48 103 72
48 102 71
47 100 70
46 98 68
44 95 67
49 92 67
63 97 75
63 96 74
64 96 74
64 96 75
65 97 76
63 95 74
66 100 78
69 104 81
67 101 79
66 98 76
63 95 74
60 91 71
65 98 76
66 100 77
64 97 75
64 97 75
67 101 78
65 98 76
65 98 76
65 98 76
61 93 72
64 97 75
61 93 72
61 92 72
64 96 75
68 103 80
63 95 74
71 107 83
65 99 77
62 94 73
62 94 73
67 101 78
67 100 78
66 100 78
64 97 75
68 102 79
66 99 77
63 95 74
64 97 75
68 103 80
66 100 78
64 96 75
63 94 73
65 99 77
65 99 77
65 99 77
65 98 76
67 100 78
63 94 73
66 100 77
63 95 74
65 98 76
67 100 78
62 93 72
64 96 75
61 92 71
63 96 74
70 105 81
61 91 71
64 96 75
63 94 73
63 95 74
69 105 81
66 99 77
58 88 68
62 93 72
61 92 72
64 97 75
69 104 81
62 93 72
65 97 75
70 105 82
69 103 80
63 95 74
64 97 76
62 93 72
61 93 72
61 92 72
63 95 74
61 92 72
66 99 77
66 100 78
67 100 78
60 91 71
62 93 72
62 93 72
63 94 73
68 101 78
63 95 74
62 94 73
64 96 75
60 90 69
65 97 75
64 96 74
63 94 73
64 96 74
62 93 73
65 97 75
64 96 74
64 96 74
63 95 73
58 87 67
63 95 74
61 92 71
60 90 70
66 99 76
60 90 70
62 92 72
58 87 67
65 96 74
60 89 68
61 91 71
60 89 68
60 90 68
64 96 74
61 91 69
59 88 67
56 84 65
48 56 44
47 25 20
50 25 20
58 27 22
60 28 22
62 29 24
64 29 23
67 31 25
70 31 25
70 32 26
69 31 25
69 31 25
70 32 26
70 32 27
71 32 27
67 31 25
68 31 26
64 30 24
64 30 25
66 31 26
61 29 24
60 28 23
55 27 22
54 26 22
53 26 21
45 23 17
47 24 20
37 20 14
45 21 17
39 19 15
43 20 15
39 17 13
27 13 9
24 26 20
26 40 33
29 44 36
31 49 40
33 45 36
84 41 21
108 50 25
123 59 30
138 65 34
151 72 38
150 72 38
155 73 38
161 76 40
161 76 40
163 76 40
158 74 39
166 78 42
159 75 40
157 74 39
159 75 41
161 76 41
159 76 41
156 75 41
153 73 39
149 72 38
142 109 87
134 120 100
127 115 94
133 121 102
125 115 96
118 110 91
110 103 85
105 100 82
97 94 76
92 89 72
89 89 73
87 89 72
90 91 74
96 96 79
89 90 73
86 87 71
44 60 49
39 62 50
37 58 48
43 67 55
42 66 54
45 70 57
42 66 54
46 71 58
50 78 62
49 75 60
53 81 64
54 81 64
59 90 71
58 87 68
59 89 70
59 89 69
58 87 68
57 85 66
59 89 69
60 91 70
64 96 74
64 97 76
63 95 74
59 89 68
62 93 72
62 93 72
68 102 79
65 98 76
65 98 76
68 102 79
62 94 73
59 89 69
62 94 73
60 90 70
65 98 76
64 96 74
61 92 72
63 95 74
65 98 76
62 93 72
66 100 78
64 97 75
65 97 76
65 97 76
60 91 71
63 96 75
62 94 73
69 105 81
65 99 77
70 104 81
64 98 76
64 96 74
64 97 75
62 94 73
62 93 73
60 90 70
61 92 71
63 95 74
65 97 76
64 96 75
60 90 70
62 93 72
64 97 75
63 95 74
63 95 74
63 95 73
62 93 72
61 93 72
65 98 76
63 96 74
61 92 72
64 97 75
60 91 70
64 96 75
62 93 72
64 96 75
63 95 74
68 102 79
80 101 76
145 113 72
156 117 72
157 118 72
159 119 73
159 119 74
160 120 74
160 120 74
157 118 73
159 119 75
159 120 76
157 119 76
155 117 74
153 115 71
151 113 71
148 111 69
145 109 68
145 109 68
140 105 65
139 105 66
138 104 65
134 102 64
130 99 61
124 95 59
122 94 58
117 90 56
111 86 53
105 82 51
102 80 50
97 77 48
85 68 43
83 67 42
81 66 41
78 64 39
80 65 40
71 63 40
62 92 71
68 103 80
66 100 78
62 95 74
59 88 69
60 91 71
59 89 70
63 95 74
66 99 77
65 98 76
62 94 73
63 96 75
63 96 75
62 94 73
62 94 73
66 99 77
62 94 73
63 95 74
62 93 73
64 97 76
57 86 67
61 93 72
59 89 70
62 93 73
59 90 70
62 93 72
64 96 75
60 91 70
65 99 77
60 91 71
59 90 70
64 96 75
62 93 73
63 95 74
61 93 72
66 100 78
59 89 69
60 91 71
64 97 75
61 93 72
69 104 80
56 85 66
62 94 73
63 95 74
60 91 71
65 98 76
63 95 74
61 93 72
61 92 71
64 97 76
61 92 72
61 93 73
61 93 72
61 92 72
61 92 72
61 92 72
62 94 73
58 88 69
66 99 77
65 99 77
60 90 70
63 96 75
61 92 71
67 101 78
61 94 73
55 100 73
47 101 70
48 104 72
49 105 73
49 106 74
50 106 74
50 106 74
50 107 75
50 107 75
50 107 75
50 107 75
50 107 75
50 107 75
50 107 75
50 107 75
50 107 75
50 106 75
50 106 75
49 106 74
49 105 74
49 105 74
49 105 73
48 104 73
48 104 73
48 103 72
47 101 71
47 100 70
46 98 69
44 94 65
43 89 63
59 95 72
67 101 78
66 99 77
66 99 77
63 96 74
66 100 77
65 98 76
67 101 78
61 93 72
66 100 77
65 98 76
67 102 79
65 97 76
64 97 75
63 95 74
70 106 82
67 101 78
65 97 75
62 93 72
65 98 76
68 102 80
67 102 79
68 102 79
65 99 76
65 98 76
61 92 72
66 99 77
64 97 76
62 94 73
62 94 73
63 95 74
69 104 81
62 94 73
65 97 75
66 99 77
64 96 75
65 98 76
66 99 77
62 93 72
70 105 82
63 95 74
65 99 77
64 96 74
66 100 78
66 100 78
66 100 78
66 100 78
64 97 75
65 98 76
60 91 71
61 91 71
66 100 77
63 95 74
70 105 82
61 93 72
65 97 76
65 99 77
63 96 74
64 97 75
65 98 76
66 99 77
65 98 76
66 99 77
67 101 78
61 91 71
60 91 71
60 90 70
61 93 72
63 95 74
62 94 73
63 94 73
68 102 79
68 102 79
63 94 73
66 99 77
69 103 80
68 102 79
59 90 70
64 97 75
63 95 74
63 95 74
63 95 74
67 101 79
62 93 73
66 99 77
66 100 77
65 98 76
66 100 77
63 95 73
62 92 72
63 94 73
68 101 78
65 98 76
61 92 71
66 99 77
63 95 74
64 96 74
61 92 71
62 92 71
65 97 75
59 89 69
62 92 71
63 95 73
63 94 73
62 92 71
65 97 75
60 89 69
63 94 72
56 85 65
58 86 66
64 95 73
61 91 70
57 84 65
58 86 66
55 81 62
57 85 65
52 77 60
50 75 58
45 56 44
43 23 17
42 22 16
47 23 17
50 24 18
55 26 20
55 26 20
59 27 22
61 28 22
64 29 23
63 29 23
64 28 22
64 30 24
60 28 22
61 29 23
62 28 23
59 28 23
57 27 21
54 26 21
54 26 21
51 25 19
47 23 18
47 23 18
42 22 16
39 21 16
43 22 17
44 22 17
38 20 15
39 20 15
40 19 15
35 17 12
28 21 16
27 41 33
29 45 36
28 43 35
28 43 35
31 48 39
51 40 28
83 41 19
107 51 25
121 58 29
131 62 32
143 68 35
143 67 34
148 70 37
147 70 36
151 70 36
154 73 39
153 72 38
151 72 38
151 71 37
152 73 39
147 70 37
149 72 38
138 67 35
141 68 35
135 68 38
125 110 90
127 115 96
121 111 91
113 105 86
110 103 83
103 97 78
101 97 79
87 86 69
80 83 65
84 85 68
101 99 83
82 85 67
93 94 77
95 94 78
81 83 65
52 66 52
40 62 51
37 58 47
38 59 48
41 63 52
38 60 49
41 64 52
45 71 58
45 69 55
50 77 61
47 73 58
49 74 59
56 85 67
54 82 64
55 83 65
59 89 69
63 95 74
62 93 73
60 90 70
60 90 70
64 96 74
61 92 71
62 93 72
57 86 67
61 92 71
66 99 76
66 99 76
66 100 77
63 96 74
64 96 75
63 95 74
65 98 76
65 98 76
65 98 76
66 99 77
63 95 74
64 96 75
58 88 68
65 97 75
65 98 76
64 97 75
63 96 74
68 103 80
63 95 74
68 103 80
61 92 71
59 90 70
59 90 70
59 90 70
59 89 69
64 95 74
61 92 72
61 92 72
64 96 75
58 88 68
64 96 75
60 91 70
60 91 71
62 93 73
61 92 72
60 91 71
65 98 76
63 96 74
62 94 73
62 94 73
65 98 76
61 92 71
60 91 71
64 97 75
62 93 72
62 94 73
67 101 78
64 97 75
61 92 72
59 89 69
64 97 75
62 94 74
62 94 74
77 100 76
142 110 70
156 116 72
159 118 73
159 119 74
160 119 74
161 120 74
159 119 74
158 119 74
158 119 74
160 121 76
159 120 77
158 120 76
154 116 72
152 114 71
148 111 69
147 111 69
146 110 68
141 106 66
138 105 65
135 102 64
134 102 64
129 98 61
128 97 61
123 94 59
118 91 57
113 88 55
109 85 53
99 78 49
95 76 48
84 68 42
90 72 46
79 64 40
81 65 40
78 63 39
69 60 38
63 89 68
58 88 69
61 92 71
69 104 81
65 98 76
66 99 77
66 100 78
63 95 74
60 91 71
61 92 71
62 93 73
63 95 74
62 93 73
64 96 75
63 95 74
62 93 73
62 94 73
59 89 69
61 92 72
62 94 73
61 93 72
63 94 73
61 92 72
59 90 70
63 95 74
64 97 75
59 89 69
61 92 72
62 94 73
62 94 73
59 89 70
62 93 73
59 89 70
61 92 72
63 96 74
61 93 72
60 91 71
61 93 72
58 87 68
63 95 74
59 90 70
61 92 72
60 91 70
59 90 70
62 93 73
63 95 74
62 93 73
62 95 74
61 92 71
61 92 72
60 91 71
59 89 69
64 97 76
63 95 74
61 92 71
60 91 70
60 90 70
62 94 74
64 97 76
63 95 74
73 110 85
62 93 72
65 98 77
65 98 76
64 98 76
50 96 68
47 100 70
49 104 72
49 105 73
49 106 74
50 106 74
50 106 74
50 107 75
50 107 75
50 107 75
50 107 75
50 107 75
50 107 75
50 107 75
50 107 75
50 107 75
50 107 75
50 107 75
49 106 75
49 106 74
49 106 74
49 105 74
49 105 74
49 104 73
48 104 73
48 103 72
48 102 72
47 101 71
46 99 69
46 96 67
45 95 66
44 90 63
54 89 67
65 97 76
66 99 77
60 91 71
67 101 79
61 92 72
63 95 74
67 100 78
65 99 77
62 94 73
65 99 77
65 98 76
65 99 76
63 95 74
65 98 76
66 100 77
69 104 81
67 101 78
64 97 75
66 99 77
66 100 77
65 98 76
63 94 73
59 90 70
65 98 76
69 104 80
68 103 80
62 93 72
64 96 75
61 92 72
67 100 78
63 95 74
64 97 75
71 108 84
67 100 78
65 97 76
62 94 73
61 92 71
66 100 78
68 103 80
61 92 72
64 96 75
65 98 76
66 100 78
64 97 76
63 95 74
64 97 76
67 101 79
61 92 72
65 98 76
64 97 75
65 99 77
61 91 71
61 93 72
63 94 73
60 90 70
66 100 77
64 97 75
63 95 74
67 101 78
60 91 70
65 98 76
66 99 76
64 96 75
66 99 77
67 101 79
62 93 73
63 95 74
64 96 74
61 93 72
61 91 71
65 98 76
64 97 75
65 98 76
63 95 74
63 95 74
59 89 69
63 96 74
61 93 72
65 98 77
63 95 74
64 97 75
65 97 75
66 99 77
64 96 75
66 100 78
65 98 76
63 95 74
64 95 74
66 99 77
69 103 80
62 94 73
63 95 73
63 95 74
62 93 72
65 97 75
66 99 77
62 93 72
63 95 73
66 99 77
64 95 74
63 94 72
64 95 74
61 91 70
60 89 69
63 94 72
61 92 71
62 92 71
61 91 70
61 90 69
58 86 66
58 86 66
60 89 69
56 83 63
57 85 65
53 79 60
47 71 55
44 66 52
38 43 34
36 20 14
41 21 15
40 21 15
45 22 16
45 22 17
50 24 18
50 24 18
52 25 19
51 24 18
54 26 20
53 26 20
55 26 20
53 25 20
55 26 20
55 26 20
47 23 17
46 23 17
45 23 17
46 23 17
40 21 15
43 22 17
40 21 16
39 21 15
42 22 17
41 21 16
38 19 15
36 18 13
31 16 11
26 19 14
23 35 28
25 39 32
26 39 32
25 39 32
26 41 34
26 40 33
28 43 35
50 33 21
72 38 17
106 52 26
112 55 27
119 58 28
130 62 31
138 65 34
133 64 32
135 64 32
137 64 32
143 68 35
140 67 34
141 67 35
138 66 34
136 66 34
133 64 33
131 64 33
127 62 32
127 69 41
113 104 84
108 98 76
104 98 76
103 97 78
96 91 72
93 91 73
81 82 62
82 84 66
83 85 67
82 85 66
91 92 74
86 87 69
77 81 62
73 77 59
52 63 46
37 58 47
35 55 44
38 60 49
35 55 45
38 59 48
37 59 49
40 62 50
42 65 52
44 69 56
48 73 58
49 75 60
49 75 59
57 87 69
52 79 62
56 85 67
56 84 65
61 92 72
59 88 68
58 87 67
64 96 74
56 84 65
60 91 70
64 96 74
66 98 76
60 90 70
65 97 76
63 95 74
65 98 76
63 95 74
63 95 74
62 93 72
66 98 76
62 93 72
58 88 68
60 91 71
66 99 77
63 95 74
65 97 75
63 95 74
63 94 73
64 96 75
64 97 76
64 95 74
66 99 77
69 104 81
65 98 76
64 97 75
62 93 72
67 101 79
62 93 72
61 92 71
67 101 78
65 98 76
60 90 70
64 96 74
66 99 77
63 95 74
61 92 72
65 97 75
59 89 69
63 95 74
61 93 72
63 95 74
61 92 72
66 100 78
66 99 77
61 91 71
60 91 71
65 98 76
60 90 70
60 91 71
61 92 71
61 92 71
61 92 72
61 93 72
61 93 72
64 96 75
67 92 71
136 110 72
153 114 70
158 118 73
160 119 73
161 120 74
159 119 74
160 120 74
158 118 73
159 119 74
160 121 76
159 120 77
157 119 75
153 115 72
151 114 71
149 112 70
147 111 69
146 110 68
142 107 66
141 106 66
137 104 65
133 101 63
130 99 62
129 98 61
123 94 59
121 93 59
114 88 55
110 85 53
102 80 50
100 79 50
89 72 45
89 71 45
84 68 42
76 62 37
78 63 39
72 62 39
63 83 62
63 95 74
61 93 72
60 90 70
63 94 73
58 87 68
65 98 76
62 93 72
62 94 73
63 94 73
62 94 73
61 92 72
61 92 71
65 99 77
62 93 72
59 90 70
61 93 72
64 96 74
65 99 77
61 92 72
67 100 78
64 97 76
63 95 74
63 95 74
59 90 70
65 99 77
61 92 72
66 100 78
60 90 70
67 101 79
65 99 77
60 91 71
59 89 70
60 91 71
65 99 77
58 88 69
62 94 73
62 94 73
62 95 74
64 96 75
62 94 73
63 96 75
68 103 80
66 99 77
61 93 72
61 93 72
61 92 71
60 90 70
62 94 73
63 95 74
61 93 72
61 93 72
61 91 71
60 90 70
64 98 76
64 98 76
61 93 72
66 100 77
61 92 72
65 98 76
60 91 71
69 103 80
63 94 73
60 90 70
64 99 76
51 99 70
47 100 69
48 103 72
49 105 73
49 105 74
49 106 74
50 106 74
50 107 75
50 107 75
50 107 75
50 107 75
50 107 75
50 107 75
50 107 75
50 107 75
50 107 75
50 107 75
50 107 75
50 107 75
49 106 75
49 106 74
49 106 74
49 105 74
49 105 73
49 104 73
48 104 73
48 103 72
48 102 72
48 102 71
47 100 70
46 98 69
45 95 66
43 92 64
41 87 61
54 89 67
58 87 68
62 94 73
64 97 76
66 99 77
68 102 79
64 97 75
64 96 75
64 97 75
68 102 79
65 98 76
63 95 74
65 98 76
67 101 78
66 100 78
62 93 73
68 102 79
63 94 73
68 101 79
64 97 75
62 93 72
65 98 76
65 98 76
67 101 78
66 100 77
66 100 78
60 90 70
65 98 76
63 95 74
61 92 71
62 94 73
62 93 72
67 101 79
65 98 76
67 101 78
63 95 74
65 98 76
67 100 78
65 99 77
65 98 76
64 96 75
64 97 76
64 97 76
59 88 68
65 98 76
65 98 76
63 95 74
64 97 75
62 94 73
63 95 74
66 99 77
66 100 78
62 94 73
61 92 71
62 94 73
60 90 70
69 104 80
66 99 77
64 97 75
65 99 77
62 93 72
64 96 75
63 95 73
65 98 76
63 95 74
60 91 71
64 97 75
69 103 80
61 91 71
67 102 79
66 100 78
64 96 75
65 98 76
66 99 77
64 97 75
66 99 77
68 102 79
70 104 81
63 95 74
67 101 78
59 90 70
64 97 75
62 94 73
64 97 75
64 96 74
66 99 76
66 99 76
63 95 73
70 106 82
66 100 78
67 100 77
61 91 71
63 95 74
67 101 78
61 91 71
69 103 80
61 91 71
65 98 76
66 99 77
64 96 75
64 96 74
60 90 69
64 96 74
62 92 71
63 94 72
61 90 70
64 95 73
61 91 70
57 85 66
65 97 74
58 85 65
61 90 69
58 86 66
54 80 61
55 81 62
54 80 62
48 73 56
39 59 46
40 44 35
36 21 14
35 19 13
37 20 14
39 20 14
39 21 15
39 21 15
38 20 14
44 22 16
44 22 16
42 21 15
42 21 15
44 22 16
44 22 16
41 21 15
42 21 16
41 22 15
42 21 16
38 21 14
39 21 15
37 20 15
39 21 15
37 20 14
38 20 14
35 19 14
35 18 13
30 16 11
25 23 18
25 37 30
25 38 30
26 40 32
21 32 25
24 37 30
26 40 32
25 38 31
25 38 31
28 40 32
58 34 17
77 40 18
86 45 21
95 49 23
101 51 24
115 56 27
122 60 29
125 59 29
129 62 31
126 61 31
127 61 31
120 59 29
122 60 30
121 60 30
120 59 30
119 59 30
109 55 27
110 75 50
100 95 74
95 91 71
85 83 62
80 81 61
75 77 56
87 86 69
75 79 60
84 86 68
71 77 57
83 85 66
73 78 58
76 80 61
76 79 61
74 77 62
39 57 45
37 58 47
34 54 44
37 58 47
39 62 50
36 56 45
40 63 51
40 62 50
41 65 53
45 69 55
47 74 59
49 76 60
51 78 61
54 81 64
55 84 66
59 89 70
55 82 64
60 90 70
59 90 69
67 101 78
60 90 69
59 88 68
62 93 72
61 91 71
65 98 76
64 96 74
66 99 77
63 94 73
59 89 69
61 91 71
59 88 69
61 93 72
63 95 74
63 95 74
63 95 74
66 99 77
65 98 76
63 94 73
60 90 70
60 91 70
63 94 73
66 98 76
66 99 77
68 102 79
62 94 73
60 91 70
67 101 79
59 89 69
65 98 76
66 99 77
65 99 77
63 95 74
62 94 73
66 99 77
64 97 75
64 97 75
65 98 76
63 95 74
60 90 70
59 90 70
62 94 73
64 96 74
67 101 78
62 93 73
67 101 78
63 94 73
59 89 69
61 92 71
63 96 74
63 94 73
62 93 72
61 93 72
66 99 77
62 94 73
63 96 74
61 92 72
62 93 73
67 96 74
130 106 70
156 116 71
159 118 73
159 119 73
160 119 73
159 119 74
160 120 74
159 119 73
158 119 74
160 121 77
161 122 78
158 120 77
153 115 72
151 113 70
148 111 69
146 110 68
144 109 67
143 108 67
141 107 67
138 104 65
132 100 62
130 99 62
125 96 59
124 95 59
116 89 56
115 89 55
108 84 52
99 77 48
100 79 50
89 71 45
88 71 44
85 68 43
77 63 38
78 64 39
72 61 38
64 82 62
62 93 72
64 97 76
65 97 76
64 96 75
64 97 75
62 94 73
65 98 77
58 88 68
63 95 74
60 90 70
59 89 70
62 94 73
63 96 75
60 90 70
59 89 69
60 90 70
60 90 70
59 89 69
62 93 73
62 93 72
64 98 76
63 96 74
63 95 73
64 97 76
64 97 76
67 101 79
63 96 75
62 94 73
65 99 77
66 99 77
60 91 71
66 100 78
65 98 76
67 101 78
63 95 74
66 100 77
59 89 69
58 88 68
59 89 69
64 97 75
64 98 76
64 97 75
63 95 74
60 92 71
61 92 72
63 94 73
60 91 71
62 94 73
64 97 75
60 91 71
61 92 71
63 95 74
67 102 80
59 89 70
61 92 72
67 102 79
62 94 73
62 94 74
59 89 70
66 100 78
60 90 70
65 99 77
67 102 79
61 93 72
47 94 66
46 99 68
48 103 71
49 104 72
49 105 73
49 106 74
50 106 74
50 106 74
50 107 75
50 107 75
50 107 75
50 107 75
50 107 75
50 107 75
50 107 75
50 107 75
50 107 75
50 107 75
50 107 75
49 106 75
49 106 75
49 106 74
49 106 74
49 105 74
49 105 73
48 104 73
48 104 73
48 103 72
48 103 72
47 102 71
47 100 70
46 98 69
45 96 67
44 92 64
42 90 62
40 85 59
58 92 70
67 101 79
61 92 72
64 97 75
66 99 77
65 98 76
63 96 74
66 100 78
64 96 75
63 96 74
72 109 85
66 100 77
66 99 77
66 100 78
66 99 77
64 96 74
68 102 79
69 104 81
64 97 75
67 100 78
61 91 71
61 93 72
65 98 76
62 94 73
65 98 76
63 95 74
65 98 76
64 96 74
62 94 73
60 92 71
68 103 80
71 106 82
66 100 78
64 96 75
63 94 73
63 96 74
67 101 79
64 97 76
67 102 79
64 96 74
59 89 69
64 96 75
64 96 75
61 92 72
73 110 85
61 93 72
64 97 75
65 97 76
66 100 77
62 94 74
66 99 77
64 96 75
61 92 71
63 95 74
64 96 74
65 97 75
64 97 76
66 100 77
66 100 77
66 99 77
64 97 75
61 92 71
63 94 73
65 98 76
62 93 72
60 91 70
59 89 69
64 96 75
61 92 71
69 104 81
66 99 77
64 96 74
65 97 75
65 97 75
63 95 74
62 93 72
64 97 75
67 100 78
63 95 74
65 98 76
64 96 75
61 92 72
64 97 75
61 92 71
65 99 77
64 97 75
64 97 75
65 98 76
64 96 75
64 97 75
63 94 73
62 94 73
69 104 81
65 98 76
64 97 75
61 92 72
63 95 74
63 95 74
64 96 75
68 102 79
62 92 71
63 93 72
62 93 72
60 90 69
60 89 68
59 87 67
59 89 68
62 92 71
64 95 72
61 90 69
57 84 64
58 86 66
59 87 66
53 78 60
51 77 59
48 71 55
43 64 50
36 55 44
34 44 35
34 21 15
36 20 13
34 19 13
34 19 13
37 20 14
37 20 13
38 20 14
32 19 12
37 20 14
40 21 15
39 21 15
35 19 13
36 20 14
37 20 14
37 20 13
34 19 13
35 19 13
38 21 14
34 19 13
34 19 13
34 19 13
33 18 12
28 16 10
30 17 12
24 27 21
25 38 30
22 33 27
24 37 30
24 36 28
24 37 30
24 36 29
24 36 29
25 39 31
21 33 26
23 36 29
25 35 27
52 32 16
66 37 16
74 41 18
83 43 19
95 47 22
95 49 23
100 51 24
104 53 25
106 53 25
110 55 27
106 54 26
108 54 26
103 52 25
104 52 25
97 50 24
100 51 24
85 69 47
85 84 62
82 81 60
75 76 56
77 80 59
76 78 56
71 75 55
74 77 59
73 78 57
77 81 62
80 83 63
61 69 48
70 75 55
59 66 50
34 52 42
38 60 49
36 56 46
39 61 50
41 64 52
36 57 46
38 59 48
39 62 51
39 61 50
42 65 52
46 72 58
45 70 55
51 79 63
48 74 58
49 75 59
56 85 67
55 84 66
58 88 68
63 96 74
60 90 70
61 91 70
65 98 76
62 94 72
62 93 71
67 101 78
64 96 74
62 93 72
64 97 75
64 96 74
65 98 76
64 97 75
64 97 75
63 94 73
63 95 74
67 101 78
66 99 77
59 89 69
64 97 75
60 90 70
62 94 73
65 99 76
63 95 73
61 91 71
64 97 75
63 94 73
69 104 81
66 99 77
62 93 72
63 95 74
65 97 75
65 97 76
60 90 70
63 95 74
64 96 75
63 95 74
63 96 74
63 94 74
62 94 73
63 95 74
63 95 74
64 96 75
63 95 74
64 96 74
59 89 70
60 89 69
61 92 71
60 91 71
63 95 74
63 96 75
64 96 74
63 95 74
61 92 71
62 94 73
61 92 72
60 91 71
64 97 75
64 97 75
65 96 74
129 109 73
155 116 71
157 117 72
158 118 73
159 119 74
160 120 74
159 119 74
159 119 74
159 119 74
161 121 77
160 122 78
159 121 78
155 117 74
152 115 71
149 112 70
147 110 68
143 108 67
141 107 66
140 106 66
137 104 65
135 102 64
129 98 60
127 97 60
126 96 60
118 90 56
114 88 55
110 85 53
105 82 52
97 77 48
94 75 47
87 70 44
84 68 43
81 65 40
78 64 39
73 60 36
63 82 61
64 97 75
63 95 74
63 95 74
65 98 76
64 97 75
60 91 71
62 94 73
61 93 72
60 90 70
62 94 73
67 101 79
65 98 77
66 99 77
66 100 77
63 95 74
60 91 71
62 93 72
60 90 70
63 95 74
65 99 77
65 98 76
59 88 69
62 94 73
62 94 73
59 89 69
61 92 72
64 97 75
61 92 71
61 92 71
61 92 71
60 91 71
60 90 70
61 92 71
61 93 72
61 93 72
60 91 71
64 98 76
67 101 79
61 93 72
63 95 74
66 99 77
62 93 72
60 90 70
65 99 77
61 92 71
59 89 70
61 92 72
65 98 76
60 91 71
63 95 74
59 89 69
62 94 73
60 91 71
63 96 75
61 93 73
59 89 69
60 91 71
64 97 75
64 96 75
59 89 70
61 93 72
63 96 75
65 98 76
66 100 77
49 93 66
45 97 67
47 101 70
48 103 72
49 104 73
49 105 73
49 106 74
49 106 74
50 106 74
50 107 75
50 107 75
50 107 75
50 107 75
50 107 75
50 107 75
50 107 75
50 107 75
50 107 75
50 107 75
50 107 75
50 106 75
49 106 75
49 106 74
49 106 74
49 105 74
49 105 73
48 104 73
48 104 73
48 103 72
48 102 71
48 102 71
47 100 70
46 99 69
45 96 67
44 94 65
43 92 64
41 88 61
41 85 60
62 96 73
63 96 75
66 100 78
67 102 79
61 91 71
68 102 79
61 92 72
65 98 76
63 94 73
65 98 76
64 97 75
65 99 77
63 95 73
65 98 76
63 95 73
68 103 80
65 98 76
65 99 77
65 99 76
65 98 76
63 96 74
66 99 77
67 101 79
64 97 75
66 99 76
66 100 78
64 97 75
66 100 77
63 95 74
67 101 79
68 103 80
63 95 74
63 96 75
64 96 75
63 95 74
57 86 67
63 95 74
65 98 76
69 103 80
66 100 77
64 96 75
62 93 72
61 93 72
68 102 79
65 98 76
64 96 75
63 95 74
63 94 73
68 102 79
65 98 76
62 94 73
64 96 75
63 96 74
61 92 72
66 99 77
67 102 79
62 93 72
64 96 75
63 94 73
68 103 80
63 95 73
67 101 79
63 95 73
68 103 80
62 93 72
63 94 73
64 96 75
63 95 74
67 101 78
63 96 74
64 96 75
64 96 75
63 95 74
65 98 76
71 106 82
62 94 73
59 89 69
61 92 71
63 94 73
61 92 71
64 96 74
60 90 70
68 102 79
63 95 74
62 94 72
67 100 78
66 100 77
65 97 76
65 97 75
66 99 77
67 100 77
65 97 75
59 89 69
62 93 72
61 92 71
60 90 70
62 93 72
64 95 74
64 96 74
67 100 77
61 91 70
64 95 73
65 98 76
59 88 68
60 90 69
63 94 72
60 90 69
61 91 70
60 89 68
58 85 65
57 85 65
64 95 72
56 83 63
53 79 61
46 68 53
45 67 52
35 53 42
28 42 33
27 40 32
29 26 20
34 20 14
36 19 13
33 19 12
33 19 13
36 20 13
33 19 13
35 19 13
36 20 13
33 19 13
33 19 13
34 19 13
35 19 13
35 19 13
36 20 13
34 19 12
34 19 12
34 18 12
33 18 12
30 17 11
27 15 10
23 17 13
20 22 17
19 30 24
22 34 27
19 28 22
21 30 24
24 37 30
23 36 29
23 34 27
23 35 28
23 34 27
22 34 27
21 32 26
24 36 29
26 33 26
56 32 16
66 36 15
70 39 16
70 39 17
78 43 18
73 41 18
76 41 18
83 45 20
89 47 21
88 47 21
90 47 21
86 46 21
89 47 22
82 45 20
74 42 18
78 71 48
71 74 50
73 76 53
79 80 57
65 71 48
69 74 52
69 74 52
68 75 53
73 78 57
69 74 53
63 70 48
64 69 49
46 57 40
34 52 41
34 53 43
36 57 46
35 55 45
36 57 46
36 56 45
38 59 48
37 59 48
38 60 49
42 66 54
43 67 54
43 67 54
48 73 58
49 74 59
52 80 63
51 78 61
57 86 67
59 89 69
58 87 67
61 92 71
56 84 65
63 94 73
63 94 72
59 89 69
62 92 71
61 91 71
64 96 75
62 93 72
70 104 80
64 97 75
68 102 79
62 93 72
63 95 73
60 90 70
63 95 74
63 94 73
68 103 80
63 94 73
67 101 78
64 97 75
65 99 77
64 97 75
60 91 70
67 101 78
61 92 71
60 91 71
61 92 71
61 93 72
61 92 71
65 98 76
68 102 80
61 91 71
64 96 74
68 102 79
62 94 73
61 92 71
62 93 72
66 98 76
62 95 74
66 99 77
57 86 67
59 90 70
65 98 76
64 96 75
62 93 72
59 89 70
62 93 72
58 89 69
60 91 71
59 90 70
61 93 72
63 95 74
60 91 70
64 96 75
62 93 72
62 94 73
63 95 74
62 94 73
121 107 73
155 116 72
158 118 73
159 119 74
160 119 74
160 120 74
160 119 74
159 119 74
160 120 75
159 120 76
162 123 79
160 122 78
154 117 74
151 114 71
150 113 70
148 111 69
145 109 68
143 108 67
141 106 66
136 103 64
134 102 64
133 101 63
128 98 61
124 95 59
120 92 57
113 88 55
110 85 53
103 80 50
99 78 49
97 77 49
87 70 44
85 68 43
82 66 41
78 63 39
72 60 36
69 78 57
65 98 76
65 98 76
59 89 69
64 96 75
61 92 72
66 100 78
60 91 71
65 98 76
61 93 72
62 94 73
64 96 75
60 90 70
58 88 69
63 96 74
64 96 75
62 94 73
64 97 75
63 95 74
63 95 74
65 99 77
63 95 74
66 99 77
64 97 75
59 89 69
64 97 75
56 86 67
57 86 66
60 91 71
59 89 69
66 99 77
63 96 75
65 98 76
64 97 76
62 95 74
61 93 72
63 95 74
62 94 73
60 90 70
61 93 72
62 94 73
61 93 72
59 89 69
59 90 70
63 95 74
65 98 77
59 89 69
62 95 74
61 93 72
63 95 74
62 94 73
60 90 70
62 94 73
62 94 73
61 92 72
60 92 71
62 94 73
61 92 72
59 89 69
65 99 77
63 95 73
64 96 75
58 87 68
65 98 77
62 94 73
53 91 67
44 94 65
46 99 68
48 102 71
49 104 72
49 105 73
49 105 73
49 106 74
50 106 74
50 106 74
50 106 75
50 107 75
50 107 75
50 107 75
50 107 75
51 107 75
53 108 76
55 109 77
56 109 77
55 109 77
52 108 76
51 107 75
50 106 74
49 106 74
49 105 74
49 105 74
49 105 73
48 104 73
48 104 72
48 103 72
48 102 72
47 102 71
47 101 71
46 99 69
45 96 67
45 95 66
43 92 64
41 88 61
39 84 58
44 84 60
61 92 71
64 96 75
62 94 73
69 104 81
66 100 77
61 93 72
66 99 76
63 94 73
65 97 75
68 102 79
64 96 75
65 99 77
68 102 79
68 103 80
66 99 77
64 97 76
66 99 77
71 107 83
63 96 74
62 93 72
63 95 74
63 95 74
60 91 70
61 92 72
64 97 75
63 95 73
65 97 76
64 97 75
64 97 75
67 100 78
66 100 77
62 94 73
62 94 73
68 103 80
67 101 79
62 93 72
63 95 74
70 105 82
61 93 72
67 101 79
60 90 70
65 98 76
61 93 72
63 95 74
62 94 73
66 99 77
62 95 74
64 96 74
66 100 78
63 94 73
64 96 74
61 93 72
63 95 73
63 94 73
62 94 73
62 94 73
68 102 79
64 96 74
66 99 77
67 101 78
69 104 81
67 101 79
65 98 76
62 94 73
64 97 75
61 92 71
65 97 76
67 101 79
68 102 79
65 98 76
66 99 76
65 97 76
62 93 73
61 93 72
61 92 71
58 86 67
61 91 71
59 89 69
69 103 80
67 101 78
60 90 70
68 103 80
63 96 74
68 102 79
64 96 74
62 93 72
62 92 72
62 94 73
62 93 72
61 92 71
63 94 73
59 88 68
64 96 74
63 94 73
62 92 71
67 100 77
67 100 77
70 104 80
61 91 70
65 98 75
63 94 72
60 89 68
61 91 70
62 93 71
59 88 68
61 91 70
60 89 68
60 89 68
60 88 67
61 90 68
59 87 66
58 85 65
53 78 59
53 79 60
44 65 50
39 58 45
34 52 41
27 40 32
24 36 29
23 31 25
27 21 16
32 19 13
37 19 13
34 19 12
34 19 12
34 19 13
36 19 13
33 18 12
36 19 13
35 19 13
33 18 12
34 19 12
30 17 11
34 19 12
33 18 12
32 17 11
27 15 10
21 15 11
21 25 19
15 23 18
16 24 19
19 28 22
21 31 25
21 31 25
26 39 32
21 32 25
21 32 25
22 32 26
21 32 26
23 33 26
26 39 31
25 37 29
23 34 26
23 33 26
22 32 25
44 33 21
58 34 14
68 39 16
68 39 16
68 39 16
69 40 17
67 39 16
69 41 17
75 42 18
71 41 17
71 40 17
70 40 17
66 40 16
72 41 18
68 69 45
65 70 47
68 73 49
68 72 48
68 74 51
64 71 47
62 69 45
67 72 47
62 69 45
61 68 44
55 63 42
43 55 42
33 49 39
32 50 40
33 53 42
35 55 44
32 51 41
32 50 40
37 58 47
36 58 47
37 59 48
38 60 49
41 65 52
43 67 53
43 67 53
47 72 57
47 72 57
50 76 60
50 76 60
54 82 64
60 91 70
59 89 69
55 82 63
61 92 71
65 97 75
64 97 75
62 93 72
61 92 71
64 96 74
61 92 72
59 89 68
64 97 75
62 93 72
59 89 69
63 95 74
66 99 77
64 97 75
63 95 74
64 96 74
59 89 69
58 88 68
59 89 69
63 94 73
64 96 74
62 93 72
61 93 72
68 102 79
64 97 75
61 93 72
61 92 72
63 95 74
63 94 73
67 101 78
65 98 76
61 91 71
61 92 71
65 98 76
66 99 77
66 100 78
64 97 75
65 97 76
63 95 74
62 94 73
62 93 72
61 91 71
66 99 77
65 99 76
66 100 77
61 92 72
64 97 75
61 92 71
62 93 73
61 92 72
60 91 71
67 101 78
62 93 72
60 90 70
61 92 72
62 94 74
65 98 77
114 106 74
154 115 71
156 117 72
159 118 73
160 119 73
160 119 74
159 119 73
158 118 73
158 118 73
160 121 77
162 124 80
160 122 78
157 118 75
153 115 72
150 112 70
148 111 69
147 110 69
143 108 67
141 107 66
137 104 65
135 102 63
130 99 61
127 97 60
122 94 58
120 92 57
116 89 56
111 85 53
105 82 52
97 76 48
88 70 44
87 70 44
85 68 43
79 64 40
77 63 39
78 63 39
66 71 50
66 100 78
60 90 70
65 98 76
62 94 73
64 96 75
59 89 69
58 88 69
61 92 71
63 96 75
62 94 73
62 94 74
61 92 71
67 101 79
61 93 72
62 94 73
66 99 77
59 89 69
61 92 71
57 87 68
60 91 71
59 90 70
60 91 71
66 99 77
61 92 72
65 98 76
65 97 76
66 100 78
61 93 72
65 98 76
63 95 74
64 96 75
58 88 69
61 93 73
66 101 78
63 95 74
64 96 75
60 90 70
66 100 78
62 94 73
66 99 77
60 91 70
64 96 75
62 93 73
61 92 72
63 95 74
63 96 74
65 99 77
64 96 75
61 93 72
65 99 77
62 93 73
63 96 75
62 93 73
60 91 71
62 94 73
63 95 74
65 99 77
59 89 70
58 87 68
65 98 76
61 92 72
65 99 77
59 90 70
60 91 71
59 91 70
43 91 63
45 97 67
46 99 69
48 102 71
49 104 72
49 105 73
49 105 73
49 105 74
49 106 74
49 106 74
50 106 74
50 106 75
50 107 75
50 107 75
52 108 76
58 110 78
67 114 83
77 120 87
80 121 89
76 119 87
66 114 82
57 109 77
51 107 75
50 106 74
49 105 74
49 105 74
49 105 73
48 104 73
48 103 72
48 103 72
48 102 71
47 101 71
47 100 70
46 99 69
45 96 67
45 95 66
43 91 63
43 90 63
40 84 58
37 79 54
57 93 70
65 98 76
67 101 79
64 97 75
63 95 74
67 101 78
63 94 73
67 101 79
65 98 76
68 102 79
65 98 76
64 97 75
65 98 76
67 100 78
68 102 79
62 93 72
65 97 76
66 99 77
69 104 81
65 98 76
68 102 79
64 96 74
64 96 75
62 93 72
67 101 79
62 93 72
63 95 74
62 93 73
66 99 77
64 96 74
67 100 78
64 96 75
61 92 72
64 96 75
65 97 76
61 92 72
64 96 75
65 97 75
63 95 74
67 100 78
63 95 74
64 97 75
68 102 79
61 92 72
60 91 70
69 104 81
70 106 82
60 90 70
63 95 74
67 100 78
70 106 82
66 99 77
64 97 75
61 92 71
63 95 73
68 101 79
68 103 80
60 90 70
68 102 79
67 101 78
69 105 81
66 99 77
63 96 74
66 99 77
66 99 77
64 96 75
66 100 77
63 96 74
67 101 78
67 102 79
64 96 75
68 102 79
66 99 77
66 98 76
62 93 72
63 95 74
63 95 74
68 102 79
66 99 77
63 95 73
62 94 73
68 102 79
68 103 80
66 99 77
63 95 74
62 93 72
61 91 71
62 94 73
65 98 76
67 100 77
64 96 74
60 91 70
63 94 73
64 97 75
62 93 72
63 94 72
64 97 75
63 95 73
64 95 73
69 103 79
65 97 75
64 95 73
63 94 73
64 95 73
64 95 73
59 88 68
58 86 66
57 84 64
59 88 67
54 80 61
60 88 67
62 92 70
54 80 61
52 76 58
46 68 52
42 63 48
41 62 48
33 50 39
25 38 30
24 37 30
23 35 28
24 36 29
23 27 21
28 23 17
28 17 12
30 17 11
31 17 11
31 17 11
32 17 11
31 17 11
32 17 12
29 16 10
28 15 10
26 15 10
24 17 12
20 19 14
15 19 14
14 22 18
14 21 17
21 31 24
18 26 21
19 27 21
21 31 25
20 31 25
20 31 25
24 36 29
22 32 26
23 35 28
26 39 30
26 38 28
31 45 34
30 43 33
31 44 34
26 38 29
25 35 27
20 30 23
25 24 17
56 35 18
67 38 16
58 35 14
64 38 15
68 39 16
66 39 16
70 41 17
68 40 17
72 41 17
71 41 17
67 40 16
70 41 18
63 66 42
62 69 44
62 70 45
68 73 47
62 68 44
64 70 45
58 66 43
57 64 42
56 64 41
45 54 36
30 42 31
30 47 37
27 43 34
31 48 38
32 50 40
33 51 41
37 57 46
33 52 42
40 65 53
36 57 46
39 62 51
39 61 49
43 67 53
46 71 57
49 75 59
49 75 59
53 80 63
55 83 65
60 91 71
59 89 69
57 86 66
63 94 72
56 83 64
58 86 66
58 88 68
62 94 73
66 99 77
60 90 69
62 92 71
67 100 77
64 96 74
66 99 76
61 92 71
62 92 71
62 93 72
61 92 72
63 95 74
64 96 74
67 101 78
65 97 75
61 91 71
61 92 72
64 97 75
61 92 72
63 95 74
64 96 75
63 95 73
61 91 71
59 89 69
59 89 69
64 96 75
67 101 79
62 93 72
61 91 71
60 91 71
63 94 73
61 93 72
65 99 77
64 97 76
60 91 71
65 97 76
62 93 72
65 99 77
61 92 72
67 101 78
66 100 78
62 94 73
64 97 75
61 93 72
63 95 74
62 93 72
62 93 73
65 97 76
63 95 74
63 96 74
66 100 78
61 93 72
69 104 81
66 100 77
101 100 71
155 115 71
158 118 73
159 119 73
160 120 74
160 119 73
159 119 74
160 120 74
158 118 74
161 121 77
163 124 80
161 123 80
157 119 75
153 115 72
148 111 69
149 112 70
146 110 69
145 109 68
142 107 67
138 105 65
135 102 64
132 100 62
128 98 61
125 96 60
123 94 59
117 90 57
109 84 53
104 81 51
96 76 48
94 75 47
87 70 44
84 68 43
82 66 41
80 65 40
79 64 39
72 70 48
59 87 68
68 102 79
63 95 74
59 89 69
63 94 73
61 93 72
59 90 70
66 99 77
60 91 71
60 90 70
60 90 70
64 96 74
65 98 77
64 96 75
65 99 77
65 98 76
64 96 75
64 97 75
63 95 73
64 97 76
62 93 73
62 94 73
62 93 73
64 97 75
60 91 71
61 93 72
59 90 70
63 94 73
61 93 72
64 96 75
61 93 72
60 90 70
58 88 68
60 92 71
60 90 70
61 93 72
60 91 71
66 100 78
62 94 73
66 100 78
63 96 75
59 90 70
58 87 68
63 96 75
61 92 72
62 94 73
59 90 70
66 100 78
64 97 75
63 95 74
61 93 72
58 89 69
61 93 72
60 90 70
60 91 71
63 95 74
62 93 73
65 98 76
61 92 72
61 93 72
66 101 78
61 92 72
60 92 72
65 98 76
60 91 71
48 90 65
44 94 65
46 98 68
47 101 70
48 102 71
49 104 72
49 105 73
49 105 73
49 105 74
49 106 74
50 106 74
50 106 74
49 106 74
50 106 75
52 107 75
59 111 79
77 120 88
102 134 102
123 149 115
127 151 117
117 144 111
93 129 96
70 115 84
56 109 77
50 106 74
49 105 74
49 105 73
49 104 73
48 103 72
48 103 72
48 102 71
48 102 71
47 101 70
47 100 70
46 99 69
45 96 67
44 94 65
44 93 65
42 89 62
41 86 60
38 81 56
38 78 55
63 95 74
66 99 77
64 96 75
64 96 75
68 103 80
67 102 79
61 93 72
64 96 75
71 107 83
66 99 77
68 103 80
66 99 77
67 101 78
70 106 82
67 101 78
68 103 80
63 95 74
62 93 72
69 104 80
67 101 79
64 96 75
65 98 76
64 96 75
63 96 74
65 98 76
60 90 70
62 93 72
64 96 75
62 94 73
64 96 75
63 95 74
65 99 76
62 93 72
68 103 80
63 95 74
64 96 75
61 92 72
61 92 71
62 94 73
64 97 75
64 97 75
66 99 77
60 91 71
63 95 74
66 99 77
62 94 73
64 96 75
64 96 74
68 103 80
69 104 81
63 95 74
63 95 74
70 106 82
63 95 73
64 97 75
66 100 78
64 97 75
64 96 74
66 99 77
61 92 72
61 92 71
64 97 75
60 91 71
67 101 79
63 94 73
64 96 75
59 90 70
66 100 77
61 92 71
66 99 77
66 100 78
69 103 80
68 103 80
65 99 76
63 95 73
63 95 74
61 91 71
59 88 68
65 97 75
66 99 77
64 95 73
65 98 76
71 106 82
62 93 72
64 96 74
62 93 72
63 94 73
62 93 72
63 95 74
64 96 75
63 94 73
67 100 78
62 93 72
63 93 72
68 102 78
62 92 71
64 96 74
62 92 71
59 89 68
61 92 71
63 94 72
61 90 70
62 93 71
58 87 67
61 91 70
59 88 68
66 99 76
59 87 66
62 91 69
57 84 64
57 84 64
53 79 60
56 82 62
57 84 64
51 75 57
44 65 50
42 61 47
32 49 38
29 44 35
25 38 31
22 34 28
20 32 26
17 27 22
16 24 19
18 26 21
18 21 16
20 22 17
18 18 14
19 18 14
20 21 16
19 24 19
17 21 16
13 19 14
16 24 19
16 22 17
16 22 17
18 26 20
19 28 22
21 31 25
19 27 22
20 30 24
20 31 25
22 34 27
22 32 26
26 39 31
28 41 32
31 46 35
33 49 37
39 58 44
36 52 38
42 61 46
39 56 42
30 44 33
33 47 35
31 45 35
23 32 25
18 26 21
34 24 15
48 30 15
68 38 15
70 40 16
69 40 16
67 39 16
67 39 16
67 40 16
65 38 16
71 40 17
69 40 17
68 69 44
63 68 44
59 66 43
62 68 44
61 67 43
61 65 42
51 58 38
44 52 34
28 37 26
22 34 27
22 35 27
27 42 33
31 49 39
35 54 44
32 50 40
32 51 40
38 60 48
31 49 39
38 60 49
36 56 45
39 60 48
42 65 52
47 72 57
46 71 56
51 79 62
51 77 60
54 82 64
55 83 65
57 86 66
54 81 63
55 82 63
59 89 68
62 92 71
59 89 69
61 92 71
61 92 71
61 91 70
64 96 74
66 99 76
69 104 80
63 95 73
61 92 71
59 88 68
61 91 71
66 99 77
59 89 69
63 94 73
61 92 72
69 103 79
63 95 73
63 94 73
68 103 80
66 99 76
61 92 71
57 86 66
65 98 76
64 97 75
68 102 79
62 93 73
65 99 76
61 92 71
67 101 78
63 95 74
65 98 76
63 95 74
64 97 75
66 99 77
62 93 72
60 90 70
57 85 66
63 95 74
64 96 75
65 98 76
68 103 80
65 98 76
64 97 75
59 89 69
71 108 84
60 91 71
62 94 73
65 98 76
61 93 72
67 101 78
61 92 71
64 96 74
67 101 78
62 93 72
59 88 69
100 105 76
150 113 70
156 117 72
159 118 73
160 120 74
159 119 73
160 120 74
159 119 74
159 119 74
161 121 76
163 124 80
162 124 80
157 119 76
154 116 72
150 113 70
148 111 69
144 109 68
143 108 67
142 107 67
139 105 65
135 102 64
132 101 63
127 96 60
125 95 59
123 94 59
115 88 55
111 86 54
105 82 52
101 79 50
91 73 46
88 71 45
83 67 42
87 70 44
81 65 41
74 61 37
67 68 46
61 92 71
63 95 74
60 91 71
65 99 77
63 95 74
63 95 74
61 92 71
60 90 70
66 99 77
62 94 73
59 90 70
58 88 68
67 101 79
59 89 69
61 93 72
64 96 75
59 89 69
60 91 71
66 100 78
62 93 73
62 93 73
62 93 73
62 94 73
65 97 76
63 95 74
63 95 74
65 99 77
62 94 73
61 92 72
65 97 75
63 96 74
65 98 76
59 89 69
60 91 70
63 94 73
63 96 75
64 96 75
65 98 76
64 96 74
63 96 75
62 93 73
59 90 70
63 95 74
63 96 75
65 98 76
61 93 72
66 100 78
63 95 74
60 91 71
61 93 72
59 89 69
61 93 73
61 91 71
64 97 76
62 94 73
66 100 78
62 94 73
62 94 73
61 92 72
61 93 72
61 93 72
64 96 75
63 95 74
61 93 72
68 102 80
64 97 76
42 91 63
44 95 66
46 98 68
47 100 70
48 102 71
48 104 72
49 104 73
49 105 73
49 105 73
49 106 74
50 106 74
49 106 74
50 106 74
51 107 75
56 109 77
73 117 85
107 137 104
144 164 128
170 184 146
175 188 150
155 172 136
122 147 114
86 124 92
62 111 80
52 106 75
49 105 73
49 104 73
49 104 73
48 104 73
48 102 71
48 102 71
47 102 71
47 101 70
47 100 69
46 99 69
45 96 67
45 95 65
44 93 65
42 90 62
41 86 60
39 84 58
35 75 52
51 85 63
62 94 73
62 93 72
62 94 73
63 95 74
64 97 75
65 98 76
62 94 73
65 97 76
64 96 75
69 104 81
66 98 76
65 97 76
64 96 75
68 102 79
67 100 78
62 94 73
64 96 75
65 98 76
63 95 74
64 96 75
66 99 77
69 104 80
64 96 75
64 96 75
66 100 78
65 97 75
63 95 74
67 100 78
61 92 72
62 94 73
60 90 70
64 96 74
63 96 74
64 96 75
66 99 77
61 92 71
64 96 74
62 93 72
66 100 77
62 94 73
66 99 77
68 102 79
64 97 75
64 96 75
65 98 76
67 101 78
63 95 74
65 97 76
65 98 76
67 100 78
63 95 74
64 97 75
68 102 79
63 95 74
65 99 77
61 93 72
62 94 73
68 102 79
68 102 79
62 94 73
72 108 84
68 101 79
60 90 70
71 107 83
65 98 76
66 99 77
63 95 74
66 99 77
62 93 72
64 96 75
62 94 73
60 90 70
67 101 78
67 101 79
67 100 77
59 89 69
65 98 76
66 100 77
62 94 73
64 96 74
59 89 69
64 97 75
66 99 77
70 106 82
64 96 74
65 97 75
66 99 76
63 95 73
65 97 76
65 97 75
64 96 74
63 95 74
59 88 68
70 105 81
62 92 71
63 94 73
59 87 67
66 98 75
62 93 72
61 91 70
60 90 70
64 95 72
61 91 70
62 93 71
65 96 74
62 91 70
64 95 73
62 92 70
57 83 63
55 81 61
53 78 59
60 88 66
59 87 66
54 79 59
50 74 56
45 67 51
38 57 43
34 51 40
33 49 39
25 38 30
25 39 32
23 36 29
19 30 24
20 30 24
17 27 21
19 29 22
19 29 23
17 26 21
19 28 22
21 32 25
16 24 19
14 19 15
20 30 24
22 33 26
19 28 22
20 29 23
21 33 27
21 31 24
24 36 29
22 32 25
26 39 31
24 34 26
31 45 35
31 45 35
35 51 39
35 50 38
39 56 42
44 64 48
44 63 47
45 65 47
46 66 49
39 56 42
40 56 41
31 44 33
31 45 34
22 31 24
21 32 25
18 25 19
31 28 19
47 28 13
53 31 14
61 34 14
59 35 14
64 37 15
62 36 15
64 37 15
61 37 15
65 57 35
56 62 40
52 58 37
47 53 34
44 50 33
36 44 30
26 38 28
21 32 24
21 33 25
23 37 29
26 41 33
27 42 33
30 47 38
32 50 40
33 51 41
35 55 44
32 50 40
39 60 48
37 58 47
41 63 50
41 64 51
46 71 55
52 79 61
49 75 58
51 77 60
57 86 67
52 79 61
60 90 70
59 88 67
57 86 66
61 91 70
61 91 70
64 95 73
71 106 81
65 97 75
67 100 77
63 94 72
63 95 74
63 94 73
64 97 75
66 99 76
65 98 76
62 93 72
62 93 72
61 92 71
63 95 74
60 89 69
68 102 79
67 100 78
61 92 71
59 89 69
62 93 72
63 95 74
62 94 73
66 100 78
64 96 74
62 94 73
63 95 74
63 95 74
64 96 75
63 95 74
60 91 71
61 92 71
63 95 74
62 94 73
61 92 71
64 97 75
61 92 72
64 97 75
65 99 77
64 96 75
59 89 69
59 90 70
65 98 76
62 94 73
65 98 76
63 95 74
59 90 70
64 96 75
66 100 78
59 89 69
65 98 76
64 97 76
62 93 73
68 102 79
62 93 72
65 98 76
90 101 75
150 113 70
156 117 72
159 118 73
159 119 73
160 119 74
160 120 74
158 118 73
160 120 74
160 121 76
162 124 80
162 124 81
160 121 78
154 116 73
151 113 70
149 112 70
147 111 69
141 107 66
141 106 66
138 104 65
134 102 63
134 101 63
128 97 60
126 96 60
120 92 58
116 89 56
114 88 55
103 80 50
96 75 47
92 73 46
85 68 43
86 69 43
81 65 41
83 67 42
75 62 38
69 65 43
59 88 68
61 92 72
59 89 69
60 92 72
67 101 78
63 96 74
64 97 75
64 96 75
67 102 79
69 104 81
61 93 72
61 93 72
66 100 78
65 98 76
65 98 76
62 93 73
60 90 70
64 97 75
63 95 74
61 92 71
59 90 70
65 98 77
64 97 76
65 97 75
62 94 73
62 93 73
63 95 74
70 105 81
60 91 71
59 90 70
59 89 70
61 92 72
65 98 77
62 93 73
61 92 71
62 94 73
64 96 75
66 100 78
59 89 69
61 92 72
65 98 76
63 96 75
61 92 72
65 97 76
58 89 69
64 96 75
65 97 76
62 93 73
61 92 72
62 94 73
57 87 68
59 89 69
64 96 75
58 89 69
58 87 68
65 98 76
65 98 76
62 94 73
63 96 75
61 93 72
60 91 71
62 94 73
62 94 73
61 91 71
64 96 75
62 94 74
60 91 71
42 91 62
44 95 65
46 98 68
46 99 68
48 102 71
49 103 72
49 104 73
49 105 73
49 105 73
49 105 73
49 105 74
49 105 74
50 106 74
51 107 75
60 110 79
84 123 91
123 148 114
166 181 144
195 203 163
198 206 166
176 188 150
135 156 122
93 128 96
65 112 81
53 106 75
49 105 73
48 104 73
48 104 73
48 103 72
48 102 71
47 101 71
47 101 71
47 100 70
46 99 69
46 98 68
45 96 66
45 95 66
43 91 63
42 89 61
40 84 58
39 83 57
36 78 53
36 72 50
65 98 76
63 95 74
67 101 78
68 102 79
64 97 75
60 90 70
63 96 74
63 95 73
65 97 75
63 95 74
63 95 73
63 95 74
68 102 79
70 105 81
61 92 72
68 102 79
64 96 75
64 96 75
62 94 73
64 97 75
68 102 79
64 97 76
62 93 72
62 92 72
64 97 75
65 98 76
64 97 75
64 96 74
65 99 76
66 99 77
65 98 76
63 96 74
63 95 74
68 103 80
65 98 76
61 92 71
61 93 72
65 97 76
61 92 71
67 101 78
65 97 76
64 97 75
67 100 77
66 99 77
66 100 78
65 98 76
64 97 75
66 99 77
63 96 74
62 94 73
64 96 74
62 94 73
64 96 75
65 98 76
65 98 76
71 106 82
65 98 76
63 95 74
61 91 71
68 102 79
67 101 78
63 95 73
65 98 76
67 101 78
71 107 83
60 91 70
64 97 75
65 97 76
64 96 75
63 95 74
61 92 71
62 92 71
65 98 76
68 103 80
67 101 78
62 93 72
66 100 78
63 96 74
66 100 77
63 95 74
65 97 75
62 92 72
65 97 75
61 91 71
60 90 70
61 91 71
62 94 73
68 102 79
69 103 80
66 98 76
64 96 74
61 91 71
64 97 75
63 93 72
66 99 76
62 92 71
64 96 74
66 98 76
60 90 69
58 87 67
62 92 71
64 95 73
62 91 70
62 92 70
67 99 76
62 93 71
61 90 69
62 92 70
58 86 65
56 82 62
60 89 68
58 85 64
56 83 63
57 84 64
56 82 62
53 78 59
49 73 55
44 65 50
42 62 48
39 58 45
33 49 38
32 49 38
25 37 29
26 40 32
22 33 27
24 37 29
21 33 26
23 35 28
21 33 26
21 32 26
17 26 21
23 34 27
24 36 29
22 33 26
24 37 30
23 36 29
24 35 27
26 38 30
29 43 34
29 43 33
35 51 40
35 51 40
37 53 41
40 59 44
43 62 47
45 64 48
46 66 50
48 69 51
47 67 50
53 76 56
50 71 53
48 68 50
45 64 48
42 59 44
36 52 39
34 49 37
28 39 30
18 26 21
18 26 21
17 25 20
15 22 17
22 24 18
26 24 16
36 27 17
34 28 18
38 27 16
41 29 17
33 28 17
26 31 21
22 29 21
21 28 22
19 29 23
20 31 23
18 28 21
23 36 28
24 37 28
28 43 34
27 41 33
28 44 35
31 50 40
32 50 40
33 51 40
31 49 39
34 54 43
38 58 47
40 62 49
44 67 53
43 65 51
50 75 59
52 78 61
53 80 62
57 85 66
54 81 63
58 87 67
58 86 66
61 90 69
56 84 64
59 87 67
60 90 69
64 96 74
61 91 70
64 95 73
67 100 77
60 90 70
63 94 73
64 96 74
63 95 73
61 92 71
63 94 73
59 89 69
64 96 74
61 92 72
62 94 72
64 96 74
66 99 77
65 97 75
65 98 76
64 96 74
64 96 74
67 100 77
63 95 74
64 97 75
68 103 80
62 93 72
62 93 72
61 92 72
64 96 74
64 96 74
63 95 73
60 90 70
64 96 74
65 99 77
63 94 73
66 99 77
64 97 75
61 92 71
59 89 69
64 97 75
60 91 71
65 97 75
68 102 79
62 94 73
63 94 73
62 93 72
61 92 72
63 96 74
64 97 75
62 93 72
61 92 71
64 97 75
64 96 75
62 93 73
63 95 74
83 99 74
150 113 71
158 117 72
159 118 73
160 119 74
160 120 74
159 119 74
159 119 74
159 119 74
159 120 76
162 124 80
162 125 82
159 121 78
155 117 74
151 113 70
149 112 69
146 110 68
145 109 68
141 106 66
138 104 65
135 103 64
132 100 62
129 98 61
123 94 58
121 93 58
116 89 56
114 88 55
107 83 52
104 81 51
94 75 47
85 69 43
83 67 42
82 67 42
78 63 39
76 62 38
69 60 38
60 85 65
62 93 73
63 95 74
62 94 73
63 95 74
60 92 71
60 91 71
64 96 75
61 92 72
63 95 74
60 90 70
61 92 72
59 89 69
64 96 75
64 96 75
66 100 78
61 92 71
63 95 74
65 99 77
58 88 68
59 89 69
62 94 73
58 88 68
62 93 73
64 97 75
63 95 74
60 91 71
65 99 77
60 91 71
60 91 71
64 96 75
63 95 74
61 93 72
60 91 70
65 99 77
59 90 70
59 89 70
58 88 68
62 94 73
58 88 69
59 89 69
61 92 72
63 95 74
63 95 74
60 91 71
65 98 77
64 96 75
61 93 72
63 95 74
65 98 76
56 85 66
67 101 79
63 95 74
62 93 72
58 87 68
62 94 73
63 95 74
65 98 77
64 96 75
62 95 74
65 98 76
60 91 71
66 100 78
63 96 75
63 96 75
62 94 74
59 90 70
59 90 70
42 91 63
44 94 65
46 97 67
46 99 69
48 101 70
48 103 72
49 103 72
49 104 72
49 105 73
49 105 73
49 105 73
49 105 74
49 105 74
52 106 75
60 110 78
82 121 89
119 145 112
158 174 138
181 192 154
183 194 155
158 174 137
122 147 114
86 124 92
62 110 79
52 105 74
49 104 73
48 104 73
48 103 72
48 103 72
48 102 71
47 101 71
47 100 70
47 99 69
46 98 68
46 97 68
45 95 66
44 93 64
43 90 62
42 88 61
41 87 60
39 83 58
36 76 52
32 69 47
61 96 73
63 94 73
64 96 75
64 96 75
65 98 76
65 98 76
65 99 77
65 97 75
62 94 73
62 94 73
65 98 76
65 98 76
62 93 72
69 105 81
67 100 78
61 93 72
61 93 72
64 96 75
64 97 75
66 99 77
62 93 72
66 99 77
65 98 76
62 94 73
66 99 77
65 98 76
64 96 75
64 97 75
64 96 74
63 95 73
64 97 75
67 101 78
62 93 72
64 97 75
66 99 77
63 95 74
62 94 73
60 91 71
64 96 75
63 95 74
64 97 75
66 99 77
60 91 70
60 90 70
64 96 75
63 95 74
61 93 72
67 100 78
64 96 75
61 93 72
59 90 70
68 102 79
60 91 71
65 97 75
63 95 73
65 98 76
70 105 81
65 98 76
62 94 73
65 99 77
66 100 78
65 98 76
63 95 74
63 96 74
66 100 78
69 103 80
61 92 71
77 105 83
124 127 108
163 147 119
174 135 88
190 135 75
183 134 72
172 129 73
165 126 71
142 114 69
104 102 70
71 98 75
62 92 71
60 90 70
62 93 72
64 96 74
68 102 79
62 92 72
64 96 74
65 98 76
59 89 69
65 97 75
64 96 74
63 94 73
60 90 70
69 103 79
67 100 77
63 94 72
64 97 75
61 92 71
62 93 72
61 91 70
60 90 70
64 96 74
62 93 72
63 94 72
59 88 68
59 88 68
61 90 69
66 99 76
61 91 70
62 92 70
64 94 72
57 85 65
55 81 62
60 89 67
57 83 63
58 86 65
56 83 63
57 83 63
53 78 59
56 83 63
49 72 55
47 70 53
43 64 48
43 64 48
40 59 46
38 57 44
35 52 40
33 49 38
31 46 36
29 44 34
27 40 31
26 39 31
28 42 33
27 40 32
28 40 31
30 45 35
34 51 40
33 50 39
35 52 40
34 51 39
41 60 46
38 55 42
41 59 45
42 62 47
47 69 53
48 69 52
52 75 57
49 70 52
51 74 55
51 73 55
53 75 55
55 78 58
55 78 58
51 73 54
48 68 50
48 68 50
46 65 48
40 56 41
33 48 36
29 42 32
24 33 25
21 31 24
22 32 25
19 26 21
19 28 22
17 25 19
17 25 20
17 25 19
18 27 22
17 26 21
17 26 20
19 30 24
17 27 21
22 34 26
24 37 29
25 40 31
26 41 32
27 42 33
30 47 37
29 46 36
31 49 39
32 50 40
34 54 43
36 57 45
37 58 46
38 58 46
43 66 51
43 66 51
54 81 63
51 77 60
51 76 59
62 93 72
55 82 63
58 87 67
62 93 71
63 95 74
61 91 70
63 94 72
65 97 75
61 92 70
64 96 74
65 98 76
60 90 69
62 93 71
65 98 76
65 98 76
59 88 68
63 95 74
61 92 71
57 85 66
64 96 74
63 95 74
61 92 71
62 94 73
64 96 75
63 95 73
63 95 73
61 92 71
61 91 71
62 93 72
68 102 79
61 93 72
59 89 69
64 96 74
65 97 75
67 100 78
65 97 75
65 98 76
64 96 75
60 91 70
62 94 73
63 95 74
61 92 72
64 96 75
63 94 73
65 98 76
66 100 77
61 93 72
60 91 71
62 94 73
63 95 74
62 93 72
62 94 73
63 94 74
63 95 74
63 94 73
61 92 72
65 98 76
62 94 73
63 96 74
65 98 76
66 99 77
64 96 75
65 98 76
80 100 75
148 112 70
156 116 71
159 119 73
159 119 73
160 119 74
159 119 74
159 119 74
159 119 74
161 121 76
162 124 80
164 126 82
159 121 78
154 117 73
151 114 71
148 111 69
147 111 69
145 109 68
141 107 66
139 105 66
134 102 63
135 103 64
129 98 61
128 98 61
122 94 59
118 91 57
115 89 56
107 83 52
102 80 50
94 75 47
86 69 44
90 71 45
83 67 42
84 68 42
76 62 38
72 61 38
67 92 71
62 93 73
60 91 71
57 87 68
67 101 78
60 91 71
63 96 74
64 97 76
61 92 71
62 94 73
64 97 75
62 93 72
60 91 70
61 92 71
65 98 76
64 96 75
61 92 72
64 96 75
61 92 71
62 94 73
60 91 71
58 88 69
67 101 78
70 105 82
63 96 74
63 96 75
63 95 74
63 95 74
61 92 72
58 88 68
63 96 75
64 97 75
63 96 75
63 95 74
61 92 71
59 88 69
61 92 71
64 96 75
63 95 74
63 96 75
59 90 70
61 92 71
63 95 74
61 93 73
66 99 78
63 96 74
62 93 72
62 93 73
59 90 70
60 91 71
59 90 70
63 95 74
63 95 74
65 98 76
60 91 71
63 95 74
63 96 75
61 93 73
62 94 73
62 95 74
65 98 76
62 93 73
63 95 74
67 101 79
60 91 71
57 87 68
64 97 76
59 89 69
60 91 71
43 91 63
45 95 66
45 97 67
47 99 69
47 100 70
48 102 71
48 102 71
49 104 72
49 104 72
49 104 73
49 105 73
49 105 73
49 105 73
51 106 74
57 108 77
73 116 85
99 132 99
124 149 115
142 162 127
143 162 127
123 148 114
95 129 97
71 115 83
56 107 76
50 104 73
49 104 72
48 103 72
48 103 72
48 102 71
47 101 71
47 100 70
47 99 69
47 99 69
46 97 67
45 95 66
45 95 66
44 93 64
42 90 62
42 88 61
41 86 59
39 82 57
36 76 52
33 72 49
46 78 57
64 97 76
65 99 76
66 99 77
62 93 72
66 100 77
65 98 76
65 97 75
66 99 77
62 94 73
71 108 83
64 97 75
62 94 73
64 97 75
62 94 73
60 91 71
61 93 72
63 95 74
66 99 77
63 94 73
61 93 72
63 94 73
64 97 75
64 96 74
67 101 78
65 98 76
64 96 74
68 102 79
63 95 74
66 99 77
64 97 76
64 96 74
62 94 73
62 93 72
68 103 80
60 91 71
61 91 71
60 90 70
67 100 78
66 100 77
70 105 81
61 92 72
66 100 78
71 107 83
64 96 74
63 95 74
63 95 74
70 105 81
67 100 78
66 99 77
71 107 83
62 94 73
67 102 79
68 102 79
64 96 75
68 103 80
64 96 74
67 101 79
64 96 75
65 98 76
63 95 74
65 97 76
61 93 72
70 100 79
135 134 115
184 170 150
225 195 171
248 190 146
255 171 91
255 165 65
255 165 65
255 165 65
255 165 65
255 164 64
255 163 64
255 161 63
253 159 63
237 151 62
209 139 66
146 113 66
75 94 70
67 101 78
63 94 73
65 97 76
62 93 72
63 95 73
69 103 79
62 92 71
61 92 71
68 103 80
69 104 80
69 103 80
63 94 72
63 95 73
61 92 71
62 93 72
63 95 73
65 96 73
59 88 68
61 91 70
62 93 72
61 91 70
66 98 76
61 90 69
60 90 69
61 89 69
66 97 74
61 91 70
60 89 68
64 94 72
64 95 73
60 89 68
60 88 67
62 91 69
61 89 67
63 94 71
60 88 67
54 80 60
62 90 68
57 83 63
55 80 61
51 75 57
51 75 57
49 71 54
47 69 52
45 67 51
43 64 49
41 60 46
39 57 43
42 62 47
37 54 41
41 61 46
40 58 44
39 58 44
42 60 45
43 63 48
43 63 48
49 71 53
48 70 53
51 74 55
50 73 55
50 72 53
50 72 54
51 75 56
52 75 57
54 78 58
57 82 61
59 85 64
57 82 61
53 76 57
55 79 58
51 72 53
49 70 52
54 78 58
51 73 54
53 76 57
46 65 48
41 57 43
34 48 36
31 45 34
28 41 32
27 40 31
23 33 25
22 33 26
23 35 27
21 32 25
24 36 29
21 33 25
23 35 28
24 37 29
23 36 28
27 42 33
24 38 30
21 33 25
30 48 38
33 52 41
32 51 41
32 51 41
33 52 41
40 61 48
41 64 50
40 61 48
41 63 49
45 69 53
51 78 60
51 76 59
53 80 62
51 77 60
53 80 61
57 86 66
58 87 67
62 92 71
61 91 70
62 93 71
64 96 74
65 97 75
62 92 71
63 95 73
63 94 72
62 93 72
63 95 73
62 93 72
63 95 73
61 92 71
61 91 71
61 91 71
61 92 71
63 95 74
60 90 70
63 95 73
61 91 71
58 88 68
66 99 76
65 98 76
59 89 69
62 94 72
60 90 70
67 100 77
62 94 73
59 89 69
57 86 67
61 92 71
63 95 73
64 97 75
59 90 70
65 98 76
66 99 76
63 94 73
64 97 75
64 96 75
65 98 76
65 97 75
64 97 75
63 95 74
60 90 70
64 96 74
60 90 70
60 91 71
58 87 68
60 91 71
62 93 72
62 93 72
63 95 73
63 95 74
61 93 72
59 89 69
60 91 71
64 96 75
62 94 73
63 96 74
63 95 74
79 99 75
144 109 69
157 117 72
159 119 73
159 119 74
159 118 73
159 119 73
160 119 74
160 120 74
159 120 75
164 125 81
165 127 83
161 123 79
155 117 74
151 114 71
149 112 70
146 110 68
145 109 68
141 106 66
139 105 65
136 103 64
134 102 63
130 99 62
126 96 60
122 94 59
118 91 57
115 88 55
106 83 51
101 80 50
93 73 46
90 72 46
87 70 44
82 66 41
83 67 42
77 63 39
75 62 38
62 81 61
61 92 72
64 97 76
59 90 70
62 94 73
67 102 79
63 94 73
59 89 69
65 98 76
64 96 75
67 101 79
65 98 76
60 91 71
61 93 72
61 92 72
62 95 74
65 99 77
64 97 75
62 94 73
63 95 73
62 94 73
61 93 72
61 92 71
63 95 74
66 100 78
64 96 75
61 92 72
62 94 73
63 96 75
60 91 71
60 91 71
62 94 73
58 88 68
62 94 73
61 92 72
64 97 75
61 91 71
57 87 68
60 90 70
60 91 70
63 96 75
62 94 73
61 92 72
63 96 74
61 93 73
62 93 73
64 97 76
62 94 73
62 94 73
61 92 71
65 98 77
58 87 68
61 92 72
60 90 70
62 94 73
62 94 73
65 98 77
65 99 77
66 99 77
62 94 73
66 99 77
59 89 69
60 90 70
60 91 71
64 97 76
63 95 74
61 92 71
58 87 68
61 92 72
63 95 74
43 91 63
45 93 64
45 95 66
46 98 67
47 100 69
48 100 69
48 102 71
49 103 71
49 103 72
49 103 72
49 104 73
49 104 73
49 104 73
50 105 73
52 106 74
60 109 78
72 116 84
87 124 92
96 129 97
93 127 95
83 121 89
68 113 82
57 107 76
51 105 73
49 104 72
48 103 72
48 103 72
48 102 71
48 101 71
47 100 70
47 99 69
47 99 68
46 97 67
45 95 66
45 95 65
44 92 64
43 92 63
42 89 62
41 87 60
40 83 57
37 79 54
35 75 51
33 71 48
34 68 47
62 93 72
62 94 73
64 96 75
69 104 81
66 100 77
66 100 78
65 98 76
64 96 75
64 97 75
65 98 76
64 97 75
64 96 75
62 93 72
70 106 82
64 97 75
64 97 75
61 92 72
67 101 79
63 95 73
65 98 76
64 97 75
70 106 82
64 96 75
65 97 75
68 102 79
63 96 74
64 97 75
61 93 72
62 93 72
66 100 77
62 93 72
66 99 77
60 91 71
68 103 80
65 98 76
66 100 77
69 105 81
66 99 77
69 104 81
69 104 81
63 95 73
65 98 76
66 99 77
66 99 77
61 93 72
70 105 82
65 98 76
64 96 75
67 100 78
61 92 71
66 99 76
68 103 80
65 99 76
64 95 74
66 99 77
66 100 77
63 95 74
64 96 74
61 91 71
65 99 76
107 118 98
172 161 141
226 201 181
241 209 187
253 194 149
255 171 78
255 168 66
255 168 66
255 168 66
255 167 66
255 167 66
255 167 66
255 166 66
255 165 65
255 164 65
255 164 65
255 163 64
255 160 63
249 157 62
237 149 60
198 133 64
110 105 72
64 96 74
62 93 72
63 94 73
65 98 76
63 95 73
61 91 70
64 96 75
64 96 74
65 97 75
64 95 74
62 93 72
61 92 71
59 89 69
60 89 69
67 100 77
60 89 69
59 88 68
67 99 77
66 99 76
65 97 75
66 99 76
60 88 68
61 90 69
60 90 69
59 87 67
59 87 67
61 90 68
60 89 68
58 86 66
58 85 64
57 84 64
60 89 68
57 84 64
60 88 67
56 82 62
61 90 68
58 85 64
57 83 62
55 80 60
55 80 60
56 81 61
55 80 61
49 71 53
50 72 54
47 69 52
47 69 52
56 82 62
48 71 53
51 74 56
48 70 53
53 77 58
50 74 56
52 75 56
52 76 57
53 77 58
54 77 58
53 77 57
55 81 61
56 81 61
51 73 55
50 72 54
57 83 63
57 83 63
57 83 62
57 82 62
56 80 59
58 84 63
58 83 63
57 82 61
57 80 60
59 84 63
55 79 59
55 79 59
51 73 54
52 73 54
49 71 53
48 69 51
43 61 46
36 52 39
35 51 39
35 50 38
34 50 38
29 43 33
25 37 28
32 47 36
29 43 33
31 47 37
29 45 35
28 44 34
33 51 40
35 53 42
34 53 41
39 60 47
41 62 48
46 70 55
41 62 49
44 67 52
45 69 53
49 74 57
50 75 57
55 83 64
53 79 60
60 89 68
54 81 62
59 89 68
59 88 67
60 90 69
64 95 73
60 90 69
61 92 70
60 89 68
59 88 67
65 97 75
61 92 70
63 94 72
60 90 70
61 92 71
63 95 73
63 95 73
60 89 69
62 94 73
66 99 76
64 96 74
62 94 73
62 93 72
67 101 78
65 98 76
69 104 80
70 104 81
63 94 72
64 97 75
70 106 82
64 96 74
61 92 71
65 98 76
61 93 72
60 91 71
61 91 70
60 91 70
59 89 69
63 96 74
64 97 75
65 98 76
65 98 76
64 97 75
60 90 70
67 100 78
60 91 71
63 95 74
61 92 72
62 92 72
59 90 70
63 95 74
63 95 73
62 93 73
61 93 72
62 93 72
63 95 74
64 97 75
65 98 76
63 95 74
63 95 74
62 94 73
61 93 72
64 96 74
57 86 67
59 89 69
69 90 68
139 108 69
156 116 72
160 119 74
158 118 73
161 120 74
159 119 74
159 119 74
159 119 74
160 120 76
163 124 80
165 127 83
161 123 80
156 118 75
150 113 70
150 113 70
146 110 68
145 109 68
142 107 66
139 106 66
137 104 65
133 101 63
130 99 62
127 96 60
121 92 57
117 90 56
112 87 54
109 84 53
102 80 50
97 77 48
85 69 43
86 69 43
82 66 41
77 63 39
74 61 37
72 60 36
66 84 63
61 93 72
62 94 73
67 101 78
63 95 74
71 107 83
61 92 71
59 90 70
62 94 73
64 96 75
58 88 69
65 99 76
67 101 78
60 91 71
62 94 73
62 93 72
61 92 72
60 91 71
64 97 75
67 101 79
61 92 72
59 89 70
63 95 74
59 89 69
66 99 77
61 92 72
64 97 76
60 91 71
61 92 71
57 86 67
60 91 71
63 96 74
61 92 71
64 96 74
61 92 72
61 92 72
64 96 75
64 96 75
64 96 75
62 94 73
60 90 70
65 99 77
62 93 72
60 90 70
65 97 76
58 87 68
60 91 71
62 94 73
61 93 73
63 95 74
65 98 76
65 98 76
66 100 78
67 101 79
61 92 72
63 95 74
57 87 68
57 87 68
62 94 73
68 103 80
60 91 71
56 85 66
63 95 74
61 92 72
64 97 76
63 95 74
64 97 75
62 94 73
65 98 77
63 95 74
64 96 75
42 90 62
44 92 64
45 95 66
46 97 68
47 99 69
47 100 69
48 101 70
48 101 70
49 102 71
49 103 72
49 103 71
49 104 72
49 104 73
49 104 73
50 105 73
52 105 74
56 107 76
61 110 78
64 111 80
63 110 79
59 108 77
54 106 75
50 104 73
49 103 72
48 103 72
48 102 71
48 102 71
47 100 70
47 100 70
46 99 69
46 98 68
46 98 68
45 96 67
45 94 65
44 94 65
43 91 62
43 91 63
42 87 60
40 85 59
39 82 56
38 79 54
35 75 51
32 69 47
30 64 44
61 94 72
64 96 75
64 97 75
66 100 77
63 95 73
66 99 77
64 96 75
64 97 75
63 95 73
61 93 72
63 95 73
66 99 77
65 98 76
65 98 76
62 94 73
64 96 75
67 102 79
61 92 71
63 95 74
65 99 77
70 106 82
66 100 77
63 95 74
65 99 77
63 96 74
62 94 73
60 91 71
63 95 73
61 92 71
65 97 76
63 95 74
68 101 79
63 95 74
64 96 74
63 94 73
65 98 76
61 91 71
64 96 74
70 105 81
64 97 75
62 93 72
67 100 78
66 99 77
63 96 74
66 99 77
62 93 72
62 94 73
65 98 76
62 93 72
64 96 74
61 92 71
64 96 75
61 92 72
62 94 73
64 96 74
65 98 76
65 98 76
65 99 77
77 99 79
189 174 154
232 206 185
242 214 194
254 200 161
255 173 85
255 169 66
255 169 67
255 169 67
255 169 67
255 169 67
255 168 67
255 168 66
255 167 66
255 167 66
255 166 66
255 165 65
255 165 65
255 164 65
255 163 64
255 161 64
252 160 63
248 156 61
240 151 60
193 130 63
104 107 75
64 96 74
60 91 70
64 96 74
62 93 72
62 93 72
61 91 70
61 92 71
60 91 70
66 98 76
63 95 73
64 96 74
62 92 71
67 99 77
59 88 67
62 93 71
61 91 70
60 90 69
58 87 67
62 93 72
64 95 73
62 92 71
63 94 72
63 94 72
63 94 73
64 94 72
61 90 69
61 91 70
61 90 69
61 91 70
63 93 71
55 82 62
58 86 66
58 85 65
59 87 66
59 87 66
63 92 69
62 92 70
57 84 64
56 81 61
55 80 61
57 83 62
60 88 66
60 88 66
59 85 64
56 81 61
55 80 61
53 78 59
57 83 63
57 83 63
61 90 68
62 91 68
57 84 63
60 88 66
57 82 61
56 82 62
59 85 64
58 83 62
54 78 58
55 81 61
57 83 62
56 81 61
61 89 67
60 86 65
56 81 61
58 83 62
56 81 60
58 83 62
56 81 61
58 83 62
56 80 59
57 81 60
57 81 60
57 82 62
53 77 58
52 74 55
55 78 58
52 75 56
51 74 55
43 63 47
46 66 50
44 64 48
41 61 46
37 54 41
41 60 45
39 59 44
41 61 46
41 62 47
45 68 52
44 65 50
47 71 54
45 68 52
44 65 50
52 78 60
49 72 55
51 77 59
54 81 62
55 82 63
56 83 64
53 79 60
58 87 66
59 88 68
62 92 70
57 85 65
59 88 68
62 93 71
62 91 70
61 91 70
62 93 71
60 90 69
62 93 71
64 95 73
60 90 69
62 92 71
66 99 76
66 99 77
57 85 66
64 96 74
61 92 71
63 94 73
61 91 71
65 98 76
65 98 76
64 96 74
66 99 77
71 107 83
65 97 75
66 100 78
65 98 76
67 100 77
64 96 74
62 93 72
64 96 75
64 96 74
63 95 74
60 91 71
63 95 74
62 94 73
67 101 78
62 93 72
62 94 73
60 90 70
61 92 72
61 92 71
61 93 72
66 99 77
62 94 73
62 93 72
66 99 77
61 92 71
63 95 74
66 100 77
70 105 81
61 92 72
65 98 76
63 94 73
65 97 76
62 93 72
61 92 72
68 103 80
64 96 75
64 96 75
67 100 78
63 95 74
62 93 72
67 96 74
137 109 70
156 116 71
159 119 73
159 119 73
159 119 73
160 119 74
159 119 74
159 119 74
160 120 76
163 125 80
165 127 84
163 125 82
157 119 76
153 115 72
151 113 71
147 111 69
145 110 68
142 108 67
141 106 66
136 103 64
134 101 63
132 100 62
126 96 59
123 94 58
121 92 58
107 83 51
107 83 52
100 79 49
100 78 49
94 75 48
84 68 42
81 65 40
78 64 39
76 62 38
74 61 37
64 78 58
66 100 78
61 92 72
64 97 75
64 97 75
62 94 73
68 102 80
61 92 71
63 95 74
63 96 74
62 94 73
62 94 73
65 98 76
61 93 72
63 95 74
63 96 74
61 92 71
61 92 72
64 97 75
61 92 71
60 91 71
60 91 71
66 100 78
62 93 73
63 95 74
66 99 77
69 104 80
62 94 73
61 93 73
62 93 73
62 94 73
64 96 75
62 94 73
61 92 72
64 96 74
61 92 71
60 91 71
65 98 76
64 96 75
61 92 72
64 96 75
64 96 75
63 96 75
60 91 71
65 98 76
62 94 73
62 93 73
61 92 72
64 97 76
57 87 67
61 92 72
65 98 76
58 87 68
62 94 74
62 94 73
60 91 71
62 93 73
60 91 71
60 91 70
62 93 73
61 92 72
62 93 72
64 96 75
62 95 74
66 99 77
61 93 72
65 98 76
63 96 75
59 89 70
59 89 70
61 93 72
62 94 73
42 88 60
43 91 62
45 94 65
45 94 65
46 96 66
47 97 67
47 100 69
48 101 70
48 100 69
48 102 71
48 102 71
49 102 71
48 103 72
49 104 72
49 104 72
49 104 72
50 104 73
51 105 73
51 105 73
51 104 73
50 104 73
49 103 72
48 103 72
48 102 71
48 101 71
48 102 71
47 101 70
47 100 69
47 99 69
46 97 67
45 96 66
45 96 67
45 95 65
44 94 64
44 93 65
42 89 61
42 89 61
40 85 58
40 84 58
37 79 54
37 79 54
35 73 50
33 70 47
28 62 42
55 85 65
64 96 75
63 95 73
68 102 79
67 101 78
70 105 82
66 99 77
66 99 77
65 98 75
62 93 72
64 97 75
67 101 78
71 107 83
70 106 82
62 94 73
66 100 78
65 98 76
62 93 72
65 98 76
64 97 75
61 92 71
61 93 72
65 99 76
63 95 73
67 102 79
69 103 80
62 93 72
68 103 80
67 100 78
66 99 77
62 94 73
65 99 77
64 97 75
61 93 72
64 97 75
60 91 71
69 103 80
66 99 77
62 94 73
66 99 77
62 93 72
62 94 73
62 94 73
60 90 69
60 90 70
59 90 69
63 95 74
62 93 72
65 99 77
61 92 71
62 93 73
64 96 74
67 101 79
65 98 76
60 90 70
63 96 74
67 99 77
156 150 130
226 201 179
240 212 192
245 215 193
255 188 129
255 169 67
255 169 67
255 169 67
255 169 67
255 169 67
255 169 67
255 169 67
255 169 67
255 169 67
255 168 66
255 168 66
255 167 66
255 166 66
255 165 65
255 164 65
255 163 65
255 162 64
253 161 64
252 159 63
249 157 62
243 153 60
228 144 58
149 113 64
63 93 72
62 93 72
64 95 74
61 91 70
61 92 71
65 96 74
64 95 73
63 95 74
66 100 77
63 94 72
67 100 77
64 95 73
69 104 80
65 96 74
63 94 73
61 92 70
63 95 73
65 97 75
63 94 72
62 92 71
68 101 77
64 95 73
63 94 72
64 95 73
62 93 71
64 95 73
61 91 70
61 90 69
60 89 68
57 85 65
58 86 65
64 95 72
61 90 68
61 89 67
59 86 65
57 84 64
60 88 66
63 93 71
58 85 64
57 85 64
57 84 63
61 89 68
55 81 61
55 80 61
60 89 67
57 84 64
56 82 62
56 83 63
59 86 65
56 82 62
59 86 65
56 82 62
59 86 65
55 81 61
59 86 65
57 83 63
57 83 63
58 84 63
60 86 65
60 88 67
63 91 69
56 81 61
56 82 62
57 82 62
61 88 67
57 82 62
57 82 62
60 87 66
58 83 62
60 86 65
61 87 65
60 87 65
60 87 65
61 87 65
56 81 61
58 84 63
56 81 61
54 78 58
52 75 56
53 77 58
55 80 60
50 73 55
54 79 59
50 74 56
51 75 57
53 78 58
53 79 60
50 74 55
58 87 66
55 82 63
51 76 57
53 79 60
56 84 64
56 83 63
56 83 63
61 90 68
63 95 73
55 82 63
58 86 66
60 90 69
64 95 72
58 87 66
61 91 70
58 87 67
62 93 71
63 93 71
61 92 70
64 96 73
59 88 68
62 93 72
62 93 72
62 93 71
62 93 71
64 96 74
63 94 73
69 104 80
68 102 79
61 92 71
61 91 70
62 93 72
62 94 73
60 90 70
65 98 76
62 93 72
61 92 71
66 99 76
65 97 75
60 90 70
60 91 71
62 93 72
64 96 74
65 97 75
69 103 80
65 98 76
63 95 73
59 88 68
67 101 78
63 94 73
65 97 75
63 95 74
67 100 78
64 96 75
65 98 76
65 98 76
62 93 73
58 88 68
63 95 74
69 103 79
66 100 78
66 99 77
63 95 74
59 89 69
63 95 74
61 91 71
64 96 75
61 91 71
58 87 68
64 97 75
59 89 69
69 103 80
65 98 76
63 94 73
61 91 70
133 109 72
156 117 72
158 118 73
159 119 73
160 119 74
160 119 74
159 119 74
160 120 74
160 120 76
162 124 80
165 127 84
163 125 83
158 120 77
152 115 72
149 112 69
146 110 68
145 110 68
144 109 67
140 106 66
137 104 65
135 102 64
130 98 61
128 97 61
122 93 58
121 93 58
112 87 54
112 87 54
107 83 53
96 76 47
93 75 47
88 71 45
86 69 43
80 65 40
78 63 39
78 63 39
62 73 53
68 102 80
64 97 76
66 100 78
62 94 73
71 106 82
63 96 74
65 98 76
60 91 71
67 101 78
65 98 76
63 96 74
64 97 75
64 96 75
60 90 70
67 102 79
59 89 69
63 95 74
64 97 75
60 91 70
60 90 70
61 93 72
62 93 72
61 92 72
63 95 74
64 97 75
64 97 76
64 96 75
70 105 82
66 100 77
61 92 72
62 94 73
60 90 70
63 95 74
63 95 74
60 91 71
63 95 74
59 89 69
60 91 71
61 92 71
58 87 68
60 91 71
64 96 75
62 93 73
62 94 73
61 92 72
59 90 70
60 91 71
58 87 68
59 89 69
59 89 69
61 93 72
63 95 74
60 91 70
63 96 74
60 91 71
63 95 74
63 95 74
65 98 76
66 101 78
62 93 73
62 94 74
63 95 74
57 86 67
65 98 76
63 95 74
58 87 68
61 93 72
63 96 75
66 100 78
61 92 72
61 93 72
64 97 76
42 87 60
43 90 62
44 92 63
45 94 65
46 95 66
46 96 66
47 98 68
48 99 68
48 100 69
48 100 69
48 101 70
48 101 71
48 102 70
48 102 71
48 102 71
48 103 72
48 102 71
48 103 72
48 103 72
48 103 72
48 102 71
47 101 70
48 102 71
47 100 69
47 101 70
47 100 70
46 99 69
46 98 68
46 96 67
45 96 66
46 96 66
45 94 65
44 92 63
43 90 62
42 89 61
42 88 60
41 88 61
40 85 58
38 81 55
37 78 54
35 74 50
34 72 49
32 69 47
29 63 43
46 74 56
65 97 75
67 101 78
66 99 76
63 95 74
61 92 71
62 94 72
61 92 71
63 95 74
63 95 73
63 96 74
64 96 75
72 109 84
61 92 71
63 95 74
64 96 75
64 96 74
66 99 76
64 97 75
63 95 74
66 99 77
60 91 71
68 103 80
64 97 75
64 97 75
64 97 75
60 90 70
64 97 75
66 99 77
64 96 74
62 93 72
68 102 79
70 106 82
65 98 76
67 101 78
71 106 82
63 96 74
62 93 72
62 93 72
62 94 73
65 98 76
61 92 72
69 104 80
68 102 79
66 99 77
62 94 73
70 105 82
64 96 74
65 98 76
62 94 72
67 100 78
62 93 72
65 97 75
67 101 78
65 98 76
83 109 87
190 174 154
234 207 186
243 215 194
249 212 185
255 179 105
255 169 67
255 169 67
255 170 67
255 170 67
255 170 67
255 170 67
255 170 67
255 169 67
255 169 67
255 169 67
255 168 67
255 168 66
255 167 66
255 166 66
255 166 66
255 165 65
255 164 65
255 162 64
255 161 64
253 160 64
250 158 63
249 156 62
242 152 60
234 146 57
194 129 60
85 101 74
68 102 79
66 98 76
60 89 69
65 98 76
61 91 70
60 90 69
63 94 73
64 95 73
60 89 68
63 94 73
62 93 72
62 93 72
58 87 67
65 96 74
61 91 70
61 90 69
60 89 68
58 87 67
63 94 72
62 92 71
67 100 77
64 96 73
64 94 72
59 88 67
63 95 73
63 92 70
63 94 72
59 88 67
61 90 69
59 87 67
57 85 65
58 86 66
58 85 65
59 87 66
58 85 64
59 87 66
61 90 68
63 93 71
57 83 63
56 83 63
61 89 68
62 91 69
62 91 70
61 90 69
62 91 69
63 93 71
58 84 64
60 89 68
64 93 70
57 83 63
58 85 64
63 92 70
58 84 63
58 85 64
60 87 66
60 87 66
58 85 64
63 91 69
59 85 65
60 88 67
65 94 71
62 89 67
59 86 65
58 84 63
58 85 64
55 80 60
60 88 66
59 85 64
54 79 60
58 84 63
59 85 64
58 84 63
57 83 62
60 86 65
60 86 65
55 79 60
52 75 56
55 79 59
62 90 68
52 77 58
57 84 63
56 82 61
56 82 62
55 81 61
56 83 62
61 90 68
59 87 66
64 94 71
55 82 62
57 85 65
57 84 64
57 85 64
58 86 66
57 86 65
61 91 69
60 89 68
59 88 67
59 88 67
60 89 68
61 91 70
64 96 74
59 88 67
62 93 71
59 88 68
63 95 73
68 101 78
61 92 71
63 95 73
60 90 70
61 92 71
60 91 71
62 93 72
63 95 74
66 99 77
65 97 75
62 94 72
66 99 76
62 94 72
66 100 77
62 93 72
63 94 73
61 92 71
60 90 70
65 98 76
62 94 73
58 88 68
61 91 70
63 94 73
58 87 68
58 87 68
63 95 74
59 89 69
63 95 74
64 95 74
62 93 73
63 94 73
61 92 72
61 92 71
61 92 71
59 89 69
64 97 75
67 100 78
63 95 74
62 93 72
61 92 72
64 97 75
59 88 69
65 99 77
62 93 72
61 92 71
65 98 77
63 95 74
68 102 79
70 105 81
62 93 72
64 97 75
69 103 80
60 90 70
58 88 68
66 98 76
123 105 71
155 115 71
157 117 72
160 119 74
160 120 74
159 119 73
159 119 74
160 119 74
160 121 76
163 124 80
166 128 85
163 126 83
158 120 77
153 115 72
148 111 69
147 111 69
145 110 68
141 107 66
141 106 66
136 103 64
129 98 60
131 100 62
128 97 61
124 95 59
119 91 57
116 89 56
109 85 53
103 80 50
97 76 48
93 74 47
88 71 45
87 70 44
82 67 42
79 64 39
76 62 38
67 71 50
61 91 71
61 92 71
61 92 72
67 102 79
60 90 71
61 92 71
59 89 69
58 87 68
63 96 74
61 92 72
66 99 77
63 95 74
68 103 80
66 100 78
62 94 74
62 94 73
62 93 72
61 93 72
68 102 79
64 96 74
61 92 71
56 85 66
64 96 75
63 95 74
62 94 73
61 92 72
61 92 72
60 91 71
63 94 73
64 96 75
63 95 74
59 89 69
65 97 76
57 87 67
62 93 72
58 87 68
64 96 75
66 100 78
60 90 70
57 87 67
64 96 75
58 87 68
67 102 79
61 92 72
63 95 74
59 89 69
60 91 71
66 99 77
63 95 74
57 86 67
63 95 73
60 91 71
61 92 71
58 88 68
67 101 79
60 91 71
63 95 74
64 97 75
64 97 76
58 88 68
60 91 71
61 93 73
63 96 74
61 93 72
59 90 70
62 93 73
64 97 75
60 90 70
59 89 69
60 91 71
60 91 71
60 91 71
59 90 70
41 85 58
42 88 60
43 88 60
45 91 62
45 94 64
45 94 64
46 96 66
47 97 67
47 98 68
47 98 68
48 99 68
48 100 69
47 99 69
47 100 70
47 101 70
47 101 70
48 102 71
47 101 70
47 101 70
47 101 70
47 99 69
47 100 70
47 100 69
47 99 69
46 98 68
46 98 68
45 97 67
45 96 66
45 96 66
45 95 66
44 93 64
44 93 64
43 91 62
42 90 62
41 87 60
41 87 60
40 84 57
39 82 56
37 80 55
36 77 52
35 73 50
32 69 46
31 66 45
27 59 40
50 80 60
72 108 84
64 96 74
66 99 76
68 102 79
64 97 76
64 97 75
62 93 72
61 93 72
62 93 72
64 97 75
63 96 75
68 103 79
61 92 71
66 100 78
65 98 76
64 97 75
61 92 71
66 100 78
65 98 76
68 103 80
64 96 75
69 103 80
70 105 81
66 100 77
63 95 73
64 97 75
65 98 76
70 105 82
66 100 78
62 94 73
65 98 77
66 100 78
62 94 73
61 91 71
66 99 77
63 95 74
64 97 75
65 97 76
59 89 69
61 92 72
71 108 84
67 101 78
62 93 73
69 103 80
64 97 75
67 101 78
63 95 74
69 103 80
64 96 75
66 99 77
68 102 79
65 98 76
66 100 77
94 114 92
203 183 162
238 210 190
243 214 193
249 210 181
255 173 84
255 169 67
255 170 67
255 170 67
255 170 67
255 170 67
255 170 67
255 170 67
255 170 67
255 169 67
255 169 67
255 169 67
255 168 67
255 168 67
255 167 66
255 167 66
255 166 66
255 165 65
255 164 65
255 162 64
254 161 64
253 161 64
252 160 63
248 157 62
244 154 61
240 150 59
230 143 56
207 134 58
93 103 74
66 100 77
63 95 73
67 101 79
66 98 76
64 96 74
63 94 72
63 95 73
65 96 74
62 93 71
63 94 73
63 94 72
63 94 73
65 97 75
68 101 78
64 95 73
60 89 69
62 93 71
61 90 69
62 93 72
61 91 70
66 98 76
65 98 75
61 92 70
61 90 69
62 92 70
65 95 73
62 93 71
62 92 70
59 87 66
61 91 69
65 97 74
60 88 67
58 86 66
57 85 65
61 89 68
58 84 64
62 91 69
62 92 71
61 91 69
60 88 67
62 91 70
57 83 63
60 89 67
69 100 76
61 90 68
57 84 64
54 79 61
56 82 62
58 84 64
56 82 62
61 88 67
64 92 70
61 90 68
59 86 65
60 87 65
60 87 67
58 84 63
59 86 66
62 91 69
63 92 70
57 83 63
60 88 67
57 82 62
60 88 67
55 80 61
57 82 62
59 84 64
60 88 66
59 85 64
61 89 67
61 89 67
63 91 69
60 86 65
58 84 63
60 88 67
59 86 65
60 88 66
58 85 65
59 86 65
58 85 64
58 86 65
60 88 66
60 88 66
61 90 68
62 91 69
64 94 71
59 88 67
67 99 74
60 89 68
58 87 66
61 91 69
59 88 67
61 91 70
62 92 70
59 88 67
62 92 70
60 89 68
57 86 66
59 87 67
63 94 72
62 94 72
60 89 68
60 90 69
58 87 67
65 97 75
58 87 67
61 91 70
60 91 70
64 95 73
69 104 80
64 96 74
63 94 73
67 100 77
64 96 74
64 96 74
61 92 71
66 99 76
63 95 74
63 95 74
66 98 76
61 91 71
61 92 71
66 99 76
63 95 74
62 94 73
66 99 76
71 106 82
68 103 80
67 100 78
66 99 77
62 94 72
62 94 73
65 97 75
63 95 73
59 88 69
57 86 67
61 92 72
64 96 75
63 95 74
60 91 71
63 95 74
63 95 74
66 100 77
63 95 73
60 91 71
62 93 72
69 104 81
65 98 76
65 98 76
59 89 70
66 99 77
65 99 77
66 100 77
61 92 71
67 101 79
64 97 75
65 98 76
63 94 73
118 108 75
154 115 71
158 118 73
158 118 73
159 119 73
160 119 74
160 120 74
159 119 74
161 121 75
163 124 80
167 129 86
167 129 85
160 122 79
150 114 71
150 113 70
147 111 69
146 110 69
146 110 68
140 106 66
138 105 65
136 103 64
133 101 63
128 97 61
122 93 58
120 92 57
116 89 55
111 86 54
108 84 53
98 77 48
92 73 45
87 70 44
82 66 41
81 66 41
77 63 39
77 62 38
66 73 52
60 89 69
60 90 70
64 97 75
63 96 74
69 104 80
62 94 73
58 88 68
59 89 69
61 92 71
58 88 69
61 92 71
62 94 73
65 99 77
65 98 76
65 98 76
63 95 74
67 101 79
65 97 75
65 98 76
61 93 72
68 103 80
63 96 74
61 92 72
63 95 74
62 93 72
63 95 73
62 94 73
60 91 71
63 96 74
57 87 68
62 94 73
59 90 70
60 90 70
61 92 71
63 95 74
57 86 67
60 90 70
60 91 71
62 93 73
65 98 76
62 94 73
63 95 74
65 98 76
64 96 75
60 91 71
61 92 72
66 100 77
59 90 70
64 96 75
63 96 74
60 91 71
62 93 72
61 92 72
57 87 68
63 95 74
60 91 70
58 88 68
63 96 75
60 90 70
62 93 72
58 88 68
61 92 72
59 90 70
60 90 70
61 92 72
60 90 70
64 97 75
58 88 68
60 91 70
67 102 79
63 96 75
63 96 75
64 96 75
62 94 73
40 82 56
42 87 59
43 88 60
44 91 62
43 90 61
45 93 64
45 94 64
46 95 65
46 95 65
46 97 67
47 98 67
47 97 67
47 99 68
47 99 68
47 99 69
46 99 68
47 99 69
47 100 70
47 100 69
46 99 69
46 98 68
46 98 68
46 97 67
46 98 68
45 97 67
45 97 67
45 95 66
44 93 65
45 94 64
44 93 64
43 91 63
43 90 61
41 87 60
41 87 59
40 84 57
39 84 58
39 81 55
39 82 56
37 78 53
36 76 52
33 71 47
32 68 46
29 63 42
27 57 38
47 77 57
67 101 78
63 94 73
62 93 72
64 96 74
62 94 73
66 99 77
62 94 73
61 92 71
60 91 70
63 95 73
63 95 73
63 94 73
64 96 75
65 97 75
67 102 79
68 102 79
72 108 84
60 91 71
62 93 72
67 101 78
62 93 72
67 101 78
67 101 79
68 102 79
68 103 80
62 94 73
61 93 72
63 95 73
66 99 77
64 97 75
64 96 75
68 102 79
62 94 73
58 87 68
66 99 77
65 97 76
62 94 73
66 99 77
66 100 78
61 92 72
61 92 72
65 98 76
69 103 80
63 95 74
67 101 78
58 88 68
65 97 75
68 102 79
62 93 72
71 108 84
64 97 75
64 96 74
97 114 93
213 190 170
233 206 184
241 213 192
249 208 178
255 169 69
255 169 67
255 170 67
255 170 67
255 170 67
255 170 67
255 170 67
255 170 67
255 170 67
255 169 67
255 169 67
255 169 67
255 169 67
255 168 67
255 168 67
255 167 66
255 167 66
255 166 66
255 165 66
255 164 65
255 163 65
254 161 64
253 161 64
251 159 63
250 158 63
246 156 62
243 154 61
236 149 59
227 140 55
205 130 53
97 97 67
65 98 76
67 100 77
61 92 71
67 100 77
74 110 85
59 89 68
64 96 74
68 101 78
63 94 73
63 95 73
68 102 79
64 95 73
58 87 67
60 89 68
63 94 72
61 91 70
64 96 74
61 90 70
65 97 75
60 89 69
65 96 74
60 89 68
62 92 71
66 97 74
60 90 69
64 95 73
59 88 68
62 92 71
58 86 66
64 94 73
62 92 71
60 88 67
59 87 66
60 90 69
65 96 73
60 88 67
59 86 66
58 86 66
57 84 63
58 85 65
60 87 66
59 88 67
57 84 64
64 94 71
60 89 68
60 88 67
66 96 73
60 89 68
62 91 69
64 94 71
62 91 69
58 84 64
58 85 65
60 88 68
62 91 70
58 85 64
57 84 63
61 89 68
64 95 73
59 85 65
56 83 63
57 83 63
61 90 69
60 88 67
60 88 67
61 89 67
60 88 67
57 83 63
65 95 73
58 83 63
56 83 63
61 89 67
60 88 67
60 88 67
60 88 66
62 90 68
59 86 65
65 95 72
63 93 70
60 88 67
59 87 66
59 87 66
59 87 66
63 93 71
57 84 64
61 90 69
59 89 67
58 85 65
58 86 65
59 88 67
57 85 65
57 85 65
59 88 67
72 107 82
64 95 73
60 90 69
59 88 67
65 98 76
63 95 73
62 93 71
60 89 68
61 91 70
61 91 71
69 104 80
64 96 74
62 92 71
67 101 78
63 95 73
59 88 67
63 94 72
64 97 75
62 94 73
65 98 76
68 101 78
62 94 73
65 97 75
62 93 72
64 96 74
63 96 74
61 92 71
66 99 77
61 91 71
63 94 73
60 91 70
60 90 70
67 100 78
67 101 78
63 94 73
66 99 77
63 95 74
62 93 72
58 87 68
64 96 74
59 88 69
64 97 75
65 98 76
65 98 76
68 102 79
64 96 74
59 90 70
64 96 74
64 96 75
63 94 73
63 96 74
65 98 76
63 95 73
65 98 76
62 94 73
63 95 74
63 96 74
60 91 71
58 88 68
59 90 70
60 91 70
64 96 75
68 101 78
113 103 72
154 114 70
158 118 73
160 119 74
161 120 74
161 120 74
160 119 74
160 120 74
160 120 75
162 124 79
167 129 86
167 129 86
160 122 79
154 116 73
150 113 70
148 111 69
147 111 69
142 108 67
140 106 66
138 105 65
136 103 64
132 100 63
127 97 60
124 95 60
121 93 58
116 89 56
113 88 55
108 84 53
99 78 49
92 73 46
83 67 42
81 66 41
83 67 42
76 62 38
74 61 37
68 65 43
63 94 73
62 93 73
61 92 71
67 102 79
61 93 72
66 100 78
63 96 75
62 94 73
61 92 71
67 101 78
62 93 72
66 100 78
63 95 73
60 91 71
62 93 72
70 105 82
63 96 74
71 107 83
65 99 77
65 98 77
66 100 77
66 99 77
61 93 72
59 89 70
61 93 72
65 98 76
63 96 74
61 92 72
63 94 73
60 90 70
58 87 67
59 89 70
61 91 71
63 96 74
60 91 71
61 92 72
64 97 76
61 92 72
59 90 70
62 94 73
61 93 72
61 92 72
64 96 75
64 98 76
61 93 72
63 95 74
63 95 74
60 91 71
62 93 72
57 87 67
64 96 75
57 87 68
60 91 71
60 91 71
58 87 68
64 97 75
64 97 76
62 93 73
64 96 74
65 98 76
61 93 72
57 87 68
62 94 74
59 89 69
60 91 71
61 93 72
62 94 73
60 91 71
63 95 74
60 91 71
64 97 75
59 89 69
62 94 74
58 88 68
60 92 72
39 81 55
40 82 55
42 85 58
42 87 59
43 90 61
44 91 62
45 91 62
45 93 64
45 93 64
46 96 66
46 96 66
46 96 66
46 97 67
47 97 67
46 97 67
46 97 67
46 97 67
46 98 68
45 96 66
46 98 68
46 98 68
46 98 68
45 96 67
45 96 67
45 96 67
44 94 65
44 94 65
44 93 64
43 91 63
42 89 61
42 89 61
41 87 60
41 86 59
41 87 59
39 82 56
38 82 56
38 80 55
37 79 53
35 75 50
34 72 48
32 69 46
29 64 43
28 62 42
23 52 34
46 76 56
69 104 80
63 95 74
64 96 75
63 95 73
63 95 73
59 89 69
59 89 69
60 90 70
62 93 72
61 93 72
61 92 71
64 96 75
68 102 79
62 94 73
62 94 73
63 94 73
60 90 70
65 98 75
63 95 74
65 98 76
64 96 75
62 94 73
71 106 82
66 100 77
64 97 75
66 100 77
61 92 71
65 98 76
63 95 73
63 95 74
68 102 79
69 103 80
62 94 73
65 98 76
64 96 75
66 100 77
66 99 77
67 101 78
66 100 77
62 94 73
63 95 73
61 93 72
63 94 73
65 97 76
64 96 74
65 97 75
64 96 75
66 99 77
64 96 74
61 93 72
66 98 76
80 105 83
211 188 168
232 204 183
239 211 190
248 205 174
255 171 78
255 169 66
255 169 67
255 170 67
255 170 67
255 170 67
255 170 67
255 170 67
255 170 67
255 170 67
255 169 67
255 169 67
255 169 67
255 168 67
255 168 67
255 168 66
255 167 66
255 166 66
255 166 66
255 165 66
255 164 65
255 163 65
254 162 64
254 161 64
251 159 63
249 158 62
248 157 62
243 154 61
238 150 59
231 146 58
221 138 54
197 127 53
84 98 73
63 95 73
66 99 77
62 93 71
65 97 75
65 97 75
66 98 76
67 100 77
62 92 71
65 97 74
62 93 71
61 90 70
60 90 70
62 93 72
63 94 73
65 96 74
61 91 70
70 104 80
62 93 72
69 103 79
64 95 74
63 94 72
63 94 72
58 86 66
57 84 65
60 90 70
65 97 74
59 88 67
56 84 64
60 89 68
59 87 67
60 89 68
66 98 75
61 91 69
63 92 70
63 93 71
58 86 65
62 92 71
61 90 68
65 95 72
66 96 73
61 90 69
60 89 69
58 86 66
63 93 71
63 92 70
63 93 71
63 93 71
59 87 66
60 87 67
67 98 75
60 87 65
59 86 65
60 88 66
58 85 65
58 85 65
62 91 69
62 91 69
60 87 66
61 90 69
58 85 65
62 90 69
61 89 68
61 89 68
59 87 67
66 96 73
59 86 65
59 86 65
61 88 67
62 91 70
62 90 68
59 86 66
62 91 70
61 89 67
60 88 67
61 91 69
62 90 69
62 92 70
59 88 67
61 90 69
60 87 66
62 92 70
67 98 75
63 94 72
62 92 70
61 91 69
66 98 75
61 90 69
61 90 69
61 91 69
59 89 68
62 93 72
61 91 70
66 99 75
61 91 69
62 93 71
65 97 75
64 95 73
59 88 68
60 90 69
60 90 69
62 92 71
61 91 70
62 93 71
60 91 70
66 98 76
62 93 72
59 88 68
62 93 72
65 98 76
65 98 76
62 93 71
64 96 74
67 100 77
62 94 72
63 95 74
63 95 73
65 97 75
67 100 78
64 96 74
61 92 71
64 96 74
66 99 76
64 96 74
62 93 72
66 99 77
60 91 71
64 96 74
66 100 78
60 90 70
62 93 72
61 92 72
63 95 74
64 97 75
67 100 78
58 88 68
61 92 72
69 104 81
62 94 73
64 97 75
65 98 76
65 99 77
59 89 69
62 94 73
63 95 74
64 97 75
62 93 72
62 93 72
64 97 76
61 92 71
64 97 75
61 91 71
65 98 76
60 90 70
60 90 70
103 100 71
153 114 70
158 118 73
159 119 73
160 119 74
161 120 74
160 119 74
159 119 74
159 119 74
164 124 80
168 130 87
167 130 87
159 122 80
154 117 74
150 113 70
148 111 69
144 109 67
144 108 67
140 106 66
138 104 65
134 102 63
133 101 63
127 97 60
122 93 58
119 91 57
116 89 56
115 88 55
109 85 53
99 78 49
92 73 46
87 70 44
84 68 42
83 67 42
77 63 39
79 64 40
65 58 36
61 89 69
64 96 74
60 91 71
68 103 80
62 93 72
62 94 73
62 94 73
66 99 77
61 93 72
56 85 66
60 91 71
63 95 74
61 93 72
58 88 68
63 96 74
65 98 76
67 101 79
66 100 78
66 99 77
62 94 73
63 95 74
59 90 70
63 96 74
60 90 70
64 97 75
64 97 76
64 97 76
66 100 78
59 90 70
64 96 74
63 95 73
60 91 71
66 100 78
69 104 81
60 90 70
62 94 73
63 95 74
65 99 77
59 89 69
61 92 71
64 97 75
58 88 68
58 88 69
64 97 75
63 96 75
59 90 70
57 86 67
61 92 72
64 97 75
63 95 74
62 95 74
56 85 66
65 98 76
63 95 74
62 94 73
58 88 68
62 94 73
61 93 72
62 94 74
60 91 71
61 93 72
61 92 72
64 97 76
64 97 76
61 92 71
60 91 71
60 91 71
60 91 71
57 86 67
59 89 69
65 99 77
59 90 70
62 94 73
64 96 75
58 88 68
58 89 69
38 79 54
39 81 55
41 84 57
40 84 57
43 89 61
43 90 62
43 90 62
44 91 62
45 92 63
45 93 64
45 94 64
45 93 64
45 94 64
45 95 66
45 94 64
45 95 65
45 96 66
44 95 66
45 96 66
45 96 66
45 96 66
44 95 66
44 93 64
44 95 65
43 92 64
44 93 65
43 92 64
42 90 62
43 91 62
42 88 60
41 87 59
41 87 59
39 84 57
40 84 57
38 80 54
38 79 53
37 78 53
34 73 49
35 74 50
33 69 46
31 67 45
28 61 41
27 59 40
23 51 33
44 70 53
67 101 79
62 93 72
62 93 72
64 96 74
63 95 73
63 95 73
64 96 74
62 93 72
63 95 74
63 95 73
62 93 72
60 90 70
68 102 79
66 99 76
65 98 75
64 96 75
63 95 73
62 93 72
60 91 71
66 99 76
64 96 74
68 102 79
63 95 73
67 101 78
70 105 81
69 104 80
62 93 72
65 98 76
65 97 76
67 101 78
65 97 76
67 101 78
64 97 75
63 94 73
63 95 74
62 94 73
61 92 71
64 96 74
64 96 75
63 94 73
67 101 78
66 99 77
69 103 80
69 104 81
63 95 74
62 93 72
61 92 72
65 98 76
67 100 77
64 97 75
74 102 81
186 169 148
229 201 179
236 208 187
244 204 175
255 173 88
255 169 66
255 169 67
255 169 67
255 170 67
255 170 67
255 170 67
255 170 67
255 170 67
255 170 67
255 170 67
255 169 67
255 169 67
255 169 67
255 168 67
255 168 67
255 167 66
255 167 66
255 166 66
255 166 66
255 165 65
255 164 65
255 163 65
254 162 64
253 160 64
252 160 63
248 158 62
248 157 62
244 155 61
236 149 59
235 148 58
226 142 56
214 134 53
191 126 58
72 98 74
66 99 77
66 99 77
59 88 68
64 96 74
65 97 75
67 99 77
64 97 75
72 107 83
66 99 76
67 99 77
64 96 74
64 95 74
65 96 73
61 91 70
58 86 67
64 96 74
63 95 73
64 94 72
65 97 75
69 103 79
66 98 75
65 97 74
63 94 72
64 96 74
66 98 75
64 94 73
65 97 74
63 93 71
60 88 68
57 85 65
64 95 73
59 88 67
64 94 72
60 89 68
60 89 68
64 94 71
64 95 73
61 90 69
58 85 66
57 84 64
61 91 70
65 96 74
61 90 69
65 96 74
58 85 66
63 93 71
64 94 71
63 92 71
60 89 69
63 93 71
64 93 71
63 93 71
65 94 72
60 87 67
58 85 65
62 90 69
59 86 65
57 83 63
60 88 67
59 87 66
59 87 67
62 92 70
62 92 70
61 90 68
58 85 65
58 85 65
59 86 65
59 86 65
63 93 71
58 85 64
61 89 68
63 92 70
64 94 72
60 87 67
61 90 69
66 96 73
63 92 70
58 87 66
58 85 65
62 92 70
63 94 72
63 92 71
59 87 66
64 95 73
65 96 74
62 92 71
61 91 70
60 89 69
60 89 68
58 87 67
59 88 68
63 94 72
61 91 70
66 99 76
64 96 73
63 94 73
63 94 72
59 87 67
62 93 71
64 95 73
65 98 75
63 95 73
62 93 71
63 95 73
62 93 72
62 94 72
62 93 72
59 89 69
60 90 69
66 99 76
66 98 76
68 102 79
62 93 72
61 92 71
63 95 74
59 89 69
59 89 69
61 91 70
67 101 78
62 93 72
64 96 74
60 90 70
58 88 68
61 91 71
60 90 70
65 97 76
65 98 76
65 98 76
60 90 70
64 96 75
63 96 74
62 93 72
63 95 73
60 91 71
57 85 66
63 94 73
66 99 77
66 99 77
63 95 74
61 92 72
61 92 72
63 94 73
65 97 75
70 106 82
61 92 71
63 95 74
59 90 70
67 101 78
64 96 74
63 95 74
61 93 72
61 92 72
102 99 70
152 114 71
157 117 73
159 119 73
160 119 74
159 119 74
161 120 74
159 118 73
159 119 74
162 123 79
168 130 87
169 131 89
162 125 82
155 118 75
150 112 70
148 111 69
148 111 69
143 108 67
144 109 68
140 105 65
135 103 64
133 101 63
129 98 61
123 94 58
122 93 58
118 90 56
112 87 54
109 84 53
102 80 50
92 73 46
90 72 46
82 66 41
82 66 41
74 61 37
76 62 38
71 63 40
64 93 72
59 89 69
64 97 75
63 96 74
67 101 78
64 97 75
64 97 75
64 97 75
63 94 73
64 96 75
62 94 73
61 92 72
59 89 69
65 98 76
62 94 73
59 88 68
62 93 73
58 88 68
58 88 68
63 95 74
62 94 73
64 96 74
62 93 72
61 93 72
59 90 69
59 89 69
63 95 74
61 92 72
64 96 75
63 94 73
63 95 74
66 100 78
61 93 72
65 99 77
68 102 80
67 101 78
62 94 73
63 95 74
59 89 69
57 86 66
61 92 72
57 86 67
62 94 73
62 93 73
65 98 76
59 90 70
58 87 68
60 90 70
59 90 70
56 84 66
63 95 74
62 94 73
61 92 71
58 87 68
63 95 74
61 92 72
63 95 74
61 93 72
61 92 71
63 96 75
58 88 69
61 92 72
62 93 73
59 90 70
64 97 76
64 96 75
64 96 75
61 93 73
60 92 72
59 89 69
56 85 67
58 88 69
62 93 73
56 85 67
59 90 70
60 91 71
60 90 71
36 76 52
38 79 54
39 81 55
41 85 58
42 86 59
42 85 58
43 89 61
43 88 60
43 88 60
44 91 63
43 90 62
44 90 61
44 92 63
45 93 64
44 92 63
45 95 65
44 94 65
44 93 64
44 94 65
44 94 65
44 94 64
43 92 63
43 92 63
43 91 63
42 90 62
43 91 63
42 89 61
42 89 61
41 88 61
41 87 60
40 85 58
40 85 58
39 81 55
38 81 55
37 79 54
36 77 52
35 74 50
34 74 50
34 73 49
31 66 44
29 62 41
27 58 39
22 49 32
22 48 31
47 74 55
63 95 74
64 97 75
66 100 77
63 94 73
66 99 76
63 95 74
65 97 75
61 92 71
65 97 75
67 101 78
62 93 72
62 93 72
64 97 75
63 94 73
67 100 77
63 94 73
66 99 77
62 94 72
64 97 75
64 96 74
61 93 72
66 99 77
61 92 71
71 106 82
64 96 74
65 98 76
66 99 77
65 98 76
64 96 74
61 92 71
66 99 77
65 97 75
63 95 74
66 99 76
70 105 81
67 101 78
62 94 72
64 96 75
65 98 76
64 96 75
66 99 76
66 99 77
65 98 76
63 94 73
67 100 78
64 96 75
67 101 78
60 90 70
64 96 74
63 95 74
169 159 139
226 199 178
235 206 185
241 207 183
255 171 82
255 168 66
255 168 66
255 169 66
255 169 67
255 169 67
255 170 67
255 170 67
255 170 67
255 170 67
255 170 67
255 170 68
255 170 68
255 170 68
255 169 68
255 168 67
255 168 67
255 167 66
255 167 66
255 166 66
255 165 66
255 165 65
255 164 65
255 163 64
255 162 64
252 160 63
249 158 63
248 157 62
247 157 62
244 155 61
238 151 60
233 147 58
229 144 57
217 136 53
206 127 49
145 107 58
62 93 72
61 92 71
58 87 67
60 91 70
62 94 72
65 97 75
60 90 69
65 97 75
61 91 70
61 91 70
61 90 69
63 95 73
60 90 69
59 87 67
59 89 69
63 93 72
62 91 70
60 89 69
65 97 75
61 91 70
61 90 70
61 91 70
63 94 72
64 94 72
61 90 70
67 99 76
65 95 73
61 91 70
65 96 74
68 102 78
65 96 74
60 89 68
57 84 65
58 86 66
59 88 67
63 92 71
64 95 73
62 91 70
57 85 65
60 90 69
59 87 67
58 86 66
61 90 69
61 89 68
64 94 72
58 86 66
58 85 65
64 94 72
63 93 71
64 94 72
64 94 72
61 90 70
62 90 69
60 88 67
60 88 67
62 91 69
58 84 64
62 89 68
64 94 72
64 94 72
60 88 68
63 93 72
62 91 69
63 91 69
62 90 69
63 93 71
65 96 73
57 85 65
61 89 68
61 89 68
59 87 67
69 102 78
60 88 67
62 91 70
59 87 66
59 87 67
60 89 68
61 90 69
62 93 71
69 102 79
61 90 69
61 91 70
62 92 71
63 93 71
60 90 69
59 88 67
65 97 75
61 92 70
65 97 74
65 97 74
62 93 72
64 96 74
62 92 71
65 98 75
61 91 70
64 96 74
61 92 70
67 101 77
62 92 71
63 95 73
66 99 76
64 95 73
61 92 71
64 96 74
60 91 70
65 97 75
64 96 74
62 93 72
63 95 74
61 93 72
63 95 73
65 98 76
63 95 73
67 101 78
63 95 73
59 89 69
62 93 72
67 101 79
60 90 69
59 89 69
63 95 73
63 94 72
61 92 72
62 93 72
62 93 72
69 104 81
69 104 81
64 97 75
60 90 70
66 100 77
64 96 75
63 95 74
60 90 70
64 97 75
58 88 68
65 98 76
67 102 79
67 101 79
60 91 70
57 87 68
62 94 73
60 90 70
64 97 76
67 101 78
62 93 72
64 96 75
60 90 70
63 95 74
64 97 75
62 94 73
66 100 77
97 102 74
151 114 72
158 118 73
159 119 73
159 119 73
160 119 74
161 120 74
159 119 74
159 119 74
162 123 79
169 131 87
170 133 90
163 125 83
156 118 75
151 114 71
147 111 69
147 111 69
143 108 67
143 108 67
139 105 65
138 104 65
134 102 63
130 99 62
125 95 59
123 94 59
119 91 57
109 85 53
106 82 51
103 81 51
93 74 46
90 72 46
84 68 42
79 64 40
81 66 41
76 62 38
71 61 38
67 92 70
64 97 75
63 96 75
61 93 72
57 86 67
59 89 69
62 93 72
62 93 72
63 95 74
63 95 73
61 93 72
60 90 70
61 92 71
61 92 71
62 94 73
63 95 74
65 99 77
63 96 74
63 95 74
60 91 71
63 96 74
60 91 71
59 89 69
63 96 74
63 95 74
60 90 70
59 89 69
64 96 75
65 99 77
62 93 72
65 98 76
64 97 75
62 93 72
65 97 76
64 96 75
66 100 77
62 93 72
65 98 76
63 95 73
63 96 75
64 97 75
62 94 73
60 91 70
59 88 69
68 103 80
61 91 71
58 87 68
64 96 75
67 101 78
63 95 74
63 96 74
61 92 71
61 93 72
61 93 72
62 94 73
59 90 70
57 87 68
60 91 71
60 90 70
62 94 74
60 92 71
60 91 71
61 92 72
62 94 73
58 88 69
58 89 69
57 87 68
62 94 73
60 91 71
60 91 71
62 94 74
61 93 73
62 94 73
58 89 70
57 87 68
64 97 75
61 92 72
61 93 73
37 74 50
37 77 52
39 80 55
41 84 57
40 81 54
41 85 58
42 87 60
42 86 58
42 87 60
43 88 60
43 90 62
43 88 60
43 89 61
44 91 62
43 91 62
43 89 60
43 91 62
42 90 62
43 92 63
42 91 62
42 91 62
42 90 61
42 90 62
41 89 61
42 89 61
41 88 61
41 87 60
41 87 59
41 86 59
40 85 58
39 82 56
38 81 55
38 80 54
37 78 52
35 75 51
35 74 50
34 73 50
33 69 46
31 67 44
31 65 43
27 58 38
25 56 37
23 51 33
20 45 28
51 80 61
58 88 68
66 100 78
62 94 73
61 91 71
64 96 74
60 91 70
64 96 74
62 93 72
62 93 72
64 96 75
64 96 74
62 93 72
63 95 73
66 100 77
67 101 79
61 92 71
65 97 75
65 98 76
65 98 76
66 99 76
66 99 77
66 99 77
67 100 78
64 97 75
67 101 78
65 97 75
66 99 76
61 92 71
65 99 76
66 100 77
64 97 75
61 92 71
63 96 74
65 98 76
67 101 79
66 99 77
66 100 77
65 99 76
65 98 76
63 95 74
64 96 74
63 95 74
67 101 78
62 94 73
68 102 79
63 95 73
69 104 81
64 96 74
67 101 78
105 116 95
211 186 166
231 203 182
233 204 182
255 176 108
255 166 65
255 168 66
255 168 66
255 169 66
255 169 67
255 169 67
255 169 67
255 169 67
255 169 67
255 170 68
255 170 70
255 172 73
255 174 76
255 174 77
255 173 75
255 170 71
255 168 68
255 167 67
255 166 66
255 166 66
255 165 65
255 164 65
255 163 65
255 163 65
253 160 64
250 159 63
250 158 63
248 158 62
245 155 61
244 154 61
241 153 61
231 146 58
230 145 57
222 140 55
212 133 52
197 125 49
109 99 67
67 100 77
65 98 76
62 93 72
60 90 70
68 102 78
60 89 69
62 93 72
65 97 75
61 91 71
61 92 71
70 105 81
60 89 68
68 102 79
64 95 74
65 97 75
59 87 67
60 90 69
59 88 68
60 90 70
57 85 66
65 97 75
59 88 67
63 93 72
62 92 71
64 96 74
62 92 71
62 92 71
61 90 70
64 95 73
67 99 76
69 103 79
62 92 71
57 85 66
65 96 73
62 93 71
62 92 71
62 92 71
63 93 72
61 90 69
62 92 71
61 89 68
61 90 69
62 91 70
67 99 76
61 90 69
60 89 69
64 94 72
62 92 71
57 83 64
60 88 67
63 93 71
62 91 70
59 87 66
62 93 71
64 93 71
61 90 69
63 92 70
64 93 71
64 93 71
61 90 69
60 88 67
61 89 67
59 87 67
67 99 76
63 93 72
58 85 65
61 90 70
63 92 70
62 91 69
63 93 71
56 83 64
58 85 65
63 94 72
58 86 66
64 96 73
58 86 66
64 95 73
60 89 68
61 91 69
63 94 72
63 93 72
58 86 66
58 87 67
62 92 70
65 97 74
63 93 72
62 92 70
63 94 72
59 88 68
64 95 73
65 98 75
60 90 69
64 96 74
65 97 75
63 94 72
64 97 75
65 97 74
65 98 76
63 94 73
64 96 74
67 100 78
65 97 75
67 101 78
58 88 68
61 91 71
63 95 73
63 95 74
66 98 76
61 92 71
66 99 76
65 98 75
64 96 74
62 93 72
58 88 68
64 96 75
64 97 75
65 97 75
65 98 76
65 98 76
58 88 68
60 90 69
60 91 70
64 96 75
60 91 70
59 89 69
63 95 74
66 99 77
67 101 79
63 95 73
59 90 69
64 96 74
63 94 73
60 90 69
61 92 71
65 98 76
64 96 75
66 99 77
63 94 73
64 96 75
63 94 73
64 95 74
67 100 78
63 95 74
65 99 77
61 92 71
63 94 73
62 93 72
64 97 75
67 102 79
78 97 73
150 113 70
156 117 72
159 119 73
159 119 74
161 120 74
161 120 74
160 120 74
159 119 74
162 122 78
167 129 86
170 133 90
165 127 85
156 119 76
152 114 71
150 113 70
147 111 69
144 109 68
141 107 66
139 105 65
136 103 64
133 101 63
127 97 61
126 96 60
122 94 58
120 92 58
109 84 52
109 85 53
102 80 50
93 73 46
84 68 43
82 67 41
82 66 41
82 66 41
80 65 40
74 62 38
68 88 66
62 94 73
61 91 71
65 98 76
65 98 76
60 91 71
62 93 73
60 91 71
67 100 78
62 94 73
66 99 77
61 92 71
67 100 78
69 104 81
64 97 75
62 93 72
66 100 78
67 101 79
60 91 71
63 95 74
64 97 75
65 98 76
63 95 74
63 95 74
67 101 79
65 98 76
66 100 78
68 102 79
67 101 78
61 92 72
64 96 74
66 100 77
63 95 73
64 96 75
65 98 76
65 97 75
63 95 74
60 90 70
65 98 76
60 91 71
69 104 81
59 90 70
59 89 69
61 92 71
65 98 77
58 88 68
64 96 75
58 88 69
61 92 71
60 90 70
62 93 72
65 99 77
61 92 71
64 96 74
63 95 74
59 90 70
60 90 70
60 91 71
60 90 70
61 93 72
59 89 69
61 92 72
61 92 71
63 95 74
63 96 74
63 96 75
65 99 77
62 94 74
60 91 71
61 92 72
63 96 75
61 93 72
61 93 72
66 99 78
66 100 78
62 95 74
62 94 74
57 87 68
58 88 69
35 73 49
36 75 51
37 77 52
37 79 54
38 78 52
40 82 56
40 83 56
41 82 55
41 84 57
41 85 58
42 86 59
42 87 59
42 88 60
42 88 60
42 88 60
42 89 61
42 89 61
41 88 60
42 89 61
41 89 60
41 89 61
41 88 60
41 88 61
40 87 59
40 86 59
40 85 58
40 85 58
40 85 58
39 83 56
38 80 54
37 79 54
37 78 52
37 78 52
35 74 50
36 76 51
34 71 48
33 71 48
30 63 42
30 64 42
29 62 41
25 55 36
23 52 34
19 44 28
22 48 31
55 84 65
60 90 70
62 93 72
60 91 70
65 98 76
61 92 71
62 94 73
62 94 72
62 93 72
61 91 70
60 91 70
65 98 76
59 89 69
68 102 79
61 92 71
61 92 71
63 95 74
62 94 73
64 97 75
66 100 78
68 102 78
64 97 75
63 94 73
64 97 75
65 98 76
68 102 79
67 101 78
65 97 75
70 105 82
64 97 75
65 98 75
62 94 73
65 98 76
63 95 74
65 97 75
61 92 71
61 92 71
64 97 75
65 97 75
62 93 72
67 100 77
64 97 75
63 95 74
61 92 71
64 97 75
66 99 77
65 98 76
62 94 73
69 104 80
62 93 72
193 172 151
223 195 174
229 200 179
245 183 134
255 164 64
255 166 65
255 168 66
255 168 66
255 168 66
255 169 66
255 169 67
255 169 67
255 169 67
255 169 68
255 171 71
255 176 79
255 183 90
255 190 100
255 191 102
255 186 95
255 177 83
255 171 73
255 167 68
255 166 66
255 165 66
255 164 65
255 164 65
255 163 65
255 162 64
253 161 64
250 158 62
249 158 62
245 155 61
246 156 62
241 153 61
237 152 66
227 158 97
225 158 101
217 154 100
208 137 71
201 127 51
165 110 50
62 91 70
70 105 81
63 95 74
62 93 72
63 95 74
64 95 73
65 96 74
63 94 72
63 95 73
60 90 70
61 92 71
61 91 70
67 100 77
62 93 71
65 98 76
59 88 68
64 96 74
60 89 68
67 100 77
61 90 69
62 92 71
63 93 72
64 95 74
62 92 71
67 98 76
65 96 74
66 98 75
61 90 69
62 92 71
65 97 74
60 89 69
61 91 69
64 95 72
64 95 73
61 91 70
62 92 71
61 90 69
62 92 71
62 93 72
56 83 64
59 88 67
60 88 68
63 94 72
65 97 74
60 89 68
64 95 73
62 91 70
62 92 70
59 87 67
64 95 73
62 91 70
60 88 68
65 96 74
65 96 73
61 91 70
63 93 71
59 87 67
65 95 73
61 90 69
60 87 67
61 89 68
61 90 69
68 100 77
62 91 70
59 87 67
58 86 66
65 96 74
66 97 74
62 92 70
67 100 77
68 100 77
61 91 70
61 91 69
66 97 74
65 96 74
67 100 76
59 87 67
60 89 68
58 85 65
61 91 70
61 91 70
60 89 68
61 91 70
59 88 68
64 95 73
62 92 71
64 95 73
63 94 72
68 102 78
63 94 73
65 98 76
60 90 69
62 92 71
63 95 73
64 95 73
60 90 69
62 94 72
61 91 70
64 95 74
63 95 73
64 96 74
62 93 72
62 92 71
60 90 70
57 86 66
62 93 72
60 91 71
68 102 79
61 92 72
60 91 70
60 90 70
60 90 70
65 98 76
61 92 71
62 94 73
69 104 81
65 98 76
62 93 72
65 98 76
62 93 72
61 91 71
61 92 71
66 99 77
63 95 73
65 98 76
62 93 72
60 90 70
62 93 72
64 96 74
63 95 73
64 96 75
65 98 76
68 103 80
56 85 66
62 93 72
60 90 70
58 87 68
63 96 74
65 98 76
61 91 71
64 97 76
60 91 71
68 102 79
67 102 79
63 95 74
62 94 73
62 93 73
66 99 77
81 100 75
145 112 70
156 116 72
158 118 73
159 118 73
160 120 74
159 119 73
160 120 75
160 120 75
162 122 78
169 131 87
171 134 92
167 129 86
158 121 78
153 115 72
149 112 70
147 110 69
144 109 67
142 107 67
140 106 66
139 105 65
133 101 63
128 97 60
126 96 60
120 92 58
119 91 57
115 88 55
107 83 52
103 80 50
98 77 49
91 73 46
88 71 45
78 64 40
85 68 43
78 63 39
75 62 38
66 83 62
65 99 77
60 90 70
66 99 77
60 91 71
64 96 75
58 87 68
64 97 75
65 98 76
62 93 73
58 88 68
64 97 75
68 103 80
62 94 73
64 97 76
58 88 69
64 96 74
61 92 72
62 93 72
62 94 73
60 91 71
64 97 75
61 93 72
67 101 79
62 94 73
62 93 72
65 98 76
66 99 77
61 92 71
63 95 74
65 97 76
64 96 75
58 88 68
60 91 70
62 94 73
63 95 73
63 95 74
64 96 75
65 99 77
60 91 71
67 101 79
63 95 74
60 90 70
62 94 73
65 99 77
60 91 71
65 98 76
63 95 74
63 96 74
62 94 73
66 99 77
60 90 70
64 96 75
63 96 75
70 106 82
68 103 81
62 93 72
65 98 76
63 96 74
56 85 66
57 87 68
62 94 74
62 94 73
62 94 73
60 91 71
62 94 73
65 99 77
61 92 72
61 93 73
61 93 73
59 90 70
58 89 69
62 94 74
57 86 68
58 89 69
58 88 69
55 84 66
67 102 80
58 88 69
57 87 68
33 67 44
35 71 48
35 72 48
36 74 50
37 75 51
38 76 51
39 80 55
39 81 55
40 83 57
40 82 56
41 85 58
41 84 57
41 85 58
41 86 58
41 86 59
41 86 58
41 87 59
41 87 59
41 86 59
41 89 61
40 86 59
39 84 57
40 86 59
39 84 57
39 84 57
39 83 57
38 80 54
38 81 55
38 81 55
37 79 53
36 77 52
35 75 50
36 76 51
34 72 48
32 69 46
31 67 44
30 64 43
30 64 42
27 58 38
26 57 37
24 53 34
22 49 32
21 47 30
24 49 33
53 81 64
59 90 70
61 92 72
58 88 68
58 88 68
62 93 72
62 94 73
63 95 74
62 93 72
62 94 72
63 95 74
61 92 71
65 97 75
64 97 74
64 96 74
60 90 69
62 93 72
65 98 75
61 93 72
71 107 83
67 101 78
64 96 74
65 99 76
66 100 77
68 103 80
62 94 72
65 98 76
62 93 72
63 95 73
64 96 74
64 96 74
64 97 75
64 96 74
65 99 77
66 99 77
63 94 73
68 101 78
68 102 79
63 95 73
62 93 72
63 95 74
65 98 76
64 96 74
67 101 78
64 96 74
60 91 71
64 96 74
69 103 80
65 98 76
139 134 114
210 186 165
222 195 174
233 192 162
254 160 65
255 164 64
255 166 65
255 168 66
255 168 66
255 168 66
255 169 66
255 169 66
255 168 67
255 169 67
255 170 70
255 176 79
255 188 97
255 205 119
255 217 133
255 216 133
255 205 120
255 189 100
255 175 80
255 168 70
255 166 66
255 164 65
255 164 65
255 163 65
255 163 64
254 162 64
254 161 64
249 158 62
247 157 62
246 155 61
241 167 103
227 182 148
217 190 169
214 190 172
209 184 166
201 180 163
196 173 155
187 158 136
183 131 90
110 98 63
62 92 71
62 94 72
66 99 77
68 100 77
61 92 71
66 98 76
64 96 74
67 100 77
67 100 77
63 95 73
68 102 79
63 94 73
68 102 79
67 100 78
61 90 70
63 94 73
63 95 73
67 101 78
60 90 70
64 96 74
69 103 79
62 92 71
65 97 75
62 93 72
64 94 72
69 103 79
66 97 75
61 90 70
62 92 71
58 86 66
65 97 75
57 85 65
61 91 70
65 98 75
61 91 70
63 94 72
62 92 71
62 92 71
67 99 77
64 94 73
58 87 67
65 97 75
62 92 70
60 90 69
64 94 72
67 98 75
62 92 70
61 90 69
57 85 65
60 89 68
61 91 70
65 96 73
61 90 69
62 92 70
63 94 72
58 86 66
65 97 75
60 88 67
67 99 76
64 94 72
67 99 76
60 88 68
62 91 70
64 94 72
62 91 70
62 92 71
61 92 71
65 96 73
66 97 74
64 95 73
66 97 74
62 92 71
62 91 70
64 95 73
62 92 71
63 93 71
60 89 68
62 92 71
68 101 78
66 99 76
64 94 73
58 86 66
60 90 70
61 92 71
62 92 71
61 91 70
64 96 74
66 99 76
65 98 75
64 96 74
60 90 70
61 91 70
65 97 75
70 104 80
60 89 68
61 92 71
64 96 74
62 93 72
63 94 73
61 92 71
61 92 71
62 93 71
65 98 75
62 94 72
65 98 76
63 95 73
62 94 72
59 88 68
60 90 70
60 90 70
61 91 71
67 100 77
67 101 78
61 92 72
61 92 71
61 91 71
60 90 70
66 99 77
60 90 70
64 96 75
61 93 72
60 90 70
63 95 74
59 89 68
64 96 74
61 91 71
63 96 74
65 97 76
64 95 74
67 101 79
61 93 72
59 89 69
59 88 69
60 91 70
62 93 72
62 94 73
67 101 79
61 92 71
64 97 75
69 103 80
62 93 73
67 101 79
62 93 72
61 92 71
64 97 75
65 97 76
73 98 75
143 111 71
156 117 72
157 117 72
159 118 73
160 119 74
160 119 74
160 120 74
159 119 74
162 122 78
170 132 88
173 136 93
168 131 88
159 121 78
152 115 72
151 113 70
147 111 69
144 109 68
142 108 67
141 107 66
137 104 64
132 100 62
131 100 62
123 93 58
121 92 57
119 91 57
113 87 54
108 84 53
103 81 51
98 78 49
94 75 47
89 72 45
82 67 42
84 67 42
78 63 39
72 59 36
63 76 56
62 93 73
66 100 78
60 91 71
62 94 73
61 91 71
64 97 75
63 95 74
60 90 70
61 93 72
63 96 74
59 90 69
59 89 69
60 90 70
65 97 75
64 96 74
66 100 77
59 90 70
57 86 67
57 86 67
58 87 68
62 93 72
63 96 74
61 93 72
65 99 76
63 95 74
64 97 76
58 88 68
61 91 71
66 99 77
60 91 71
64 97 75
61 92 72
64 97 76
63 95 74
68 102 79
64 96 75
65 98 76
64 96 74
62 93 72
63 96 74
62 93 73
62 93 72
63 95 74
59 89 70
62 93 73
61 92 72
58 87 68
65 98 76
59 90 69
64 97 75
62 93 72
59 90 70
61 92 72
62 94 73
63 95 74
63 95 74
59 89 69
67 101 79
69 105 81
61 93 73
62 94 74
59 90 70
66 99 77
65 97 76
59 89 70
56 85 66
65 99 77
60 91 71
65 98 76
57 87 68
56 85 66
58 88 69
58 88 69
59 89 70
60 92 72
58 88 69
63 96 75
60 91 71
62 94 74
59 91 71
31 67 45
33 68 45
34 70 47
35 71 47
36 74 50
37 77 51
37 76 51
38 79 54
39 80 54
39 80 54
38 79 53
39 81 55
39 80 54
40 82 55
40 84 56
40 83 56
40 86 59
39 84 57
39 84 57
38 83 56
39 83 56
39 84 57
39 83 57
38 82 55
38 81 55
38 82 55
38 80 54
37 78 53
36 77 52
36 77 51
34 73 49
34 73 49
33 70 47
32 69 46
30 65 42
31 66 43
29 64 42
28 59 39
25 55 36
22 50 32
20 47 30
19 44 27
18 42 25
35 58 43
49 75 59
56 85 66
53 81 64
58 88 68
56 84 66
61 92 71
64 97 75
59 90 70
60 91 70
65 98 76
59 88 68
61 92 71
64 96 74
66 100 77
62 93 71
61 92 71
68 102 79
67 101 78
63 95 73
68 102 79
68 102 79
67 101 78
65 98 76
60 89 69
64 96 74
68 102 79
61 92 71
62 93 72
66 100 77
65 99 77
66 99 76
65 97 75
64 96 75
66 100 77
64 96 74
65 99 77
59 89 69
66 99 77
65 98 76
62 93 72
61 92 71
64 96 74
62 93 72
62 93 72
63 94 73
68 102 79
66 99 77
67 101 78
75 107 84
191 172 152
215 189 168
226 196 174
248 163 85
255 161 63
255 163 64
255 166 65
255 167 66
255 167 66
255 168 66
255 168 66
255 168 66
255 168 66
255 169 68
255 172 73
255 181 88
255 203 116
255 226 143
255 240 159
255 238 157
255 219 137
255 196 109
255 178 86
255 169 72
255 165 67
255 164 65
255 164 65
255 163 65
255 162 64
254 161 64
253 160 63
248 157 62
240 174 119
227 191 164
223 199 182
223 198 180
216 192 174
212 188 170
207 185 167
200 177 160
199 176 159
185 164 147
177 158 143
152 125 99
66 99 77
66 99 76
62 93 72
68 102 79
67 100 77
64 95 74
68 102 79
64 96 74
66 98 76
63 94 73
64 95 73
61 91 70
61 92 71
65 97 75
62 93 72
60 91 70
62 92 71
64 95 73
66 99 76
61 92 71
61 91 70
63 95 73
65 97 75
58 86 67
57 85 66
61 90 69
64 95 73
63 93 71
65 97 74
63 94 73
62 92 71
59 89 69
64 95 73
61 91 70
62 92 71
62 92 71
61 91 71
61 91 70
59 88 67
59 87 67
60 89 68
65 96 74
61 91 70
61 90 69
64 94 73
64 95 74
61 90 69
65 97 75
64 95 73
57 85 65
63 94 72
63 94 72
68 100 77
65 96 74
59 87 66
58 85 66
61 91 70
63 93 71
66 97 74
64 94 73
61 90 69
62 91 70
63 92 71
67 100 77
60 89 68
63 93 72
66 97 75
63 94 73
62 92 71
62 92 71
59 88 67
68 100 76
63 94 73
59 88 67
61 90 69
64 95 73
62 92 71
64 95 73
64 95 73
63 93 72
67 100 77
59 88 68
63 94 73
63 93 72
61 91 70
60 90 69
62 93 72
65 97 74
61 91 70
65 98 75
60 90 69
63 95 73
63 94 73
64 96 74
69 103 79
62 92 71
62 93 72
61 91 71
64 95 73
59 89 68
62 94 72
64 97 75
61 92 71
64 96 74
61 91 71
63 95 74
60 91 70
67 101 78
62 92 71
60 90 70
61 93 72
59 88 68
61 92 71
67 101 78
62 93 72
63 95 74
66 99 76
63 94 72
63 94 73
64 97 75
62 93 72
60 91 70
59 89 69
62 94 73
65 98 75
62 94 73
63 95 73
72 108 84
64 97 75
66 99 77
64 96 74
69 103 80
66 99 77
68 102 79
68 103 80
66 100 78
67 100 78
59 89 69
62 93 72
65 98 76
61 91 71
67 101 78
62 94 73
68 103 79
67 101 78
68 97 75
137 109 70
158 117 72
158 118 72
159 118 73
159 119 74
159 119 74
160 119 74
159 119 74
161 121 77
167 129 86
175 138 94
169 132 90
161 123 80
151 114 71
150 113 70
147 110 69
146 110 68
143 108 67
141 106 66
136 103 64
133 101 63
131 99 62
126 96 60
125 95 60
121 93 58
113 87 54
109 85 53
103 80 50
103 81 51
93 74 47
87 70 44
88 71 44
75 61 37
79 64 40
69 57 34
65 73 52
62 94 73
64 96 75
63 94 73
63 95 73
56 84 65
65 98 76
59 89 69
60 91 71
57 86 67
61 92 72
57 87 67
69 103 80
63 95 74
59 89 69
61 93 72
67 101 79
63 96 75
59 90 70
63 95 73
61 93 72
62 93 72
61 92 71
63 95 74
62 93 72
66 99 77
64 97 75
65 98 76
68 103 80
64 96 74
61 91 71
60 90 70
65 98 76
61 92 72
64 96 75
61 93 72
57 86 67
62 94 73
58 88 68
65 98 76
58 88 68
60 91 71
61 93 72
65 98 76
60 91 71
59 90 70
59 89 69
62 94 73
64 97 75
68 103 80
63 96 74
65 97 76
59 90 70
65 98 76
60 91 70
60 90 70
62 93 73
59 90 70
64 97 76
61 92 72
62 93 72
64 97 75
64 97 75
62 93 73
57 87 68
61 93 73
63 96 75
58 89 69
61 92 72
59 89 70
63 95 75
61 92 72
62 94 73
60 91 72
60 91 71
60 91 71
63 95 74
57 87 68
59 90 71
59 90 70
59 89 70
58 89 70
29 60 39
30 64 43
32 67 45
33 67 44
34 71 48
35 72 48
36 74 50
36 75 50
36 75 50
38 77 52
39 81 55
38 78 53
39 80 54
38 79 53
38 79 53
38 80 54
38 80 54
37 79 53
38 80 54
38 81 54
37 79 53
38 81 55
36 79 53
37 79 54
36 78 53
36 78 53
35 76 51
34 73 48
34 74 50
34 72 48
34 72 48
33 71 47
31 68 45
31 66 44
28 62 41
27 59 39
26 57 37
25 55 35
24 52 33
21 49 32
19 43 27
18 41 24
18 43 26
41 65 51
53 81 64
51 78 61
51 77 60
56 85 66
55 83 65
62 93 72
56 85 66
64 97 75
62 94 72
65 97 75
65 98 76
59 89 68
69 104 80
61 91 71
61 92 71
67 101 78
64 96 74
70 105 81
65 99 76
64 96 74
61 92 71
66 99 77
65 98 76
63 95 74
65 98 76
61 91 71
60 90 69
68 101 78
63 95 73
71 107 83
63 95 74
64 96 74
63 95 73
66 100 77
67 100 77
64 96 74
64 96 75
67 101 78
64 96 74
63 95 73
65 97 75
61 92 71
64 95 74
68 103 80
61 91 71
62 93 72
60 90 69
68 102 79
130 132 112
208 183 163
216 188 166
235 175 128
250 157 61
255 159 62
255 162 64
255 165 65
255 166 65
255 167 66
255 167 66
255 168 66
255 167 66
255 168 66
255 168 68
255 172 75
255 184 93
255 205 119
255 229 148
255 242 162
255 237 156
255 217 135
255 194 107
255 177 84
255 168 71
255 165 66
255 164 65
255 163 65
255 162 64
255 162 64
253 161 64
248 167 93
234 194 165
226 201 183
225 199 181
222 198 180
216 191 172
215 192 175
210 186 168
206 183 166
201 179 162
195 174 157
188 167 151
173 153 136
164 145 130
90 96 76
62 92 72
60 90 70
64 96 74
67 100 77
66 98 76
62 94 73
61 92 71
62 93 72
61 92 71
64 96 74
63 95 73
63 94 73
65 96 74
64 95 73
67 101 78
61 92 71
65 97 75
64 96 74
62 93 72
67 100 77
64 95 73
61 91 70
62 93 72
64 95 73
64 95 74
63 94 72
62 93 71
63 94 72
64 94 73
65 96 73
62 92 71
61 91 70
62 93 72
66 99 76
65 97 75
60 90 70
66 98 75
58 87 67
63 94 72
64 95 74
65 97 75
62 92 71
59 88 68
64 95 73
64 96 74
63 93 72
61 91 70
62 92 71
59 88 68
63 92 71
62 92 71
65 95 73
64 95 73
62 92 71
66 97 75
64 95 73
63 92 71
61 90 69
63 93 72
62 93 71
61 90 69
65 96 74
61 91 70
62 92 71
65 97 75
70 104 80
65 96 74
64 96 74
61 90 69
65 96 74
64 94 72
68 102 78
69 102 78
62 93 72
67 99 77
59 87 67
62 92 71
68 100 77
61 91 70
61 91 70
62 92 71
65 97 74
61 91 70
63 94 73
62 93 72
62 92 71
70 104 80
65 97 75
66 99 76
64 96 74
61 91 70
61 91 70
64 95 74
60 90 70
67 100 78
65 98 76
61 92 71
61 92 72
63 94 72
58 86 66
70 106 82
65 97 75
60 90 70
67 100 78
62 93 72
65 98 76
59 89 69
65 97 75
62 94 73
60 91 70
62 93 72
65 97 75
62 93 72
64 96 74
64 96 74
63 94 73
63 94 73
61 92 71
61 92 71
63 95 73
62 94 73
64 97 75
59 89 69
60 90 70
63 95 73
59 88 68
63 96 74
68 103 80
64 97 75
62 93 72
62 94 72
65 98 76
63 95 73
61 93 72
60 90 70
65 98 76
64 97 76
64 96 74
64 97 75
60 91 71
64 97 75
62 93 72
64 96 74
66 94 73
135 107 69
155 115 71
159 118 73
159 119 73
160 119 74
159 119 73
159 119 74
158 118 73
161 121 76
167 129 86
174 137 94
171 134 91
159 123 80
151 114 72
151 114 71
148 112 69
146 110 68
141 106 66
140 106 66
138 105 65
134 102 63
131 99 62
127 96 60
121 93 58
119 91 57
115 88 55
111 86 54
105 82 51
99 78 49
88 70 44
83 68 42
86 70 44
86 69 44
78 63 39
73 60 36
65 67 47
62 94 73
66 100 78
68 102 79
60 90 70
62 94 73
66 99 77
59 90 70
58 87 68
60 91 71
60 91 70
59 90 70
62 93 72
65 98 76
64 96 75
63 95 74
61 92 71
62 94 73
60 91 71
64 96 75
62 93 72
63 96 74
61 92 71
62 94 73
63 95 74
65 98 76
62 94 73
61 92 72
64 96 75
64 97 76
64 97 75
63 95 74
63 95 74
59 88 69
63 94 73
58 88 69
61 92 72
65 98 76
64 97 76
64 96 75
60 91 71
63 95 74
61 92 72
70 105 82
61 92 72
59 89 69
64 97 75
59 89 69
63 95 74
60 91 70
58 88 69
60 90 70
62 94 73
64 97 75
65 98 76
63 95 74
63 95 74
64 96 75
67 102 79
62 93 73
60 90 70
57 87 68
60 91 71
57 87 68
63 95 74
61 93 72
63 96 75
62 94 73
58 88 69
60 90 71
61 92 72
65 98 77
55 83 65
63 96 75
64 98 77
58 88 69
61 92 72
62 94 74
57 87 68
60 92 72
60 91 72
60 91 72
58 88 69
26 56 36
29 59 39
29 62 40
33 66 44
33 68 45
32 66 43
33 69 46
34 71 47
35 73 49
35 72 48
36 75 50
36 74 50
36 75 50
38 79 53
37 77 51
37 78 52
36 77 52
37 79 53
36 78 53
36 79 53
36 77 52
36 77 52
35 77 52
36 77 52
35 76 51
34 73 49
35 75 50
33 71 47
33 72 48
33 70 47
30 65 43
31 67 44
30 65 43
29 63 42
27 59 39
26 58 38
24 54 35
22 49 31
21 47 29
20 45 28
19 44 27
19 43 26
19 40 25
43 66 53
48 74 58
49 75 59
51 79 62
52 80 63
52 79 62
54 82 63
56 85 66
59 90 70
59 89 68
65 98 76
65 98 76
58 88 68
57 86 66
63 94 73
65 98 75
63 95 73
63 94 73
62 93 72
64 97 75
64 97 75
63 94 73
62 93 72
64 97 75
64 97 75
63 95 73
66 99 77
66 100 77
62 94 73
67 101 78
65 98 76
66 100 77
65 98 76
67 100 78
63 95 73
66 100 77
65 98 76
65 98 76
62 93 72
61 92 71
68 102 79
68 102 79
60 90 69
66 99 77
62 93 72
61 92 71
67 101 79
62 93 72
65 98 75
164 152 132
207 181 160
219 186 161
239 153 73
250 156 60
254 159 62
255 162 63
255 162 63
255 165 65
255 166 65
255 166 65
255 167 66
255 167 66
255 167 66
255 168 68
255 171 73
255 180 88
255 197 109
255 212 129
255 222 140
255 216 134
255 200 115
255 184 94
255 172 77
255 166 68
255 164 65
255 163 65
255 162 64
255 162 64
253 161 65
246 179 124
231 203 183
226 201 182
224 199 181
220 196 178
219 194 175
218 194 176
215 190 172
210 186 168
205 180 162
198 176 160
190 169 153
185 163 146
174 154 139
155 138 124
119 114 98
65 97 75
65 98 76
65 98 75
68 101 78
72 105 80
64 96 74
65 97 74
61 91 70
63 93 72
67 100 77
60 89 69
64 96 74
65 97 75
64 96 74
64 97 75
64 96 74
63 93 72
65 96 74
63 94 73
59 88 68
61 91 71
66 98 76
67 100 77
62 94 72
63 94 72
64 95 73
62 93 72
62 92 71
63 94 72
71 106 81
64 96 74
62 92 71
63 94 72
67 99 76
66 98 76
64 96 74
68 101 78
64 96 74
61 90 69
65 97 74
67 100 77
65 97 75
66 98 75
62 93 72
63 93 71
66 98 75
66 98 75
63 93 71
59 87 67
64 95 73
64 95 74
62 92 71
64 94 72
62 91 70
63 92 71
63 93 72
62 92 70
62 92 71
65 97 75
65 96 74
62 92 71
64 94 73
63 93 71
60 89 69
60 89 69
64 95 73
65 96 74
64 95 73
62 92 71
67 99 76
60 90 69
66 97 75
63 94 73
64 94 73
62 93 72
66 99 76
61 91 70
62 92 71
65 97 75
66 98 76
62 93 72
63 93 72
67 100 77
67 101 78
64 96 74
59 89 69
66 98 76
64 95 74
62 92 71
61 91 70
62 92 71
62 92 72
57 86 66
60 90 69
62 93 72
65 98 75
65 98 76
62 92 71
63 95 74
59 88 68
64 96 74
67 100 77
66 99 76
64 96 74
62 94 72
62 94 73
67 100 78
62 93 72
62 94 73
61 92 72
61 92 71
58 87 67
65 98 76
65 98 76
62 93 72
63 94 73
60 90 70
64 96 75
68 102 79
64 97 75
63 94 73
60 91 70
65 98 76
62 93 72
63 95 74
63 94 73
63 95 74
62 94 72
65 98 76
64 96 74
62 93 72
61 91 71
64 97 75
69 104 81
64 96 75
61 92 71
59 90 70
65 97 75
57 85 66
64 96 74
57 86 67
60 91 71
70 104 81
131 108 72
156 117 72
159 119 74
159 119 73
161 120 74
159 119 73
159 119 74
159 119 73
161 122 77
167 129 85
175 138 95
172 135 93
161 125 82
155 117 74
150 113 70
149 112 70
145 109 68
144 109 68
141 107 67
138 104 64
136 103 64
132 100 63
129 98 62
126 97 61
120 92 58
116 89 56
111 86 54
104 81 51
100 78 49
93 74 47
85 69 43
82 67 41
81 66 41
81 66 41
76 62 38
63 66 46
58 86 67
68 102 79
60 90 69
64 97 75
64 96 75
63 96 74
61 93 72
60 90 70
63 95 73
65 97 75
64 97 75
68 102 79
65 98 76
62 94 73
61 92 71
63 95 74
58 88 68
65 98 76
65 98 76
66 99 77
65 98 76
60 91 71
63 95 74
70 106 82
65 98 76
66 99 77
61 92 72
62 93 72
63 96 74
60 90 70
65 98 76
61 92 71
63 94 73
63 95 74
61 92 72
65 98 76
62 93 73
64 97 76
60 91 71
60 90 70
61 93 72
58 87 68
60 90 71
65 98 76
60 91 71
58 87 68
65 97 76
64 97 76
63 96 74
58 87 68
66 99 77
62 94 73
59 90 70
56 84 65
62 94 73
60 91 71
61 92 72
57 86 67
59 89 70
67 102 79
59 89 70
59 90 70
56 85 66
64 97 76
60 90 71
60 91 71
59 89 70
62 94 73
58 88 69
60 90 70
58 89 69
61 92 72
58 88 68
59 89 70
57 87 68
58 89 70
59 90 71
59 90 71
57 87 68
61 92 73
59 91 71
57 87 69
57 87 68
22 49 32
27 57 37
29 61 40
29 61 40
31 63 41
32 66 44
32 65 43
32 67 44
34 71 47
34 70 46
35 72 47
35 72 48
35 73 49
35 73 49
35 73 48
36 75 50
35 75 50
35 76 51
35 74 50
34 74 49
35 76 51
34 73 49
34 74 50
33 73 49
33 71 48
32 71 47
33 71 47
32 69 46
32 68 45
31 67 44
30 65 43
30 64 42
27 59 38
26 57 36
25 56 36
24 53 34
23 52 33
20 45 28
19 43 26
19 43 26
19 43 26
16 38 22
30 52 39
43 67 54
44 69 55
53 81 64
54 83 65
53 81 63
56 85 66
59 89 69
65 98 75
60 91 70
59 89 69
57 86 67
64 95 73
61 91 71
60 90 69
64 97 74
71 107 82
64 96 74
61 91 71
62 93 72
60 90 70
65 98 75
60 91 70
65 98 76
67 100 78
60 91 70
63 95 73
67 101 78
63 95 74
62 94 72
62 93 72
60 91 70
67 100 78
65 98 76
63 95 74
61 92 72
65 98 76
64 95 74
62 94 73
66 99 77
63 95 73
65 98 76
64 96 75
69 104 81
60 91 70
61 92 72
67 100 78
64 96 74
65 97 76
69 96 75
191 169 148
209 184 163
228 169 123
239 150 58
247 155 60
253 157 61
255 161 63
255 161 63
255 163 64
255 165 65
255 166 65
255 166 65
255 166 65
255 166 66
255 167 66
255 169 70
255 173 78
255 182 91
255 190 101
255 192 105
255 190 103
255 182 92
255 172 78
255 167 70
255 164 66
255 163 65
255 162 64
255 162 64
252 162 71
238 195 162
230 205 188
229 203 185
226 200 182
223 197 179
220 196 177
217 192 173
215 190 172
214 189 171
208 183 165
200 176 158
197 175 158
191 170 153
184 162 146
179 159 143
162 145 129
139 125 111
66 95 74
65 97 75
59 88 68
60 91 70
68 101 78
64 95 73
62 93 72
62 94 73
62 93 72
61 91 71
62 92 72
59 88 68
58 86 67
61 91 70
59 88 68
62 93 72
62 92 71
65 98 75
63 95 74
64 96 74
67 100 77
65 96 74
62 92 71
64 95 74
64 95 74
61 91 71
61 91 70
61 92 71
64 96 74
62 93 72
63 94 73
63 94 73
67 100 77
64 96 74
69 103 79
66 98 75
65 98 75
64 94 72
67 100 77
65 97 75
67 100 77
61 91 70
65 98 76
64 96 74
66 97 75
60 90 70
61 91 70
63 94 72
63 94 73
63 95 73
64 95 74
62 93 72
59 87 67
63 94 72
67 99 76
63 93 71
63 93 72
61 91 71
62 92 71
59 88 68
59 93 70
57 96 70
54 94 69
56 99 72
54 98 70
53 98 70
57 100 73
56 96 71
54 91 67
62 97 74
63 96 73
66 98 75
63 93 71
64 95 73
63 93 72
67 99 76
59 88 68
60 89 68
61 92 71
61 91 70
56 84 65
62 92 71
62 92 71
63 94 73
61 90 70
66 98 76
62 93 72
66 98 75
65 97 75
62 93 72
63 94 73
61 91 70
68 102 79
64 95 74
62 93 71
61 92 71
68 102 79
62 92 71
65 97 75
59 88 68
65 97 75
58 87 68
62 92 71
61 91 71
67 100 77
61 92 71
62 94 73
66 99 76
67 100 77
61 92 72
64 97 75
57 86 67
63 95 73
62 94 72
64 96 74
62 93 72
66 100 77
61 92 71
64 96 74
69 103 80
68 102 79
68 102 79
65 98 76
60 91 70
60 90 70
62 93 72
60 91 71
66 100 77
68 102 79
65 98 76
65 98 76
64 96 75
59 88 68
61 91 70
60 91 71
60 91 70
57 86 67
58 88 68
60 91 70
67 100 78
66 100 78
61 90 70
124 108 73
155 116 71
159 119 74
159 119 73
160 120 74
160 120 74
159 119 74
159 119 74
160 121 76
167 128 85
175 138 95
175 138 95
163 126 84
154 117 74
150 113 70
149 112 70
145 109 68
140 106 65
142 107 67
141 106 66
135 102 63
133 101 63
130 99 62
125 95 59
118 91 56
116 89 56
114 88 55
102 80 50
97 77 48
94 74 47
85 69 43
84 68 42
83 67 42
76 62 38
76 62 38
69 64 42
62 90 69
66 99 77
60 91 70
62 93 72
59 90 70
59 89 69
70 105 82
64 96 74
67 101 78
65 97 75
64 96 75
63 95 74
70 106 82
65 98 76
62 93 73
60 91 71
67 101 78
62 94 73
65 99 77
64 97 75
61 91 71
58 88 69
64 97 75
64 97 75
64 96 75
59 89 69
60 90 70
59 89 69
63 95 74
65 98 77
65 97 76
64 96 75
65 98 76
63 95 74
59 88 69
61 93 72
59 89 69
60 91 71
61 92 71
60 90 70
61 93 72
63 95 74
61 92 72
61 93 72
60 91 70
60 91 70
59 89 69
61 93 72
65 98 76
58 88 68
61 92 71
65 98 76
62 93 73
65 98 76
63 95 74
68 103 80
57 86 67
66 99 77
61 93 72
61 92 72
57 86 67
59 90 70
67 102 79
61 92 72
63 95 74
57 87 68
62 94 73
64 97 76
62 94 74
62 94 73
60 91 71
60 91 71
66 100 78
57 87 68
56 85 67
57 86 68
57 86 68
60 91 72
60 92 72
57 87 68
57 87 68
59 90 71
54 83 66
55 85 66
21 47 30
23 49 31
25 53 35
27 56 36
27 56 36
29 61 40
30 61 40
31 63 42
31 66 43
31 64 42
32 65 42
33 70 46
33 69 46
33 69 46
33 69 46
34 72 48
33 70 47
33 70 46
33 72 48
34 73 49
32 71 47
32 71 47
33 71 48
31 69 46
32 69 46
31 68 45
31 68 46
30 65 43
29 64 42
30 65 43
27 60 39
26 57 36
25 56 36
25 54 34
22 48 30
22 49 31
18 43 26
17 40 24
18 41 24
16 38 22
15 36 19
17 39 24
44 70 56
42 66 53
43 68 54
49 76 60
51 78 61
50 76 60
50 76 59
55 83 65
51 77 59
58 88 68
63 94 73
58 87 67
59 89 69
62 93 71
62 93 71
71 107 82
62 94 73
65 97 75
60 90 70
59 88 68
62 94 72
65 97 75
60 90 70
66 99 76
62 94 73
62 93 72
63 95 73
70 105 81
64 97 75
69 104 80
65 98 76
71 106 82
61 92 71
66 99 77
67 100 77
64 96 74
61 92 71
61 91 70
70 104 80
65 97 75
64 96 74
63 94 73
69 103 80
67 100 77
66 99 77
68 102 79
68 103 80
67 100 77
65 98 76
112 118 99
195 173 153
210 175 148
238 151 64
238 147 57
245 153 59
250 156 60
255 160 62
255 160 62
255 162 64
255 163 64
255 165 65
255 165 65
255 165 65
255 165 65
255 165 65
255 166 67
255 168 70
255 171 75
255 173 79
255 174 81
255 172 78
255 169 74
255 166 69
255 164 66
255 163 65
255 162 64
255 162 64
251 165 82
237 198 171
231 206 187
229 204 186
228 202 183
223 198 179
221 196 178
217 192 173
216 190 172
213 188 170
210 183 165
207 183 165
202 178 160
193 171 154
189 168 151
180 160 144
174 152 135
161 141 126
147 130 115
80 98 80
63 94 73
66 99 77
62 93 72
64 95 73
62 94 73
70 104 80
66 98 75
62 94 73
67 100 77
67 100 77
65 98 76
60 90 69
58 87 67
59 88 68
61 92 71
67 100 77
62 93 71
69 103 79
68 102 78
64 95 73
68 102 78
67 101 78
64 95 73
71 105 81
64 96 74
65 95 74
63 95 73
61 92 71
67 100 77
69 102 79
60 89 69
61 91 70
63 93 72
61 91 70
68 101 77
64 96 74
63 94 73
66 98 76
63 95 73
65 96 74
62 93 71
64 95 73
63 93 72
60 90 69
65 96 74
62 91 70
68 102 79
67 100 77
65 97 74
64 95 74
63 93 72
66 98 76
63 94 72
61 91 69
62 92 71
63 94 73
58 96 71
54 99 71
51 102 72
49 103 72
49 104 72
49 104 73
49 104 72
49 104 73
49 104 72
48 103 72
48 103 72
48 101 71
47 100 70
46 98 68
49 97 68
54 95 69
57 92 69
62 93 72
68 101 78
69 103 80
63 93 72
65 96 74
64 96 74
64 95 73
61 92 71
61 92 71
65 98 75
61 92 71
61 90 70
61 91 70
63 94 73
61 91 70
69 103 79
61 92 71
61 92 71
63 95 73
61 92 71
60 90 70
63 94 73
66 99 77
62 92 71
68 102 79
60 90 70
64 96 74
64 97 75
66 99 77
59 88 68
64 96 74
71 106 82
65 98 76
59 89 69
65 98 76
66 100 77
63 95 74
66 99 77
65 98 76
60 90 69
60 89 69
65 98 76
67 100 77
61 91 71
64 96 75
63 95 74
71 107 83
64 97 75
62 93 72
62 93 73
68 102 79
63 95 73
63 95 74
68 103 80
67 100 78
66 100 77
67 101 78
65 98 76
66 99 77
65 99 77
66 99 77
61 92 71
58 88 68
63 94 73
66 99 77
64 96 75
66 99 76
118 102 69
156 116 72
157 117 72
159 118 73
160 120 74
159 119 74
159 119 74
160 120 74
160 121 76
167 129 85
176 138 96
176 140 97
166 129 86
155 117 75
151 114 71
149 112 69
145 109 68
143 108 67
140 106 66
138 105 65
136 103 64
133 101 63
128 98 61
123 94 58
122 94 58
117 90 57
110 85 53
108 84 53
98 77 48
94 74 47
89 72 45
88 70 44
79 64 40
80 65 41
83 67 41
77 69 45
60 85 65
60 91 71
65 98 76
62 93 72
66 99 77
60 90 70
61 91 71
67 100 78
61 92 72
66 99 77
58 88 68
62 93 72
62 93 72
61 93 72
64 97 76
61 92 72
62 93 72
58 87 68
58 87 67
63 95 74
66 99 76
62 93 72
61 92 72
62 94 73
66 99 77
57 87 67
60 91 71
65 98 76
63 96 74
67 101 79
63 95 74
60 90 70
63 94 73
67 101 78
66 99 77
60 91 71
62 94 73
58 87 68
65 98 76
60 90 70
65 98 76
61 92 71
63 95 74
61 92 71
63 95 74
64 96 75
64 96 75
65 98 76
64 97 75
62 94 73
62 94 73
60 91 71
56 85 67
61 92 72
62 93 73
60 91 71
62 94 73
62 94 73
65 98 77
59 89 69
64 96 75
61 93 72
64 96 75
64 97 75
62 94 73
57 86 67
60 90 71
60 91 71
64 97 76
63 95 74
62 94 73
63 96 75
57 87 68
57 87 68
59 90 71
62 94 73
55 84 66
61 94 74
61 94 73
56 86 68
61 93 73
54 83 65
61 94 74
57 88 69
55 85 67
33 57 41
19 43 26
22 49 31
24 51 32
25 52 33
25 53 34
28 58 38
29 59 38
28 60 39
29 61 40
30 62 40
31 63 41
30 63 41
31 63 41
31 65 42
31 64 42
32 67 45
30 65 43
31 67 44
32 70 47
31 67 45
30 67 44
30 65 43
30 66 43
29 64 42
29 64 42
29 64 42
27 60 39
26 59 38
26 58 37
26 58 38
23 52 33
22 49 31
21 49 31
20 47 29
16 39 23
18 42 25
18 42 25
15 36 19
16 38 21
14 35 18
30 51 39
36 57 47
37 59 48
44 69 56
47 74 59
51 79 62
49 75 60
51 78 61
57 87 67
57 86 66
61 93 72
63 95 74
62 93 72
61 92 71
63 95 73
64 96 74
63 96 74
60 90 70
62 93 72
63 94 73
66 99 76
65 98 75
66 99 77
64 96 74
60 91 70
62 94 72
61 92 72
66 100 77
71 107 83
62 94 72
67 100 77
67 101 78
63 95 74
64 97 74
63 95 73
66 100 77
69 104 81
62 94 73
63 94 73
63 95 73
64 96 74
65 98 76
67 101 78
64 96 74
63 96 74
63 95 73
61 92 71
60 91 70
66 99 77
64 96 74
142 137 118
192 171 150
217 160 112
230 144 55
240 150 58
242 152 59
250 157 61
251 158 62
252 158 61
255 160 63
255 160 63
255 162 63
255 163 64
255 164 65
255 165 65
255 165 65
255 165 65
255 165 66
255 166 67
255 166 68
255 166 68
255 165 68
255 164 66
255 163 65
255 162 64
255 162 64
255 161 64
252 163 76
237 199 172
232 206 187
230 205 186
229 203 184
225 200 182
224 199 180
218 192 173
218 192 173
216 190 172
211 185 166
208 183 164
201 178 160
197 175 158
188 166 150
187 165 148
175 157 142
172 152 136
160 140 125
139 124 109
107 114 97
62 93 72
61 92 71
65 98 75
66 98 75
64 96 74
59 89 68
60 90 69
64 96 74
67 100 77
68 102 78
62 93 72
64 95 74
59 89 69
61 91 70
68 102 79
66 99 77
64 96 74
70 104 80
70 104 80
62 93 72
66 99 77
59 88 68
60 90 69
64 96 74
61 91 70
60 90 69
63 93 72
69 103 79
61 92 71
63 94 73
67 99 76
66 99 76
64 96 74
59 88 68
64 94 72
61 91 70
61 90 69
62 92 71
61 91 70
66 99 76
63 94 73
64 96 74
61 90 69
61 91 70
64 95 74
62 93 72
67 99 76
64 96 74
67 100 77
71 105 80
57 85 66
65 96 73
61 89 68
59 92 70
53 96 69
49 102 71
49 104 72
50 105 73
50 106 74
50 106 74
49 106 74
49 106 74
49 105 74
49 105 74
49 105 73
49 105 73
48 104 73
48 103 72
48 103 72
48 102 71
47 101 71
46 99 69
45 96 67
46 94 66
54 91 67
60 91 70
67 100 77
68 100 77
69 103 79
65 96 74
63 94 73
64 96 74
62 93 72
64 96 74
61 90 70
62 93 71
67 100 77
62 93 72
61 92 71
66 98 75
66 99 77
63 94 73
64 96 74
62 92 71
62 92 71
62 94 73
61 91 71
58 87 67
63 94 73
61 91 70
62 92 71
65 98 76
58 88 68
59 89 69
67 101 78
59 88 68
65 98 76
65 98 76
67 101 78
72 108 83
59 89 69
64 96 74
70 105 82
65 97 75
61 92 71
66 100 77
64 97 75
61 92 72
61 92 71
65 97 75
59 89 69
60 90 69
62 93 72
60 90 70
62 93 72
64 96 75
61 92 71
59 89 69
64 96 74
61 92 72
65 99 76
60 91 71
65 98 76
70 105 81
66 99 77
61 92 72
62 93 72
62 94 73
59 89 69
104 96 67
155 116 72
157 117 72
158 118 73
160 119 74
160 119 74
160 119 74
158 118 73
161 121 76
167 128 84
177 140 96
178 141 98
167 131 88
157 119 76
152 114 72
149 112 69
146 110 68
144 109 68
141 106 66
139 105 65
134 102 63
131 100 62
130 99 62
126 97 60
122 93 58
117 90 56
112 87 54
109 84 53
100 78 49
94 75 47
85 68 43
84 68 43
88 70 44
79 64 40
79 64 40
71 61 38
67 92 70
65 97 75
67 100 77
65 97 75
64 96 75
63 96 74
63 95 74
61 92 72
67 100 78
63 94 73
62 93 72
61 91 71
64 97 75
63 95 74
67 100 77
65 98 76
61 92 71
63 96 75
62 94 73
59 89 69
62 94 73
65 97 75
61 92 71
64 97 75
61 92 71
64 96 75
61 92 71
59 89 69
65 98 76
58 88 69
64 96 75
64 97 75
61 92 72
61 92 72
64 96 75
62 94 73
59 90 70
63 95 74
63 95 73
62 93 72
64 97 75
65 98 76
61 92 72
58 87 67
62 94 73
64 96 75
61 92 71
62 94 73
60 91 70
59 89 69
58 88 68
59 89 69
65 98 77
60 90 70
61 92 72
67 101 79
60 91 71
61 93 72
61 93 72
64 96 75
62 94 74
60 91 71
61 93 73
63 95 75
58 88 69
58 87 68
61 93 72
60 92 71
59 89 70
57 86 67
58 88 69
58 88 69
59 90 71
60 92 72
60 91 72
58 88 69
57 87 69
57 87 68
58 88 69
61 93 73
54 82 64
56 86 67
58 89 70
63 96 76
56 86 68
59 90 71
55 84 65
21 45 29
19 42 25
21 43 26
22 46 28
24 52 33
26 54 35
26 55 36
27 57 36
28 56 36
28 57 36
29 61 39
29 61 40
29 59 38
29 60 39
30 66 44
31 67 44
28 62 40
28 62 40
30 67 44
29 64 42
29 64 42
28 62 41
28 63 41
26 58 37
28 62 40
24 55 35
26 58 37
24 55 35
21 49 31
21 48 30
22 50 32
20 46 28
19 43 25
18 42 26
18 41 24
15 38 21
15 38 21
15 36 20
15 36 19
18 36 24
34 54 44
32 52 43
35 57 46
42 66 53
41 64 51
46 70 55
48 74 58
52 80 62
55 82 64
57 86 67
60 91 70
58 87 67
60 90 69
69 103 79
64 96 73
62 93 71
60 90 69
67 100 77
57 85 66
63 95 73
64 96 74
65 97 74
61 92 71
65 97 75
64 96 74
60 90 70
65 98 75
66 99 76
61 92 71
68 102 79
67 101 78
64 97 75
68 102 79
64 96 74
60 91 70
64 96 75
63 95 73
65 97 75
70 105 81
62 93 72
68 101 78
62 94 73
70 105 82
61 92 71
65 98 76
63 95 74
70 106 82
68 102 79
57 86 67
64 96 74
159 147 128
196 172 151
216 138 64
225 141 54
236 148 57
244 152 59
244 153 59
249 155 60
252 157 61
253 159 62
255 161 63
255 160 63
255 161 63
255 163 64
255 163 64
255 163 64
255 163 64
255 163 64
255 164 65
255 163 65
255 163 65
255 162 64
255 162 64
255 162 64
255 161 64
254 161 63
252 165 81
236 200 175
231 206 187
228 203 185
228 202 183
226 200 182
222 196 178
219 193 175
214 190 171
213 187 168
210 185 166
206 182 164
207 183 166
199 175 157
197 173 156
184 163 145
183 162 146
176 157 141
162 144 129
152 137 122
143 128 114
107 107 91
67 100 77
63 94 73
60 89 69
60 90 70
58 87 67
66 99 76
65 97 75
59 87 67
64 96 74
66 99 76
63 95 73
65 96 74
64 95 73
63 94 73
61 91 70
62 93 71
62 93 72
66 99 76
65 98 76
59 88 68
60 90 69
63 94 72
64 95 74
62 93 72
64 96 74
66 98 75
68 100 77
66 100 77
64 95 73
64 95 73
60 90 69
64 95 74
61 91 70
66 98 75
62 93 72
64 95 73
61 91 70
67 100 77
65 97 75
64 96 74
67 99 76
66 98 76
62 92 71
67 100 77
66 99 76
63 93 71
61 90 69
63 94 73
62 93 72
68 101 78
67 98 76
62 94 71
54 98 70
49 103 71
49 104 73
50 106 73
50 107 74
50 107 74
50 107 74
50 107 75
50 106 74
50 106 74
49 106 74
49 106 74
49 105 74
49 105 74
49 104 73
48 104 73
48 103 72
48 102 72
48 102 72
47 101 71
47 100 70
46 99 69
44 95 66
45 92 65
55 91 68
61 91 70
59 89 69
60 90 69
69 102 79
67 100 77
63 95 73
63 93 72
67 100 78
65 97 75
60 90 70
66 99 76
63 94 73
60 89 69
61 93 72
61 92 71
63 95 74
61 92 71
62 93 72
63 94 72
59 89 69
63 95 73
62 94 73
62 93 72
60 91 70
67 100 77
64 95 74
67 100 77
61 92 72
63 94 73
63 95 74
64 97 75
62 94 73
60 90 70
65 98 75
64 96 74
62 94 73
59 90 69
66 99 76
59 89 69
61 93 72
59 88 69
60 91 70
66 99 77
66 99 77
64 96 75
67 101 79
65 98 76
65 97 75
62 94 73
64 96 75
61 91 71
64 97 75
62 93 72
63 95 74
63 94 73
66 100 77
61 93 72
60 91 71
69 104 81
67 101 79
66 99 77
99 96 68
154 115 71
156 116 72
159 118 72
159 119 73
161 120 74
160 120 74
160 119 74
161 121 76
166 127 83
176 139 96
178 142 100
169 132 90
159 121 78
153 115 72
150 113 70
147 111 69
145 109 68
141 106 66
139 105 65
134 102 63
135 102 64
129 98 61
126 96 60
123 94 59
121 93 58
112 87 54
106 82 51
100 78 49
94 74 47
91 73 46
83 67 42
84 67 42
83 67 42
77 63 38
64 56 34
65 85 64
58 87 67
64 97 75
70 105 81
67 101 78
65 98 76
65 97 75
60 91 71
65 98 76
60 91 71
60 90 70
64 96 74
59 89 69
61 92 71
59 88 68
67 100 78
62 93 72
68 102 79
65 98 76
60 90 70
64 97 75
64 96 75
58 87 68
59 89 69
64 97 75
65 97 75
67 101 78
62 94 74
62 93 72
64 96 75
64 96 74
61 91 71
61 91 71
66 99 77
64 97 75
64 96 75
63 94 73
62 94 73
62 93 73
65 98 76
66 100 78
64 97 75
68 102 79
67 102 79
56 85 66
68 102 79
68 103 80
58 88 69
59 90 70
64 97 75
65 97 76
59 89 69
64 97 75
63 96 75
60 91 70
60 90 70
61 93 72
67 101 79
61 93 72
64 97 75
59 88 69
61 92 72
63 95 74
57 87 68
59 90 71
57 86 67
60 91 71
61 93 73
56 85 66
59 89 69
58 88 69
55 84 66
60 91 71
54 82 64
56 86 68
60 91 71
60 91 72
60 90 71
57 88 69
56 85 67
57 86 68
58 88 69
54 83 65
56 85 67
58 88 69
56 86 68
57 87 69
62 93 72
47 74 56
18 41 26
18 41 25
18 40 24
20 42 25
22 47 29
23 48 30
24 51 32
23 50 31
24 51 32
27 56 36
26 56 36
26 57 36
26 57 36
27 58 37
28 61 40
26 57 37
27 59 38
27 60 39
27 60 39
26 59 38
27 60 39
26 59 38
25 57 37
24 54 34
22 51 32
22 52 33
21 50 31
21 49 31
21 48 30
19 45 28
16 39 23
17 41 24
14 37 20
16 39 22
15 38 21
14 36 19
13 33 18
16 36 21
29 49 39
32 52 43
35 55 45
36 58 47
37 59 48
42 65 52
45 70 56
52 80 63
51 78 61
52 79 61
57 86 67
53 80 62
58 87 67
58 87 67
71 106 81
63 95 73
63 94 73
65 97 74
62 94 72
59 89 69
66 99 76
61 92 71
62 94 72
67 101 78
65 98 76
63 95 74
65 97 75
70 104 80
63 95 73
61 91 71
63 95 73
64 97 75
64 96 74
65 97 75
65 98 76
64 96 74
62 94 72
65 98 76
65 97 75
64 96 74
67 100 77
61 91 70
68 102 79
59 88 68
60 90 69
61 93 72
64 96 74
65 98 76
62 93 72
59 89 69
64 96 74
173 155 136
195 156 123
215 135 51
229 144 56
230 143 55
240 150 58
241 151 59
242 152 59
246 153 59
248 155 60
250 157 61
250 158 62
253 159 62
254 160 63
254 160 63
254 160 63
255 161 63
255 161 64
255 161 64
255 161 63
255 161 63
254 161 63
254 161 63
254 160 63
253 160 63
250 163 81
234 196 169
230 204 185
227 202 184
228 202 184
226 200 181
222 196 177
216 191 172
217 191 172
211 187 169
209 186 167
210 185 167
204 180 162
198 175 157
191 167 150
185 163 145
181 160 143
174 154 136
172 153 137
158 139 123
152 135 120
139 126 112
114 113 98
62 92 72
63 95 73
63 94 72
67 100 77
63 95 73
68 101 78
66 99 76
66 99 76
63 94 73
60 91 70
65 98 75
64 96 74
63 94 73
63 94 72
61 92 71
62 93 71
66 98 75
64 95 73
66 98 75
63 94 73
64 96 74
65 96 74
59 88 68
63 95 73
60 89 69
64 96 74
65 97 75
63 94 72
62 92 71
61 91 71
60 90 69
65 98 76
67 99 76
69 102 79
63 94 73
64 96 74
61 90 69
64 95 74
66 98 76
59 88 68
65 97 75
69 102 79
62 92 71
60 89 69
61 91 70
65 97 75
60 90 70
63 93 72
61 92 71
66 98 76
56 96 70
48 100 69
49 104 72
50 106 74
50 107 74
50 107 75
50 107 75
50 107 75
50 107 75
50 107 75
50 107 75
50 107 75
50 106 75
49 106 74
49 106 74
49 105 74
49 105 74
48 104 73
48 104 73
48 103 72
48 102 72
47 101 71
47 100 70
46 100 70
46 97 68
45 96 67
43 93 65
49 94 67
59 92 70
66 98 76
67 100 77
67 99 77
62 93 72
61 91 70
59 89 69
58 87 67
62 94 72
60 90 70
61 91 70
60 90 69
61 92 71
63 94 73
66 98 76
63 95 73
69 103 80
69 103 79
59 89 69
59 88 68
61 92 71
61 92 71
64 97 75
65 98 76
64 97 75
65 98 75
66 98 76
68 102 79
68 102 79
66 99 76
62 93 72
64 96 75
64 96 74
61 92 71
65 98 76
62 94 73
60 90 70
63 94 73
63 95 74
66 100 77
60 90 70
64 96 74
63 94 73
61 92 72
65 98 76
67 100 77
63 95 74
68 102 78
72 108 83
66 98 76
61 93 72
60 91 71
60 91 70
63 95 74
61 92 71
63 95 74
59 88 68
67 100 78
66 100 77
93 102 75
152 114 71
158 117 72
158 118 73
160 119 74
160 119 74
158 118 73
160 119 74
161 121 75
166 127 83
177 139 97
181 144 102
172 135 92
159 121 79
151 114 71
149 112 70
146 110 68
144 108 67
143 108 67
139 105 65
137 104 65
132 100 62
130 99 62
128 97 61
125 96 60
117 90 56
113 87 55
107 83 52
100 79 50
92 73 46
91 73 46
88 71 45
83 67 42
79 65 40
74 60 37
69 58 35
66 84 63
63 95 74
58 88 68
63 95 74
64 96 75
62 93 72
62 94 73
63 95 74
58 87 67
60 90 70
65 99 77
63 95 74
65 98 76
66 100 78
62 93 72
61 93 72
65 98 76
63 95 73
68 102 79
66 100 77
64 96 74
65 99 77
65 97 76
61 92 71
62 94 73
61 92 71
71 106 82
67 101 78
67 102 79
64 96 74
62 93 72
67 100 78
61 93 72
61 92 71
64 96 74
58 88 69
64 96 75
64 97 75
62 94 73
68 102 79
58 88 68
58 88 68
58 87 68
62 93 72
61 92 71
58 88 69
62 93 72
57 86 67
60 91 71
66 99 77
65 98 76
62 94 73
64 97 76
64 96 75
60 91 71
61 93 72
60 90 70
60 91 71
65 98 76
60 91 71
65 98 77
60 90 71
60 91 71
57 87 68
65 98 76
61 93 73
61 92 72
58 88 69
60 91 71
58 88 69
57 86 67
58 88 69
56 86 67
55 84 66
55 84 66
56 85 66
60 91 72
56 85 67
57 86 68
54 82 64
55 84 66
55 85 67
56 85 67
53 81 64
55 84 67
55 84 66
56 86 68
52 80 63
54 82 63
49 74 57
34 58 42
16 39 23
16 38 22
18 38 22
19 40 23
20 41 24
19 39 23
20 43 26
23 49 30
22 47 29
23 51 32
25 53 34
23 50 31
24 53 34
24 54 34
24 53 33
24 55 35
25 56 36
25 56 36
24 56 36
23 53 33
22 52 33
21 50 32
20 48 29
21 50 31
19 45 27
18 42 26
18 43 26
16 40 24
16 40 23
15 37 20
14 36 20
14 36 19
15 36 19
15 37 20
13 34 18
14 34 19
27 46 35
31 50 41
34 55 45
31 50 40
35 56 45
38 60 49
39 61 49
47 72 57
47 73 58
52 80 62
50 76 59
53 80 62
58 88 68
61 92 71
65 98 75
63 94 72
61 92 71
62 93 71
67 101 78
60 90 69
66 98 76
62 94 72
62 94 72
60 90 69
63 94 73
63 94 73
65 97 75
61 92 71
68 102 79
61 92 71
68 102 79
65 98 76
65 98 75
63 95 73
67 101 78
63 94 73
70 105 81
66 100 77
61 91 71
64 97 75
59 89 69
62 92 72
64 97 75
60 90 70
64 97 75
66 100 77
62 93 72
68 102 78
61 92 71
64 95 74
60 90 70
68 100 77
174 154 134
198 143 95
218 137 53
218 137 52
228 143 55
232 146 56
237 148 57
241 151 59
242 152 59
246 154 60
249 157 61
251 157 61
248 156 61
248 156 61
251 158 62
252 158 62
251 158 62
251 158 62
252 159 62
252 159 63
254 160 63
250 157 62
249 157 62
250 158 62
249 158 65
233 189 157
225 200 181
226 201 182
226 201 182
224 199 181
223 197 178
221 195 177
214 188 169
212 188 169
208 184 166
204 181 162
200 177 158
197 172 154
196 172 155
194 171 154
186 165 148
177 157 140
171 153 138
160 142 126
152 137 123
147 130 115
125 113 99
108 102 87
63 94 73
60 89 69
67 100 77
65 98 76
62 92 71
64 95 73
65 98 75
66 100 77
62 93 72
66 99 76
63 94 72
64 96 74
65 97 75
63 94 72
64 96 74
71 106 81
64 96 74
66 99 76
60 91 70
63 95 73
66 99 76
69 102 79
61 90 69
64 96 74
64 96 74
62 93 72
67 99 76
62 93 72
68 102 78
63 94 72
73 109 85
62 92 71
65 97 75
68 101 78
64 96 75
65 97 75
63 94 73
63 94 73
69 103 79
68 101 78
67 100 77
67 101 78
63 94 73
64 96 74
62 92 71
65 96 74
67 99 77
72 108 84
63 96 73
53 99 70
48 102 70
49 105 73
50 106 74
50 107 75
50 107 75
50 107 75
50 107 75
50 107 75
50 107 75
50 107 75
50 107 75
50 107 75
50 106 75
49 106 75
49 106 74
49 105 74
49 105 74
49 105 74
48 104 73
48 103 73
48 103 72
47 102 72
47 100 70
46 100 70
46 99 69
45 97 68
44 95 67
44 94 66
42 89 62
52 88 65
63 95 73
63 94 73
60 90 70
65 97 75
62 93 72
64 95 73
64 96 74
62 93 72
62 93 72
62 94 73
65 97 75
65 98 76
63 94 72
61 92 71
67 101 78
60 90 69
62 92 71
60 91 70
64 97 75
63 94 73
61 93 72
64 96 74
61 91 70
66 99 76
62 94 73
63 95 74
63 95 73
64 95 74
60 90 70
65 98 76
65 98 76
62 94 73
62 94 73
63 95 73
66 99 77
64 97 75
62 93 73
63 94 73
67 100 77
67 100 77
62 93 72
61 91 70
69 104 80
63 95 73
64 96 74
61 92 71
62 93 72
68 102 79
63 94 73
65 98 76
64 97 75
64 96 74
64 96 75
63 95 73
62 93 72
62 93 72
89 101 74
150 114 72
157 117 72
159 118 73
160 119 74
159 119 74
160 120 74
159 119 73
159 119 74
165 126 81
176 139 96
182 146 103
172 136 94
160 123 80
152 115 72
147 111 69
148 111 69
144 109 68
142 107 66
138 104 65
137 104 65
131 100 62
128 98 61
127 97 61
123 94 58
118 90 57
113 87 54
109 85 53
103 81 51
95 76 48
89 71 44
87 70 44
84 68 42
77 63 39
74 60 37
68 57 34
69 83 61
63 95 74
66 100 78
62 93 72
61 92 71
59 89 69
64 96 74
65 97 76
61 92 72
64 97 75
66 100 78
63 95 74
62 93 73
62 94 73
66 100 77
68 102 79
65 98 76
62 93 72
65 98 76
62 94 73
64 96 75
62 94 73
69 104 80
67 101 78
60 90 70
60 91 71
65 98 76
66 99 77
62 94 73
62 94 73
62 93 73
64 97 75
62 94 73
65 98 76
61 92 71
64 97 75
60 90 70
60 90 70
61 92 71
62 93 72
67 102 79
61 92 71
60 90 70
59 90 70
62 94 73
61 93 72
65 99 76
63 95 74
62 94 73
68 102 79
64 97 75
65 98 76
61 93 72
60 91 71
60 91 71
65 98 76
60 90 71
61 93 73
62 94 73
59 89 69
64 96 75
64 97 75
57 87 68
61 92 72
58 88 69
60 91 71
59 90 71
61 93 73
58 87 68
57 86 68
54 82 65
56 86 67
53 82 64
57 87 68
59 91 71
56 85 67
57 87 69
55 84 66
57 86 68
56 85 67
52 79 63
56 86 68
57 87 69
54 83 65
60 93 73
56 85 67
56 85 68
59 90 72
54 83 66
59 90 70
54 82 64
49 75 58
21 41 27
16 38 22
17 38 21
16 35 19
18 38 22
18 39 23
16 37 20
18 40 23
20 45 27
22 48 31
21 46 29
21 47 29
22 50 31
23 52 33
22 51 32
20 48 29
20 47 29
21 50 31
21 49 30
20 48 29
20 48 29
19 46 29
19 45 28
18 44 27
17 42 25
17 42 24
16 41 23
15 38 21
15 37 21
14 37 20
14 36 19
13 35 18
14 36 19
12 32 16
12 32 16
20 37 28
29 47 38
31 49 40
30 48 39
34 54 44
35 56 46
39 62 50
38 59 47
42 65 51
45 70 55
53 81 63
52 79 61
57 86 66
59 89 69
56 84 65
61 92 71
62 93 71
63 94 72
67 101 77
63 94 73
58 86 66
65 97 75
63 95 73
59 89 68
64 96 74
56 85 65
65 98 76
66 99 76
60 90 70
61 92 71
65 98 76
64 96 74
68 102 79
66 99 77
62 94 72
70 104 80
63 95 73
68 102 79
64 96 74
62 92 71
63 94 73
64 96 75
65 98 76
62 93 72
62 92 71
61 93 72
64 96 74
66 99 76
64 95 74
65 97 75
62 93 72
62 93 71
75 100 80
171 151 130
198 128 57
211 133 51
217 136 52
226 141 54
230 144 55
236 147 57
234 146 56
235 147 57
242 151 58
240 151 59
245 154 60
245 154 60
246 154 60
245 154 60
247 156 61
247 156 61
250 158 62
248 156 61
249 157 62
247 156 61
247 156 61
246 155 61
244 154 61
233 182 143
222 196 178
222 197 178
222 197 178
219 193 174
220 195 177
218 193 175
215 190 171
212 187 168
206 182 164
206 183 165
202 176 157
198 175 157
196 173 156
192 168 150
185 164 146
181 160 143
173 154 137
168 149 133
162 146 131
145 131 115
138 123 108
124 112 98
113 104 89
67 99 76
63 95 73
65 97 75
60 89 69
64 96 74
67 100 77
61 92 71
62 93 71
67 100 77
62 93 71
61 91 70
64 95 73
66 98 75
64 96 74
66 99 77
63 94 72
59 88 68
68 102 79
70 104 80
67 99 77
68 101 78
63 94 73
64 96 75
64 96 74
65 97 75
64 96 75
67 100 77
70 104 80
59 89 69
63 94 73
69 103 79
63 94 73
61 91 70
69 102 79
61 90 70
64 97 75
63 94 72
63 95 73
61 91 70
65 97 75
62 92 71
63 94 72
67 101 78
60 90 70
60 89 68
65 97 75
65 96 75
58 90 69
50 99 69
48 102 70
50 105 73
50 106 73
50 107 75
50 107 75
50 108 75
50 108 75
50 108 75
50 107 75
50 107 75
50 107 75
50 107 75
50 107 75
50 106 75
49 106 75
49 106 74
49 105 74
49 105 74
49 105 74
48 104 73
48 104 73
47 102 72
47 102 71
47 101 71
46 99 69
46 98 69
45 97 68
45 96 67
44 95 67
42 91 64
41 88 61
47 84 61
59 89 68
66 98 76
63 94 73
60 90 70
65 97 75
65 97 75
62 93 72
63 95 73
65 97 74
63 94 73
61 92 71
65 98 76
62 93 72
59 88 68
63 95 74
67 101 78
59 88 69
60 89 69
57 86 66
59 88 68
64 96 74
72 108 83
61 92 71
61 91 70
65 97 75
60 90 70
67 101 78
62 94 73
63 94 73
67 101 78
63 94 73
59 89 69
64 96 75
61 92 71
61 92 71
67 100 78
59 90 69
64 95 74
71 107 83
63 95 73
60 90 70
60 90 70
68 102 79
65 98 76
64 96 74
59 90 69
66 99 77
64 97 75
62 94 73
60 90 70
60 90 70
62 94 73
63 94 73
66 99 77
81 95 71
147 112 70
157 117 73
158 118 73
159 119 73
159 119 74
160 119 74
160 119 74
160 120 75
165 126 82
177 139 96
182 146 103
176 139 97
162 125 82
153 116 73
148 112 69
147 111 69
146 110 68
142 107 67
139 105 66
135 102 64
133 100 62
131 100 62
127 97 60
122 94 59
118 91 56
112 87 54
108 84 52
105 82 52
98 77 49
87 70 44
85 69 43
86 69 43
82 67 42
79 64 40
69 57 34
70 83 61
67 100 78
63 96 74
63 95 73
57 86 67
61 91 71
69 104 81
63 96 74
65 98 76
66 100 78
68 102 79
61 92 71
64 96 74
68 102 79
63 94 73
61 92 71
63 95 74
62 93 72
63 95 74
63 96 74
63 95 73
65 98 76
59 88 68
63 94 73
60 91 70
58 88 68
64 96 74
59 88 68
60 90 70
63 95 74
68 102 79
61 93 72
62 94 73
59 89 69
64 97 76
63 95 74
60 90 70
60 90 70
67 101 78
60 91 71
66 100 78
61 93 72
65 99 76
62 93 72
64 97 75
62 93 72
65 98 76
58 88 68
57 86 67
64 96 74
58 88 68
60 90 70
63 95 74
59 90 70
65 98 77
60 91 71
62 94 73
61 92 71
64 97 76
58 88 68
64 97 76
58 88 68
54 83 64
56 85 66
59 90 70
58 88 69
58 88 69
57 87 68
54 83 65
59 90 71
57 87 68
61 94 74
62 95 74
58 88 69
57 87 69
57 88 69
55 84 66
54 83 66
57 88 69
57 88 69
56 85 67
54 82 65
52 80 64
54 84 66
52 80 63
59 91 72
54 84 66
52 79 63
60 92 73
57 87 69
58 88 68
48 74 58
46 71 56
39 61 48
24 45 30
14 36 20
16 38 21
16 37 20
16 38 21
14 34 18
17 38 21
15 36 19
17 40 23
17 41 24
18 43 26
18 42 24
20 45 28
19 46 28
20 47 28
18 44 27
20 47 29
18 44 26
19 45 27
17 42 25
18 43 26
16 39 22
16 41 23
16 40 23
15 38 21
15 39 21
14 37 19
14 36 19
13 35 18
13 35 18
13 35 18
12 32 16
12 32 16
19 35 25
27 44 36
26 42 34
28 45 37
30 48 39
37 60 49
36 58 47
36 58 46
44 68 54
47 72 56
48 74 58
55 83 64
53 80 62
56 85 65
58 88 67
57 86 66
60 90 69
63 94 72
63 94 72
62 93 72
58 87 67
59 89 68
63 94 73
62 94 72
66 100 77
67 101 79
60 90 69
61 91 70
66 99 77
67 100 77
62 93 72
63 94 73
60 91 70
63 95 74
62 93 72
63 94 72
69 104 80
60 90 70
60 90 70
67 101 78
63 96 74
62 94 73
65 98 75
62 93 72
64 97 75
66 100 77
61 91 70
69 103 80
65 97 75
60 90 70
64 96 74
64 95 74
67 100 77
76 102 80
167 141 117
198 125 48
205 129 49
210 131 50
217 137 52
224 141 54
233 146 56
232 146 56
233 146 56
239 149 58
236 147 57
237 149 58
237 150 58
241 151 59
239 150 58
244 154 60
242 153 60
242 152 60
243 152 60
246 155 61
244 153 60
241 152 60
243 153 60
237 170 115
223 198 179
219 195 176
218 193 175
217 192 173
216 191 173
214 190 171
212 188 169
211 187 168
208 184 165
203 180 162
203 179 161
199 177 158
191 169 151
187 166 148
188 167 149
180 158 140
175 154 137
170 150 133
163 147 131
157 140 125
143 126 110
138 124 110
119 110 96
101 96 80
60 90 69
60 90 70
64 96 75
61 92 71
64 95 74
64 96 74
62 93 72
64 96 74
66 98 76
64 97 75
61 92 71
61 91 70
66 98 76
64 96 74
59 89 68
66 98 76
61 91 70
63 94 72
61 91 70
65 97 74
61 91 71
69 102 79
65 98 76
65 97 75
64 96 74
66 98 75
64 95 73
61 92 71
65 97 75
62 92 71
63 94 72
63 94 72
62 92 71
67 101 78
62 92 71
62 91 70
65 97 75
63 94 73
63 94 73
64 96 74
63 94 73
63 95 73
68 102 79
64 96 74
60 90 70
66 99 76
63 98 74
48 97 67
49 102 70
50 105 73
50 107 74
51 108 75
50 107 75
50 108 75
50 108 75
50 107 75
50 108 75
50 108 75
50 107 75
50 107 75
50 107 75
50 107 75
49 106 75
49 106 75
49 106 74
49 105 74
49 105 74
48 105 74
48 104 73
48 104 73
48 102 72
47 102 72
46 100 70
46 100 71
46 99 70
45 98 68
45 97 68
44 95 66
43 93 65
42 90 63
40 86 60
47 84 62
64 97 75
63 94 72
64 96 74
62 94 72
62 94 72
62 93 72
68 103 79
68 101 78
61 91 71
64 95 74
66 100 77
63 94 73
63 95 73
62 93 72
60 90 69
60 90 70
58 88 68
64 95 74
62 93 72
63 96 74
67 101 79
66 99 77
63 95 74
68 102 79
66 99 76
61 92 72
63 94 73
64 96 74
67 101 78
67 101 78
65 98 76
67 100 78
61 91 71
64 97 75
63 95 73
62 94 72
69 103 80
62 94 73
64 96 74
69 104 81
59 90 69
63 94 73
60 91 70
60 91 71
63 95 74
61 92 71
66 99 77
70 106 82
68 102 79
67 101 78
63 95 74
66 99 77
82 100 75
141 109 69
157 117 72
159 119 73
159 118 73
161 120 74
158 118 73
159 119 74
160 120 75
165 126 81
176 138 95
185 149 106
178 141 99
164 126 84
153 116 73
150 113 70
147 111 69
145 109 68
142 107 67
140 106 66
137 104 65
135 102 64
131 99 62
126 96 60
123 94 59
119 91 56
111 86 54
111 86 54
105 82 52
100 79 50
91 73 46
91 72 46
81 66 41
79 64 40
79 64 40
76 62 38
68 76 54
59 89 69
68 102 80
63 95 73
62 93 72
63 95 74
65 98 76
61 92 72
60 91 71
63 95 73
66 100 78
66 99 77
66 99 77
64 96 74
61 92 71
68 103 80
64 96 75
65 98 76
60 91 71
65 98 76
64 96 74
59 90 70
60 91 70
65 99 77
62 93 72
60 91 70
63 96 74
61 92 71
63 95 74
61 92 71
59 89 69
63 95 74
60 90 70
62 93 72
61 92 72
68 102 79
64 96 74
63 96 74
65 97 75
64 96 75
60 91 71
58 88 68
59 89 69
58 87 68
64 96 74
58 87 68
62 93 72
61 92 72
59 89 69
62 94 73
61 93 72
56 85 66
65 98 76
63 95 73
67 101 79
63 95 74
63 95 74
59 90 70
60 91 71
57 87 68
59 89 69
65 99 77
59 90 70
61 92 72
61 92 72
56 85 67
59 89 70
56 86 67
61 92 72
56 85 67
62 94 73
55 84 66
55 83 66
55 83 65
54 82 64
59 90 71
61 93 73
53 81 64
59 91 72
57 87 68
58 89 70
55 85 67
51 78 62
57 86 68
59 91 71
55 85 68
55 84 67
51 78 62
53 81 64
52 81 64
50 77 61
51 77 60
52 78 61
43 66 52
41 64 50
38 60 47
22 42 29
15 37 20
14 35 18
14 32 16
15 36 20
15 36 19
15 36 19
16 39 22
15 38 21
16 38 21
17 40 23
16 40 23
17 41 24
17 42 24
16 41 24
16 40 23
17 42 25
15 39 21
15 39 22
16 40 23
15 38 20
15 38 21
15 38 20
13 35 18
14 36 19
13 35 18
13 35 18
13 35 18
11 32 16
12 32 16
11 30 15
19 34 25
25 40 32
26 42 34
30 49 40
34 54 44
32 52 42
34 54 44
34 54 44
38 59 47
42 65 52
44 68 53
48 73 57
58 88 69
53 80 62
55 83 64
60 90 69
60 89 69
61 92 70
66 99 76
57 86 66
65 98 75
63 94 72
66 98 76
66 99 76
63 96 74
65 98 75
66 99 76
67 100 77
64 96 74
60 90 70
65 97 75
67 101 78
63 94 73
64 96 74
65 97 75
65 98 76
67 100 77
64 96 74
62 94 72
67 101 78
61 92 71
61 91 70
68 101 78
62 94 73
62 93 72
61 92 71
60 90 70
59 88 68
62 93 72
71 107 82
67 100 77
64 96 75
63 94 73
66 99 77
70 98 76
163 131 102
188 119 45
204 128 49
207 130 50
216 136 52
226 142 55
225 141 54
227 142 54
229 144 56
229 143 55
236 148 57
234 148 57
238 150 59
239 150 59
234 147 57
240 151 59
237 149 58
239 150 58
239 151 59
238 150 59
238 150 59
238 150 59
235 158 90
221 193 172
216 191 172
214 189 171
217 193 175
215 191 172
215 190 171
209 185 167
206 183 165
205 181 163
201 178 160
199 177 158
194 171 153
188 166 147
194 171 152
187 166 149
184 162 145
174 154 138
167 148 131
164 145 128
158 140 124
149 134 119
137 125 111
118 110 95
121 109 94
108 103 88
62 93 72
58 87 67
63 94 73
63 95 74
62 93 72
66 98 75
66 98 76
71 106 82
62 93 72
63 95 73
67 99 76
63 94 73
67 100 77
63 94 72
65 97 75
64 96 74
66 99 77
58 87 67
60 90 69
64 95 74
64 96 74
63 94 73
58 86 67
63 94 72
61 91 70
61 91 71
66 98 76
63 95 74
60 91 70
67 100 77
61 91 70
66 98 76
60 90 69
65 98 76
63 94 72
66 99 76
62 93 72
65 96 74
61 91 70
64 95 73
63 93 72
64 95 73
69 103 79
59 89 69
65 97 75
61 94 72
49 98 68
49 103 71
49 104 71
50 105 73
50 107 74
50 107 75
51 108 75
50 108 75
50 108 75
50 108 75
50 107 75
50 107 75
50 107 75
50 107 75
50 107 75
50 107 75
49 106 75
49 106 75
49 106 74
49 105 74
49 105 74
48 104 74
48 104 73
48 104 73
48 103 73
47 102 72
47 101 71
46 100 70
46 98 69
46 98 69
45 96 68
45 96 67
44 94 66
42 92 64
41 88 62
39 85 59
47 85 62
64 96 74
70 105 81
65 97 75
63 94 73
71 106 82
62 93 72
61 91 71
62 93 72
61 92 71
64 97 75
57 86 67
64 96 74
63 95 73
66 99 76
68 101 78
62 93 72
65 97 76
67 101 78
64 96 75
67 101 78
67 101 79
63 95 74
62 93 72
66 99 77
66 99 76
60 90 70
65 98 76
65 99 77
63 94 73
64 95 74
64 96 75
60 89 69
70 105 81
63 95 74
66 98 76
61 92 72
66 100 77
67 101 78
59 89 69
61 92 71
62 93 72
62 94 73
63 96 74
63 96 74
64 97 75
69 103 80
66 98 76
60 91 70
62 94 73
60 90 70
75 98 75
142 111 71
155 115 71
158 118 72
159 119 73
160 119 74
161 120 74
160 119 73
160 119 74
164 125 80
177 139 95
185 149 106
179 143 101
163 127 85
155 117 75
149 112 70
148 111 69
146 110 68
144 109 68
141 106 66
138 105 65
134 102 64
129 98 61
125 95 59
124 95 59
120 92 58
115 89 56
110 86 54
104 81 51
99 78 49
91 73 46
89 72 45
89 71 45
86 69 43
78 63 39
74 61 37
73 74 52
65 97 75
62 94 73
61 93 72
62 93 73
60 91 71
63 94 73
61 92 71
63 96 74
62 93 72
63 95 74
61 93 72
61 93 72
60 91 70
65 98 76
62 94 73
66 99 77
63 94 73
66 100 78
62 94 72
60 91 70
66 99 77
61 93 72
63 96 74
60 91 71
59 89 69
58 88 68
65 98 76
66 100 78
61 92 71
63 95 74
63 95 74
68 102 79
61 92 72
65 97 75
63 95 74
61 92 71
61 92 71
61 91 71
63 94 73
59 90 70
61 92 71
56 84 65
58 88 68
62 94 73
63 95 74
61 92 71
63 95 74
62 93 73
64 96 75
63 94 73
61 92 71
62 94 73
66 99 77
63 95 74
61 92 71
58 89 69
62 94 73
68 103 80
67 102 79
64 96 75
57 87 68
58 89 70
57 86 67
65 98 77
60 91 72
57 87 68
56 85 67
61 93 73
61 92 72
57 87 68
55 85 66
54 83 65
56 86 68
59 91 71
59 90 71
59 90 71
59 90 71
59 91 72
58 89 70
57 87 69
58 89 70
56 86 68
53 82 65
54 83 66
61 94 74
54 83 65
58 89 71
52 80 63
55 85 67
55 84 67
54 83 65
50 77 59
50 76 59
43 65 51
41 64 51
38 59 47
34 55 45
26 46 34
14 35 19
14 35 18
14 35 18
14 35 18
14 34 18
14 36 19
14 35 18
15 38 21
15 39 21
15 39 22
17 42 24
15 38 21
15 38 21
16 41 23
16 39 21
16 41 22
14 37 20
12 35 17
13 35 18
14 36 19
13 35 18
13 35 17
12 34 17
12 34 17
12 33 16
12 32 16
11 31 16
13 31 18
20 34 26
24 39 31
26 40 33
28 45 36
30 49 39
28 45 36
34 55 45
34 54 43
38 59 47
42 64 51
47 73 57
46 70 55
52 78 60
54 82 63
52 78 60
55 83 63
59 88 67
56 84 65
55 82 63
60 91 69
65 97 75
66 99 76
57 86 66
62 94 72
64 95 74
66 98 76
69 103 80
63 94 72
62 93 72
63 95 73
65 97 74
65 98 75
60 91 70
65 97 75
63 94 72
61 92 71
62 94 72
61 92 71
61 92 71
61 91 71
60 90 69
64 96 74
67 100 77
63 95 73
66 100 77
62 93 72
66 99 76
70 105 81
63 93 72
68 102 78
60 90 69
67 100 77
66 99 76
64 96 74
67 101 78
62 92 71
163 125 88
191 121 46
190 121 46
203 127 48
200 126 48
217 136 52
221 138 53
227 141 54
221 139 54
228 142 55
230 144 56
228 144 56
230 145 56
232 146 57
231 145 56
232 146 57
232 146 57
233 147 57
235 148 58
233 146 57
238 149 58
234 148 59
218 179 149
213 188 169
213 188 169
212 188 169
209 185 166
212 188 169
208 184 165
205 182 163
204 180 161
197 175 156
200 177 159
197 174 156
189 168 150
185 164 146
181 159 141
184 164 147
173 153 135
167 148 131
163 143 125
152 136 119
143 130 115
136 124 108
132 119 105
121 111 97
111 103 89
97 99 80
55 83 64
60 89 69
59 88 68
60 90 69
61 91 70
61 91 70
65 97 74
69 104 80
63 94 73
63 95 73
59 88 68
66 98 75
63 95 73
62 92 71
62 93 72
59 89 69
66 99 76
62 93 71
66 98 75
65 97 75
58 87 67
64 97 75
63 94 73
61 92 71
65 96 74
60 90 70
61 92 71
61 91 70
65 96 74
66 99 77
64 96 74
60 90 70
62 92 71
70 104 80
61 91 70
64 96 74
68 102 79
66 99 76
60 90 70
66 99 77
67 99 76
65 97 74
63 94 73
59 87 67
61 92 70
48 95 66
48 100 69
49 104 71
50 105 72
50 107 74
50 107 74
50 107 75
50 108 75
50 108 75
50 108 75
50 107 75
50 107 75
50 107 75
50 107 75
50 107 75
50 107 75
50 106 75
49 106 75
49 106 74
49 105 74
49 105 74
49 105 74
48 104 73
48 104 73
48 103 73
48 103 72
47 102 72
47 100 71
46 100 71
46 98 69
45 98 69
45 96 68
44 95 66
44 94 66
43 92 65
42 91 64
40 85 59
37 79 55
53 89 66
64 96 74
62 92 71
63 94 73
64 95 74
61 92 71
60 90 69
62 93 72
61 92 71
64 95 74
62 93 72
65 98 76
64 96 74
62 93 72
58 87 68
64 96 74
62 93 72
60 90 70
62 93 72
68 103 80
61 92 71
61 91 70
65 98 76
67 100 78
66 100 77
60 90 69
63 95 74
60 91 70
60 90 69
68 102 78
61 92 71
60 91 71
59 88 69
62 94 73
62 93 72
62 93 72
61 93 72
63 95 74
66 98 76
66 100 77
61 92 71
63 95 73
62 94 72
69 103 80
65 98 76
64 97 75
68 103 80
61 91 71
71 106 82
73 98 75
136 111 72
156 116 72
157 117 73
160 119 74
159 119 74
160 120 74
160 119 74
160 120 75
163 124 79
175 138 95
186 150 107
183 146 104
168 131 88
154 117 75
151 113 70
147 111 69
146 110 69
143 108 67
141 106 66
137 104 64
134 101 63
132 100 62
129 98 61
125 95 59
119 92 57
114 88 55
109 84 52
107 83 52
100 79 49
96 76 48
87 70 44
80 65 40
82 66 42
79 64 40
72 60 36
65 63 41
58 86 66
66 100 77
62 93 73
64 97 75
65 97 76
64 96 75
64 97 75
64 96 75
64 97 75
62 94 73
66 99 76
62 93 72
66 100 77
60 91 70
62 93 72
61 92 71
61 92 71
64 96 75
64 96 74
67 101 79
63 95 74
64 96 74
60 90 70
60 90 70
63 94 73
65 97 75
64 97 75
65 97 75
62 93 72
62 94 73
61 92 71
59 90 69
62 93 72
67 101 78
72 108 84
64 97 75
62 94 73
67 101 78
61 91 71
61 92 72
62 93 72
65 97 75
57 86 67
62 93 72
59 90 70
62 94 73
64 96 75
67 101 79
61 92 71
66 99 77
59 89 69
63 96 75
64 96 75
61 93 72
60 90 70
61 92 72
63 95 74
65 99 77
60 92 72
58 88 69
57 87 68
63 96 76
62 94 73
66 99 78
56 85 67
58 89 69
64 97 76
58 88 69
56 85 66
57 86 68
57 87 68
59 91 71
55 85 67
63 96 75
57 87 69
57 87 68
63 96 75
53 81 64
55 84 67
53 82 65
54 84 66
53 82 65
56 87 69
57 88 70
54 83 66
55 85 67
54 83 66
54 83 66
55 85 68
50 78 62
53 81 64
51 79 63
53 80 62
48 73 57
44 68 53
42 64 50
38 59 48
38 60 48
36 56 46
24 40 32
16 35 22
12 33 17
12 33 16
12 33 17
12 33 16
13 35 18
14 36 19
14 36 20
14 36 18
14 36 19
15 38 20
13 35 18
14 36 19
13 36 18
14 36 18
13 35 17
13 35 18
13 35 17
13 34 17
13 34 17
13 35 17
12 33 16
12 34 17
11 32 16
11 30 15
17 32 22
24 38 31
25 40 32
25 41 33
26 43 34
30 48 39
26 42 34
34 55 45
33 53 43
36 57 46
41 64 51
49 75 59
47 72 56
50 76 59
54 82 63
57 86 67
57 86 66
57 85 65
60 89 68
61 92 71
64 96 74
64 95 73
66 98 75
61 92 70
61 91 70
64 96 74
68 101 78
64 95 73
60 90 69
61 92 70
63 95 73
65 97 74
59 88 68
63 95 74
65 97 75
72 109 84
67 101 78
65 98 76
64 96 74
63 95 73
65 97 75
65 98 76
63 94 73
64 96 74
67 100 77
65 98 76
61 92 71
64 97 75
69 104 80
69 103 79
65 97 75
64 96 74
61 91 70
66 99 77
68 101 78
65 98 76
64 97 74
64 96 74
153 117 80
175 110 41
185 117 44
191 120 45
206 130 50
209 131 50
214 135 52
212 134 51
221 140 54
219 137 53
219 138 53
225 141 55
225 142 55
222 140 54
228 144 56
230 145 56
229 144 56
230 145 57
227 143 56
226 142 55
230 144 56
221 160 111
210 186 167
210 186 167
205 182 163
206 182 163
205 182 163
205 182 163
196 174 155
201 177 159
199 176 157
199 177 158
191 170 152
187 167 148
180 160 142
178 158 141
181 160 142
171 151 133
169 149 132
165 147 131
155 136 119
153 138 122
146 130 114
131 120 105
112 104 90
115 107 92
102 95 80
90 93 76
64 96 74
64 96 74
59 89 69
58 86 66
60 89 68
62 92 71
69 102 78
68 101 78
65 97 75
63 95 73
62 93 71
65 97 75
61 91 70
63 94 72
68 102 79
58 86 67
63 94 72
58 86 66
66 99 77
65 96 74
60 89 69
62 93 71
64 96 74
67 100 77
60 90 70
62 92 71
65 98 76
64 95 73
61 91 70
67 101 78
61 91 70
60 90 69
69 102 79
68 102 79
67 99 76
66 99 77
62 93 72
69 104 80
63 95 73
61 91 71
67 100 77
63 95 73
65 98 76
64 95 74
50 92 65
47 98 67
48 102 70
49 104 71
50 105 73
50 107 74
50 107 75
50 107 75
50 107 75
50 107 75
50 107 75
50 107 75
50 107 75
50 107 75
51 107 75
51 107 75
51 107 75
51 107 75
51 106 75
50 106 75
49 105 74
49 105 74
48 104 74
61 108 79
76 114 86
55 105 76
47 103 72
47 102 72
47 101 71
46 99 70
45 98 69
45 97 68
45 95 67
44 95 66
44 94 66
43 91 64
42 90 63
40 86 60
38 83 58
36 79 55
51 82 62
61 91 70
64 96 74
61 92 71
67 100 77
66 98 76
61 91 71
67 100 77
65 98 75
65 98 75
62 93 72
62 94 73
63 94 73
61 92 71
63 94 73
61 92 71
63 94 73
62 93 72
64 97 75
64 96 74
63 94 73
62 94 73
60 91 70
61 92 71
59 89 69
59 89 69
58 87 67
59 90 69
63 94 72
66 99 77
61 92 71
60 91 70
61 92 71
68 103 79
64 97 75
59 88 68
58 87 67
66 99 76
62 93 72
62 94 72
67 101 78
61 91 71
61 92 71
65 99 77
61 93 72
66 99 76
58 88 68
65 96 74
135 112 74
155 115 71
158 118 73
160 119 74
160 120 74
160 120 74
159 119 73
159 119 74
163 124 80
174 137 93
188 151 108
183 148 105
168 131 89
156 119 76
150 113 70
146 110 68
146 110 68
144 109 68
140 106 66
139 105 65
135 102 64
131 100 62
127 97 60
127 97 60
124 94 59
114 88 54
110 86 54
104 81 51
99 78 49
92 73 46
90 72 45
84 68 43
83 67 42
77 63 38
74 61 37
66 65 43
62 88 68
62 93 72
64 96 75
67 101 78
63 95 73
65 98 76
68 102 79
64 97 75
64 96 74
63 95 74
63 94 73
64 97 75
62 93 72
63 96 75
63 95 74
58 87 67
64 97 75
70 106 82
64 96 75
64 96 74
64 97 75
61 92 71
62 94 72
71 106 82
63 94 73
60 90 69
65 97 76
67 101 79
60 91 70
61 93 72
59 88 69
63 96 75
63 95 74
58 87 68
61 92 71
64 97 75
60 91 71
62 93 72
62 93 73
62 93 72
58 88 69
63 95 74
62 93 72
61 92 71
60 90 70
64 96 74
64 96 75
65 98 76
62 94 73
59 88 69
62 93 73
58 87 68
66 99 77
57 86 67
61 92 72
62 94 73
60 91 71
63 95 74
63 96 75
60 91 71
64 97 76
62 94 73
62 94 73
63 96 75
58 88 69
59 89 70
58 89 70
59 90 71
60 91 72
58 88 69
56 86 68
58 89 70
58 88 69
58 88 69
59 90 71
62 94 75
57 88 69
59 90 71
57 88 70
52 80 63
53 81 64
55 85 67
53 81 64
53 82 64
55 84 66
57 87 69
53 81 64
49 76 60
52 80 64
57 87 69
55 84 67
50 78 62
50 77 62
49 74 57
50 76 59
45 70 55
38 59 46
35 54 43
36 57 46
26 41 34
29 46 37
30 49 39
21 37 28
12 31 17
12 32 16
11 32 16
12 33 16
12 33 16
13 34 17
13 35 17
13 35 17
12 34 17
13 36 18
12 34 17
12 34 17
12 33 16
12 33 16
13 35 17
12 33 16
12 33 16
12 32 16
12 33 16
11 30 15
9 27 13
11 26 15
18 30 23
23 35 28
23 36 29
25 41 33
27 43 35
30 47 38
31 49 40
29 47 39
33 52 42
35 55 44
39 61 48
42 64 50
47 72 56
53 80 62
58 87 67
60 90 69
64 96 74
57 86 66
59 89 68
57 85 65
64 95 73
65 97 74
65 97 74
65 98 75
60 90 69
61 91 70
66 98 76
62 93 72
67 101 78
63 94 72
63 95 74
64 97 75
66 99 76
59 89 69
63 94 72
63 95 73
69 104 81
66 99 76
67 101 78
65 97 74
63 95 73
58 87 67
63 95 73
65 97 75
63 95 73
59 88 68
60 90 70
59 89 69
66 99 76
62 93 72
62 93 72
63 95 73
63 94 73
63 95 73
70 105 81
64 96 74
64 97 75
61 92 71
64 95 73
128 100 64
171 108 40
179 114 43
186 117 44
201 127 48
198 125 48
206 130 49
208 130 50
213 134 51
213 134 51
217 137 53
215 136 52
220 139 53
224 141 54
221 139 54
225 142 55
221 140 54
223 140 54
224 141 55
220 139 54
223 145 70
207 181 160
199 176 157
201 179 160
200 177 159
198 175 156
198 175 157
199 176 158
194 171 152
198 175 157
192 170 151
190 168 150
186 165 146
187 166 148
176 157 139
172 153 134
173 154 136
167 148 130
161 143 126
150 134 117
153 136 119
138 125 109
127 116 101
128 116 102
101 96 81
112 104 88
108 101 86
82 91 73
55 82 64
60 90 69
62 92 72
59 87 67
67 100 78
63 94 72
64 95 73
64 95 74
64 96 74
66 99 77
64 95 73
61 92 71
65 96 74
69 102 79
63 95 73
63 93 72
66 99 76
65 97 75
66 98 76
62 93 72
61 91 70
66 99 76
68 102 78
67 100 77
60 90 70
62 92 71
68 101 78
67 101 78
61 91 71
64 96 74
61 91 70
64 96 74
66 98 75
65 97 74
65 98 76
66 99 77
64 96 74
62 93 73
67 100 77
66 98 76
64 96 74
63 94 73
64 95 74
60 96 72
45 95 65
47 99 68
49 102 70
49 104 72
50 105 73
50 106 74
50 107 75
50 107 75
50 107 75
50 107 75
50 107 75
50 107 75
51 107 75
52 108 76
55 109 77
59 111 79
62 112 80
77 117 87
132 145 121
182 175 154
199 186 166
224 203 185
237 212 194
238 212 194
237 212 194
235 211 193
232 208 190
211 193 175
188 177 158
160 157 137
114 127 105
50 99 71
45 96 67
44 95 67
44 94 66
43 92 65
41 88 62
40 87 61
39 83 58
37 80 56
36 74 52
60 91 70
64 97 75
67 100 77
62 93 72
67 101 78
57 86 67
62 93 72
65 97 75
63 94 73
60 90 69
65 98 76
68 102 78
68 102 78
65 98 76
66 99 77
68 101 78
65 97 75
61 91 70
62 94 73
63 94 73
65 98 76
60 91 70
62 93 72
67 100 77
64 95 73
61 91 71
64 97 75
69 104 81
63 94 73
62 93 71
61 92 71
66 100 78
62 94 73
64 96 75
68 103 80
64 96 75
69 104 80
64 96 75
67 100 78
59 88 68
61 92 71
68 101 78
68 102 79
60 90 69
64 96 74
69 102 79
128 108 72
156 117 72
157 117 72
160 119 74
159 119 73
161 120 74
160 120 74
160 120 74
162 123 78
174 136 93
188 151 109
186 150 108
172 135 93
157 120 77
151 114 71
147 111 69
147 110 69
143 108 67
142 107 67
138 104 65
134 101 63
131 99 62
128 98 61
125 96 60
122 94 59
117 90 56
111 86 54
106 82 52
96 76 47
96 76 48
87 70 44
87 70 44
85 68 43
78 63 39
75 61 37
73 63 40
62 90 69
64 96 74
65 97 75
59 89 69
63 95 74
61 91 71
62 94 73
62 93 72
65 97 75
69 103 80
61 93 72
64 96 75
61 91 71
62 94 73
62 94 72
64 96 74
59 89 69
65 98 76
60 91 70
61 91 71
61 92 72
60 90 69
61 91 71
63 95 73
64 96 74
62 94 73
62 93 72
66 100 78
58 88 68
60 91 71
66 99 77
61 92 72
68 102 79
63 96 74
67 101 79
62 94 73
62 94 73
61 92 71
67 101 79
63 94 73
60 91 70
61 92 71
65 98 76
60 90 70
65 98 76
63 95 74
62 94 73
59 90 70
69 104 81
58 88 68
59 90 70
63 95 74
65 99 77
62 95 74
60 90 70
61 92 72
59 90 70
60 90 70
61 92 71
55 84 66
57 86 67
58 89 69
60 92 72
59 90 71
57 87 68
60 91 72
57 87 68
54 82 64
54 82 65
56 86 68
64 97 76
53 81 64
59 90 71
57 86 68
53 81 64
54 82 65
52 80 63
56 85 67
55 84 66
60 91 72
51 79 63
53 81 64
51 79 62
51 79 63
50 76 61
52 80 63
53 82 65
55 85 68
52 80 64
54 83 66
52 80 64
55 84 67
52 80 64
56 87 69
47 71 55
50 75 58
45 69 54
40 60 47
38 58 46
35 55 44
32 51 42
31 50 41
25 40 33
24 39 32
27 42 33
21 36 27
14 30 18
11 31 15
11 30 15
11 32 16
13 33 16
11 32 16
12 33 16
12 32 16
11 32 15
13 34 17
12 32 16
11 31 15
11 30 15
11 30 15
11 30 15
11 30 15
9 25 13
16 29 20
15 24 18
21 33 27
21 34 27
23 37 30
27 43 34
25 40 32
26 42 34
28 44 35
30 48 39
33 52 42
35 55 44
40 63 50
49 75 59
43 66 51
52 79 61
56 84 64
57 85 65
62 93 71
59 88 67
57 85 65
63 93 71
61 90 69
63 95 73
60 90 69
65 98 75
60 90 69
59 88 68
64 96 73
65 97 75
64 95 73
60 90 69
57 86 66
62 94 72
62 93 72
70 106 81
68 102 79
63 94 73
64 96 74
63 95 73
72 108 83
70 106 81
60 90 70
60 90 70
59 89 69
64 97 74
64 96 74
66 100 78
64 95 74
69 103 79
66 98 76
70 105 81
62 93 72
64 96 74
64 96 74
60 89 68
67 100 77
64 96 74
63 95 73
66 99 76
67 100 77
66 98 76
111 95 60
163 105 39
172 109 41
187 118 45
189 120 45
195 123 47
200 126 48
201 125 48
204 129 49
211 132 51
212 134 51
213 134 52
208 131 50
215 136 52
216 136 52
213 135 52
216 136 53
217 137 53
216 137 53
215 135 52
210 163 127
196 173 154
197 175 156
199 177 158
192 170 152
196 173 155
194 172 154
192 170 152
189 167 149
191 169 151
186 166 148
183 162 144
178 157 138
177 157 139
173 154 135
169 150 132
163 144 126
158 140 123
151 136 120
139 125 108
136 123 107
129 117 101
130 119 105
112 105 91
107 101 85
94 90 74
106 98 83
65 82 64
53 80 62
54 82 64
54 82 64
62 94 73
59 89 69
64 96 74
59 88 68
62 93 72
58 87 67
60 90 70
66 99 76
62 93 71
63 95 73
69 103 79
59 89 69
65 97 75
65 97 75
62 93 72
64 96 74
62 93 72
64 95 74
62 92 71
66 99 76
63 94 73
61 90 69
63 95 73
61 92 71
61 91 70
57 86 66
66 99 76
64 94 73
64 95 73
70 105 81
59 89 69
63 95 73
60 90 70
66 99 77
63 93 72
64 95 74
62 92 71
68 101 78
67 99 76
66 99 76
48 94 66
46 98 67
48 101 70
49 103 71
50 104 72
50 106 74
50 106 74
50 107 74
50 107 75
50 107 75
50 107 75
50 107 75
51 107 75
54 108 76
61 112 80
76 119 87
147 156 130
215 201 177
251 225 203
250 223 203
245 219 199
242 216 197
240 214 195
239 213 195
237 212 194
236 211 193
234 210 192
233 209 191
233 208 190
231 206 189
228 203 186
225 200 182
208 187 169
161 154 134
93 115 91
43 92 65
42 91 64
41 89 63
40 87 61
38 83 57
37 81 57
34 74 51
44 77 57
72 107 82
64 96 74
66 99 77
64 96 74
62 93 71
65 98 76
66 100 78
67 101 78
63 96 74
62 93 72
61 91 71
68 101 78
62 93 72
61 91 70
68 102 79
60 90 70
62 93 72
61 92 71
61 92 71
60 91 70
64 96 74
70 105 81
63 95 73
64 96 74
69 103 80
64 95 74
62 94 73
62 93 72
67 100 78
64 96 74
64 96 74
64 96 74
63 94 73
63 94 72
65 98 76
61 92 71
61 92 72
69 103 79
65 98 76
61 92 71
65 98 76
71 106 82
68 102 79
62 93 72
121 105 71
154 115 71
158 118 72
158 118 73
159 119 74
160 120 74
159 119 73
160 120 74
162 123 78
173 135 92
189 152 109
190 153 111
173 137 95
158 121 78
150 113 71
150 112 70
145 109 68
143 108 67
139 105 65
139 105 65
134 102 64
131 100 62
130 99 62
127 97 60
122 93 58
117 90 56
110 86 53
106 83 52
103 81 51
94 74 47
91 73 46
85 69 43
81 66 41
78 64 39
78 64 40
71 60 37
61 86 66
60 91 70
63 94 73
65 97 75
64 95 74
59 89 69
63 95 74
61 92 72
60 91 71
59 89 69
63 95 74
65 97 76
69 103 80
63 95 74
62 93 72
64 97 75
67 101 79
61 93 72
65 98 76
64 96 74
64 96 74
63 95 73
64 96 75
63 95 74
61 92 72
61 92 71
63 96 74
63 94 73
64 96 75
63 95 73
64 97 75
64 96 75
67 101 79
61 92 71
63 94 73
68 103 80
66 99 77
66 99 77
58 88 68
62 93 72
59 89 69
62 94 73
62 94 73
66 99 76
70 104 81
61 91 71
61 92 71
62 94 73
61 92 71
60 91 71
61 92 72
67 101 79
62 94 73
59 89 69
58 88 68
61 93 73
59 90 70
57 87 68
60 91 71
58 88 68
58 88 69
62 95 74
59 89 70
62 95 74
60 90 71
64 98 77
58 89 70
60 92 72
55 84 66
59 91 72
57 88 69
54 83 66
57 88 69
56 86 68
53 81 64
57 87 68
56 85 67
54 83 66
58 88 70
57 88 70
57 88 70
52 80 63
59 90 71
53 82 65
50 78 62
55 85 67
52 81 64
55 85 67
51 79 63
51 79 63
53 81 64
49 76 61
50 77 62
47 72 58
52 80 64
52 78 60
52 78 60
46 69 54
40 62 48
39 60 47
38 59 47
33 51 41
30 47 38
28 45 36
25 40 33
23 36 29
26 42 34
23 37 30
23 36 29
18 31 23
16 30 19
12 28 16
10 28 14
10 28 14
10 28 14
9 26 13
10 30 15
10 27 14
9 25 12
8 22 11
9 22 12
11 22 14
12 21 16
19 29 23
20 31 24
18 29 22
19 31 25
21 34 27
24 38 31
26 42 34
29 46 37
26 42 33
32 52 42
32 51 40
40 61 49
38 58 46
46 70 55
49 75 58
51 77 59
51 77 59
52 77 59
56 83 64
58 87 67
58 87 66
64 95 73
64 95 73
65 97 74
64 95 73
61 91 70
68 101 78
65 98 75
60 90 69
67 100 77
65 97 75
62 93 72
65 97 75
70 104 80
61 93 72
67 99 76
64 96 74
63 94 72
64 96 74
63 95 73
62 93 71
61 92 71
64 96 74
66 99 77
65 98 76
60 91 70
63 95 74
60 90 69
58 88 67
58 87 67
63 95 73
69 103 79
63 95 73
67 101 78
66 98 76
69 103 79
64 96 74
64 96 74
66 100 77
61 92 71
67 99 76
65 98 75
63 94 72
94 95 65
147 97 36
163 106 40
175 112 42
182 116 43
188 119 45
199 126 48
196 123 46
199 124 47
199 124 47
197 125 48
207 131 50
206 130 50
205 129 49
208 131 50
212 134 52
207 131 50
211 133 51
213 135 52
209 142 81
193 172 153
191 170 150
189 168 149
189 168 149
185 165 146
189 168 151
190 169 151
187 167 149
178 157 139
178 158 141
185 164 147
174 153 134
175 155 137
165 147 129
162 146 128
161 144 127
161 145 128
148 132 115
149 134 118
142 127 110
127 117 102
119 107 91
112 103 89
112 104 88
102 96 81
102 95 79
96 90 73
52 79 62
55 83 64
55 84 65
65 98 77
61 92 71
62 93 72
59 88 68
63 94 73
64 97 75
61 91 70
63 94 73
59 88 67
68 102 78
65 98 76
63 95 73
62 93 72
63 95 73
66 99 76
67 100 77
67 100 77
60 90 70
65 97 75
62 92 71
64 95 73
61 92 71
59 88 68
67 100 77
61 91 71
67 100 77
65 97 75
62 94 72
65 96 74
61 91 70
66 98 75
64 95 73
64 95 73
61 92 71
65 97 75
65 97 75
70 104 80
65 97 75
64 96 74
64 96 74
55 94 69
45 94 64
47 98 67
49 101 68
49 103 70
49 104 71
50 105 72
50 106 74
50 107 74
50 107 74
50 107 74
50 107 75
50 107 75
53 108 76
76 117 87
173 172 148
251 227 203
255 245 220
255 248 222
255 243 218
255 233 210
250 223 202
243 217 198
240 214 195
238 213 194
237 211 193
235 210 192
234 209 192
232 208 191
231 207 190
230 206 189
227 203 186
225 200 183
219 194 177
218 194 177
216 193 177
179 165 147
86 107 85
41 89 62
40 86 60
38 82 57
37 81 57
34 74 51
34 72 50
58 90 69
70 105 81
66 99 77
67 100 78
68 102 79
63 95 73
62 93 72
64 96 74
63 94 73
64 96 74
66 99 77
65 97 75
65 97 75
58 87 67
63 94 73
64 97 76
65 98 76
62 93 71
66 99 76
62 93 72
62 93 72
63 95 73
64 95 74
67 101 78
61 92 71
67 100 77
63 94 72
60 91 70
68 102 79
60 90 70
67 101 78
68 102 79
63 94 73
66 99 76
60 90 70
60 89 69
61 92 71
65 98 76
62 93 72
66 100 77
62 93 72
67 100 77
67 100 77
115 104 72
155 116 71
158 117 72
160 119 74
159 119 74
159 119 74
159 119 74
159 119 74
160 121 77
171 133 90
189 152 109
191 155 112
177 140 98
160 123 80
150 113 71
149 112 69
146 110 68
145 109 68
142 107 67
140 106 66
134 101 63
133 101 63
128 98 61
128 98 61
124 95 59
115 89 55
113 87 55
107 83 52
105 82 52
92 73 46
90 72 46
90 72 46
83 67 42
76 62 38
78 63 39
69 58 35
63 87 66
61 91 71
64 96 74
65 98 76
65 98 76
60 91 70
62 93 72
61 92 71
64 96 74
64 97 75
64 96 74
65 98 76
63 94 73
63 95 73
65 98 76
63 95 73
65 98 76
67 101 78
68 102 79
64 95 74
59 89 69
58 88 68
59 89 69
66 99 77
65 98 76
64 97 75
61 92 72
60 90 70
60 91 70
66 99 77
64 96 74
62 94 73
60 91 71
62 94 73
60 91 71
62 93 72
64 96 74
62 94 72
65 98 76
58 88 68
60 90 70
62 94 73
59 89 69
64 97 76
64 96 75
62 93 72
62 93 72
62 94 73
63 96 74
61 93 72
63 95 74
62 94 74
57 87 68
63 95 74
62 95 74
59 90 70
59 89 70
55 83 65
61 92 72
57 87 68
59 90 71
61 92 72
57 87 68
53 81 63
61 93 73
54 82 64
55 84 66
54 83 65
60 91 72
57 87 69
58 89 70
54 82 64
56 85 67
55 85 67
58 88 70
61 93 73
56 86 68
52 81 64
55 84 67
52 80 64
56 87 69
51 79 63
54 83 66
55 85 67
52 81 64
50 77 61
52 80 64
50 78 62
51 78 62
48 75 59
53 81 65
57 89 70
53 82 66
51 79 63
47 73 59
54 84 67
52 78 60
52 78 60
49 74 57
45 68 53
43 65 50
38 57 45
37 57 45
31 49 39
30 47 38
27 43 35
27 42 34
25 40 32
25 38 31
25 39 31
20 31 25
18 29 23
19 30 24
20 30 24
19 29 23
17 26 20
18 28 22
13 21 16
14 22 17
16 25 20
18 27 21
19 28 22
19 29 23
20 31 25
21 33 26
19 30 24
21 33 27
26 40 32
25 38 31
25 41 33
29 46 37
29 47 38
36 56 44
36 55 43
36 56 44
46 71 55
46 70 55
51 77 60
57 86 67
54 81 63
57 86 66
57 86 66
64 95 73
61 91 70
57 86 66
61 90 69
60 89 68
61 91 70
64 95 73
61 91 70
63 95 73
63 94 72
57 86 66
69 103 80
65 97 75
63 94 72
68 102 78
61 91 70
67 100 78
63 95 73
61 92 71
64 96 74
66 99 76
66 98 76
67 100 77
64 96 74
64 96 74
61 91 71
66 99 76
65 98 76
64 95 73
60 90 69
64 96 74
63 95 73
66 99 76
68 102 79
62 92 71
61 92 71
59 88 68
63 95 73
61 92 71
64 96 74
62 93 71
67 100 77
62 92 71
65 97 74
62 92 71
69 99 75
132 89 36
146 94 34
160 103 38
177 114 43
176 110 41
183 116 43
198 124 47
193 121 46
188 119 45
196 124 47
196 123 47
199 126 48
200 126 48
209 133 51
200 127 48
202 128 49
206 130 50
205 130 50
195 156 123
187 166 147
187 166 147
182 162 143
185 164 145
184 164 145
185 164 146
178 159 140
178 158 140
171 152 134
174 154 137
175 155 138
171 152 134
164 146 129
160 144 126
157 142 124
151 135 118
150 135 118
138 123 105
138 124 108
126 116 100
125 115 99
107 100 84
103 98 83
100 94 76
102 97 81
93 90 72
83 86 69
50 76 60
53 80 63
54 82 65
60 89 69
52 78 61
53 79 61
62 92 71
58 87 67
57 85 65
59 88 69
61 91 71
64 95 73
69 103 79
60 90 69
65 97 75
62 92 71
64 96 74
67 100 77
64 95 73
63 94 73
62 94 72
61 91 70
66 99 76
69 103 80
62 92 71
63 95 73
66 98 76
61 91 70
66 99 76
64 96 74
62 93 72
64 96 74
71 106 81
64 95 74
68 101 78
62 93 72
61 92 71
64 95 74
62 93 72
67 100 78
62 93 72
65 97 74
62 95 72
44 91 62
46 96 66
46 98 67
48 101 69
49 103 71
49 103 71
49 105 72
50 106 74
50 106 74
50 107 74
50 107 74
50 107 74
51 107 75
140 149 125
229 208 186
255 236 212
255 253 225
255 255 237
255 255 239
255 255 231
255 242 217
254 227 205
244 218 198
239 213 195
237 212 193
236 211 193
235 210 192
234 209 191
232 208 190
231 207 189
230 205 188
226 201 183
221 195 177
218 194 177
214 190 173
215 190 173
212 188 171
201 180 163
127 130 112
40 86 60
39 84 59
37 80 56
35 76 53
33 71 49
42 74 54
61 90 69
71 106 82
70 104 81
63 94 73
60 90 70
62 94 73
61 92 71
67 100 78
63 93 72
62 94 73
68 102 79
64 96 74
59 89 69
59 89 69
66 99 77
64 96 74
62 94 72
62 93 72
69 103 80
63 95 73
64 97 75
64 95 74
58 87 68
65 98 75
61 92 71
58 88 68
65 98 76
64 96 75
62 93 72
65 98 75
62 94 73
62 93 72
61 92 71
62 94 73
65 98 76
65 98 76
59 90 70
63 95 73
66 99 76
64 97 75
66 99 76
110 102 71
155 115 71
157 117 72
159 118 73
160 119 74
159 119 74
160 119 74
159 119 74
162 122 78
172 134 90
188 152 108
192 156 114
179 143 101
161 124 81
151 114 72
148 112 69
146 110 68
144 108 67
143 108 67
140 106 66
137 103 64
134 102 63
128 98 61
127 97 60
122 93 58
119 91 57
113 87 54
106 82 51
103 80 50
97 77 48
90 72 45
83 67 42
81 66 41
84 68 42
77 62 38
72 59 36
66 84 63
67 101 78
63 95 74
67 101 78
62 94 72
66 99 76
61 92 71
59 89 69
60 91 70
61 91 71
64 96 74
61 92 71
68 102 79
62 93 72
68 103 80
63 95 73
63 95 74
61 92 71
64 96 75
58 88 68
68 102 79
61 92 71
67 101 78
57 85 66
63 95 73
62 94 73
58 88 68
66 99 77
64 95 73
65 98 76
66 100 78
65 98 76
60 91 71
64 97 75
59 90 70
65 98 76
63 94 73
65 98 76
62 93 72
63 95 74
66 99 77
62 93 72
65 98 76
64 97 75
63 95 74
59 89 69
67 101 78
62 93 72
61 91 71
61 92 72
59 90 70
60 91 71
56 84 66
60 90 70
62 94 73
62 94 73
56 85 67
57 87 68
58 88 69
61 93 73
60 90 71
57 86 67
59 90 70
61 93 73
55 84 66
56 86 67
59 90 71
59 90 71
63 95 75
59 89 70
54 82 65
59 91 71
55 84 66
58 89 70
57 87 68
59 91 72
57 88 70
56 86 68
58 89 70
51 79 62
55 84 67
52 81 64
56 87 69
50 77 62
50 77 61
58 89 71
51 79 63
51 79 63
49 77 61
50 77 62
49 76 61
50 78 62
61 94 75
55 84 67
52 80 64
49 76 61
52 81 64
60 90 69
54 80 61
53 79 61
48 73 57
47 72 56
40 62 48
40 61 48
39 60 47
35 54 44
28 44 35
26 42 33
28 45 36
24 37 29
25 39 31
25 38 31
22 34 27
23 36 29
22 33 26
22 35 28
19 30 23
21 33 26
22 33 26
18 29 23
22 35 28
18 28 22
21 32 26
22 34 27
25 38 30
25 39 31
27 41 32
23 37 29
25 40 33
30 47 38
28 45 36
29 47 38
35 54 43
39 60 47
40 61 47
48 73 57
48 72 56
50 74 57
55 82 63
58 88 67
58 86 65
64 95 72
59 88 67
63 94 71
63 94 72
60 89 68
59 88 68
63 94 72
64 96 74
66 98 75
63 95 73
66 99 76
67 100 77
61 91 70
61 91 71
58 86 67
63 95 73
65 97 75
61 92 71
64 96 74
60 90 69
63 94 73
64 96 74
70 105 81
65 97 75
66 99 76
65 98 76
65 98 75
59 89 68
59 88 68
67 101 78
63 94 72
67 100 77
62 93 72
63 94 72
61 92 71
67 100 77
65 98 75
70 105 81
69 103 79
66 99 76
67 100 77
66 99 77
62 93 71
68 102 79
62 93 72
68 102 78
65 98 75
64 96 74
101 86 50
144 92 34
153 98 36
165 106 39
174 111 42
181 115 43
178 113 42
184 115 43
188 119 45
184 115 44
191 121 46
194 123 47
187 119 45
190 121 46
190 121 46
191 121 46
196 124 47
196 129 62
179 157 137
180 161 142
176 157 139
182 163 145
174 155 136
179 159 141
172 153 134
167 149 131
167 148 130
164 147 129
164 146 128
160 143 125
157 142 124
152 137 119
150 135 118
148 133 116
147 134 118
141 127 110
128 116 98
123 112 96
121 109 93
115 105 88
96 91 75
103 97 81
104 97 81
88 88 71
87 84 65
55 73 57
47 71 56
49 76 60
48 72 57
55 84 66
54 81 63
57 86 67
55 83 64
61 92 72
58 87 68
62 93 72
61 91 70
59 88 68
62 92 70
67 99 77
70 104 80
65 96 74
69 103 79
64 97 75
61 91 70
62 93 72
62 93 71
64 95 73
67 100 77
65 97 75
67 100 77
64 96 74
68 101 78
62 93 72
69 104 80
64 96 74
64 96 74
66 98 75
63 95 73
62 92 71
65 96 74
71 106 81
64 96 74
60 89 69
59 88 68
64 97 75
60 89 69
65 96 74
57 95 69
43 89 60
46 96 66
47 99 67
48 101 70
49 103 71
49 104 71
49 104 72
50 105 73
50 106 74
50 106 74
50 106 74
60 110 78
193 181 159
247 219 199
254 226 205
255 243 217
255 255 233
255 255 245
255 255 246
255 255 236
255 244 219
254 228 206
243 217 198
238 213 194
237 211 193
235 210 192
234 209 191
232 208 190
231 207 189
230 206 188
228 203 186
226 201 183
222 197 180
218 193 175
215 191 174
213 190 174
208 184 167
205 181 164
199 176 160
161 150 133
49 86 62
37 79 55
36 78 54
32 71 50
31 68 47
59 91 70
63 95 73
66 99 76
60 90 69
68 101 78
64 97 75
61 91 70
63 95 74
63 94 73
67 100 78
62 94 73
69 104 80
62 93 72
65 98 76
62 93 71
61 92 71
60 91 70
66 99 77
64 96 75
60 90 70
61 91 71
63 94 73
64 96 74
67 101 77
68 102 79
67 101 78
63 95 74
60 90 70
62 94 72
62 94 73
60 91 70
65 98 76
63 95 73
67 100 77
67 101 79
63 94 73
61 92 72
61 92 72
63 94 73
59 89 69
104 104 74
153 114 71
157 117 72
158 118 73
159 119 73
160 119 74
160 120 74
159 119 74
161 121 76
171 132 89
187 151 108
194 158 116
181 145 103
162 126 84
153 116 73
148 112 69
147 110 69
144 108 67
141 107 66
138 105 65
137 104 65
131 100 62
130 99 62
128 97 61
121 93 58
118 91 57
114 88 55
109 85 53
106 83 52
97 77 49
89 71 45
84 68 42
86 70 44
84 68 43
81 66 41
68 56 34
61 74 54
68 103 79
63 95 74
67 101 78
62 94 73
67 101 79
61 92 71
63 95 73
61 92 71
62 93 72
62 94 73
67 101 78
59 89 69
63 95 74
62 94 73
62 93 72
61 92 71
67 101 78
61 92 71
61 92 71
64 97 74
59 89 69
62 94 73
66 99 76
59 89 69
61 92 71
61 93 72
64 97 75
62 93 72
68 102 79
64 96 74
68 102 79
61 92 71
64 96 74
63 96 74
61 92 71
67 101 78
64 97 75
60 90 70
57 86 67
63 95 73
62 94 73
66 99 77
61 93 72
62 93 72
62 94 73
59 89 69
63 95 74
61 91 71
62 93 72
60 90 70
57 86 67
59 89 69
59 89 69
61 93 72
62 95 74
57 86 67
58 88 69
55 84 65
60 92 72
59 89 70
58 88 69
59 90 71
59 90 71
61 93 72
54 81 64
60 91 71
59 89 70
55 84 66
58 89 70
53 82 65
57 87 69
57 87 69
55 85 67
55 85 67
53 82 65
55 85 67
55 84 67
53 81 64
50 77 61
50 77 61
55 85 68
59 90 72
59 91 73
51 79 63
53 81 65
57 87 70
49 76 60
49 76 61
53 82 65
51 79 63
52 81 65
52 80 64
57 88 70
49 76 61
52 80 64
52 81 65
53 83 66
57 86 65
57 85 65
49 74 56
54 81 62
51 77 59
43 65 50
43 66 51
42 64 50
36 55 44
36 56 45
34 53 42
28 43 35
27 43 35
27 42 34
28 44 35
24 39 31
26 41 33
24 38 30
21 34 27
18 27 21
21 33 26
24 38 30
21 32 26
20 31 25
21 34 27
23 35 28
28 43 34
21 34 27
27 42 34
27 42 34
26 41 33
32 48 38
33 51 40
40 62 49
43 65 51
44 67 52
46 68 53
50 75 58
52 78 60
56 84 64
53 79 60
59 89 68
58 86 65
62 92 70
60 90 69
60 89 68
64 96 73
65 97 74
69 103 78
63 95 73
59 89 68
68 102 79
64 95 73
62 93 71
67 100 77
61 91 70
62 92 71
59 89 69
66 98 76
63 94 72
61 92 71
61 92 71
59 88 68
64 97 74
63 94 72
66 99 76
63 95 74
68 102 78
59 89 69
60 90 70
68 101 78
57 86 66
64 96 74
59 89 69
64 96 74
64 96 74
62 94 72
70 105 81
64 96 74
64 96 74
62 94 72
61 91 70
60 90 70
64 97 75
64 96 74
70 105 81
63 93 72
64 96 74
59 89 69
61 92 71
58 87 67
60 90 69
78 86 60
128 84 31
144 94 34
153 99 37
162 106 39
167 106 40
167 108 40
176 112 42
174 111 41
179 113 43
167 106 39
184 117 44
182 116 44
184 117 44
189 120 46
178 114 43
189 120 46
188 143 105
174 155 137
172 154 135
167 150 131
173 155 136
170 152 133
166 148 130
166 149 131
163 147 129
159 143 125
159 143 124
150 134 115
158 142 124
151 136 119
146 131 113
145 130 113
137 124 109
136 122 105
131 120 104
123 112 94
115 106 90
107 101 86
94 89 72
102 96 80
101 95 78
89 86 69
80 80 61
80 80 61
51 75 60
51 77 61
47 72 57
47 71 56
50 75 59
50 75 59
53 79 61
57 86 68
60 90 70
61 92 71
58 86 66
60 89 69
60 89 69
62 92 71
56 84 65
59 87 67
63 95 73
65 97 75
65 96 74
65 97 74
66 99 77
63 93 72
66 99 76
67 100 77
63 95 73
60 90 70
62 92 71
64 96 74
62 92 71
68 101 78
65 97 75
67 100 77
62 93 72
65 97 75
63 95 74
63 93 72
67 100 77
63 95 73
64 95 74
62 92 71
67 100 77
62 93 72
62 92 71
47 91 64
44 94 64
45 96 65
47 99 67
48 101 69
48 101 69
48 103 71
49 103 71
49 105 73
50 106 73
50 106 74
100 126 98
229 205 185
245 217 196
247 219 198
255 227 204
255 241 215
255 255 229
255 255 238
255 255 238
255 255 228
255 238 214
250 223 202
241 215 196
237 212 193
236 210 192
235 209 191
233 208 190
232 207 189
230 206 189
230 205 188
228 203 186
225 200 182
221 196 177
219 194 176
215 190 173
211 187 170
208 184 167
205 181 164
200 176 158
193 172 156
166 150 134
54 83 61
34 73 51
32 69 48
31 67 47
44 74 55
64 96 74
62 93 72
66 99 77
66 99 77
66 99 77
62 93 72
65 97 75
66 100 77
62 94 73
61 92 71
70 105 81
61 91 70
60 91 70
65 98 76
67 101 78
62 93 72
61 91 70
63 95 73
64 96 74
61 92 71
66 99 77
62 93 72
68 102 79
63 94 73
63 94 73
61 92 71
66 100 77
69 104 80
61 92 72
66 99 77
63 95 73
66 98 75
62 94 73
60 91 70
66 99 76
69 103 80
67 101 78
62 94 73
94 97 70
150 113 70
156 115 71
159 119 74
160 119 74
159 118 73
159 118 73
159 119 74
160 121 76
169 131 87
187 150 107
196 160 117
184 148 106
164 128 86
153 116 74
150 113 70
146 110 68
145 109 68
142 107 67
140 105 65
136 103 64
135 102 64
128 98 60
126 96 60
124 95 59
120 92 58
113 88 55
108 84 52
102 80 50
98 78 49
91 73 46
84 68 43
83 67 42
81 65 41
80 65 40
70 58 35
63 73 53
57 85 66
64 97 75
64 97 75
66 99 76
61 92 71
69 104 81
67 101 78
64 97 75
69 104 81
62 93 72
65 97 75
61 91 70
56 85 66
64 96 74
64 96 75
70 105 81
59 89 69
65 98 76
68 102 79
60 90 70
63 94 72
62 94 73
64 97 75
64 96 74
63 95 73
69 104 80
64 96 74
62 94 73
60 90 70
62 94 73
58 88 68
64 97 76
62 93 73
61 93 72
62 94 73
68 102 79
61 92 71
67 101 78
56 85 66
60 90 70
64 96 75
62 94 73
61 92 72
65 97 76
58 88 68
59 90 70
66 99 77
58 88 69
63 95 74
62 93 72
63 95 74
64 96 75
63 95 74
57 87 68
57 86 67
59 89 69
62 94 73
60 91 72
54 83 65
56 85 66
56 85 66
58 88 69
58 89 70
58 88 69
59 90 71
55 84 66
58 88 69
51 78 62
58 89 70
53 82 65
53 81 64
58 88 70
53 82 64
56 86 68
54 83 66
54 83 66
53 82 65
57 88 70
50 77 61
52 80 64
51 79 62
59 91 73
55 84 67
53 82 65
52 80 63
53 83 66
51 79 63
52 81 64
50 76 61
53 82 65
49 77 61
53 81 65
49 75 60
53 83 66
54 84 67
50 77 61
56 87 69
53 82 65
63 94 71
62 91 70
62 92 70
57 85 64
56 84 64
49 74 57
44 67 51
45 69 53
43 66 50
42 64 50
39 60 47
36 55 44
31 49 39
30 48 38
30 47 37
29 47 37
28 44 35
27 44 35
29 46 37
25 39 32
25 40 32
28 43 34
28 43 35
28 44 35
28 44 36
28 44 35
32 49 38
32 49 39
31 49 39
31 48 37
38 58 46
37 56 44
41 63 48
47 71 55
47 71 55
53 80 61
50 74 57
49 74 56
58 86 66
59 88 67
60 89 67
60 90 68
59 88 68
60 90 68
62 93 71
59 88 67
61 90 69
60 90 69
57 85 65
60 91 70
65 96 74
64 95 72
60 90 69
61 92 71
60 89 68
63 95 73
65 98 76
65 98 75
62 93 71
62 93 71
66 98 76
63 95 73
71 107 82
65 97 75
62 93 72
61 91 71
67 100 77
66 98 76
67 101 78
67 101 77
63 94 72
59 88 68
65 96 74
59 88 68
61 91 70
66 100 77
67 99 76
62 94 72
65 97 75
60 90 69
61 91 70
60 90 70
63 94 73
59 88 68
72 108 83
61 91 70
67 100 77
68 101 77
66 99 76
60 90 69
63 94 72
61 91 70
62 93 71
97 75 36
128 84 30
143 93 34
155 101 37
163 104 39
162 103 38
170 106 40
163 105 39
173 110 41
169 109 41
173 111 42
174 111 42
174 111 42
176 113 43
180 115 44
178 114 43
169 144 120
170 152 134
163 147 128
161 144 126
162 146 128
162 146 128
160 144 126
158 142 124
152 137 120
156 138 120
146 131 113
149 134 117
144 131 113
143 129 111
136 124 107
133 121 104
132 121 105
122 112 95
112 105 89
116 108 93
106 100 83
99 94 78
87 86 69
92 89 73
89 86 69
84 84 65
82 80 61
62 69 54
41 63 51
40 63 51
44 68 54
49 76 60
50 76 61
51 76 59
50 77 61
53 80 63
57 86 67
58 87 67
56 83 64
63 93 72
60 90 70
64 96 73
66 98 76
66 98 75
67 101 77
63 93 72
65 98 75
64 96 74
64 96 74
64 97 74
73 108 83
64 96 75
62 93 72
60 89 68
62 92 71
63 93 72
65 97 75
71 106 81
63 94 73
59 88 68
68 103 80
63 94 72
60 91 70
62 93 71
62 92 71
63 94 72
62 92 71
68 102 79
64 95 73
70 104 80
89 106 85
57 93 66
44 92 62
46 96 65
46 97 66
47 98 67
48 100 69
48 103 71
48 103 71
49 104 72
49 105 73
119 135 109
232 207 186
244 216 195
243 216 196
246 218 197
251 223 201
255 231 208
255 243 217
255 248 221
255 248 221
255 236 212
253 226 204
243 217 197
238 212 194
235 210 192
235 209 191
233 208 190
233 208 189
231 206 189
230 205 188
229 204 187
226 201 183
223 198 180
219 194 177
216 191 174
211 185 167
207 183 166
206 183 167
200 177 160
196 172 156
187 165 149
186 164 148
153 141 125
41 79 56
32 69 48
32 70 49
31 63 45
62 93 72
64 97 75
65 98 76
67 100 77
62 93 72
67 100 77
63 95 74
62 93 72
61 91 70
61 92 72
64 96 75
64 96 74
64 96 74
61 91 71
66 99 76
67 102 79
66 98 76
64 95 74
68 102 79
60 90 70
62 94 73
66 100 77
66 99 76
63 95 73
64 96 74
65 98 76
66 99 77
60 91 70
59 88 68
60 90 70
65 98 76
61 91 70
61 92 71
61 91 71
61 91 70
66 99 76
59 89 69
82 95 70
151 114 72
157 117 72
159 118 72
160 119 74
160 120 74
159 118 73
160 119 74
161 121 76
170 131 86
187 150 107
198 162 119
187 152 109
166 130 88
154 117 74
149 112 70
148 111 69
144 109 68
142 108 67
140 105 66
139 105 65
136 103 65
129 98 61
128 98 61
123 94 59
119 91 57
115 89 56
108 84 52
103 81 51
99 78 49
88 71 45
88 71 45
84 68 43
83 66 41
76 62 38
76 62 37
64 67 47
59 89 69
61 92 71
62 93 71
58 87 67
66 99 76
65 97 75
59 89 69
62 94 73
60 91 70
60 90 70
60 90 69
62 94 73
58 88 68
62 93 72
59 88 69
60 90 70
59 88 68
63 94 73
64 97 75
60 90 70
59 90 69
61 93 72
60 91 71
66 100 77
60 91 71
66 99 76
62 94 73
66 99 77
60 90 70
66 100 77
70 105 81
64 96 75
62 94 72
56 85 66
59 89 69
59 89 69
64 96 74
65 98 76
60 91 71
60 91 70
62 93 72
61 92 71
58 88 68
58 88 68
59 89 69
71 108 84
61 92 72
54 82 64
62 93 72
64 97 76
59 90 70
60 90 70
63 95 74
58 88 69
61 93 73
58 87 68
57 87 68
59 89 70
52 79 62
59 90 70
59 90 71
62 95 74
59 90 71
55 84 66
57 87 68
52 80 63
55 84 66
57 88 69
57 88 69
58 89 70
53 81 64
56 86 68
53 82 65
52 80 63
57 87 69
50 77 61
54 84 66
53 81 64
50 77 61
50 77 61
50 77 61
56 86 69
52 81 64
55 84 67
51 79 63
49 76 60
53 82 66
52 81 65
52 80 64
50 78 62
54 83 66
50 78 63
55 85 68
54 83 66
48 74 59
50 78 62
51 79 63
57 89 71
50 78 62
58 86 65
57 84 64
58 86 65
61 92 70
60 89 68
55 83 63
50 75 57
55 82 63
56 83 64
47 71 55
47 70 53
44 66 50
39 59 46
35 53 41
37 56 43
37 56 44
36 55 43
35 53 41
32 49 38
34 52 41
31 48 37
33 51 40
33 51 40
36 56 44
35 53 41
35 53 42
44 66 51
38 58 45
39 58 45
43 65 50
49 74 57
48 72 55
50 75 57
49 74 57
56 83 64
54 81 61
57 86 66
61 90 69
59 88 67
65 97 74
62 92 70
63 94 72
63 94 72
61 92 70
64 96 74
61 91 69
64 96 73
70 104 79
59 88 67
63 95 73
59 89 68
62 93 71
61 91 70
64 95 73
68 102 78
62 92 71
62 93 72
64 97 75
63 94 72
66 98 76
66 99 76
66 99 76
69 103 79
68 102 79
62 93 72
59 88 68
62 93 72
67 100 77
67 101 77
65 98 75
63 95 73
63 95 73
62 94 72
68 102 78
62 93 72
64 95 74
65 97 74
68 102 79
62 93 72
64 95 73
66 98 76
62 93 71
64 95 73
63 94 72
65 98 75
61 91 70
62 92 71
65 98 76
72 108 83
58 86 66
63 94 72
67 100 76
63 93 71
83 91 62
113 76 27
120 80 28
133 88 31
145 94 34
151 98 36
158 101 37
158 101 38
158 102 38
160 102 38
160 103 38
162 104 39
171 109 41
169 108 41
167 107 40
166 118 72
162 145 127
156 141 122
157 141 123
152 137 119
155 140 123
157 141 124
154 138 120
151 136 119
148 134 117
147 133 116
150 135 118
140 127 110
135 123 106
127 117 100
128 117 100
117 109 93
117 109 92
112 105 89
106 100 83
98 93 78
92 88 70
92 89 72
87 85 66
91 88 70
76 77 58
77 77 58
77 77 60
39 58 46
36 56 46
42 65 53
43 66 53
47 72 57
46 70 56
50 76 60
51 77 61
51 76 60
55 83 65
57 85 66
53 80 63
55 82 63
60 90 69
59 88 68
57 86 66
62 92 71
59 87 67
63 93 72
62 93 72
59 88 68
65 97 75
61 91 70
63 95 73
63 94 73
61 92 71
61 91 70
60 90 70
63 94 72
64 95 73
62 92 71
61 90 70
59 89 69
72 107 82
63 94 73
62 94 72
60 90 69
66 98 75
61 92 71
65 97 75
68 102 79
67 100 77
61 90 69
118 118 99
144 139 116
44 92 63
45 95 64
46 96 66
47 99 68
47 99 68
47 100 69
48 102 71
48 102 71
112 130 104
233 207 187
242 214 194
242 214 194
243 215 194
243 216 195
245 217 197
249 222 201
254 227 204
255 228 205
255 228 205
250 222 201
243 217 196
239 213 193
237 211 192
235 209 191
234 209 190
233 208 189
231 206 188
230 205 188
229 204 187
227 203 186
224 200 183
222 198 181
218 192 175
215 189 171
209 185 168
207 183 166
204 180 163
196 173 157
193 170 153
187 166 150
184 164 149
181 161 146
129 122 106
33 71 49
29 64 44
27 61 43
58 90 69
66 98 76
65 98 75
62 93 72
62 92 71
64 96 74
63 94 73
64 96 74
66 99 76
64 96 74
65 98 76
62 94 73
65 98 76
64 96 75
68 102 79
64 96 74
65 98 76
62 94 73
68 102 78
62 93 72
65 97 75
63 95 73
61 91 71
66 99 77
61 91 70
67 100 78
63 94 73
68 102 78
65 97 75
68 101 79
62 93 72
62 93 72
59 89 69
65 98 76
67 100 77
66 99 77
80 97 73
146 112 70
156 117 72
159 119 74
158 118 73
160 119 74
160 120 74
159 119 74
161 121 76
167 128 85
186 149 106
198 163 120
190 155 112
168 132 90
154 117 75
150 113 70
148 111 69
145 109 68
142 107 67
141 107 66
137 103 64
133 101 63
132 100 63
128 97 61
125 96 60
117 90 56
116 89 56
111 86 54
102 80 50
99 78 49
90 72 45
88 71 45
84 68 42
83 67 42
80 65 40
79 63 39
65 67 46
66 99 76
64 96 74
65 97 75
63 95 74
62 93 72
59 89 69
67 101 78
59 89 69
63 95 74
63 94 73
60 91 71
59 89 69
71 107 83
62 93 72
66 99 77
66 99 76
63 95 73
59 88 68
59 89 69
60 91 71
62 93 72
60 90 70
65 97 75
59 89 69
59 89 69
64 97 75
62 94 73
61 92 72
62 94 73
64 97 75
62 93 72
62 94 73
65 98 76
66 99 77
65 97 75
60 90 70
62 93 72
63 95 74
62 94 73
60 91 71
61 92 71
63 95 74
61 92 71
63 95 74
59 90 70
62 93 73
59 89 69
66 99 77
60 91 71
57 87 67
62 94 73
61 93 72
56 85 66
54 82 64
63 95 74
55 83 65
57 87 69
60 91 71
60 91 71
61 93 73
55 84 66
60 92 72
57 86 68
58 88 69
57 87 69
50 77 61
53 80 63
54 82 65
58 89 71
55 85 67
54 82 65
51 78 61
57 88 69
53 81 64
55 84 67
51 79 63
50 77 61
53 81 65
53 82 65
51 79 63
50 77 61
52 81 64
55 85 68
50 77 62
48 74 59
52 81 64
50 78 62
48 74 59
48 74 59
53 81 65
54 83 66
53 82 66
51 79 63
49 77 61
51 80 64
52 80 64
52 81 64
50 77 62
48 74 59
54 83 67
61 91 70
69 103 79
57 84 64
55 81 62
59 88 67
61 91 69
56 83 63
58 85 65
51 76 58
53 80 61
53 79 60
47 70 53
47 70 54
51 76 58
48 73 56
44 66 51
44 66 51
43 64 49
41 61 47
45 67 52
39 60 46
42 64 50
43 64 49
42 63 48
41 62 47
47 71 54
48 73 56
49 74 57
46 68 52
51 76 58
54 80 61
55 82 62
57 86 65
55 82 62
57 85 64
60 89 68
59 89 68
56 84 64
58 86 66
64 96 73
63 94 71
65 97 74
60 90 69
62 92 70
62 93 71
60 90 69
66 99 76
60 90 69
63 95 73
66 98 76
57 85 65
62 93 71
65 97 75
59 89 68
65 97 75
60 90 69
66 100 77
59 89 69
65 97 75
68 102 79
61 92 71
64 96 74
65 97 75
62 92 71
62 94 72
62 93 72
65 97 75
58 88 67
65 97 75
63 95 74
64 96 75
64 97 75
64 95 73
62 93 71
67 100 77
60 90 69
66 100 77
65 97 75
66 99 76
58 87 67
65 97 74
64 95 73
67 101 78
61 91 70
58 87 67
59 88 67
63 95 73
68 102 78
63 94 72
63 94 72
64 95 73
66 98 75
62 92 70
66 98 75
94 76 38
124 82 29
119 80 28
130 86 31
141 92 34
139 91 33
149 97 35
147 96 35
152 98 36
149 97 36
150 97 36
159 103 38
158 102 38
164 106 40
154 118 83
144 131 112
147 133 115
143 131 113
148 134 116
152 138 121
141 129 111
149 135 118
137 125 107
132 122 104
134 122 105
129 118 100
126 116 99
120 112 93
122 113 96
119 109 93
115 107 91
106 101 84
107 100 84
100 94 78
90 89 72
87 87 68
82 81 61
81 81 62
75 75 55
77 78 58
74 77 59
49 61 47
35 55 44
35 56 46
39 61 49
42 66 53
43 66 52
45 69 55
50 76 60
55 84 66
48 73 57
52 79 61
57 86 67
55 82 64
56 85 66
54 82 63
66 99 76
66 98 75
66 98 76
64 96 74
64 96 74
67 100 77
66 99 76
60 90 69
63 93 72
62 93 71
60 89 69
74 110 85
59 88 68
60 90 69
63 95 73
61 91 70
66 99 76
59 88 68
64 95 72
64 96 74
60 90 70
63 95 73
69 102 79
62 92 71
64 95 73
64 96 75
65 96 74
63 95 73
64 95 73
81 78 66
160 143 123
43 90 61
45 94 64
46 97 67
46 97 66
47 100 69
47 99 69
48 101 70
97 122 95
224 200 180
238 210 190
240 212 192
241 213 193
242 214 193
241 214 194
242 214 194
242 215 195
243 216 196
243 217 196
242 215 195
240 214 194
238 212 192
236 210 191
235 209 190
234 208 190
233 207 189
232 206 188
230 205 187
228 203 185
227 202 185
224 199 181
221 196 179
220 193 175
214 188 170
213 188 172
206 181 164
203 178 161
200 177 160
194 171 155
193 169 152
183 161 144
180 159 143
174 155 139
170 152 138
92 95 79
29 64 44
27 60 41
48 77 58
59 89 68
67 100 77
62 93 72
66 100 77
68 103 79
64 95 73
67 101 78
66 99 76
63 94 73
61 91 70
63 94 73
65 97 75
62 93 72
64 95 73
59 89 69
60 91 71
61 91 71
63 94 73
62 93 72
64 96 74
63 95 73
61 91 70
60 90 70
62 93 72
64 97 75
65 98 76
62 93 72
64 96 74
63 95 73
62 93 72
65 97 75
62 93 72
63 95 74
63 95 74
79 100 76
144 110 69
158 117 72
158 117 73
159 119 74
160 119 73
160 119 74
159 119 73
160 120 75
167 128 84
186 149 106
201 165 121
192 157 115
172 135 93
156 119 76
149 112 70
147 111 69
144 109 68
144 109 68
141 106 66
139 105 66
133 102 63
133 101 63
128 98 61
125 95 59
120 92 57
117 90 56
110 85 53
102 80 50
99 78 49
89 72 45
88 71 45
89 71 45
78 64 39
83 67 42
78 63 39
65 63 42
67 99 76
67 100 78
61 92 71
61 92 71
65 98 76
64 95 74
61 92 72
59 88 68
64 97 75
66 99 77
64 96 75
60 91 71
59 88 68
59 89 69
60 90 70
61 91 71
66 99 77
62 93 72
63 95 74
61 91 71
66 99 77
58 88 68
65 98 76
61 92 71
60 90 70
64 96 75
62 93 72
60 91 70
64 96 75
67 101 78
67 101 78
61 93 72
60 90 69
65 98 76
65 97 75
60 91 70
64 97 75
64 96 75
60 90 69
61 93 72
62 93 72
63 94 73
63 94 73
61 92 71
54 82 64
60 90 70
56 85 66
61 92 72
62 93 73
62 94 73
58 88 69
58 88 68
63 96 75
55 84 66
58 87 68
61 92 72
56 84 66
55 84 66
60 92 72
60 91 72
58 88 69
56 85 67
52 80 63
60 92 72
56 85 67
55 85 67
55 84 66
51 78 62
61 93 73
52 80 63
54 83 65
50 76 60
56 86 68
53 82 66
58 90 71
56 86 68
56 86 68
53 81 64
53 82 66
50 77 61
56 87 69
54 84 67
57 87 70
48 75 60
50 77 61
49 76 60
49 76 61
51 79 63
51 79 63
49 76 61
51 79 63
50 77 62
50 78 62
52 80 64
52 81 65
51 79 64
57 87 69
48 75 60
54 83 67
50 78 62
51 79 63
64 95 73
61 90 69
59 87 66
57 85 64
60 89 67
59 87 66
55 82 62
58 86 66
57 85 64
58 87 66
58 86 65
60 89 68
55 83 63
59 88 67
56 83 63
49 73 55
52 77 59
52 78 59
47 71 54
50 74 56
53 80 61
53 80 61
51 76 57
53 80 61
52 77 58
59 88 67
58 86 66
60 89 67
52 78 60
59 88 67
61 91 69
58 86 65
64 95 72
61 90 68
56 83 63
56 84 64
60 89 67
58 86 66
64 94 72
62 92 70
67 99 76
63 94 72
65 96 74
65 97 75
59 88 67
59 88 68
58 87 67
64 96 73
62 93 72
64 95 73
62 94 72
62 93 72
62 92 70
56 84 65
60 90 69
68 101 77
64 96 74
63 95 73
59 89 69
58 88 68
64 96 74
62 92 71
65 98 75
64 96 74
65 97 75
61 91 70
61 92 71
62 93 72
62 93 72
61 91 70
65 97 75
62 93 72
61 91 70
63 94 72
64 95 73
63 94 72
66 98 76
68 101 77
61 91 70
62 92 71
61 92 70
65 98 75
62 93 71
63 94 72
60 91 69
66 98 76
63 94 72
62 92 71
65 97 74
63 94 72
64 96 73
63 93 71
61 90 69
60 89 68
62 87 64
103 72 26
108 74 26
116 78 27
120 80 28
127 83 30
132 87 32
131 86 31
137 90 33
137 91 33
137 89 33
144 94 34
146 96 35
148 97 35
139 115 88
134 123 106
128 118 100
134 124 105
136 124 107
139 127 109
131 122 104
126 117 99
128 119 102
124 115 98
121 113 96
119 110 93
113 107 89
118 109 93
106 101 85
104 99 83
100 95 79
102 97 80
97 94 78
93 91 75
81 82 63
79 79 59
78 78 58
74 76 55
78 77 57
73 75 56
54 63 46
33 51 41
35 55 44
35 55 44
35 55 45
36 56 45
38 59 47
44 68 54
49 76 61
52 78 62
47 71 56
53 80 62
52 78 61
53 79 61
56 85 66
57 86 66
62 93 72
61 90 69
59 89 68
64 97 74
63 94 73
62 92 71
66 99 76
62 92 71
61 91 70
65 97 75
66 98 76
60 89 68
65 97 75
62 93 72
64 95 73
65 97 75
63 95 74
62 92 71
61 91 71
69 102 78
59 89 69
62 93 72
61 92 71
63 93 72
64 95 73
65 97 75
65 97 75
59 88 68
75 103 80
187 163 142
145 126 110
65 98 71
44 92 62
45 94 64
46 97 67
46 97 66
47 99 68
56 103 73
205 185 163
236 208 187
235 207 186
236 208 188
239 211 190
239 212 191
239 212 191
241 213 192
240 213 193
239 212 193
240 212 192
239 212 192
237 211 191
236 210 190
235 209 190
234 208 189
233 207 188
231 205 187
230 204 186
228 202 184
224 198 181
224 199 182
222 197 179
220 194 176
217 190 172
212 186 169
208 183 166
201 176 159
200 175 158
196 172 156
189 167 150
191 169 153
183 162 146
173 153 136
170 150 135
162 145 130
140 129 115
30 63 43
26 59 41
43 72 54
59 88 68
65 97 75
65 98 75
64 95 73
66 99 76
60 90 70
63 94 73
68 101 78
61 91 70
63 94 73
65 97 74
61 92 71
69 103 80
64 96 74
60 90 70
65 98 76
67 100 77
62 94 72
58 88 68
61 92 71
64 97 75
61 92 71
65 98 75
61 91 71
64 95 74
58 88 68
64 96 75
67 101 78
63 94 73
65 99 77
65 98 75
61 91 70
59 89 69
67 93 71
140 112 72
157 117 72
158 118 73
159 119 73
160 119 74
160 119 74
160 119 74
159 119 74
165 126 82
183 146 103
200 165 121
196 160 117
174 138 96
157 120 77
150 113 71
148 112 69
146 110 69
143 108 67
139 105 65
137 103 64
133 100 62
132 100 62
128 97 60
123 94 59
122 93 58
117 90 57
112 87 54
108 84 53
100 78 49
93 74 47
90 72 46
84 68 42
79 64 40
80 64 40
78 64 39
71 64 41
62 92 71
62 93 72
63 95 73
65 98 76
63 95 74
59 89 69
64 97 75
63 95 73
67 100 78
60 91 70
66 99 76
60 91 70
66 99 77
65 98 76
66 99 77
61 92 71
68 103 80
62 93 72
68 102 79
66 99 76
63 95 74
63 95 74
61 92 71
70 105 81
63 95 74
64 96 74
64 96 74
62 93 72
68 102 79
64 97 75
62 94 72
64 96 74
70 105 82
70 105 81
60 90 69
62 94 73
59 89 69
63 94 73
60 90 70
60 90 70
63 95 73
62 93 73
60 91 71
64 97 75
58 88 68
64 96 75
61 92 72
57 87 67
56 85 67
60 91 71
57 86 67
60 92 72
62 94 73
60 91 71
56 85 66
56 86 67
55 83 66
55 84 66
55 83 65
61 92 72
53 81 64
58 89 70
58 88 70
53 81 64
54 82 64
56 85 66
53 81 64
59 90 71
62 96 76
53 82 65
54 83 65
54 83 65
55 84 67
55 85 68
52 80 64
54 83 66
57 88 70
54 83 66
55 85 68
55 85 68
53 82 65
49 76 60
53 82 65
54 84 67
50 78 62
49 76 61
48 75 59
51 79 63
57 89 71
53 83 67
53 82 66
47 73 58
46 72 58
52 80 64
50 78 62
52 81 65
49 76 61
55 86 69
57 88 71
49 76 61
52 80 64
51 79 63
63 94 72
66 99 75
64 96 73
60 90 69
61 90 68
61 90 69
60 89 68
62 92 70
62 92 70
56 84 63
66 97 73
61 91 69
58 86 66
60 88 67
57 84 64
58 86 65
57 84 64
53 80 60
58 87 66
58 85 65
55 81 62
60 90 68
54 81 62
52 77 58
60 88 67
59 87 66
58 86 65
58 86 65
57 85 65
59 88 67
59 88 67
63 93 71
61 91 69
68 101 77
63 93 71
62 93 71
62 93 71
64 95 73
61 91 69
63 94 72
61 92 70
65 96 74
63 94 72
61 92 71
57 85 65
63 94 72
62 93 72
69 103 79
59 89 69
62 93 72
60 89 68
65 97 75
67 101 78
61 91 70
63 95 74
63 95 73
63 94 72
64 95 73
64 96 74
66 99 76
66 98 75
62 94 72
60 91 70
66 100 77
68 102 79
65 98 75
61 91 70
64 96 74
65 98 75
70 105 81
65 98 75
61 91 70
67 100 77
60 90 70
64 96 74
65 97 75
63 94 72
64 97 75
63 95 74
60 91 70
63 93 71
61 91 70
66 99 76
63 95 73
63 95 73
69 103 79
62 93 71
60 90 69
66 98 75
69 103 79
60 89 68
61 90 69
64 95 73
54 80 61
54 81 62
81 74 47
92 66 22
94 68 23
104 70 24
121 80 28
122 81 28
129 86 31
129 85 31
127 85 31
130 87 32
129 86 31
126 85 30
132 88 32
127 116 97
127 117 99
129 119 102
122 114 96
121 114 95
116 109 91
119 111 94
119 113 96
111 105 88
110 104 87
105 101 84
102 97 80
107 102 85
104 98 81
97 92 77
93 90 73
91 89 72
91 91 73
87 86 67
93 88 70
75 78 58
69 73 52
74 74 54
74 75 54
59 66 44
62 67 49
40 59 47
37 58 47
34 53 43
40 62 51
40 63 51
40 62 50
44 69 55
42 64 51
43 67 53
45 69 54
52 79 61
49 74 58
55 82 64
57 85 66
53 79 61
54 81 62
55 83 64
63 94 72
65 97 75
64 95 73
69 102 79
59 89 68
63 94 72
66 99 76
68 102 79
68 102 78
59 89 68
67 100 77
64 96 73
66 98 75
63 95 73
63 94 72
62 93 71
62 93 72
65 98 75
63 95 73
59 88 68
67 100 77
64 96 74
62 93 72
70 105 81
70 104 80
67 101 78
67 100 77
104 116 94
192 168 146
131 115 100
109 118 94
43 91 62
43 91 62
45 95 65
46 97 67
46 97 67
167 160 137
233 204 183
233 206 185
235 207 187
234 206 186
233 205 185
235 208 188
235 207 187
237 209 189
237 210 190
237 210 190
237 210 191
237 210 190
236 209 190
234 208 189
233 207 188
233 206 187
230 203 184
229 203 185
226 200 182
229 202 183
224 197 179
223 197 179
220 193 175
218 191 172
214 186 168
210 184 166
205 178 161
202 176 159
197 173 155
192 166 149
191 168 151
182 159 143
178 157 141
172 154 138
164 145 129
153 137 122
147 132 117
90 92 77
26 60 41
32 61 44
60 90 70
61 91 70
60 90 69
67 100 77
64 96 74
61 93 72
62 94 72
60 91 70
68 103 79
60 90 69
63 94 73
67 100 77
62 94 73
61 92 71
64 96 74
59 89 69
64 95 74
64 97 75
61 92 71
61 92 71
62 93 72
61 91 71
61 91 70
61 92 71
65 98 75
64 96 74
63 95 73
62 94 73
64 96 74
63 94 73
67 101 78
63 95 73
68 95 72
141 110 70
156 116 72
158 117 72
159 119 74
159 118 73
161 120 74
159 119 74
160 120 74
164 125 81
183 146 102
202 166 123
199 164 121
177 141 99
160 123 80
150 113 71
148 111 69
145 109 68
143 108 67
140 106 66
137 104 65
136 103 64
131 99 62
128 98 61
122 94 58
124 95 59
117 90 56
114 88 55
108 84 53
98 77 48
96 76 48
86 69 43
82 66 41
85 68 43
76 62 38
72 59 36
68 61 39
59 86 65
61 92 71
66 99 77
62 94 73
57 86 66
61 92 72
64 96 74
64 96 74
63 94 73
62 93 72
64 97 75
63 95 74
61 92 71
63 95 73
65 98 76
63 94 73
62 93 72
62 94 72
58 87 68
61 92 71
64 97 75
64 97 75
60 90 69
58 87 67
62 93 72
63 95 74
65 98 76
58 87 67
62 94 72
62 93 72
63 95 74
57 86 67
58 87 68
60 91 70
62 93 72
64 96 74
58 88 68
62 93 72
61 92 71
58 87 68
62 94 73
59 89 69
59 89 70
63 95 74
60 91 70
56 85 66
59 89 70
59 89 70
56 85 66
57 87 68
60 91 71
55 84 66
56 86 67
60 92 72
60 92 72
57 86 67
58 88 69
54 83 65
58 88 69
53 80 63
57 87 68
61 93 73
58 89 71
56 86 68
51 78 62
51 78 61
53 81 64
58 89 71
54 83 66
55 85 67
50 78 62
53 82 65
50 77 61
60 92 73
55 85 68
47 73 58
55 84 67
50 78 62
53 82 65
54 84 67
48 75 60
52 81 65
53 82 65
54 83 66
51 80 64
49 77 62
53 82 66
49 76 61
51 78 63
55 84 67
51 78 62
50 78 62
47 73 58
50 79 63
48 75 60
51 80 64
48 74 59
50 77 62
51 79 63
52 82 65
54 83 66
53 81 65
48 75 60
63 93 71
63 95 73
60 89 68
58 86 65
62 92 70
59 88 67
60 89 68
63 93 70
58 86 65
62 92 70
60 89 67
62 92 70
60 88 67
59 88 67
61 91 69
56 83 63
60 89 68
61 90 68
60 89 68
61 91 69
64 94 71
57 85 64
61 90 68
67 99 75
57 86 65
59 88 67
66 98 74
60 89 67
61 91 69
60 90 69
65 96 73
70 104 79
56 83 63
61 91 69
63 95 73
59 88 67
65 97 74
64 95 72
63 93 72
68 101 77
61 91 70
60 89 68
63 94 72
64 96 74
63 94 72
68 102 79
65 98 75
65 97 75
65 97 75
65 97 74
64 96 74
66 98 75
67 101 78
68 103 79
62 93 72
59 89 69
60 90 69
64 97 75
63 94 73
58 87 67
60 91 70
64 97 75
62 92 71
66 99 76
69 103 79
63 95 73
62 93 71
65 98 76
62 94 72
65 97 75
60 90 70
63 95 73
65 97 75
66 99 76
65 97 75
64 96 74
61 91 71
62 94 72
63 94 72
70 105 81
61 91 70
64 96 73
60 90 69
60 90 69
66 99 76
59 88 67
60 89 68
61 91 69
58 86 66
63 94 72
63 93 71
62 92 70
58 86 65
61 90 68
53 80 61
55 82 63
88 71 36
87 63 20
104 71 24
108 73 25
96 68 22
116 79 28
106 73 25
105 72 25
114 78 27
124 83 30
118 80 28
121 82 30
104 100 80
108 103 84
106 102 83
113 107 90
102 98 80
111 105 87
103 98 82
106 102 85
102 99 82
92 90 72
94 92 76
93 92 75
96 93 75
87 85 67
94 92 74
96 92 74
87 86 68
80 82 63
81 81 62
87 85 67
74 75 55
67 72 50
66 69 47
58 65 43
60 66 47
44 56 43
36 54 43
31 50 40
37 58 47
37 57 45
36 56 45
40 61 49
41 64 51
43 65 52
44 68 54
46 69 55
50 76 59
57 85 66
56 84 65
57 86 67
55 83 64
57 85 66
57 86 66
57 85 65
61 91 70
60 90 69
62 92 71
64 96 74
61 91 70
64 95 73
63 93 71
59 89 68
60 90 69
60 90 69
65 97 75
69 103 80
67 100 77
64 95 73
67 99 76
68 101 78
62 92 71
70 104 80
71 105 81
67 100 77
60 89 68
64 96 74
64 96 74
61 91 70
67 99 75
66 98 76
96 104 84
182 161 140
135 118 104
137 134 111
42 89 60
43 91 62
44 93 64
45 95 65
97 118 92
224 197 176
224 197 176
231 203 183
230 202 181
233 206 185
232 204 184
233 206 186
234 207 187
234 207 186
233 207 187
236 209 188
234 208 188
235 208 189
235 208 188
233 207 188
230 203 184
230 203 185
228 202 184
228 200 181
228 200 181
225 199 180
225 197 178
221 194 176
220 192 173
217 189 171
209 182 164
206 178 159
203 175 157
198 172 155
194 169 151
193 169 153
187 165 149
171 150 134
175 153 137
165 147 133
160 142 128
149 132 116
141 127 112
125 117 104
24 53 36
25 55 38
64 95 73
64 95 73
61 91 70
66 99 76
65 97 75
56 84 65
61 92 72
61 91 70
62 93 72
68 103 79
63 94 73
65 98 75
62 93 71
65 98 75
70 105 81
64 97 75
60 91 71
64 95 74
65 98 76
64 96 74
61 92 71
61 92 71
60 90 69
61 91 70
64 96 74
63 95 74
60 90 69
67 101 78
65 98 76
66 99 77
61 92 71
65 96 75
133 106 68
157 116 72
156 117 72
158 118 73
159 119 73
160 119 74
159 119 74
159 119 74
164 125 81
181 144 101
201 165 122
201 166 123
180 144 102
160 123 81
149 113 71
149 112 70
147 111 69
143 108 67
142 107 66
137 104 64
136 103 64
131 100 62
128 97 61
126 96 60
121 92 58
119 91 57
112 87 54
110 85 53
101 79 50
91 73 45
90 72 45
87 70 44
84 68 42
78 63 39
81 66 41
69 59 37
65 86 66
63 95 74
60 90 70
63 96 74
62 93 72
59 90 70
62 93 72
62 93 72
60 90 70
60 90 70
58 87 67
65 98 76
65 98 76
65 98 76
62 93 72
64 96 74
60 90 69
65 97 75
63 95 74
58 87 67
68 102 79
62 93 72
65 98 76
64 96 74
63 94 73
60 91 71
62 94 73
60 91 70
65 98 76
61 91 70
61 91 70
65 99 77
56 84 65
63 95 74
62 94 73
62 93 72
60 90 70
61 93 72
63 94 73
59 88 68
64 97 76
61 93 72
59 89 69
60 91 70
63 95 74
61 93 72
59 88 69
62 94 73
58 88 68
59 89 70
59 90 70
61 92 72
60 91 71
54 82 64
59 90 71
60 91 72
60 91 71
57 86 68
60 91 71
55 83 65
54 82 64
56 86 68
53 81 64
57 87 69
56 86 68
53 81 64
52 80 64
56 86 68
50 77 61
54 84 67
52 81 64
54 84 67
52 80 64
50 78 62
55 85 68
48 75 60
51 79 63
58 89 71
56 87 69
53 82 66
52 79 63
51 80 63
53 83 66
53 82 65
53 82 65
53 83 66
51 79 63
53 83 66
49 75 60
49 76 61
50 78 62
54 84 67
50 78 62
47 73 58
48 75 60
51 80 64
49 76 61
48 74 59
47 73 58
53 82 66
58 90 72
53 83 66
54 84 67
49 76 61
61 90 69
64 96 73
62 93 71
66 99 76
61 91 69
62 92 70
64 95 72
61 91 70
60 90 69
58 87 66
59 88 67
61 91 69
61 90 69
61 91 69
59 88 67
64 94 72
64 95 72
63 93 71
59 88 67
62 91 70
62 93 71
56 84 64
63 93 71
64 95 72
64 96 73
65 97 74
66 99 75
60 88 67
59 88 67
63 94 72
65 98 75
62 92 71
61 91 70
58 86 66
66 98 75
57 85 65
63 94 72
66 98 75
59 87 67
62 92 70
67 101 77
68 102 79
64 95 73
59 89 68
59 89 68
70 105 81
63 95 73
70 104 80
64 96 74
66 99 76
61 91 70
68 102 79
62 92 71
60 89 68
61 92 71
66 99 76
65 98 75
61 92 71
63 95 73
63 95 73
68 102 79
67 100 77
66 99 76
66 99 76
61 91 70
69 104 80
63 94 73
63 95 73
63 94 73
62 94 72
63 95 73
64 96 74
63 95 73
67 100 77
64 97 74
63 95 73
67 101 78
58 86 66
62 93 72
59 88 68
62 92 70
62 92 71
68 101 78
60 90 69
60 90 69
64 96 74
61 90 69
61 91 70
66 97 74
68 101 77
60 89 68
63 94 72
62 92 70
54 81 61
58 86 66
56 83 64
53 76 58
80 68 36
98 67 22
94 66 21
98 69 23
105 73 25
98 69 23
102 72 24
106 73 25
103 72 25
104 73 25
102 73 31
100 96 78
93 91 73
98 95 77
92 92 73
87 88 69
86 86 68
93 92 75
94 92 75
79 81 63
74 78 60
82 83 64
83 84 66
83 85 66
81 81 62
85 84 65
80 82 63
75 78 58
66 72 50
75 78 58
76 78 57
60 67 44
58 65 43
60 66 44
54 63 42
43 55 41
30 47 37
36 55 44
35 55 45
33 51 41
40 62 50
39 62 51
38 59 48
40 61 49
41 64 51
45 70 56
49 75 58
51 78 61
55 83 65
52 78 60
55 83 64
59 88 68
65 97 75
60 90 70
61 92 70
64 97 74
60 90 69
62 93 71
68 100 77
63 95 74
65 97 74
65 96 74
61 91 70
65 96 74
62 93 72
66 98 75
70 105 81
66 99 76
64 95 73
61 91 70
66 99 76
64 95 73
66 98 76
62 93 72
64 95 73
60 90 69
62 93 72
63 94 72
67 101 78
65 97 75
67 100 77
52 76 59
158 139 121
143 124 107
133 127 106
43 90 61
43 90 61
43 91 62
45 95 65
190 171 150
225 197 175
225 197 177
229 201 180
225 199 178
231 204 184
230 203 182
230 203 184
230 203 184
230 203 184
232 205 185
231 204 184
231 205 185
232 205 186
229 203 184
231 204 184
228 202 183
228 202 183
229 201 181
227 199 179
228 200 180
225 196 177
222 194 175
219 190 171
216 189 171
215 186 167
210 181 162
206 179 161
200 171 152
200 173 155
189 164 146
185 161 144
178 155 138
178 156 140
169 148 132
158 138 122
155 137 122
142 128 114
136 123 109
127 116 103
47 63 47
23 53 36
61 92 71
62 93 71
62 92 71
60 90 69
62 94 73
64 96 74
64 95 74
65 97 75
67 100 77
67 101 78
61 92 71
62 93 72
65 98 76
61 92 71
67 100 78
63 95 73
62 93 72
64 97 75
59 89 69
59 88 68
66 99 76
66 99 77
62 93 72
68 102 79
60 91 70
60 90 70
69 103 80
58 87 67
66 99 77
64 96 75
66 96 74
128 105 69
157 116 72
158 117 72
159 118 73
160 119 74
160 120 74
160 120 74
159 119 74
163 124 79
179 141 98
201 165 122
204 169 126
182 146 104
161 124 82
151 114 72
149 112 70
146 109 68
144 109 68
143 108 67
138 105 65
135 102 64
133 101 63
128 97 60
126 97 60
120 92 57
116 89 56
111 86 54
108 84 53
101 79 49
95 75 47
91 73 46
87 70 44
84 68 43
80 65 40
79 64 39
74 61 38
62 80 60
64 97 75
57 85 66
60 91 71
62 93 72
65 98 76
64 96 75
65 99 76
61 93 72
63 94 73
63 95 73
61 93 72
65 98 76
65 98 76
66 100 77
71 107 83
65 98 76
65 97 75
60 90 70
64 97 75
67 101 78
56 84 65
61 91 71
64 96 75
59 89 69
70 105 81
61 92 71
63 96 74
63 95 73
62 94 72
64 96 75
64 97 75
59 88 69
66 99 77
59 89 69
62 93 72
63 95 74
65 99 76
61 92 72
63 95 74
62 93 72
67 101 78
65 98 76
59 89 70
54 82 64
60 91 71
62 94 73
62 93 73
61 93 72
60 91 71
56 85 67
59 90 70
61 93 73
61 92 72
59 89 70
58 89 70
57 87 68
54 83 65
61 93 73
56 84 66
56 85 67
51 78 62
57 87 69
53 81 64
54 83 65
54 82 65
55 84 66
55 85 67
55 84 66
54 83 66
53 81 64
53 81 65
54 84 67
51 78 62
51 79 63
53 81 65
53 82 66
51 79 63
49 76 61
51 79 63
51 79 63
51 79 63
50 78 62
53 82 65
49 76 60
50 77 62
52 81 64
52 80 64
54 84 67
50 79 63
50 78 62
48 75 60
51 79 63
50 78 62
54 83 67
55 86 69
49 76 61
51 80 64
55 86 68
54 83 67
52 81 65
53 82 66
53 82 65
50 78 62
52 80 64
68 101 78
59 88 68
64 96 73
65 96 73
58 86 66
67 100 77
61 90 69
61 91 70
57 86 66
60 89 68
64 96 73
57 84 64
61 91 69
60 89 68
62 92 70
67 99 76
58 86 65
64 95 72
63 94 72
63 94 71
58 87 66
64 96 73
63 93 71
62 93 71
63 94 72
61 91 69
66 99 75
63 93 71
60 89 68
61 90 69
67 100 77
61 91 70
65 97 74
61 91 70
65 97 74
64 96 73
63 94 72
66 98 75
67 101 78
58 87 67
64 95 73
68 102 79
64 95 73
65 97 74
63 94 72
62 92 71
62 93 72
64 96 74
64 97 75
62 93 72
64 95 73
61 91 70
59 89 68
67 100 77
63 94 73
64 95 73
60 90 70
63 94 73
66 98 76
76 113 87
65 98 76
62 93 72
66 98 76
66 99 76
60 91 70
60 90 69
63 94 73
60 90 69
66 99 76
65 97 75
64 96 74
65 97 74
65 97 74
61 92 70
64 95 74
68 102 78
65 97 75
64 96 74
63 95 73
59 88 68
68 101 78
67 100 77
66 99 76
62 93 71
70 105 80
65 97 74
63 92 70
58 86 66
61 91 69
61 90 69
64 95 72
65 96 73
57 85 64
60 89 67
61 91 70
54 81 62
52 78 60
48 67 50
71 59 28
83 62 19
90 65 21
88 64 21
98 69 23
94 68 22
102 72 24
91 65 21
94 67 22
93 68 28
82 84 65
86 87 68
82 83 63
80 81 61
81 82 63
79 82 62
75 78 58
91 90 73
79 83 61
82 83 63
83 84 65
85 87 67
78 82 62
90 89 70
87 87 68
79 81 62
74 77 56
67 72 49
69 74 51
68 72 50
59 65 42
55 64 42
55 62 42
36 48 34
31 47 38
31 49 40
36 56 45
30 47 38
36 57 46
35 56 45
37 57 46
35 55 45
34 53 43
44 68 55
47 71 56
51 78 61
53 80 62
49 74 58
57 87 68
62 92 71
57 85 66
62 93 71
61 91 70
60 90 69
61 91 70
63 95 73
69 103 79
65 98 76
69 103 79
62 92 71
61 92 70
66 99 76
70 105 81
66 99 76
67 100 77
64 96 74
65 98 76
62 93 72
66 98 76
62 93 72
66 99 77
64 96 74
65 97 74
66 99 76
66 98 75
62 93 72
66 99 76
64 96 74
63 94 72
66 98 76
44 66 51
131 113 98
160 140 122
130 121 101
41 87 59
42 89 60
42 90 61
101 116 92
218 192 170
218 191 169
220 194 173
224 197 177
223 197 176
225 199 178
227 201 180
228 202 181
229 202 182
228 202 182
225 200 180
225 200 180
230 204 184
228 202 182
225 199 180
228 201 182
224 197 178
226 198 179
224 196 177
224 197 179
221 193 174
223 195 175
221 193 174
216 187 168
215 185 165
213 186 167
206 176 157
201 173 154
196 169 151
191 165 147
184 158 140
178 154 136
179 155 138
160 139 122
166 147 131
157 138 124
154 137 123
137 123 109
130 118 104
117 108 95
81 84 70
24 54 37
52 79 60
62 94 72
67 100 77
68 102 78
62 94 73
69 103 79
65 96 74
61 92 71
63 94 73
64 96 74
66 98 76
62 93 72
67 101 78
58 87 67
66 99 76
65 98 76
64 96 74
68 102 79
58 87 67
63 94 73
67 100 77
65 98 76
61 92 71
59 89 69
64 96 74
63 95 74
65 98 76
60 90 70
63 95 73
71 106 82
121 107 72
156 116 72
158 117 72
158 118 73
161 120 74
161 120 74
160 119 74
160 120 74
163 123 79
178 141 98
202 166 122
206 170 127
186 150 108
164 127 85
150 114 72
149 112 70
147 111 69
145 109 68
142 107 67
139 105 65
137 104 64
132 100 62
130 99 62
122 93 58
122 94 58
116 89 55
110 85 52
104 81 51
103 81 51
95 76 48
93 74 47
88 71 45
85 68 43
81 66 41
79 64 39
77 63 38
64 78 57
60 90 70
59 89 69
61 92 71
64 96 74
60 89 69
58 87 67
62 92 71
62 92 71
64 97 75
60 90 70
59 89 69
62 94 73
63 95 73
61 92 71
63 95 74
70 105 81
64 96 74
63 95 73
59 89 69
59 89 69
61 92 71
61 92 71
65 98 76
61 91 70
61 92 72
62 94 73
59 89 69
62 94 73
64 97 75
60 91 71
58 87 67
60 90 70
65 98 76
65 98 76
62 94 73
63 95 73
62 93 72
58 88 69
59 89 69
57 86 67
57 86 67
63 95 74
64 97 75
61 92 71
58 88 68
69 105 82
62 95 74
57 87 67
63 96 75
58 89 69
60 92 72
58 88 69
59 89 70
60 91 72
60 91 71
55 84 66
58 89 70
56 85 67
59 89 70
59 90 71
57 87 69
57 87 69
55 84 66
57 87 68
53 82 65
53 81 64
53 82 65
52 81 64
51 78 62
53 81 64
49 77 62
50 78 62
52 81 65
53 82 65
49 76 60
51 80 64
46 71 57
48 74 59
50 77 62
52 81 65
54 83 66
50 78 62
50 78 63
50 77 62
54 83 67
49 77 62
56 87 70
51 80 64
47 74 59
47 74 59
54 83 66
46 72 58
50 78 62
50 78 62
48 75 60
45 70 56
48 75 60
54 83 66
53 82 65
47 73 58
49 76 61
50 78 63
52 81 65
53 82 65
52 81 65
63 94 72
68 101 77
65 96 74
64 95 73
64 96 74
60 89 68
59 88 68
64 96 74
63 93 71
62 92 70
61 91 69
61 90 69
65 97 75
66 99 76
68 101 77
62 92 70
62 92 70
65 97 73
61 91 70
61 90 68
59 89 68
65 97 74
61 91 70
60 89 68
63 93 72
63 93 71
62 92 70
62 92 71
60 89 68
59 89 68
64 96 73
64 97 74
70 104 80
63 95 72
61 92 71
62 93 72
61 92 70
63 95 73
59 88 68
60 90 70
58 88 68
58 87 67
65 97 75
63 95 73
62 92 71
58 87 67
60 90 70
59 89 69
62 93 72
62 93 72
65 97 74
61 92 71
67 101 78
63 95 73
63 94 72
59 89 69
62 93 72
59 88 68
61 92 71
63 94 72
62 93 72
62 93 72
66 99 77
67 100 77
68 102 78
71 106 82
66 99 77
61 92 71
63 94 72
65 97 75
62 93 72
61 92 71
65 97 75
65 97 75
63 95 73
67 100 77
62 93 72
67 100 77
62 93 71
65 98 75
62 93 71
61 91 70
63 95 73
62 93 71
63 94 72
59 88 68
61 90 69
65 96 73
64 95 73
60 89 68
65 95 72
60 89 68
60 88 67
62 91 70
60 89 68
54 80 62
49 72 55
43 65 50
39 57 43
68 55 26
81 60 18
85 63 20
83 62 19
90 65 21
87 63 20
84 63 20
91 66 21
85 63 25
82 81 59
82 84 62
72 77 55
71 75 52
72 78 55
74 78 56
75 79 56
77 80 57
75 78 58
82 83 62
76 79 57
83 83 62
84 85 64
72 77 54
70 74 53
68 74 51
67 73 51
62 70 46
59 66 44
55 64 41
51 60 38
47 57 37
33 48 36
30 47 38
31 47 37
30 47 38
32 50 40
30 48 39
31 49 40
35 56 46
36 56 45
40 63 50
43 67 53
43 66 52
47 72 57
49 74 58
54 81 63
59 88 68
55 84 65
61 91 70
63 94 73
58 88 68
60 89 69
61 92 71
60 90 69
63 93 71
66 99 76
57 85 65
59 88 68
62 93 71
56 84 65
64 95 73
66 99 76
62 92 71
62 93 72
64 96 74
64 95 73
61 91 70
63 94 72
65 97 75
57 85 66
58 86 66
66 99 76
62 92 71
61 92 71
62 92 70
69 102 78
65 98 75
62 93 71
63 95 73
104 106 86
99 86 74
173 151 131
133 120 103
41 86 58
41 88 60
42 88 60
167 155 133
213 186 165
216 190 169
221 194 173
217 191 170
218 192 172
219 193 172
224 198 178
223 197 177
224 197 177
223 197 177
223 198 178
221 196 176
225 199 180
223 197 178
221 195 176
225 197 176
226 198 178
220 193 173
223 196 176
220 192 172
222 192 171
221 190 168
217 187 167
217 186 165
212 184 165
209 179 160
206 177 158
204 176 157
193 164 145
188 161 143
186 159 141
178 153 136
173 152 135
166 144 128
156 137 122
155 136 121
138 122 107
133 119 105
127 115 102
110 102 89
84 84 70
23 52 35
56 85 65
65 97 74
63 94 72
56 83 64
60 91 70
64 97 75
61 91 70
63 94 72
62 94 73
64 96 74
67 101 78
60 90 69
66 100 77
62 93 72
61 92 71
61 91 70
63 94 73
66 99 77
65 97 75
58 87 67
63 95 74
64 96 74
69 104 80
64 95 73
62 93 72
67 100 77
62 94 73
63 94 73
61 91 70
113 102 70
156 116 71
158 118 73
159 119 73
161 120 74
159 119 74
160 119 74
160 120 74
162 122 78
178 139 96
201 165 121
207 172 129
190 154 112
166 129 86
153 116 73
149 112 70
145 110 68
145 109 68
141 107 66
140 106 66
137 103 64
134 101 63
129 98 61
126 96 60
122 94 59
121 93 58
112 87 54
106 83 52
101 79 49
95 75 47
86 69 44
89 71 45
81 66 41
82 66 41
77 63 39
79 64 39
66 76 55
62 94 73
64 96 74
64 96 74
62 93 72
60 90 70
59 89 69
64 96 74
60 91 70
61 92 72
63 94 73
62 94 73
68 102 78
61 91 71
59 89 69
64 97 75
67 100 77
59 89 69
60 90 70
62 93 72
66 100 77
64 96 74
60 89 69
59 89 69
60 91 71
60 91 70
58 87 67
59 88 68
60 90 70
58 87 67
59 89 69
62 94 72
64 97 75
64 96 74
62 93 72
58 87 68
63 94 73
61 92 72
62 94 73
62 94 73
62 93 72
63 95 74
60 91 71
59 90 70
61 93 72
57 87 68
58 88 69
59 89 69
61 93 73
63 96 75
61 92 72
61 93 73
57 87 68
59 89 70
56 85 67
59 90 71
55 84 66
55 85 66
57 88 69
55 84 67
56 85 67
51 79 62
55 85 67
55 85 67
54 82 65
52 80 63
54 83 66
52 80 63
50 77 61
50 78 62
56 86 69
52 80 64
51 79 63
53 83 66
49 76 60
51 78 62
53 81 65
55 85 68
53 83 66
51 79 63
50 77 61
48 74 60
48 75 60
53 83 66
54 83 66
48 74 59
52 81 65
49 77 61
52 80 64
51 79 63
51 79 63
55 85 68
53 82 65
52 81 65
48 74 59
48 74 60
51 79 63
49 77 61
49 77 61
48 74 59
52 80 64
51 79 63
50 77 61
52 81 65
53 81 65
53 82 65
50 77 61
66 99 76
61 91 70
59 88 68
67 100 77
66 99 76
56 84 65
67 100 76
67 100 76
60 89 69
60 90 69
56 83 63
62 92 70
64 96 74
59 88 67
66 99 76
60 90 69
63 94 72
62 93 71
60 90 68
65 97 74
60 90 69
61 92 70
63 94 71
61 91 70
59 88 68
59 88 67
66 98 76
60 89 69
59 89 68
66 99 76
61 91 70
63 93 72
58 87 67
64 96 74
65 97 74
65 97 75
63 94 72
67 100 77
64 96 74
63 94 72
72 107 82
73 110 84
64 95 73
69 103 79
62 92 71
61 92 71
74 111 85
60 91 70
66 99 76
61 92 71
61 92 71
64 96 74
71 107 83
63 95 73
63 95 73
58 87 67
66 99 77
65 98 75
64 96 74
69 104 81
63 94 72
69 104 80
63 94 73
62 93 72
65 97 75
64 96 74
63 95 73
65 97 74
65 97 74
67 100 77
65 98 75
62 93 71
62 92 71
68 102 79
66 99 76
63 95 73
67 100 77
64 96 74
65 97 75
61 91 70
58 87 67
59 88 68
57 85 65
61 91 70
65 96 74
61 92 70
65 97 74
58 86 65
62 92 70
58 87 66
66 98 75
62 92 70
63 94 72
54 79 60
54 80 61
55 82 63
44 65 50
41 62 48
39 58 45
35 54 43
47 49 30
77 58 17
79 60 18
89 65 20
84 62 19
85 62 19
83 61 19
84 61 19
77 75 52
78 80 57
74 77 54
71 77 53
77 79 57
71 76 53
67 73 48
74 78 54
70 77 53
72 76 53
72 78 55
76 80 57
77 80 57
69 74 53
61 69 46
69 74 50
61 67 45
55 62 40
56 63 42
51 60 39
41 50 33
25 38 29
25 39 31
27 42 33
30 46 37
29 46 37
34 53 43
32 50 41
36 57 47
32 51 41
35 54 44
37 59 47
41 64 51
39 60 47
51 77 60
48 72 56
48 73 56
56 85 66
54 81 62
60 90 69
63 93 72
60 90 69
60 89 69
60 89 69
63 94 72
62 93 71
64 95 73
65 97 75
65 97 74
58 87 67
58 87 67
62 92 71
60 89 69
58 87 67
63 94 72
57 86 66
67 100 77
65 97 75
58 86 66
57 86 65
62 92 71
64 95 73
64 95 73
61 92 71
61 91 70
63 95 73
64 95 73
62 93 72
61 90 70
63 95 73
111 112 93
93 81 69
183 160 139
134 118 102
40 84 57
40 85 57
58 93 66
200 177 156
209 184 163
214 188 167
215 189 168
215 190 169
217 192 172
216 191 171
218 192 172
218 192 172
220 195 175
217 192 172
219 194 174
223 197 178
219 193 174
219 194 175
223 196 176
224 196 176
222 194 173
221 193 173
220 192 171
221 192 171
219 189 168
219 188 167
214 185 165
214 183 163
210 181 162
208 176 156
201 172 153
197 167 146
193 163 143
187 158 138
182 157 139
170 145 125
173 151 135
158 136 120
150 131 115
145 128 113
135 119 105
127 115 101
116 105 91
109 100 87
103 98 85
23 51 34
58 88 67
58 88 68
63 95 74
61 91 70
62 93 72
59 89 68
72 107 83
60 89 69
66 99 76
60 90 69
65 98 75
59 88 68
62 92 70
66 98 75
68 102 79
65 98 76
60 90 69
63 95 73
68 102 79
64 95 73
64 97 75
65 97 75
63 94 72
68 101 78
68 102 79
61 92 71
68 102 79
62 94 72
106 105 74
156 115 71
158 117 72
159 118 73
160 119 74
159 119 74
160 120 74
160 119 74
162 123 78
175 137 94
199 163 119
210 175 132
193 158 115
168 132 90
153 116 73
149 112 70
146 110 68
144 108 67
143 108 67
140 106 66
138 104 65
133 101 63
131 100 62
127 97 60
121 92 58
119 91 57
115 89 56
108 84 52
106 82 52
97 77 49
90 72 46
89 71 45
83 67 42
80 65 40
81 66 40
73 60 36
63 71 50
59 89 69
61 91 71
62 94 73
63 94 73
69 104 80
63 95 73
65 97 76
65 97 75
63 94 73
59 89 68
59 90 70
66 100 77
66 100 77
58 87 67
61 92 71
65 98 75
61 91 71
61 91 71
64 97 75
66 99 77
65 97 75
62 94 73
63 94 73
63 95 73
62 94 73
61 92 71
61 92 71
58 87 67
57 85 66
61 92 71
71 108 84
66 100 77
62 94 73
62 94 73
65 99 76
62 94 73
67 101 78
61 92 71
62 94 73
66 100 78
61 93 72
58 89 69
62 94 73
61 92 72
64 97 76
66 100 78
57 87 68
56 85 67
58 88 69
54 83 65
57 86 67
59 90 71
58 89 70
57 86 68
57 87 68
55 84 66
57 88 69
57 88 69
56 85 67
55 84 66
52 80 63
55 84 66
54 83 66
61 94 74
57 87 69
57 87 69
50 77 62
58 89 70
54 84 66
49 76 61
53 82 65
47 73 59
49 76 61
49 77 61
54 84 67
52 81 65
54 84 67
51 79 63
49 77 61
48 75 60
53 82 66
50 78 62
54 83 67
53 82 66
50 78 63
50 77 62
51 80 64
48 74 59
53 83 66
51 80 64
53 83 66
49 77 61
50 79 63
53 83 66
53 82 66
53 82 65
52 80 64
53 83 66
52 81 65
51 79 63
54 83 66
53 82 66
52 80 64
50 77 61
52 80 64
51 78 63
56 86 68
66 99 76
65 97 75
58 87 67
59 87 67
60 91 70
66 98 75
61 91 70
65 97 74
60 89 68
64 95 72
68 102 78
62 93 71
63 95 73
62 93 71
66 99 76
66 99 76
60 89 68
70 104 80
64 95 73
61 91 69
59 88 67
65 96 74
60 90 69
61 91 70
63 93 71
58 87 67
63 94 72
63 93 72
66 99 76
58 86 66
64 95 73
66 99 76
66 98 76
60 90 69
61 90 69
60 90 69
62 92 71
62 93 71
67 99 76
62 93 71
65 97 74
62 93 72
59 89 68
58 87 67
61 91 70
65 98 75
66 98 76
62 92 71
64 96 74
65 97 75
67 101 78
62 92 71
66 99 77
62 94 72
67 100 77
60 90 70
64 97 75
61 92 71
66 99 77
63 94 72
63 94 72
64 96 74
64 96 74
63 95 73
59 89 68
65 98 75
62 92 71
71 107 82
64 96 73
64 95 73
62 92 71
63 95 73
63 94 72
66 98 75
65 97 74
67 100 77
62 94 72
68 101 78
63 94 72
69 103 79
64 95 72
69 103 79
58 86 66
59 88 67
61 90 69
66 97 74
60 89 68
64 94 72
63 93 71
60 89 67
60 89 68
61 90 68
66 98 75
58 85 65
54 79 60
47 70 53
45 67 51
43 63 49
41 62 48
33 51 40
29 44 35
35 44 31
61 51 20
66 53 15
73 55 16
70 56 16
75 57 17
70 56 16
65 63 35
72 77 52
66 73 47
65 72 47
67 74 49
65 72 48
67 71 47
69 75 51
64 71 46
66 72 48
67 73 49
64 71 47
61 69 45
65 72 47
59 67 43
58 66 42
59 68 44
53 61 39
46 56 36
34 44 31
25 40 32
24 38 30
26 41 32
27 43 34
28 44 35
29 46 37
36 56 45
31 49 39
37 58 46
37 57 46
37 58 47
39 61 48
47 72 57
43 66 52
46 71 56
52 79 61
52 79 61
53 80 61
59 89 69
61 91 70
63 95 73
59 87 67
66 98 75
60 90 68
61 91 69
58 86 66
62 93 72
63 94 72
60 90 69
64 95 74
59 88 68
59 88 68
58 86 66
59 89 69
60 90 70
70 105 81
63 94 72
64 96 73
60 90 69
62 93 72
62 93 72
63 94 72
63 94 73
62 92 71
62 92 71
60 91 70
64 95 73
63 94 72
65 97 74
62 93 71
104 109 88
91 81 69
178 157 135
131 114 98
56 87 62
39 83 56
98 110 87
206 181 161
209 184 164
205 181 160
207 182 161
214 188 168
209 185 164
211 186 165
212 187 167
214 189 169
211 187 167
213 188 168
216 191 172
216 191 171
216 189 169
220 193 173
219 192 172
218 191 170
218 190 170
220 190 170
217 189 169
216 186 165
216 187 168
214 183 163
211 180 159
209 177 156
206 174 153
203 175 156
197 165 143
191 160 139
186 157 138
177 149 130
176 148 129
170 146 129
156 133 115
153 132 116
150 130 115
141 125 111
138 123 109
126 115 102
113 103 91
99 93 79
103 98 85
23 51 34
59 89 68
64 95 73
59 88 68
58 87 67
60 89 69
67 101 78
66 100 77
65 97 75
64 97 75
67 100 77
61 91 70
63 95 73
61 92 71
63 94 73
66 99 76
62 92 71
63 94 72
63 95 73
62 93 72
63 94 73
63 94 73
68 102 79
60 90 69
62 93 72
59 88 68
62 94 73
59 89 69
104 103 73
154 115 71
158 117 73
158 118 73
159 118 73
160 119 74
161 120 74
159 119 74
160 121 77
175 138 94
199 163 120
212 177 133
196 161 118
169 133 91
155 118 75
148 111 69
148 111 69
145 110 68
142 107 67
138 105 65
137 104 65
132 100 62
129 98 61
127 97 60
123 94 59
119 92 57
117 90 57
110 85 54
105 82 52
100 79 50
93 74 47
84 68 42
82 66 41
82 67 41
77 63 38
79 64 39
67 69 48
66 99 76
61 92 72
67 100 77
62 94 72
59 88 68
63 95 73
58 88 68
65 98 75
64 97 75
63 94 73
62 94 73
68 102 79
62 93 72
64 96 74
61 91 70
64 97 75
62 93 72
60 91 70
62 93 72
67 101 78
64 96 74
60 90 70
57 86 67
62 93 72
65 98 76
64 95 74
61 91 71
62 93 72
62 93 72
59 88 68
60 91 70
64 96 74
63 95 73
61 93 72
67 101 78
71 107 83
60 91 71
61 92 71
57 86 67
56 85 66
60 90 70
57 86 67
53 81 63
60 91 71
62 94 73
61 93 72
55 84 65
56 85 67
59 89 70
61 93 73
57 87 68
55 84 66
54 82 64
53 80 63
54 82 65
58 89 70
55 84 66
55 84 66
58 88 70
53 82 65
52 80 64
52 79 63
52 80 63
54 84 66
51 78 62
53 82 65
54 84 66
57 87 69
51 80 64
48 74 59
53 81 65
50 77 61
52 81 65
49 76 61
49 76 61
50 78 62
49 76 61
50 77 62
51 79 63
49 77 61
51 79 63
48 75 60
56 87 70
49 77 62
48 74 60
50 78 62
53 83 66
50 78 63
52 81 65
54 83 66
53 82 65
50 77 62
53 82 66
51 79 63
51 80 64
50 78 63
51 79 63
55 85 68
54 84 67
51 80 64
48 75 60
53 82 65
51 79 63
52 80 64
51 78 62
50 77 62
52 80 63
54 83 66
62 93 72
67 100 77
65 97 74
60 88 68
59 88 68
63 93 71
59 88 68
65 97 74
65 97 74
70 104 79
68 101 78
65 97 75
66 100 76
64 95 73
58 86 66
63 93 71
63 93 72
63 94 72
67 100 76
65 97 75
60 90 69
63 93 72
62 92 71
67 100 77
61 91 70
64 97 75
69 104 80
62 93 71
57 85 65
68 102 78
64 96 74
60 89 68
59 89 68
63 94 72
67 100 77
61 91 70
57 85 66
62 93 71
66 98 75
63 95 73
64 96 74
68 103 79
63 94 72
60 91 70
64 97 74
67 101 78
68 102 79
62 93 72
65 98 75
68 103 80
62 93 72
60 91 70
65 98 76
63 95 73
70 105 81
64 96 74
71 107 82
63 95 73
65 98 75
63 94 73
57 86 66
65 97 75
66 100 77
59 89 69
67 100 76
64 95 73
75 113 88
65 97 75
63 95 74
63 95 73
68 101 78
66 99 76
66 99 77
65 97 74
61 92 71
60 90 70
67 100 76
62 92 71
64 96 73
64 96 74
67 100 77
67 99 76
67 100 77
62 93 71
63 93 71
67 100 77
65 97 74
63 94 71
62 92 70
59 88 67
62 91 69
58 86 66
64 94 71
57 84 64
56 83 63
46 69 52
51 76 58
45 67 52
37 55 43
33 50 39
33 51 40
32 49 40
27 40 31
40 43 27
60 48 17
69 53 15
69 54 15
66 53 15
67 56 19
62 69 44
66 71 46
63 70 46
65 71 46
62 69 45
63 70 45
65 72 46
65 71 46
60 67 43
60 68 44
58 67 43
58 66 43
56 66 43
58 65 42
53 62 40
48 57 37
36 44 30
25 38 29
21 33 26
25 39 30
27 43 34
29 46 36
27 43 34
26 41 32
32 50 40
32 50 40
33 52 42
32 52 42
35 55 44
35 55 44
41 63 49
44 67 52
48 72 57
53 80 62
52 78 61
54 82 63
50 75 57
54 81 62
63 94 72
60 90 69
61 91 70
63 94 72
65 96 74
63 94 72
65 98 75
58 87 67
66 99 75
62 93 71
58 87 66
62 92 71
63 94 72
63 94 72
63 93 72
67 101 77
63 95 73
64 95 73
63 94 72
64 96 74
61 91 70
60 90 69
63 95 73
61 91 70
69 104 80
65 97 74
61 91 70
66 99 76
62 92 71
65 98 76
64 95 73
91 107 86
80 72 60
169 150 129
121 106 92
75 94 72
38 80 54
143 137 115
195 172 151
197 172 150
203 179 158
202 178 157
205 181 161
204 180 159
202 179 159
208 184 164
206 182 162
209 185 165
210 185 165
210 185 165
209 183 162
212 186 166
213 187 166
216 188 167
214 186 165
214 185 163
215 186 165
215 185 163
212 181 159
213 182 160
212 183 162
209 178 157
206 176 156
202 171 151
199 167 146
193 160 138
189 160 141
183 152 132
181 150 129
175 147 128
159 136 119
157 135 118
146 125 108
140 122 106
130 115 100
117 104 91
111 101 87
97 89 75
102 95 81
106 100 86
27 54 37
56 85 66
61 91 70
61 92 71
59 89 69
62 93 71
66 98 76
59 89 69
60 89 69
68 101 77
63 95 73
63 95 73
65 97 75
63 94 72
58 87 67
65 97 74
59 88 68
65 98 76
69 104 80
63 94 72
67 100 78
61 91 70
69 103 80
61 92 71
65 97 75
61 91 70
67 101 78
100 109 80
152 114 71
157 116 72
159 118 73
160 119 73
159 119 73
160 119 74
159 119 74
161 122 77
174 135 92
198 162 118
214 179 135
201 165 122
173 137 95
156 119 76
148 112 70
147 111 69
144 108 67
142 107 67
139 105 65
138 105 65
136 103 64
130 99 62
130 99 62
124 95 59
119 91 57
116 89 56
109 85 53
104 82 52
101 80 50
90 72 46
87 70 44
84 68 42
81 66 41
78 63 39
75 61 37
68 69 48
62 91 70
64 96 74
60 91 70
56 83 64
57 86 66
59 89 68
61 92 71
66 99 76
60 90 70
65 97 75
57 86 66
61 92 71
66 99 77
61 91 71
66 99 77
63 95 73
59 89 69
61 93 72
62 92 71
61 92 71
59 89 69
56 84 65
61 91 71
65 98 76
61 92 71
57 86 67
62 93 72
65 98 76
63 95 73
61 92 71
64 97 75
59 89 69
60 91 70
63 96 74
58 87 68
64 96 74
61 92 71
57 87 68
55 83 65
58 88 68
66 99 77
58 88 68
57 86 67
60 91 70
57 87 68
62 94 73
61 92 71
61 93 73
58 88 69
53 81 63
56 85 66
57 87 68
59 90 71
53 81 63
56 86 68
51 78 61
56 86 68
59 90 71
51 79 63
55 84 67
59 91 72
53 81 64
53 81 64
56 86 68
56 87 69
53 82 65
49 76 61
50 78 62
52 81 65
54 84 67
52 81 65
48 75 60
50 77 62
48 76 61
49 77 61
53 82 66
53 82 65
48 75 60
47 74 59
49 75 60
50 78 62
49 76 61
47 74 59
49 76 61
49 77 61
48 75 60
52 81 65
50 78 62
47 74 59
48 74 59
54 83 67
50 78 62
52 81 65
49 77 61
53 82 66
56 86 69
50 78 62
52 81 64
50 77 62
49 77 61
51 79 63
49 76 60
53 82 65
55 84 67
54 82 65
50 76 60
54 84 67
54 83 66
51 79 63
66 99 76
65 98 75
70 104 79
64 96 74
65 97 75
66 99 76
59 88 68
60 91 70
63 93 72
70 104 80
63 93 71
61 92 71
63 94 72
67 100 76
62 93 72
66 98 75
64 96 74
67 100 77
70 104 80
66 99 76
64 96 74
66 98 76
64 95 73
58 87 66
63 95 73
66 99 76
62 94 72
62 93 71
61 91 70
62 93 71
66 99 76
60 90 70
64 96 74
65 98 76
66 99 76
62 93 72
62 92 71
67 100 77
72 108 83
66 99 76
65 97 75
68 102 78
65 99 76
74 111 85
70 105 80
63 95 74
68 102 79
67 100 77
66 98 76
69 104 80
60 90 70
60 91 70
69 103 80
62 92 71
68 101 78
72 108 83
63 95 74
62 92 71
64 96 74
59 89 69
63 95 74
64 95 74
66 99 77
61 91 70
65 97 74
63 95 73
66 98 76
63 95 73
66 98 76
69 104 80
66 99 76
58 86 66
64 96 74
61 90 70
70 105 81
68 101 78
62 93 71
67 101 77
62 93 71
66 98 75
64 96 74
63 94 73
70 104 80
62 93 71
63 93 71
61 91 70
63 94 72
62 92 71
62 92 70
58 85 65
65 96 73
67 99 75
60 89 68
54 80 60
58 86 65
54 80 61
47 69 53
42 63 48
43 63 48
37 55 43
33 51 39
29 45 36
27 40 31
27 42 33
26 38 30
36 37 23
51 43 17
58 47 14
60 48 13
64 57 27
62 68 44
60 68 44
60 67 43
64 69 45
65 72 46
59 66 43
58 65 42
57 65 42
56 64 41
56 62 40
49 56 36
47 55 35
37 45 29
29 37 25
22 33 25
24 38 30
27 43 34
22 35 27
23 37 29
29 46 37
28 43 34
29 45 36
34 53 43
34 54 43
32 50 40
35 55 44
38 60 48
36 57 46
43 67 53
43 66 52
52 79 62
51 77 60
52 79 61
52 78 60
52 78 60
55 82 64
56 84 64
61 92 71
59 88 68
60 90 69
58 85 65
66 98 75
59 89 68
60 90 69
67 100 77
69 101 77
69 102 78
66 98 76
71 106 82
66 99 76
61 91 70
67 100 77
65 97 74
65 97 74
66 99 76
68 101 78
60 89 69
62 93 71
63 95 73
70 104 81
58 87 67
66 98 75
65 98 75
63 95 73
63 94 72
62 93 72
69 103 79
63 94 72
71 92 72
78 69 59
166 146 126
117 105 90
91 103 81
36 77 52
163 148 127
192 170 150
193 170 149
195 172 151
198 175 154
196 174 153
202 179 159
203 180 160
205 181 161
200 177 157
207 183 164
206 182 162
205 181 161
204 179 159
208 183 163
208 182 162
211 184 163
207 181 159
209 181 160
209 180 160
208 179 157
209 179 157
209 179 158
207 177 155
204 173 151
202 169 146
200 166 143
193 163 142
188 158 137
185 156 135
176 148 129
172 146 126
163 138 119
161 137 120
152 130 113
144 124 108
130 112 96
123 109 95
113 100 86
108 99 86
99 91 77
103 96 82
92 89 74
32 58 41
62 93 72
60 90 70
61 91 71
60 90 70
62 93 72
68 102 78
61 91 70
57 85 66
61 92 71
60 90 69
63 95 74
63 94 72
62 93 72
62 92 71
61 91 70
63 96 74
62 93 72
65 98 76
64 95 73
60 89 68
65 97 75
63 95 73
60 90 70
59 88 68
59 89 69
88 99 73
148 111 70
157 117 72
159 119 74
160 119 74
161 119 74
160 119 74
160 119 74
162 122 76
171 133 90
197 160 117
215 180 136
202 167 124
176 140 98
156 119 77
150 113 71
148 111 69
147 111 69
143 108 67
139 105 65
137 104 65
137 104 65
132 100 63
125 95 59
126 96 60
121 93 58
113 87 54
108 84 52
107 84 53
98 78 49
93 74 47
86 69 44
85 68 43
86 69 43
82 66 41
75 61 37
73 66 42
66 98 76
70 106 82
65 98 75
61 91 71
58 88 68
61 91 70
65 98 76
62 93 72
65 98 75
72 107 83
65 97 75
64 97 75
63 94 73
59 89 69
58 87 68
67 100 77
62 93 72
57 86 66
62 93 72
63 95 74
62 93 72
61 92 71
67 101 78
60 91 70
69 103 80
67 101 78
62 93 72
65 97 75
56 85 66
63 95 74
63 95 74
58 88 68
61 91 71
59 89 69
58 87 68
61 92 71
64 97 75
57 86 66
66 99 77
59 89 69
60 91 71
58 89 69
55 84 65
59 90 70
53 81 63
59 90 70
61 92 72
54 82 65
56 86 67
57 86 68
53 80 63
56 86 68
58 88 69
58 88 69
60 92 72
52 79 62
55 85 67
52 79 63
54 82 65
55 84 67
49 75 60
52 81 64
54 83 66
50 77 61
49 75 59
49 76 61
49 76 60
47 73 58
51 79 63
51 78 63
52 80 64
50 78 62
50 78 62
49 76 61
51 79 63
47 72 58
48 75 60
53 83 66
55 85 68
48 74 60
48 75 60
50 77 62
47 74 59
52 80 64
49 76 61
50 78 62
52 81 65
50 78 62
48 74 60
51 79 63
53 82 65
54 83 66
46 71 57
49 75 60
51 79 63
49 76 61
53 82 65
52 80 64
52 81 65
50 78 62
54 83 66
51 79 63
50 77 61
56 87 69
54 84 67
55 85 67
51 79 63
52 81 64
50 78 62
52 81 64
65 96 74
65 96 73
66 98 75
61 91 70
63 94 73
65 98 75
60 90 69
61 91 70
63 94 72
62 92 71
66 97 74
63 93 72
63 94 73
67 100 76
67 100 76
68 101 78
60 90 69
66 98 75
59 87 67
59 88 68
69 103 80
64 95 73
64 97 74
63 94 72
61 92 71
62 93 72
61 92 71
60 89 69
63 95 73
63 93 72
65 97 75
63 94 73
61 91 70
67 100 77
61 91 70
65 97 75
69 102 78
61 92 71
63 95 73
63 95 73
63 94 72
63 95 73
65 97 75
63 95 73
64 95 74
63 94 72
69 103 79
73 110 85
71 107 83
66 98 76
68 102 79
66 99 76
64 95 74
64 96 74
60 90 70
65 97 74
60 90 69
64 95 74
65 98 75
63 95 73
62 93 72
61 91 70
63 94 73
67 101 78
64 96 74
65 98 75
64 96 74
62 92 71
58 88 68
64 95 73
66 98 75
61 92 71
65 97 75
72 107 83
64 96 74
69 102 78
66 98 75
63 93 71
66 98 75
61 90 69
60 89 68
67 100 76
63 94 72
58 86 65
63 93 70
59 87 66
64 94 71
65 97 74
66 98 74
68 100 76
61 89 67
59 86 65
54 80 61
55 82 62
58 85 65
57 83 63
51 76 59
52 77 59
44 65 49
42 64 50
38 57 44
31 48 37
28 43 35
28 43 35
25 37 29
24 37 29
25 40 32
23 32 25
30 34 22
42 38 18
47 42 20
53 55 33
49 56 36
48 56 36
49 56 35
48 56 36
45 52 33
43 49 32
41 48 31
34 41 27
27 37 26
25 33 24
16 24 19
19 30 23
25 38 30
23 36 28
26 41 33
26 41 32
25 40 31
30 46 37
31 49 39
31 48 38
34 55 44
38 60 48
33 52 42
33 52 41
36 57 45
41 63 50
46 69 54
47 71 55
50 76 59
51 76 59
56 84 65
60 91 70
56 83 63
62 92 71
65 97 75
59 88 68
65 96 74
63 93 71
64 95 73
67 100 76
63 93 72
62 93 71
60 89 68
66 100 77
65 97 75
66 99 75
63 94 72
71 106 82
64 96 74
63 94 73
62 93 71
62 92 70
67 100 77
68 101 78
63 93 71
62 93 71
65 96 74
66 98 76
62 92 71
65 97 74
65 97 74
65 97 75
63 94 72
58 87 67
58 87 67
61 92 71
67 99 76
13 20 16
147 132 112
107 96 81
89 98 76
36 77 52
168 150 129
188 167 146
188 165 144
184 163 142
193 171 151
192 170 150
194 172 152
196 174 154
199 176 156
203 180 160
201 178 158
200 177 157
197 173 153
200 177 157
204 180 160
207 180 159
204 178 158
207 179 157
207 179 158
206 176 153
204 175 154
202 172 151
200 170 148
201 171 150
197 164 142
192 162 141
187 156 135
190 156 134
186 156 135
176 146 125
171 142 122
161 134 115
159 134 115
149 126 108
139 119 103
131 111 95
121 106 91
107 96 82
105 94 80
103 93 80
94 88 74
97 90 76
83 83 68
40 66 49
50 75 58
59 90 70
56 84 66
60 90 70
56 84 65
63 95 73
57 86 67
63 94 73
64 96 74
63 94 73
65 98 75
59 88 68
64 96 74
63 94 73
72 109 84
63 95 74
63 94 73
60 91 70
61 92 71
62 93 72
60 91 70
63 95 74
62 94 73
66 99 76
81 94 69
149 112 70
158 117 72
159 118 73
160 119 74
160 119 73
160 119 74
160 120 74
161 121 76
170 131 87
196 159 116
217 181 137
206 171 128
180 144 102
159 122 80
150 113 71
146 110 68
145 109 68
141 106 66
137 104 64
139 105 65
134 102 63
130 99 62
130 99 62
125 95 60
122 94 59
118 90 57
113 87 54
108 84 53
100 79 50
91 73 46
84 67 42
84 68 42
85 69 43
84 68 42
80 65 40
71 62 40
68 97 74
60 91 71
62 93 72
62 93 72
62 94 73
61 92 71
65 97 75
64 96 74
56 84 65
64 97 75
59 89 69
64 96 74
63 95 73
63 94 72
66 98 76
60 90 69
58 87 67
61 92 72
64 96 74
63 95 74
62 93 72
59 89 69
65 97 75
65 98 76
60 91 70
61 93 72
66 100 77
65 98 76
61 92 71
61 92 71
62 94 73
61 92 71
59 89 69
62 93 72
61 92 71
61 92 72
65 98 76
60 90 70
60 92 71
57 87 67
60 91 71
60 91 71
64 97 76
59 90 70
57 86 68
58 88 69
53 80 62
60 91 71
57 87 68
58 89 70
60 92 72
54 83 65
61 92 72
52 79 62
56 86 68
60 91 72
53 82 65
55 85 67
56 85 67
50 78 61
58 89 71
55 84 67
54 84 67
54 83 66
53 82 66
53 82 65
51 79 62
47 73 59
53 82 65
55 86 68
55 85 68
50 77 62
50 78 62
51 80 64
53 83 66
51 80 64
46 71 57
45 70 57
46 72 58
45 71 57
49 76 61
45 70 56
46 72 58
49 76 61
50 78 62
50 78 62
50 78 62
46 71 57
48 75 60
50 78 63
49 77 62
50 78 62
47 73 58
46 72 58
52 81 65
51 80 64
53 83 66
54 84 67
53 83 66
50 77 62
51 79 64
52 80 63
52 81 64
50 77 61
51 78 62
52 80 64
53 82 65
50 77 61
55 85 67
52 80 63
55 86 68
63 94 72
61 91 70
63 94 72
65 97 75
63 95 73
62 92 70
60 91 71
65 96 74
64 96 74
64 95 73
60 90 70
68 101 78
62 93 71
64 95 73
61 91 70
68 101 77
69 102 78
63 94 73
68 101 78
62 93 72
69 101 78
65 97 75
62 92 71
61 92 71
62 93 72
68 101 77
61 91 70
62 93 72
67 101 78
69 104 80
61 91 70
62 93 72
63 94 72
65 97 74
62 94 72
65 97 75
61 92 71
63 93 72
63 94 72
65 98 75
64 97 75
62 93 72
66 99 76
61 92 71
67 100 77
63 95 73
64 96 74
66 99 76
69 103 79
64 97 75
71 106 82
71 107 82
58 87 67
64 96 74
68 102 79
65 98 76
62 93 72
64 96 74
65 97 74
62 93 72
63 94 72
65 97 75
68 102 79
64 97 74
62 92 71
63 94 72
62 92 71
62 93 72
62 93 72
61 91 70
62 93 72
65 98 75
66 100 77
67 100 77
65 97 74
63 94 72
63 93 71
63 95 73
64 96 73
62 92 71
63 94 72
61 91 70
65 96 73
63 94 72
61 90 69
61 90 69
61 90 69
62 92 69
68 102 77
72 106 80
61 91 69
61 90 68
62 91 69
61 90 68
57 84 63
59 86 65
55 80 61
52 76 58
46 68 51
41 61 47
40 59 45
34 52 40
30 45 35
28 42 33
28 41 32
26 40 31
23 35 28
24 35 27
25 39 31
19 28 22
20 30 23
22 33 26
20 29 23
19 26 19
19 27 20
18 24 18
15 22 16
19 28 22
20 30 23
16 24 19
20 31 25
24 36 28
20 30 23
23 35 27
27 42 33
28 44 35
30 45 36
29 46 36
28 43 34
31 48 39
27 44 35
29 45 36
30 48 39
38 58 46
38 59 47
41 63 50
41 63 50
46 70 54
47 72 56
54 82 63
51 77 59
53 79 61
54 81 62
63 95 73
59 88 67
59 88 67
59 88 67
64 95 73
68 100 76
70 104 80
61 90 69
68 101 78
64 96 73
63 93 71
65 97 75
67 100 76
64 95 73
65 97 74
59 89 69
61 91 70
59 88 68
65 97 74
70 104 80
65 97 74
66 98 75
64 95 73
62 92 71
65 97 75
64 96 74
60 89 69
61 91 70
64 96 74
67 100 77
62 93 71
64 95 73
62 92 71
68 101 77
59 88 68
64 95 73
39 54 42
138 124 105
108 95 80
93 100 79
34 74 49
165 147 127
175 153 132
179 157 137
184 163 143
190 168 149
190 169 148
190 169 148
194 172 152
194 172 152
194 172 152
193 172 153
193 170 150
193 169 149
193 169 149
199 174 153
197 171 150
197 172 153
199 171 150
200 171 149
200 172 151
199 170 148
198 167 145
199 168 146
194 162 140
193 160 137
189 159 138
184 151 130
180 148 127
177 147 127
169 139 117
166 137 117
159 130 109
151 125 105
137 115 98
135 116 100
118 102 85
114 101 87
108 96 82
98 89 74
95 86 72
89 82 68
93 89 75
82 83 67
42 68 52
51 78 61
50 75 59
57 86 67
53 80 62
54 81 63
53 80 62
57 86 66
59 89 69
63 95 73
59 89 69
60 90 69
63 94 73
63 94 72
58 87 67
65 98 75
60 90 69
57 86 66
58 87 67
62 92 70
63 94 73
62 93 72
57 86 67
60 90 70
80 102 77
144 110 69
158 117 72
159 118 73
161 119 74
160 119 74
159 118 73
161 120 74
160 120 75
169 131 86
193 157 113
216 181 137
211 176 132
181 146 104
160 123 81
150 113 71
148 111 69
145 109 68
142 107 67
140 106 66
139 105 66
134 102 64
130 99 62
128 98 61
125 96 60
117 90 56
118 91 57
114 88 55
107 83 52
99 77 48
93 74 46
88 71 45
86 69 44
86 69 43
79 64 40
81 65 40
73 62 39
62 84 63
67 101 78
61 91 71
64 97 75
59 88 68
68 102 78
63 94 73
60 91 70
65 98 76
58 88 68
60 90 69
62 92 71
63 95 73
67 101 78
58 87 67
63 94 72
67 100 78
64 97 75
64 96 74
62 94 73
69 104 81
64 96 74
65 97 76
60 90 70
63 95 73
62 93 72
61 92 71
65 98 76
61 92 71
64 96 75
61 93 72
60 90 70
59 88 68
60 90 70
63 94 73
60 90 70
70 105 81
61 92 72
58 88 68
58 88 68
64 97 75
62 93 72
62 93 73
58 88 68
59 89 70
58 87 68
60 91 71
58 88 69
51 79 62
59 89 70
60 92 72
48 74 58
55 84 66
56 85 67
56 86 68
50 78 61
58 89 70
54 82 65
54 83 66
54 83 66
50 77 61
49 76 61
50 78 62
51 80 63
50 77 62
50 78 62
53 82 66
48 75 60
47 73 59
51 79 63
48 75 60
47 73 59
47 73 59
47 74 60
48 75 60
51 79 63
49 77 61
49 77 62
48 75 60
53 82 66
53 82 66
51 79 63
47 73 58
46 72 58
50 78 63
55 86 69
47 74 59
51 80 64
49 76 61
50 78 63
46 72 57
51 79 63
51 79 63
50 77 62
50 77 61
50 77 62
51 79 63
52 81 65
50 77 62
52 81 65
55 84 67
55 85 68
49 76 61
50 78 62
51 78 62
54 84 67
54 82 65
49 76 60
54 83 66
53 81 65
51 78 62
52 80 63
63 94 72
66 99 76
60 89 68
65 96 74
64 96 74
70 104 80
60 89 68
67 100 77
63 94 73
63 93 72
60 89 68
66 99 76
62 93 72
64 95 73
64 96 73
67 100 77
68 102 79
60 90 69
65 98 75
61 91 70
65 97 75
66 98 75
65 96 74
65 98 75
60 91 70
66 99 76
68 102 78
63 94 73
63 94 73
69 102 78
68 101 78
61 91 70
63 95 73
67 100 77
63 94 72
64 95 73
65 98 75
66 99 76
63 94 72
64 96 74
67 100 77
64 95 73
67 102 79
59 89 69
67 99 76
65 98 76
67 100 77
65 97 75
60 90 69
65 98 76
67 99 76
66 99 77
62 93 71
65 98 75
61 91 70
59 88 68
62 93 71
64 96 74
69 103 79
64 95 73
66 99 76
62 93 72
65 98 75
63 94 72
66 99 77
67 100 77
62 92 71
64 96 74
71 107 82
62 93 71
64 96 74
61 92 71
64 95 73
71 106 81
69 102 79
63 94 73
64 95 73
65 97 75
60 89 68
67 100 76
67 99 75
61 91 70
71 105 81
60 89 68
63 94 72
61 91 70
61 91 70
61 91 69
63 94 72
61 89 68
69 103 78
66 97 74
65 95 72
59 87 66
58 85 64
60 88 67
60 88 67
58 84 63
51 75 57
53 79 60
45 67 51
39 59 46
38 57 44
37 56 44
31 44 34
29 45 35
27 40 32
24 36 28
24 36 28
22 34 27
23 35 27
26 39 31
23 36 29
18 28 22
19 30 23
19 29 23
17 25 19
19 30 23
21 33 26
21 33 26
21 32 26
21 34 26
24 38 30
25 38 30
28 43 34
24 37 29
29 45 36
29 46 37
29 45 35
34 54 43
35 54 43
33 52 42
37 58 46
40 62 49
43 67 53
46 70 55
47 71 55
51 78 61
48 73 56
56 84 65
58 88 68
58 87 67
60 90 69
61 91 69
56 83 64
57 84 64
68 102 78
62 93 71
67 100 77
60 89 68
58 87 67
63 94 72
65 96 74
62 93 72
60 90 69
66 98 75
61 90 69
60 89 69
60 90 69
60 90 70
70 105 80
64 96 74
66 98 75
65 96 74
63 94 72
60 88 68
59 88 68
62 93 71
68 101 78
73 108 83
62 94 72
63 94 72
63 94 72
63 94 72
61 91 70
65 97 75
62 92 70
60 90 69
63 94 72
82 98 77
135 122 102
101 89 75
89 96 75
32 69 45
161 145 124
169 150 129
175 156 136
178 157 137
183 162 142
181 161 141
184 164 144
184 164 144
186 165 145
187 166 145
191 169 149
182 161 140
191 168 148
188 165 145
194 169 149
191 167 147
191 165 144
194 168 146
191 164 143
192 165 143
192 164 143
191 162 141
189 161 140
189 158 135
184 152 129
182 152 130
178 147 125
171 143 124
172 142 122
166 134 113
156 128 107
152 124 104
146 121 102
130 109 91
118 99 83
112 96 79
106 92 79
94 83 68
79 74 58
92 84 70
95 89 74
92 88 73
64 69 55
49 75 59
52 79 62
48 73 58
48 73 57
57 87 68
58 87 68
55 83 65
53 80 62
59 89 69
59 88 68
58 87 67
56 84 65
58 87 67
67 101 78
62 93 72
59 88 67
59 88 68
60 91 70
66 99 76
64 97 75
62 93 72
58 87 67
60 90 70
69 92 70
140 109 69
156 115 71
158 118 73
160 119 74
160 119 74
160 119 74
160 119 74
160 120 75
167 129 85
191 155 112
217 182 137
214 179 135
186 150 108
161 125 83
152 115 72
148 111 69
147 111 69
144 109 68
139 105 65
136 103 64
134 101 63
131 100 62
130 99 62
124 95 59
122 93 58
119 91 57
111 86 54
108 85 53
99 78 49
95 75 47
90 72 45
90 72 46
85 69 43
86 69 43
73 60 36
70 58 36
66 89 67
64 96 75
69 104 80
65 98 76
63 94 73
62 93 72
65 98 76
65 97 75
63 94 73
58 88 68
68 103 79
62 93 72
62 93 71
62 94 73
62 93 72
66 100 77
61 91 71
65 98 76
59 89 69
57 86 66
58 87 68
68 102 79
60 90 69
58 88 68
59 89 68
63 95 73
63 94 73
63 95 73
61 92 71
59 89 69
61 91 71
64 97 75
64 96 74
57 86 67
58 88 68
56 85 66
61 92 71
56 84 66
59 89 69
59 90 70
56 85 66
62 94 73
59 88 69
60 90 70
57 86 68
57 86 68
55 84 66
58 88 69
54 83 65
59 90 71
60 92 72
54 83 65
58 89 70
55 84 66
50 77 61
57 88 69
51 79 63
54 82 65
54 83 66
48 73 58
51 80 63
53 81 65
51 78 62
55 85 67
50 77 61
49 76 61
51 80 64
53 82 66
49 77 61
49 77 61
48 75 60
50 77 62
51 79 63
48 75 60
49 76 61
45 71 57
52 81 64
51 79 63
49 76 61
42 66 54
55 86 69
47 74 60
49 76 61
45 70 56
49 76 61
50 78 63
52 81 65
50 78 62
51 80 64
52 81 65
47 74 59
46 72 58
51 79 63
51 79 63
50 78 62
54 84 67
50 77 62
53 82 65
58 89 71
51 79 63
53 82 65
50 78 62
54 84 67
49 75 60
51 79 63
50 78 62
52 81 64
55 84 66
52 81 64
50 76 60
54 83 66
57 87 69
53 82 65
64 95 73
64 95 73
72 108 83
61 91 71
60 90 69
63 94 73
66 99 77
67 101 78
62 93 71
63 95 73
63 93 72
65 97 74
65 98 75
61 92 71
61 92 71
59 89 68
61 90 69
66 99 76
62 93 72
62 92 71
66 98 76
68 102 79
64 96 74
65 97 75
67 99 76
64 96 74
63 94 73
70 104 80
67 100 77
66 100 77
64 96 74
68 101 78
72 108 83
64 96 74
63 93 72
64 97 75
60 90 70
66 99 77
69 104 80
68 103 79
62 93 72
65 99 76
61 92 71
63 95 73
61 91 70
60 90 70
62 93 71
66 99 76
61 92 71
68 101 78
67 99 76
70 105 81
66 99 76
58 88 68
61 91 70
66 100 77
73 109 84
68 101 78
61 91 71
64 96 75
64 96 74
67 99 77
66 99 77
65 97 75
67 100 77
70 104 80
68 101 78
69 103 80
63 94 72
67 101 78
62 93 72
64 96 74
67 99 76
64 95 73
63 94 72
63 95 73
63 94 72
66 98 75
65 96 74
64 97 74
68 100 77
59 88 67
59 88 67
66 97 74
65 97 74
62 92 70
64 95 72
56 82 63
65 96 73
63 93 71
65 96 73
67 99 75
63 93 70
59 87 66
62 92 69
65 96 73
54 79 59
57 83 62
59 87 66
55 80 60
54 79 60
45 66 50
43 64 49
43 64 49
37 56 44
32 48 38
25 39 30
27 41 32
27 41 33
24 36 28
29 44 34
21 31 24
25 39 31
22 33 26
24 36 29
19 29 23
23 35 28
24 37 29
26 40 31
24 36 28
27 42 33
25 40 31
27 43 34
27 43 34
31 49 39
28 44 34
26 42 33
32 49 39
32 50 39
32 50 39
35 54 42
39 60 47
37 57 45
43 65 50
49 74 57
51 77 60
45 68 52
56 84 65
53 79 61
57 85 65
58 86 66
57 85 65
61 91 69
57 86 65
63 94 72
61 91 70
69 102 78
62 93 71
63 94 72
68 101 77
66 98 76
64 96 74
67 99 76
60 90 69
68 102 78
68 102 78
56 84 65
58 87 67
62 92 71
70 104 80
67 100 77
64 95 73
63 94 72
65 98 75
63 93 72
63 95 73
62 92 71
60 89 69
67 100 77
65 97 74
70 104 80
66 99 76
61 91 70
60 89 68
58 86 66
63 94 72
71 105 80
63 93 71
60 88 67
66 92 70
125 111 90
86 78 64
87 92 73
31 67 44
153 140 120
164 146 126
164 146 126
165 147 126
167 149 129
176 157 137
176 157 136
170 152 131
185 165 146
183 163 144
180 160 140
182 160 140
183 161 141
184 162 141
183 161 140
187 162 141
185 160 138
189 162 141
189 162 140
189 161 139
190 157 134
185 156 134
182 152 130
184 154 133
175 145 124
175 143 121
173 143 122
159 129 108
153 125 104
154 125 103
150 120 100
137 112 91
132 109 91
120 98 80
105 90 75
103 87 71
94 83 69
91 81 66
95 86 70
97 90 76
84 80 66
92 91 75
61 65 52
60 72 58
59 71 57
66 81 64
58 79 62
51 78 61
55 84 66
53 80 63
54 82 64
57 86 67
55 83 64
61 92 72
55 83 65
64 95 73
63 94 73
57 86 66
58 88 68
62 93 72
62 93 71
58 87 67
58 88 68
60 90 70
60 91 70
67 98 75
137 110 72
156 116 71
159 118 73
160 119 73
161 120 74
160 119 73
160 119 74
160 120 75
168 129 84
190 153 110
217 182 137
215 180 137
189 154 111
164 127 85
151 114 72
148 111 69
146 110 68
144 108 67
141 106 66
139 105 65
135 102 64
132 100 62
128 98 61
126 96 60
122 94 58
119 92 58
108 84 52
106 82 52
101 79 50
94 75 47
91 73 46
87 70 44
83 67 41
82 66 41
80 65 40
69 58 35
70 89 66
60 91 70
63 94 73
66 99 76
58 87 67
57 86 66
59 89 69
64 96 74
62 94 72
65 98 76
62 94 72
60 91 70
62 94 72
61 91 71
65 97 75
67 100 77
61 91 70
63 94 73
65 97 75
65 98 76
63 94 73
62 93 72
62 94 73
73 109 84
64 96 74
58 87 67
62 93 72
64 96 75
61 92 71
65 98 76
64 96 74
64 96 75
69 104 81
63 96 74
59 89 69
67 101 79
62 94 73
62 94 73
63 96 75
56 85 66
63 95 74
56 84 66
54 81 64
57 86 67
58 88 68
56 85 67
57 87 68
56 85 66
54 82 64
54 83 65
54 83 65
52 80 63
56 86 68
53 82 65
52 80 63
54 83 66
52 80 64
51 79 63
50 77 61
52 80 64
53 81 64
55 84 67
47 73 58
48 74 59
48 75 60
46 72 57
49 77 61
48 74 60
50 79 63
50 78 62
47 74 59
48 75 60
50 78 62
50 78 63
53 83 66
45 70 57
48 75 60
51 80 65
48 76 61
49 76 61
46 72 58
54 83 67
49 77 62
48 75 60
52 81 65
50 78 63
49 76 61
52 80 64
48 75 60
49 75 60
47 72 58
50 78 63
49 76 60
56 87 69
53 82 65
56 87 70
49 76 61
49 77 61
54 84 66
52 80 64
49 76 61
53 82 65
49 76 61
52 80 64
55 85 68
51 79 62
53 82 65
53 82 65
52 80 63
55 85 67
52 79 62
55 85 67
52 80 63
59 91 72
66 98 76
61 91 70
64 96 74
62 93 71
62 93 72
60 90 69
61 91 70
66 99 76
59 88 68
68 102 79
60 90 70
62 92 71
61 91 70
76 113 87
67 101 78
66 98 75
64 96 74
66 99 76
67 99 77
65 98 75
60 91 70
63 95 73
65 97 75
71 105 81
70 105 81
64 95 73
61 92 71
71 105 81
61 92 71
60 90 70
69 104 80
67 100 77
63 95 73
63 95 73
60 90 70
66 100 77
59 90 69
64 96 74
67 101 78
69 104 80
66 99 76
68 101 78
65 97 75
68 101 78
68 101 78
70 105 81
65 97 75
70 105 81
65 97 75
63 95 74
61 92 71
63 95 73
65 98 76
66 99 76
63 95 74
61 92 71
66 99 77
60 91 70
67 101 78
65 97 75
66 99 76
62 94 73
65 97 74
64 96 74
65 97 75
64 96 74
66 98 76
65 98 75
60 90 69
62 93 71
62 94 72
69 104 80
66 99 77
59 87 67
64 95 73
61 91 70
67 99 76
69 103 79
67 99 76
64 95 73
70 104 80
61 92 70
60 90 69
64 95 72
63 94 72
62 91 70
62 92 70
61 89 68
63 92 70
65 97 73
59 87 66
60 89 67
65 95 72
59 88 66
66 97 73
60 88 67
60 88 66
60 88 66
56 82 61
53 78 59
51 76 57
53 78 59
48 71 54
45 67 51
42 62 48
37 54 42
35 52 40
33 50 39
32 48 38
26 40 32
27 41 32
29 45 35
27 42 33
25 38 30
25 40 31
28 44 35
25 38 30
31 48 38
26 41 33
28 43 34
29 45 36
29 44 35
27 43 34
28 45 35
31 49 39
33 52 42
33 53 42
38 59 46
36 55 43
39 59 46
43 65 51
43 65 51
43 67 52
50 75 58
52 79 61
53 79 61
60 91 70
57 86 66
57 85 65
58 87 67
59 88 67
57 85 65
60 89 68
64 94 72
61 90 69
60 89 69
60 89 68
66 98 75
61 90 69
64 95 73
61 90 69
59 88 68
68 102 79
64 96 73
62 92 71
64 95 73
65 97 74
61 91 70
64 95 73
68 101 78
66 99 76
66 99 76
68 102 79
65 97 74
64 95 72
63 93 72
61 92 71
63 94 72
65 98 75
59 88 68
63 94 72
61 91 70
68 101 78
58 86 66
62 93 71
58 86 66
66 98 75
62 93 71
60 89 69
63 93 71
96 99 76
69 63 52
77 85 65
30 65 42
133 123 103
155 140 120
163 145 126
160 144 124
167 149 130
168 151 130
177 158 139
175 156 137
176 157 138
172 154 134
175 155 136
179 160 140
173 152 131
177 156 136
181 158 138
182 160 140
182 159 139
180 155 134
175 149 128
181 154 132
172 146 124
176 146 124
177 148 127
175 146 124
171 141 120
162 133 111
162 132 111
154 125 104
148 120 99
144 116 96
134 106 86
139 112 92
122 100 83
101 84 67
99 84 68
90 79 64
87 76 61
101 78 65
110 68 58
123 66 59
125 61 55
130 60 55
131 59 55
132 59 55
130 58 54
130 58 54
128 57 53
122 60 54
112 61 54
100 64 55
88 82 66
61 76 60
55 83 65
58 88 68
57 85 66
59 88 68
66 99 77
57 86 66
57 86 66
61 92 71
59 88 68
58 87 67
67 101 78
63 93 71
61 88 68
130 106 70
157 115 71
158 117 73
159 117 72
160 119 74
161 120 74
160 119 74
161 120 74
166 127 83
186 149 106
217 181 136
219 184 140
193 158 115
165 129 86
153 116 74
148 112 69
148 111 69
145 109 68
142 107 67
138 105 65
137 104 65
132 101 63
128 97 61
124 95 59
121 93 58
119 91 57
111 86 54
108 84 52
105 82 52
94 74 47
87 70 44
89 71 45
87 70 44
89 71 45
74 61 37
75 61 37
63 79 58
61 91 71
68 102 79
66 99 76
62 92 71
62 93 72
69 103 79
60 90 69
65 98 75
59 89 68
59 89 68
67 101 78
60 90 70
61 91 71
61 91 70
63 95 73
62 93 72
66 98 76
62 93 71
65 98 76
68 102 79
63 94 73
63 95 74
62 93 72
58 87 67
66 99 76
60 90 70
60 90 70
60 90 70
59 88 68
61 92 71
59 89 69
58 88 68
67 100 78
57 86 67
60 90 70
58 88 69
58 88 69
59 89 70
60 91 71
60 91 71
56 85 66
58 88 69
60 91 72
55 83 65
55 85 66
56 85 66
53 81 64
52 79 63
52 79 62
53 82 64
56 86 68
51 77 61
51 79 62
50 77 61
52 80 63
52 80 64
52 80 64
50 77 62
54 83 66
50 77 61
48 75 60
48 74 60
47 73 59
50 78 62
51 80 64
44 69 55
51 79 63
48 74 60
50 77 62
51 80 64
47 74 59
48 74 60
47 74 60
52 81 65
49 77 62
52 81 65
50 78 63
51 79 64
49 77 62
48 75 61
52 82 65
50 78 63
49 76 61
45 71 57
53 82 66
52 81 64
50 78 63
47 73 59
56 87 70
49 75 60
51 80 64
53 82 65
49 76 61
52 81 64
56 86 69
47 73 58
55 86 68
50 77 61
50 77 61
49 77 61
55 86 68
52 80 63
53 83 66
55 85 68
55 84 67
60 93 73
52 80 63
53 81 64
59 90 71
56 85 67
54 83 66
51 79 63
61 93 73
58 88 70
61 91 70
64 95 72
61 92 71
63 95 73
60 90 69
61 91 70
62 93 72
67 101 78
62 92 71
64 96 74
63 94 73
65 96 74
66 98 76
61 91 71
70 105 81
64 95 73
64 96 74
66 98 75
64 95 73
69 103 79
65 97 75
60 90 70
66 98 76
64 97 74
64 95 74
60 90 70
66 100 77
65 98 76
62 94 72
64 96 74
64 96 75
67 101 78
64 96 74
63 95 74
70 105 81
67 100 77
64 96 75
63 94 72
69 103 80
65 98 76
66 98 76
68 103 79
69 103 79
58 88 68
68 102 79
62 94 72
72 107 83
61 93 72
63 94 72
64 97 75
64 96 75
67 100 77
65 97 75
60 91 71
61 92 71
65 98 76
63 95 73
60 90 69
67 100 77
62 93 72
66 99 76
63 94 73
72 107 83
61 91 70
65 97 75
63 94 72
65 97 75
71 106 82
66 100 77
64 96 74
62 93 71
61 91 70
66 99 76
64 95 73
65 98 75
68 102 78
68 100 76
63 95 72
62 93 71
70 104 79
64 94 72
60 90 69
62 92 71
59 88 67
59 88 68
62 92 70
65 96 74
63 94 72
61 91 69
61 91 69
59 87 66
63 92 70
61 90 68
63 93 71
63 93 70
62 91 69
64 95 72
63 93 70
54 80 60
61 89 68
56 81 61
55 80 61
50 73 55
49 72 55
47 70 53
43 63 48
43 64 49
43 62 47
42 62 47
35 52 40
37 57 44
30 46 36
30 45 34
28 43 33
29 45 36
31 49 38
33 52 41
30 47 37
31 48 38
30 47 37
32 49 38
31 49 38
32 51 40
34 52 40
36 55 43
38 58 45
40 61 47
39 59 46
42 64 49
47 72 56
48 72 56
51 77 59
54 81 62
51 77 60
53 80 61
57 86 66
57 85 65
57 85 65
64 95 73
65 97 74
65 97 75
71 106 81
60 90 69
64 95 73
63 95 72
66 99 76
64 96 74
62 92 70
62 93 72
63 94 71
57 85 65
65 97 74
64 95 73
62 93 71
63 94 72
70 105 80
62 93 71
65 97 74
66 99 76
67 100 77
62 93 71
63 95 73
60 89 69
63 94 73
63 94 72
65 97 75
64 96 74
65 96 74
61 91 70
62 93 71
65 96 74
61 91 70
67 100 77
57 85 65
67 101 77
61 92 71
62 93 71
62 93 71
61 92 70
68 100 76
66 91 69
72 65 53
64 75 57
28 62 40
126 117 99
144 131 111
149 134 114
153 137 117
159 143 124
161 145 126
167 150 130
165 148 129
166 149 129
167 150 130
168 150 131
161 141 121
168 149 129
169 148 127
167 147 126
173 149 129
168 147 127
176 151 129
175 150 129
171 145 124
172 144 122
168 142 121
164 136 114
165 137 115
160 133 111
151 124 103
152 125 104
144 115 93
136 109 88
133 107 87
123 98 79
114 91 72
102 83 65
88 73 56
103 75 63
119 68 59
130 60 54
134 60 55
136 61 56
135 61 56
135 61 57
135 61 57
134 61 57
135 61 57
133 60 56
133 60 56
132 60 56
131 59 56
131 59 55
129 58 54
126 57 53
122 55 51
108 64 55
93 67 56
63 82 64
58 87 68
57 85 66
58 87 67
57 85 66
61 92 71
60 90 69
64 95 73
63 94 72
63 95 73
121 104 70
156 116 72
157 117 72
159 118 73
160 119 73
160 120 74
159 119 74
160 120 74
165 126 82
186 149 106
217 181 136
222 186 142
195 160 118
168 132 90
153 116 73
149 112 70
145 110 68
145 109 67
142 107 66
140 106 66
138 104 65
133 101 63
129 98 61
127 97 60
121 93 58
116 89 55
115 88 55
108 84 53
106 83 52
95 75 47
91 73 46
80 65 41
87 70 44
87 70 44
75 61 38
73 59 36
63 73 53
59 88 68
69 103 79
64 96 74
62 93 72
61 91 70
62 93 72
60 90 70
59 88 68
65 97 75
63 94 73
62 93 72
62 93 72
61 92 71
58 87 67
59 89 68
62 93 72
66 98 75
65 97 75
58 88 68
62 93 71
61 92 71
64 97 75
60 90 70
60 90 70
59 88 68
61 92 71
58 87 68
57 86 67
57 86 67
56 84 65
62 94 73
58 87 67
62 93 72
66 100 78
58 88 68
58 88 68
55 84 65
56 85 67
61 92 72
56 85 66
55 84 66
59 90 70
52 78 61
55 84 66
52 79 62
56 85 67
54 83 65
50 76 60
53 82 64
54 83 66
54 82 65
55 84 67
49 75 60
51 79 63
53 82 65
49 76 60
52 80 63
54 83 66
48 74 59
49 75 60
49 75 60
56 87 70
49 76 61
51 79 64
50 79 63
49 76 61
48 74 60
48 75 60
49 77 62
49 77 62
48 74 60
47 73 59
50 78 63
46 72 58
48 75 60
50 78 63
50 79 64
51 80 64
49 77 62
49 76 61
54 84 67
53 83 67
48 76 61
50 78 63
47 74 59
49 76 60
48 74 60
46 72 58
51 79 63
46 72 57
50 78 62
52 81 64
54 84 68
48 74 59
54 83 66
49 76 61
53 82 65
54 84 67
58 89 71
53 81 65
57 88 70
52 80 63
52 80 64
52 81 64
55 85 67
57 87 69
59 91 71
53 81 64
55 84 66
55 84 67
57 86 68
53 81 64
56 85 67
59 90 71
58 89 70
66 99 76
69 103 79
66 99 76
67 100 77
66 98 75
64 96 73
62 92 70
63 93 72
60 89 68
65 97 74
69 103 79
71 107 83
67 99 77
67 100 77
70 104 80
64 97 74
66 98 76
70 105 80
65 97 75
68 102 79
61 91 70
63 95 73
65 98 76
63 95 73
62 93 71
62 93 71
61 91 70
73 109 84
69 102 78
67 100 77
61 91 70
70 105 81
64 96 74
59 89 68
62 94 72
66 99 77
65 97 75
72 109 84
61 91 70
59 89 69
67 101 78
65 98 75
67 100 78
65 97 75
69 103 80
66 98 76
68 102 79
62 93 72
68 102 78
70 105 81
65 98 76
64 96 74
59 90 69
61 91 70
64 96 74
64 96 75
66 99 76
61 92 71
65 97 75
63 95 74
66 99 76
68 102 79
68 102 79
66 99 76
64 96 74
63 94 72
73 109 84
72 107 82
70 104 80
62 93 71
63 95 73
68 102 79
66 98 76
65 97 74
61 90 69
63 94 72
69 102 78
63 95 73
65 97 75
61 91 70
61 91 70
68 101 77
65 97 74
65 97 74
64 94 72
64 95 72
66 97 74
65 97 74
65 96 73
66 97 74
68 100 76
64 95 72
63 93 70
58 85 65
62 92 69
60 87 66
62 91 69
62 91 68
63 92 70
55 80 61
58 84 64
58 85 63
60 88 67
55 81 61
52 76 57
53 78 58
51 76 58
52 78 59
50 74 56
46 69 53
44 65 49
41 61 47
42 63 48
46 69 53
39 59 45
37 56 43
36 55 42
38 57 44
36 55 43
38 57 44
39 60 46
40 60 46
45 68 52
49 74 57
45 69 53
46 70 54
49 74 57
53 79 60
51 77 60
52 78 60
53 80 61
53 80 61
56 84 65
55 82 62
63 94 72
64 96 74
62 92 70
58 86 65
58 86 65
63 94 71
69 103 79
62 93 71
66 98 75
69 102 78
61 92 70
68 101 77
63 94 72
61 92 70
67 99 76
64 96 73
64 96 74
66 98 75
63 94 72
60 90 69
58 87 67
64 96 74
63 94 72
62 93 71
66 99 76
70 105 80
64 96 74
67 100 77
66 99 76
65 98 75
68 102 78
59 88 67
65 97 74
62 92 71
66 97 75
68 101 78
67 99 76
63 94 72
61 90 69
68 101 77
62 93 71
60 89 67
64 95 73
67 100 77
62 92 70
58 87 66
61 91 70
88 88 68
35 55 37
24 54 34
86 88 70
146 132 112
146 131 112
148 132 112
148 133 114
144 131 111
156 140 121
155 140 121
151 137 116
162 145 126
157 140 120
163 146 126
158 140 121
163 144 125
159 139 119
170 147 127
164 145 125
159 137 116
161 138 117
160 135 113
159 134 112
152 129 109
154 128 106
149 121 100
154 126 104
144 118 98
140 113 92
126 101 80
127 99 78
113 88 67
106 85 66
101 80 61
109 70 56
126 63 56
135 60 56
137 61 57
137 61 57
137 61 57
136 61 57
136 61 58
135 61 57
135 61 57
135 61 57
135 61 57
134 61 57
134 60 57
133 60 57
132 60 56
131 59 56
130 59 55
129 58 55
128 58 54
126 56 53
123 55 51
118 55 50
97 65 55
69 81 64
55 83 64
62 93 71
58 87 67
61 91 70
61 91 70
65 98 75
115 103 71
154 114 70
157 116 72
159 118 73
161 120 74
161 120 74
159 119 74
160 119 74
164 124 80
183 146 102
216 180 135
224 189 144
202 167 124
171 136 94
155 118 75
150 113 70
147 111 69
144 108 67
142 107 67
140 106 66
138 105 65
134 101 63
129 98 61
126 96 60
124 95 59
117 90 56
113 87 54
109 84 53
105 82 52
98 78 49
90 72 45
86 69 43
81 66 41
80 65 40
82 67 41
72 60 36
69 71 49
59 89 69
59 88 68
63 95 73
59 89 69
60 90 70
64 97 75
67 100 77
61 92 71
58 88 68
61 91 70
61 92 71
63 94 73
59 88 68
63 95 73
60 91 70
60 91 70
62 94 72
58 88 68
58 87 67
59 88 68
66 99 77
66 99 76
59 89 68
59 88 68
58 88 68
56 84 65
58 87 67
62 94 73
64 96 75
59 90 70
59 89 69
56 84 66
63 95 74
59 90 70
65 99 77
59 89 70
60 90 70
54 83 64
58 88 69
60 92 72
54 82 64
57 87 68
59 89 70
52 79 62
54 83 65
50 77 60
54 83 65
56 86 68
54 83 65
49 75 59
52 79 63
52 80 64
52 81 64
48 73 58
52 80 64
53 82 65
50 77 61
48 74 59
55 85 68
48 74 59
47 73 58
50 77 61
52 81 64
51 80 64
49 76 61
49 76 61
50 78 62
51 80 64
48 75 60
50 78 62
51 79 64
46 73 58
52 81 66
46 72 58
53 83 67
47 73 59
50 77 62
52 81 65
53 83 67
49 77 62
48 76 61
50 78 63
49 76 61
52 80 64
45 70 56
48 74 60
46 72 58
50 78 62
51 78 62
54 84 67
48 75 60
46 71 57
53 83 66
51 80 63
49 76 60
53 83 66
49 76 61
58 90 71
52 81 65
58 89 71
52 80 63
52 80 64
53 82 65
59 91 72
51 78 62
53 82 65
61 93 73
62 96 75
59 90 71
55 84 66
57 88 69
52 80 63
57 88 69
59 90 71
51 77 61
58 88 69
62 93 72
64 96 74
66 97 74
62 93 71
62 92 71
63 94 73
70 104 81
66 99 76
61 91 70
65 98 75
61 91 70
65 97 75
63 94 72
67 99 76
65 97 75
61 92 71
64 96 74
65 96 74
64 97 74
60 91 70
70 105 81
64 97 75
61 92 71
64 96 74
64 95 73
66 98 75
70 105 81
67 101 78
66 99 77
66 99 76
64 97 75
60 90 70
64 95 73
62 93 72
67 100 77
70 105 81
63 95 74
66 98 76
69 104 80
61 91 71
60 90 69
59 88 68
72 107 82
72 108 84
68 103 79
63 94 72
66 99 76
70 105 81
62 93 72
66 98 76
67 101 79
71 105 81
66 98 76
62 93 72
62 93 72
67 100 77
66 98 76
65 98 75
65 97 75
67 101 78
64 96 74
66 99 76
64 96 75
64 96 74
63 95 74
69 103 80
69 103 79
70 104 81
70 105 80
60 90 69
60 90 69
63 94 72
62 93 72
67 100 77
62 92 71
59 88 68
63 94 72
64 95 73
63 93 71
59 87 67
57 85 65
67 100 77
60 89 68
63 93 72
62 93 71
67 100 76
63 93 71
63 93 71
58 86 65
66 98 75
60 90 69
64 94 71
58 86 65
59 87 66
65 95 72
61 90 68
63 92 69
61 90 68
64 95 71
64 94 70
61 90 68
58 86 65
57 84 63
61 91 69
61 88 66
57 83 63
55 82 62
52 77 58
57 84 63
56 83 63
48 71 54
47 70 54
50 75 58
43 64 48
46 68 52
49 74 57
46 69 53
49 73 56
42 64 49
49 74 56
46 68 52
46 69 53
46 69 52
47 71 54
55 82 62
52 77 59
57 85 65
53 80 61
56 84 64
56 84 64
52 78 59
54 80 61
56 84 64
61 91 70
58 86 65
59 88 67
61 91 70
58 87 66
63 93 71
65 98 75
61 91 69
63 94 72
64 95 73
59 88 67
62 93 71
62 93 71
62 93 71
58 86 66
68 102 78
62 93 71
67 99 76
60 90 69
69 103 79
62 93 71
65 98 75
64 96 74
57 85 65
61 91 70
72 106 81
64 96 74
66 99 76
62 93 71
65 97 75
63 93 72
57 86 66
62 92 71
66 98 75
63 94 72
61 91 70
61 91 70
64 95 72
59 88 67
61 91 69
61 91 69
59 88 68
60 89 68
57 85 65
63 93 71
68 101 77
62 91 70
64 95 72
58 86 65
19 44 26
23 51 31
56 69 51
130 118 98
132 120 99
139 125 106
141 128 108
140 128 108
145 131 112
142 129 109
154 140 121
146 132 113
153 137 118
150 135 116
148 132 113
148 132 113
161 142 124
153 134 114
150 131 111
154 135 114
151 131 112
147 123 100
142 120 99
148 124 104
147 121 99
139 114 92
139 113 91
133 108 86
124 98 75
120 94 72
108 85 64
95 75 56
103 70 56
125 60 53
135 60 55
137 61 57
136 61 57
138 62 58
137 62 58
137 62 58
137 62 58
136 62 58
136 61 58
136 61 58
135 61 58
135 61 57
134 61 57
133 60 57
133 60 57
132 60 56
132 60 56
131 59 56
130 59 55
129 58 55
128 58 54
126 57 54
123 55 52
120 54 50
116 52 49
96 69 57
60 79 61
57 86 66
61 93 72
58 86 66
108 99 69
154 113 70
157 116 72
160 118 73
159 118 73
160 119 74
160 119 74
160 119 74
163 123 78
183 145 102
214 179 134
225 190 145
204 169 126
172 136 94
158 120 77
150 113 71
148 111 69
145 109 68
141 106 66
138 104 64
135 103 64
132 100 62
131 100 62
126 96 60
122 94 58
121 93 58
115 89 55
111 86 54
106 82 52
95 75 47
86 69 43
84 68 42
83 67 42
82 67 42
78 63 39
77 62 38
68 67 45
60 89 68
59 88 68
67 100 77
61 91 70
63 95 73
63 94 73
59 89 69
59 89 69
63 96 74
61 91 70
60 90 70
70 105 81
63 95 73
64 95 73
65 98 75
58 88 68
66 99 77
57 85 66
63 95 73
61 92 71
64 96 74
64 96 74
61 92 71
60 90 70
60 91 70
56 85 65
66 99 77
64 95 74
61 92 71
59 89 69
66 100 77
61 92 71
57 85 66
62 94 73
61 93 72
60 91 71
62 94 73
56 86 67
59 89 70
59 89 70
52 80 62
56 84 66
60 91 71
55 83 66
55 83 66
54 82 64
57 87 68
58 89 70
52 81 64
51 78 61
52 79 63
53 81 64
56 86 69
55 85 68
50 78 62
50 77 62
54 84 67
55 84 67
49 76 60
52 81 65
45 70 56
47 74 59
50 78 63
52 81 65
48 76 61
52 81 65
47 73 59
48 75 60
45 71 57
47 73 59
47 74 59
48 74 59
44 69 56
50 78 62
49 77 62
49 77 62
51 80 64
49 76 61
47 73 59
45 71 57
49 76 61
48 76 61
54 84 67
47 73 59
48 74 60
50 77 62
47 73 58
50 78 62
55 85 68
48 75 60
56 87 69
52 81 65
55 85 68
57 87 70
52 81 65
53 82 65
53 81 65
51 80 63
55 84 67
51 79 62
50 77 61
49 76 60
52 80 64
50 77 61
51 78 62
56 85 67
54 82 65
54 83 66
58 89 70
59 91 72
53 81 64
57 87 68
57 87 69
57 87 68
61 93 73
57 87 68
53 81 64
61 92 71
68 101 78
64 96 74
67 101 78
66 98 75
64 96 74
62 93 71
59 89 69
61 91 70
64 96 74
70 105 81
61 92 71
65 97 75
62 93 71
68 102 78
62 93 72
68 102 78
65 97 74
67 99 76
69 103 79
71 106 81
67 101 78
59 89 69
62 94 73
59 89 69
65 98 76
60 91 70
63 94 73
61 92 71
65 98 75
60 91 70
65 97 75
64 96 74
68 101 78
66 98 76
69 104 80
66 99 77
71 107 83
65 98 76
64 96 74
65 98 75
63 95 74
67 101 78
64 97 74
70 104 80
60 90 69
60 91 70
67 101 78
64 97 75
63 95 73
69 103 79
70 105 81
64 97 74
69 103 80
66 99 76
61 92 71
66 99 76
70 106 81
71 105 81
66 99 76
68 101 78
67 101 78
67 100 78
62 93 72
62 93 72
77 115 89
73 109 84
68 101 77
71 105 81
64 95 73
66 99 77
60 90 70
72 106 82
63 94 73
63 93 71
63 94 72
64 95 74
67 100 77
64 95 73
58 87 67
67 99 76
64 95 73
66 98 75
64 94 72
65 97 74
71 105 80
69 101 77
67 99 76
67 100 76
59 87 66
66 98 75
60 89 68
64 94 71
73 107 81
64 94 71
61 90 68
59 87 66
57 83 63
66 97 74
61 90 68
64 94 71
68 100 76
62 91 69
58 85 64
59 87 65
62 92 70
60 88 66
59 87 66
57 84 64
55 82 62
53 78 59
60 89 68
57 85 64
53 78 59
47 70 53
53 79 60
55 81 62
52 77 59
53 79 60
53 79 60
52 77 58
52 77 58
52 78 59
54 81 62
56 84 64
60 89 68
65 96 73
56 83 64
61 92 70
62 92 70
61 90 69
56 83 63
62 92 71
58 86 65
60 89 67
67 100 77
67 100 77
62 92 70
60 90 68
57 85 65
60 89 68
66 98 75
64 96 74
62 92 70
57 85 65
65 97 74
60 90 69
64 95 73
60 90 70
62 93 71
63 94 72
63 94 72
64 96 74
67 100 77
66 99 76
66 98 75
61 92 71
58 87 67
61 91 70
63 95 73
58 87 67
64 95 73
65 97 75
66 98 76
65 97 74
59 89 69
63 94 73
61 92 70
63 94 72
67 99 76
63 95 72
65 96 74
65 97 74
57 85 65
63 93 71
64 95 73
59 87 67
62 92 70
65 97 73
62 92 70
59 88 67
62 93 71
38 60 42
19 45 27
21 48 29
102 97 77
123 113 94
121 112 91
130 120 101
133 122 103
134 123 104
141 129 109
142 129 111
147 133 115
140 128 109
142 129 110
135 122 103
131 119 100
142 126 107
136 121 101
144 126 106
147 128 108
144 126 107
140 121 100
139 115 94
133 113 94
124 105 85
126 102 80
119 99 79
119 96 74
110 84 62
94 74 54
96 74 54
114 61 50
134 60 55
136 60 56
137 61 57
137 61 57
138 62 58
137 62 58
137 62 58
137 62 58
137 62 58
136 62 58
136 61 58
135 61 58
135 61 58
135 61 58
134 61 57
133 61 57
133 60 57
132 60 57
132 60 57
131 59 56
130 59 55
129 58 55
128 58 54
127 57 54
125 56 53
124 56 52
121 54 51
118 52 49
110 54 49
80 75 59
63 94 72
101 98 70
152 111 68
154 113 70
158 117 72
160 118 73
160 119 73
159 118 73
160 119 74
163 123 78
180 142 99
211 175 131
227 192 147
209 174 130
176 141 99
156 119 77
151 114 71
147 110 69
142 107 66
141 107 66
139 105 65
136 103 64
134 102 64
129 98 61
125 96 59
128 97 61
120 92 58
117 90 57
109 84 52
108 84 53
98 77 48
92 73 46
91 73 46
86 69 44
79 64 39
78 64 39
73 60 36
66 67 45
62 90 69
59 88 68
59 88 67
63 95 73
59 89 69
62 92 71
64 95 73
62 93 72
61 91 70
66 99 76
61 91 70
62 94 72
64 96 74
59 89 69
58 87 67
60 90 69
60 91 70
58 86 67
68 103 79
63 95 74
62 93 72
60 91 70
68 102 79
57 85 66
59 88 68
58 87 67
60 91 70
61 92 71
61 92 71
57 85 66
59 89 69
57 86 67
53 80 62
61 92 72
56 85 66
61 92 71
55 83 65
54 82 64
55 84 66
52 78 61
55 84 66
57 87 69
55 84 66
54 82 65
59 90 71
52 79 63
53 81 64
54 83 65
52 80 63
52 81 64
52 80 63
52 80 64
55 84 67
53 82 65
48 74 59
51 78 62
49 76 61
48 74 59
46 72 58
45 70 56
45 70 56
52 80 65
47 73 58
49 77 62
53 82 66
42 67 54
44 69 56
43 68 55
51 80 64
46 72 58
47 74 59
45 70 57
49 76 61
53 83 67
47 73 59
52 81 65
49 77 62
48 75 60
47 73 59
52 81 65
45 71 57
49 77 61
47 73 59
53 83 67
51 78 63
50 78 63
56 87 69
54 84 68
52 80 64
55 85 67
50 78 62
49 77 61
51 78 62
51 79 63
55 84 67
53 82 65
58 90 71
54 83 66
56 86 68
53 81 64
57 88 70
57 87 69
55 84 66
56 86 68
61 93 73
56 85 67
55 85 67
56 86 68
57 87 68
55 84 66
62 95 74
57 87 69
57 88 69
56 85 67
59 90 71
58 88 69
55 84 66
66 100 79
62 92 71
61 91 70
68 102 78
64 95 73
62 92 71
66 99 76
67 99 76
67 100 77
63 94 72
64 96 74
61 91 71
69 103 79
66 99 76
68 102 79
64 95 73
61 92 71
65 97 75
65 96 75
66 98 76
63 95 73
64 96 75
66 99 77
67 101 78
65 97 75
65 98 75
67 100 78
60 90 69
71 106 82
67 101 78
63 95 74
64 96 74
64 95 73
67 101 78
64 96 74
64 96 74
70 105 81
65 98 76
63 95 73
63 94 72
68 102 78
63 95 73
68 103 79
65 97 75
69 103 80
66 99 76
67 100 77
68 102 79
69 104 80
69 104 80
65 97 75
68 102 79
68 102 79
63 95 73
65 98 75
63 94 73
62 93 72
69 102 79
68 102 79
68 102 79
71 105 81
69 104 80
63 95 73
67 101 78
65 96 74
62 92 71
64 96 74
68 101 78
68 102 79
64 95 73
68 102 78
67 100 77
62 92 71
66 99 76
67 99 77
70 104 80
64 95 73
59 88 67
63 93 71
61 91 71
59 87 67
65 97 75
66 98 75
66 98 75
62 92 70
66 98 75
58 86 66
65 97 74
63 95 73
60 90 69
63 93 71
61 91 70
69 102 78
68 101 77
65 95 73
67 99 75
69 101 76
61 91 69
63 93 70
66 96 73
70 102 77
59 87 66
63 92 69
62 92 70
64 93 70
64 95 71
65 96 72
62 92 70
52 77 58
58 86 65
59 88 66
60 88 67
59 87 66
58 86 64
63 93 70
54 81 61
59 88 67
61 89 67
61 91 69
58 86 65
53 79 60
60 88 66
58 86 65
58 86 65
62 92 70
58 87 66
62 92 70
63 94 72
59 88 67
64 95 72
62 93 71
63 93 70
62 92 71
59 87 66
64 95 72
61 91 69
71 106 81
66 98 75
65 97 74
61 91 70
61 91 70
61 91 70
60 90 69
63 94 72
64 95 73
73 109 84
62 92 71
64 95 73
66 99 76
68 101 78
68 101 78
61 92 70
64 95 73
60 90 69
62 93 71
68 102 78
63 94 72
71 107 82
62 93 72
60 90 69
65 97 75
62 92 71
63 95 73
62 93 71
59 89 68
69 102 78
63 94 72
62 93 71
62 92 71
60 90 69
62 93 71
59 88 68
66 97 74
66 98 75
62 92 70
60 89 68
64 95 73
57 86 65
55 82 62
61 91 69
67 99 76
60 89 68
67 100 76
56 84 64
24 47 30
17 41 24
61 67 49
104 99 78
119 110 91
114 107 87
128 118 98
119 111 91
128 119 100
122 114 94
126 117 98
128 118 99
127 116 97
135 121 103
132 118 100
129 115 95
125 113 94
130 116 97
128 113 94
130 113 93
129 110 91
116 99 80
111 95 75
115 96 75
106 88 69
111 90 71
99 78 56
87 70 51
96 69 52
129 62 55
133 60 55
136 61 56
138 62 57
138 62 57
138 62 58
137 62 58
137 62 58
138 62 58
137 62 58
136 62 58
136 62 58
136 62 58
135 61 58
135 61 58
135 61 58
134 61 57
133 61 57
133 60 57
132 60 57
132 60 57
131 59 56
130 59 56
129 59 55
128 58 55
127 57 54
126 57 54
124 56 53
123 55 52
120 53 50
117 52 48
112 50 46
103 72 54
145 106 65
155 114 71
157 116 71
158 117 73
159 118 73
160 119 74
160 119 73
162 122 78
177 139 96
208 172 128
228 193 148
212 177 133
179 144 102
158 121 79
150 112 70
148 111 69
144 108 67
143 108 67
138 104 64
140 106 66
133 101 62
134 102 63
131 99 62
124 94 59
121 93 58
115 89 55
111 86 54
105 82 52
100 79 49
91 73 46
87 70 44
85 69 43
80 65 40
78 64 39
78 63 39
66 61 40
66 95 73
59 88 68
64 95 74
65 98 75
62 93 72
58 87 67
57 86 66
57 85 66
60 90 70
60 90 70
58 87 67
60 91 70
60 89 69
64 96 74
60 90 69
63 93 72
58 87 67
61 92 71
68 101 78
61 92 71
60 91 70
65 98 76
64 96 74
63 95 73
61 91 71
63 95 74
56 85 66
66 100 77
60 91 71
61 92 71
56 84 65
61 92 72
59 89 69
61 92 71
62 94 73
59 90 70
63 95 74
56 85 67
62 94 73
58 88 69
53 82 64
58 88 69
53 82 64
59 91 71
56 85 66
55 84 66
52 81 64
53 82 65
52 80 63
55 84 67
55 84 67
49 76 60
48 75 60
53 83 66
48 75 60
49 76 61
48 75 60
45 69 55
52 81 65
45 71 57
52 80 64
49 76 61
49 77 62
50 77 62
46 72 57
46 71 57
48 76 62
47 74 59
46 72 57
45 71 57
50 77 62
51 80 64
49 77 62
48 75 61
48 75 60
48 75 60
49 77 62
48 75 60
55 85 68
50 78 63
47 74 59
48 76 60
54 83 66
46 71 57
49 77 62
49 76 61
52 81 64
50 77 61
50 77 62
52 81 65
51 78 62
50 77 61
50 77 61
50 78 62
53 82 65
54 83 66
55 85 67
55 85 67
59 90 71
59 91 72
61 93 73
51 79 62
57 87 69
53 81 64
51 78 62
52 80 63
57 87 69
55 84 66
53 80 63
54 82 65
58 88 69
54 83 65
53 81 63
58 89 70
63 96 75
61 92 73
61 92 73
62 95 75
61 92 72
70 104 80
60 90 69
66 99 76
60 90 69
69 103 79
69 103 79
67 101 78
69 104 80
68 102 79
65 97 75
64 95 73
63 94 72
66 99 76
63 94 73
66 99 77
67 101 78
64 95 73
61 92 71
70 105 80
64 96 74
69 103 79
61 92 71
63 96 74
64 95 74
61 91 71
70 105 81
65 97 75
61 92 71
61 92 71
63 94 72
67 100 77
70 105 81
67 100 77
64 95 74
68 101 78
69 102 79
66 98 76
65 98 76
61 92 71
68 102 79
62 93 72
68 102 79
66 99 77
59 88 68
61 91 70
63 95 74
66 100 77
67 100 78
71 106 81
69 103 79
64 96 74
69 103 79
61 92 71
66 98 76
66 98 75
66 99 77
70 104 80
70 105 81
73 110 85
63 95 73
65 97 74
65 97 75
70 106 82
60 90 69
65 96 74
64 95 73
63 93 72
66 98 76
63 95 73
66 100 77
61 91 70
60 90 69
61 91 70
63 95 73
68 102 78
69 103 79
64 95 73
65 97 74
65 96 74
65 98 75
67 99 76
66 98 75
64 95 73
64 95 72
66 98 75
63 94 72
64 95 73
64 95 73
63 94 72
64 95 73
62 93 72
67 99 75
66 97 74
71 104 79
63 93 71
59 87 66
58 86 66
66 98 75
60 89 67
59 88 67
64 94 71
62 91 69
62 91 69
58 86 65
63 93 70
61 90 69
58 85 64
62 92 70
63 93 71
62 91 69
59 87 66
64 94 71
64 95 72
63 93 70
60 89 67
59 88 67
62 92 70
67 99 75
65 96 72
61 90 68
66 97 73
63 93 70
55 82 62
63 93 71
64 95 72
60 89 68
65 97 74
67 100 76
65 97 74
64 95 72
68 100 76
61 91 70
63 95 73
58 87 67
56 84 64
65 97 75
68 102 78
64 96 73
58 87 66
60 90 68
63 95 73
59 89 68
63 94 72
62 92 71
71 106 81
64 95 73
67 101 77
66 99 75
65 97 74
63 94 72
63 95 73
70 105 80
62 93 72
63 94 72
64 96 74
64 96 73
66 98 75
63 95 73
58 86 66
57 86 66
60 90 69
67 100 77
65 97 75
63 94 72
58 86 67
67 101 77
58 86 66
67 99 76
59 89 69
63 94 72
65 97 74
59 88 67
62 93 71
63 93 71
62 92 71
67 99 76
61 91 70
60 89 68
63 93 71
66 98 75
60 89 67
56 84 64
51 76 58
51 78 58
17 40 23
21 43 26
86 87 67
95 93 72
101 97 76
111 104 85
115 109 90
120 112 93
124 115 96
114 107 88
118 110 92
117 110 92
121 112 94
125 113 94
120 110 91
119 109 92
125 113 95
120 107 89
116 103 84
108 97 79
108 93 74
96 85 66
97 83 65
92 80 61
85 71 52
80 66 47
102 75 59
133 65 58
135 59 54
136 61 56
137 61 57
138 62 58
138 62 58
137 62 58
138 62 58
138 62 58
137 62 58
137 62 58
136 62 58
136 62 58
136 61 58
135 61 58
135 61 58
134 61 58
134 61 57
133 61 57
133 60 57
132 60 57
131 60 57
131 59 56
130 59 56
129 59 56
128 58 55
128 58 54
127 57 54
125 57 53
124 56 53
122 55 52
120 54 50
117 52 48
115 55 46
148 107 66
157 116 71
157 116 72
159 117 72
160 118 73
159 118 73
162 122 76
176 137 94
206 170 127
230 194 149
217 181 138
182 146 105
161 124 81
150 113 70
148 112 70
146 110 68
142 108 67
139 105 65
137 103 64
131 100 62
130 99 62
128 98 61
124 94 58
121 93 58
117 90 57
111 86 54
104 81 51
98 78 48
94 75 47
91 73 46
87 70 44
83 68 42
82 66 41
79 64 40
69 62 40
64 93 71
62 94 72
59 89 69
64 96 73
57 86 66
66 99 76
64 96 74
61 92 71
66 99 77
66 99 77
61 91 70
67 100 77
61 92 71
65 97 75
59 89 69
61 92 71
61 91 70
60 90 70
60 90 70
65 98 75
63 95 73
65 98 76
60 90 69
59 89 69
63 94 73
58 87 68
64 96 75
58 87 68
63 96 74
58 88 69
61 92 72
59 90 70
62 93 72
58 87 68
55 83 65
63 95 74
54 81 64
50 77 60
59 89 69
59 90 70
50 77 60
55 83 66
53 81 64
55 84 66
55 84 66
54 82 65
49 75 59
54 82 65
50 77 61
55 85 68
51 79 63
50 77 61
53 81 65
48 74 59
47 73 58
50 77 61
54 83 66
47 74 59
48 74 60
52 80 64
45 70 56
46 72 58
53 83 67
44 68 55
47 73 59
50 79 63
50 78 62
48 74 60
51 80 64
44 69 56
45 71 57
48 76 61
47 73 59
51 80 64
50 79 63
47 73 59
47 74 59
49 76 62
49 77 62
49 76 61
49 76 60
51 79 63
50 78 62
52 80 64
49 76 60
53 81 65
52 80 63
52 80 64
53 81 65
52 81 64
56 86 68
52 81 64
52 80 63
54 84 66
55 85 67
54 83 66
51 79 62
52 79 63
50 77 61
60 92 72
58 90 71
56 87 68
54 83 65
59 90 71
54 83 65
55 84 66
55 85 67
53 82 64
56 85 67
53 82 65
56 85 67
55 84 66
56 85 67
60 91 71
56 86 68
57 86 68
52 80 63
59 89 70
61 93 73
59 90 71
66 98 76
64 96 74
64 95 73
65 97 75
68 101 78
62 92 71
62 93 72
67 100 77
62 93 72
68 101 77
71 106 81
61 92 71
62 92 71
69 103 79
65 97 75
74 110 85
60 90 70
71 106 81
70 105 81
67 100 78
67 100 77
62 93 72
68 101 78
70 105 81
61 91 70
65 97 75
62 94 72
63 94 73
70 104 81
67 101 78
71 106 82
65 98 76
70 105 81
71 106 82
64 95 73
64 96 74
67 101 78
68 102 78
68 103 79
67 100 77
65 97 75
62 94 73
64 95 73
61 92 71
70 105 82
66 99 77
68 102 79
63 95 74
65 97 75
68 102 78
67 100 77
67 101 79
64 96 74
63 95 73
66 99 76
62 93 72
61 91 71
63 94 72
65 98 76
65 98 75
61 91 70
67 100 77
62 92 71
66 99 77
64 96 74
60 90 70
61 91 70
62 94 72
61 92 71
59 88 68
67 100 77
65 98 75
64 94 72
65 98 76
64 95 74
67 99 76
61 91 70
58 86 66
65 97 75
66 97 75
64 95 73
66 97 74
66 98 75
63 94 72
68 101 77
60 89 69
65 97 75
66 98 75
61 92 70
62 92 70
68 101 78
58 85 65
64 96 73
69 102 78
60 89 68
62 92 70
61 90 68
67 98 74
66 98 74
60 89 67
59 87 67
63 93 71
62 92 70
60 88 66
58 86 66
56 83 63
64 95 72
59 87 66
61 90 68
61 90 68
62 91 69
63 94 72
63 93 70
62 91 69
64 94 72
61 91 69
61 91 70
66 98 74
65 97 74
59 88 67
61 91 69
63 94 72
60 89 68
61 91 69
61 92 70
64 95 72
61 90 69
58 86 65
59 88 67
58 87 66
58 85 65
58 87 66
65 97 75
60 89 68
62 92 70
59 87 67
70 105 80
66 98 75
65 98 75
68 101 78
70 104 79
64 95 73
62 93 71
63 94 72
58 87 67
64 96 74
64 96 74
62 93 71
64 96 74
68 102 79
63 94 72
62 93 72
61 91 70
65 97 75
64 95 73
60 90 69
61 92 71
66 98 75
66 98 75
62 93 71
65 97 74
67 100 76
64 96 74
62 93 72
65 96 74
62 93 71
64 96 74
59 88 67
60 89 68
60 90 69
62 93 71
61 91 70
61 91 70
62 92 70
62 91 70
62 92 70
58 87 66
63 93 71
62 91 69
54 81 61
59 88 67
56 83 63
56 83 64
52 77 58
39 62 45
15 37 20
46 53 35
84 82 60
87 86 66
89 88 68
99 95 75
98 95 75
105 100 82
108 104 85
113 106 87
106 101 82
108 101 84
105 99 81
100 95 76
102 96 78
109 99 81
101 93 75
99 90 73
98 89 71
93 85 66
85 76 58
80 70 52
80 72 53
74 65 45
105 76 61
131 65 58
134 60 55
134 60 55
137 61 57
138 62 58
137 62 58
137 62 58
138 62 58
138 62 58
137 62 58
137 62 58
136 62 58
136 62 58
136 62 58
135 61 58
135 61 58
134 61 58
134 61 58
133 61 57
133 61 57
132 60 57
132 60 57
131 60 57
130 59 56
130 59 56
129 59 56
128 58 55
131 66 62
130 65 61
132 72 67
127 62 59
123 55 52
120 54 51
117 52 48
115 51 47
136 89 59
157 115 71
158 117 72
159 118 73
160 119 74
161 121 76
174 135 91
205 168 124
230 195 149
220 185 141
188 152 110
161 125 83
153 115 72
148 111 69
146 110 68
142 107 67
141 106 66
138 104 65
133 101 63
132 100 62
128 97 61
125 96 60
122 93 58
117 90 56
112 86 54
106 83 52
107 83 53
93 74 46
88 71 44
86 69 44
82 66 41
85 68 42
79 64 39
69 60 38
63 87 66
58 86 67
60 90 70
63 94 73
64 96 74
59 89 69
63 95 73
65 97 75
60 90 70
59 88 67
59 89 68
62 94 72
64 95 74
62 94 72
59 88 68
60 90 69
63 95 73
64 96 74
57 85 66
60 89 69
62 93 72
63 95 73
63 95 74
61 92 71
58 88 68
60 91 70
63 95 74
59 89 69
55 83 64
60 90 70
59 89 69
61 92 72
65 99 78
58 87 68
54 82 64
60 90 70
60 91 71
55 83 65
58 88 69
55 84 66
53 80 63
55 84 66
53 82 64
51 78 62
55 84 66
55 84 66
50 77 61
54 84 66
56 86 68
52 81 65
52 81 64
53 83 66
50 78 63
51 79 63
47 73 59
50 78 62
53 82 66
47 74 59
50 78 63
48 74 60
48 75 60
49 76 62
51 80 65
47 73 59
47 73 59
47 73 59
48 75 61
49 76 62
44 69 56
49 77 62
51 80 65
48 75 60
46 72 58
46 72 58
45 70 56
46 71 57
47 73 58
55 85 69
52 82 66
49 77 62
50 78 63
51 79 63
53 81 65
49 76 61
52 81 65
50 78 62
54 83 66
48 75 60
51 79 63
50 78 62
49 75 60
49 76 60
51 78 62
57 87 69
53 81 64
60 92 73
54 82 65
52 80 63
58 89 70
52 80 63
57 87 68
55 84 67
59 90 71
59 91 71
57 87 68
57 87 69
55 84 66
60 92 72
54 82 65
53 81 63
52 80 63
53 81 64
63 95 74
55 84 66
56 85 67
57 87 68
60 91 72
60 91 71
60 92 72
58 89 70
58 89 69
63 94 73
66 99 76
63 94 73
60 90 69
62 93 72
66 99 76
59 88 68
65 97 75
64 96 74
72 107 82
66 98 76
67 99 76
64 96 74
66 98 75
65 98 76
65 97 74
63 93 72
67 100 77
65 98 76
62 92 71
61 92 71
70 105 81
62 93 72
66 99 76
63 94 73
69 104 80
65 98 76
60 90 69
62 93 72
68 102 79
66 99 76
62 93 72
66 98 76
65 97 75
64 95 74
68 102 79
64 96 74
61 91 70
65 97 75
67 100 77
62 92 71
66 98 75
69 104 80
66 98 76
66 99 76
65 98 76
67 100 77
67 100 77
66 98 76
61 92 71
77 115 89
68 103 79
68 102 78
71 106 82
63 94 73
70 106 82
63 95 74
65 97 75
66 99 76
76 114 88
66 99 76
63 94 72
68 101 78
68 102 79
65 98 75
66 98 76
68 102 79
66 100 77
63 94 73
62 92 71
64 96 74
64 95 73
64 96 74
62 93 72
72 107 82
66 98 75
60 90 70
60 90 69
67 100 77
64 95 73
58 86 66
65 97 75
63 94 72
65 97 75
62 93 71
61 90 69
62 92 71
66 99 76
67 98 75
63 94 72
64 95 73
61 91 70
60 89 67
64 95 73
58 86 66
65 96 74
68 100 76
66 99 76
69 102 78
66 98 75
64 94 71
64 94 71
63 93 71
63 93 71
64 95 72
64 94 71
66 98 75
60 90 68
69 101 77
66 98 74
57 85 64
67 99 75
65 96 72
60 89 68
61 91 70
61 90 69
62 92 70
62 91 69
64 95 72
64 96 73
60 90 69
57 86 65
60 89 68
63 94 72
80 119 91
64 95 72
62 93 71
62 92 70
62 93 71
69 103 79
65 96 73
58 86 66
65 97 74
58 86 65
61 92 70
66 97 74
61 91 70
62 93 71
67 100 76
64 95 73
65 98 75
67 100 76
63 94 73
60 90 69
63 94 72
64 97 75
70 105 80
64 95 73
59 88 68
63 95 73
63 94 72
72 107 82
69 103 79
62 92 71
69 102 78
64 96 74
61 91 69
68 101 77
61 92 70
62 93 72
62 93 72
62 93 72
68 102 78
62 92 71
65 97 74
65 97 75
69 103 79
62 92 70
62 93 71
61 91 70
67 99 76
63 94 72
58 86 66
62 92 70
64 96 73
62 92 70
59 89 67
61 91 69
59 89 68
60 90 68
63 93 71
64 96 73
54 81 62
52 77 58
45 66 51
40 63 46
16 40 22
58 63 44
77 79 58
82 82 62
76 79 57
88 87 69
83 83 64
83 84 64
89 89 70
95 92 74
94 91 71
96 92 75
89 87 69
96 91 74
95 90 73
87 84 68
87 83 65
79 75 58
74 73 55
80 74 56
72 67 48
69 66 48
103 80 63
129 59 54
132 59 54
135 60 56
136 61 56
137 62 57
138 62 58
138 62 58
138 62 58
137 62 58
137 62 58
137 62 58
137 62 58
136 62 58
136 62 58
136 61 58
135 61 58
135 61 58
134 61 58
134 61 57
133 61 57
133 60 57
132 60 57
131 60 57
131 60 57
146 91 84
176 135 125
204 174 160
225 199 182
225 199 182
228 203 185
228 204 187
224 199 181
215 188 172
197 166 151
168 132 121
136 87 79
124 70 53
156 115 71
160 118 72
160 119 74
162 121 76
173 134 90
203 166 123
231 195 150
223 187 143
189 154 112
162 126 84
152 115 72
148 111 69
145 109 68
143 108 67
141 106 66
138 105 65
134 102 64
130 99 61
128 98 61
124 95 59
122 93 58
117 90 56
113 87 55
109 85 53
99 78 49
95 75 47
92 73 46
88 70 44
85 68 43
77 62 38
71 59 35
70 58 35
66 86 64
59 89 68
60 90 69
64 96 74
67 101 78
62 93 72
57 85 66
56 84 64
63 94 72
65 98 76
64 97 75
66 99 76
64 97 75
60 90 69
61 92 71
61 91 70
61 92 70
66 98 75
63 94 73
60 90 70
59 89 69
55 83 65
60 90 69
58 87 68
60 90 70
58 87 67
58 88 68
61 91 71
58 88 68
55 83 65
60 91 71
60 90 70
53 81 63
58 88 68
57 87 68
61 93 73
55 83 65
53 81 63
54 82 64
48 73 57
54 82 65
52 79 62
56 86 67
60 92 72
51 78 62
51 79 62
53 81 64
51 78 63
53 82 65
51 78 62
49 76 60
55 86 68
49 77 61
44 69 55
49 75 60
50 78 62
47 74 60
51 79 63
43 68 55
48 75 60
45 71 57
46 72 58
52 81 65
45 70 56
52 82 66
53 82 66
51 80 64
45 71 57
49 77 62
44 70 56
47 74 60
49 76 61
46 73 59
49 76 61
46 72 58
47 73 59
47 73 59
47 73 59
48 74 60
49 76 61
55 85 68
53 83 66
53 82 66
54 83 66
49 77 61
52 80 64
51 79 63
51 79 63
49 75 59
49 76 60
52 80 64
51 78 62
55 85 68
49 76 60
55 84 67
52 81 64
53 82 65
54 84 66
51 78 62
53 81 64
56 86 67
52 80 63
58 89 70
60 91 71
63 96 76
56 86 68
55 84 66
55 84 66
60 91 72
53 80 63
62 94 74
57 86 68
58 88 69
54 83 65
59 91 71
56 86 67
63 95 74
58 88 69
62 94 74
67 102 80
59 89 70
62 94 74
64 96 74
62 93 71
60 90 69
66 99 76
70 105 81
64 95 73
65 96 74
73 109 84
65 97 75
71 107 83
68 101 78
65 97 74
64 97 75
64 96 74
64 97 75
69 104 80
60 88 68
69 102 79
67 100 77
66 99 76
63 95 74
62 93 71
62 93 72
62 94 72
65 98 76
71 106 82
67 101 78
66 98 76
70 104 80
69 104 80
67 101 78
65 98 76
65 97 75
65 97 75
67 101 78
68 102 79
64 96 74
62 93 72
66 99 76
70 106 82
64 96 74
63 95 74
60 90 70
65 97 75
66 99 76
63 94 73
63 95 73
71 106 82
64 96 74
63 94 72
63 94 72
73 109 84
61 91 70
64 97 75
61 92 70
70 104 80
68 101 77
61 92 71
70 106 82
65 97 75
64 96 74
63 94 73
61 91 70
68 102 79
68 102 79
62 93 71
62 93 72
63 94 72
64 96 74
72 108 83
66 100 77
63 94 72
69 103 80
72 107 82
67 100 77
63 95 73
67 100 77
62 92 71
64 95 73
62 91 70
63 94 73
68 101 77
64 95 73
64 95 73
61 91 70
67 98 75
68 101 78
64 95 73
60 90 69
63 94 72
66 98 76
63 93 71
60 89 68
67 99 77
64 95 73
64 94 72
60 89 68
63 94 72
64 95 73
64 96 73
66 97 74
65 96 74
69 102 78
64 95 73
66 97 74
57 85 64
61 91 70
60 89 68
66 98 75
66 97 73
60 89 68
61 90 69
61 91 69
67 99 75
62 92 70
61 91 69
63 94 72
66 98 75
57 86 66
63 94 72
60 90 68
64 96 73
67 100 76
63 94 72
59 88 67
61 91 69
65 97 74
68 101 78
62 93 71
64 95 73
60 89 68
67 99 75
67 100 77
67 100 77
68 102 78
60 89 68
61 91 69
70 104 79
61 91 70
61 92 70
66 99 76
60 89 69
61 92 71
68 102 78
59 89 69
56 85 65
61 91 70
58 86 66
64 96 74
61 91 70
63 94 72
63 94 73
64 95 73
66 98 76
66 99 76
68 102 78
65 97 74
67 100 76
68 102 79
75 112 86
69 102 78
61 91 70
64 95 73
62 93 72
67 100 77
62 93 71
64 95 73
63 95 73
63 94 72
63 94 72
63 95 73
63 93 71
58 87 66
57 86 65
61 91 70
58 87 66
63 94 71
62 93 71
64 95 72
64 94 72
59 87 66
59 88 67
56 83 63
56 84 64
45 67 51
47 71 55
30 50 36
16 37 19
67 70 50
74 78 56
77 79 56
80 82 59
75 79 56
84 86 65
84 84 63
84 84 64
78 80 60
81 80 61
78 80 59
78 79 60
82 82 64
82 81 63
83 80 62
73 73 54
74 71 53
69 69 49
66 65 46
91 76 58
133 71 64
130 58 53
132 59 55
134 60 55
137 61 57
138 62 58
138 62 58
138 62 58
138 62 58
137 62 58
137 62 58
137 62 58
136 62 58
136 62 58
136 62 58
135 61 58
135 61 58
134 61 58
134 61 58
133 61 57
133 60 57
132 60 57
132 60 57
172 129 119
218 189 173
235 210 193
234 210 192
233 209 191
232 208 190
230 206 189
229 205 188
227 203 187
225 201 185
223 199 183
220 195 177
216 191 173
210 182 164
183 151 134
161 119 77
160 118 73
161 120 75
173 133 89
200 163 119
229 194 149
228 193 148
195 159 117
165 128 86
152 115 73
147 111 69
146 110 68
144 108 67
141 106 66
138 104 65
135 102 64
131 100 62
130 99 61
123 94 58
122 93 58
117 90 56
111 86 53
108 84 53
97 77 48
96 76 47
87 70 44
85 68 43
78 64 39
83 67 42
75 62 38
75 62 38
64 80 60
65 97 75
62 94 72
60 90 69
62 92 71
60 91 70
61 92 71
63 94 73
63 94 72
60 90 69
59 88 68
67 100 78
64 96 74
59 88 68
65 97 75
55 82 64
59 89 69
63 95 73
61 91 70
65 97 75
69 103 80
61 92 71
60 90 69
62 93 71
63 95 73
61 92 72
64 96 74
65 98 76
65 99 77
59 89 69
56 85 66
54 82 64
55 84 65
58 88 68
56 84 66
59 89 70
59 90 70
50 77 61
53 82 64
48 74 58
53 82 64
54 83 65
54 84 66
54 83 66
51 78 62
51 79 63
50 77 61
48 74 59
50 78 62
51 79 63
49 76 61
46 72 58
49 76 61
49 77 62
48 74 60
49 77 62
49 76 61
44 69 55
51 80 65
49 77 62
48 76 61
43 67 54
44 68 55
42 66 53
43 68 55
51 81 65
47 74 59
47 73 59
44 70 56
46 73 59
48 75 60
45 71 57
46 71 57
48 75 60
45 71 57
46 71 57
50 78 62
54 84 67
51 79 63
49 77 61
54 83 66
47 73 58
50 77 61
48 75 60
50 77 62
56 86 68
49 75 60
51 79 63
52 80 63
54 83 66
52 81 64
50 77 61
52 80 63
51 78 62
55 85 68
55 84 67
55 85 67
55 85 67
56 86 68
52 80 63
56 86 68
57 87 69
63 96 76
57 87 69
57 86 68
56 86 67
63 95 75
55 84 66
65 99 77
59 90 71
57 87 68
66 100 78
60 92 72
60 91 71
57 87 68
58 87 68
57 86 67
58 88 69
55 85 66
54 82 64
61 92 71
56 84 66
62 94 73
66 99 76
70 105 80
61 92 71
64 96 74
68 101 77
65 97 74
63 94 73
70 105 81
62 92 71
65 98 75
67 100 77
71 106 81
66 99 76
68 101 78
64 97 75
65 97 75
60 90 70
65 98 75
64 96 74
70 104 80
66 98 76
64 96 74
66 99 76
65 98 76
65 98 75
63 94 72
67 101 78
71 106 82
62 93 72
60 90 70
67 100 77
61 92 72
60 91 71
62 93 72
63 94 73
62 93 72
67 100 78
65 98 76
65 98 76
64 96 75
68 101 78
68 102 79
61 92 71
66 98 76
69 103 79
67 101 78
73 110 85
77 116 89
65 98 76
65 98 75
66 99 76
65 97 76
66 99 77
68 101 77
71 107 82
67 100 77
67 102 79
66 98 76
64 96 74
68 102 79
65 97 75
71 105 81
66 99 76
67 100 77
66 98 76
58 86 67
60 89 69
66 99 76
68 102 79
63 94 73
65 96 74
68 103 79
62 93 71
61 91 70
63 94 72
64 96 74
67 101 78
64 95 73
68 102 78
66 99 76
64 95 73
67 100 77
64 96 73
66 98 75
62 92 70
67 99 75
65 98 75
64 96 73
60 90 69
64 95 73
64 95 73
67 101 77
66 98 75
68 101 77
68 101 78
62 92 70
59 88 68
62 92 71
59 88 67
66 98 75
61 90 69
66 97 74
67 99 75
68 101 78
66 98 74
61 91 69
58 86 66
64 95 72
62 92 70
60 89 68
68 102 78
62 92 70
63 94 72
65 96 74
57 85 64
62 92 70
65 97 74
59 88 67
63 94 72
64 96 73
59 88 67
69 102 78
65 97 74
66 98 75
61 91 70
63 94 72
58 87 67
62 92 71
62 93 71
61 91 69
68 102 78
66 99 75
65 98 75
64 96 73
67 101 78
62 93 72
68 102 78
62 93 71
59 87 67
61 91 70
67 100 77
65 97 74
66 98 75
65 97 75
66 98 76
64 96 74
61 91 70
64 96 74
62 92 71
60 90 70
65 97 74
63 95 73
68 101 78
66 99 76
62 92 71
67 100 77
70 104 79
61 91 70
62 92 70
65 97 74
66 99 76
63 94 72
65 98 75
63 95 73
62 92 71
65 98 75
66 98 75
65 98 75
67 100 76
68 102 78
66 99 76
66 98 75
61 91 70
60 89 68
57 85 65
64 95 72
61 90 68
65 96 73
61 90 68
56 83 63
55 82 62
56 84 64
55 82 62
50 74 56
48 72 55
47 71 54
41 61 47
27 45 33
25 39 23
61 67 45
63 70 47
74 77 53
69 74 52
79 81 59
83 83 62
73 76 54
84 85 64
81 83 63
79 80 57
84 82 61
75 77 56
71 74 53
71 73 53
67 69 46
70 70 50
68 67 47
76 72 53
128 74 66
130 58 54
132 58 54
135 60 56
136 61 56
136 61 57
138 62 58
138 62 58
138 62 58
137 62 58
137 62 58
137 62 58
137 62 58
136 62 58
136 62 58
136 62 59
136 63 59
136 63 59
135 62 59
134 62 58
133 61 58
133 61 57
178 137 126
228 200 184
237 212 194
236 211 194
235 210 193
233 209 192
232 208 191
231 207 190
230 206 189
229 205 188
227 203 186
225 201 185
222 199 182
220 195 177
215 190 173
212 186 168
207 181 163
178 141 110
162 120 75
171 131 86
199 162 118
230 194 149
231 195 150
198 163 120
166 129 88
153 116 74
150 113 70
146 110 68
142 107 66
139 105 65
137 104 65
135 102 64
132 100 63
130 98 61
123 94 58
124 95 60
118 91 57
114 88 55
107 83 52
102 80 50
93 74 47
90 72 45
85 68 43
83 67 42
85 68 42
78 63 39
76 62 37
67 78 56
64 97 75
57 85 65
61 91 70
68 102 78
61 92 71
64 97 75
62 94 72
63 95 73
65 97 75
59 89 68
66 100 77
66 99 77
63 95 73
63 94 73
60 90 69
60 90 69
58 87 67
59 88 68
61 92 71
60 91 70
65 98 76
62 94 72
63 95 73
59 89 69
68 103 80
56 84 65
60 91 71
58 88 69
63 96 74
63 96 75
57 87 68
51 78 62
60 91 72
56 85 67
57 86 68
54 83 65
53 81 63
58 89 70
56 85 67
59 91 72
53 82 65
53 81 64
47 73 57
51 78 62
46 71 56
52 80 64
47 73 58
52 81 64
52 81 64
50 77 62
50 77 62
50 78 63
48 75 61
48 74 60
49 77 62
48 75 60
47 73 59
49 77 62
49 77 62
47 73 59
46 73 59
49 77 62
43 68 55
43 68 54
50 79 64
48 75 61
48 76 61
44 69 56
43 67 54
49 77 62
47 73 59
44 68 55
46 72 58
45 70 56
50 77 62
49 76 60
49 76 61
51 79 63
50 77 62
50 77 62
54 84 67
50 78 62
50 77 62
48 75 59
48 75 59
55 84 67
59 91 72
50 78 62
50 77 62
52 80 63
55 84 67
56 85 68
63 96 76
58 88 70
49 76 60
59 90 71
51 78 61
56 85 67
53 81 64
58 89 70
56 85 67
60 91 72
52 80 63
56 85 67
59 89 70
56 86 67
56 85 67
60 91 71
58 89 70
63 96 75
55 84 66
64 97 76
55 83 65
61 93 72
59 89 70
61 92 72
58 88 69
67 101 78
59 90 71
57 86 67
63 95 74
59 90 71
68 103 80
65 97 74
66 98 76
66 98 75
69 103 79
63 94 73
65 97 75
66 98 75
67 101 78
69 103 80
65 98 75
63 94 72
61 90 69
61 91 70
67 100 78
65 97 75
67 101 78
69 103 80
69 104 80
63 94 72
67 101 78
68 102 79
69 104 80
65 98 76
69 104 80
66 98 75
69 104 80
61 91 71
66 99 77
66 99 76
66 98 76
66 100 77
68 103 79
69 105 81
65 98 76
71 106 82
72 108 83
72 108 83
59 89 69
71 106 82
62 93 72
61 91 70
67 100 77
66 99 77
66 100 77
63 94 73
63 95 73
67 101 78
64 95 74
75 112 86
64 96 74
63 94 73
66 98 76
65 98 75
67 101 78
61 91 70
63 94 72
66 99 77
66 99 76
68 102 79
62 93 72
64 96 74
64 96 75
64 95 73
65 97 75
68 101 78
66 98 76
65 98 75
69 104 80
61 92 71
60 90 69
60 90 70
63 94 72
61 91 70
66 98 75
64 96 74
66 99 76
64 95 73
64 95 73
61 91 70
60 89 68
62 93 71
61 91 70
64 95 73
70 104 80
64 95 74
67 100 77
67 101 77
61 91 70
61 91 70
63 94 72
64 96 73
64 95 73
69 103 79
64 96 73
67 100 77
59 89 68
60 89 68
62 93 71
64 95 72
63 94 72
62 92 71
67 99 76
62 92 71
67 100 77
64 95 73
59 87 67
65 96 73
62 92 71
70 104 79
69 103 79
59 88 68
62 93 71
61 90 69
62 92 71
62 92 70
65 96 73
58 87 67
69 102 78
66 98 76
69 103 79
64 96 74
66 99 75
73 109 84
68 101 77
58 86 66
61 91 70
62 92 71
64 95 73
64 95 73
63 95 73
62 93 71
64 96 74
64 95 73
64 95 73
61 90 69
67 100 77
62 93 72
64 96 73
61 91 70
65 98 76
66 99 76
68 102 78
66 98 76
64 96 74
70 104 80
61 92 71
61 91 70
62 93 71
62 92 71
65 97 74
63 94 72
72 108 83
61 91 70
62 93 72
63 95 73
63 94 73
62 92 71
59 88 68
62 92 71
66 98 75
61 91 70
64 96 74
59 89 68
65 96 74
58 88 68
63 93 71
58 87 66
61 91 69
64 95 73
60 90 69
66 98 75
61 91 70
63 93 71
60 89 68
62 92 70
68 100 77
63 93 71
57 85 65
67 100 76
59 88 67
60 90 68
53 79 60
55 82 62
52 78 60
49 73 56
46 69 53
38 56 43
33 50 39
25 41 31
18 34 20
52 60 38
69 73 49
70 75 50
64 71 47
74 77 53
70 75 52
69 73 50
81 81 58
76 78 56
76 77 55
78 79 58
72 75 51
64 70 48
65 68 46
63 66 43
59 63 42
120 84 72
126 56 51
129 58 53
132 59 54
133 59 55
136 61 56
137 61 57
137 62 58
137 62 58
137 62 58
137 62 58
137 62 58
136 62 58
136 62 58
136 63 59
137 65 60
139 68 63
139 70 64
140 70 65
138 69 64
136 66 61
148 89 83
210 178 163
238 213 195
238 212 195
237 212 194
235 211 193
234 210 192
233 209 192
232 208 191
231 207 190
229 206 189
228 204 188
226 203 186
225 201 185
222 199 182
221 198 181
218 194 177
214 189 172
208 181 162
189 157 133
170 129 85
197 159 115
228 192 147
231 196 151
202 166 124
167 131 89
154 117 74
149 112 69
146 110 68
143 108 67
139 105 65
138 104 65
136 103 64
133 101 63
131 100 62
127 97 60
125 96 60
117 90 56
113 87 54
107 83 52
102 80 50
95 75 47
91 73 47
86 69 43
84 67 42
83 67 42
78 64 39
79 64 39
70 81 59
58 87 67
66 99 76
63 94 72
59 88 68
65 97 75
64 96 74
68 101 78
61 91 70
59 88 68
64 95 73
61 91 70
57 85 66
63 95 73
66 99 76
59 88 68
61 91 70
63 94 72
64 97 75
60 90 69
60 90 69
57 85 66
56 85 65
59 89 69
58 88 68
58 87 67
59 90 70
55 83 65
54 82 64
54 82 64
56 86 67
55 83 65
58 88 69
53 81 64
59 90 71
57 87 68
54 82 65
51 78 61
56 86 68
50 77 61
58 89 70
54 83 66
53 82 65
52 79 63
51 79 63
49 76 61
49 76 60
51 79 63
44 69 56
45 71 57
46 72 57
47 73 59
48 76 61
47 73 59
44 69 56
44 69 55
47 74 59
43 67 54
44 70 56
45 70 57
46 73 59
45 70 57
46 72 58
49 76 61
44 68 55
42 66 53
44 69 56
45 71 57
46 72 58
45 71 57
45 70 56
49 77 62
50 78 63
49 77 62
46 71 57
46 71 57
52 81 65
49 76 61
53 82 66
52 80 64
53 82 65
48 74 59
54 83 66
48 75 60
49 75 60
53 81 65
51 79 62
55 84 67
51 79 63
56 86 68
58 89 71
55 84 66
54 83 66
52 80 63
52 80 63
53 81 64
59 90 71
61 93 73
57 88 69
51 78 62
53 81 63
57 87 68
57 87 69
57 87 68
54 83 65
64 97 76
59 90 70
56 86 67
58 88 69
59 90 70
59 89 70
60 92 72
60 92 72
61 92 72
60 91 71
60 91 71
53 81 63
63 96 75
58 88 68
57 87 68
61 92 72
60 90 71
59 89 69
57 87 68
61 93 73
66 98 75
62 93 71
68 100 77
64 95 73
67 100 77
65 97 75
68 101 78
68 102 79
62 93 72
69 103 80
62 94 72
60 89 69
70 105 81
68 102 79
65 97 75
72 108 83
58 87 67
64 97 75
66 99 76
69 104 80
63 95 73
63 95 74
68 102 79
60 91 70
69 104 80
62 93 72
66 100 77
68 101 78
77 114 88
67 101 78
65 97 75
68 102 79
61 91 71
65 98 75
65 97 75
72 108 83
65 98 76
66 99 76
75 113 87
67 101 78
67 101 78
66 98 76
65 98 76
67 100 77
70 104 81
64 96 74
66 98 76
60 91 70
61 92 71
62 92 71
67 99 76
63 95 73
66 99 76
66 99 77
60 90 69
68 101 78
73 109 84
63 94 73
73 109 84
65 97 75
71 107 83
65 98 75
64 97 75
67 100 77
60 91 70
61 92 71
67 100 77
66 99 76
64 96 74
64 95 74
63 94 72
65 97 74
60 90 70
66 99 76
61 91 70
66 99 76
70 104 79
65 98 76
60 89 69
69 103 79
66 99 76
67 100 77
63 95 73
64 96 74
65 96 74
63 94 72
62 93 71
60 89 68
67 101 78
61 91 70
63 94 73
63 93 71
65 96 73
63 94 72
63 94 72
69 103 79
62 92 71
64 95 73
69 103 79
69 102 78
64 95 73
62 93 71
71 106 81
66 97 74
67 100 77
64 95 73
62 93 71
65 97 75
66 98 75
65 96 74
65 97 74
65 97 74
61 92 70
67 99 76
65 98 75
66 99 75
65 96 73
71 105 80
70 104 79
67 100 77
64 95 73
64 95 73
63 93 72
68 102 78
64 95 72
61 92 71
65 96 74
67 100 77
66 99 76
61 91 70
62 92 71
63 94 72
67 101 77
61 92 71
64 96 74
69 103 79
62 93 72
61 90 70
64 96 74
66 99 76
61 92 70
64 96 74
62 92 71
66 99 76
63 94 72
64 96 74
64 96 73
64 97 75
66 99 76
67 100 77
68 102 79
64 96 74
68 102 79
63 94 72
61 91 70
66 98 76
59 89 68
57 86 66
60 91 70
64 96 74
67 100 77
66 98 75
65 96 73
65 98 75
67 100 77
63 94 72
62 93 72
62 92 71
65 96 74
68 102 78
57 86 66
63 94 73
62 92 70
68 100 76
56 84 64
60 90 68
57 85 64
60 89 67
64 94 72
60 89 67
56 83 63
55 82 63
59 88 67
52 77 59
49 73 56
46 68 51
38 57 43
34 52 41
30 47 37
23 37 29
16 31 20
42 51 32
59 67 43
65 70 46
62 70 45
65 71 46
69 74 50
68 72 47
65 71 47
69 74 50
72 75 52
61 66 43
63 66 45
65 69 45
62 67 43
99 85 67
125 57 52
126 56 51
130 58 54
132 59 55
134 60 55
136 61 57
136 61 57
137 62 58
137 62 58
137 62 58
137 62 58
136 62 58
136 62 58
137 63 59
139 68 63
144 76 69
150 87 77
155 94 83
155 95 84
151 89 79
173 127 115
237 210 192
240 214 196
238 213 195
237 212 194
236 211 193
235 210 193
234 209 192
233 208 191
231 207 190
230 206 189
228 205 188
228 204 187
226 203 186
224 201 185
222 199 183
219 196 179
216 193 177
215 191 174
209 184 166
202 175 156
193 155 113
228 192 146
236 200 154
207 171 128
172 136 94
154 116 74
149 112 69
144 109 67
143 108 67
141 107 66
139 105 65
135 102 64
132 100 63
132 100 62
127 97 60
122 93 58
118 90 56
111 86 53
110 85 53
102 80 50
97 77 48
88 71 44
85 69 43
83 67 42
81 66 40
79 64 40
76 62 38
68 71 50
64 96 74
60 90 69
60 90 69
55 82 64
59 88 68
60 91 70
62 93 72
63 94 73
66 99 76
57 86 67
61 91 70
60 91 70
61 92 70
60 91 70
61 90 69
67 100 77
65 98 76
61 91 71
56 84 65
60 91 70
60 90 70
60 91 70
61 92 72
59 90 70
62 93 72
58 88 68
64 96 75
62 94 73
57 87 68
51 77 60
60 92 72
56 85 67
56 86 67
50 76 59
60 92 72
58 88 70
49 76 60
54 83 65
50 78 62
51 79 63
55 85 67
49 76 60
51 80 64
49 75 60
56 86 69
48 74 59
47 73 58
51 79 63
49 76 61
45 70 56
45 70 57
49 76 61
50 79 64
47 74 60
50 78 63
50 78 63
48 75 60
47 74 59
47 74 60
45 70 56
44 68 55
46 73 59
43 67 54
51 80 64
45 71 57
46 73 59
44 70 56
47 73 59
48 74 60
47 73 59
43 67 54
47 73 59
48 75 60
46 72 58
50 78 62
54 84 67
47 73 59
51 78 62
49 77 61
49 76 61
52 81 65
53 82 65
49 75 60
50 77 61
52 81 64
52 81 64
50 76 60
52 80 63
53 81 64
53 81 64
57 87 69
53 81 64
58 89 70
62 96 75
57 87 69
59 91 72
57 87 68
58 88 69
58 88 69
53 81 63
56 86 67
57 86 68
58 89 70
58 88 69
59 89 69
60 91 71
60 92 72
59 90 70
55 84 66
57 86 67
56 85 66
63 95 74
60 90 71
58 88 68
65 99 77
58 88 69
60 90 71
59 90 70
57 86 67
59 90 70
59 89 70
59 89 70
63 95 74
55 84 65
65 98 76
67 100 77
72 106 82
60 89 69
65 98 75
67 100 77
65 97 75
63 93 72
64 95 73
62 92 71
63 93 72
62 93 72
65 97 75
64 96 74
68 102 79
62 93 72
66 98 76
60 89 69
65 97 74
69 103 79
64 95 74
62 93 72
68 102 79
63 95 73
62 93 72
73 109 84
67 101 78
74 111 86
63 95 74
63 94 73
64 96 74
65 98 75
62 93 72
68 102 79
64 96 74
67 100 77
62 93 72
64 96 74
65 98 76
68 102 78
68 102 79
68 101 78
67 100 77
64 96 74
66 99 77
62 92 71
64 96 74
68 102 78
67 101 77
65 97 75
64 95 74
69 103 79
76 114 89
70 105 81
65 97 75
74 110 85
76 113 87
66 98 76
66 98 76
63 95 73
66 100 77
63 95 74
61 91 70
62 93 71
63 94 73
63 94 73
65 97 75
70 105 81
67 99 76
64 96 74
63 93 72
65 97 75
59 89 68
60 90 69
64 96 74
62 93 72
63 94 73
68 100 77
68 101 78
61 91 70
66 99 76
63 93 71
62 92 71
71 106 82
70 104 79
66 98 75
67 100 77
62 92 71
59 88 67
67 100 77
67 100 76
71 107 82
61 91 69
60 90 69
61 91 70
68 101 78
65 96 74
67 99 76
64 95 73
63 94 72
65 96 73
64 95 72
63 94 71
62 92 70
65 96 73
71 106 81
66 99 76
66 98 75
70 103 79
62 92 71
62 93 71
65 96 73
64 95 72
61 90 69
60 90 69
65 97 74
59 88 68
65 97 75
65 97 74
60 89 68
61 91 70
64 95 73
66 99 76
65 96 74
63 95 73
63 94 72
68 102 78
63 94 73
65 97 74
67 100 77
63 94 72
64 96 74
59 88 68
67 100 77
63 93 72
67 101 77
67 100 77
57 86 66
65 97 74
68 101 78
69 102 79
63 93 72
59 89 69
69 102 79
63 94 72
66 98 75
62 93 71
64 96 74
58 88 67
67 99 76
66 99 76
65 96 74
72 108 83
62 93 71
65 97 75
67 100 76
66 99 76
62 92 71
63 95 73
62 92 71
59 89 68
62 93 72
63 94 72
66 99 76
63 94 73
68 102 78
65 97 74
68 100 77
65 96 74
65 97 75
63 93 71
62 93 71
63 94 72
59 88 67
62 93 70
58 86 65
56 84 64
61 91 69
60 89 68
61 91 69
68 100 76
60 89 67
58 86 65
59 87 66
57 84 64
49 73 55
46 69 52
41 62 48
36 55 42
29 44 35
29 45 36
25 40 31
22 35 28
24 35 22
51 57 36
59 65 42
57 64 41
63 68 44
60 66 42
56 64 41
61 68 44
60 67 43
64 69 45
65 70 45
64 68 44
67 69 47
135 88 78
127 56 52
129 57 53
129 58 53
132 59 54
133 60 55
136 61 56
136 61 57
137 61 57
137 62 57
137 62 58
136 61 58
136 62 58
137 63 59
139 69 63
148 82 74
160 101 89
176 121 105
184 132 114
182 130 112
220 183 163
251 224 203
245 219 200
240 215 196
238 213 195
236 211 193
235 210 193
233 209 192
233 209 191
232 208 190
231 207 190
229 206 189
229 205 188
227 203 187
226 202 186
224 201 184
223 200 183
220 196 180
218 194 178
214 191 174
209 186 170
205 180 164
222 188 150
238 201 155
212 177 133
175 138 97
155 118 75
150 112 70
146 110 68
144 109 67
141 107 66
141 106 66
136 103 64
133 101 63
128 98 61
127 97 61
123 94 59
120 92 57
116 89 56
109 84 53
104 81 50
97 77 48
86 69 43
87 70 45
86 69 44
83 67 42
81 66 41
74 61 37
67 73 51
64 94 72
68 101 78
64 95 73
58 87 68
67 100 76
66 98 75
66 98 76
60 89 69
63 94 72
58 87 67
61 91 71
63 94 72
60 90 69
58 87 67
59 88 68
59 88 68
63 94 73
59 89 69
57 85 66
56 84 65
54 82 63
61 91 71
58 88 68
55 84 65
59 89 69
57 86 67
57 87 68
55 84 65
60 91 71
55 83 65
57 87 68
57 86 68
49 75 59
55 83 65
56 85 67
51 78 62
48 74 58
53 81 64
49 76 60
48 74 59
53 81 65
48 73 58
50 76 60
44 69 55
48 74 59
51 79 63
47 74 59
46 72 58
47 73 59
44 68 55
45 71 57
43 68 55
45 72 58
47 73 59
44 70 57
43 67 55
46 72 58
46 73 59
42 67 54
45 71 57
47 74 60
44 69 56
46 73 59
47 74 60
43 68 55
43 67 54
48 74 60
45 70 57
49 76 61
47 74 59
45 70 56
46 72 58
46 72 57
52 80 64
45 70 56
48 74 59
47 74 59
49 75 60
50 77 62
51 78 62
55 85 67
52 80 64
47 73 58
56 86 68
54 82 65
50 77 61
54 83 66
54 82 65
55 84 66
57 88 69
59 90 71
53 81 64
54 82 65
52 79 62
54 82 65
54 83 65
53 82 64
57 87 68
59 90 71
58 88 69
55 83 65
55 84 66
56 86 67
59 89 70
61 94 73
58 88 69
59 90 70
61 92 72
56 85 67
60 91 71
59 90 70
60 91 71
58 89 70
64 98 77
63 95 74
63 96 75
58 88 69
64 98 76
62 94 73
60 91 71
61 93 73
59 89 69
55 84 65
65 98 76
60 91 71
65 97 76
63 94 72
69 102 78
64 96 74
68 101 78
63 95 73
63 94 72
62 93 72
63 94 73
61 91 70
62 92 71
64 96 74
64 96 74
65 96 74
71 106 82
64 96 74
61 92 71
65 97 75
65 98 76
68 102 79
70 104 80
61 91 70
66 98 76
66 100 77
66 98 76
61 90 70
64 95 73
65 97 75
62 94 73
63 95 74
70 106 81
67 100 77
66 99 76
71 106 82
68 102 78
60 90 70
61 92 72
61 92 71
63 95 73
63 95 74
69 103 80
61 92 71
65 98 75
63 95 74
72 108 83
68 102 79
61 92 71
63 94 73
66 98 76
65 98 76
70 104 81
66 98 76
64 95 73
63 94 72
61 91 70
64 96 74
70 104 81
75 112 86
63 95 73
63 95 74
69 103 80
65 97 75
66 98 76
70 104 80
65 97 75
60 90 70
74 111 86
62 92 71
72 107 82
69 103 79
66 99 77
64 96 74
63 95 73
68 102 79
61 91 70
61 91 71
65 97 75
74 110 85
59 88 68
61 92 71
63 93 71
69 102 78
67 101 78
61 92 70
69 102 78
67 100 77
67 101 78
73 107 82
66 98 75
60 89 69
71 107 82
73 109 84
65 97 75
70 104 80
65 96 74
66 98 75
63 94 73
64 96 73
64 96 74
68 101 77
67 99 76
70 104 80
70 104 79
61 90 69
64 95 72
64 95 73
63 93 71
65 97 75
66 98 75
63 94 72
71 106 82
59 89 68
59 88 67
64 96 73
59 89 68
63 95 73
60 90 68
63 94 72
62 93 72
63 95 73
59 88 68
61 92 71
61 91 70
62 92 70
64 95 73
63 95 73
72 107 82
66 99 76
65 97 74
62 93 72
65 98 75
59 89 69
58 87 67
62 93 71
63 94 72
62 93 71
64 95 73
64 96 74
67 100 77
63 94 72
66 99 76
62 93 72
64 95 74
67 100 77
61 91 70
62 92 71
61 90 69
61 92 70
63 94 73
61 91 70
64 96 74
64 96 74
66 98 75
62 93 72
66 98 75
66 98 75
67 100 77
64 96 74
70 106 82
60 90 69
71 105 80
65 98 75
59 88 68
61 91 70
62 93 71
64 96 74
62 93 72
58 87 67
61 91 70
65 96 73
61 91 70
68 101 77
63 95 72
63 95 73
64 95 73
65 96 73
59 87 66
61 91 69
65 96 73
57 85 64
63 93 70
61 91 68
57 83 63
59 88 67
54 80 61
53 79 60
52 77 59
46 70 54
41 62 48
35 53 41
29 46 36
26 40 32
22 35 27
20 32 26
20 31 24
27 39 27
42 49 31
51 58 37
57 63 41
57 64 41
58 65 42
57 64 41
58 64 41
58 64 41
56 61 39
118 96 80
121 54 49
126 56 52
127 57 53
129 58 53
132 59 55
133 59 55
136 61 56
136 61 57
136 61 57
136 61 57
136 61 57
136 61 57
136 62 58
138 66 61
145 78 70
161 101 89
183 130 112
205 156 133
218 170 146
253 216 190
255 250 224
255 235 212
248 222 202
240 215 196
238 212 194
235 211 193
234 210 192
233 209 191
231 208 191
230 207 190
230 206 189
228 205 188
226 203 187
226 203 186
224 201 185
223 200 184
221 199 182
219 197 181
217 194 178
213 190 175
210 187 171
203 181 165
218 188 156
216 180 136
179 141 99
158 121 78
150 113 71
146 110 68
145 109 68
143 107 67
142 107 67
136 103 64
134 102 63
130 99 62
128 98 61
123 94 59
118 91 56
113 87 54
112 86 54
104 81 50
99 78 49
95 75 48
87 70 44
84 68 42
85 68 43
81 66 41
77 62 38
73 68 46
66 98 75
67 100 77
62 93 72
68 101 78
59 88 68
57 86 66
62 93 72
57 86 66
58 86 66
67 100 76
58 88 67
63 94 72
63 94 72
64 96 74
61 91 70
59 89 69
64 97 75
58 88 68
60 91 71
57 86 66
63 95 73
60 91 71
52 79 61
55 83 65
55 84 65
54 82 64
51 77 60
56 85 66
59 89 69
61 92 72
51 78 61
51 77 60
55 84 65
48 74 58
48 74 58
51 79 63
49 75 59
54 83 66
52 79 63
48 73 58
51 78 62
53 82 65
50 78 63
49 76 61
54 84 67
45 70 56
47 73 59
45 70 56
47 73 59
45 70 56
47 73 59
44 69 56
41 65 53
41 63 51
40 63 51
45 70 57
46 73 59
49 77 62
50 79 64
45 71 58
42 67 54
45 71 58
46 73 59
49 77 62
49 76 62
46 72 58
49 76 61
46 72 58
49 76 61
51 80 64
47 74 59
47 73 59
47 73 59
50 78 62
50 78 62
45 70 56
46 72 57
50 77 61
50 77 61
53 82 65
54 83 66
57 88 70
55 85 67
53 82 65
54 84 66
54 82 65
55 85 67
55 84 67
59 90 71
57 86 67
58 88 69
54 83 65
56 85 67
57 87 68
61 94 74
53 80 63
56 85 67
58 88 69
55 85 67
62 94 73
60 92 72
55 84 66
53 80 63
58 89 70
59 89 70
56 85 66
66 101 79
67 102 80
56 86 67
56 85 67
58 88 69
62 94 73
58 88 69
54 82 64
60 91 71
58 88 68
55 84 66
62 93 73
58 88 68
66 100 78
63 95 74
59 89 70
60 92 71
62 94 73
57 86 67
58 87 68
61 91 71
67 100 77
67 99 76
60 89 69
71 104 80
67 101 78
67 100 77
60 90 69
70 104 80
64 97 75
68 102 78
70 105 81
65 97 75
64 96 74
70 105 80
61 92 71
63 94 73
62 92 71
65 98 76
64 96 74
72 108 83
62 93 72
65 98 75
69 104 80
69 103 80
71 105 81
71 106 82
67 101 78
65 96 74
59 88 68
69 103 80
62 93 72
63 94 73
66 98 76
71 107 82
69 104 80
66 98 76
66 98 76
67 101 78
64 96 74
62 93 72
64 97 75
65 97 75
64 96 74
66 99 76
64 96 74
60 90 69
62 93 71
69 103 79
70 104 80
64 96 75
64 96 74
62 93 72
66 99 77
65 97 75
63 95 73
67 101 78
67 101 78
65 97 75
69 103 80
67 100 77
66 99 77
67 101 78
66 99 77
68 101 78
63 95 73
64 96 74
64 96 74
66 98 76
64 95 74
61 90 69
66 99 77
63 95 73
68 102 78
65 97 75
63 94 73
68 101 78
68 102 79
67 100 78
67 101 78
74 111 86
66 99 77
63 93 72
57 85 65
63 95 73
62 93 72
66 98 75
64 96 74
66 98 75
61 90 69
65 97 75
62 93 71
63 94 72
71 105 81
62 93 71
63 94 72
58 87 67
61 91 70
64 95 73
64 95 73
60 90 69
60 89 69
66 98 75
62 93 72
57 86 66
66 98 75
68 101 77
61 91 70
67 100 77
66 98 75
62 92 71
64 96 74
68 101 77
69 102 78
68 101 78
67 99 76
62 92 71
66 99 76
65 98 75
66 97 75
70 105 80
65 98 76
63 94 72
63 94 72
58 87 66
67 100 77
65 98 75
61 91 70
63 94 72
65 97 74
61 91 70
62 93 71
66 99 76
62 92 71
61 92 71
65 97 75
61 92 71
65 97 74
66 100 77
68 102 79
66 99 76
65 98 75
66 98 75
66 98 76
68 101 78
67 100 78
63 94 73
65 96 74
65 98 75
65 98 76
67 99 76
68 101 77
58 86 66
63 94 73
61 91 70
63 94 73
65 97 75
63 93 71
64 96 74
66 98 75
64 95 73
63 94 73
59 88 68
59 88 68
59 88 68
63 94 72
63 94 72
67 100 76
64 96 73
68 102 78
66 98 75
63 94 72
60 89 68
55 82 63
60 89 68
62 93 71
62 92 70
64 95 72
57 86 65
63 94 72
62 92 69
58 85 64
59 88 67
59 87 66
53 78 59
55 82 62
48 72 55
49 72 55
41 61 46
39 59 45
31 47 37
31 48 38
23 36 28
25 38 30
21 33 25
20 32 26
18 29 23
18 28 21
28 37 25
35 41 27
39 47 30
45 51 33
48 54 34
46 51 33
63 65 47
133 89 78
121 54 49
124 56 51
129 57 52
130 58 54
130 58 54
134 60 56
134 60 56
135 61 57
136 61 57
136 61 57
135 61 57
135 61 57
136 63 59
140 69 64
150 86 77
173 118 102
201 151 130
226 179 152
255 241 211
255 255 241
255 255 228
255 237 213
249 223 202
240 215 196
236 211 193
234 210 192
234 209 191
232 208 191
231 207 190
230 206 189
229 205 188
227 204 187
226 203 186
225 202 185
224 201 184
222 199 183
220 197 182
218 196 181
217 195 179
213 192 176
206 184 169
203 181 165
200 175 155
184 147 104
158 120 78
150 113 71
148 111 69
145 109 67
142 107 67
140 106 66
138 104 65
135 102 64
130 99 61
126 96 60
123 94 59
121 93 58
115 89 56
111 86 54
108 84 52
101 79 50
95 76 48
89 71 45
86 69 43
87 70 44
79 64 39
76 62 38
67 61 39
61 87 66
61 91 70
61 92 71
57 86 66
61 91 70
60 90 69
57 85 66
58 87 67
68 102 78
62 93 72
62 92 71
59 88 68
60 90 69
64 95 73
58 87 67
59 88 68
58 87 68
60 90 70
66 99 77
59 89 69
55 84 65
55 83 64
57 85 66
60 90 70
55 84 65
57 87 68
54 82 64
57 87 68
64 97 76
52 79 62
54 82 64
51 78 61
51 77 61
53 81 64
48 73 58
49 75 59
49 75 60
54 83 66
49 76 61
53 81 64
48 74 59
52 81 65
53 81 64
47 72 58
49 76 61
48 75 60
47 73 59
44 70 57
45 70 57
43 68 54
48 76 62
47 74 60
47 73 59
44 69 56
42 67 54
42 67 54
43 68 55
42 66 54
43 69 56
43 68 55
44 70 57
45 71 57
44 69 56
47 74 60
45 70 56
44 69 56
44 69 56
44 69 55
46 72 58
50 78 63
51 79 63
51 80 64
50 77 62
52 80 64
52 80 64
52 80 64
54 84 67
55 85 68
56 87 69
47 72 57
52 80 63
55 84 67
52 80 63
55 84 66
59 90 71
54 82 65
49 76 60
56 85 67
59 90 71
57 86 68
63 96 75
55 83 66
57 87 68
54 82 65
59 89 70
59 90 71
57 87 68
57 88 69
55 85 67
54 82 65
58 89 70
59 90 71
57 86 68
57 87 68
53 80 63
56 85 66
61 92 72
66 101 79
61 93 72
58 87 68
56 84 66
59 90 70
57 87 68
60 91 71
61 92 72
62 94 73
61 92 72
60 91 71
60 91 71
61 92 72
59 89 70
62 93 72
57 87 68
65 98 76
63 95 73
66 100 78
59 89 69
60 90 70
64 95 73
66 98 76
70 104 81
67 101 78
66 98 76
64 96 74
63 94 73
68 102 79
68 102 79
67 100 77
65 98 76
61 92 71
59 88 68
63 95 73
64 96 74
69 102 79
65 97 75
62 94 73
59 89 68
59 88 68
64 96 74
68 101 78
75 112 86
68 101 78
64 96 74
61 92 71
63 95 73
66 98 76
72 108 84
65 97 75
66 99 76
64 95 74
64 96 74
76 115 89
62 93 72
65 97 75
70 104 81
68 102 79
67 101 78
58 87 68
68 102 79
69 103 80
68 103 79
70 104 81
66 99 76
69 103 80
63 95 73
64 96 75
71 106 82
65 97 75
66 99 77
62 93 72
63 94 73
65 98 76
65 98 75
65 98 75
66 99 76
62 93 72
65 98 76
64 96 74
67 101 78
64 97 75
72 108 83
66 99 76
73 108 83
60 90 69
66 99 76
64 96 74
69 103 80
67 100 77
64 96 74
66 99 76
64 96 74
61 91 70
65 98 75
65 97 75
74 110 85
63 95 73
60 90 70
66 99 76
72 108 83
61 91 70
62 93 71
63 93 72
63 94 73
67 101 78
60 90 69
68 101 78
68 101 78
64 96 74
60 89 68
62 92 71
72 108 83
65 97 75
64 96 74
61 91 70
67 100 76
66 98 75
70 104 80
64 95 73
61 91 70
68 102 78
61 91 70
71 106 81
62 93 72
65 97 75
62 92 70
69 103 79
60 90 69
64 96 73
62 93 71
63 94 72
66 98 75
64 95 73
67 100 76
68 103 79
63 94 72
66 98 75
68 101 77
62 93 71
63 94 72
69 104 80
63 95 74
65 97 75
64 96 74
67 100 78
61 92 71
62 92 71
63 95 73
65 97 75
65 97 75
72 108 84
58 87 67
60 90 69
60 90 70
72 107 83
65 97 74
62 93 72
65 97 74
62 94 72
63 94 73
65 97 75
68 101 78
65 97 75
63 95 74
67 101 78
63 94 73
62 94 72
67 100 77
60 91 70
67 101 78
68 102 78
68 101 78
65 97 75
63 94 73
65 98 75
65 97 75
74 110 85
66 99 76
59 88 68
58 86 66
66 98 75
60 90 70
65 97 74
63 94 73
65 98 75
67 100 76
64 96 74
64 96 73
60 89 68
66 98 75
61 90 69
66 99 75
61 92 70
65 97 74
58 87 66
65 96 73
60 90 69
61 91 70
60 89 67
56 84 64
62 90 68
55 81 61
56 82 62
55 82 62
53 79 60
54 81 61
46 69 53
43 65 50
38 58 44
34 52 40
26 41 32
27 43 34
21 33 26
22 35 28
19 29 23
20 32 25
20 32 25
19 29 22
14 23 18
15 24 19
19 30 23
15 23 18
97 74 64
115 51 47
122 54 49
125 56 51
128 57 52
130 58 54
130 58 54
132 59 55
135 60 56
135 61 56
135 61 57
135 61 57
135 61 57
135 61 57
136 63 59
141 71 65
152 90 80
176 122 105
202 152 131
255 223 195
255 255 242
255 255 236
255 249 223
255 233 210
245 220 200
239 213 195
235 210 193
234 209 191
233 208 191
232 207 190
230 206 189
229 205 188
228 204 187
226 203 187
225 202 186
225 201 185
223 200 184
221 198 182
220 197 181
218 196 180
216 194 178
214 192 177
209 187 172
203 183 168
197 174 157
162 124 84
149 112 69
148 111 69
144 108 67
142 107 66
142 107 67
137 104 64
134 101 63
133 101 63
126 96 60
124 95 59
119 91 57
116 89 56
115 89 56
106 82 51
102 80 50
94 75 47
84 68 43
86 69 43
81 66 41
80 65 39
77 63 38
70 61 38
66 96 73
64 95 74
59 88 68
57 85 66
69 103 80
64 96 74
60 90 69
62 93 72
59 89 68
66 99 76
59 88 67
57 85 66
60 90 69
67 101 78
62 92 71
60 90 70
63 95 74
60 90 70
54 81 63
57 85 66
59 90 70
61 92 71
57 86 67
57 86 67
57 87 68
57 87 67
57 87 68
61 94 73
60 92 72
51 78 61
55 84 66
55 84 66
50 77 61
56 86 68
53 81 64
54 83 66
49 76 61
53 81 64
56 86 68
47 73 58
50 77 62
51 79 63
48 75 60
51 80 64
48 76 61
51 80 64
47 73 59
46 73 59
43 68 55
43 68 55
48 76 62
46 73 59
46 73 59
43 68 55
41 65 53
44 69 56
49 77 63
48 76 61
45 71 57
44 69 56
45 71 57
43 67 54
48 74 60
49 76 62
45 71 57
47 73 58
50 77 62
46 72 58
46 72 58
46 72 58
50 77 62
57 89 71
52 80 64
50 77 61
49 75 60
52 81 64
54 83 66
51 79 63
56 86 69
54 83 66
53 82 64
50 76 60
52 80 63
56 85 67
57 87 69
58 89 71
60 91 72
54 82 65
53 81 63
54 82 65
59 91 71
52 79 62
59 90 71
56 86 67
57 87 68
64 97 76
56 85 66
61 92 72
57 87 68
58 89 69
64 97 76
58 88 68
62 94 73
63 96 75
60 92 72
58 88 69
58 88 68
57 86 67
67 101 79
59 90 70
63 95 74
61 93 72
58 87 68
57 86 67
63 95 74
62 94 73
61 92 71
59 89 69
58 87 68
60 91 71
61 93 72
57 86 67
63 95 74
60 90 70
61 92 71
60 90 70
60 90 70
66 100 78
65 97 76
64 95 73
69 102 79
64 96 74
61 92 71
65 98 76
67 100 78
60 89 69
67 101 78
64 96 75
65 98 76
58 87 67
63 95 73
64 97 75
69 104 80
62 93 72
65 98 76
65 97 75
71 106 82
64 96 74
67 100 77
70 105 81
68 102 79
70 106 81
66 99 77
62 93 72
60 89 69
61 91 70
67 100 78
65 97 75
61 91 70
62 94 72
72 107 83
68 102 79
65 98 76
65 98 76
65 97 75
76 114 88
63 95 73
64 96 74
60 89 69
66 98 75
68 102 79
71 107 83
65 97 75
62 93 72
62 93 72
66 100 77
68 102 79
69 103 80
61 92 72
76 113 87
67 99 77
69 103 80
67 100 77
64 97 75
61 92 71
63 95 74
62 93 72
69 102 79
62 93 72
70 105 81
69 103 80
72 108 83
66 99 77
65 98 75
62 92 71
72 108 83
65 97 75
61 92 71
65 97 75
64 97 75
71 106 82
67 100 77
64 96 74
72 109 84
67 100 77
62 94 72
66 99 76
66 99 76
67 100 77
63 95 73
60 90 69
65 96 74
63 94 73
62 93 72
66 99 76
63 95 74
67 100 77
59 88 68
65 97 75
65 98 76
66 98 76
63 94 73
68 102 79
64 94 73
64 95 73
60 90 70
63 94 72
61 90 70
60 90 69
64 95 73
65 98 75
68 102 79
69 103 80
63 94 72
69 103 79
66 98 75
65 97 75
63 94 73
69 103 79
67 101 77
67 101 77
68 102 78
65 97 75
67 101 78
59 88 68
66 98 75
67 99 76
67 100 76
65 97 75
67 101 78
61 91 70
62 92 71
62 92 71
65 97 74
69 103 79
65 98 75
66 99 76
61 91 70
67 99 76
58 87 67
67 99 76
63 94 73
64 95 73
61 91 70
69 103 79
61 91 70
64 96 74
65 97 75
66 99 76
59 88 68
67 101 78
70 105 81
63 95 73
64 96 74
63 94 73
62 94 72
61 91 70
66 99 76
66 100 77
61 90 68
70 105 81
67 100 76
64 97 74
63 94 72
66 98 75
61 92 71
65 98 75
64 96 74
60 90 69
64 96 74
65 96 74
62 93 71
60 90 69
69 102 79
62 92 70
66 99 76
62 92 71
62 92 71
59 88 67
63 93 71
61 92 70
63 94 72
62 93 71
56 84 64
70 103 78
59 88 67
58 86 66
61 91 69
58 87 65
58 86 65
57 84 63
61 90 68
59 87 66
57 84 63
56 83 62
55 82 61
50 74 56
45 68 51
43 64 49
40 61 47
35 53 41
29 45 35
28 43 34
21 34 27
23 37 29
22 34 27
22 35 27
21 33 26
18 28 22
21 33 26
20 30 24
19 30 24
113 73 64
116 51 47
120 53 48
124 55 51
125 56 51
128 57 52
130 58 54
132 59 55
132 59 55
134 60 56
135 61 57
134 60 57
135 61 57
135 61 57
136 63 58
139 70 64
149 86 76
165 109 95
211 169 148
255 253 225
255 255 229
255 249 222
255 236 212
250 224 203
241 216 196
236 211 193
234 209 191
233 208 191
232 207 190
230 206 189
230 206 188
228 205 188
228 204 187
226 203 186
224 201 185
223 200 184
221 199 183
221 198 182
219 196 180
217 195 179
216 194 177
211 190 175
207 186 170
202 182 167
196 174 159
164 133 104
149 112 69
146 109 68
144 108 67
140 106 66
138 104 65
134 101 63
130 99 62
127 97 60
123 94 59
119 92 57
114 88 55
115 88 55
107 84 53
100 78 49
96 76 48
89 71 45
84 68 42
81 66 41
82 66 41
74 61 37
72 60 36
66 89 67
63 95 73
60 90 69
57 85 66
57 85 65
61 92 71
62 92 71
67 99 76
69 103 79
61 91 70
62 92 71
58 87 67
63 94 72
61 92 71
60 90 70
60 90 69
56 84 65
60 90 70
67 101 78
63 95 73
58 87 68
59 89 69
52 79 61
63 95 74
54 82 64
55 83 65
59 89 70
52 79 62
50 76 60
50 76 60
52 79 63
59 89 70
49 75 59
52 80 63
54 82 65
51 80 63
51 79 63
51 79 63
47 72 58
49 76 61
50 78 62
47 74 59
47 72 58
47 74 59
50 78 62
42 67 54
50 78 63
39 62 50
42 66 54
47 74 60
49 78 63
48 75 61
48 75 61
42 67 54
45 72 59
45 71 58
40 63 51
44 69 56
45 71 57
45 71 57
48 75 61
46 72 58
47 74 59
52 81 66
47 73 59
52 82 66
48 75 61
45 71 57
48 74 59
55 85 68
49 77 62
49 76 61
51 79 63
55 84 67
49 75 60
52 80 64
51 79 63
53 82 65
52 80 63
52 81 64
56 86 68
50 77 60
54 83 66
56 86 68
55 84 66
55 84 67
56 86 67
59 90 71
56 86 67
57 87 68
57 87 68
57 86 68
59 90 70
54 82 64
55 84 66
55 84 66
56 86 67
55 84 65
58 87 68
63 95 74
57 86 67
58 88 68
60 91 71
63 96 75
58 88 69
56 85 66
56 85 66
59 90 70
66 100 78
61 92 72
58 87 68
61 93 72
56 85 66
59 89 69
62 95 74
62 93 73
57 87 68
59 90 70
58 87 68
62 93 72
62 94 74
62 93 73
57 86 67
60 91 71
61 92 71
62 94 73
61 92 71
61 92 71
64 97 76
65 99 77
62 93 72
72 107 82
64 96 74
66 99 76
66 99 76
67 99 77
60 89 69
70 104 81
66 99 76
68 101 78
65 98 76
64 96 74
65 97 74
68 102 79
76 114 88
72 107 83
70 105 81
66 99 76
66 98 76
70 104 80
63 94 73
67 101 78
66 98 76
76 113 88
67 100 77
68 101 78
63 95 74
66 98 76
66 99 77
64 96 74
68 102 79
65 98 76
71 106 82
64 96 75
60 91 70
60 90 70
61 91 71
65 98 75
70 106 82
67 100 77
66 99 77
63 95 73
63 95 73
65 98 76
71 107 82
73 110 85
64 95 73
63 95 74
61 91 70
64 96 74
63 95 73
66 99 77
60 91 70
64 96 74
65 98 76
69 103 80
69 103 80
68 102 79
63 95 73
61 92 71
60 89 69
65 98 76
62 94 72
69 104 81
65 98 75
60 90 69
60 90 70
72 108 84
67 100 77
60 89 69
70 105 81
64 95 73
67 100 78
63 94 73
69 103 80
63 94 73
69 104 80
67 100 77
63 95 73
66 98 76
64 96 74
68 102 79
64 96 74
67 100 77
63 94 73
63 95 73
69 102 78
69 103 79
70 104 80
69 102 78
66 99 76
65 96 73
67 99 76
63 94 72
64 96 74
66 99 77
66 98 76
67 101 78
66 99 77
66 99 77
68 100 77
68 101 78
74 110 85
66 99 76
63 95 73
64 96 74
60 90 69
65 97 75
60 90 69
63 94 72
65 97 75
63 95 73
61 91 70
66 98 75
70 105 81
61 91 70
68 102 78
60 89 69
63 94 72
63 94 73
61 91 70
68 102 78
62 92 71
63 94 72
71 106 82
65 97 74
67 100 77
68 102 79
64 96 74
67 101 78
77 115 88
66 98 75
65 97 75
72 107 83
65 97 75
68 102 78
69 104 80
64 96 74
62 92 71
69 103 80
65 97 75
67 101 78
60 91 70
62 93 72
67 100 77
66 99 76
69 103 80
67 100 77
66 98 76
66 99 77
64 95 73
67 101 78
60 90 69
60 89 69
64 96 74
60 91 70
62 93 71
69 103 79
66 99 76
65 97 75
65 96 74
70 105 80
72 107 82
62 93 72
58 86 66
60 89 68
67 100 76
66 99 76
61 91 70
61 90 68
68 101 77
59 89 68
64 95 73
68 101 77
63 94 72
60 89 68
62 92 70
63 94 72
54 80 61
55 82 62
60 89 67
63 94 71
56 83 63
57 84 64
64 95 72
58 85 64
61 90 68
51 75 57
52 77 58
47 71 53
44 65 50
38 57 44
35 52 40
32 49 38
31 48 38
25 39 30
25 39 31
24 36 28
25 38 30
22 34 26
19 30 24
19 29 22
54 48 40
116 62 54
117 52 48
120 53 48
124 55 51
125 55 51
128 57 53
131 58 54
132 59 55
131 59 55
133 60 56
132 59 56
134 60 56
135 61 57
134 61 57
134 62 58
137 66 61
143 77 69
157 99 88
245 215 194
255 235 211
255 235 211
255 230 208
249 223 202
242 216 196
238 212 193
235 210 191
233 208 190
232 207 190
231 206 189
229 205 188
230 205 188
227 203 187
226 203 186
225 201 185
224 200 184
223 200 183
221 198 182
220 197 181
218 195 180
216 194 178
215 193 176
211 190 175
208 187 171
200 179 164
196 175 159
166 137 112
146 110 68
143 107 66
139 105 65
137 103 64
136 103 64
132 100 62
126 96 60
125 95 60
121 93 58
117 90 56
111 86 54
105 82 51
102 80 51
93 74 46
89 71 45
85 69 43
81 66 41
82 66 41
80 65 40
71 59 36
68 94 71
65 98 75
60 89 69
67 100 76
64 96 74
57 86 66
59 88 68
69 103 79
59 88 68
57 86 66
56 83 64
59 88 68
59 89 69
59 89 69
65 98 76
57 86 66
60 90 69
59 89 69
61 92 72
58 87 67
55 83 65
54 81 63
57 87 67
53 80 62
54 82 64
50 76 60
53 81 63
53 81 64
51 79 62
52 79 62
52 79 63
52 79 62
48 73 58
48 75 59
47 72 57
48 74 59
47 73 58
49 76 60
47 73 58
45 70 56
48 75 60
44 69 56
44 68 55
48 75 61
43 68 55
44 69 56
43 68 55
45 70 57
42 66 54
42 67 54
44 69 56
45 71 57
46 72 59
49 77 63
47 74 60
46 72 59
47 74 60
43 68 55
47 73 60
44 69 56
50 78 63
44 68 55
46 72 58
46 72 58
49 77 62
45 71 57
49 77 62
45 70 56
45 70 56
49 77 62
52 81 64
48 75 60
49 76 60
55 85 67
51 79 63
53 82 65
50 77 61
52 80 63
54 83 65
50 78 62
51 78 62
55 84 67
64 98 77
59 90 70
50 76 60
58 88 70
58 89 70
56 86 68
54 82 64
63 96 75
59 91 71
55 83 65
60 91 72
56 85 67
55 84 66
53 81 63
59 89 70
60 91 71
58 88 69
57 87 68
56 85 67
58 88 69
65 99 77
60 90 70
61 93 72
63 95 74
62 94 73
64 96 75
59 89 70
63 95 74
62 93 73
65 98 77
63 96 74
61 91 71
58 88 68
61 92 72
57 87 68
59 89 69
62 93 72
62 94 73
64 97 76
60 91 71
70 106 82
59 89 69
63 95 74
66 100 78
64 97 75
69 105 81
65 99 77
62 93 73
61 93 72
66 98 76
65 97 75
61 91 70
64 96 74
60 89 69
65 98 76
65 97 75
64 95 73
67 101 78
58 88 68
61 92 71
65 97 75
62 93 72
66 99 77
67 100 77
69 103 80
72 107 82
65 97 75
66 98 76
71 106 82
63 95 73
67 101 78
63 95 74
67 99 76
63 95 74
68 101 79
64 97 75
62 93 72
62 93 72
68 102 79
69 103 79
71 106 82
69 103 79
68 102 79
66 99 77
62 94 72
72 108 83
64 95 74
66 98 76
73 109 84
68 102 79
62 93 72
64 96 74
60 90 70
66 99 76
68 103 80
67 101 78
62 92 71
65 97 75
65 98 76
71 105 81
62 92 71
70 104 81
71 107 82
65 98 76
65 97 75
64 95 73
68 102 79
63 95 73
66 99 77
70 105 81
67 100 78
62 92 71
67 100 78
63 95 73
63 96 74
63 95 74
66 99 77
63 95 73
60 90 69
65 97 74
70 104 80
68 100 77
65 97 74
64 96 74
73 109 84
66 98 76
63 95 74
66 100 77
65 97 75
68 102 79
61 92 71
62 92 71
65 97 75
71 106 81
62 93 71
67 100 77
67 100 77
65 97 75
69 103 80
62 93 71
65 97 75
68 102 78
67 100 77
66 97 75
63 94 72
71 106 82
61 92 71
63 93 71
68 101 78
61 91 70
63 94 73
67 100 77
64 95 73
68 101 78
68 102 78
71 106 81
69 104 80
61 92 71
64 96 74
65 97 75
66 98 76
62 92 71
64 95 73
58 86 66
65 99 76
67 101 78
63 95 73
59 88 68
66 98 75
67 100 77
65 98 76
68 101 78
60 90 70
63 94 72
56 84 65
68 101 78
63 95 73
64 95 73
66 99 76
61 91 70
65 97 75
61 91 70
63 95 73
61 91 71
66 99 77
62 93 72
60 90 69
67 100 77
63 94 72
58 88 68
64 96 74
68 102 78
61 91 70
63 94 73
63 94 73
64 97 74
68 102 79
59 89 69
65 97 75
67 100 77
59 89 68
59 89 69
66 99 76
65 98 75
62 94 72
63 95 73
68 102 78
65 98 75
64 95 73
61 92 70
60 90 69
60 89 69
59 88 68
59 88 68
62 92 70
67 100 77
66 98 75
63 93 71
62 93 71
63 94 72
68 100 77
64 95 73
65 98 75
66 98 75
63 93 71
58 86 66
65 97 74
65 96 73
62 91 69
58 85 65
58 85 64
61 91 69
63 93 70
62 91 69
61 90 68
58 87 66
55 81 61
56 83 62
49 72 55
49 73 55
48 71 54
41 61 46
39 59 45
36 55 42
31 48 37
29 44 34
29 44 34
24 38 30
25 39 30
24 37 29
23 35 27
79 60 51
113 51 46
118 52 48
118 53 48
125 56 51
123 55 50
125 56 52
128 57 53
129 58 53
130 58 54
132 59 55
132 59 56
133 60 56
134 60 56
133 60 56
134 61 57
135 63 59
136 67 62
203 167 152
247 220 199
247 221 200
246 220 199
243 217 197
240 214 195
237 212 193
234 209 191
234 208 190
232 207 189
231 206 189
230 206 188
228 204 187
228 204 187
227 203 186
225 202 185
224 201 184
223 200 183
222 199 182
220 197 181
218 196 180
217 194 179
215 193 177
211 190 174
206 186 170
203 182 166
203 182 168
193 174 158
172 148 128
143 107 65
142 107 66
138 104 64
134 102 63
133 101 63
128 97 60
126 96 60
123 94 59
119 91 57
112 87 54
106 83 52
102 80 51
100 79 50
87 70 44
84 68 42
84 68 43
80 65 40
73 60 36
74 60 37
62 77 56
60 90 69
67 100 76
70 104 80
61 91 70
58 87 66
63 93 72
60 90 70
60 90 70
58 87 67
59 88 67
63 95 74
57 85 66
60 90 69
59 89 69
59 88 68
58 88 68
62 94 73
59 88 68
56 85 66
57 86 67
57 87 68
50 76 59
62 94 74
59 90 71
53 81 64
49 75 59
54 81 64
56 85 67
53 82 65
55 84 66
50 76 61
48 74 59
49 76 60
48 74 59
49 75 60
46 71 56
50 78 62
45 70 56
46 72 58
46 72 57
47 73 58
43 67 54
44 69 56
41 64 52
40 64 52
40 63 51
41 65 52
47 74 60
42 67 54
47 74 60
41 65 53
46 73 60
44 69 56
45 71 58
43 68 55
49 77 62
46 72 58
45 71 58
47 74 60
48 75 60
43 67 55
47 74 60
45 70 56
47 74 60
47 73 59
46 72 57
46 71 57
48 75 60
46 72 58
43 66 53
50 78 62
54 83 66
50 77 61
51 79 62
47 73 58
54 82 65
55 85 67
53 81 64
54 83 65
49 75 59
56 86 68
59 90 70
54 82 65
51 79 62
56 85 67
57 86 68
57 87 68
54 83 65
57 87 68
55 85 67
54 81 63
58 88 69
58 88 69
58 87 68
61 93 73
63 95 74
56 85 67
57 87 68
59 89 69
57 86 67
58 88 69
61 92 72
63 95 75
64 97 76
62 94 73
56 85 66
58 88 69
59 89 69
61 92 72
66 100 78
63 96 75
61 93 72
62 94 73
64 98 76
63 96 74
62 94 73
61 91 71
69 105 81
65 97 75
68 102 80
58 87 68
72 108 84
68 103 80
61 92 71
62 94 74
61 92 71
60 90 70
56 84 66
60 90 70
65 98 76
64 97 75
70 104 80
68 101 78
68 102 78
65 97 75
67 100 77
70 105 81
68 102 78
64 96 74
69 103 79
64 95 74
69 104 80
72 107 82
73 110 85
66 99 76
66 98 76
72 108 83
64 95 73
66 99 76
61 91 71
63 94 73
64 95 74
59 89 69
61 91 70
66 99 77
66 98 76
64 95 74
67 100 78
65 97 75
65 97 75
68 102 79
66 99 76
61 92 71
65 97 75
65 97 75
77 115 88
72 107 82
64 96 74
66 99 76
72 108 83
64 96 74
67 100 77
67 100 78
67 100 78
64 96 74
66 98 75
65 98 75
63 95 73
63 94 73
66 99 77
66 100 77
68 103 80
69 104 80
64 95 74
66 99 76
62 93 72
61 92 71
60 90 70
68 102 79
63 95 74
64 96 74
70 104 81
68 102 79
66 99 76
61 91 70
66 99 77
63 94 73
73 108 83
68 101 78
68 101 78
65 98 76
67 101 78
66 99 77
61 91 71
59 89 69
69 103 80
67 101 78
68 101 78
69 102 78
68 97 76
90 111 92
113 120 104
143 143 127
142 135 127
132 125 127
102 101 116
68 77 108
64 77 105
66 83 102
64 82 95
60 81 87
67 96 85
64 95 76
59 89 68
67 101 78
66 100 77
67 100 77
64 95 73
67 100 77
61 91 70
66 99 76
58 87 67
63 94 73
65 97 74
64 96 75
66 98 76
60 90 69
62 93 71
64 95 73
68 101 78
58 87 67
65 96 74
62 93 72
62 93 72
67 101 78
65 98 75
61 91 71
61 91 70
63 94 73
60 90 69
61 91 70
67 101 78
64 96 74
60 91 70
69 102 79
63 95 73
67 101 78
64 95 73
69 103 79
64 96 74
59 88 68
61 92 71
58 87 67
66 99 77
70 105 80
63 95 73
67 100 77
68 102 78
68 101 78
69 103 79
61 91 70
61 91 70
61 91 70
71 106 81
64 96 74
64 95 74
69 103 79
66 99 77
59 89 69
68 101 78
63 94 72
63 94 73
71 106 82
66 99 77
63 95 73
63 95 73
64 96 74
63 94 73
62 92 71
60 91 70
65 97 75
61 91 70
63 94 73
62 93 72
60 89 68
62 93 71
66 98 75
61 91 70
60 90 69
68 102 78
67 99 76
63 94 72
67 101 77
59 88 68
59 88 67
63 94 72
61 91 69
61 91 69
64 95 72
68 101 77
57 85 64
63 94 71
57 85 64
58 86 65
60 88 66
56 83 63
62 91 68
62 91 69
57 85 64
57 85 64
56 83 62
58 86 65
50 74 56
44 65 49
50 74 56
42 63 47
40 60 45
36 54 42
30 46 36
32 48 37
29 46 36
27 42 33
29 45 35
96 60 51
110 49 44
116 51 47
119 53 48
124 55 51
122 54 50
125 56 52
128 57 53
128 57 53
130 58 54
130 58 54
129 58 54
131 59 55
133 60 56
133 60 56
133 60 56
132 61 57
159 108 99
239 212 193
240 213 194
239 213 194
239 213 193
237 211 192
235 210 191
234 209 190
233 208 190
232 207 189
231 206 188
230 205 188
228 204 187
228 204 186
226 202 186
226 202 185
224 200 184
223 200 183
222 199 182
220 197 181
219 196 180
217 195 179
215 193 177
212 190 175
208 187 171
205 185 170
201 181 166
196 177 162
192 173 158
180 160 144
142 107 66
138 104 64
137 103 64
130 98 61
129 98 61
127 97 61
123 94 59
117 90 56
115 88 55
111 86 54
101 79 49
96 76 48
93 74 47
91 73 46
84 68 42
79 64 39
75 62 37
75 61 37
67 77 56
68 100 76
61 91 70
62 93 71
62 93 71
56 83 64
60 89 69
62 92 71
65 97 74
60 89 68
55 82 63
55 83 64
61 92 71
58 88 68
57 86 67
55 83 64
60 90 70
60 90 70
56 85 66
57 87 67
55 83 65
56 85 67
51 77 60
53 80 63
55 83 65
55 84 66
56 85 67
59 89 70
54 83 65
51 78 62
51 79 63
51 78 62
50 77 61
54 83 66
45 69 55
52 80 64
48 75 60
45 71 57
46 72 58
48 74 59
44 68 55
41 64 52
42 67 54
42 67 54
42 66 53
44 68 55
44 70 56
42 66 54
46 73 59
46 73 60
41 65 53
41 65 53
45 71 58
41 66 54
47 74 60
42 66 53
42 67 54
44 69 56
41 64 52
49 76 61
46 72 58
52 81 65
51 80 65
43 67 54
46 72 58
52 81 65
47 74 59
48 75 60
49 76 60
52 80 64
47 73 58
48 74 59
50 78 62
47 73 58
46 72 57
49 75 60
50 77 61
55 84 66
53 82 65
56 86 68
52 80 63
50 76 60
56 86 67
53 81 64
60 91 72
52 79 62
52 79 62
55 84 66
57 88 69
57 87 68
56 86 67
59 89 70
56 85 66
58 88 69
55 84 66
57 86 67
65 98 76
57 86 67
55 84 65
65 99 77
55 83 65
57 86 67
64 97 75
59 90 70
64 97 75
61 93 73
60 91 71
61 92 72
63 96 75
65 98 76
61 92 72
62 93 72
64 97 75
63 95 73
64 97 75
58 87 68
59 90 70
57 86 67
61 92 71
63 95 74
66 100 78
63 95 74
64 96 75
65 98 76
64 97 75
64 97 75
68 103 80
62 94 73
61 93 72
64 96 75
63 95 74
64 97 75
62 94 73
74 110 85
67 100 78
69 103 80
73 109 84
66 99 77
66 98 76
66 99 76
65 98 76
68 102 79
64 96 74
67 101 78
66 99 76
62 93 72
66 98 76
66 99 76
68 101 78
70 104 80
61 92 71
67 100 78
64 96 74
64 96 74
62 93 72
66 99 76
67 101 78
65 98 76
67 101 78
67 100 77
68 102 79
64 97 75
62 93 72
64 97 75
65 98 76
69 103 79
61 91 70
67 101 78
61 91 70
61 92 71
61 91 71
64 95 74
70 105 81
70 105 81
69 103 80
68 102 78
69 104 80
63 96 74
67 100 78
63 95 74
68 101 78
68 101 78
66 98 76
66 99 77
68 103 80
70 105 81
68 101 78
65 98 76
65 98 75
66 99 76
65 97 75
66 99 76
65 97 75
64 96 75
65 97 75
68 101 78
67 100 77
61 92 71
60 91 70
60 90 70
64 96 74
67 101 79
71 106 82
64 96 74
69 104 80
69 104 80
66 99 76
71 106 82
81 107 84
139 142 120
189 173 152
224 199 176
240 211 190
244 215 193
245 216 194
245 216 195
245 216 194
244 216 195
234 207 190
203 178 172
125 112 139
67 63 121
62 58 118
62 58 118
62 62 114
61 70 104
63 84 92
60 87 75
60 90 70
66 99 76
69 103 79
69 102 79
67 101 78
66 98 76
62 93 72
66 98 76
72 107 83
67 100 77
64 95 74
65 97 74
64 95 73
60 90 69
63 94 72
65 98 75
63 94 72
62 93 71
62 92 71
61 91 70
62 93 72
68 101 78
64 96 74
63 94 72
61 92 71
61 92 71
67 101 78
63 94 72
67 100 77
70 105 81
64 97 75
70 104 81
66 98 76
67 101 78
64 97 74
65 97 75
64 95 74
64 96 74
72 109 84
64 96 74
62 93 71
68 102 79
62 93 72
66 99 76
62 94 72
61 91 70
61 92 71
66 99 77
74 111 85
67 101 78
63 95 74
64 96 74
75 113 87
68 102 79
61 91 71
59 89 68
62 92 71
66 99 76
67 100 77
63 94 73
65 97 74
65 97 75
61 91 70
61 91 70
68 102 78
65 97 75
65 98 75
67 101 78
63 95 73
60 90 69
64 95 73
64 95 73
64 95 73
64 95 72
61 92 71
63 94 72
63 94 72
63 93 71
59 88 67
57 86 66
62 92 70
65 97 74
59 89 67
61 91 69
63 94 71
60 89 69
59 87 66
66 99 75
60 89 68
62 91 69
57 84 63
63 93 70
65 97 74
57 84 63
68 101 76
57 84 63
53 78 58
50 73 55
50 74 56
50 73 55
45 68 51
45 68 51
43 65 50
39 59 45
43 64 49
36 54 42
35 53 40
107 66 58
111 50 45
115 52 47
117 52 48
120 54 49
124 55 51
124 55 51
127 56 52
128 57 53
128 58 54
128 57 53
129 58 54
131 59 55
132 59 55
131 59 55
132 60 56
132 60 56
214 183 166
237 211 191
237 210 191
236 210 191
236 210 191
235 209 190
234 208 190
233 207 189
231 206 188
231 206 188
230 205 187
229 204 187
228 204 186
227 203 185
226 202 185
225 201 184
223 200 183
223 199 182
221 198 181
219 196 180
218 195 179
215 193 178
214 192 177
211 189 173
207 186 171
206 185 169
198 178 163
196 177 162
190 172 157
180 162 148
143 111 75
134 101 62
133 100 62
128 97 60
129 98 62
122 94 58
116 89 56
113 87 55
107 83 52
105 82 52
101 79 50
88 71 44
83 68 42
80 65 41
81 65 40
75 61 38
78 63 38
67 70 49
65 97 74
64 96 73
63 94 73
61 91 70
58 88 67
58 86 67
59 89 68
56 84 65
58 87 67
54 81 63
62 94 73
57 85 66
62 94 72
55 82 64
55 83 64
62 93 72
58 87 68
56 85 66
55 83 64
58 88 69
54 83 64
56 84 66
54 81 64
49 75 59
54 83 65
55 85 67
54 82 65
48 74 58
49 76 60
48 74 59
51 79 63
49 75 60
47 73 58
48 74 59
46 72 57
47 74 60
42 66 53
41 65 52
46 72 58
45 70 56
42 66 53
42 66 54
41 64 53
42 67 54
41 64 52
44 69 57
47 74 60
42 66 54
48 76 62
44 69 57
42 65 53
42 66 54
50 78 63
45 70 57
46 72 58
42 66 53
46 73 59
45 70 56
46 72 58
47 73 59
47 74 60
49 76 61
47 74 59
53 82 66
48 76 61
48 74 59
49 76 60
47 73 58
52 81 64
51 79 63
52 81 64
47 72 57
48 74 59
51 78 61
48 74 59
50 77 61
55 84 67
60 92 73
54 83 65
54 82 65
53 80 63
55 84 66
53 81 64
57 86 68
55 84 66
55 84 66
61 92 72
54 83 65
57 87 68
62 94 73
58 89 70
58 87 68
63 94 74
63 95 74
59 89 69
59 90 70
60 91 71
57 86 67
58 88 68
58 88 68
61 93 72
61 92 72
63 96 75
61 92 72
66 100 78
63 96 75
63 95 74
60 91 71
65 98 76
62 93 73
63 95 74
59 90 70
63 95 74
68 102 80
61 92 72
65 98 76
67 102 79
58 88 68
64 96 75
63 96 74
60 91 71
65 98 76
65 98 76
63 96 74
68 102 80
62 93 72
66 100 77
62 94 73
59 90 70
62 94 73
71 107 83
61 93 73
67 101 79
64 95 73
64 96 74
72 107 82
66 98 76
63 95 73
71 106 82
67 99 76
68 102 79
63 94 73
66 99 76
66 98 75
66 99 76
64 96 74
67 100 78
60 90 70
64 96 74
65 98 75
61 91 70
65 98 76
64 96 74
67 101 78
66 99 76
64 96 75
65 98 76
60 90 69
62 93 72
66 100 77
70 104 80
64 96 74
62 93 72
64 96 74
64 96 75
67 101 78
65 98 76
63 95 74
59 89 69
62 94 73
66 99 76
63 95 73
71 107 83
62 92 71
63 95 73
68 103 79
63 95 73
67 101 79
69 103 79
67 101 78
63 94 73
73 109 84
66 100 77
62 93 72
66 99 76
61 92 71
65 98 75
63 95 74
66 99 77
60 91 70
59 88 68
64 96 74
65 97 75
63 94 72
63 94 72
62 93 72
66 100 77
67 100 77
63 94 73
61 92 71
64 95 73
72 109 84
67 101 78
67 100 77
66 98 76
67 101 78
121 129 107
186 169 148
231 204 182
244 213 191
247 217 196
247 218 196
247 218 197
248 219 198
248 219 198
247 219 198
247 219 198
247 218 198
245 217 197
245 217 196
245 217 196
214 190 181
122 110 140
63 60 122
63 59 120
62 58 118
61 58 117
60 57 112
61 72 101
59 83 79
65 97 76
64 96 74
66 99 77
71 107 82
60 90 69
61 91 70
61 92 71
65 97 75
64 96 74
63 94 72
69 103 79
64 96 73
65 98 75
63 94 73
62 92 71
64 96 74
63 95 73
67 101 77
65 97 75
68 103 79
63 94 73
63 94 73
66 98 75
72 108 83
67 100 77
66 98 76
64 95 73
68 102 79
63 95 73
74 111 85
68 102 79
60 90 70
63 94 73
64 96 74
64 96 74
67 101 78
65 97 75
65 98 76
62 94 72
64 97 74
67 101 78
63 95 73
67 101 78
66 99 76
65 98 76
74 112 87
65 97 74
62 93 71
65 98 75
62 93 71
65 98 75
62 92 71
62 92 71
66 98 75
61 92 70
58 87 67
64 96 74
68 101 77
64 96 74
65 98 75
61 92 71
63 94 72
64 96 74
60 90 69
64 95 73
66 99 76
64 96 74
65 98 75
63 94 72
64 96 73
62 93 71
67 99 76
65 97 74
64 96 73
60 90 69
68 102 78
65 96 73
57 85 65
63 93 71
59 89 68
63 93 71
60 89 67
62 92 70
66 97 74
70 105 80
65 96 73
60 88 67
63 93 70
61 90 68
54 80 61
55 81 61
56 83 63
61 91 68
59 87 66
60 89 67
55 81 61
52 77 57
53 77 58
53 79 59
50 74 56
50 74 55
47 70 53
51 76 57
42 62 47
45 61 47
106 52 46
111 49 44
114 51 46
118 53 49
120 53 49
121 54 50
123 55 51
125 56 52
126 56 52
126 57 52
127 57 53
127 57 53
130 58 54
128 58 54
131 59 55
131 59 55
168 122 111
237 210 190
236 210 190
236 210 190
235 209 190
234 208 189
233 207 189
233 207 188
232 206 188
231 205 187
229 205 187
228 204 186
228 203 186
228 203 185
226 202 184
225 201 184
224 200 183
221 198 182
222 198 181
219 196 180
218 195 178
215 193 177
212 190 174
211 190 174
209 187 172
206 185 170
200 180 165
196 177 163
191 173 158
187 169 155
183 166 151
145 118 89
132 100 62
130 98 61
128 97 60
123 94 59
119 91 57
114 88 55
109 84 53
103 81 51
94 75 47
92 74 47
86 70 44
86 69 43
84 68 42
76 62 38
76 62 38
65 65 45
60 89 68
60 89 68
59 89 68
66 99 76
60 90 69
62 92 70
56 84 65
64 96 74
62 93 72
55 83 64
56 84 65
57 86 66
57 86 66
59 88 67
53 80 62
54 81 63
55 83 64
58 87 68
55 83 65
54 82 64
57 86 67
56 85 67
55 83 65
48 74 58
52 79 62
46 70 56
50 76 60
53 81 64
53 82 65
48 74 59
46 71 57
48 73 58
45 70 56
47 74 59
45 70 56
45 70 56
51 81 65
42 66 53
47 74 60
45 71 57
42 66 54
46 74 60
45 72 58
46 73 59
40 64 52
41 65 53
45 71 58
42 66 53
41 65 53
41 65 53
43 68 55
45 71 57
43 68 55
45 71 57
41 66 53
44 70 56
49 77 62
45 70 57
47 74 60
43 67 54
45 70 56
50 78 63
49 76 61
49 76 61
50 77 61
52 80 64
46 72 57
55 86 68
47 73 58
47 72 57
57 88 70
50 77 61
52 79 63
53 82 65
53 82 65
53 81 64
55 84 66
59 90 71
54 82 65
59 90 71
55 84 66
59 90 71
54 83 65
56 85 67
51 78 61
60 91 71
57 87 69
61 92 72
65 98 77
57 87 68
61 93 72
55 84 66
61 93 73
62 93 73
64 97 76
63 96 75
59 89 69
60 91 71
62 95 74
60 91 71
59 89 70
66 99 77
63 95 74
59 89 70
65 98 76
60 90 70
60 90 70
61 92 71
61 92 71
59 89 69
63 96 75
60 91 71
63 96 74
63 94 73
57 86 67
62 93 72
72 108 84
57 87 67
58 87 67
68 102 79
64 96 75
62 94 73
58 87 68
59 90 70
60 90 70
57 86 67
64 97 75
61 92 71
63 95 74
66 99 77
65 98 76
63 96 74
64 97 75
64 97 75
66 98 75
61 92 71
61 91 70
63 93 72
61 92 71
62 93 72
62 94 72
65 96 74
61 92 71
63 94 73
64 96 74
65 98 75
62 92 71
69 103 80
67 100 77
66 99 76
73 109 84
66 99 76
67 101 79
67 101 78
67 102 79
71 107 83
68 102 78
67 101 78
65 97 75
71 107 82
66 99 76
69 104 80
75 113 88
68 102 79
65 96 74
62 94 73
67 100 77
61 92 71
64 96 75
61 91 70
64 97 75
63 95 73
62 92 71
67 101 78
67 100 77
69 104 81
70 104 80
68 101 78
63 95 74
70 104 80
67 100 77
64 96 74
68 103 79
66 99 77
64 96 74
63 94 73
63 95 74
72 107 82
64 96 74
62 94 73
62 92 71
67 101 78
64 97 75
65 98 76
68 102 79
72 108 84
66 99 76
64 96 74
61 92 71
64 96 74
65 97 75
65 97 75
63 95 73
64 96 74
61 92 71
121 126 106
198 181 159
242 211 189
243 214 193
248 218 196
248 219 198
249 220 199
249 220 199
249 220 199
248 220 199
248 220 199
248 219 199
247 219 199
246 218 198
246 218 198
245 217 197
245 217 197
243 216 196
240 213 194
176 156 162
65 62 123
63 60 121
63 59 120
62 58 119
61 57 116
59 55 112
59 67 103
60 84 80
63 95 73
67 101 78
64 96 74
59 88 68
71 106 82
62 93 72
65 98 75
62 93 72
66 99 76
63 95 73
59 88 68
63 93 72
59 89 68
69 103 80
64 96 74
62 93 72
62 93 71
66 98 76
62 92 71
71 107 82
62 93 71
66 99 76
61 92 71
65 97 75
63 95 73
63 94 72
65 97 74
72 108 83
68 102 79
60 90 70
61 91 70
65 97 75
64 96 74
61 92 71
62 93 72
70 104 80
70 105 81
65 97 75
61 92 71
70 105 81
60 89 69
70 105 81
66 98 76
63 95 73
69 104 80
66 98 76
63 94 72
58 87 68
63 94 73
65 96 74
62 93 72
62 93 72
68 101 78
62 93 72
60 89 68
69 104 80
67 101 77
65 98 76
60 89 69
62 93 72
64 96 73
66 98 76
67 100 77
60 90 69
60 89 68
65 97 74
59 88 68
57 85 65
66 98 75
64 96 74
61 91 70
61 91 70
63 95 73
68 101 78
65 96 74
65 97 74
61 91 69
63 94 72
66 97 74
60 89 68
57 85 64
62 92 70
66 99 75
65 97 74
60 89 67
57 84 64
64 94 72
57 84 63
64 94 71
63 93 70
64 95 72
65 96 73
60 89 67
63 93 70
59 87 65
56 83 62
56 82 62
53 79 60
53 78 58
55 82 62
49 73 55
51 75 56
65 71 55
99 45 40
108 48 44
112 50 46
114 51 46
118 53 48
120 54 49
121 54 50
122 55 51
124 56 52
125 56 52
127 57 53
124 56 52
127 57 53
128 58 54
128 58 54
128 58 54
213 182 164
233 207 188
234 208 189
234 208 188
234 208 188
233 207 188
233 207 188
232 206 187
231 205 187
229 204 186
229 204 186
227 203 185
227 202 185
224 201 184
224 200 183
223 199 182
222 198 182
221 197 181
220 196 180
217 195 178
215 193 177
214 192 175
209 188 173
207 186 171
204 183 168
201 180 165
197 178 164
194 175 161
188 170 155
188 170 155
178 162 148
146 121 95
130 98 61
126 96 60
124 95 59
121 93 58
113 87 54
109 84 53
105 82 52
95 75 47
88 71 44
82 67 42
88 71 45
84 68 43
74 61 37
75 61 37
65 64 43
58 85 65
56 84 64
61 91 69
67 100 77
63 94 72
56 84 65
59 89 68
62 93 71
57 85 66
55 83 64
57 85 66
61 91 71
56 84 65
60 91 70
51 77 59
58 87 68
61 91 71
53 80 62
51 77 60
51 77 60
47 72 57
47 72 56
55 84 66
52 79 62
45 69 55
46 71 56
53 82 66
51 78 62
51 79 62
44 68 54
46 71 56
44 68 55
52 81 65
47 74 59
44 69 56
41 64 52
44 68 55
45 71 57
40 64 52
45 72 58
46 72 58
42 65 53
42 66 53
40 63 52
45 72 59
40 64 52
44 69 57
45 72 59
43 69 56
43 68 56
45 72 58
45 70 56
41 65 53
43 68 55
46 72 59
49 77 62
52 81 66
45 69 56
46 72 58
46 72 58
44 69 56
45 71 57
48 75 60
50 77 61
47 72 58
48 74 59
50 77 62
51 79 63
50 76 61
52 79 63
57 87 69
56 86 68
58 89 70
56 85 67
59 91 71
60 92 72
52 79 62
55 83 65
60 92 72
57 87 68
58 88 69
62 94 73
60 91 71
53 81 64
56 85 66
60 91 71
61 92 72
57 86 67
60 91 71
61 93 72
55 84 65
58 88 69
60 90 71
64 97 76
59 90 70
58 88 69
63 96 75
61 93 73
57 87 68
57 87 68
64 97 75
64 97 75
62 94 73
67 101 79
61 92 71
61 92 72
61 93 73
63 95 74
66 100 78
62 94 73
61 92 72
63 95 73
60 91 71
60 91 71
62 93 72
63 95 74
63 95 74
66 100 78
63 95 74
63 95 74
59 90 70
60 91 71
67 101 78
61 92 71
60 90 70
62 94 73
59 89 69
61 92 72
60 90 70
65 99 77
70 105 81
66 100 77
62 94 73
67 101 78
64 96 75
74 110 85
69 103 79
71 106 82
64 95 74
62 94 72
71 107 82
71 106 81
66 99 76
71 105 81
62 92 71
71 106 82
66 99 77
65 97 75
70 105 81
59 88 68
65 97 75
66 98 76
72 107 83
61 92 72
59 89 69
64 95 74
75 112 87
68 102 79
73 109 85
70 104 80
69 103 80
66 99 76
67 100 77
69 103 80
64 96 74
64 96 75
70 105 82
66 99 76
63 95 74
59 89 69
67 101 78
68 101 78
63 94 73
63 94 73
68 102 79
65 97 75
69 103 80
63 95 73
67 101 78
60 90 70
65 97 75
64 96 74
63 95 73
65 98 76
65 98 76
65 98 76
65 98 76
65 97 75
66 98 76
62 93 72
66 99 77
67 101 78
63 95 73
69 104 80
66 99 77
67 101 78
68 101 78
67 100 77
66 99 76
69 103 80
63 95 73
72 107 82
61 91 70
58 86 67
91 112 90
190 173 153
241 212 190
244 213 190
247 217 196
248 219 198
249 220 199
249 220 199
248 220 199
248 220 199
249 220 200
248 220 199
247 220 199
247 219 199
247 219 199
246 219 199
246 218 198
244 217 198
245 217 197
243 216 197
242 215 196
242 215 195
190 169 169
67 63 123
62 59 121
62 59 120
62 58 118
61 57 116
59 56 113
57 54 108
61 72 99
59 85 75
59 88 68
66 99 76
66 98 76
68 102 78
63 93 72
66 98 76
68 102 79
67 101 78
61 91 70
61 92 71
67 99 77
64 96 74
62 93 72
69 104 80
68 102 78
68 102 78
69 103 79
71 106 82
63 95 73
63 95 73
64 95 74
67 100 77
61 91 71
62 94 73
66 98 76
69 103 79
66 99 76
67 100 77
69 103 80
62 92 71
65 98 76
67 100 77
68 101 78
62 93 72
59 88 68
67 100 77
63 95 74
68 101 78
61 91 70
59 90 69
66 99 76
66 98 75
64 97 75
62 93 72
69 104 80
61 92 71
63 94 73
69 103 79
65 98 76
64 96 74
63 94 73
63 94 73
62 92 71
68 102 79
71 106 82
65 97 75
72 108 83
62 93 72
59 88 68
70 104 80
61 92 70
67 101 77
65 96 73
63 94 72
62 92 71
59 89 68
64 96 73
60 90 69
60 90 69
70 104 80
63 94 72
63 94 72
69 102 78
66 98 75
61 91 69
61 90 69
61 91 69
59 88 67
61 90 69
59 88 67
62 93 71
61 90 69
62 93 70
60 90 69
60 89 67
65 96 73
60 89 68
68 101 77
56 83 63
64 95 71
58 85 64
57 84 64
62 91 69
61 89 67
59 87 65
56 83 62
58 85 64
54 80 60
55 81 61
51 76 57
70 79 61
101 45 41
158 128 112
194 169 149
190 162 143
150 111 99
117 52 48
118 53 48
120 54 49
120 54 50
122 55 51
124 56 52
125 56 52
127 57 53
127 57 53
126 57 53
150 99 90
230 204 185
232 206 186
231 205 186
231 205 186
231 205 186
231 205 185
232 206 187
229 204 186
230 204 186
229 204 185
227 202 185
226 202 184
225 201 183
224 200 183
224 200 182
222 198 181
222 198 180
218 195 178
216 193 177
213 190 174
211 189 173
209 187 170
209 187 172
202 182 166
198 178 163
197 178 163
194 175 160
186 169 155
186 168 154
179 162 147
177 161 148
151 129 108
128 97 61
123 94 59
122 93 58
114 88 55
110 85 53
105 82 51
97 77 48
91 72 45
83 67 42
91 73 46
85 69 43
82 66 41
76 62 38
67 64 42
62 90 69
65 97 75
63 93 71
61 91 70
60 89 69
59 88 67
55 82 63
57 85 65
60 91 70
62 93 72
58 87 67
56 83 64
57 86 67
57 86 67
56 84 65
52 79 61
54 81 64
54 82 64
52 79 62
53 80 63
55 83 65
52 80 63
49 74 58
53 80 63
48 74 58
48 75 59
50 78 62
48 74 59
48 74 59
46 71 57
47 73 58
47 74 59
46 72 58
45 70 56
46 72 58
39 62 50
44 69 56
43 68 55
43 67 54
42 67 54
42 67 54
43 69 56
43 68 56
45 71 58
44 69 56
43 68 55
42 67 54
41 65 53
47 75 61
49 77 63
48 76 62
40 63 51
43 68 55
44 69 56
41 64 52
46 71 57
50 78 62
43 67 54
47 74 59
49 76 61
50 78 62
47 73 58
48 75 59
51 80 64
47 72 57
53 81 65
47 73 58
54 83 66
53 82 65
50 77 61
52 81 64
51 79 62
47 72 57
58 88 70
59 91 71
58 89 70
59 89 70
60 92 72
58 88 69
53 81 64
54 82 64
56 85 67
63 96 75
63 95 75
57 86 67
60 91 71
58 88 69
61 91 71
63 96 75
56 85 66
56 85 66
66 100 78
60 91 71
57 86 67
54 82 64
58 88 68
63 95 74
59 90 70
61 92 72
60 90 70
62 94 73
59 90 70
63 96 74
63 95 73
68 103 80
57 86 67
58 87 67
58 87 68
57 86 67
64 96 75
59 89 69
63 94 73
60 91 70
65 99 77
66 99 76
63 94 73
61 92 71
61 92 71
67 101 79
60 91 70
64 97 75
65 98 76
60 91 70
58 88 69
65 99 77
65 97 76
63 95 74
62 93 72
65 97 75
64 97 75
62 94 73
67 100 78
59 89 69
64 97 75
66 100 78
64 97 75
63 94 73
67 101 78
65 98 76
63 94 73
69 103 80
64 96 74
64 96 74
63 94 73
73 110 85
68 103 79
60 90 70
62 92 71
68 102 79
66 99 76
67 101 78
70 104 80
66 99 77
74 110 85
66 99 77
72 108 83
71 106 82
77 115 89
65 98 76
64 97 75
72 107 83
63 94 73
70 105 81
65 98 76
69 103 79
65 97 75
67 100 78
69 103 80
68 102 79
65 97 75
71 105 81
65 97 75
70 104 81
70 104 81
69 103 80
65 98 76
64 96 74
63 95 73
66 99 77
67 100 77
69 104 80
67 101 78
65 98 75
64 96 74
70 104 81
66 99 76
64 96 74
68 101 78
67 100 77
74 110 85
63 95 74
65 97 75
66 99 77
62 94 73
67 100 77
62 94 73
61 92 71
71 107 82
67 101 78
67 101 78
72 108 83
63 94 73
62 93 72
65 97 75
134 135 114
229 202 180
241 212 190
245 216 194
247 218 197
249 220 198
249 220 199
249 220 199
248 220 200
249 220 200
248 220 200
248 220 200
248 220 200
247 219 200
247 219 199
246 219 199
245 218 199
245 218 198
244 217 198
244 217 197
243 216 197
243 216 196
241 214 195
241 214 195
176 157 162
63 60 122
62 59 121
62 59 120
61 58 117
60 57 116
59 56 114
58 54 110
56 55 105
56 72 83
66 99 77
63 94 73
63 95 73
61 92 71
68 102 78
64 97 75
65 97 75
65 98 76
67 100 77
63 95 73
74 111 86
63 94 72
65 98 75
67 100 77
60 89 69
69 104 80
64 96 74
62 93 71
66 98 75
66 99 77
64 96 74
64 96 74
68 102 79
66 99 76
65 98 75
65 98 76
66 99 76
63 94 73
65 97 75
67 101 78
63 95 73
58 87 67
66 99 77
65 98 76
70 105 81
64 96 74
66 99 76
69 104 80
71 107 82
68 103 79
69 104 81
60 91 70
62 93 72
62 93 72
66 99 77
66 99 77
67 100 77
63 94 72
70 104 80
61 91 70
65 97 75
64 96 73
62 92 71
63 94 73
59 88 68
66 99 76
68 101 78
63 95 73
66 99 76
60 90 69
69 103 79
62 93 71
61 92 70
63 95 73
68 101 77
63 94 73
59 87 67
62 93 72
68 101 78
55 82 63
60 90 69
62 92 70
65 97 74
60 89 68
63 93 71
59 88 67
64 95 72
58 87 66
65 97 74
65 96 72
63 94 71
65 96 73
63 94 72
60 89 68
63 94 71
59 88 67
65 96 73
67 99 75
57 85 64
62 91 68
62 91 69
61 90 67
59 88 66
64 94 71
61 90 67
62 90 68
59 87 66
59 87 65
53 79 59
73 72 56
127 95 82
129 114 99
49 44 39
108 94 83
183 161 143
166 133 117
118 55 50
118 53 49
119 53 49
122 55 51
124 56 51
123 55 52
123 55 52
125 56 52
125 56 52
192 159 143
227 202 182
227 201 181
228 203 184
228 202 183
226 201 182
229 203 184
228 202 183
228 203 185
228 202 184
226 201 183
225 200 182
222 198 181
224 199 182
221 198 181
220 196 179
219 195 178
218 195 178
217 194 178
212 190 173
209 187 171
208 186 170
206 185 168
206 185 169
201 180 164
198 178 163
194 175 160
188 170 155
186 169 155
179 162 148
177 161 147
171 156 143
149 131 113
123 94 58
119 91 56
112 86 54
113 87 55
107 84 53
100 78 49
95 76 48
89 71 45
86 70 44
86 69 43
79 64 40
78 63 39
73 63 41
63 90 68
58 88 67
62 92 70
63 94 72
69 102 79
58 86 66
56 84 64
55 83 63
61 92 71
58 87 67
57 85 65
59 88 68
61 92 71
56 84 65
53 80 62
50 76 59
53 81 63
52 79 62
50 76 60
51 78 61
52 80 63
47 72 57
54 83 65
52 80 63
56 85 67
46 71 56
49 76 60
52 80 64
46 72 57
49 77 61
46 71 57
41 64 51
46 72 58
42 66 54
43 68 55
45 71 57
39 62 51
44 70 57
42 67 54
42 67 54
40 64 53
42 67 55
39 63 51
45 72 59
44 70 58
40 65 53
41 66 54
38 61 50
41 65 53
41 65 53
41 65 53
49 77 63
42 67 54
44 69 56
47 74 60
44 70 56
47 74 60
49 77 61
43 68 54
48 75 60
47 73 58
57 88 70
51 78 62
54 83 66
51 78 62
51 78 62
54 82 65
56 87 69
53 81 64
53 81 64
58 88 69
51 78 61
53 82 65
57 87 69
63 96 75
54 83 65
56 85 67
53 81 64
57 87 68
52 79 62
59 89 70
61 92 72
61 92 72
59 90 70
60 91 71
57 86 68
60 91 71
59 89 70
56 84 66
53 81 63
61 93 73
58 89 69
61 93 72
60 91 71
63 96 75
60 90 70
61 92 71
54 82 63
63 95 74
62 93 73
61 92 72
59 89 69
57 86 67
69 104 81
65 97 76
56 85 66
58 88 69
73 110 85
63 94 73
58 88 68
66 100 78
58 88 68
60 91 71
60 91 71
63 95 73
59 89 69
63 95 74
60 91 71
62 94 73
61 92 71
62 95 74
61 91 71
61 92 71
63 95 74
67 100 78
59 89 69
65 98 76
63 96 75
67 102 79
60 91 71
59 89 69
63 95 74
62 94 73
62 93 72
63 95 74
62 93 72
58 87 68
64 95 74
64 96 74
65 97 75
66 99 76
65 98 75
68 102 79
65 98 75
60 91 70
70 105 81
66 99 76
69 104 81
69 103 79
73 109 84
67 101 78
64 96 74
62 93 72
66 99 76
67 100 77
66 99 76
65 98 76
67 101 78
62 94 73
65 96 74
71 105 81
71 107 83
60 90 70
62 93 72
64 96 74
62 92 71
68 102 79
65 98 76
68 102 79
69 103 80
67 101 78
67 101 78
62 92 71
67 101 78
70 105 81
64 96 74
66 99 77
74 110 85
72 108 83
65 98 75
67 101 78
72 108 83
66 100 77
64 96 74
62 93 72
67 101 78
68 102 79
70 105 81
68 102 79
70 105 81
67 100 77
61 91 71
64 97 75
62 94 73
63 94 73
65 98 76
60 90 70
65 98 76
66 99 77
63 94 73
75 111 86
67 100 77
66 99 76
78 101 80
184 170 149
237 207 185
241 212 190
248 218 196
248 219 197
248 219 198
248 220 199
249 220 199
248 220 200
248 220 200
249 220 200
247 220 200
248 220 200
247 220 200
246 219 200
246 219 199
246 219 199
245 218 199
244 218 198
244 217 198
244 217 197
242 216 197
242 216 196
241 214 195
240 213 194
240 213 194
137 123 145
62 59 121
62 59 120
62 59 120
61 58 118
60 57 116
59 56 114
58 54 110
55 52 104
59 75 89
64 95 75
65 97 75
66 99 76
61 91 70
64 96 74
70 105 80
66 99 77
69 103 80
66 99 77
65 97 75
67 99 76
71 106 82
72 108 83
69 103 80
68 102 79
62 93 71
69 103 80
69 103 80
65 97 75
67 101 78
70 104 80
63 95 74
61 91 70
70 105 81
60 90 70
61 92 71
64 95 73
69 103 80
65 97 75
63 95 73
66 98 76
63 94 73
62 92 72
62 93 72
64 96 74
68 101 78
68 102 79
68 102 79
71 106 81
73 109 84
66 100 77
63 94 73
62 94 72
63 95 73
64 96 74
61 91 71
62 92 71
63 94 72
66 99 76
61 91 70
59 89 69
64 96 74
64 96 74
61 92 71
62 93 72
63 94 72
68 101 78
61 92 70
63 94 73
64 96 74
61 91 70
59 88 68
58 87 67
59 88 68
60 91 70
65 96 74
62 93 71
63 93 72
64 96 73
65 97 74
62 93 71
61 92 70
64 95 73
63 94 72
65 97 75
69 103 79
62 92 70
65 96 73
65 96 73
61 91 69
56 84 64
66 97 73
64 94 71
58 86 66
61 90 69
61 91 69
69 102 78
59 87 66
58 86 65
61 90 68
63 93 71
65 96 72
59 86 65
61 90 68
61 90 68
56 83 62
61 89 67
62 91 68
72 83 63
119 100 86
113 99 86
167 147 130
131 116 101
54 48 42
166 145 129
168 134 119
117 53 49
116 52 48
120 54 50
121 54 50
120 54 50
123 55 51
122 55 51
124 57 53
214 187 168
221 196 176
223 198 178
224 199 179
226 201 181
224 199 180
225 200 181
225 200 181
223 198 179
225 201 182
223 198 180
222 198 180
221 197 180
219 195 178
217 194 177
216 193 175
218 194 177
214 192 175
213 191 175
210 188 172
206 185 169
204 183 167
205 184 168
202 182 166
198 178 163
196 177 162
188 170 155
186 168 153
181 164 149
178 162 148
172 157 143
163 150 136
151 136 120
119 91 57
119 91 57
112 87 54
104 81 50
100 79 50
91 73 45
86 70 44
86 69 44
80 65 40
81 65 41
77 63 38
73 62 39
58 83 62
61 90 70
58 87 66
58 86 65
65 97 74
62 93 71
62 92 71
61 92 71
59 88 68
56 84 65
58 87 68
58 88 68
59 89 69
58 86 67
56 84 66
57 86 66
55 83 65
53 80 62
47 72 56
52 80 63
56 86 68
49 75 59
48 74 59
50 78 62
49 75 60
48 74 59
44 69 55
47 73 58
48 75 60
44 68 55
44 69 56
42 67 54
42 67 54
45 70 56
44 70 57
45 70 57
41 66 53
38 61 50
39 62 51
41 66 54
42 67 55
40 63 51
42 66 54
43 69 57
42 67 55
43 68 56
39 61 50
46 72 59
44 69 56
43 68 55
46 72 59
42 67 54
48 75 61
46 73 59
52 81 65
46 72 58
43 66 53
44 68 55
50 77 62
49 76 61
48 75 60
51 79 63
52 80 63
50 77 61
49 75 60
51 79 63
53 81 64
56 86 68
55 84 67
53 81 64
52 80 63
58 90 71
58 88 70
56 86 68
53 81 64
60 92 72
56 85 67
51 79 62
52 79 62
56 85 67
56 85 67
63 96 75
58 87 68
64 98 76
60 91 71
60 91 71
53 81 63
57 87 68
60 91 71
64 96 75
65 98 76
61 92 72
57 86 67
62 93 72
63 95 74
59 89 69
59 89 69
66 100 78
59 89 69
61 93 72
66 100 78
62 94 73
65 99 77
58 88 68
60 91 71
60 91 70
61 92 72
66 99 77
65 98 76
61 93 72
58 88 68
63 95 74
71 106 82
65 98 76
67 101 78
60 91 71
63 95 74
61 93 72
64 96 74
62 94 73
60 91 70
63 95 74
64 97 75
66 99 77
66 100 77
65 98 76
56 85 66
56 85 66
65 97 75
57 86 67
63 95 74
66 99 77
66 99 77
63 95 74
65 98 76
62 94 73
63 95 73
67 102 79
64 96 74
68 101 78
74 111 86
61 90 70
61 92 71
61 92 71
63 95 73
65 97 75
66 100 77
64 96 74
69 103 80
67 100 77
65 98 76
64 96 74
65 98 76
70 105 81
64 96 74
68 102 79
64 95 73
65 98 75
64 94 73
62 92 71
64 95 74
60 91 70
66 99 76
60 90 70
64 96 74
62 92 71
61 92 72
60 91 70
65 97 75
68 101 78
60 90 70
64 97 75
68 101 78
66 99 76
64 96 74
62 92 72
67 101 78
64 96 74
63 94 73
64 96 75
65 97 75
67 100 78
62 94 72
67 100 77
59 89 69
65 98 76
70 105 81
65 97 74
60 91 70
73 110 85
65 96 74
65 97 75
65 98 76
70 104 81
70 105 82
72 109 84
65 98 76
63 95 73
68 102 78
68 101 77
60 90 70
67 101 78
63 94 73
87 112 89
196 177 157
237 208 186
242 213 191
246 217 196
248 218 196
248 219 198
248 220 199
249 220 199
248 220 199
248 220 200
248 220 200
247 220 200
247 220 200
247 219 200
246 219 200
246 219 199
245 218 199
245 218 199
245 218 199
244 217 198
243 217 198
243 216 197
242 216 197
241 215 196
241 214 195
240 213 195
238 213 194
215 192 181
71 67 123
62 59 120
61 58 119
61 58 119
60 57 117
60 56 115
58 55 111
57 54 109
56 52 105
58 68 96
62 92 74
68 102 79
64 97 75
66 98 75
69 103 79
63 94 72
67 101 78
69 103 80
73 109 84
59 89 68
67 101 78
67 100 77
61 92 71
64 96 75
68 102 79
63 94 72
67 100 77
68 103 79
68 102 79
65 97 75
63 95 73
63 95 73
69 104 80
62 94 72
63 94 73
62 93 72
70 105 82
60 90 69
65 98 76
61 91 70
67 101 78
68 102 78
62 93 72
69 103 79
64 96 74
63 94 72
65 97 75
62 94 72
72 109 84
72 108 83
64 95 73
64 96 74
66 99 77
59 89 68
59 89 69
63 95 73
61 91 71
72 107 83
69 103 80
63 94 72
61 92 71
71 106 82
63 93 72
62 93 71
67 100 77
62 92 71
65 97 75
61 91 70
61 92 71
68 102 78
66 99 76
61 92 71
60 89 68
62 93 71
65 97 75
60 89 68
63 94 73
63 94 72
66 98 76
66 98 75
70 105 80
60 90 69
64 94 72
60 88 67
63 94 72
60 90 69
59 88 68
63 93 72
59 87 66
60 90 69
59 88 68
66 98 75
61 90 69
59 88 67
61 90 68
63 93 71
61 89 68
61 89 67
65 96 73
55 81 62
57 85 64
64 95 72
59 87 66
61 90 68
60 89 67
61 90 68
64 94 71
74 80 62
116 101 86
172 152 130
189 167 145
188 166 145
182 160 141
65 58 51
176 155 137
147 108 96
117 52 48
117 53 48
116 52 48
119 54 50
120 54 50
120 54 50
146 98 89
223 198 178
221 196 176
223 198 178
221 196 177
222 197 177
221 196 177
221 197 178
222 197 178
222 197 179
220 196 177
221 197 179
217 193 175
217 193 175
217 194 176
213 190 173
211 189 172
208 186 169
206 184 167
209 187 170
206 184 167
205 184 169
202 181 166
200 180 165
196 177 161
191 173 157
190 171 157
187 168 153
184 167 152
178 162 147
173 158 144
171 156 142
160 147 133
149 136 122
114 88 54
115 88 55
106 82 51
100 78 49
90 72 45
87 70 44
86 69 44
78 64 39
79 64 39
76 62 38
70 59 37
67 88 66
61 90 69
58 86 66
60 90 69
54 81 62
56 84 65
59 88 67
55 82 63
58 86 66
61 91 70
58 88 68
52 78 61
53 80 62
56 84 65
53 80 62
56 85 66
54 83 65
60 91 71
47 72 56
50 76 60
52 80 63
52 79 63
50 76 60
51 78 61
50 77 62
41 64 51
45 69 55
42 66 53
44 68 55
40 64 52
47 74 60
43 68 55
39 62 50
46 73 59
40 64 52
40 64 52
44 69 57
46 73 60
46 73 59
39 63 51
43 69 56
43 68 56
38 60 49
41 64 53
40 63 51
40 64 52
46 72 59
40 64 52
42 66 54
42 66 54
45 70 57
48 76 61
44 69 55
47 73 59
49 77 62
45 70 56
47 73 59
48 74 59
52 81 64
48 75 60
54 83 66
56 86 68
49 75 60
50 77 61
52 79 63
52 80 63
50 77 61
55 85 67
50 76 60
56 85 67
58 88 69
56 86 68
56 86 68
53 81 63
56 86 67
52 78 61
58 89 70
55 83 65
53 81 63
52 79 62
55 83 65
59 89 69
63 96 75
57 86 67
61 92 72
61 92 72
56 85 66
59 89 70
57 86 67
61 93 73
64 96 75
67 101 79
59 89 69
63 96 75
60 90 70
60 91 70
62 94 73
58 88 68
59 89 69
64 96 75
60 91 71
62 93 72
57 86 66
68 103 80
64 97 75
64 96 75
60 91 71
62 93 72
58 88 68
59 89 69
63 95 74
65 98 76
69 104 81
67 101 78
62 94 73
58 87 68
65 98 76
59 89 69
60 91 70
60 91 70
61 93 72
61 92 71
65 99 77
69 103 80
60 91 70
61 91 71
63 95 74
56 85 66
61 92 72
63 95 74
62 94 73
66 99 76
66 99 77
67 102 79
65 99 77
63 95 73
70 105 82
63 96 74
61 93 72
70 105 81
68 103 80
62 92 71
64 95 74
67 100 78
67 100 78
64 97 75
65 97 75
67 100 77
63 95 73
69 104 81
66 100 77
67 100 77
65 97 75
67 99 77
62 93 72
65 97 75
65 98 76
64 96 75
64 96 74
64 95 74
65 97 75
74 111 86
67 101 78
64 97 75
62 93 72
66 99 76
72 108 83
63 94 72
63 95 73
72 108 84
62 92 71
68 101 78
65 98 76
62 94 73
66 99 77
65 98 76
60 91 70
65 97 76
66 99 77
63 94 72
64 96 74
64 96 74
69 104 80
63 95 74
64 96 74
70 105 81
65 98 76
68 102 79
63 94 73
71 106 82
70 104 81
64 96 74
61 92 72
66 99 77
69 103 80
71 106 82
73 110 84
67 100 77
62 93 72
72 109 84
69 103 79
63 94 73
61 90 70
90 110 88
208 184 163
231 203 181
240 211 190
245 215 193
246 218 197
248 219 198
247 219 198
248 220 199
247 219 199
248 220 199
247 220 199
247 219 200
247 219 200
246 219 200
246 219 199
246 219 199
245 218 199
244 218 199
244 218 199
244 217 198
243 217 198
242 216 197
242 216 197
241 215 196
241 215 196
240 214 195
239 213 194
238 212 194
238 212 193
157 141 153
61 59 120
61 59 120
61 58 119
60 58 118
60 57 115
59 56 113
58 55 111
56 52 106
55 52 104
56 65 95
63 94 74
61 92 71
60 90 70
67 101 78
66 99 76
65 97 75
69 103 79
69 104 80
58 88 68
61 92 71
64 96 74
61 92 71
60 91 70
67 101 78
64 96 74
64 97 75
70 105 80
72 108 83
71 106 81
66 99 76
68 102 79
64 95 73
65 98 75
73 110 85
69 104 81
68 103 79
63 95 73
59 89 68
58 88 68
68 101 78
64 96 74
63 94 73
63 94 73
69 103 80
61 92 71
69 104 80
63 94 73
62 94 72
60 90 69
66 99 77
60 90 69
69 104 80
62 92 71
67 101 78
65 98 76
67 100 77
67 101 78
65 98 75
62 93 72
60 90 70
60 90 70
59 88 68
67 99 76
62 93 72
66 98 75
61 91 70
63 95 73
63 95 73
66 99 76
64 96 74
61 92 71
61 91 70
67 100 76
62 92 71
63 95 73
62 92 70
59 89 68
64 96 73
61 91 70
59 89 68
66 98 75
67 100 77
64 96 74
59 88 68
65 97 74
66 99 75
64 95 72
61 90 69
62 92 71
63 93 71
58 86 66
61 91 70
63 93 70
66 97 74
64 95 72
59 87 65
59 87 66
64 94 71
65 97 73
60 88 66
65 95 72
63 93 71
62 91 69
68 100 76
65 96 72
64 94 71
69 76 59
126 113 96
177 156 135
182 162 140
190 168 147
201 177 157
179 158 139
62 55 49
184 159 141
120 63 57
115 52 48
116 52 48
117 53 49
119 54 50
116 52 48
172 137 123
218 193 173
218 193 172
215 190 171
220 196 176
214 191 171
216 192 172
219 195 176
218 194 175
217 192 173
217 193 175
216 192 174
213 190 172
214 190 173
211 188 171
210 188 170
210 188 171
211 188 171
206 184 167
204 183 167
200 179 162
201 180 164
199 179 163
195 175 159
189 171 155
185 167 152
184 167 152
176 160 145
178 161 147
164 150 135
165 151 138
163 150 137
153 142 129
148 135 122
112 86 54
108 84 53
101 79 49
98 77 49
89 71 45
82 66 41
84 68 42
80 65 40
73 60 36
76 62 38
57 69 50
61 91 70
60 89 68
57 85 66
60 89 68
56 83 64
54 81 62
61 91 70
61 91 70
54 82 63
56 84 65
57 86 67
54 81 63
55 82 64
60 91 71
52 78 61
49 75 58
48 74 58
51 78 61
51 78 62
48 73 57
48 74 58
48 75 59
49 75 60
46 70 56
46 71 57
43 66 53
44 68 55
46 72 58
41 64 52
44 69 56
45 72 58
42 67 54
41 65 53
38 61 49
38 60 49
37 58 48
40 63 52
37 58 48
38 61 50
39 63 52
42 67 55
37 58 48
41 64 52
43 69 56
44 69 56
43 68 55
42 65 53
48 76 62
44 69 56
43 67 54
47 74 60
44 68 55
46 72 58
46 72 57
54 83 66
46 71 57
51 79 63
51 80 64
54 82 65
47 73 58
50 78 62
47 73 58
50 77 61
52 80 63
48 74 58
52 79 63
53 81 64
58 89 70
59 91 71
56 86 67
55 84 66
57 87 68
56 85 66
55 83 65
64 97 76
55 83 65
58 88 69
60 91 71
55 84 65
59 89 69
60 91 71
64 96 75
60 91 71
62 93 73
64 96 75
61 92 72
63 95 74
60 91 71
56 84 65
55 83 64
58 88 69
60 91 71
59 89 69
73 109 85
60 90 70
61 92 71
59 90 70
61 92 71
63 94 73
66 100 77
64 96 75
58 87 68
60 91 70
60 90 70
64 96 74
64 96 75
60 91 70
64 97 75
66 99 77
60 91 71
62 93 73
66 100 77
66 99 77
59 88 68
63 95 74
59 89 69
69 104 81
66 99 77
61 92 72
64 96 75
60 91 71
61 92 71
60 91 70
62 93 72
65 99 77
65 98 76
61 92 71
58 88 68
59 88 69
63 95 74
67 102 79
65 98 76
69 104 81
62 94 73
59 89 69
62 93 73
62 94 73
60 91 70
56 85 66
67 100 77
63 94 73
60 90 70
62 92 71
64 96 74
68 103 80
64 97 75
71 107 83
66 99 77
68 102 79
70 105 81
66 99 77
71 107 83
66 99 76
67 100 77
71 106 82
64 96 74
69 104 80
71 106 82
61 92 71
65 98 76
63 95 73
66 99 77
61 92 71
70 105 81
70 105 81
71 106 82
72 109 84
77 115 89
68 102 79
68 102 79
65 97 75
61 92 71
68 101 78
66 98 76
68 102 79
59 88 68
62 92 71
62 93 72
66 99 77
69 103 79
64 96 74
65 97 75
62 93 72
67 101 78
69 104 81
71 106 82
61 92 71
63 94 73
64 95 74
70 105 81
71 107 82
64 97 75
63 94 72
64 97 75
69 103 80
63 95 73
67 101 78
63 94 73
68 102 79
73 109 84
65 97 75
70 105 81
87 107 85
205 184 163
234 205 184
238 209 188
244 214 193
246 217 196
247 218 197
247 219 198
246 219 198
247 219 199
247 219 199
246 219 199
247 219 199
246 219 199
246 219 199
246 219 199
246 219 199
245 218 199
245 218 199
244 218 199
243 217 198
243 217 198
242 216 198
242 216 197
241 215 197
240 215 196
240 214 196
239 213 195
238 213 194
238 212 194
237 211 192
207 185 177
61 59 120
61 59 120
61 58 118
60 58 118
60 57 117
59 56 115
58 56 113
56 53 106
55 52 106
53 50 101
54 62 90
63 94 73
66 99 76
62 94 73
64 96 74
65 97 75
68 102 79
64 96 74
63 95 73
61 92 71
61 92 71
63 94 73
63 94 73
62 92 71
61 92 71
70 104 80
67 101 78
68 102 78
69 103 79
65 98 75
69 104 80
75 113 87
62 93 71
66 99 77
63 95 73
74 111 86
66 98 76
64 96 74
64 96 74
66 100 77
70 105 81
67 100 77
64 97 75
61 92 71
69 102 79
60 90 69
62 93 72
67 100 77
62 93 72
59 89 69
63 95 73
63 94 73
61 92 71
63 94 72
60 90 69
62 92 71
63 95 73
64 97 75
65 98 75
67 101 78
65 97 75
73 110 84
68 102 78
63 94 73
63 94 72
71 106 82
66 99 76
67 99 76
64 95 74
64 96 74
60 91 70
65 96 74
63 95 73
61 91 70
58 87 67
66 99 76
62 92 71
57 86 66
67 99 76
63 95 73
62 92 71
61 91 70
61 91 70
63 94 72
60 89 68
57 85 65
64 95 72
59 88 67
63 93 72
63 94 71
58 86 66
62 92 70
67 99 75
64 96 73
64 95 72
69 102 77
64 94 71
62 92 70
63 94 71
62 91 69
59 87 66
61 91 69
62 92 70
63 92 69
65 96 72
61 90 68
68 85 65
139 124 106
170 150 128
174 153 132
183 163 142
191 168 147
194 171 150
147 130 115
118 104 92
165 132 118
112 50 46
114 51 47
116 52 48
114 51 47
115 52 48
185 157 140
212 188 168
214 190 170
213 189 170
213 189 170
215 191 171
214 190 171
212 190 171
216 192 173
211 188 169
211 188 169
209 187 169
212 189 171
211 189 171
210 187 170
207 185 168
203 182 165
205 183 166
200 180 163
202 181 164
196 176 160
197 177 161
195 176 160
194 175 160
189 170 155
183 166 151
187 169 154
171 156 141
172 157 142
169 154 140
159 146 132
163 149 136
156 145 133
143 133 120
108 84 53
101 80 50
96 76 49
88 71 45
87 70 44
84 68 42
77 62 38
79 64 40
71 58 35
62 74 54
60 90 68
56 83 64
59 87 67
56 84 64
55 82 64
54 81 62
57 85 66
56 84 65
57 85 66
53 80 62
50 75 58
53 79 61
51 78 60
55 83 65
52 79 62
46 70 55
48 73 58
44 68 54
46 71 57
45 68 54
46 71 56
47 72 58
43 67 53
44 68 54
42 65 52
49 77 61
43 68 55
44 70 56
45 71 57
41 64 52
40 63 52
43 69 56
39 62 50
38 61 49
44 70 57
36 57 46
42 66 54
40 65 53
43 68 55
39 62 51
42 67 55
42 67 54
42 67 54
40 64 52
43 69 56
45 71 58
43 68 55
47 74 60
42 66 53
47 74 60
48 75 60
45 70 56
46 72 57
45 70 56
45 69 55
47 73 58
51 79 63
49 76 61
57 87 69
52 80 64
49 76 60
57 86 68
57 87 69
50 76 60
53 81 64
53 80 63
59 90 70
55 83 65
52 79 62
54 82 64
60 91 72
52 80 62
53 81 64
54 83 65
51 78 61
60 91 71
61 93 73
56 85 67
58 89 69
60 91 70
57 87 68
57 86 67
61 92 71
63 95 74
59 88 69
57 86 67
63 95 74
63 95 74
61 92 72
60 90 70
62 93 72
63 95 73
61 93 72
59 89 70
60 90 70
61 91 71
62 94 73
65 97 75
56 85 66
57 86 67
64 97 75
61 92 71
61 91 71
62 93 72
68 102 79
63 95 74
62 93 72
64 96 75
65 98 76
61 91 71
61 92 71
65 98 76
64 97 75
60 91 71
57 86 67
64 96 75
62 93 72
61 92 71
61 92 72
64 96 75
58 88 68
59 89 69
64 96 74
69 104 81
65 98 76
60 91 71
59 89 69
59 89 69
59 90 70
58 87 68
62 93 72
64 96 75
66 99 77
63 96 74
67 101 78
62 94 73
68 103 80
67 101 78
60 91 71
56 84 65
77 115 89
67 100 77
70 104 81
72 108 83
65 97 75
65 97 75
64 96 75
65 98 76
68 102 79
68 101 78
65 97 75
74 111 86
64 97 75
63 95 74
65 97 75
64 96 74
67 100 77
67 101 78
66 98 76
65 97 75
75 113 87
64 96 75
67 100 78
61 92 71
63 94 73
64 96 74
72 108 84
71 106 82
65 98 76
73 109 84
61 91 71
66 99 77
59 88 68
60 91 70
68 102 78
61 92 71
67 100 77
66 100 77
69 103 80
67 100 78
74 111 86
60 90 69
69 103 80
61 92 71
69 104 80
63 95 73
69 104 80
68 102 79
68 102 79
65 98 76
67 101 78
70 105 81
68 102 79
63 94 72
64 97 75
65 98 75
62 94 73
60 90 70
62 93 72
67 100 77
66 99 76
73 110 85
73 104 81
201 179 158
232 204 183
236 206 185
243 212 190
244 214 193
246 218 197
246 218 197
246 218 198
247 219 198
246 218 198
246 218 199
246 218 199
246 219 199
245 218 199
245 218 199
245 218 199
245 218 199
245 218 199
244 218 199
244 217 198
243 217 198
242 216 198
241 216 197
241 215 197
241 215 196
239 214 196
239 214 195
238 213 194
238 212 194
236 211 193
236 210 192
234 209 191
115 104 136
61 58 119
61 58 119
60 57 117
60 57 117
59 57 115
58 55 113
57 54 111
56 53 107
54 51 104
51 48 98
55 69 84
65 98 75
71 107 82
66 99 76
63 95 73
68 103 79
67 101 77
62 93 72
64 96 74
75 112 86
64 96 74
73 108 83
71 106 82
62 93 72
65 98 75
65 98 76
74 110 85
68 103 80
68 101 78
70 105 81
69 104 80
70 104 81
69 103 79
67 101 78
66 98 76
62 94 72
59 89 68
65 97 75
67 100 77
62 93 72
60 90 69
64 96 74
59 89 69
61 92 71
65 97 75
59 89 69
64 97 75
62 93 72
63 95 73
64 95 73
62 93 72
66 99 76
64 96 74
59 89 69
69 103 80
62 93 72
63 95 73
60 89 69
61 92 71
65 97 75
65 97 75
66 99 77
67 99 77
65 97 74
61 92 71
70 104 80
57 86 67
64 95 73
64 96 74
64 95 73
59 88 68
65 97 74
62 92 71
64 96 73
63 95 73
61 91 70
66 98 75
66 98 75
63 94 72
63 93 72
61 91 69
62 92 70
60 90 69
58 87 67
61 91 69
62 93 71
66 98 75
63 94 72
61 91 70
63 95 73
65 97 74
62 93 71
60 89 67
67 99 75
59 87 66
60 89 68
62 92 70
63 92 70
63 93 71
63 93 71
59 88 66
61 89 68
61 90 68
62 92 69
58 86 65
60 84 63
131 117 100
168 150 129
170 151 131
184 163 143
182 161 140
190 168 147
191 168 148
68 59 52
176 156 137
119 69 62
112 50 46
110 50 45
112 50 46
115 52 48
196 172 153
208 185 166
208 185 165
209 186 166
210 187 167
207 185 166
211 188 169
213 190 171
209 186 167
210 187 169
207 185 166
208 186 168
206 183 165
207 185 167
205 183 167
201 180 162
198 178 161
202 181 164
199 178 161
195 175 158
195 176 160
190 171 155
192 173 157
186 168 153
186 168 152
180 163 148
175 158 143
173 158 144
169 154 141
162 149 135
155 143 130
147 137 124
145 135 122
128 121 109
104 83 55
97 76 48
88 71 44
88 71 45
85 68 42
84 68 42
78 64 39
69 57 34
67 79 57
56 84 64
55 82 63
58 87 67
55 82 64
50 75 58
55 82 63
60 90 69
52 79 61
53 79 61
52 79 62
50 76 59
51 77 60
50 75 59
49 74 58
54 82 64
49 74 58
49 75 59
52 80 63
50 77 61
41 63 50
48 74 59
43 67 54
45 70 56
42 66 53
41 64 51
42 66 53
40 64 51
40 63 51
44 70 57
44 69 56
39 62 51
40 63 51
42 67 55
39 61 50
37 59 49
38 61 50
40 64 53
39 62 51
40 64 53
42 68 55
39 63 51
40 64 52
41 66 54
41 65 53
42 66 54
41 65 52
43 68 55
46 72 58
44 69 56
45 71 57
44 68 55
47 73 59
51 79 64
49 75 60
49 76 60
56 86 68
49 75 60
48 74 59
53 82 65
57 87 68
50 76 60
54 83 66
58 88 70
57 87 68
59 90 71
58 88 69
50 77 60
56 86 67
52 79 62
60 91 71
58 88 69
57 86 67
56 85 66
59 90 70
52 79 62
59 90 70
59 90 70
56 85 67
61 93 73
58 87 68
61 93 72
58 88 68
62 94 73
61 93 72
67 101 79
60 91 71
64 96 75
57 86 67
61 91 70
59 88 69
61 92 72
65 98 76
62 94 73
61 93 72
61 92 72
64 97 75
62 93 73
64 96 75
62 94 73
59 89 69
66 100 77
61 91 70
63 95 74
64 96 75
62 93 72
69 103 80
70 105 82
64 97 75
63 96 74
61 92 72
61 92 71
58 87 67
67 101 78
65 98 76
62 94 73
64 96 74
66 100 77
60 91 71
62 93 72
64 96 75
62 94 73
59 89 69
65 99 77
60 90 70
60 91 70
64 97 76
60 90 70
61 92 71
62 94 73
59 89 69
59 89 69
64 96 75
66 100 77
63 95 74
60 90 70
64 96 75
65 98 77
65 98 76
65 99 77
66 99 77
67 101 78
62 93 72
68 101 78
70 105 81
61 91 70
65 97 75
70 105 81
66 99 77
65 97 75
74 110 85
67 100 77
67 101 78
71 106 82
66 99 77
63 95 73
72 107 83
67 101 78
61 92 71
70 105 81
68 101 78
65 97 75
70 106 82
65 97 75
68 102 79
71 106 82
58 88 68
73 109 85
64 97 75
67 101 78
72 107 83
70 105 81
64 97 75
66 99 76
68 102 79
62 93 72
67 100 78
63 95 74
69 103 80
66 99 77
63 94 73
66 100 77
71 107 83
62 94 72
66 99 76
65 98 76
65 98 76
62 93 72
63 94 73
63 95 73
65 97 75
63 95 73
70 105 81
67 100 77
65 98 75
67 100 78
61 91 71
67 99 76
60 90 69
69 104 80
62 94 72
62 93 72
62 93 72
64 96 74
180 164 144
225 198 177
234 205 184
241 211 189
243 214 193
245 216 195
246 217 196
245 217 197
246 218 197
246 218 198
246 218 198
245 218 198
246 218 198
245 218 198
244 218 198
245 218 199
245 218 199
245 218 199
246 219 200
245 219 200
245 219 199
244 218 199
242 217 198
241 216 197
240 215 196
239 214 196
239 213 195
238 213 195
237 212 194
236 211 193
235 210 193
234 210 192
234 209 191
167 150 157
61 58 119
60 58 118
60 57 117
60 57 117
59 56 115
58 55 113
57 55 112
56 54 109
55 52 105
52 50 101
48 46 92
54 74 75
66 99 76
67 101 78
69 103 79
73 109 84
62 93 72
63 94 72
62 93 71
58 88 68
63 94 72
64 96 74
63 95 73
62 92 71
67 100 77
64 97 75
68 102 79
73 110 84
76 114 88
67 100 77
67 100 77
61 92 71
67 100 77
69 104 80
60 90 70
69 104 80
58 88 68
71 107 82
65 98 75
72 106 81
63 95 73
68 103 79
69 104 80
57 86 66
61 91 70
70 104 80
66 99 76
64 96 74
68 102 79
68 102 78
67 100 77
68 102 79
65 98 76
62 94 72
64 95 73
59 88 68
63 94 72
67 101 78
69 103 79
65 97 75
60 90 69
61 92 71
70 104 80
63 95 73
65 97 75
68 102 79
65 98 76
61 92 71
65 97 74
64 96 74
60 89 69
61 92 71
66 98 76
72 107 82
62 93 71
69 102 78
62 93 71
68 102 78
67 99 76
63 95 73
65 97 74
67 100 76
69 103 79
63 95 73
62 93 71
59 88 67
62 92 70
59 88 67
62 93 71
65 97 73
69 103 78
64 95 72
64 94 71
68 101 76
61 90 69
66 98 74
62 91 70
66 97 73
62 91 69
62 91 69
56 82 62
62 92 70
59 86 65
61 90 68
60 89 68
59 87 66
126 113 95
157 141 120
167 149 128
173 154 133
178 159 138
183 163 142
188 166 146
156 138 121
113 100 88
162 133 118
107 48 44
108 48 44
113 51 47
118 65 59
203 181 162
204 181 161
203 181 161
205 182 163
203 181 161
205 182 163
204 182 162
206 184 165
204 182 164
203 182 164
204 182 164
206 183 165
205 183 165
201 180 162
199 178 160
197 176 159
195 175 158
191 172 155
193 173 156
189 170 153
189 170 153
185 166 150
180 163 146
176 159 143
178 161 146
172 157 142
171 156 141
167 152 138
157 144 129
158 146 133
151 140 127
150 139 127
137 129 118
135 127 114
99 80 55
92 73 46
86 69 43
85 68 43
79 64 39
78 63 39
71 59 35
60 61 41
54 80 61
51 76 59
57 84 64
55 82 63
59 88 68
52 79 61
55 82 63
53 80 62
56 84 65
58 87 68
50 77 60
52 79 61
58 88 69
51 77 61
50 76 60
45 69 54
46 72 57
44 68 54
46 71 57
44 68 54
49 76 60
44 68 55
40 62 50
41 64 51
44 69 56
45 70 56
40 63 51
41 65 52
42 67 54
42 66 54
45 72 59
44 70 58
43 69 57
43 69 57
39 62 51
39 63 52
44 70 57
44 70 57
40 63 52
40 63 51
38 60 49
41 65 53
39 62 51
40 64 52
39 62 50
46 72 58
44 69 56
52 81 65
46 72 58
47 72 58
49 77 61
49 76 61
49 75 60
50 78 62
49 76 60
51 78 62
48 74 58
51 79 63
52 80 63
55 84 66
55 84 66
53 82 65
49 74 59
50 77 61
56 85 67
63 95 75
52 79 62
58 89 70
60 92 72
61 92 72
56 86 67
57 86 67
56 86 67
53 81 63
62 94 73
59 90 70
59 89 69
62 93 73
64 96 75
54 81 63
55 84 65
61 93 72
60 92 71
58 88 68
63 94 73
65 99 77
62 94 74
63 96 74
66 99 77
62 93 72
64 97 75
65 98 76
59 89 69
62 93 72
68 103 80
63 95 74
66 99 76
69 104 80
62 94 73
57 87 67
69 104 80
65 99 76
61 93 72
64 96 74
61 92 71
62 94 72
61 92 72
61 92 71
63 95 74
62 94 73
66 99 77
66 99 77
67 100 78
62 93 72
69 103 80
65 97 76
62 94 72
60 91 71
61 92 71
62 94 73
63 95 73
60 91 71
65 97 76
68 102 79
59 89 69
63 95 73
62 93 72
65 98 76
61 91 71
65 98 76
60 90 70
66 100 78
62 94 73
63 95 74
66 100 78
60 91 71
65 98 76
62 94 73
66 100 78
64 97 75
70 105 81
62 93 73
63 95 74
65 97 75
71 106 81
63 94 73
62 93 72
66 99 77
69 104 80
67 100 77
64 96 74
64 97 75
65 97 75
70 104 81
64 96 74
63 95 74
72 107 83
68 102 79
61 91 71
72 108 84
71 106 82
63 95 74
66 99 77
69 104 80
69 104 80
60 91 71
64 97 75
62 94 73
64 96 74
61 92 71
68 102 79
64 96 75
64 96 74
62 94 73
63 95 74
67 101 78
64 96 74
69 103 80
65 97 75
59 90 69
68 102 79
70 105 81
70 104 81
64 96 75
68 102 79
68 102 78
69 103 80
60 90 70
64 96 75
68 102 79
70 105 81
65 98 75
61 92 72
60 91 70
67 101 78
66 99 77
63 94 72
67 100 77
59 89 69
63 95 74
61 92 71
64 96 74
71 106 82
139 140 118
221 195 173
230 202 181
237 206 185
241 213 191
243 215 194
244 216 196
244 217 196
245 217 197
244 217 197
244 217 197
245 218 198
245 217 198
244 217 198
244 217 198
244 217 198
245 218 199
247 220 200
249 223 202
253 226 205
252 226 205
252 225 205
248 222 202
245 219 200
242 216 197
240 214 196
239 213 195
238 213 195
237 212 194
237 211 193
236 211 193
235 210 192
234 209 191
233 208 190
191 171 168
60 58 118
60 58 119
60 57 117
59 57 116
59 56 115
57 55 112
57 54 111
56 53 108
55 52 107
53 50 102
50 48 97
48 48 87
63 93 77
64 97 75
65 98 75
63 94 73
61 92 71
60 90 70
62 93 72
67 100 77
63 94 73
65 98 76
63 95 73
64 96 74
68 101 78
72 108 83
70 105 81
68 101 78
66 99 76
62 93 72
65 97 75
64 96 74
62 93 72
64 96 75
61 91 71
66 99 77
72 108 83
67 101 78
65 97 75
62 93 73
65 98 75
64 96 74
65 97 75
65 97 75
71 105 81
68 102 78
67 100 78
62 93 72
62 93 72
67 99 76
63 94 72
60 90 70
65 98 76
68 103 79
65 97 75
66 99 76
63 94 73
61 92 71
73 109 83
62 93 72
62 92 71
59 89 69
61 92 71
61 91 70
63 94 72
64 96 74
61 91 70
62 93 72
67 100 77
69 103 80
67 101 78
61 92 71
67 100 77
64 96 74
64 96 74
64 96 74
61 92 70
58 87 67
63 94 72
62 92 71
63 93 71
65 97 74
63 94 71
61 91 69
61 90 69
70 104 80
65 97 74
60 89 68
62 92 70
60 88 68
59 87 66
65 96 73
61 90 69
64 95 72
61 90 69
59 87 66
56 83 63
63 94 72
65 96 73
57 84 64
69 101 77
62 92 70
60 90 68
59 86 66
60 89 68
62 92 70
107 103 84
113 101 84
159 143 123
166 147 127
172 153 133
175 156 136
181 160 141
181 161 142
75 66 58
171 148 131
105 47 43
108 49 45
105 48 44
127 83 75
199 177 158
198 177 157
201 179 159
197 175 155
199 177 158
201 179 161
201 179 160
199 178 159
200 178 160
198 177 158
201 180 161
193 173 154
198 177 160
194 174 156
192 172 155
194 175 158
193 173 156
192 173 155
186 167 151
189 170 154
183 165 150
180 163 148
178 161 145
173 158 142
176 160 145
171 156 141
166 151 137
158 146 131
153 141 127
150 139 125
145 135 123
134 127 114
132 125 113
128 122 110
87 72 47
89 71 45
82 67 41
80 65 40
82 66 41
75 61 37
64 61 40
51 74 57
50 75 58
49 73 56
48 73 56
57 85 65
48 72 55
53 79 61
53 80 62
53 80 62
52 79 62
50 75 59
44 66 51
48 73 57
49 75 59
44 67 53
49 74 59
43 66 52
42 65 52
45 71 57
43 67 54
43 67 54
40 62 50
42 65 52
46 72 58
43 68 55
39 62 51
41 65 53
43 68 56
40 64 52
41 65 53
41 65 54
38 61 50
39 62 51
42 67 55
43 69 57
40 63 52
38 60 50
39 62 51
39 62 51
39 62 51
42 67 54
45 71 58
43 68 55
39 62 50
49 76 61
42 67 54
45 70 56
46 72 58
44 68 54
53 83 66
46 72 58
54 84 67
48 74 59
48 74 59
52 80 63
48 74 59
47 73 58
48 74 58
50 77 61
54 82 65
53 81 64
53 81 64
54 82 65
54 82 65
52 80 63
63 95 74
56 86 67
57 87 68
53 81 63
55 84 65
55 83 65
59 89 70
55 83 65
55 84 66
53 80 62
60 91 71
59 89 69
62 93 72
57 86 67
64 97 75
61 92 71
62 94 73
58 88 69
59 89 69
56 85 66
60 91 71
71 107 84
62 93 73
63 95 74
60 90 70
63 94 73
60 90 70
57 86 66
59 89 69
64 96 75
59 88 68
60 90 70
63 94 73
64 96 75
60 90 70
57 86 67
66 100 78
60 91 70
62 93 72
58 87 68
60 91 70
66 100 78
65 98 76
63 95 73
67 101 79
69 103 80
75 113 88
66 100 77
61 93 72
59 89 69
61 93 72
62 93 72
62 94 73
67 101 78
63 95 74
64 97 75
62 93 72
61 92 71
62 93 72
62 94 73
62 94 73
61 92 71
62 93 72
63 95 74
64 96 74
57 87 67
64 97 75
60 91 71
59 90 70
61 92 72
66 99 77
59 89 70
62 93 72
63 95 74
63 95 74
60 90 70
63 96 74
62 94 73
62 93 72
65 97 75
68 101 78
66 99 77
61 92 71
63 94 72
60 90 70
63 94 73
71 106 82
64 96 74
73 109 84
68 103 79
60 90 70
66 99 76
67 100 78
63 94 73
61 91 71
69 103 79
66 99 77
74 110 85
67 101 78
65 98 76
63 94 72
63 95 73
63 94 73
63 95 74
65 97 75
71 107 82
69 103 80
68 102 79
68 102 79
61 92 72
70 104 81
67 100 77
66 99 76
66 100 78
65 97 75
59 89 69
60 90 69
66 99 77
66 99 77
67 100 78
68 102 78
65 98 76
65 97 75
63 95 73
67 100 77
68 102 79
74 111 86
63 95 73
71 106 82
61 92 71
64 96 74
72 108 83
63 93 72
67 100 78
66 99 76
59 88 68
66 99 76
62 93 72
82 106 84
212 186 164
228 199 177
230 202 180
238 210 189
241 211 190
243 215 195
243 215 195
244 216 196
244 216 196
245 217 197
245 217 197
244 217 197
243 217 197
243 217 197
244 217 198
244 218 198
248 221 201
253 226 205
255 233 210
255 241 217
255 243 218
255 239 215
255 232 210
250 224 204
244 218 199
240 215 196
238 213 195
237 212 194
236 211 193
235 210 193
235 210 192
234 209 191
233 208 191
232 207 190
220 197 183
60 58 118
60 57 118
60 57 117
59 57 116
59 56 116
58 55 113
57 54 111
56 54 109
54 52 106
53 50 103
50 48 97
48 46 93
52 64 85
65 98 75
63 94 72
66 99 77
66 98 76
62 93 72
61 91 70
65 98 75
66 99 77
63 95 73
62 93 72
62 92 71
64 96 74
60 90 69
57 85 66
64 96 74
67 101 78
63 95 73
68 102 79
66 99 77
64 95 74
62 93 72
63 94 73
62 94 72
66 99 76
63 95 73
67 101 78
67 100 77
66 99 76
69 103 80
62 93 72
65 97 75
63 95 73
70 105 81
73 109 84
63 95 73
67 100 77
65 97 75
62 93 71
61 91 71
65 98 75
57 86 66
63 94 72
65 98 75
66 98 75
65 97 75
61 91 70
60 90 69
61 91 71
64 96 74
59 89 69
64 96 74
66 99 76
65 98 75
66 99 76
59 88 68
63 95 73
67 100 77
64 95 73
66 98 75
63 94 72
63 94 73
65 97 74
66 98 75
61 90 69
68 102 78
63 93 72
63 94 73
66 98 75
68 101 78
65 97 74
69 103 79
63 95 73
62 92 70
61 90 69
57 85 65
60 90 69
65 97 74
68 101 77
56 84 64
64 95 73
64 96 73
65 96 73
62 92 70
67 100 76
63 93 71
64 95 72
66 97 74
70 103 79
58 86 65
59 88 67
57 85 64
58 86 66
57 85 64
84 91 71
89 81 69
55 49 42
124 112 96
158 142 121
169 151 131
179 159 139
180 160 140
128 115 100
143 127 111
130 93 83
102 46 42
105 48 44
125 84 75
194 173 153
193 172 153
195 174 155
198 177 157
198 177 157
197 175 156
201 180 162
191 171 151
194 174 155
200 178 160
193 173 155
190 171 153
194 174 156
189 170 152
189 169 152
184 166 149
185 166 150
182 164 147
181 164 147
181 163 148
182 165 149
174 158 143
169 153 138
169 154 139
164 150 135
162 148 133
163 149 136
154 143 129
144 134 120
142 132 119
138 129 117
138 129 117
135 127 114
129 122 109
91 76 54
82 67 42
81 66 41
78 64 39
74 61 37
70 61 39
54 78 60
50 75 58
49 73 57
48 73 57
50 76 59
48 72 56
51 78 61
48 72 57
50 76 59
55 83 65
50 76 60
47 72 57
52 80 62
43 66 52
46 71 56
50 77 61
43 66 53
44 68 54
52 81 64
48 74 59
41 63 51
40 63 50
37 59 47
42 67 54
43 67 54
38 61 49
40 64 52
42 66 54
38 60 49
39 61 50
42 67 55
37 59 48
39 63 51
37 59 49
40 64 52
40 64 53
39 62 51
44 70 58
43 68 55
39 62 51
39 62 51
41 65 53
44 69 56
43 67 54
42 66 53
47 74 59
43 68 54
44 69 55
44 69 55
42 65 52
46 72 58
49 75 60
53 82 65
58 88 70
51 78 62
55 84 67
55 85 67
50 76 60
50 76 60
54 83 65
56 85 67
53 81 64
51 78 61
62 94 73
55 84 66
63 96 75
52 79 62
51 77 60
57 87 68
60 92 71
63 95 74
55 83 65
53 80 63
57 86 67
55 83 65
61 93 72
57 86 67
56 84 65
59 90 70
58 88 68
64 96 75
63 95 74
62 94 73
67 100 77
62 93 72
56 84 65
61 92 71
63 95 74
64 97 75
58 88 68
62 94 73
64 96 74
63 95 74
64 96 74
57 86 67
64 96 74
64 96 74
62 93 71
60 90 70
63 95 74
69 103 80
62 93 72
60 91 70
57 87 67
64 96 74
68 102 79
58 88 68
61 91 71
66 100 78
69 103 80
60 91 70
62 93 73
63 95 74
67 101 78
61 91 71
62 94 73
66 99 77
64 96 74
66 99 77
60 90 70
69 105 81
64 97 75
67 101 78
61 92 72
69 105 81
60 90 70
65 98 76
66 100 77
63 95 74
62 93 73
57 86 67
55 83 65
61 92 72
61 93 72
67 101 78
59 90 70
67 101 78
61 92 72
65 98 76
65 97 76
64 97 76
69 105 81
61 93 72
65 98 76
62 94 72
62 92 71
65 97 75
68 102 79
63 94 73
68 101 78
65 97 75
66 99 76
67 100 77
72 108 83
68 101 78
69 102 79
68 102 79
67 101 78
65 97 75
62 93 72
63 94 73
67 100 78
65 97 75
64 96 75
66 99 77
64 96 74
66 99 76
61 92 71
64 97 75
67 101 78
67 100 77
75 113 88
70 106 82
70 104 80
63 94 73
69 104 81
66 100 77
70 105 81
62 93 72
65 97 75
66 98 76
62 93 72
72 108 83
69 104 80
67 100 77
73 109 84
59 89 69
60 90 70
63 95 74
63 94 73
70 105 81
69 103 80
65 98 76
66 99 76
66 100 77
62 93 72
64 96 74
74 110 85
67 100 77
65 96 74
68 102 78
66 98 76
71 107 82
73 108 84
182 166 145
222 196 175
229 201 180
236 206 185
238 209 188
239 211 191
242 214 194
243 215 195
243 215 195
243 216 196
244 216 196
243 216 196
242 216 196
243 216 197
243 216 197
243 217 197
246 220 200
253 226 205
255 236 213
255 250 224
255 255 233
255 255 234
255 255 229
255 244 219
255 231 209
246 221 201
241 215 196
238 213 194
236 211 193
235 210 193
234 210 192
234 209 191
233 208 191
232 207 190
231 207 189
228 203 187
72 67 121
60 57 117
59 57 116
59 56 115
58 56 115
58 55 112
56 54 109
56 53 107
55 52 106
54 51 103
51 49 99
49 47 94
45 43 87
55 79 71
66 99 77
64 96 74
64 96 75
61 91 70
62 93 71
63 95 73
63 94 73
65 98 75
67 101 78
65 96 74
68 103 80
65 98 76
67 100 77
62 93 71
66 98 76
60 90 70
62 94 72
69 103 79
65 98 76
66 98 76
61 91 70
66 98 76
66 99 76
69 102 79
62 93 72
65 97 74
67 100 77
63 94 73
66 99 76
68 102 79
63 95 74
71 106 82
69 103 80
67 101 78
66 100 77
63 95 74
67 101 78
66 100 77
66 98 76
62 94 72
62 92 71
66 99 76
69 103 79
68 102 79
64 95 73
62 93 72
71 105 81
67 101 78
63 94 73
60 90 70
63 94 73
64 97 75
61 91 70
67 101 78
60 90 69
59 89 68
65 97 75
65 97 74
62 93 71
64 95 73
62 93 71
62 92 71
66 99 75
61 91 70
62 93 72
59 88 68
58 87 67
61 91 69
64 96 73
65 97 75
59 88 68
61 92 70
62 93 71
58 87 67
61 91 69
63 94 72
62 92 70
60 89 68
66 98 75
64 95 72
60 89 68
58 87 67
63 93 70
61 91 69
64 94 72
61 90 69
63 94 72
65 96 73
66 98 75
59 87 67
65 96 73
59 86 64
64 86 66
113 102 85
18 16 14
0 0 0
71 63 55
138 123 107
162 146 125
176 157 136
150 135 116
90 80 70
149 122 107
101 46 42
103 47 43
127 91 79
190 169 150
188 168 149
186 167 147
188 168 149
188 169 150
192 172 154
192 172 154
188 168 150
189 169 151
188 169 150
191 171 153
184 165 147
182 164 145
184 165 148
179 161 143
185 166 149
182 164 147
174 158 141
175 159 142
172 156 140
171 155 139
170 154 138
167 153 137
167 152 137
161 147 133
161 147 133
157 144 131
148 138 124
145 135 121
139 130 117
128 122 109
128 122 108
124 118 105
126 120 107
99 86 66
81 66 41
76 62 38
80 65 40
64 59 38
49 68 52
45 67 52
46 69 54
46 69 54
45 69 54
47 71 55
47 71 55
52 79 62
50 76 59
46 71 56
51 78 61
42 64 50
47 73 58
45 70 55
43 67 53
42 65 52
39 60 48
46 71 57
45 70 56
43 67 54
39 62 50
46 72 58
39 62 50
41 64 52
42 67 54
40 64 52
41 65 53
39 63 51
39 62 50
40 63 52
44 70 57
40 63 52
41 65 54
38 61 50
39 62 51
40 64 52
42 66 54
36 58 47
39 61 50
45 71 58
44 69 56
41 66 53
40 64 52
45 70 56
42 66 53
46 71 57
48 74 60
45 70 56
48 75 60
44 68 54
48 75 59
49 76 60
47 72 57
51 79 62
50 77 61
52 80 63
51 79 62
55 84 66
51 79 62
58 89 70
54 82 64
54 82 64
58 89 70
53 81 64
62 94 73
56 85 67
56 86 67
55 84 66
56 85 67
54 82 64
56 85 66
59 90 70
58 88 69
60 91 71
58 87 68
66 99 77
58 88 68
64 96 75
67 102 79
64 96 74
64 97 75
59 89 69
56 84 65
61 91 71
63 94 73
59 89 69
66 98 76
61 91 71
60 91 70
63 95 74
62 93 72
64 97 75
61 91 71
65 98 76
65 97 75
66 99 77
59 89 69
60 90 70
61 92 71
60 91 71
66 99 77
59 89 69
69 104 81
69 103 80
62 93 72
61 92 72
60 90 70
59 89 69
65 97 76
61 91 71
66 100 77
66 100 77
65 99 76
69 104 81
59 90 70
60 90 70
62 93 72
62 94 73
60 90 70
61 92 71
66 100 78
62 94 73
61 92 71
65 98 76
60 90 70
60 91 71
59 88 69
67 101 78
71 107 83
60 91 71
59 90 69
64 97 75
60 90 70
60 91 70
62 94 73
64 97 75
67 102 79
63 95 73
71 107 83
62 94 73
63 95 74
62 94 73
62 93 72
65 98 77
64 96 75
69 104 81
64 96 74
66 98 75
69 103 80
64 95 74
68 102 79
66 99 77
64 96 74
63 95 73
70 104 80
69 103 80
62 93 72
65 97 75
67 101 78
67 100 77
63 94 73
77 115 89
66 100 77
60 90 70
59 89 69
65 97 75
62 93 72
63 95 73
73 109 84
61 91 71
66 100 77
70 105 81
69 104 80
71 107 82
64 96 74
65 97 75
66 100 78
64 96 75
62 93 72
59 89 69
67 101 78
66 99 77
61 92 71
66 99 77
70 106 82
71 106 82
64 97 75
60 91 70
67 101 78
64 96 74
61 92 71
67 100 78
70 105 81
67 101 78
64 97 75
66 99 77
63 95 74
60 90 70
62 94 73
65 97 75
64 96 75
65 96 74
66 98 76
62 93 72
113 120 101
213 187 166
222 194 172
228 201 180
233 205 184
235 208 187
240 213 192
241 213 193
243 215 194
242 214 195
243 215 195
241 214 195
242 215 196
242 215 196
242 215 196
243 216 196
244 217 198
249 222 201
255 232 210
255 246 221
255 255 235
255 255 244
255 255 245
255 255 237
255 251 225
255 234 211
247 221 201
240 215 196
236 212 194
235 210 193
235 210 192
233 209 191
233 208 191
232 207 190
232 207 189
231 206 188
229 205 187
106 96 131
60 57 117
59 56 116
59 56 115
58 56 114
57 55 112
56 54 109
55 52 106
55 52 107
53 50 102
51 48 98
49 47 94
45 43 88
50 60 83
64 97 75
68 102 79
63 94 73
70 104 80
64 96 74
64 96 74
66 99 76
69 103 80
67 100 77
62 94 73
69 103 79
64 96 74
67 100 77
62 93 72
64 96 75
63 94 73
62 94 72
67 100 77
60 89 69
66 100 77
67 101 78
65 98 75
65 97 75
65 98 75
70 105 81
69 104 80
71 106 82
63 94 73
66 99 77
65 98 75
67 100 77
63 93 72
65 98 76
68 101 78
67 101 78
71 106 82
67 101 78
64 95 74
67 100 77
59 88 68
67 100 77
64 96 74
66 100 77
57 86 66
64 96 74
64 96 74
67 101 78
70 105 81
67 101 78
65 97 75
65 98 76
67 100 78
63 95 73
62 92 71
62 92 71
59 89 68
61 91 70
64 95 73
61 91 70
65 97 74
57 85 66
65 96 74
64 95 73
66 98 76
64 95 73
67 99 76
66 98 75
57 85 65
67 99 76
58 87 67
67 101 78
67 100 76
67 99 76
70 104 79
66 97 75
62 91 70
63 94 72
67 100 76
63 93 71
62 92 71
65 96 73
65 97 74
64 95 73
65 97 74
59 87 66
65 96 73
59 87 66
61 90 69
61 90 69
62 92 70
60 89 67
59 88 67
67 100 75
106 104 85
121 109 93
35 30 25
0 0 0
0 0 0
72 65 56
166 149 129
170 152 132
66 59 51
153 133 115
97 44 40
102 46 43
120 83 73
182 163 144
181 163 143
180 162 142
185 165 146
189 169 150
188 168 150
185 166 147
184 165 146
183 164 146
181 163 145
183 165 147
182 163 146
180 162 144
171 155 138
179 161 144
177 160 144
175 158 141
176 159 142
173 157 141
171 156 140
170 155 139
165 150 134
156 144 129
153 141 126
150 138 123
148 137 122
147 136 123
142 133 119
138 130 116
125 120 106
128 121 108
115 111 97
121 116 102
121 115 102
94 83 65
79 65 40
79 64 39
72 59 36
51 70 54
43 66 52
47 72 57
44 66 52
46 70 55
44 68 53
45 68 54
50 75 59
46 70 55
46 70 56
42 64 50
43 66 52
41 63 50
47 72 57
39 61 48
43 67 53
40 62 50
40 63 51
45 71 57
42 66 54
44 69 56
41 64 52
38 59 48
38 61 50
37 58 48
40 63 52
39 62 50
40 64 53
41 65 53
38 61 50
37 59 48
38 61 50
39 62 51
43 68 56
39 62 51
39 61 50
38 61 50
43 68 55
45 71 58
41 65 53
43 67 54
47 74 59
41 65 52
43 67 54
47 73 58
48 75 60
50 78 62
45 71 57
49 75 60
49 75 59
51 78 62
50 77 61
50 78 61
52 79 63
53 81 64
51 77 61
56 85 67
58 88 69
56 85 67
59 90 70
58 89 70
52 79 62
59 89 70
53 80 63
54 83 64
58 89 70
63 96 74
62 94 73
61 92 71
57 87 67
60 91 71
55 83 64
60 90 70
63 95 74
61 92 71
63 95 74
58 87 67
63 96 75
60 91 71
60 90 70
61 92 71
58 87 67
67 101 79
67 100 77
62 93 72
65 98 76
63 95 73
63 95 74
68 103 80
59 89 69
58 87 68
59 89 69
60 91 70
62 94 73
63 94 73
62 93 72
61 92 71
68 103 80
62 93 72
65 98 76
63 95 74
58 88 68
61 92 71
61 92 71
57 87 68
63 94 73
63 94 73
68 102 79
69 104 81
60 91 70
62 94 73
62 94 73
65 98 76
65 98 76
69 103 80
58 88 68
61 92 71
61 93 72
65 97 76
63 95 74
65 98 76
68 103 80
61 91 71
66 100 78
61 92 72
68 103 80
61 93 72
62 94 73
65 98 76
63 96 74
63 95 74
63 96 75
59 90 70
64 97 75
60 90 70
58 88 69
65 99 77
67 101 79
61 92 72
64 97 75
64 96 75
66 99 77
63 95 73
60 91 71
67 100 78
61 92 72
64 96 74
59 90 69
62 93 72
66 98 76
67 100 77
66 99 77
67 101 78
63 94 73
73 110 85
69 103 80
66 99 76
68 102 79
65 98 75
66 99 76
65 98 76
64 96 75
66 99 77
71 107 83
68 102 79
61 92 71
59 88 68
62 93 72
64 97 75
64 96 74
60 91 70
61 92 71
61 91 71
65 98 76
70 106 82
72 108 84
67 101 78
62 93 71
64 96 74
70 105 81
66 99 77
62 93 72
61 91 71
68 102 79
63 95 74
67 101 78
65 98 76
66 99 77
68 102 79
65 98 76
64 95 74
67 101 78
68 101 78
66 99 77
67 101 78
65 98 76
65 97 75
66 99 77
67 100 77
67 101 78
72 108 83
67 101 78
64 95 74
68 102 79
63 93 72
185 168 148
217 192 171
225 198 177
231 202 181
230 203 182
237 210 189
238 210 190
241 213 193
242 214 194
241 214 194
241 214 194
242 214 195
241 214 195
241 214 195
241 215 195
241 215 196
243 217 197
249 222 202
255 233 210
255 249 222
255 255 236
255 255 244
255 255 242
255 255 234
255 246 220
255 230 208
245 219 200
239 213 195
236 211 193
234 209 192
233 209 191
233 208 190
231 207 190
231 207 189
231 206 188
229 205 188
229 204 187
104 95 130
59 57 117
59 56 115
58 56 115
58 55 113
57 54 111
56 54 110
55 52 107
55 52 106
53 50 101
51 48 97
49 47 95
46 44 88
44 43 84
58 84 76
72 108 83
68 103 79
69 104 81
64 96 74
64 96 74
71 107 83
68 101 78
67 101 78
60 89 69
65 97 75
64 96 74
67 100 77
69 103 80
63 94 73
66 99 76
71 106 81
65 98 76
73 110 85
64 96 74
72 107 83
68 101 78
67 101 78
64 96 74
67 101 78
63 95 73
69 104 80
61 92 71
72 107 83
63 94 73
63 94 72
61 92 71
66 99 77
65 97 75
67 101 78
58 87 67
62 93 72
65 97 75
59 89 69
65 98 76
66 98 75
62 92 71
65 97 75
61 92 71
66 98 76
59 89 68
63 95 74
70 105 81
72 108 83
60 91 70
70 105 81
65 98 75
62 93 72
63 95 73
61 92 71
65 97 74
62 92 71
63 95 73
64 96 73
65 98 75
65 96 74
65 97 74
63 94 72
71 106 81
65 97 75
64 96 73
68 101 78
67 100 77
67 100 77
64 95 73
66 99 76
67 99 76
67 99 76
70 104 79
72 107 82
63 94 71
64 96 73
64 94 72
60 89 68
63 94 72
59 87 67
63 94 72
67 100 76
59 88 66
65 96 73
66 98 74
60 90 69
64 95 73
61 89 68
56 83 63
68 100 76
59 87 66
56 84 64
81 89 70
128 117 99
128 118 97
94 85 71
33 30 25
30 27 23
153 137 117
163 146 127
84 76 64
150 134 116
94 43 39
94 43 39
112 78 68
170 153 132
177 159 140
177 159 140
175 157 137
175 158 138
179 160 142
178 160 142
180 162 144
180 162 144
179 161 143
175 158 140
177 160 143
173 156 138
179 162 145
177 160 143
169 154 137
163 149 132
169 153 137
164 150 134
162 148 132
158 145 129
155 143 127
149 137 122
146 135 120
143 133 119
142 133 119
137 129 115
128 122 109
128 122 108
126 119 106
123 117 104
120 115 101
120 115 100
115 110 97
100 91 73
76 62 38
72 60 37
59 64 51
39 59 47
40 61 49
47 73 58
42 65 51
39 60 48
41 63 50
41 62 49
44 67 53
42 64 51
43 65 51
41 63 51
43 66 53
39 60 48
39 60 48
43 66 53
41 64 51
40 62 50
39 62 50
40 63 51
38 60 49
37 58 47
39 63 51
38 61 50
38 60 50
37 58 48
38 60 49
41 65 53
38 61 50
35 57 47
39 62 51
35 56 46
40 64 53
34 54 44
40 64 53
37 59 48
43 68 56
38 60 49
43 68 55
39 62 50
41 64 52
47 73 59
43 68 54
46 71 57
45 70 56
48 75 60
46 72 57
53 82 65
55 84 67
55 85 68
54 83 66
55 85 67
51 79 62
51 79 62
56 86 68
54 82 64
55 84 66
54 82 64
55 84 65
54 81 64
54 82 64
55 83 65
56 85 67
54 82 64
52 79 62
55 84 65
59 89 69
55 83 65
68 102 79
63 94 73
58 87 68
60 91 70
66 99 77
59 89 69
57 86 67
59 89 69
63 95 74
60 90 70
66 100 77
61 93 72
64 97 75
58 87 67
65 98 75
59 89 69
63 95 74
59 90 70
67 101 78
62 94 73
63 95 74
62 93 72
63 94 73
59 90 69
60 91 70
63 95 74
62 93 72
65 98 76
63 95 74
61 91 71
61 92 72
61 92 72
59 90 70
63 95 74
58 87 68
61 92 72
61 92 71
61 91 71
67 100 77
62 93 72
64 96 75
63 95 74
58 88 68
57 87 68
69 104 81
64 96 75
65 98 76
57 87 67
62 93 72
61 91 71
60 91 70
66 99 77
66 100 77
62 94 73
68 103 80
60 91 70
65 98 76
60 90 70
61 92 72
59 89 69
64 96 75
64 96 74
65 98 76
61 92 72
58 87 67
63 96 75
59 89 69
67 100 78
65 99 77
66 100 78
64 97 75
62 94 73
70 105 81
63 95 74
62 93 73
67 101 78
63 95 74
67 101 79
65 98 76
67 100 78
60 90 70
61 91 70
62 92 71
63 94 73
68 102 79
67 100 78
63 95 73
61 91 70
62 93 72
61 91 70
68 103 79
64 96 75
67 100 77
70 104 81
68 101 78
65 97 75
66 100 77
66 98 76
69 103 80
61 91 71
62 94 73
65 98 76
65 97 75
67 101 78
69 104 80
63 95 74
65 97 75
66 99 76
68 102 79
65 98 76
61 91 71
68 102 79
66 100 77
70 105 81
64 96 74
60 91 70
64 96 74
60 91 70
59 89 69
63 94 73
68 101 78
68 101 78
62 93 72
67 100 77
61 92 71
69 103 80
72 107 83
66 99 76
62 93 72
65 97 75
63 95 74
70 104 81
69 102 79
65 97 75
66 99 76
61 91 71
66 100 77
121 126 105
210 185 165
213 188 167
223 197 176
226 198 176
232 205 184
233 206 186
236 209 189
240 212 192
241 213 193
241 213 193
240 213 194
240 213 194
241 214 194
241 214 194
239 213 194
240 214 195
242 216 196
246 220 200
255 230 207
255 242 217
255 254 227
255 255 232
255 255 230
255 247 222
255 235 211
249 223 202
241 216 197
235 211 193
234 209 192
233 208 191
232 208 190
231 207 190
231 206 189
231 206 188
229 205 188
228 204 187
227 203 186
105 96 130
59 56 116
59 56 115
59 56 115
57 55 112
57 54 112
56 53 109
54 52 105
53 51 103
52 49 100
51 49 99
48 46 94
47 45 92
44 41 84
50 65 77
62 92 71
65 97 75
62 93 72
66 99 77
64 97 75
66 99 77
62 93 71
64 95 74
62 93 72
62 93 72
71 107 83
63 94 73
71 105 81
66 99 76
66 100 77
65 97 75
70 105 81
66 98 75
61 92 71
67 101 78
67 100 77
68 102 79
61 92 71
64 96 75
63 95 73
68 101 78
63 94 73
66 99 77
66 98 76
73 109 84
67 101 78
64 95 73
70 104 80
65 98 76
66 99 76
63 94 73
64 95 74
67 100 77
67 100 77
68 102 79
64 96 74
75 113 87
60 89 69
68 102 78
68 101 78
65 98 75
65 98 75
64 96 74
71 106 81
68 102 78
65 97 75
63 95 73
70 105 81
70 104 80
58 86 67
62 93 72
57 85 66
71 106 81
64 96 74
63 94 72
62 93 72
64 95 73
63 95 73
65 97 74
64 96 73
61 91 70
66 98 75
57 85 65
65 97 74
65 97 74
62 92 71
60 89 69
59 88 68
62 92 70
55 83 63
68 101 77
69 102 78
64 95 73
59 87 67
65 95 72
68 101 77
62 91 69
66 99 75
63 93 70
67 100 76
66 98 74
62 92 69
59 88 67
65 97 74
63 93 70
63 94 71
62 92 69
62 87 66
106 99 81
130 120 100
129 118 98
133 122 102
114 102 87
145 130 111
155 140 120
96 86 75
132 118 102
96 57 50
93 43 39
109 73 64
170 153 134
169 153 133
176 158 139
171 154 135
171 154 135
170 154 134
173 156 137
170 154 135
167 151 133
170 154 136
174 158 140
169 153 136
169 153 136
160 146 129
164 149 132
163 148 131
163 148 132
162 148 132
155 142 125
153 141 125
151 139 124
152 140 126
146 136 121
139 130 116
139 130 115
134 126 112
131 124 111
127 121 107
128 121 108
121 116 102
120 114 100
118 114 99
113 109 95
116 111 97
110 105 90
92 85 69
91 88 73
37 57 45
38 59 47
39 60 48
39 60 49
37 57 46
37 57 45
40 61 49
43 66 53
41 64 51
38 58 46
46 71 57
42 66 53
38 59 48
37 58 47
35 54 43
40 63 51
37 57 47
40 63 51
37 59 48
42 67 55
34 54 44
39 62 51
36 58 48
37 58 47
37 59 48
37 60 49
37 59 48
41 66 54
38 60 49
37 59 48
38 60 49
40 63 52
39 63 51
40 63 51
38 61 49
41 65 53
44 69 56
40 62 50
44 69 55
44 68 54
47 74 59
43 67 54
49 76 61
48 76 61
45 69 55
47 73 58
48 74 59
51 79 62
49 75 59
51 78 62
50 76 60
53 81 64
51 79 62
51 78 61
50 77 60
55 84 66
54 82 64
57 86 67
53 81 63
52 79 62
53 81 63
58 87 68
54 82 64
55 84 65
60 91 70
52 79 62
54 82 64
58 87 68
61 92 71
58 87 68
67 100 78
61 93 72
65 98 76
61 92 71
61 92 71
63 95 74
55 83 65
62 93 72
61 92 71
65 97 75
64 96 74
61 92 71
70 105 81
58 87 68
70 105 82
59 89 69
60 90 69
64 96 74
58 88 68
62 93 72
65 98 76
67 101 79
63 96 74
59 88 69
66 99 77
65 99 76
65 97 75
61 92 72
68 102 79
59 89 69
72 108 83
63 95 74
66 99 77
61 91 71
64 96 74
61 92 72
63 95 73
60 91 71
67 101 79
63 95 73
64 97 75
63 94 73
62 93 73
62 93 72
59 90 70
67 101 79
65 98 76
61 92 72
64 96 75
64 97 75
64 97 76
59 89 69
61 92 72
64 97 75
64 97 76
61 92 71
61 93 72
63 95 74
66 100 78
64 97 75
69 104 81
68 102 79
63 95 73
64 96 75
65 97 75
62 94 73
69 104 81
61 93 72
56 84 65
63 95 74
67 101 79
62 94 73
66 99 77
63 95 74
61 92 72
60 91 71
68 102 79
65 97 75
63 95 74
70 104 80
65 97 75
69 104 80
64 96 74
62 93 72
65 97 75
64 96 74
67 100 77
67 100 77
71 107 83
67 100 78
63 94 73
68 102 79
67 100 78
64 97 75
67 100 78
66 99 76
64 97 75
71 107 83
63 95 73
65 98 76
66 99 76
66 99 76
64 97 75
66 99 77
61 92 71
66 98 76
67 101 78
66 98 76
76 115 89
61 91 70
67 101 78
64 96 74
60 90 69
66 99 77
64 96 75
65 98 75
66 99 77
64 96 74
62 94 73
66 99 77
67 100 77
70 105 82
64 95 74
77 114 88
65 98 76
67 101 78
69 103 80
67 101 78
65 98 76
64 96 74
75 113 87
60 90 69
63 95 73
65 98 75
65 98 75
172 157 138
210 185 164
216 190 169
222 196 175
228 200 179
231 204 184
232 206 186
234 208 188
239 211 190
239 212 192
239 212 193
239 212 193
239 212 193
238 212 193
240 213 193
239 213 194
239 213 194
241 214 195
244 217 197
248 222 202
255 230 207
255 237 213
255 239 215
255 236 213
255 230 208
248 222 201
241 216 197
236 211 193
235 210 192
233 208 191
232 207 190
231 207 189
231 206 189
229 205 188
229 205 187
227 204 187
228 204 186
226 202 185
97 89 127
59 56 116
59 56 115
58 55 113
57 54 111
56 54 110
56 53 108
54 52 106
54 51 104
51 49 99
50 48 97
49 47 95
46 44 90
43 42 84
40 40 75
62 92 75
66 99 77
68 102 79
66 98 76
64 95 74
63 94 72
60 90 70
60 91 70
64 96 74
68 103 80
65 97 75
64 96 74
66 99 77
66 99 76
63 94 72
64 95 73
65 98 76
68 102 79
66 100 77
63 95 74
65 97 75
64 96 74
65 98 75
65 98 75
65 98 76
69 103 80
73 109 84
66 98 76
66 99 76
65 98 75
66 99 77
65 97 75
67 101 78
67 101 78
63 94 72
59 89 69
64 96 74
67 101 78
61 91 71
61 92 71
62 94 73
67 101 78
72 108 83
62 94 72
59 88 68
64 96 74
65 98 75
63 95 73
76 113 87
67 101 78
66 98 76
77 115 89
67 101 77
66 98 76
60 91 70
63 95 73
62 94 72
63 95 73
67 100 77
64 95 73
61 92 71
63 94 73
72 107 82
69 103 79
64 95 73
65 97 74
64 95 73
62 93 71
60 89 69
60 90 69
64 96 74
70 104 79
58 86 66
65 96 74
65 97 75
68 102 78
66 98 74
65 97 74
65 96 73
68 102 78
68 101 77
63 94 71
65 96 73
61 91 70
64 96 73
58 86 65
59 87 66
59 87 66
59 87 66
62 91 69
56 83 62
55 81 61
61 91 69
85 95 74
109 103 84
132 121 102
135 122 103
138 127 108
143 131 111
141 129 109
103 93 80
113 102 86
99 64 57
86 40 35
89 45 40
155 140 120
160 145 126
163 148 128
162 147 128
165 149 131
163 147 128
170 154 136
165 149 131
160 145 127
163 148 130
166 150 133
160 146 128
158 144 127
155 142 124
162 147 131
159 145 129
154 141 125
151 139 122
153 141 125
142 132 116
145 134 119
144 134 119
137 128 113
133 125 111
130 122 108
124 118 105
123 117 104
124 119 105
120 116 101
118 114 99
120 115 101
106 103 88
115 110 96
111 108 92
101 99 84
92 92 77
81 82 70
31 48 39
35 55 44
38 59 48
39 61 49
38 59 48
34 53 42
36 56 46
39 61 50
36 57 46
34 52 42
37 58 47
36 56 46
37 59 48
36 57 46
36 57 47
37 59 48
36 56 46
39 62 50
34 54 45
40 64 52
36 57 47
36 58 47
38 60 49
37 60 49
35 55 45
39 62 51
42 67 55
40 63 52
42 66 54
40 64 53
41 65 53
39 62 51
37 59 48
41 64 52
43 68 55
41 64 52
42 66 53
43 66 54
47 73 59
48 75 60
47 72 58
44 69 56
53 83 66
45 70 56
50 77 61
46 70 55
48 74 59
48 74 59
55 84 66
51 78 61
56 86 67
54 82 65
50 76 60
56 85 66
56 86 67
57 87 67
60 91 71
59 89 69
55 84 65
55 83 65
57 86 67
60 90 70
58 88 69
56 85 66
60 91 70
59 89 69
61 92 71
57 86 67
58 87 67
57 86 67
62 93 72
59 90 69
60 90 70
61 92 71
61 92 71
64 96 74
63 94 73
60 91 70
64 97 75
61 91 70
61 91 70
59 88 68
63 95 74
64 96 75
62 94 73
70 105 81
67 101 78
64 97 75
69 104 80
60 90 70
60 90 69
61 92 71
63 95 74
63 94 73
66 99 77
60 90 69
69 103 80
60 90 70
70 105 81
69 104 81
70 105 82
59 89 69
60 91 71
58 87 68
65 98 76
67 100 78
56 84 65
59 90 70
67 101 79
60 90 70
62 93 72
64 96 74
65 98 76
62 94 73
63 95 73
68 102 79
68 103 80
64 96 75
65 99 77
57 87 67
67 101 78
63 95 74
63 95 74
68 103 79
62 93 72
64 96 75
65 98 76
59 89 69
64 96 75
64 97 75
67 102 79
65 98 76
64 96 75
70 106 82
59 89 69
64 96 75
65 97 76
60 90 70
66 100 77
66 100 78
69 104 81
64 97 75
64 98 76
68 104 81
70 106 82
60 90 70
65 98 76
69 104 81
61 92 71
68 102 79
61 92 71
63 94 73
65 98 76
60 90 70
63 94 73
64 96 75
63 95 74
66 99 76
67 101 78
71 106 81
68 102 79
63 95 74
62 93 72
61 91 70
69 104 80
63 95 73
62 94 73
67 99 77
64 97 75
62 94 73
66 99 76
66 99 76
70 105 81
64 96 75
58 87 67
70 105 81
62 93 72
66 99 76
73 109 84
66 99 76
62 93 72
65 98 76
62 94 72
63 94 73
68 101 78
66 99 76
69 103 79
71 107 83
62 93 72
67 100 78
71 106 82
63 94 73
64 96 73
66 99 76
61 92 71
69 104 80
65 98 76
65 97 75
75 113 87
64 96 74
72 108 84
71 106 82
67 100 77
67 100 77
82 109 86
198 175 154
211 186 166
217 191 171
219 193 172
227 201 181
229 203 183
231 204 184
234 207 186
236 209 189
237 210 190
239 212 192
239 212 192
238 212 192
238 211 192
238 211 193
238 211 193
237 211 193
238 212 193
240 214 195
242 216 197
245 219 199
248 222 201
248 222 202
246 220 200
243 217 198
239 214 195
236 211 193
234 209 191
232 208 190
231 207 189
231 206 189
230 206 188
229 205 188
229 205 187
227 203 186
227 203 186
226 202 185
221 198 182
82 76 122
58 56 115
58 56 114
57 55 113
57 54 111
55 53 108
54 52 106
54 52 106
52 50 102
51 49 100
50 47 96
49 47 96
44 43 86
43 41 83
39 38 76
59 85 77
71 106 82
64 96 74
59 88 68
58 87 67
64 96 74
61 91 70
66 98 76
69 102 79
68 102 78
65 98 75
69 104 80
64 96 74
71 106 81
64 96 74
70 104 80
62 93 71
66 98 76
64 96 74
67 100 77
65 97 75
66 99 76
67 101 78
61 92 71
69 104 81
65 97 74
68 102 79
59 88 68
62 94 72
64 95 73
65 97 74
60 91 70
64 95 74
66 99 77
60 91 70
64 96 75
65 96 74
63 95 73
61 92 71
72 107 82
64 95 73
62 93 72
66 99 76
64 96 74
62 93 72
66 98 76
63 94 72
62 93 72
67 101 78
67 100 77
60 90 69
65 98 75
73 110 85
66 99 77
63 95 73
67 100 77
63 95 73
71 107 83
65 96 74
60 89 69
62 93 71
62 93 72
69 103 79
65 97 74
69 103 79
60 89 68
63 93 72
63 95 73
62 92 70
62 93 71
69 103 79
65 96 74
64 94 72
66 99 76
65 97 74
65 97 75
66 98 75
65 97 74
64 94 72
61 91 69
59 88 68
64 95 72
66 97 74
60 90 68
63 94 71
63 94 71
60 89 68
64 94 71
58 85 64
56 82 62
58 86 65
55 81 61
62 91 69
61 88 66
95 91 74
112 105 86
117 109 89
128 118 98
131 120 101
146 133 114
95 87 74
109 99 85
100 73 62
83 39 35
83 38 34
146 130 113
146 134 115
161 147 128
157 143 124
162 147 129
156 142 123
155 142 123
154 141 123
155 142 124
158 144 126
152 139 121
158 145 128
152 140 122
154 141 124
145 134 117
149 137 121
148 136 120
145 134 118
139 130 114
143 133 119
129 122 107
134 125 111
127 120 106
115 111 96
122 117 103
116 112 98
121 116 102
113 109 94
113 109 94
110 107 93
108 105 90
112 108 94
113 109 94
101 100 84
103 100 86
88 88 73
51 61 51
35 53 43
34 54 43
37 58 47
35 54 44
35 54 44
38 60 49
35 55 44
36 57 46
37 58 47
36 56 45
37 58 47
40 63 51
38 61 50
36 57 47
35 56 45
38 60 49
38 60 49
34 55 45
35 56 46
35 56 45
38 61 50
36 58 48
35 56 46
42 66 54
36 57 47
37 59 48
33 53 44
36 57 46
39 61 50
41 65 53
40 64 52
42 67 55
44 69 56
42 66 53
47 73 59
44 70 56
41 64 52
43 67 54
42 65 52
49 76 61
50 77 61
47 73 58
45 70 55
49 75 60
49 75 60
54 82 65
49 76 60
49 75 59
58 89 70
52 79 62
51 78 61
53 81 63
53 82 64
60 92 71
52 79 62
56 86 67
55 84 66
54 82 64
59 89 70
63 95 74
59 90 70
61 92 72
59 89 69
62 93 72
65 98 76
61 91 71
60 91 70
66 100 77
58 88 68
60 91 70
70 105 81
58 87 68
62 93 72
64 97 75
60 90 69
58 88 68
65 97 75
59 89 69
57 86 67
60 91 70
60 90 69
57 86 67
61 91 71
57 86 67
60 90 70
66 100 77
59 89 69
68 103 80
63 95 74
68 102 79
63 95 73
67 100 78
68 102 79
79 119 93
64 97 76
63 94 73
68 102 79
58 87 68
69 104 81
60 91 71
59 89 69
66 100 77
65 97 75
63 95 73
69 104 80
65 98 76
66 100 78
61 92 71
59 89 69
64 97 75
61 92 71
68 102 79
69 104 81
67 101 78
61 92 72
68 103 79
66 99 76
61 92 71
68 103 79
65 98 76
63 95 74
64 97 75
61 92 71
63 95 74
61 93 72
64 97 75
63 94 73
64 97 75
63 95 74
64 97 75
65 98 76
69 104 81
68 102 80
64 97 75
58 88 68
60 91 71
65 98 76
58 88 68
68 103 80
70 106 82
67 101 79
68 103 80
61 91 71
57 86 67
67 101 78
62 93 72
59 89 69
66 98 76
63 94 73
70 105 81
65 98 76
69 104 80
74 110 85
62 94 73
66 99 76
61 92 71
65 97 75
63 95 73
67 100 77
64 95 74
65 98 75
68 102 79
71 106 82
70 106 82
64 97 75
64 95 74
65 97 75
69 103 79
60 91 71
61 92 72
64 97 75
68 101 78
66 99 76
68 102 79
67 101 78
75 112 86
69 104 81
67 100 78
63 94 73
67 100 77
70 105 81
69 103 80
72 108 83
70 104 81
73 109 84
69 103 80
66 99 77
63 95 73
60 90 70
67 100 77
66 99 77
66 99 76
70 104 81
62 94 73
71 106 82
66 99 77
72 108 83
72 107 82
66 98 76
71 106 81
69 103 79
65 97 75
64 97 75
65 98 75
136 138 116
200 176 156
210 185 165
217 191 170
221 195 175
219 194 173
227 201 181
231 204 185
231 205 185
235 208 189
237 210 190
238 211 191
238 211 191
238 211 191
238 211 192
237 211 192
237 211 192
237 211 192
236 210 192
237 211 192
238 212 193
238 212 194
239 213 194
239 213 194
237 212 193
236 211 192
234 209 191
232 208 190
232 207 190
230 206 189
230 206 188
230 206 188
229 205 187
228 204 187
228 204 186
227 203 185
225 202 185
225 201 184
214 191 178
62 59 116
58 56 114
58 55 114
57 55 113
55 53 109
55 53 108
54 52 106
54 51 105
50 48 98
51 49 100
50 47 97
48 46 93
45 44 89
43 41 82
40 39 78
46 60 72
61 91 70
65 97 74
66 99 76
66 99 76
60 90 69
68 101 78
59 89 68
66 99 76
59 89 69
69 103 80
68 101 78
69 104 80
68 102 79
65 98 75
69 104 80
60 89 69
65 97 75
62 93 72
66 99 76
67 100 77
66 99 76
64 95 73
59 88 68
58 88 68
65 97 74
59 88 68
69 103 80
61 91 71
61 92 71
68 102 79
60 91 70
70 104 81
61 92 71
65 97 75
58 87 67
66 100 77
64 96 74
67 100 77
74 111 85
68 101 78
69 104 81
64 96 74
62 93 72
66 99 76
63 95 73
61 92 71
65 97 74
64 96 74
69 103 79
64 96 74
68 102 78
66 98 75
66 99 76
73 109 84
60 91 70
57 86 66
65 97 74
63 95 73
63 94 72
63 93 72
62 93 72
64 96 74
65 97 75
66 99 76
64 95 73
65 98 75
70 104 80
65 97 75
61 92 71
66 99 76
67 99 75
60 90 70
64 96 73
66 98 75
60 89 68
65 96 73
65 97 74
67 99 76
64 96 74
68 101 77
62 92 70
65 96 73
56 83 63
58 87 66
72 106 81
62 92 70
68 101 77
58 86 65
61 91 69
63 92 70
61 89 68
61 90 69
59 87 66
58 66 50
95 93 74
107 101 81
120 112 92
123 115 95
122 114 95
72 67 55
101 94 79
83 56 48
78 36 32
77 36 32
126 108 94
147 135 116
147 135 116
151 138 120
147 135 116
149 136 118
152 140 121
151 139 122
149 136 119
150 139 121
146 134 117
149 137 121
137 127 110
148 137 121
141 131 115
131 123 106
140 130 114
134 125 110
134 126 111
128 121 106
134 125 111
126 119 105
121 116 101
116 111 97
110 107 92
115 111 97
113 109 95
112 108 93
108 106 90
106 103 88
102 100 85
104 102 86
105 102 87
96 95 80
89 89 74
69 74 62
30 47 38
35 54 45
31 49 40
31 48 40
33 53 43
32 50 41
37 58 47
33 52 42
35 54 44
36 57 46
36 57 46
37 59 48
32 50 41
36 57 46
37 58 48
37 59 48
38 61 50
37 59 48
39 61 50
34 55 45
37 59 48
38 60 50
37 60 49
42 67 55
36 57 47
42 67 55
40 63 52
36 58 47
39 63 51
37 59 48
41 64 52
42 67 54
39 61 50
42 66 53
46 72 58
50 79 63
48 75 60
46 72 58
39 61 49
47 73 58
49 76 60
44 67 53
52 80 64
48 73 58
53 81 64
49 75 59
52 79 62
50 76 60
54 83 65
54 82 64
51 78 61
56 85 67
56 84 65
53 80 62
58 88 69
57 87 68
59 89 70
58 88 69
59 90 70
57 86 67
55 84 65
61 91 71
56 85 66
55 83 65
69 103 80
61 92 71
64 96 74
60 91 70
66 99 77
61 92 71
68 103 79
61 91 71
57 87 67
60 91 71
62 94 73
64 96 75
63 95 73
66 99 77
67 101 78
64 97 75
62 94 73
59 89 69
64 96 74
60 91 70
61 91 71
65 97 75
64 97 75
70 105 81
65 98 76
61 92 71
65 98 76
63 94 73
67 100 78
61 92 71
59 89 69
62 93 72
64 96 75
63 95 74
69 105 81
63 95 74
62 94 73
66 100 77
66 99 77
65 99 77
69 105 81
68 102 79
64 96 74
66 100 77
66 99 77
61 91 71
56 85 66
62 93 72
65 98 76
64 96 74
66 100 77
64 96 75
58 88 68
58 87 68
64 96 75
62 93 72
62 93 73
64 97 75
63 96 74
66 99 77
65 98 76
60 91 71
62 94 73
68 102 79
70 105 82
64 97 75
63 95 74
58 87 68
68 102 80
63 94 73
61 91 71
63 95 74
65 99 77
64 97 75
62 93 72
65 99 77
67 101 79
61 92 72
64 97 76
62 94 73
56 85 66
65 98 76
66 100 78
68 102 79
66 99 77
67 101 79
61 92 71
65 97 75
60 91 70
65 97 75
66 99 77
59 88 69
65 97 75
66 99 77
65 98 75
65 98 76
61 92 71
66 99 77
68 102 79
65 98 76
70 104 81
64 97 75
67 100 78
65 98 76
62 92 71
67 100 77
65 98 76
64 97 75
63 94 72
63 94 73
69 103 79
60 90 70
72 107 83
70 106 82
68 101 78
68 101 78
64 96 74
68 102 79
66 99 77
67 100 78
63 95 73
63 95 73
71 106 82
67 100 77
67 100 78
68 101 79
67 101 78
61 92 71
67 100 77
65 98 75
59 89 68
71 107 83
61 92 71
63 94 73
64 97 75
65 98 76
65 97 75
64 96 74
65 98 76
63 95 73
63 95 73
160 148 128
199 177 156
209 184 164
216 190 169
221 195 174
223 198 178
226 200 179
227 201 181
229 203 183
232 206 186
236 209 189
237 210 190
236 209 190
236 209 190
236 210 191
236 210 191
237 210 191
235 209 191
234 209 191
235 209 191
234 209 191
235 210 191
235 209 191
234 209 191
233 208 190
233 208 190
232 207 189
232 207 189
231 206 188
230 205 188
229 205 187
229 204 187
228 204 186
227 203 186
226 202 185
226 202 184
224 200 184
224 200 183
199 177 169
58 56 114
57 55 113
57 55 113
56 54 111
54 52 106
54 52 107
53 51 104
53 50 103
52 50 101
49 47 95
48 46 94
47 45 92
46 44 89
43 41 84
38 37 73
36 41 67
62 93 71
65 98 76
63 93 72
68 102 78
64 95 73
65 97 74
63 94 72
67 100 77
68 102 78
68 102 78
62 93 72
62 94 72
68 101 78
71 106 82
62 92 71
65 97 74
66 100 77
62 93 72
60 91 70
64 96 74
64 96 74
62 93 72
67 101 78
70 104 80
65 97 75
62 93 72
68 102 79
64 95 73
65 97 75
72 107 83
62 93 72
60 90 70
64 95 73
64 95 74
62 92 71
66 99 77
64 96 74
61 91 71
62 93 72
67 100 77
70 104 80
70 105 81
66 100 77
69 104 80
63 95 73
66 99 76
65 97 75
67 101 78
66 99 77
64 95 73
61 92 71
62 93 72
64 96 74
66 99 77
71 106 81
65 97 75
68 103 79
69 102 78
67 100 77
60 91 70
58 87 67
63 95 73
72 108 83
62 93 72
64 96 74
72 107 82
62 93 72
64 96 74
69 102 78
69 103 78
60 89 69
62 93 71
63 95 73
64 96 73
71 105 81
63 94 73
65 97 74
58 86 65
61 91 69
60 89 68
65 96 73
64 95 72
64 96 73
69 102 77
64 94 71
63 93 71
64 94 71
64 95 72
66 97 74
62 92 70
65 96 72
63 93 71
63 93 70
57 83 62
61 62 48
94 91 70
109 104 84
108 102 82
113 107 88
27 24 21
114 107 89
78 49 42
71 34 30
74 34 31
94 74 63
137 127 108
133 124 105
139 129 111
143 132 114
145 134 116
134 124 106
141 130 112
135 126 108
139 129 112
137 128 111
135 126 109
137 127 111
138 129 113
132 124 108
129 122 106
120 114 98
128 120 106
118 113 98
128 121 107
123 117 103
113 109 94
113 109 94
111 108 93
110 107 92
108 106 90
111 108 93
109 106 91
103 101 85
100 100 83
98 97 81
93 93 77
94 93 77
86 87 71
74 77 62
33 49 40
29 45 36
33 51 42
31 50 40
30 48 39
32 50 41
33 52 42
36 57 47
34 53 43
33 52 42
35 55 45
33 53 43
32 51 41
34 54 44
38 60 49
37 59 48
39 62 50
38 59 48
36 57 47
35 56 45
35 55 45
36 58 47
37 59 49
38 61 50
39 62 51
40 63 52
40 64 52
39 63 51
36 56 46
36 57 47
41 65 53
41 64 52
41 63 51
42 66 54
42 67 54
47 73 59
47 74 59
46 71 57
45 70 56
47 73 58
48 74 59
48 74 59
53 81 64
53 80 63
48 73 58
52 80 63
48 73 57
55 83 65
54 82 64
52 79 61
56 85 66
57 86 67
60 90 71
53 80 63
63 95 74
60 90 70
63 95 74
62 94 73
61 92 72
54 82 64
57 86 66
56 85 66
61 92 71
61 92 71
64 96 74
58 87 68
60 90 70
64 96 74
63 95 73
59 89 69
63 95 73
63 95 74
62 93 72
60 90 70
59 89 69
65 97 75
68 102 79
65 98 76
65 98 76
65 97 75
68 102 79
61 92 72
61 91 71
61 92 71
58 87 68
63 94 73
60 90 70
63 95 74
68 101 78
62 93 72
63 94 73
64 97 75
63 94 73
59 89 69
59 89 69
67 100 78
66 99 77
61 92 71
64 96 75
57 87 67
61 93 72
58 87 68
61 93 72
60 91 71
61 91 71
59 90 70
60 91 71
64 97 75
67 101 78
69 104 81
63 95 74
62 93 72
63 95 74
68 102 79
64 96 75
58 89 69
71 107 83
62 94 73
60 91 70
59 90 70
64 96 75
60 90 70
68 103 80
62 93 73
63 94 73
60 90 70
64 97 75
64 96 75
64 97 75
63 96 74
61 93 72
63 96 74
59 89 69
62 94 73
67 102 79
63 95 74
59 89 69
59 89 69
64 97 76
68 102 80
62 94 73
64 97 76
58 88 69
63 95 73
64 97 76
60 91 70
66 100 78
63 96 74
65 98 76
65 98 76
68 102 79
62 93 72
73 109 84
70 105 81
69 103 80
67 100 78
66 99 77
62 93 72
68 102 79
62 94 73
68 102 79
71 106 82
64 96 74
64 96 75
66 99 76
70 105 81
67 100 77
66 99 77
68 103 80
73 109 84
68 101 78
69 104 81
63 95 74
61 92 71
64 97 75
68 102 79
61 92 71
66 100 77
68 103 79
65 98 76
68 102 79
65 97 75
66 99 77
67 101 78
69 104 80
65 97 75
63 95 74
62 93 72
60 90 69
63 96 74
62 93 72
65 97 75
65 97 75
64 96 74
65 98 76
69 103 80
62 92 72
65 97 75
67 100 77
72 108 83
65 97 75
69 104 80
69 104 80
74 111 86
69 104 80
70 100 78
183 164 143
206 182 161
211 187 167
214 190 169
216 192 172
224 199 179
224 199 178
228 202 183
229 203 183
230 204 184
232 206 186
234 208 188
234 208 189
235 209 189
234 208 190
235 209 190
235 209 190
235 209 190
234 208 190
233 208 190
233 208 190
233 208 189
232 207 189
232 207 189
232 207 189
231 206 188
231 206 188
231 206 188
229 205 187
229 204 187
228 204 186
228 203 186
227 203 185
226 202 185
225 201 184
225 201 183
223 200 183
222 199 182
171 153 156
57 55 113
57 54 111
56 54 110
55 53 108
55 53 108
54 51 105
52 50 102
52 50 101
50 48 98
50 47 96
47 46 93
47 45 91
44 42 85
42 40 81
38 37 73
34 33 65
55 81 67
71 107 82
61 92 71
60 89 69
66 99 76
68 103 79
65 98 75
66 98 75
67 100 78
65 97 75
71 106 82
66 99 76
65 97 74
71 106 82
66 99 76
65 98 75
63 94 72
61 92 71
74 110 85
62 93 72
69 104 80
63 95 73
67 101 78
62 93 72
73 109 84
67 101 78
61 92 71
64 96 74
70 104 81
69 103 80
63 95 73
62 93 72
66 99 76
67 100 77
66 99 76
61 92 71
65 97 75
66 99 76
63 95 73
60 90 70
58 86 67
64 95 74
68 101 78
67 101 79
68 102 79
61 92 71
64 95 73
68 102 79
65 98 75
65 97 75
62 93 72
58 88 68
63 95 73
61 92 71
66 98 76
62 93 72
66 100 77
69 104 80
61 92 71
69 102 79
68 102 78
63 94 73
63 95 73
59 88 68
70 105 80
66 98 76
66 98 75
62 93 71
66 98 76
66 99 76
62 92 71
63 95 73
68 102 78
62 93 71
66 98 75
66 99 75
67 99 76
57 85 64
61 91 69
63 93 71
65 96 73
61 91 69
70 103 78
59 87 66
62 92 70
61 91 69
64 95 73
61 90 69
55 81 61
61 91 69
64 94 71
54 80 61
63 94 71
56 83 63
57 77 57
47 48 34
73 70 56
85 82 66
45 44 34
52 50 42
106 97 81
60 29 25
68 32 28
64 31 27
73 41 35
125 117 99
128 120 102
127 119 101
133 124 107
138 128 111
129 120 103
130 122 105
133 124 107
128 121 104
126 119 102
122 116 98
120 114 98
123 117 101
126 119 103
118 113 97
110 107 92
118 114 99
117 112 97
122 117 101
111 108 92
111 108 92
103 102 86
106 104 88
106 105 88
105 103 87
99 99 83
101 100 84
97 97 80
91 93 76
98 97 80
96 95 79
85 87 70
83 85 69
47 59 48
29 45 36
31 48 39
31 48 39
34 53 43
32 51 41
34 53 43
34 54 44
37 58 47
37 58 47
35 55 45
31 49 40
36 58 47
37 58 48
39 60 49
33 52 43
36 57 46
34 55 44
38 59 48
35 56 46
37 58 48
33 53 43
36 58 47
36 58 47
38 60 49
38 60 49
40 63 51
39 62 50
38 60 48
40 63 51
40 63 50
40 63 51
47 73 59
45 70 56
43 67 54
44 68 54
46 72 57
51 79 62
49 76 60
47 72 57
47 72 57
51 78 61
52 80 63
58 89 70
51 79 62
51 78 61
54 81 64
54 83 65
52 80 62
57 86 67
59 90 70
59 89 69
61 92 72
64 97 76
62 93 72
61 92 72
58 88 69
59 89 69
60 91 71
62 93 72
63 94 73
57 86 67
63 95 74
62 93 72
65 98 76
57 85 66
60 90 70
62 93 72
63 95 73
66 99 76
59 89 69
66 100 77
61 92 71
63 94 73
61 92 71
62 94 72
69 103 80
60 90 69
64 96 74
63 95 74
60 91 70
60 90 70
63 95 74
67 100 77
62 94 72
63 94 73
65 97 75
71 107 83
67 100 77
64 97 75
64 96 74
61 91 71
61 91 71
62 94 72
58 88 69
56 84 65
59 90 69
65 98 76
63 95 73
71 107 83
65 98 76
68 101 78
63 95 74
67 101 78
67 101 78
64 97 75
65 98 76
67 101 78
68 102 79
60 90 70
62 93 72
61 92 71
69 104 81
63 95 73
66 100 78
61 91 71
58 88 69
68 102 79
70 105 81
61 92 71
59 89 69
62 94 73
68 102 79
61 91 71
63 95 73
61 92 72
63 95 74
60 91 71
70 106 82
61 91 71
63 95 74
60 90 70
64 96 74
65 97 75
57 87 67
65 99 76
63 95 73
63 95 74
62 93 72
61 92 71
65 98 76
59 89 69
68 103 80
64 96 74
57 86 67
62 94 73
65 99 77
62 94 73
57 87 67
57 86 67
67 100 77
65 98 75
62 93 72
69 103 80
61 91 71
68 102 78
66 99 77
64 96 74
67 100 77
61 91 71
68 102 79
64 96 74
66 100 77
66 100 77
68 102 79
61 91 71
61 92 71
69 103 80
68 102 79
66 99 77
59 88 68
60 90 69
66 100 77
63 94 73
67 101 78
66 99 77
60 91 71
70 105 81
63 95 74
71 106 82
63 95 73
64 96 75
68 102 79
67 100 78
62 94 73
70 106 82
70 104 80
61 92 72
62 92 72
64 97 75
67 100 77
63 95 74
64 96 74
64 97 75
58 88 68
67 101 78
70 104 80
66 99 77
65 98 76
67 99 77
69 104 80
68 102 79
65 97 75
63 94 73
65 97 75
65 97 75
94 111 90
191 169 149
200 177 157
205 181 161
210 186 165
217 192 172
220 195 175
223 198 178
227 201 181
226 201 181
229 203 183
230 205 185
230 204 185
231 206 187
233 207 188
234 208 189
234 207 189
232 207 189
233 207 189
232 207 189
232 207 188
232 207 188
231 206 188
231 206 188
232 206 188
230 205 188
230 205 187
229 205 187
229 204 187
228 204 186
228 203 186
227 203 185
227 202 185
225 201 184
224 201 184
223 200 183
223 199 182
222 199 182
221 197 180
141 127 141
57 55 113
56 54 111
56 53 109
53 52 106
54 52 108
53 51 104
52 50 102
50 48 96
49 47 94
49 47 95
45 44 88
45 44 89
44 42 85
42 41 82
38 37 74
33 33 66
56 81 70
71 106 81
63 94 72
65 97 75
71 106 82
72 108 83
61 91 70
66 99 76
63 95 74
61 91 71
60 90 69
61 91 70
61 91 70
71 106 81
60 90 70
65 97 74
67 100 77
63 95 74
64 96 74
69 103 79
62 93 72
63 95 73
66 99 76
62 93 72
62 92 71
60 90 70
57 86 66
62 93 72
64 95 73
62 93 72
60 90 69
64 95 74
67 100 77
71 106 82
70 104 80
60 90 70
68 101 78
69 104 80
68 102 79
65 98 75
58 86 66
66 98 75
67 100 77
63 94 73
58 88 68
62 92 71
62 93 72
68 101 78
65 97 75
64 96 74
63 94 72
71 106 82
63 95 73
63 95 74
61 92 71
68 102 79
62 93 72
66 99 77
59 89 69
70 105 80
67 100 77
66 98 76
67 100 78
63 94 72
64 96 74
62 93 72
65 97 75
65 97 75
65 97 74
60 90 69
64 95 73
67 100 77
62 93 72
61 90 69
62 93 71
61 90 69
61 91 70
62 93 71
58 87 67
68 100 77
64 95 73
62 91 70
67 99 76
57 84 64
55 82 62
62 91 69
62 91 69
62 92 70
59 88 67
63 93 70
56 82 62
58 85 64
67 98 73
57 85 64
62 91 69
52 65 49
52 52 37
44 46 34
45 47 35
85 84 66
72 57 46
56 28 23
57 28 23
61 30 25
62 30 26
89 79 64
119 113 94
116 111 93
127 119 102
117 112 94
116 111 93
118 113 96
119 113 96
119 114 97
115 111 94
115 111 94
122 116 101
116 111 95
112 109 93
116 112 96
111 107 92
111 107 92
115 111 96
105 103 87
105 103 87
108 106 90
99 98 82
96 96 80
105 103 87
107 104 88
99 98 82
100 99 83
91 92 75
99 98 81
97 95 79
85 86 70
80 82 66
64 71 58
32 51 41
28 45 37
29 45 37
32 49 40
28 44 36
32 51 41
33 52 42
32 50 41
33 52 42
33 52 42
37 58 47
33 52 43
38 59 49
33 53 43
32 52 42
36 57 46
37 59 48
37 59 48
34 54 44
33 53 43
34 55 45
33 53 43
39 62 51
38 60 49
38 61 50
34 53 43
38 61 49
36 56 46
41 65 53
43 68 55
44 69 55
43 68 55
45 70 56
46 72 58
49 76 61
48 75 60
47 72 57
54 82 65
50 77 61
53 82 64
58 89 70
52 79 62
58 89 70
54 82 64
54 83 65
59 89 70
57 86 67
51 77 60
59 89 70
61 93 72
59 89 69
58 87 68
57 87 68
59 90 70
58 88 68
57 86 67
61 91 71
66 100 77
66 99 77
65 98 76
55 83 65
70 104 80
58 87 68
63 95 73
63 95 74
61 92 71
59 89 69
64 96 74
59 89 69
68 102 79
58 87 67
65 98 76
70 105 81
59 89 69
63 95 73
61 92 71
68 103 80
62 93 72
59 88 68
67 101 78
63 95 73
66 99 77
62 94 73
66 100 77
65 98 76
59 89 69
66 100 77
66 100 77
57 85 66
67 101 78
68 102 79
58 88 68
62 93 72
68 103 79
58 87 68
61 92 72
61 92 71
61 92 72
59 88 68
64 96 75
63 96 74
65 98 76
63 95 74
65 98 76
65 97 76
64 96 74
65 98 76
64 97 75
66 99 77
61 92 71
62 94 73
61 92 72
67 101 79
61 91 71
59 89 69
62 93 72
62 94 73
67 101 78
60 90 70
67 100 78
69 104 81
62 94 73
63 95 74
65 98 76
61 93 72
64 96 74
70 105 82
61 92 71
58 87 68
63 96 74
62 94 73
65 98 76
64 96 75
63 95 73
63 95 74
66 99 77
67 101 78
68 102 79
66 99 77
60 90 70
64 97 75
64 97 75
64 97 75
64 96 75
64 97 75
61 92 72
63 96 74
59 89 70
63 96 74
60 90 71
64 96 74
65 97 75
66 99 77
64 96 74
70 105 81
69 104 80
63 95 74
68 102 79
65 97 75
60 90 70
65 97 75
68 103 79
67 101 78
62 94 73
64 97 75
71 106 82
61 92 71
64 96 75
76 114 88
73 109 84
76 113 88
64 96 74
72 108 83
64 96 74
63 95 74
63 94 73
63 96 74
66 100 77
74 111 85
69 104 81
66 99 77
67 101 78
63 95 74
64 96 74
60 90 70
68 102 78
65 97 75
63 95 73
60 90 69
62 94 72
60 90 70
64 97 75
73 109 84
71 107 83
60 91 71
72 109 84
62 93 72
67 101 78
73 109 84
64 96 74
61 92 71
59 88 68
65 99 76
64 96 74
65 97 75
65 97 75
127 126 106
189 168 148
199 176 156
202 180 160
208 184 164
216 192 172
214 190 170
221 196 176
222 198 178
225 199 180
227 201 181
225 200 180
227 202 183
229 203 183
231 205 186
231 205 187
231 206 187
232 206 188
232 206 188
230 205 187
231 206 187
231 205 187
230 205 187
230 205 187
229 204 187
228 204 186
229 204 186
228 203 186
227 203 185
226 202 185
226 202 185
226 202 184
225 201 184
224 200 183
224 200 182
222 198 182
221 198 181
220 196 180
217 194 178
109 99 127
56 54 110
55 53 109
55 53 109
54 52 106
53 51 105
52 50 103
52 49 101
50 48 98
48 46 94
47 45 92
45 44 88
45 43 88
42 41 82
40 39 79
36 36 71
35 34 68
48 68 66
62 92 71
68 101 78
67 101 78
68 102 79
61 91 70
62 93 72
61 91 70
63 94 73
69 104 80
66 99 76
70 105 81
70 106 81
67 99 76
69 103 80
64 96 74
61 91 70
65 97 75
62 94 72
65 97 75
65 98 76
62 93 72
61 91 71
67 100 77
63 94 72
64 95 73
67 101 78
65 97 75
61 91 71
64 96 74
64 96 74
59 89 69
65 97 75
63 95 73
60 90 70
62 93 72
65 98 76
66 98 76
66 100 77
68 102 79
68 101 78
67 101 78
60 90 70
69 104 80
63 95 73
67 101 78
60 91 70
59 89 68
66 99 76
70 105 81
65 98 75
64 95 73
61 92 71
65 97 75
65 97 74
68 101 78
68 101 78
71 107 82
65 97 75
60 89 68
68 102 78
70 104 80
62 92 71
60 91 70
61 91 70
64 96 74
69 103 79
62 92 71
70 105 81
61 92 71
64 95 73
63 94 72
61 91 70
58 87 66
65 97 75
59 88 67
58 86 66
59 88 68
58 86 66
59 88 67
68 101 78
63 94 71
59 87 67
59 88 67
63 93 71
60 89 68
69 102 77
62 91 69
59 87 66
62 92 70
64 93 70
61 90 68
54 79 59
56 82 61
56 82 62
53 78 59
45 46 35
60 52 41
61 57 42
54 43 31
50 25 21
46 24 18
55 27 23
57 28 24
56 28 23
64 45 36
103 100 82
108 105 87
117 111 95
105 103 85
106 103 86
114 110 94
101 100 83
113 109 93
113 109 93
100 100 83
102 101 85
104 102 86
101 101 84
107 105 89
103 102 86
100 99 83
98 98 81
109 107 90
101 100 83
98 98 80
91 92 74
101 100 83
96 96 79
93 94 76
89 90 73
98 98 82
83 86 68
87 88 71
87 88 71
77 79 63
59 67 53
30 47 37
36 56 45
34 54 44
29 46 37
35 55 45
31 50 40
32 50 41
29 45 37
32 50 41
32 50 41
35 55 45
40 63 51
33 51 42
33 53 43
36 57 46
37 58 48
36 57 47
38 60 49
38 59 48
34 54 44
41 64 53
37 58 48
36 58 47
37 58 48
38 60 49
42 66 54
43 68 55
40 63 51
44 69 55
45 71 57
47 73 59
41 63 51
46 71 57
45 69 55
49 76 60
50 77 61
50 77 61
55 84 66
50 76 60
48 73 57
53 81 64
57 86 68
49 74 58
59 90 70
58 88 69
60 91 71
60 91 71
52 79 62
55 82 64
55 84 65
53 81 63
56 84 65
53 79 61
64 97 75
59 90 70
61 92 71
58 87 67
54 82 63
57 86 66
57 86 66
57 85 66
62 93 72
61 91 71
61 92 71
60 90 69
64 96 75
59 88 68
62 94 73
60 90 70
59 88 68
58 87 67
64 96 74
63 95 74
63 95 73
58 87 67
60 90 70
58 88 68
67 101 78
67 101 78
60 90 70
61 93 72
66 99 77
64 97 75
61 91 71
59 89 69
59 88 68
60 90 70
61 91 70
59 89 69
63 95 73
69 103 80
58 87 67
62 94 73
72 108 84
67 102 79
68 103 80
59 89 69
68 102 79
61 92 71
69 104 81
65 98 76
58 88 68
62 94 73
63 94 73
70 105 82
69 104 80
66 99 77
64 96 75
63 95 74
69 103 80
64 97 75
66 99 77
61 91 71
60 91 71
62 94 72
64 97 75
59 89 69
60 91 70
65 98 76
60 91 71
67 101 78
64 97 75
62 94 73
68 102 79
65 98 76
65 99 77
69 105 81
66 100 78
59 89 70
62 94 74
63 95 74
61 91 71
71 106 82
66 99 77
57 87 68
60 90 70
63 95 74
68 102 79
62 94 73
63 95 74
61 92 72
58 88 69
66 100 78
58 87 68
68 103 80
62 94 73
63 95 74
63 95 74
60 90 70
62 93 72
61 92 72
63 95 73
73 109 84
69 104 80
65 97 75
65 97 75
66 99 77
63 95 73
65 98 75
66 100 77
65 97 75
68 102 79
58 87 67
63 94 73
61 92 71
71 106 81
65 97 75
67 101 78
69 103 80
70 105 82
75 112 86
66 99 77
64 95 74
64 96 74
64 97 75
73 109 84
71 107 83
66 99 77
69 104 81
62 93 72
74 111 86
66 99 76
69 103 80
70 104 81
64 96 74
64 96 74
68 102 79
62 93 72
61 92 72
61 92 71
63 95 74
61 92 71
63 94 72
72 108 83
63 94 73
61 92 71
70 105 82
67 101 78
67 101 78
62 92 71
70 104 80
65 97 76
63 94 72
65 97 75
64 95 74
66 99 76
64 96 74
135 132 112
186 166 147
190 169 149
203 181 161
204 181 161
211 188 168
213 190 170
217 193 173
220 195 176
219 194 174
222 197 178
225 200 181
227 201 182
228 203 184
229 203 184
229 204 185
228 203 184
230 205 186
230 205 186
231 205 186
230 205 186
229 204 186
229 204 186
229 204 186
227 203 185
228 203 185
227 203 185
226 202 185
226 202 184
226 201 184
225 201 183
224 200 183
223 199 182
223 199 182
222 198 181
221 197 180
221 197 179
216 193 176
203 182 169
56 54 110
55 53 108
55 52 108
54 52 106
53 51 105
50 49 99
51 49 101
50 48 98
49 47 96
47 45 92
46 45 90
44 42 85
43 41 83
41 40 80
38 37 74
36 36 72
31 31 61
54 72 73
64 96 74
64 95 73
59 88 68
57 86 66
64 96 73
64 96 74
65 98 75
70 105 81
66 98 76
68 102 78
63 94 72
65 97 75
63 94 73
68 102 79
64 96 74
62 93 72
67 100 77
63 95 73
66 100 77
64 95 74
66 100 77
65 98 76
60 90 70
66 99 76
61 91 70
64 96 74
67 100 77
68 103 79
67 100 77
67 100 77
63 95 73
67 101 78
68 102 79
68 102 79
61 91 70
63 94 73
66 100 77
68 102 79
69 103 79
66 99 76
65 97 75
75 112 86
67 100 78
65 98 75
64 96 74
63 95 74
72 109 84
67 100 77
61 92 71
68 102 78
62 93 71
65 97 75
63 95 73
66 99 76
63 95 73
72 108 84
66 99 77
64 96 74
64 95 74
59 89 69
63 94 72
69 103 80
60 89 68
61 91 70
64 97 75
66 99 76
62 92 71
65 97 74
60 90 70
67 99 76
68 101 77
62 92 70
65 96 74
64 95 73
61 90 69
57 86 66
62 93 71
67 100 76
61 90 69
65 97 74
64 95 72
64 95 72
58 86 65
57 85 64
61 90 69
60 88 67
68 100 75
66 97 73
60 88 66
60 89 67
61 90 68
57 85 65
55 82 61
58 86 65
53 78 58
46 68 51
38 34 25
42 22 17
42 22 17
47 24 18
45 23 18
50 25 20
55 27 23
52 26 22
49 25 20
81 77 63
94 94 76
97 97 79
85 88 69
99 98 80
102 101 84
104 102 86
97 97 80
101 100 82
100 99 82
98 97 81
108 105 89
91 93 75
93 94 76
87 90 71
98 97 80
95 96 78
92 93 75
85 89 70
92 93 76
93 94 77
98 97 80
92 93 75
87 89 71
78 86 66
77 88 68
86 87 70
73 78 59
80 82 66
73 81 65
48 69 55
29 45 36
29 46 37
38 59 47
30 47 38
30 47 38
34 53 43
37 58 46
33 51 41
31 49 40
31 49 40
35 55 45
35 55 44
35 56 45
33 53 43
37 59 48
39 63 51
36 57 47
35 56 46
39 62 51
36 57 46
36 57 47
33 53 43
45 71 58
36 57 47
38 59 48
45 71 57
41 64 51
40 63 51
47 73 59
42 65 52
43 67 54
43 67 53
47 73 58
44 68 54
51 79 62
47 72 57
52 80 63
50 76 60
53 81 63
49 74 58
52 78 61
49 74 58
51 78 62
57 87 68
54 82 64
53 80 62
60 91 71
55 83 65
56 85 66
56 84 66
60 91 70
63 95 74
64 96 74
54 82 64
57 86 66
57 86 67
61 92 71
59 88 68
60 91 70
60 90 69
61 92 71
57 86 66
60 91 70
77 115 89
62 94 73
61 92 71
64 96 74
68 101 78
59 88 68
57 86 66
61 91 70
63 95 74
61 92 71
62 94 72
66 99 77
65 97 75
65 98 76
68 102 79
61 92 71
66 100 77
63 95 74
63 94 73
66 99 76
64 96 74
59 88 68
61 91 71
64 97 75
61 92 71
60 90 70
61 92 71
66 100 78
64 96 74
63 95 74
57 86 66
60 91 71
63 94 73
63 95 74
64 96 74
57 86 66
66 99 77
69 104 80
59 89 69
58 87 68
59 90 69
63 94 73
60 91 70
57 86 67
69 103 80
64 97 75
64 97 76
63 94 73
67 100 77
65 97 75
62 93 72
64 96 75
63 95 74
61 92 72
73 110 85
63 95 74
65 98 76
71 106 83
70 105 82
63 95 74
64 97 75
67 100 78
57 86 67
60 90 70
60 91 71
66 99 77
62 93 72
64 97 75
64 96 75
61 92 71
60 91 71
62 94 73
57 87 67
65 98 76
59 89 69
65 98 76
64 96 75
68 102 79
59 90 70
63 95 73
63 96 74
68 102 80
71 106 82
62 93 73
74 112 87
61 92 72
66 99 77
66 100 78
74 110 85
69 104 80
70 106 82
62 93 72
66 99 76
72 108 83
74 111 86
75 112 87
67 100 77
64 96 74
63 96 74
66 99 77
68 102 78
74 111 86
68 102 79
60 90 70
62 93 72
66 100 78
69 104 80
70 105 81
67 100 78
65 98 76
65 98 76
69 103 80
62 93 72
65 97 75
66 99 77
66 100 77
67 100 77
68 102 79
66 99 77
69 104 80
69 103 80
72 108 83
67 101 78
71 107 83
64 96 75
58 87 67
68 102 79
67 100 77
73 110 85
64 95 74
68 101 78
66 99 76
67 101 78
68 102 79
69 103 80
69 103 79
68 103 79
64 96 74
65 97 74
62 93 72
65 97 75
63 94 73
66 99 76
67 100 77
145 138 119
181 161 141
192 171 151
196 174 154
203 181 161
206 184 164
211 187 168
212 189 169
218 193 173
221 196 177
218 194 175
223 198 179
225 200 180
225 200 181
225 200 181
227 202 182
226 201 183
228 203 184
228 202 183
229 203 185
229 203 185
229 203 185
228 203 185
228 203 185
226 202 184
226 202 184
226 202 184
225 201 183
225 201 183
225 200 183
224 200 182
222 199 182
222 198 181
221 197 180
218 194 176
218 195 177
217 194 177
212 189 172
161 144 145
54 52 107
54 52 106
54 52 106
53 51 105
52 50 102
51 49 100
51 49 100
49 47 95
48 46 93
46 44 89
45 43 88
43 42 86
42 41 82
42 41 83
36 36 71
34 34 69
31 30 59
54 64 68
64 96 74
68 102 79
62 93 72
57 86 66
66 98 76
70 104 80
67 100 76
67 101 78
63 95 73
60 90 69
64 95 73
62 92 71
76 112 86
63 94 72
63 95 73
60 90 70
62 93 72
63 94 72
65 98 75
65 97 75
65 97 75
65 98 75
64 96 74
63 96 74
65 97 75
65 98 75
62 92 71
69 103 79
66 100 77
64 97 75
64 95 74
61 91 70
63 94 73
66 99 76
59 89 69
62 94 72
61 92 71
59 88 68
60 90 70
66 100 77
65 98 75
67 100 77
65 97 75
61 91 71
68 101 78
64 96 74
66 98 76
71 106 82
66 99 77
65 98 76
63 95 73
67 100 77
66 99 77
70 105 81
66 99 76
68 102 79
69 103 79
66 99 76
64 96 74
63 94 73
67 100 77
68 101 78
60 90 69
62 92 71
77 115 89
69 104 80
61 91 70
70 104 81
64 96 74
60 89 69
64 96 73
68 102 78
67 100 76
59 88 67
67 100 77
64 95 72
64 95 72
67 100 76
62 92 70
59 88 67
64 95 72
61 92 70
59 87 66
58 86 65
61 90 69
59 87 66
57 84 64
61 91 68
55 82 62
60 89 67
71 105 79
61 90 67
61 90 68
54 79 60
53 78 59
47 70 54
44 65 49
40 42 32
42 22 16
43 23 17
43 23 18
48 24 19
51 26 21
48 24 19
50 25 21
53 32 26
89 88 70
94 94 76
88 90 71
89 91 72
92 92 74
94 95 77
97 97 79
89 91 72
95 96 78
96 96 79
91 93 75
95 95 78
96 96 79
93 93 76
84 88 69
94 95 77
89 91 73
93 93 76
82 85 67
84 87 69
87 89 71
83 86 67
75 80 61
71 88 68
77 88 69
76 79 62
68 73 55
59 71 53
62 85 67
42 62 48
32 52 42
30 47 38
32 50 41
30 47 38
32 51 42
32 50 41
30 47 37
35 55 45
33 52 42
34 54 44
34 53 44
36 57 46
38 61 49
34 53 43
35 56 45
34 55 45
35 56 45
34 55 45
35 55 45
34 54 44
36 57 46
41 64 52
39 61 50
40 62 50
38 59 48
40 62 50
41 64 51
44 68 55
47 72 58
49 76 60
47 72 56
43 66 52
43 66 52
45 68 54
50 76 59
49 74 58
48 74 58
53 80 63
51 78 61
53 80 62
51 77 60
57 85 67
61 92 71
54 83 65
54 82 64
68 102 79
56 84 65
58 87 67
56 84 65
63 94 73
67 101 79
62 93 72
56 84 65
62 93 72
66 99 76
59 89 69
59 89 69
68 102 80
61 92 71
63 94 73
60 91 70
61 91 71
63 94 73
64 96 74
62 92 71
61 92 71
62 93 72
63 95 74
62 94 73
60 91 70
67 101 78
59 89 69
60 90 69
60 90 70
60 90 70
61 92 71
61 92 71
66 100 77
65 98 76
63 94 73
68 102 79
65 97 75
64 97 75
66 100 77
64 97 75
62 93 72
59 89 69
60 90 70
64 96 74
66 99 77
67 101 78
64 97 75
61 93 72
67 101 78
61 92 71
65 98 76
66 99 77
64 96 74
69 104 81
63 95 73
60 91 70
60 90 70
65 98 76
61 91 71
61 91 71
64 96 75
64 96 75
63 96 74
63 94 73
66 100 78
69 104 81
64 96 75
59 89 69
58 87 67
58 87 68
67 101 78
64 97 75
61 92 71
63 95 74
58 88 68
68 102 80
61 92 72
63 95 74
66 99 77
59 89 69
61 93 72
67 100 78
62 94 73
64 97 75
59 90 70
68 103 80
63 95 74
67 101 79
67 100 78
61 92 72
66 99 77
67 101 78
63 96 74
60 91 71
64 97 75
66 100 78
63 95 73
58 88 69
64 96 75
65 98 76
74 112 87
58 87 68
57 86 67
65 98 76
63 96 74
64 96 74
70 105 81
59 89 69
68 102 79
71 106 82
65 97 75
71 106 82
70 105 81
69 104 80
66 99 77
66 100 77
78 116 89
64 97 75
63 95 74
67 100 78
70 105 82
68 102 79
66 99 76
60 90 69
71 106 82
59 88 68
60 90 70
70 106 82
62 93 72
63 94 73
66 99 77
65 97 75
64 96 74
65 97 75
64 96 74
68 102 79
64 96 74
70 105 81
61 92 71
65 98 75
70 105 81
77 115 89
68 103 80
64 96 74
64 96 74
63 95 73
63 94 73
60 90 69
59 89 69
75 112 86
66 98 76
61 92 71
69 104 80
75 112 86
71 106 82
61 92 71
63 95 73
63 94 73
65 96 74
68 102 79
69 104 80
64 97 75
152 141 122
182 162 143
190 169 150
197 175 156
198 176 157
201 179 159
207 185 165
209 186 166
209 186 166
216 192 173
218 194 174
220 196 177
216 192 173
220 195 177
222 197 179
223 198 180
222 198 180
224 199 181
225 200 182
225 200 182
225 200 182
226 201 183
224 199 181
226 201 183
225 201 183
225 200 183
222 198 180
223 199 181
223 198 181
222 198 181
221 197 180
218 195 177
218 194 178
216 193 176
214 192 175
214 191 174
212 190 174
208 186 170
112 101 126
54 52 107
53 51 104
53 51 104
51 50 101
51 49 101
50 48 98
50 48 98
48 46 94
47 45 91
47 45 92
43 42 84
42 40 81
41 40 80
39 38 76
37 36 73
33 33 65
31 31 61
54 66 65
63 93 71
62 92 70
61 92 71
63 94 72
63 94 72
63 94 72
62 92 71
69 103 79
67 101 78
65 97 75
65 97 75
66 99 76
65 97 74
62 93 72
61 92 71
65 98 75
67 101 77
64 96 74
64 95 74
67 100 78
70 105 81
62 93 71
61 92 72
64 96 74
68 101 78
61 91 70
68 102 79
61 92 71
64 96 74
63 94 73
62 93 72
65 98 76
69 103 79
66 99 76
65 97 74
66 99 76
72 108 83
70 104 81
64 96 74
65 98 76
66 99 76
67 101 77
68 101 77
66 98 76
66 99 76
65 97 75
65 98 75
58 87 67
61 91 70
68 101 78
63 94 72
64 95 73
65 98 75
60 90 70
60 90 69
60 90 69
63 95 74
63 95 74
64 96 74
66 99 76
60 90 69
66 99 76
65 97 75
64 95 73
66 99 76
68 101 78
62 91 70
63 95 73
64 96 73
71 105 81
67 100 77
65 97 75
62 94 72
61 91 70
66 98 75
62 92 70
67 100 76
62 93 71
57 85 65
61 91 70
57 85 65
62 93 71
61 91 69
64 95 73
63 94 71
59 87 66
58 86 65
59 88 67
59 87 65
67 99 75
65 96 73
64 94 71
57 85 64
50 74 56
48 70 53
49 72 55
41 61 46
39 57 43
35 35 26
39 21 15
41 22 16
44 23 17
45 23 18
43 23 17
47 24 19
47 24 19
62 53 42
81 84 62
84 87 66
88 90 71
92 93 74
93 94 75
91 92 73
86 88 70
87 89 71
86 89 70
84 87 68
87 90 71
92 94 75
91 93 75
80 84 65
84 87 69
83 86 68
83 86 68
84 86 68
74 80 60
76 81 61
76 82 62
71 83 63
66 92 69
65 85 64
62 69 50
63 73 56
65 88 68
60 83 65
28 46 36
26 43 34
34 55 44
32 50 40
32 50 40
34 54 44
32 50 41
33 52 42
37 58 47
34 55 45
35 56 45
33 53 43
38 60 49
38 60 48
32 51 41
34 53 43
37 58 48
41 64 53
36 57 47
35 55 45
38 60 49
40 63 51
37 59 48
39 61 49
38 60 48
49 76 61
43 67 54
42 65 52
45 70 56
48 74 59
54 82 65
46 71 56
50 77 60
49 75 59
54 83 65
57 87 68
55 83 65
52 78 61
56 85 67
56 85 66
55 83 64
61 92 71
57 87 67
58 88 68
57 86 67
58 87 67
59 89 69
54 82 64
57 86 67
62 92 71
59 88 68
61 92 71
58 88 67
64 97 75
67 101 78
58 88 68
62 93 71
68 103 79
63 95 73
59 88 68
67 101 78
65 97 75
62 93 72
65 98 76
60 91 70
63 95 73
65 97 75
66 98 76
62 94 72
63 95 74
57 86 67
69 104 80
67 101 78
58 87 67
62 93 72
60 90 69
68 103 80
61 92 71
61 91 71
65 97 75
58 87 67
57 85 66
59 89 69
64 96 74
61 92 71
64 96 75
66 98 76
62 94 73
61 93 72
74 112 87
60 90 70
65 98 76
71 107 83
64 96 75
65 97 75
60 91 70
62 94 73
64 97 75
69 104 80
72 109 85
67 101 78
59 89 69
62 94 73
64 97 75
60 90 70
60 91 70
66 99 77
63 95 74
64 97 75
67 101 78
68 103 80
59 89 69
62 93 72
65 98 76
60 90 70
68 103 80
62 94 73
63 96 74
65 98 76
68 102 79
62 93 72
60 91 71
62 94 73
61 91 71
60 91 71
61 92 72
60 90 70
66 99 77
62 93 72
66 99 77
68 102 79
64 96 75
62 94 73
62 93 73
64 96 75
60 91 71
64 96 75
65 98 76
62 94 73
66 99 77
66 100 78
70 106 83
65 98 76
61 92 71
63 95 74
64 97 75
66 100 78
63 95 74
60 91 70
60 91 70
65 98 76
62 94 73
